NicholasDascanio/dvrk_moveit_final/test/execution/third_experiment_notsharpbends/thirdexp_600vel5.0/thirdexp_600vel5.0_24.csv
Current Position (x),Current Position (y),Current Position (z), ,Planned Position (x),Planned Position (y),Planned Position (z), ,Position Error,,Cartesian linear Velocity(x),Cartesian linear Velocity(y),Cartesian linear Velocity(z),Cartesian Angular Velocity(x),Cartesian Angular Velocity(y),Cartesian Angular Velocity(z), ,Total Linear Velocity, ,Total Angular Velocity, ,MSE, ,Joint 1 Position,Joint 2 Position,Joint 3 Position,Joint 4 Position,Joint 5 Position,Joint 6 Position, ,Joint 1 Velocity,Joint 2 Velocity,Joint 3 Velocity,Joint 4 Velocity,Joint 5 Velocity,Joint 6 Velocity, ,Time Stamp
0.009337580023562553,0.02003909942514631,-0.0791052575651948, ,0.009506858769545212,0.019986798714122126,-0.07900724343851177, ,0.00020247821424670525, ,4.4932907698266454e-05,2.46780821563415e-05,1.1555378130504422e-05,0.04275866919888843,0.03548951775247011,0.17996986341445045, ,5.254998284371759e-05, ,0.055568063327444316, ,1.687318452055877e-05, ,0.05381972540047061,-0.16918190907563632,0.09326158405000001,3.813840692096529,1.1070289210995985,-0.25532216139430997, ,0.0006799691044160398,-0.00022592766845464397,0.0,-0.001344747579045359,0.0,0.18721626724077178, ,0.020144939422607422
0.009350820861746618,0.020044605071689703,-0.07908227544358647, ,0.009560368046875566,0.020015398767422782,-0.0791241865475611, ,0.00021568396240975027, ,0.0015692656625134237,0.0009800187303733807,0.002257274885035952,0.6179267846347748,-0.037043228055949076,1.121508979429575, ,0.0029186163396445956, ,0.6190361151935604, ,1.9007371666202524e-05, ,0.053889229996338626,-0.16918963180851057,0.09326547292000001,3.814050382040014,1.1100349240944383,-0.23964067496442654, ,0.006329410950235049,-0.0002685855459762181,0.001602615749327068,0.01413387388678438,0.43463352552879436,1.2173381094167706, ,0.03856801986694336
0.009393960295776506,0.020073455996628485,-0.07906179454919716, ,0.009613854863480433,0.020043632680625038,-0.07924094958796123, ,0.00028520094494529816, ,0.002601566421048129,0.0018691366592705014,0.0008561190564268039,0.6980848706448037,-0.3132495252522878,0.5099319715660021, ,0.003315834666103119, ,0.7651455754913287, ,2.1980097550054802e-05, ,0.054005070989451995,-0.169205077274259,0.0933458429,3.8150988317574366,1.1213757535749698,-0.21997408696147047, ,0.006703974521693186,-0.0009562355486436925,0.0054253445231607625,0.05836751356205635,0.7045695799906556,0.6381285733718297, ,0.05927586555480957
0.009435821711787425,0.020112550898026663,-0.07911867439225537, ,0.009667318970373822,0.020071502592267285,-0.07935753248724746, ,0.0003351553873682835, ,0.0012875042796243025,0.0010734784197673466,-0.007274470896726414,-0.23181614757686733,-0.09092529138873406,-0.7368123989260437, ,0.007465115539298552, ,0.24901031077273764, ,2.4726631165953266e-05, ,0.05419813931130761,-0.16922824547288168,0.09348584222,3.8153085217009206,1.1303937625594889,-0.2241421977399523, ,0.013185624782335802,-0.0015999702655795985,0.006749496406779663,0.009297725058415918,-0.08954715351323592,-0.7632832573929169, ,0.07852888107299805
0.009455637916930434,0.02010503220287263,-0.07932454261174357, ,0.009720760120270086,0.020099010635541266,-0.0794739351736064, ,0.0003043750638878587, ,0.001320607359933749,-0.000411426065210903,-0.010970421171339978,-0.47777387858432147,0.3804121834450398,-0.007107661235252229, ,0.011057278864297063, ,0.6107219565498127, ,2.5824876401113382e-05, ,0.05454566229064771,-0.1692359682057559,0.09359473058000001,3.8167763513053123,1.1187796600794262,-0.2350913609608969, ,0.02228150776202648,-0.0005628607993837001,0.005813434861313869,0.07707753132425463,-0.6232328541639689,0.03105065776997626, ,0.09750986099243164
0.009466553018709384,0.020106921643780334,-0.07939491644963129, ,0.009774178067581596,0.02012615893829796,-0.07959015757587395, ,0.0003648593449132066, ,0.001566256753025158,0.00034028330290155,-0.008335493604454864,-0.2109050516475458,0.1818361217661432,0.07522031555306771, ,0.00848819218517927, ,0.2784695960947366, ,2.7544401899533912e-05, ,0.054715562413880654,-0.16924369093863012,0.09364010073000001,3.8169860412487964,1.1156370205848212,-0.23440736019911218, ,0.020925455690952763,0.00045688482440764866,0.006038215132676271,0.027559122475892116,-0.29486991730202533,0.08774366627503025, ,0.12013387680053711
0.009535192723372204,0.020134924070306655,-0.07952680406805786, ,0.009827572568415606,0.02015294962305308,-0.07970619962353671, ,0.0003435020519079696, ,0.0028612744998486534,0.0008403295972522604,-0.004444920540913289,0.07532812206505929,-0.03907996926568342,0.04384146603845668, ,0.005352603498348742, ,0.08486206437460823, ,2.8489652356653778e-05, ,0.05536427197531551,-0.16925141367150434,0.0937995444,3.8176151110792502,1.1178232045810683,-0.2321877883913674, ,0.026807045637986096,-0.001021902207914385,0.005330927550200804,0.048688144384054756,0.06316146245344309,0.0998669521195488, ,0.1391298770904541
0.009583709822496005,0.020148622664175775,-0.07961127957278169, ,0.009880943380571473,0.02017938480699237,-0.07982206124673091, ,0.00036568157124704573, ,0.003403130772995,0.0011080700439523444,-0.006197661300080805,0.026870054081932538,-0.027876442145238114,-0.02902347738495342, ,0.007156823588082173, ,0.03871815883921554, ,2.9474835864952658e-05, ,0.05582763594776898,-0.1692977500687497,0.0938902847,3.818663560796673,1.1178232045810683,-0.2303908561082751, ,0.03287043351523061,-0.0028999385878617345,0.006801371272416739,0.059258099340983965,0.0175208906217352,0.03155733619595971, ,0.15897893905639648
0.009602519546189674,0.020156011879920447,-0.07964867236613152, ,0.009934290263537421,0.020205466601977463,-0.07993774237624246, ,0.0004428081403595872, ,0.0034252336317702487,0.001045896244956863,-0.006003773360953829,0.0160305041015228,-0.03521300395670753,-0.03272837238123646, ,0.006990809606699621, ,0.038690214545845536, ,3.142576572841434e-05, ,0.05603614973537304,-0.16930547280162392,0.09393046969,3.818663560796673,1.1178232045810683,-0.2303091773681345, ,0.03491425370068829,-0.0014636009674251934,0.00657129188118812,0.03987189929305465,0.01363416542414019,0.007593231381943118, ,0.17636489868164062
0.00971439874779156,0.02018269314532383,-0.07982397029938781, ,0.009987612978488205,0.020231197114551423,-0.08005324294350731, ,0.0003599508247351796, ,0.004164937047355845,0.0004946688636417698,-0.0068002254909874885,0.009991604487241106,-0.006986500515565968,-0.157316027922629, ,0.007989647340237858, ,0.012191937300598032, ,3.219695506020885e-05, ,0.057155946002135596,-0.1693595319317435,0.09411972803000002,3.820550770288034,1.1178232045810683,-0.2303091773681345, ,0.03427119594022057,-0.0011869275955024186,0.007188091841155235,0.16023669092964674,-0.0003588928014665558,0.0002926530148224242, ,0.19362092018127441
0.00978431541708622,0.020212260979783972,-0.079993481171938, ,0.010040911288281548,0.02025657844594404,-0.08016856288061065, ,0.0003137819045660133, ,0.0033597178729047467,0.0015928796681334663,-0.00907454266181249,-0.008010092294909676,-0.009112622899615192,-0.003618325413650629, ,0.00980674738859544, ,0.012132658947994292, ,3.241722395033851e-05, ,0.05786643742656425,-0.16940586832898885,0.09429602347,3.821179840118487,1.1174132950817721,-0.22981156617676413, ,0.033461544978304225,-0.002551061506496686,0.009386453459045376,0.030800846589600948,-0.023117039928734737,0.02624307471046308, ,0.2154369354248047
0.009848701453843626,0.0202347474364936,-0.0801254740409183, ,0.010094184957455826,0.020281612692077716,-0.08028370212028675, ,0.0002957949083863935, ,0.0029065035791320014,0.0008249481955658116,-0.004850615013973796,-0.010313675220689518,-0.01677986979343095,0.022970427703125518, ,0.005714610099968539, ,0.01969608905740212, ,3.245146033028213e-05, ,0.05856148338524446,-0.16941359106186307,0.09443472650000001,3.8213895300619716,1.1171400220822412,-0.22958873036937122, ,0.03309973545813421,0.0,0.00508745177898435,0.0,-0.019568455170317064,0.02274700030737312, ,0.23263001441955566
0.009913974873598116,0.020244375277024978,-0.08022233302036648, ,0.010147433752226705,0.020306301943572778,-0.08039866059591974, ,0.00029904744429727506, ,0.0029604176649602174,0.000800814707621961,-0.005313487101603858,-0.022770694477176216,0.03202403984573251,0.038244548783282296, ,0.006135024215588943, ,0.03929432084638352, ,3.25064548289021e-05, ,0.05917157928230819,-0.16945992745910843,0.09453324454,3.8232767395533322,1.116456839583414,-0.22845988966990516, ,0.030750791172544,-0.003452749306257558,0.005208898469587967,0.049738049502494615,-0.06176368654832281,0.0869278296606119, ,0.250277042388916
0.009965986809762864,0.020264994023115844,-0.08033812895660758, ,0.010200657440484475,0.020330648285753105,-0.08051343824154199, ,0.00030019016058148, ,0.0027256681312769304,0.0009530561663737953,-0.005443565594195532,0.005804744713150011,-0.02427033292357548,-0.0075072769303536225, ,0.006161979324570243, ,0.02495484154680513, ,3.256257296950034e-05, ,0.059750784247875034,-0.1694830956577311,0.09465120693000001,3.8232767395533322,1.1157736570845866,-0.22757608519086092, ,0.028150976433838855,-0.0007106737294370533,0.0058411483388338846,0.018324128166277594,0.0020225889500101978,0.011067490146532915, ,0.26958394050598145
0.009994848686366041,0.020275243904369508,-0.08039384382641178, ,0.010253855791790806,0.020354653798651527,-0.08062803499183503, ,0.00035810070361938436, ,0.00257890911661806,0.00125813782257265,-0.006223347846325809,0.0072036585876668275,-0.02020788628939589,-0.0010159436909137891, ,0.0068530096620923915, ,0.02145346955617413, ,3.301110777566504e-05, ,0.06002880263134711,-0.16950626385635376,0.09471213256000001,3.823696119440302,1.1159102935843521,-0.22776918183469774, ,0.025921043856452004,-0.0027544669188139114,0.0066370048000000004,0.016579023786530818,0.0,0.015795936531774, ,0.2862679958343506
0.01005534792042771,0.020294654944104106,-0.08054967757252586, ,0.010307028577376242,0.020378320557015783,-0.08074245078212888, ,0.0003278789383394144, ,0.0027345157264432062,0.001277152972239006,-0.008041358291296057,-0.04370807005559872,0.050039228429730936,0.027298610372556473, ,0.008589070912599335, ,0.06644034720111039, ,3.321097120656393e-05, ,0.060561671199668606,-0.1695526002535991,0.09486639107000001,3.825373638988178,1.1148172015862285,-0.22655112364456415, ,0.026448422953865878,-0.004616340074338438,0.007743710024307245,0.050561032444795206,-0.08693084834907965,0.07475765541846084, ,0.3066859245300293
0.010107493720336333,0.020328670252468442,-0.08071210486159269, ,0.010360175570136923,0.0204016506303136,-0.08085668554840213, ,0.00030012968491530096, ,0.0024422554145048314,0.001269012927338297,-0.006041008048071819,0.01000169194796819,-0.025065628968074655,-0.017733299011784564, ,0.006638432311645451, ,0.026987396861161795, ,3.342357562176633e-05, ,0.0610945397679901,-0.16962982758234135,0.09503490877000001,3.825373638988178,1.1144072920869323,-0.2259718337130533, ,0.02381951344339126,-0.0031131168017396456,0.006504210502245815,0.01846394759024338,0.007214861825185413,0.0006976281668594183, ,0.3258979320526123
0.010137304998615338,0.020339340694043043,-0.08076891156458287, ,0.01041329654463152,0.020424646082738446,-0.08097073922728165, ,0.0003523957267665586, ,0.0031417039954091735,0.0005996645663599192,-0.005531586463261276,0.011232057412887894,0.001765722612626506,-0.10651051161140604, ,0.006144738499129258, ,0.011369999335625278, ,3.3923617514662966e-05, ,0.06159651740481469,-0.16969933217820937,0.09514638971000001,3.8272608484795385,1.1144072920869323,-0.22580847623277212, ,0.024809657923783212,-0.003131386855156803,0.005847581321585905,0.12471957170323743,-0.0039646832223367645,0.016452292967960698, ,0.3419380187988281
0.010181685576863327,0.020350454451302548,-0.08085496659050212, ,0.010466391277078775,0.020447308973215072,-0.08108461175604217, ,0.0003783847726930763, ,0.0028805747632120993,0.0010918057699591858,-0.006548957201004902,0.001120610399300885,0.004916729302504292,-0.03554688752713624, ,0.007237305522524566, ,0.005042814953439108, ,3.452471769767293e-05, ,0.06174324932942495,-0.16972250037683204,0.09518527841,3.827470538423023,1.1141340190874014,-0.2254222829450982, ,0.02545518818628508,-0.004154306077203427,0.006801371272416739,0.07112061785667304,-0.019203533494482276,0.0344868697705556, ,0.35733604431152344
0.01024134482410935,0.02039005605083305,-0.08103999151326867, ,0.010519459545353957,0.020469641355405063,-0.08119830307260617, ,0.0003297638074389861, ,0.0024251229361788827,0.001502969329853307,-0.00725819640465589,-0.007649893236999934,-0.005644528638137044,0.004694852374855854, ,0.007798817417443511, ,0.009506921159889017, ,3.481270729905788e-05, ,0.062322454294991794,-0.16985378683569385,0.09537583304000001,3.8278899183099924,1.1134508365885742,-0.22404840602521037, ,0.02380159055893423,-0.004069658582537472,0.007520685325779038,0.01278877956449892,-0.020721610116138683,0.016503533257282807, ,0.3731260299682617
0.010273782586173171,0.0203996872537749,-0.08110852472088217, ,0.010572501128986275,0.020491645277712304,-0.08131181311554403, ,0.000372847445198502, ,0.0032540587230329397,0.0009143063196996645,-0.006835069226902087,0.0070365608538135865,0.00926587483848342,-0.09961188430890203, ,0.007625157411865895, ,0.011634844659630186, ,3.529902578774881e-05, ,0.06256958174696697,-0.1699001232329392,0.09544842528000001,3.8291480579708996,1.1134508365885742,-0.22404840602521042, ,0.025238548286827336,-0.004626757095752658,0.007123797638640431,0.12619804194341966,-0.013829224765976977,0.024458336905937548, ,0.38918304443359375
0.010327931372894405,0.02042996963348093,-0.08125831035514557, ,0.010625515809155684,0.020513322783288518,-0.0814251418240732, ,0.0003511936550001197, ,0.0028366635398822913,0.001604438289122427,-0.008072208758639489,-0.020030846400892442,0.024194708530551418,0.047318594013938974, ,0.008705253385465336, ,0.031410487008970575, ,3.563962701892767e-05, ,0.06311789578103692,-0.17000824149317836,0.09559879492000001,3.829567437857868,1.1123577445904507,-0.22274866909493624, ,0.028159329839308835,-0.005575787726337255,0.008114524462557312,0.025629097857369047,-0.05541868871961631,0.07199380636625001, ,0.40566086769104004
0.01035997476637953,0.0204469089413024,-0.08133820267994334, ,0.010678503368690194,0.020534675910038862,-0.08153828913805879, ,0.0003862617014568721, ,0.002995785960570265,0.0018209531088851341,-0.007943090927188761,-0.002065050667625336,-0.002142295209822501,0.029389627049230774, ,0.008682355511259416, ,0.002975538843120987, ,3.612126837752505e-05, ,0.06341908236313168,-0.17007002335617216,0.09568305377000001,3.829986817744837,1.1122211080906852,-0.2225555724510993, ,0.029860585764150654,-0.006714265562377912,0.00829193728266528,0.01729447956056092,-0.025861468677851027,0.0464371521930394, ,0.4210958480834961
0.010429477533649527,0.020473169751012918,-0.08147347945859391, ,0.01073146359206245,0.020555706690627482,-0.08165125499801273, ,0.00036001676112698403, ,0.0032145198393285675,0.0012703313958511162,-0.005807992033987097,0.0026521183893926147,-0.014556217770734754,-0.021772306249922217, ,0.006758672289701549, ,0.014795850807962863, ,3.6447170277097454e-05, ,0.06404462372594386,-0.1702090325479082,0.09582564567000001,3.8316643372927137,1.111811198591389,-0.22197628251958834, ,0.031887413158088296,-0.005361980543650354,0.006231929389671363,0.0400906060391547,-0.011680919235446133,0.017371842187192565, ,0.4367179870605469
0.010458473613450984,0.020486600832410527,-0.08153537129773955, ,0.01078439626538711,0.020576417152482828,-0.0817640393450933, ,0.0004081441194933265, ,0.0028394017582401166,0.0015453632783551275,-0.006772250858634607,-0.024284451272806092,0.012415385302555124,0.06526533263855931, ,0.007504247577143411, ,0.027274096714412114, ,3.712723217733587e-05, ,0.06434581030803861,-0.17026309167802778,0.09588916388,3.8318740272361977,1.1114012890920926,-0.22147867132821786, ,0.0314020322827501,-0.005412519907673857,0.006854049707401034,-0.006138175346273425,-0.05431669271874351,0.05819873214365907, ,0.44977402687072754
0.01052907991745533,0.02051637532385227,-0.08168652128966376, ,0.01083730117641775,0.02059680931780368,-0.08187664212110556, ,0.00037096617420928407, ,0.004195771311500963,0.0011974395111635913,-0.00850213342759034,0.006191327192639134,0.009939889571696735,-0.0909099342227454, ,0.009556392159275343, ,0.011710418125651873, ,3.76060060953011e-05, ,0.06500996533522192,-0.17039437813688957,0.09604601497000001,3.833132166897105,1.1107181065932652,-0.22051318810903286, ,0.034570834811829064,-0.005159980131047775,0.00886411325542571,0.13522433762302474,-0.02188557949461062,0.04227155669895269, ,0.4634130001068115
0.01056693802473494,0.020532756094292528,-0.08177247121797654, ,0.010890178114543726,0.020616885203563955,-0.08198906326850154, ,0.0003980879036557392, ,0.0038046942791786957,0.0018562495494558505,-0.00909757744356955,0.011466741910113185,-0.021787308824388167,-0.02184821799267145, ,0.01003430497292242, ,0.02462057947169833, ,3.817021471868449e-05, ,0.06535748831456202,-0.17044843726700915,0.09613675527000001,3.833761236727559,1.1105814700935,-0.2201567339849148, ,0.035528619078424105,-0.005452375367396142,0.009700859634591961,0.04551966860424003,-0.002688663192411003,0.023399650598316956, ,0.4781930446624756
0.010602286319729134,0.0205508357483057,-0.08186050593140716, ,0.010943026870787293,0.02063664682151891,-0.08210130273037801, ,0.0004259703766883656, ,0.003487317651544971,0.0018093210899490456,-0.007983293604178727,-0.0022919457340373275,-0.013950325511439925,0.045340639786845195, ,0.008897640360220933, ,0.014137346451708131, ,3.881565729452829e-05, ,0.06571273402677635,-0.17050249639712872,0.09622749557000002,3.8339709266710433,1.1101715605942037,-0.21965912279354444, ,0.03658324655299568,-0.005083151577952437,0.00841903357293869,0.0,-0.022536795574042156,0.04565290110707411, ,0.49135589599609375
0.010684001423769995,0.020576704070143104,-0.08202722014776222, ,0.010995847237800678,0.0206560961782103,-0.08221336045047882, ,0.0003717514369134854, ,0.004309105929086431,0.0012230167314464906,-0.008958649617162296,0.0032796800393748854,0.0014347627208748538,-0.0649065643127997, ,0.010016065434918446, ,0.003579774786348699, ,3.921107957062231e-05, ,0.06646183911557613,-0.17057972372587096,0.09639990214000001,3.8356484462189195,1.1094883780953764,-0.2185302820940785, ,0.03733160564849362,-0.0027248598905764625,0.009342411448680353,0.10779422347730014,-0.02027397214242825,0.04151500328904095, ,0.507706880569458
0.01069605180132609,0.020581105778290316,-0.0820540459387457, ,0.011048639009862861,0.020675235274971938,-0.08232523637319249, ,0.0004546672997970336, ,0.004145834547974915,0.0014541663153684733,-0.009215559195157545,0.002839291447354869,-0.0061904899612106705,-0.03842264097723592, ,0.010209264177764599, ,0.0068105561751964925, ,3.99041170429403e-05, ,0.06656995737581527,-0.17058744645874518,0.09642842052000002,3.835858136162404,1.1094883780953764,-0.21844860335393795, ,0.03736100061357117,-0.0029366307519554324,0.009647977904300425,0.07721564950829114,-0.017513378525427677,0.03792067763601854, ,0.5287148952484131
0.010787997929862769,0.020622243558948535,-0.08225626026942198, ,0.011101401982876832,0.02069406610793543,-0.0824369304435536, ,0.00036881199927519485, ,0.0028197504146174573,0.0008111876843380143,-0.003981856432477893,-0.007267016161400764,-0.02379445977678711,0.012645582921525615, ,0.004946129649415041, ,0.024879426017458958, ,4.02392600390999e-05, ,0.06749668532072221,-0.1706801192532359,0.09664230837000001,3.836277516049373,1.1090784685960802,-0.21762427720200533, ,0.03153770075057188,-0.0008416720846963563,0.004310909748308525,-0.005695676029494854,-0.011871464346041857,0.006596283682349713, ,0.5418908596038818
0.010861135695543811,0.020630185681309476,-0.08234108262668764, ,0.011154135954366255,0.020712590668035442,-0.08254844260724141, ,0.00036829050360087315, ,0.0042924023816035845,0.0001937242456292172,-0.005859766607985921,-0.0017574322441767515,0.03232403707509864,-0.12772339290449322, ,0.007266299745331702, ,0.03237177681277999, ,4.055537567168082e-05, ,0.06820717674515087,-0.170718732917607,0.0967291598,3.837955035597249,1.1082586495974873,-0.21662905481926453, ,0.03392811639559198,-0.0025119701333601364,0.005963613448146762,0.18720239010832132,-0.03795595715156753,0.05641912240363047, ,0.5551159381866455
0.010898082718334963,0.02063901972494709,-0.08241128734809655, ,0.011206840723472703,0.020730810941015303,-0.0826597728105797, ,0.0004068195646098966, ,0.003671102826541357,0.0011199031167301362,-0.007927691169696547,-0.001664356706554333,0.002456064369924849,-0.003740378610769672, ,0.008807920653365721, ,0.0029668677291416596, ,4.113925892375158e-05, ,0.06853925425874252,-0.17073417838335547,0.09680175204000001,3.8387937953711875,1.1079853765979566,-0.21624286153159056, ,0.03385549110184473,-0.0009198422060000472,0.008210727587628867,0.06012106355579733,-0.024755613417571626,0.05631025298768939, ,0.5673558712005615
0.01092974535842992,0.02065590063512903,-0.08249894497579593, ,0.011259516090952482,0.020748728907432682,-0.08277092100053791, ,0.00043742060102582925, ,0.003525483660618312,0.0018561574224225802,-0.010375056282179267,-0.011988365048269212,-0.010176113805519882,-0.020812076751906026, ,0.011113781907005762, ,0.015724950508672963, ,4.1805640208658294e-05, ,0.06885588630658573,-0.17075734658197814,0.09689249234000001,3.8387937953711875,1.1077121035984256,-0.2157749895037761, ,0.03220120175041425,-0.002769206268468001,0.010740938314227916,0.030732292352531356,-0.02415046922397224,0.008205870135727036, ,0.5787079334259033
0.010968927507605617,0.020677212977561803,-0.08262960261811068, ,0.01131216185917366,0.020766346542664908,-0.08288188712472871, ,0.0004352034981521033, ,0.0034911024157893997,0.0021749736619442735,-0.012500254097253907,-0.019730498040425145,0.015650699901974825,0.06550423990622813, ,0.013159584302081693, ,0.025184055573677862, ,4.243704314324786e-05, ,0.06918796382017738,-0.1707805147806008,0.09702082505000001,3.8392131752581564,1.107165557599364,-0.21508428166856847, ,0.0321793630242356,-0.0019433026388078383,0.012662012337042927,0.010342184320220193,-0.0507403191314751,0.07585396645315623, ,0.5898900032043457
0.01101262503143279,0.020690275989330327,-0.0827483038647075, ,0.011364777832113203,0.02078366581691456,-0.08299267113140957, ,0.0004386896579117324, ,0.004449438112449655,0.0010832310166513821,-0.011044697058520047,-0.009701209369985423,0.03197109985711161,-0.0919310276606877, ,0.011956430155629083, ,0.03341054511623459, ,4.305471897899365e-05, ,0.06951231860089481,-0.17079596024634924,0.09713619486000001,3.8404713149190632,1.1067556481000675,-0.21458667047719826, ,0.03387966496196743,-0.0007284786834509941,0.011273044246284503,0.16108293614596605,-0.05149319600216264,0.0668862919488166, ,0.6024918556213379
0.011088843146713857,0.020724591436695552,-0.08295769109919636, ,0.011417363815353526,0.020800688695215053,-0.08310327296948153, ,0.0003673019240806758, ,0.003715720644376739,0.0016789057942486149,-0.009426510664307743,-0.01212590835378265,0.002583568700206148,0.027970621622462444, ,0.010270560251384375, ,0.012398080746706558, ,4.341318480204205e-05, ,0.0702305327581977,-0.17083457391072038,0.09735915674000001,3.841519764636486,1.105935829101475,-0.21350976935431681, ,0.03564873837658557,-0.0027391943143520534,0.00970677118829982,0.02654817417160482,-0.037263968553947695,0.054126144721327436, ,0.6160249710083008
0.011123545305258723,0.020738650351808163,-0.08303757145630812, ,0.011469919616079937,0.020817417137436105,-0.08321369258848889, ,0.00039648205875633864, ,0.003451437457676974,0.0015341161824990823,-0.007802535289524398,-0.007618030913512697,-0.00637355499066864,0.02672166160385895, ,0.008668649833159419, ,0.009932601335985256, ,4.385190399541007e-05, ,0.07055488753891512,-0.1708654648422173,0.0974421193,3.8419391445234554,1.1056625561019442,-0.21304189732650225, ,0.03432077452385923,-0.0032963211930622485,0.008143564171779142,0.015387171397725509,-0.027619500724794827,0.04188072049689989, ,0.6272568702697754
0.011165653923094689,0.020747496863904914,-0.0831161641503459, ,0.011522445043077277,0.020833853098289282,-0.08332392993861981, ,0.0004218102953847381, ,0.004402138192744021,0.0006276518285436971,-0.007583918590355329,-0.004167287689366625,0.02739125190282309,-0.08632762017460853, ,0.008791392874341756, ,0.027706442254496064, ,4.435411561380335e-05, ,0.0709255787168779,-0.17088091030796573,0.09752248928000001,3.842987594240878,1.1052526466026478,-0.212544286135132, ,0.03600035719213611,-0.00200135062888881,0.007739947288629739,0.15237854516169258,-0.04027130943431423,0.06382584504246298, ,0.6392688751220703
0.011204043438156548,0.020755664522636434,-0.08318736556264293, ,0.01157493990672688,0.020849998527333373,-0.08343398497070503, ,0.0004552847760171727, ,0.0037806314917134217,0.0009712574222086596,-0.0073964677556247905,-0.007412452554286878,0.013375584885473525,-0.00820453029061159, ,0.00836326794478856, ,0.015292177796537191, ,4.494156928564917e-05, ,0.07125765623046955,-0.1709040785065884,0.09759508152000002,3.844036043958301,1.1048427371033516,-0.2119649962036212, ,0.03447037470340384,-0.0014507721639142133,0.007588762039066222,0.07315290024783884,-0.036817414759911765,0.06432900708131646, ,0.6569540500640869
0.011213655123780163,0.020759828330230778,-0.08320893090377532, ,0.011627404019003874,0.02086585536898017,-0.0835438576362185, ,0.0005427760102932594, ,0.003622178005173151,0.0015844098809591942,-0.008783659125012862,-0.006043682366027573,-0.02173184552748498,0.0008904075972611331, ,0.009632403427829579, ,0.022556576741315844, ,4.577427231790333e-05, ,0.0720917113808858,-0.1709349694380853,0.09779730276000001,3.844245733901785,1.1041595546045244,-0.21075447676401443, ,0.03504318373651063,-0.0011861486133167055,0.00923409363478261,0.012000262685696969,-0.014078868362383102,0.012361711584780142, ,0.6691930294036865
0.01133858191780183,0.020803459516264788,-0.08348418961161812, ,0.011679837193473656,0.020881425562499816,-0.08365354788727603, ,0.00038886513481308193, ,0.0048268038548760035,0.0006806100847660144,-0.008333389903618703,0.005718714916911907,0.009407525420576709,-0.1286130568758566, ,0.009654359265464756, ,0.011009323078672298, ,4.625473409935547e-05, ,0.07252418442184237,-0.17095813763670797,0.09790359854000001,3.8455038735626923,1.1038862816049935,-0.2104499622164811, ,0.03840426611026741,-0.0011924694303619577,0.008694766113537119,0.1669142021315154,-0.019988733905969225,0.03579853226237839, ,0.6784639358520508
0.01133858191780183,0.020803459516264788,-0.08348418961161812, ,0.011732239245289143,0.020896711042026367,-0.08376305567663642, ,0.000491353458072808, ,0.0048268038548760035,0.0006806100847660144,-0.008333389903618703,-0.005596392106725084,0.0065358747065236734,-0.04276838346357263, ,0.009654359265464756, ,0.011009323078672298, ,4.7024200926503485e-05, ,0.07290259833267937,-0.17097358310245642,0.09798656110000001,3.846762013223599,1.1036130086054625,-0.20998209018866643, ,0.03973908775480351,-0.0027665340413280228,0.009271717997671713,0.09276258610440027,-0.03362666103234669,0.04844995914654786, ,0.688417911529541
0.011428054688666457,0.020825976486985323,-0.08365944389160776, ,0.011784609991187724,0.020911713736563243,-0.08387238095769942, ,0.0004240574888348757, ,0.004026380199750122,0.0015337574840040892,-0.008867130512365307,-0.02231717979662384,0.012746391605368022,0.09319016197724625, ,0.009858506634171234, ,0.025700719021365948, ,4.757503615741416e-05, ,0.07333507137363594,-0.17098130583533064,0.09808378285000001,3.847181393110568,1.1030664626064008,-0.2091280248731781, ,0.041768020052143834,-0.001153310070222841,0.009019712072480182,0.0,-0.057894467434876334,0.09401825980528566, ,0.698328971862793
0.01147361892263368,0.020842273238278766,-0.08376111291687992, ,0.011836949249488065,0.02092643556998882,-0.08398152368450748, ,0.0004332125701975412, ,0.004719841760049918,0.0018177065193482078,-0.01134621315697871,-0.00968020662828207,0.0008172265660413344,0.03855501544826402, ,0.012422460152239929, ,0.00971463182959363, ,4.813635049480056e-05, ,0.07333507137363594,-0.17098130583533064,0.09808378285000001,3.847181393110568,1.1030664626064008,-0.2091280248731781, ,0.041768020052143834,-0.001153310070222841,0.009019712072480182,0.0,-0.057894467434876334,0.09401825980528566, ,0.7076609134674072
0.01147361892263368,0.020842273238278766,-0.08376111291687992, ,0.01188925684008719,0.020940878461062025,-0.08409048381174349, ,0.0005394099134873726, ,0.004719841760049918,0.0018177065193482078,-0.01134621315697871,-0.00968020662828207,0.0008172265660413344,0.03855501544826402, ,0.012422460152239929, ,0.00971463182959363, ,4.8982605908436176e-05, ,0.07376754441459252,-0.17099675130107908,0.09818878234000002,3.8476007729975374,1.1026565531071044,-0.20846705620152634, ,0.044448216186637364,-0.0009277534630781933,0.01172097977924945,0.03633770251647487,-0.039153600866764275,0.07533260268060271, ,0.7173328399658203
0.011519868455379768,0.02085442312388689,-0.08386748437400142, ,0.011941532584457166,0.020955044323427624,-0.08419926129473237, ,0.0005458948513013581, ,0.0056749232400911225,0.0013795237093552756,-0.013090885018244331,-0.007156420072648814,0.034708149032961294,-0.09351369813691149, ,0.014334542546118923, ,0.035438250141561455, ,4.98233372541322e-05, ,0.07414595832542951,-0.17101219676682755,0.09829637441000001,3.8488589126584447,1.1021100071080427,-0.20785802710645968, ,0.04415865126034006,-0.0014664904152166397,0.013329549389121339,0.17784970244903558,-0.05204895902254963,0.08188429112806266, ,0.7268798351287842
0.011626048456141694,0.02089633744378737,-0.08415736126184314, ,0.011993776305642486,0.02096893506562197,-0.08430785608943875, ,0.00040390949373287586, ,0.004472788326669289,0.002005690377400631,-0.01222349219774554,-0.017057650398268665,0.004889615285993316,0.04434041448600189, ,0.013169752875947696, ,0.0177446189553781, ,5.0249763720970253e-05, ,0.07506496353746224,-0.17101991949970177,0.09859322482,3.850326742262836,1.1011535516096844,-0.20634299311931958, ,0.04147593599583513,-0.0009087189669565198,0.012532503162863888,0.024272492491598123,-0.04585613796267209,0.06864489323805661, ,0.7380709648132324
0.011626048456141694,0.02089633744378737,-0.08415736126184314, ,0.012045987828256739,0.020982552591078292,-0.08441626815246912, ,0.0005008142428968911, ,0.004472788326669289,0.002005690377400631,-0.01222349219774554,-0.017057650398268665,0.004889615285993316,0.04434041448600189, ,0.013169752875947696, ,0.0177446189553781, ,5.0927930634807324e-05, ,0.07550515931129304,-0.171027642232576,0.09870729834000001,3.8507461221498054,1.1008802786101537,-0.2058751210915049, ,0.0451245561381221,-0.0005081384888777214,0.010062420416929882,0.023434624077423246,-0.030549561642511405,0.06967515786110806, ,0.7474658489227295
0.011673609751431616,0.020913759713518814,-0.08426672355358455, ,0.012098166978479243,0.020995898798132556,-0.08452449744106884, ,0.0005034312717028145, ,0.004633091044223152,0.0015817913042338533,-0.009626070012666361,-0.005563981892289198,-0.008511525815184917,0.04529398319667198, ,0.010799482406252866, ,0.010168770011651281, ,5.1733628347612664e-05, ,0.07550515931129304,-0.171027642232576,0.09870729834000001,3.8507461221498054,1.1008802786101537,-0.2058751210915049, ,0.0451245561381221,-0.0005081384888777214,0.010062420416929882,0.023434624077423246,-0.030549561642511405,0.06967515786110806, ,0.7555239200592041
0.011725792631201236,0.02092458943942874,-0.08436339915169987, ,0.012150313584052684,0.021008975580028504,-0.08463254391312411, ,0.0005096841794065583, ,0.00531499717794246,0.0010148106113842936,-0.009483319623533546,-0.011651976871639054,0.011121962345442648,-0.06098061008012232, ,0.010918442501593847, ,0.016107964946866938, ,5.25388136295704e-05, ,0.07596852328374651,-0.171027642232576,0.09880711267000002,3.851794571867228,1.1004703691108573,-0.20529583115999417, ,0.04674726185146343,-0.00040776727931441216,0.009784282260442262,0.11737629381730398,-0.043158239299572174,0.05438625886916629, ,0.7630820274353027
0.011777113403830744,0.02093475176324029,-0.08445631544044478, ,0.01220242747427946,0.02102178482492359,-0.08474040752716058, ,0.0005188208998124137, ,0.005657622028524662,0.0012802814752563298,-0.010519739361733635,-0.0018205394182506992,0.0015599850966679886,-0.04113631382381085, ,0.012013023096304278, ,0.0023974545757718987, ,5.335109164350233e-05, ,0.07642416452332575,-0.171027642232576,0.09890303813000001,3.8528430215846505,1.100060459611561,-0.2045531837482022, ,0.05010398181545448,-0.0003451302620032089,0.01097781634734666,0.10770239537620882,-0.032707602715719826,0.06578350544570437, ,0.7707500457763672
0.011840215095453865,0.020949979227695138,-0.08458632010554314, ,0.012254508480018926,0.021034328415894227,-0.08484808824234309, ,0.0004972688925399816, ,0.005911862894737546,0.0015879890661479306,-0.013302047140476767,-0.0169027571382426,0.03188051024738208,-0.013056968288584053, ,0.014642960434551686, ,0.03608420313696163, ,5.409032217987205e-05, ,0.07697247855739568,-0.171027642232576,0.09903655600000001,3.854101161245558,1.0995139136124994,-0.20353576095243264, ,0.05058472364524029,-0.0002922542838476842,0.01352191130730051,0.1200109352969876,-0.06555373789400405,0.1059815199241157, ,0.7785768508911133
0.011840215095453865,0.020949979227695138,-0.08458632010554314, ,0.012306556433684139,0.021046608230941552,-0.08495558601847544, ,0.0006026348168373018, ,0.005911862894737546,0.0015879890661479306,-0.013302047140476767,-0.0169027571382426,0.03188051024738208,-0.013056968288584053, ,0.014642960434551686, ,0.03608420313696163, ,5.508587251007259e-05, ,0.07697247855739568,-0.171027642232576,0.09903655600000001,3.854101161245558,1.0995139136124994,-0.20353576095243264, ,0.05058472364524029,-0.0002922542838476842,0.01352191130730051,0.1200109352969876,-0.06555373789400405,0.1059815199241157, ,0.786139965057373
0.01189423354195613,0.020967599860186856,-0.08472075875839294, ,0.012358571169238925,0.021058626142996573,-0.08506290081600079, ,0.000583914723103388, ,0.00590540400460064,0.0022294734784856956,-0.015506676866054593,-0.025162374234546925,0.02175606755564518,0.019646499523453095, ,0.016742203435541485, ,0.03326365367808552, ,5.6013350145437635e-05, ,0.07744356526272338,-0.171027642232576,0.09917266645000002,3.854939921019496,1.0988307311136722,-0.20248859899310712, ,0.05179964058868492,-0.00048471546928445394,0.015786730941526265,0.07327109373961974,-0.06801587376331528,0.09203386125811008, ,0.7941458225250244
0.01195741445243309,0.020991418326049796,-0.08488506676077368, ,0.012410552522194546,0.021070384019926107,-0.08517003259600045, ,0.0005410870709257416, ,0.0063597731326345795,0.002408529317761977,-0.01652217278908484,-0.003865186595676651,-0.010120968447378993,-0.057391077696094805, ,0.017867006504881426, ,0.010833856123830117, ,5.6813940222063874e-05, ,0.0779841565639191,-0.171027642232576,0.09934248044,3.8557786807934336,1.0984208216143756,-0.2017459515813148, ,0.05280853731690082,-0.0006242354933301736,0.017183183948220066,0.09976007225509104,-0.027969603814277624,0.040887241652886756, ,0.8015420436859131
0.01195741445243309,0.020991418326049796,-0.08488506676077368, ,0.012462500329607168,0.021081883724537943,-0.08527698132019353, ,0.0006456723267490886, ,0.0063597731326345795,0.002408529317761977,-0.01652217278908484,-0.003865186595676651,-0.010120968447378993,-0.057391077696094805, ,0.017867006504881426, ,0.010833856123830117, ,5.785998163671596e-05, ,0.0779841565639191,-0.171027642232576,0.09934248044,3.8557786807934336,1.0984208216143756,-0.2017459515813148, ,0.05280853731690082,-0.0006242354933301736,0.017183183948220066,0.09976007225509104,-0.027969603814277624,0.040887241652886756, ,0.8091549873352051
0.012015807465504952,0.021011929271741146,-0.08503742810820457, ,0.012514414430074172,0.021093127114586458,-0.08538374695093742, ,0.0006124857023894408, ,0.006626745930861266,0.0022479151303618407,-0.016593469068214683,-0.007350490161311125,0.005606422409105006,-0.060113556599867966, ,0.018008611822772278, ,0.009244480505981222, ,5.894907780912115e-05, ,0.07846296600212102,-0.171027642232576,0.09949933153000001,3.8568271305108563,1.0980109121150794,-0.2010849829096633, ,0.054319943651099475,-0.0006242354933301736,0.01714619108719053,0.12469869074300935,-0.04166203800223495,0.06291446220956996, ,0.8152499198913574
0.012088630953951431,0.021034620656155984,-0.08521218836229175, ,0.012566294663731327,0.021104116042778294,-0.08549032945122712, ,0.0005570948696197351, ,0.006475882352438566,0.0019550142057371397,-0.014584905845595462,-0.019467574726242963,0.026165365581001198,0.015114389491431799, ,0.01607727002050236, ,0.03261306734651744, ,5.988564834161468e-05, ,0.07908078463205898,-0.171027642232576,0.09967821955000002,3.858085270171764,1.0973277296162522,-0.2000378209503379, ,0.056960949314808385,-0.0006242354933301736,0.014900665594013098,0.09836706231349542,-0.06985740107262786,0.11301462156686488, ,0.8209018707275391
0.012088630953951431,0.021034620656155984,-0.08521218836229175, ,0.012618140872249968,0.021114852356777746,-0.08559672878469471, ,0.0006593096509403091, ,0.006475882352438566,0.0019550142057371397,-0.014584905845595462,-0.019467574726242963,0.026165365581001198,0.015114389491431799, ,0.01607727002050236, ,0.03261306734651744, ,6.105839334385298e-05, ,0.07908078463205898,-0.171027642232576,0.09967821955000002,3.858085270171764,1.0973277296162522,-0.2000378209503379, ,0.056960949314808385,-0.0006242354933301736,0.014900665594013098,0.09836706231349542,-0.06985740107262786,0.11301462156686488, ,0.8265478610992432
0.012156597890863964,0.021054460427044158,-0.08535525944057934, ,0.01266995289883342,0.021125337899212088,-0.08570294491560947, ,0.0006240530184328585, ,0.0071386008160198135,0.0018544435191465052,-0.014706256962952725,-0.01215971327421506,-0.0031910167428902845,-0.056526755009176054, ,0.01645212983891687, ,0.01257141705964717, ,6.212848518463284e-05, ,0.07967543506337427,-0.17103536496545022,0.0998272929,3.8591337198891864,1.0969178201169558,-0.1992951735385458, ,0.06226833435595196,0.0007443841692141448,0.015286767293666029,0.11594710994262618,-0.044042012542733586,0.0576759871120763, ,0.8321700096130371
0.012156597890863964,0.021054460427044158,-0.08535525944057934, ,0.012721730588214164,0.02113557450767741,-0.08580897780887713, ,0.0007292563454794867, ,0.0071386008160198135,0.0018544435191465052,-0.014706256962952725,-0.01215971327421506,-0.0031910167428902845,-0.056526755009176054, ,0.01645212983891687, ,0.01257141705964717, ,6.343660781095956e-05, ,0.07967543506337427,-0.17103536496545022,0.0998272929,3.8591337198891864,1.0969178201169558,-0.1992951735385458, ,0.06226833435595196,0.0007443841692141448,0.015286767293666029,0.11594710994262618,-0.044042012542733586,0.0576759871120763, ,0.8376648426055908
0.012314861060996676,0.021089857759064225,-0.08568220951266324, ,0.012773473786650998,0.021145564014743982,-0.08591482743003992, ,0.0005172426070410368, ,0.007187938570671925,0.0019013707536024785,-0.015384391128838505,-0.018694616693241038,0.03024331204425496,0.02137232755205016, ,0.017086871043098934, ,0.03555482744892961, ,6.421874365691208e-05, ,0.08101146785061511,-0.17101991949970177,0.10016173572,3.862488758984939,1.095414818619536,-0.19692607423591746, ,0.06301257739606293,0.0006372787405463069,0.0157243943928924,0.112305366390603,-0.0754388345641954,0.1337466069830904, ,0.8496580123901367
0.012314861060996676,0.021089857759064225,-0.08568220951266324, ,0.01282518234192546,0.02115530824796158,-0.08602049374527562, ,0.0006157497854647169, ,0.007187938570671925,0.0019013707536024785,-0.015384391128838505,-0.018694616693241038,0.03024331204425496,0.02137232755205016, ,0.017086871043098934, ,0.03555482744892961, ,6.522371647043697e-05, ,0.08101146785061511,-0.17101991949970177,0.10016173572,3.862488758984939,1.095414818619536,-0.19692607423591746, ,0.06301257739606293,0.0006372787405463069,0.0157243943928924,0.112305366390603,-0.0754388345641954,0.1337466069830904, ,0.8554790019989014
0.012378674615103181,0.021109881390974434,-0.08582012011652874, ,0.01287685610333906,0.021164809029865495,-0.08612597672139886, ,0.0005871542416416137, ,0.00728845026575333,0.002419675081196687,-0.015911724395769815,-0.015453939695954861,-0.016073032195392026,0.011489138774924116, ,0.01766803067752205, ,0.02229721050071152, ,6.614702565022542e-05, ,0.08159067281618194,-0.17101991949970177,0.10030432762000001,3.8631178288153922,1.0948682726204741,-0.1960720089204287, ,0.06659434495331282,0.0005424477693656311,0.016609813889468198,0.053896621221376825,-0.04476676908993836,0.06505296325864122, ,0.8621358871459961
0.012378674615103181,0.021109881390974434,-0.08582012011652874, ,0.012928494921710248,0.021174068177981304,-0.08623127632585852, ,0.0006895445900405439, ,0.00728845026575333,0.002419675081196687,-0.015911724395769815,-0.015453939695954861,-0.016073032195392026,0.011489138774924116, ,0.01766803067752205, ,0.02229721050071152, ,6.745512550642282e-05, ,0.08159067281618194,-0.17101991949970177,0.10030432762000001,3.8631178288153922,1.0948682726204741,-0.1960720089204287, ,0.06659434495331282,0.0005424477693656311,0.016609813889468198,0.053896621221376825,-0.04476676908993836,0.06505296325864122, ,0.8660540580749512
0.012465958285125225,0.021137430224628218,-0.08600855535240358, ,0.01298009864937086,0.021183087504831243,-0.08633639252673919, ,0.0006114753586683039, ,0.007428601483497582,0.00234915019261411,-0.01617025206618364,0.006768893408081195,-0.02794283435962398,-0.04896163268031428, ,0.017949364292698437, ,0.028750979191241345, ,6.85685953841225e-05, ,0.08234750063785595,-0.17101219676682755,0.10050395628000001,3.8641662785328146,1.094731636120709,-0.19538883983574862, ,0.06368922252246362,0.0002190360464563733,0.017090999484978543,0.09750870986825348,-0.015537032732592009,0.04814640526077309, ,0.8701009750366211
0.012465958285125225,0.021137430224628218,-0.08600855535240358, ,0.013031667140163947,0.02119186881793892,-0.08644132529276034, ,0.0007143387784428808, ,0.007428601483497582,0.00234915019261411,-0.01617025206618364,0.006768893408081195,-0.02794283435962398,-0.04896163268031428, ,0.017949364292698437, ,0.028750979191241345, ,6.991092465778444e-05, ,0.08234750063785595,-0.17101219676682755,0.10050395628000001,3.8641662785328146,1.094731636120709,-0.19538883983574862, ,0.06368922252246362,0.0002190360464563733,0.017090999484978543,0.09750870986825348,-0.015537032732592009,0.04814640526077309, ,0.8739259243011475
0.012465958285125225,0.021137430224628218,-0.08600855535240358, ,0.013083200249439427,0.021200413919835466,-0.08654607459327579, ,0.000820902870430024, ,0.007428601483497582,0.00234915019261411,-0.01617025206618364,0.006768893408081195,-0.02794283435962398,-0.04896163268031428, ,0.017949364292698437, ,0.028750979191241345, ,7.148750109554939e-05, ,0.08234750063785595,-0.17101219676682755,0.10050395628000001,3.8641662785328146,1.094731636120709,-0.19538883983574862, ,0.06368922252246362,0.0002190360464563733,0.017090999484978543,0.09750870986825348,-0.015537032732592009,0.04814640526077309, ,0.877701997756958
0.012547149133111495,0.021159398190610582,-0.08618880129811675, ,0.013134697834052127,0.02120872460806442,-0.08665064039827326, ,0.000748960563627507, ,0.009077636921118338,0.0020445713777063716,-0.019735942717181137,-0.017082363245986686,0.05301501541770859,-0.0627005810465632, ,0.021819514181714544, ,0.05569915618345223, ,7.288378119102498e-05, ,0.0830271011307877,-0.17100447403395333,0.10068932575000002,3.8656341081372068,1.0940484536218817,-0.19434167787642315, ,0.07288551578991612,0.0007649180460189613,0.02011213575757576,0.21895454905462736,-0.09137368440577179,0.15459057653772967, ,0.8815369606018066
0.012547149133111495,0.021159398190610582,-0.08618880129811675, ,0.013186159752358104,0.021216802675187912,-0.08675502267837505, ,0.000855708184967949, ,0.009077636921118338,0.0020445713777063716,-0.019735942717181137,-0.017082363245986686,0.05301501541770859,-0.0627005810465632, ,0.021819514181714544, ,0.05569915618345223, ,7.451208537126787e-05, ,0.0830271011307877,-0.17100447403395333,0.10068932575000002,3.8656341081372068,1.0940484536218817,-0.19434167787642315, ,0.07288551578991612,0.0007649180460189613,0.02011213575757576,0.21895454905462736,-0.09137368440577179,0.15459057653772967, ,0.8853268623352051
0.012638535245380332,0.02117837971927086,-0.08639895762817777, ,0.013237585864211528,0.021224649908791554,-0.08685922140483616, ,0.000756865455985519, ,0.010016526141549558,0.0022053678205533056,-0.02340575060722334,-0.03853289808285428,0.11447854144000581,-0.02909580279133759, ,0.02555432653496886, ,0.12078954284389035, ,7.58998508626902e-05, ,0.08374531528809058,-0.17099675130107908,0.10089802844000001,3.868150387459021,1.092545452124462,-0.19205425731393527, ,0.0779761228911017,0.0006792910007306066,0.02335602862170088,0.2738178934572392,-0.153082492006948,0.24293047425335607, ,0.8891470432281494
0.012638535245380332,0.02117837971927086,-0.08639895762817777, ,0.013288976030961979,0.02123226809149052,-0.08696323654954549, ,0.0008627791567420204, ,0.010016526141549558,0.0022053678205533056,-0.02340575060722334,-0.03853289808285428,0.11447854144000581,-0.02909580279133759, ,0.02555432653496886, ,0.12078954284389035, ,7.751571326045529e-05, ,0.08374531528809058,-0.17099675130107908,0.10089802844000001,3.868150387459021,1.092545452124462,-0.19205425731393527, ,0.0779761228911017,0.0006792910007306066,0.02335602862170088,0.2738178934572392,-0.153082492006948,0.24293047425335607, ,0.8928899765014648
0.012638535245380332,0.02117837971927086,-0.08639895762817777, ,0.013340330115451063,0.02123965900093444,-0.08706706808502465, ,0.0009708979207758892, ,0.010016526141549558,0.0022053678205533056,-0.02340575060722334,-0.03853289808285428,0.11447854144000581,-0.02909580279133759, ,0.02555432653496886, ,0.12078954284389035, ,7.936156505741227e-05, ,0.08374531528809058,-0.17099675130107908,0.10089802844000001,3.868150387459021,1.092545452124462,-0.19205425731393527, ,0.0779761228911017,0.0006792910007306066,0.02335602862170088,0.2738178934572392,-0.153082492006948,0.24293047425335607, ,0.8968069553375244
0.012638535245380332,0.02120863239220151,-0.08666602123782566, ,0.013391647982009092,0.021246824409813427,-0.08717071598442758, ,0.0010804973068811086, ,0.010894356928883027,0.003416223510267503,-0.026224769384766977,0.015300593698432034,-0.007371831414490285,-0.11288383727686158, ,0.02860237971306264, ,0.016983511475085946, ,8.143763302310209e-05, ,0.08459481590425529,-0.17098902856820486,0.10116376789,3.870666666780835,1.0917256331258691,-0.19040560501006965, ,0.0848051309727174,0.0005659492568993253,0.027275362191780828,0.2201793534195816,-0.03442454900855111,0.10676497827933411, ,0.9013919830322266
0.01275240021882,0.02120863239220151,-0.08666602123782566, ,0.013442929496452614,0.021253766085863327,-0.08727418022154099, ,0.0009212627654719579, ,0.010894356928883027,0.003416223510267503,-0.026224769384766977,0.015300593698432034,-0.007371831414490285,-0.11288383727686158, ,0.02860237971306264, ,0.016983511475085946, ,8.313805342540199e-05, ,0.08459481590425529,-0.17098902856820486,0.10116376789,3.870666666780835,1.0917256331258691,-0.19040560501006965, ,0.0848051309727174,0.0005659492568993253,0.027275362191780828,0.2201793534195816,-0.03442454900855111,0.10676497827933411, ,0.9055399894714355
0.01275240021882,0.02120863239220151,-0.08666602123782566, ,0.013494174526080744,0.021260485791871293,-0.08737746077078327, ,0.0010291084039227463, ,0.010894356928883027,0.003416223510267503,-0.026224769384766977,0.015300593698432034,-0.007371831414490285,-0.11288383727686158, ,0.02860237971306264, ,0.016983511475085946, ,8.506401837422328e-05, ,0.08459481590425529,-0.17098902856820486,0.10116376789,3.870666666780835,1.0917256331258691,-0.19040560501006965, ,0.0848051309727174,0.0005659492568993253,0.027275362191780828,0.2201793534195816,-0.03442454900855111,0.10676497827933411, ,0.9094119071960449
0.012878395064746681,0.02125147326602253,-0.08698126946262266, ,0.013545382939672326,0.021266985285681266,-0.08748055760720447, ,0.0008333079259023417, ,0.011099343126258506,0.004015077688554639,-0.028080317318078835,0.013852542589762526,-0.02754726357815709,-0.06205097025474928, ,0.030460145885460713, ,0.030833864633222255, ,8.67304858742859e-05, ,0.08562193937652714,-0.17097358310245642,0.10150209958,3.8729732561591645,1.091315723626573,-0.18917288515743425, ,0.08877169462906527,0.001373939212604277,0.029443274528650653,0.15619605646880474,-0.02579008435641165,0.09432630216349558, ,0.9114968776702881
0.012878395064746681,0.02125147326602253,-0.08698126946262266, ,0.013596554607482709,0.021273266320199543,-0.08758347070648594, ,0.0009374830153894288, ,0.011099343126258506,0.004015077688554639,-0.028080317318078835,0.013852542589762526,-0.02754726357815709,-0.06205097025474928, ,0.030460145885460713, ,0.030833864633222255, ,8.862104705098621e-05, ,0.08562193937652714,-0.17097358310245642,0.10150209958,3.8729732561591645,1.091315723626573,-0.18917288515743425, ,0.08877169462906527,0.001373939212604277,0.029443274528650653,0.15619605646880474,-0.02579008435641165,0.09432630216349558, ,0.9134600162506104
0.012878395064746681,0.02125147326602253,-0.08698126946262266, ,0.013647689401240799,0.02127933064340021,-0.08768620004494009, ,0.0010437992793265705, ,0.011099343126258506,0.004015077688554639,-0.028080317318078835,0.013852542589762526,-0.02754726357815709,-0.06205097025474928, ,0.030460145885460713, ,0.030833864633222255, ,9.073895887421368e-05, ,0.08562193937652714,-0.17097358310245642,0.10150209958,3.8729732561591645,1.091315723626573,-0.18917288515743425, ,0.08877169462906527,0.001373939212604277,0.029443274528650653,0.15619605646880474,-0.02579008435641165,0.09432630216349558, ,0.915381908416748
0.012878395064746681,0.02125147326602253,-0.08698126946262266, ,0.01369878719414586,0.021285179998330694,-0.08778874559951017, ,0.0011516063135576227, ,0.011099343126258506,0.004015077688554639,-0.028080317318078835,0.013852542589762526,-0.02754726357815709,-0.06205097025474928, ,0.030460145885460713, ,0.030833864633222255, ,9.308601054386725e-05, ,0.08562193937652714,-0.17097358310245642,0.10150209958,3.8729732561591645,1.091315723626573,-0.18917288515743425, ,0.08877169462906527,0.001373939212604277,0.029443274528650653,0.15619605646880474,-0.02579008435641165,0.09432630216349558, ,0.9180629253387451
0.012878395064746681,0.02125147326602253,-0.08698126946262266, ,0.013749847860864382,0.021290816123117253,-0.08789110734776936, ,0.001260469283050547, ,0.011099343126258506,0.004015077688554639,-0.028080317318078835,0.013852542589762526,-0.02754726357815709,-0.06205097025474928, ,0.030460145885460713, ,0.030833864633222255, ,0.0005221126029985367, ,0.08562193937652714,-0.17097358310245642,0.10150209958,3.8729732561591645,1.091315723626573,-0.18917288515743425, ,0.08877169462906527,0.001373939212604277,0.029443274528650653,0.15619605646880474,-0.02579008435641165,0.09432630216349558, ,0.9199960231781006
0.012995154477650326,0.021288878486341995,-0.08728604385699973, ,0.01380087127752718,0.02129624075097043,-0.08799328526792126, ,0.0010721120174060795, ,0.012590519470753635,0.0037589176729521424,-0.03286853696873569,-0.01891867334997223,0.051893780397798614,-0.03928316001146755, ,0.03539761807072057, ,0.05523443023371034, ,0.0005286602150748169, ,0.08654866732143408,-0.17092724670521106,0.10181450547000001,3.8748604656505257,1.0903592681282146,-0.1874128149498726, ,0.09713095348871113,0.00558671102335221,0.03360508759493671,0.2411744818999831,-0.1063954540256305,0.20170609409199358, ,0.9218809604644775
0.012995154477650326,0.021288878486341995,-0.08728604385699973, ,0.013851857321725823,0.021301455610190756,-0.08809527933879913, ,0.0011785414766118571, ,0.012590519470753635,0.0037589176729521424,-0.03286853696873569,-0.01891867334997223,0.051893780397798614,-0.03928316001146755, ,0.03539761807072057, ,0.05523443023371034, ,0.0005363058769752527, ,0.08654866732143408,-0.17092724670521106,0.10181450547000001,3.8748604656505257,1.0903592681282146,-0.1874128149498726, ,0.09713095348871113,0.00558671102335221,0.03360508759493671,0.2411744818999831,-0.1063954540256305,0.20170609409199358, ,0.9237759113311768
0.012995154477650326,0.021288878486341995,-0.08728604385699973, ,0.013902805872510037,0.021306462424174014,-0.08819708953986546, ,0.0012861354849815607, ,0.012590519470753635,0.0037589176729521424,-0.03286853696873569,-0.01891867334997223,0.051893780397798614,-0.03928316001146755, ,0.03539761807072057, ,0.05523443023371034, ,0.0005450248259055586, ,0.08654866732143408,-0.17092724670521106,0.10181450547000001,3.8748604656505257,1.0903592681282146,-0.1874128149498726, ,0.09713095348871113,0.00558671102335221,0.03360508759493671,0.2411744818999831,-0.1063954540256305,0.20170609409199358, ,0.9256768226623535
0.012995154477650326,0.021288878486341995,-0.08728604385699973, ,0.013953716810384419,0.02131126291141672,-0.08829871585121171, ,0.0013945778486996801, ,0.012590519470753635,0.0037589176729521424,-0.03286853696873569,-0.01891867334997223,0.051893780397798614,-0.03928316001146755, ,0.03539761807072057, ,0.05523443023371034, ,0.0005547898031790543, ,0.08654866732143408,-0.17092724670521106,0.10181450547000001,3.8748604656505257,1.0903592681282146,-0.1874128149498726, ,0.09713095348871113,0.00558671102335221,0.03360508759493671,0.2411744818999831,-0.1063954540256305,0.20170609409199358, ,0.9275360107421875
0.012995154477650326,0.021288878486341995,-0.08728604385699973, ,0.014004590017305071,0.02131585878552208,-0.08840015825355824, ,0.0015036418901722718, ,0.012590519470753635,0.0037589176729521424,-0.03286853696873569,-0.01891867334997223,0.051893780397798614,-0.03928316001146755, ,0.03539761807072057, ,0.05523443023371034, ,0.0005655722132585227, ,0.08654866732143408,-0.17092724670521106,0.10181450547000001,3.8748604656505257,1.0903592681282146,-0.1874128149498726, ,0.09713095348871113,0.00558671102335221,0.03360508759493671,0.2411744818999831,-0.1063954540256305,0.20170609409199358, ,0.9294428825378418
0.013135058798567412,0.021325836510608057,-0.08764865862845646, ,0.01405542537667725,0.021320251755204942,-0.08850141672825407, ,0.0012547120005662478, ,0.015532898087280476,0.0038368491630145687,-0.040482848234438276,0.003504069837229451,0.12007699472212795,-0.12198982668168912, ,0.0435299131134227, ,0.12012765891101648, ,0.0005733153569361376, ,0.08756806806083171,-0.1708731875750915,0.10218394812,3.878425194689762,1.0891295396303258,-0.18453144279337186, ,0.10907694432008136,0.006022604402604367,0.041159719689922485,0.44811652618049314,-0.13867211218196465,0.3262106777156758, ,0.9313309192657471
0.013135058798567412,0.021325836510608057,-0.08764865862845646, ,0.014106222773351088,0.02132444352429748,-0.08860249125727565, ,0.0013612340320931675, ,0.015532898087280476,0.0038368491630145687,-0.040482848234438276,0.003504069837229451,0.12007699472212795,-0.12198982668168912, ,0.0435299131134227, ,0.12012765891101648, ,0.0005820700088823267, ,0.08756806806083171,-0.1708731875750915,0.10218394812,3.878425194689762,1.0891295396303258,-0.18453144279337186, ,0.10907694432008136,0.006022604402604367,0.041159719689922485,0.44811652618049314,-0.13867211218196465,0.3262106777156758, ,0.9332289695739746
0.013135058798567412,0.021325836510608057,-0.08764865862845646, ,0.014156982093619562,0.021328435791754943,-0.08870338182322789, ,0.001468596266787293, ,0.015532898087280476,0.0038368491630145687,-0.040482848234438276,0.003504069837229451,0.12007699472212795,-0.12198982668168912, ,0.0435299131134227, ,0.12012765891101648, ,0.0005918120556724912, ,0.08756806806083171,-0.1708731875750915,0.10218394812,3.878425194689762,1.0891295396303258,-0.18453144279337186, ,0.10907694432008136,0.006022604402604367,0.041159719689922485,0.44811652618049314,-0.13867211218196465,0.3262106777156758, ,0.9352009296417236
0.013135058798567412,0.021325836510608057,-0.08764865862845646, ,0.014207703225214797,0.021332230251660807,-0.08880408840934244, ,0.0015765864785988023, ,0.015532898087280476,0.0038368491630145687,-0.040482848234438276,0.003504069837229451,0.12007699472212795,-0.12198982668168912, ,0.0435299131134227, ,0.12012765891101648, ,0.0006025161254869076, ,0.08756806806083171,-0.1708731875750915,0.10218394812,3.878425194689762,1.0891295396303258,-0.18453144279337186, ,0.10907694432008136,0.006022604402604367,0.041159719689922485,0.44811652618049314,-0.13867211218196465,0.3262106777156758, ,0.9370789527893066
0.013135058798567412,0.021325836510608057,-0.08764865862845646, ,0.014258386057305223,0.0213358285932326,-0.0889046109994786, ,0.001685046091421459, ,0.015532898087280476,0.0038368491630145687,-0.040482848234438276,0.003504069837229451,0.12007699472212795,-0.12198982668168912, ,0.0435299131134227, ,0.12012765891101648, ,0.0006141562326474942, ,0.08756806806083171,-0.1708731875750915,0.10218394812,3.878425194689762,1.0891295396303258,-0.18453144279337186, ,0.10907694432008136,0.006022604402604367,0.041159719689922485,0.44811652618049314,-0.13867211218196465,0.3262106777156758, ,0.9391288757324219
0.013308649213845315,0.021369718117151798,-0.08811024246885152, ,0.014309030480492192,0.021339232500827233,-0.08900494957812222, ,0.0013424577694811208, ,0.017894790652958407,0.0049075573306695125,-0.04884024892755368,0.027600327631073417,0.11313750356611801,-0.09493328903873917, ,0.05224631629859108, ,0.11645426096972965, ,0.0006219041213372137, ,0.08876509165633652,-0.17079596024634924,0.10265450139000001,3.883457753333391,1.0877631746326715,-0.18072186533176926, ,0.12388634668207675,0.009046339504366625,0.049933578432601884,0.4772494953765207,-0.12594594334849613,0.38546983077308333, ,0.9417879581451416
0.013308649213845315,0.021369718117151798,-0.08811024246885152, ,0.014359636386807168,0.021342443653946257,-0.08910510413038515, ,0.0014474348550670456, ,0.017894790652958407,0.0049075573306695125,-0.04884024892755368,0.027600327631073417,0.11313750356611801,-0.09493328903873917, ,0.05224631629859108, ,0.11645426096972965, ,0.0006305939185343697, ,0.08876509165633652,-0.17079596024634924,0.10265450139000001,3.883457753333391,1.0877631746326715,-0.18072186533176926, ,0.12388634668207675,0.009046339504366625,0.049933578432601884,0.4772494953765207,-0.12594594334849613,0.38546983077308333, ,0.9439020156860352
0.013308649213845315,0.021369718117151798,-0.08811024246885152, ,0.014410203669708343,0.02134546372724202,-0.08920507464200608, ,0.001553276531090305, ,0.017894790652958407,0.0049075573306695125,-0.04884024892755368,0.027600327631073417,0.11313750356611801,-0.09493328903873917, ,0.05224631629859108, ,0.11645426096972965, ,0.000640205195748494, ,0.08876509165633652,-0.17079596024634924,0.10265450139000001,3.883457753333391,1.0877631746326715,-0.18072186533176926, ,0.12388634668207675,0.009046339504366625,0.049933578432601884,0.4772494953765207,-0.12594594334849613,0.38546983077308333, ,0.9486899375915527
0.013308649213845315,0.021369718117151798,-0.08811024246885152, ,0.014460732224077923,0.02134829439052251,-0.08930486109934911, ,0.0016597794765755055, ,0.017894790652958407,0.0049075573306695125,-0.04884024892755368,0.027600327631073417,0.11313750356611801,-0.09493328903873917, ,0.05224631629859108, ,0.11645426096972965, ,0.0006507162708085664, ,0.08876509165633652,-0.17079596024634924,0.10265450139000001,3.883457753333391,1.0877631746326715,-0.18072186533176926, ,0.12388634668207675,0.009046339504366625,0.049933578432601884,0.4772494953765207,-0.12594594334849613,0.38546983077308333, ,0.9507639408111572
0.013308649213845315,0.021369718117151798,-0.08811024246885152, ,0.014511221946218518,0.02135093730875725,-0.08940446348940348, ,0.001766788596705917, ,0.017894790652958407,0.0049075573306695125,-0.04884024892755368,0.027600327631073417,0.11313750356611801,-0.09493328903873917, ,0.05224631629859108, ,0.11645426096972965, ,0.0006621047639299678, ,0.08876509165633652,-0.17079596024634924,0.10265450139000001,3.883457753333391,1.0877631746326715,-0.18072186533176926, ,0.12388634668207675,0.009046339504366625,0.049933578432601884,0.4772494953765207,-0.12594594334849613,0.38546983077308333, ,0.9527628421783447
0.013393743724816765,0.021395063955907716,-0.08834536383092984, ,0.0145616727338503,0.021353394142082628,-0.08950388179978443, ,0.001645587563056199, ,0.018551505258531338,0.005732738661357246,-0.0515095210508768,0.0418351077403592,0.09413662142698885,-0.02987561779492367, ,0.05504773745402672, ,0.10301221832961265, ,0.0006720389336181117, ,0.08935974208765181,-0.17075734658197814,0.10289561133000001,3.8855546527682363,1.0872166286336096,-0.17888765513459376, ,0.1303529417011961,0.008266662910363421,0.052919639601328915,0.4340751390730855,-0.11118127698275762,0.4099289300067483, ,0.9563109874725342
0.013393743724816765,0.021395063955907716,-0.08834536383092984, ,0.014612084486107986,0.021355666545807617,-0.08960311601873076, ,0.001751527028756419, ,0.018551505258531338,0.005732738661357246,-0.0515095210508768,0.0418351077403592,0.09413662142698885,-0.02987561779492367, ,0.05504773745402672, ,0.10301221832961265, ,0.0006828338145694946, ,0.08935974208765181,-0.17075734658197814,0.10289561133000001,3.8855546527682363,1.0872166286336096,-0.17888765513459376, ,0.1303529417011961,0.008266662910363421,0.052919639601328915,0.4340751390730855,-0.11118127698275762,0.4099289300067483, ,0.9582619667053223
0.013393743724816765,0.021395063955907716,-0.08834536383092984, ,0.014662457103537377,0.02135775617041898,-0.08970216613510662, ,0.0018579391811418848, ,0.018551505258531338,0.005732738661357246,-0.0515095210508768,0.0418351077403592,0.09413662142698885,-0.02987561779492367, ,0.05504773745402672, ,0.10301221832961265, ,0.0006944685211692213, ,0.08935974208765181,-0.17075734658197814,0.10289561133000001,3.8855546527682363,1.0872166286336096,-0.17888765513459376, ,0.1303529417011961,0.008266662910363421,0.052919639601328915,0.4340751390730855,-0.11118127698275762,0.4099289300067483, ,0.9602530002593994
0.013393743724816765,0.021395063955907716,-0.08834536383092984, ,0.01471279048809265,0.021359664661586963,-0.08980103213839985, ,0.0019647156779339886, ,0.018551505258531338,0.005732738661357246,-0.0515095210508768,0.0418351077403592,0.09413662142698885,-0.02987561779492367, ,0.05504773745402672, ,0.10301221832961265, ,0.0007069219246669151, ,0.08935974208765181,-0.17075734658197814,0.10289561133000001,3.8855546527682363,1.0872166286336096,-0.17888765513459376, ,0.1303529417011961,0.008266662910363421,0.052919639601328915,0.4340751390730855,-0.11118127698275762,0.4099289300067483, ,0.9621460437774658
0.013713474344709486,0.021520867094782514,-0.08926143802437381, ,0.014763084543132939,0.021361393660170737,-0.08989971401872227, ,0.0012387532401341719, ,0.015776938870401706,0.00641092989362806,-0.042004064339727615,0.038892602582379476,-0.08397328976673017,0.12571682520528218, ,0.04532497372616318, ,0.09254197520800468, ,0.0007120853354966943, ,0.09174606654578718,-0.17060289192449365,0.10385097706000002,3.8895387616944426,1.0865334461347824,-0.1731031262471157, ,0.12806604798714005,0.009224482693738384,0.044369948523676886,0.053850766163627106,0.0,0.1878197566330893, ,0.9640560150146484
0.013713474344709486,0.021520867094782514,-0.08926143802437381, ,0.01481333917341951,0.021362944802223956,-0.08999821176680882, ,0.0013332207767140346, ,0.015776938870401706,0.00641092989362806,-0.042004064339727615,0.038892602582379476,-0.08397328976673017,0.12571682520528218, ,0.04532497372616318, ,0.09254197520800468, ,0.0007180577916622457, ,0.09174606654578718,-0.17060289192449365,0.10385097706000002,3.8895387616944426,1.0865334461347824,-0.1731031262471157, ,0.12806604798714005,0.009224482693738384,0.044369948523676886,0.053850766163627106,0.0,0.1878197566330893, ,0.9659559726715088
0.013713474344709486,0.021520867094782514,-0.08926143802437381, ,0.014863554285112119,0.021364319719000328,-0.09009652537401798, ,0.0014298817544526334, ,0.015776938870401706,0.00641092989362806,-0.042004064339727615,0.038892602582379476,-0.08397328976673017,0.12571682520528218, ,0.04532497372616318, ,0.09254197520800468, ,0.0007248370674983446, ,0.09174606654578718,-0.17060289192449365,0.10385097706000002,3.8895387616944426,1.0865334461347824,-0.1731031262471157, ,0.12806604798714005,0.009224482693738384,0.044369948523676886,0.053850766163627106,0.0,0.1878197566330893, ,0.9679088592529297
0.013713474344709486,0.021520867094782514,-0.08926143802437381, ,0.014913729785766772,0.021365520036958775,-0.09019465483233065, ,0.0015282798967516604, ,0.015776938870401706,0.00641092989362806,-0.042004064339727615,0.038892602582379476,-0.08397328976673017,0.12571682520528218, ,0.04532497372616318, ,0.09254197520800468, ,0.0007324167168309231, ,0.09174606654578718,-0.17060289192449365,0.10385097706000002,3.8895387616944426,1.0865334461347824,-0.1731031262471157, ,0.12806604798714005,0.009224482693738384,0.044369948523676886,0.053850766163627106,0.0,0.1878197566330893, ,0.9698238372802734
0.013713474344709486,0.021520867094782514,-0.08926143802437381, ,0.014963865584331501,0.021366547377769475,-0.09029260013435018, ,0.001628062690510841, ,0.015776938870401706,0.00641092989362806,-0.042004064339727615,0.038892602582379476,-0.08397328976673017,0.12571682520528218, ,0.04532497372616318, ,0.09254197520800468, ,0.000740787239949427, ,0.09174606654578718,-0.17060289192449365,0.10385097706000002,3.8895387616944426,1.0865334461347824,-0.1731031262471157, ,0.12806604798714005,0.009224482693738384,0.044369948523676886,0.053850766163627106,0.0,0.1878197566330893, ,0.9716930389404297
0.013895436284808514,0.02156764401712419,-0.08967315946743568, ,0.015013961591144286,0.021367403358318816,-0.09039036127330224, ,0.0013437163438354872, ,0.021194450349691224,0.002861751249928355,-0.04330374444431705,0.005674486069798722,0.029012516970124025,-0.18920824784822773, ,0.04829708716621233, ,0.02955966269381857, ,0.0007463699168372609, ,0.09308982206590224,-0.17044843726700915,0.10425412325000001,3.8914259711858032,1.086396809635017,-0.17143981228074867, ,0.15949065808146348,0.02247145194375344,0.044124131634349036,0.3853828934397001,-0.09510298518632217,0.24790558824793155, ,0.9740049839019775
0.013895436284808514,0.02156764401712419,-0.08967315946743568, ,0.01506401771792916,0.0213680895907154,-0.090487938243034, ,0.0014384953903642328, ,0.021194450349691224,0.002861751249928355,-0.04330374444431705,0.005674486069798722,0.029012516970124025,-0.18920824784822773, ,0.04829708716621233, ,0.02955966269381857, ,0.0007527196918237469, ,0.09308982206590224,-0.17044843726700915,0.10425412325000001,3.8914259711858032,1.086396809635017,-0.17143981228074867, ,0.15949065808146348,0.02247145194375344,0.044124131634349036,0.3853828934397001,-0.09510298518632217,0.24790558824793155, ,0.9759340286254883
0.013895436284808514,0.02156764401712419,-0.08967315946743568, ,0.01511403387779376,0.021368607682295093,-0.09058533103801429, ,0.001535139254394693, ,0.021194450349691224,0.002861751249928355,-0.04330374444431705,0.005674486069798722,0.029012516970124025,-0.18920824784822773, ,0.04829708716621233, ,0.02955966269381857, ,0.0007598325969380282, ,0.09308982206590224,-0.17044843726700915,0.10425412325000001,3.8914259711858032,1.086396809635017,-0.17143981228074867, ,0.15949065808146348,0.02247145194375344,0.044124131634349036,0.3853828934397001,-0.09510298518632217,0.24790558824793155, ,0.9778308868408203
0.013895436284808514,0.02156764401712419,-0.08967315946743568, ,0.015164009985225484,0.02136895923562693,-0.09068253965333274, ,0.001633279901140589, ,0.021194450349691224,0.002861751249928355,-0.04330374444431705,0.005674486069798722,0.029012516970124025,-0.18920824784822773, ,0.04829708716621233, ,0.02955966269381857, ,0.0007677014915704837, ,0.09308982206590224,-0.17044843726700915,0.10425412325000001,3.8914259711858032,1.086396809635017,-0.17143981228074867, ,0.15949065808146348,0.02247145194375344,0.044124131634349036,0.3853828934397001,-0.09510298518632217,0.24790558824793155, ,0.979727029800415
0.013895436284808514,0.02156764401712419,-0.08967315946743568, ,0.015213945956088954,0.021369145848518338,-0.09077956408469998, ,0.0017326281924589864, ,0.021194450349691224,0.002861751249928355,-0.04330374444431705,0.005674486069798722,0.029012516970124025,-0.18920824784822773, ,0.04829708716621233, ,0.02955966269381857, ,0.0007763169085427026, ,0.09308982206590224,-0.17044843726700915,0.10425412325000001,3.8914259711858032,1.086396809635017,-0.17143981228074867, ,0.15949065808146348,0.02247145194375344,0.044124131634349036,0.3853828934397001,-0.09510298518632217,0.24790558824793155, ,0.9816570281982422
0.013895436284808514,0.02156764401712419,-0.08967315946743568, ,0.015263841707622662,0.02136916911402069,-0.0908764043284469, ,0.0018329549595936716, ,0.021194450349691224,0.002861751249928355,-0.04330374444431705,0.005674486069798722,0.029012516970124025,-0.18920824784822773, ,0.04829708716621233, ,0.02955966269381857, ,0.000785667687755543, ,0.09454169584625645,-0.17023220074653087,0.10466763976000001,3.8970875996598853,1.0850304446373626,-0.16836534348041093, ,0.17037152883028864,0.02388546225987183,0.04886138503067485,0.7648174608304646,-0.1911623023487535,0.4023628040434386, ,0.984083890914917
0.014081422201418486,0.021582363611130143,-0.09004782723624044, ,0.015313697158435962,0.021369030620435027,-0.09097306038152471, ,0.0015556570662404888, ,0.024062190246844195,0.0016238451135989346,-0.048004542718382476,-0.00031046998648506796,0.16286676046974963,-0.35935118706384406, ,0.05372208106569673, ,0.16286627377379054, ,0.0007924219805492705, ,0.09454169584625645,-0.17023220074653087,0.10466763976000001,3.8970875996598853,1.0850304446373626,-0.16836534348041093, ,0.17037152883028864,0.02388546225987183,0.04886138503067485,0.7648174608304646,-0.1911623023487535,0.4023628040434386, ,0.9869458675384521
0.014081422201418486,0.021582363611130143,-0.09004782723624044, ,0.015363512228505814,0.021368731951317194,-0.09106953224150387, ,0.001653261758286195, ,0.024062190246844195,0.0016238451135989346,-0.048004542718382476,-0.00031046998648506796,0.16286676046974963,-0.35935118706384406, ,0.05372208106569673, ,0.16286627377379054, ,0.0007999075438339396, ,0.09454169584625645,-0.17023220074653087,0.10466763976000001,3.8970875996598853,1.0850304446373626,-0.16836534348041093, ,0.17037152883028864,0.02388546225987183,0.04886138503067485,0.7648174608304646,-0.1911623023487535,0.4023628040434386, ,0.9889898300170898
0.014081422201418486,0.021582363611130143,-0.09004782723624044, ,0.015413286839173505,0.021368274685483676,-0.09116581990657457, ,0.0017520288503068704, ,0.024062190246844195,0.0016238451135989346,-0.048004542718382476,-0.00031046998648506796,0.16286676046974963,-0.35935118706384406, ,0.05372208106569673, ,0.16286627377379054, ,0.0008081154861311199, ,0.09454169584625645,-0.17023220074653087,0.10466763976000001,3.8970875996598853,1.0850304446373626,-0.16836534348041093, ,0.17037152883028864,0.02388546225987183,0.04886138503067485,0.7648174608304646,-0.1911623023487535,0.4023628040434386, ,0.9909899234771729
0.014081422201418486,0.021582363611130143,-0.09004782723624044, ,0.015463020913142236,0.021367660397016933,-0.09126192337554605, ,0.0018517402371456017, ,0.024062190246844195,0.0016238451135989346,-0.048004542718382476,-0.00031046998648506796,0.16286676046974963,-0.35935118706384406, ,0.05372208106569673, ,0.16286627377379054, ,0.0008170353557979104, ,0.09454169584625645,-0.17023220074653087,0.10466763976000001,3.8970875996598853,1.0850304446373626,-0.16836534348041093, ,0.17037152883028864,0.02388546225987183,0.04886138503067485,0.7648174608304646,-0.1911623023487535,0.4023628040434386, ,0.9942629337310791
0.014081422201418486,0.021582363611130143,-0.09004782723624044, ,0.015512714374473005,0.021366890655270886,-0.09135784264784633, ,0.0019522208527722451, ,0.024062190246844195,0.0016238451135989346,-0.048004542718382476,-0.00031046998648506796,0.16286676046974963,-0.35935118706384406, ,0.05372208106569673, ,0.16286627377379054, ,0.0008266555718739641, ,0.09454169584625645,-0.17023220074653087,0.10466763976000001,3.8970875996598853,1.0850304446373626,-0.16836534348041093, ,0.17037152883028864,0.02388546225987183,0.04886138503067485,0.7648174608304646,-0.1911623023487535,0.4023628040434386, ,0.9962339401245117
0.014081422201418486,0.021582363611130143,-0.09004782723624044, ,0.015562367148582276,0.021365967024876652,-0.09145357772352138, ,0.002053328968178921, ,0.024062190246844195,0.0016238451135989346,-0.048004542718382476,-0.00031046998648506796,0.16286676046974963,-0.35935118706384406, ,0.05372208106569673, ,0.16286627377379054, ,0.0008369637516748461, ,0.09454169584625645,-0.17023220074653087,0.10466763976000001,3.8970875996598853,1.0850304446373626,-0.16836534348041093, ,0.17037152883028864,0.02388546225987183,0.04886138503067485,0.7648174608304646,-0.1911623023487535,0.4023628040434386, ,0.998337984085083
0.014081422201418486,0.021582363611130143,-0.09004782723624044, ,0.015611979162238583,0.02136489106574755,-0.09154912860323568, ,0.002154948888686644, ,0.024062190246844195,0.0016238451135989346,-0.048004542718382476,-0.00031046998648506796,0.16286676046974963,-0.35935118706384406, ,0.05372208106569673, ,0.16286627377379054, ,0.0008479469611499444, ,0.09454169584625645,-0.17023220074653087,0.10466763976000001,3.8970875996598853,1.0850304446373626,-0.16836534348041093, ,0.17037152883028864,0.02388546225987183,0.04886138503067485,0.7648174608304646,-0.1911623023487535,0.4023628040434386, ,1.0005218982696533
0.014081422201418486,0.021582363611130143,-0.09004782723624044, ,0.015661550343559164,0.02136366433308533,-0.09164449528827145, ,0.0022569854204621672, ,0.024062190246844195,0.0016238451135989346,-0.048004542718382476,-0.00031046998648506796,0.16286676046974963,-0.35935118706384406, ,0.05372208106569673, ,0.16286627377379054, ,0.0008595919070946735, ,0.09454169584625645,-0.17023220074653087,0.10466763976000001,3.8970875996598853,1.0850304446373626,-0.16836534348041093, ,0.17037152883028864,0.02388546225987183,0.04886138503067485,0.7648174608304646,-0.1911623023487535,0.4023628040434386, ,1.002640962600708
0.014081422201418486,0.021582363611130143,-0.09004782723624044, ,0.01571108062200744,0.021362288377384946,-0.09173967778052773, ,0.0023593596462832224, ,0.024062190246844195,0.0016238451135989346,-0.048004542718382476,-0.00031046998648506796,0.16286676046974963,-0.35935118706384406, ,0.05372208106569673, ,0.16286627377379054, ,0.0008718850852847435, ,0.09454169584625645,-0.17023220074653087,0.10466763976000001,3.8970875996598853,1.0850304446373626,-0.16836534348041093, ,0.17037152883028864,0.02388546225987183,0.04886138503067485,0.7648174608304646,-0.1911623023487535,0.4023628040434386, ,1.0046868324279785
0.014081422201418486,0.021582363611130143,-0.09004782723624044, ,0.015760569928389263,0.021360764744440434,-0.09183467608252117, ,0.002462005675493881, ,0.024062190246844195,0.0016238451135989346,-0.048004542718382476,-0.00031046998648506796,0.16286676046974963,-0.35935118706384406, ,0.05372208106569673, ,0.16286627377379054, ,0.0008848128949612407, ,0.09454169584625645,-0.17023220074653087,0.10466763976000001,3.8970875996598853,1.0850304446373626,-0.16836534348041093, ,0.17037152883028864,0.02388546225987183,0.04886138503067485,0.7648174608304646,-0.1911623023487535,0.4023628040434386, ,1.0067648887634277
0.014356538608775567,0.021613308788069645,-0.09057925856494699, ,0.015810018194850083,0.021359094975350577,-0.09192949019738451, ,0.0020000882557895837, ,0.02344750457851056,0.0035800234658097466,-0.04370535194148675,0.008560877260689121,0.023258116419513863,-0.023234498554989266, ,0.04972685217570324, ,0.024780418297867285, ,0.0008938070510969531, ,0.09661911098942284,-0.16999279602742992,0.10521467414,3.90379767785139,1.0831175336406464,-0.1637017007033199, ,0.18903773218818878,0.020625286146157527,0.04564129375358167,0.3743527568702361,-0.12222230702981902,0.3563759145895932, ,1.0087308883666992
0.014356538608775567,0.021613308788069645,-0.09057925856494699, ,0.015859425354871923,0.021357280606523955,-0.09202412012886745, ,0.0021004389875053163, ,0.02344750457851056,0.0035800234658097466,-0.04370535194148675,0.008560877260689121,0.023258116419513863,-0.023234498554989266, ,0.04972685217570324, ,0.024780418297867285, ,0.0009034601065882199, ,0.09661911098942284,-0.16999279602742992,0.10521467414,3.90379767785139,1.0831175336406464,-0.1637017007033199, ,0.18903773218818878,0.020625286146157527,0.04564129375358167,0.3743527568702361,-0.12222230702981902,0.3563759145895932, ,1.0107460021972656
0.014356538608775567,0.021613308788069645,-0.09057925856494699, ,0.015908791343270053,0.021355323169684897,-0.09211856588133523, ,0.0022012524038204553, ,0.02344750457851056,0.0035800234658097466,-0.04370535194148675,0.008560877260689121,0.023258116419513863,-0.023234498554989266, ,0.04972685217570324, ,0.024780418297867285, ,0.0009137600454551424, ,0.09661911098942284,-0.16999279602742992,0.10521467414,3.90379767785139,1.0831175336406464,-0.1637017007033199, ,0.18903773218818878,0.020625286146157527,0.04564129375358167,0.3743527568702361,-0.12222230702981902,0.3563759145895932, ,1.0126829147338867
0.014356538608775567,0.021613308788069645,-0.09057925856494699, ,0.015958116096189877,0.021353224191878628,-0.09221282745976912, ,0.002302442568121644, ,0.02344750457851056,0.0035800234658097466,-0.04370535194148675,0.008560877260689121,0.023258116419513863,-0.023234498554989266, ,0.04972685217570324, ,0.024780418297867285, ,0.0009246945535076346, ,0.09661911098942284,-0.16999279602742992,0.10521467414,3.90379767785139,1.0831175336406464,-0.1637017007033199, ,0.18903773218818878,0.020625286146157527,0.04564129375358167,0.3743527568702361,-0.12222230702981902,0.3563759145895932, ,1.0145819187164307
0.014356538608775567,0.021613308788069645,-0.09057925856494699, ,0.016007399551104196,0.021350985195476947,-0.09230690486976505, ,0.0024039378678926797, ,0.02344750457851056,0.0035800234658097466,-0.04370535194148675,0.008560877260689121,0.023258116419513863,-0.023234498554989266, ,0.04972685217570324, ,0.024780418297867285, ,0.0009362511419012678, ,0.09661911098942284,-0.16999279602742992,0.10521467414,3.90379767785139,1.0831175336406464,-0.1637017007033199, ,0.18903773218818878,0.020625286146157527,0.04564129375358167,0.3743527568702361,-0.12222230702981902,0.3563759145895932, ,1.0164978504180908
0.014883527629994564,0.02171094906811695,-0.09151852275336052, ,0.0160566416468094,0.021348607698183766,-0.09240079811753486, ,0.001511918510714606, ,0.02339446304273976,0.0023400522174966652,-0.04097159949670726,0.0011437220131777504,-0.11624241552349579,0.07848891119820242, ,0.047238212400103695, ,0.11624754539898523, ,0.0009407136796440069, ,0.10129908711120289,-0.16924369093863012,0.10622059518000002,3.9042170577383586,1.0825709876415845,-0.15868201964066248, ,0.19894537014354458,0.045361826748791,0.04352134295081967,0.13673689373476094,-0.02602999708416785,0.22607686088165937, ,1.0184509754180908
0.014883527629994564,0.02171094906811695,-0.09151852275336052, ,0.016105842323423,0.021346093213040616,-0.09249450720990417, ,0.0016061502620145268, ,0.02339446304273976,0.0023400522174966652,-0.04097159949670726,0.0011437220131777504,-0.11624241552349579,0.07848891119820242, ,0.047238212400103695, ,0.11624754539898523, ,0.0009458324225853185, ,0.10129908711120289,-0.16924369093863012,0.10622059518000002,3.9042170577383586,1.0825709876415845,-0.15868201964066248, ,0.19894537014354458,0.045361826748791,0.04352134295081967,0.13673689373476094,-0.02602999708416785,0.22607686088165937, ,1.0203619003295898
0.014883527629994564,0.02171094906811695,-0.09151852275336052, ,0.016155001522380037,0.02134344324843191,-0.09258803215431322, ,0.001701633551986572, ,0.02339446304273976,0.0023400522174966652,-0.04097159949670726,0.0011437220131777504,-0.11624241552349579,0.07848891119820242, ,0.047238212400103695, ,0.11624754539898523, ,0.0009516018968555571, ,0.10129908711120289,-0.16924369093863012,0.10622059518000002,3.9042170577383586,1.0825709876415845,-0.15868201964066248, ,0.19894537014354458,0.045361826748791,0.04352134295081967,0.13673689373476094,-0.02602999708416785,0.22607686088165937, ,1.022230863571167
0.014883527629994564,0.02171094906811695,-0.09151852275336052, ,0.01620411918643015,0.021340659308090835,-0.09268137295881644, ,0.001798137137606039, ,0.02339446304273976,0.0023400522174966652,-0.04097159949670726,0.0011437220131777504,-0.11624241552349579,0.07848891119820242, ,0.047238212400103695, ,0.11624754539898523, ,0.0009580150426188184, ,0.10129908711120289,-0.16924369093863012,0.10622059518000002,3.9042170577383586,1.0825709876415845,-0.15868201964066248, ,0.19894537014354458,0.045361826748791,0.04352134295081967,0.13673689373476094,-0.02602999708416785,0.22607686088165937, ,1.0241138935089111
0.014883527629994564,0.02171094906811695,-0.09151852275336052, ,0.01625319525963468,0.02133774289110449,-0.09277452963208144, ,0.0018954750184685886, ,0.02339446304273976,0.0023400522174966652,-0.04097159949670726,0.0011437220131777504,-0.11624241552349579,0.07848891119820242, ,0.047238212400103695, ,0.11624754539898523, ,0.0009650636138658091, ,0.10129908711120289,-0.16924369093863012,0.10622059518000002,3.9042170577383586,1.0825709876415845,-0.15868201964066248, ,0.19894537014354458,0.045361826748791,0.04352134295081967,0.13673689373476094,-0.02602999708416785,0.22607686088165937, ,1.0259900093078613
0.015161073943526083,0.021690057961279815,-0.09196366277639068, ,0.01630222968736312,0.02133469549191957,-0.09286750218338916, ,0.0014984807606257201, ,0.030184423807152954,-0.0026260456672073315,-0.048863535786653395,0.010700610036214447,0.2408562998836045,-0.5728421726282359, ,0.05749470137316688, ,0.2410933049363169, ,0.0009690443388416294, ,0.10328382945987859,-0.1687648815004282,0.10667429668000002,3.9132337253081935,1.0806580766448686,-0.1543450918241337, ,0.20810732797910259,0.04773488005959295,0.04946835875776398,1.103026552028183,-0.24224344382018934,0.5268629463674487, ,1.028244972229004
0.015161073943526083,0.021690057961279815,-0.09196366277639068, ,0.016351222416290088,0.02133151860034797,-0.09296029062263385, ,0.0015931951934609941, ,0.030184423807152954,-0.0026260456672073315,-0.048863535786653395,0.010700610036214447,0.2408562998836045,-0.5728421726282359, ,0.05749470137316688, ,0.2410933049363169, ,0.0009736676785054765, ,0.10328382945987859,-0.1687648815004282,0.10667429668000002,3.9132337253081935,1.0806580766448686,-0.1543450918241337, ,0.20810732797910259,0.04773488005959295,0.04946835875776398,1.103026552028183,-0.24224344382018934,0.5268629463674487, ,1.0301580429077148
0.015161073943526083,0.021690057961279815,-0.09196366277639068, ,0.016400173394392547,0.02132821370157204,-0.09305289496032193, ,0.0016890013226556965, ,0.030184423807152954,-0.0026260456672073315,-0.048863535786653395,0.010700610036214447,0.2408562998836045,-0.5728421726282359, ,0.05749470137316688, ,0.2410933049363169, ,0.0009789274847124636, ,0.10328382945987859,-0.1687648815004282,0.10667429668000002,3.9132337253081935,1.0806580766448686,-0.1543450918241337, ,0.20810732797910259,0.04773488005959295,0.04946835875776398,1.103026552028183,-0.24224344382018934,0.5268629463674487, ,1.032106876373291
0.015161073943526083,0.021690057961279815,-0.09196366277639068, ,0.016449082570946235,0.0213247822761503,-0.09314531520757215, ,0.0017856917479152615, ,0.030184423807152954,-0.0026260456672073315,-0.048863535786653395,0.010700610036214447,0.2408562998836045,-0.5728421726282359, ,0.05749470137316688, ,0.2410933049363169, ,0.0009848162749548197, ,0.10328382945987859,-0.1687648815004282,0.10667429668000002,3.9132337253081935,1.0806580766448686,-0.1543450918241337, ,0.20810732797910259,0.04773488005959295,0.04946835875776398,1.103026552028183,-0.24224344382018934,0.5268629463674487, ,1.034876823425293
0.015161073943526083,0.021690057961279815,-0.09196366277639068, ,0.016497949896522982,0.02132122580002273,-0.09323755137611515, ,0.001883100273853449, ,0.030184423807152954,-0.0026260456672073315,-0.048863535786653395,0.010700610036214447,0.2408562998836045,-0.5728421726282359, ,0.05749470137316688, ,0.2410933049363169, ,0.000991325579294665, ,0.10328382945987859,-0.1687648815004282,0.10667429668000002,3.9132337253081935,1.0806580766448686,-0.1543450918241337, ,0.20810732797910259,0.04773488005959295,0.04946835875776398,1.103026552028183,-0.24224344382018934,0.5268629463674487, ,1.036957025527954
0.015407359151649263,0.02167808519885618,-0.09237149950704976, ,0.016546775322987015,0.02131754574451659,-0.0933296034782931, ,0.0015317379440863, ,0.028573287194317728,-0.0001314207865139201,-0.04987437398794649,0.024196858609967287,0.09034406691063482,-0.24083203172001966, ,0.05747958936180427, ,0.09352662614827405, ,0.000995213438034173, ,0.10504461255520178,-0.16836329939096853,0.10709170206000002,3.9207825632736366,1.079018438647683,-0.1501493210748568, ,0.21041450456423677,0.05002474515470257,0.0515495518446602,0.693025827202215,-0.14510845159418193,0.45832222986524285, ,1.0390770435333252
0.015407359151649263,0.02167808519885618,-0.09237149950704976, ,0.0165955588034924,0.02131374357635162,-0.09342147152705935, ,0.0016269617307522707, ,0.028573287194317728,-0.0001314207865139201,-0.04987437398794649,0.024196858609967287,0.09034406691063482,-0.24083203172001966, ,0.05747958936180427, ,0.09352662614827405, ,0.000999725925839302, ,0.10504461255520178,-0.16836329939096853,0.10709170206000002,3.9207825632736366,1.079018438647683,-0.1501493210748568, ,0.21041450456423677,0.05002474515470257,0.0515495518446602,0.693025827202215,-0.14510845159418193,0.45832222986524285, ,1.0412628650665283
0.015407359151649263,0.02167808519885618,-0.09237149950704976, ,0.016644300292479538,0.02130982075764566,-0.09351315553597857, ,0.0017230846099156288, ,0.028573287194317728,-0.0001314207865139201,-0.04987437398794649,0.024196858609967287,0.09034406691063482,-0.24083203172001966, ,0.05747958936180427, ,0.09352662614827405, ,0.0010048561292724677, ,0.10504461255520178,-0.16836329939096853,0.10709170206000002,3.9207825632736366,1.079018438647683,-0.1501493210748568, ,0.21041450456423677,0.05002474515470257,0.0515495518446602,0.693025827202215,-0.14510845159418193,0.45832222986524285, ,1.0434699058532715
0.015407359151649263,0.02167808519885618,-0.09237149950704976, ,0.01669299974567231,0.02130577874592018,-0.09360465551922503, ,0.001819933400501716, ,0.028573287194317728,-0.0001314207865139201,-0.04987437398794649,0.024196858609967287,0.09034406691063482,-0.24083203172001966, ,0.05747958936180427, ,0.09352662614827405, ,0.0010105961100557721, ,0.10504461255520178,-0.16836329939096853,0.10709170206000002,3.9207825632736366,1.079018438647683,-0.1501493210748568, ,0.21041450456423677,0.05002474515470257,0.0515495518446602,0.693025827202215,-0.14510845159418193,0.45832222986524285, ,1.045616865158081
0.015407359151649263,0.02167808519885618,-0.09237149950704976, ,0.016741657120074797,0.02130161899410572,-0.09369597149158403, ,0.0019173690071762047, ,0.028573287194317728,-0.0001314207865139201,-0.04987437398794649,0.024196858609967287,0.09034406691063482,-0.24083203172001966, ,0.05747958936180427, ,0.09352662614827405, ,0.0010169371792664045, ,0.10504461255520178,-0.16836329939096853,0.10709170206000002,3.9207825632736366,1.079018438647683,-0.1501493210748568, ,0.21041450456423677,0.05002474515470257,0.0515495518446602,0.693025827202215,-0.14510845159418193,0.45832222986524285, ,1.0478379726409912
0.015407359151649263,0.02167808519885618,-0.09237149950704976, ,0.016790272373968053,0.021297342950547506,-0.09378710346845001, ,0.002015278694286071, ,0.028573287194317728,-0.0001314207865139201,-0.04987437398794649,0.024196858609967287,0.09034406691063482,-0.24083203172001966, ,0.05747958936180427, ,0.09352662614827405, ,0.0010238701064540412, ,0.10504461255520178,-0.16836329939096853,0.10709170206000002,3.9207825632736366,1.079018438647683,-0.1501493210748568, ,0.21041450456423677,0.05002474515470257,0.0515495518446602,0.693025827202215,-0.14510845159418193,0.45832222986524285, ,1.0498378276824951
0.015407359151649263,0.02167808519885618,-0.09237149950704976, ,0.016838845466907088,0.02129295205901087,-0.09387805146582753, ,0.00211357029943995, ,0.028573287194317728,-0.0001314207865139201,-0.04987437398794649,0.024196858609967287,0.09034406691063482,-0.24083203172001966, ,0.05747958936180427, ,0.09352662614827405, ,0.0010313852801987716, ,0.10504461255520178,-0.16836329939096853,0.10709170206000002,3.9207825632736366,1.079018438647683,-0.1501493210748568, ,0.21041450456423677,0.05002474515470257,0.0515495518446602,0.693025827202215,-0.14510845159418193,0.45832222986524285, ,1.0518510341644287
0.01586784395552328,0.02173527961156393,-0.09324965005694145, ,0.01688737635971804,0.021288447758686605,-0.09396881550032982, ,0.001325256187653129, ,0.025312972781100944,0.004338752319831926,-0.04919625200812957,-0.027567174237320496,-0.2097707941772458,0.2979697002032885, ,0.05549632937732907, ,0.21157373893673845, ,0.0010333980946333906, ,0.10888281079369136,-0.16739795778169048,0.1080198457,3.921831012991059,1.0781986196490907,-0.14409001680340117, ,0.21815388864016272,0.05498084678938052,0.05257033504950496,-0.13807889711661728,0.0017309633001826115,0.1765311597068932, ,1.0542669296264648
0.01586784395552328,0.02173527961156393,-0.09324965005694145, ,0.01693586501449428,0.02128383148419686,-0.09405939558917904, ,0.0014142709150256538, ,0.025312972781100944,0.004338752319831926,-0.04919625200812957,-0.027567174237320496,-0.2097707941772458,0.2979697002032885, ,0.05549632937732907, ,0.21157373893673845, ,0.0010359890662006849, ,0.10888281079369136,-0.16739795778169048,0.1080198457,3.921831012991059,1.0781986196490907,-0.14409001680340117, ,0.21815388864016272,0.05498084678938052,0.05257033504950496,-0.13807889711661728,0.0017309633001826115,0.1765311597068932, ,1.0562310218811035
0.01586784395552328,0.02173527961156393,-0.09324965005694145, ,0.016984311394594383,0.021279104665600224,-0.09414979175020567, ,0.0015049419230600053, ,0.025312972781100944,0.004338752319831926,-0.04919625200812957,-0.027567174237320496,-0.2097707941772458,0.2979697002032885, ,0.05549632937732907, ,0.21157373893673845, ,0.0010391576665848695, ,0.10888281079369136,-0.16739795778169048,0.1080198457,3.921831012991059,1.0781986196490907,-0.14409001680340117, ,0.21815388864016272,0.05498084678938052,0.05257033504950496,-0.13807889711661728,0.0017309633001826115,0.1765311597068932, ,1.0582249164581299
0.01586784395552328,0.02173527961156393,-0.09324965005694145, ,0.017032715464638002,0.021274268728397435,-0.09424000400184884, ,0.001596952598964285, ,0.025312972781100944,0.004338752319831926,-0.04919625200812957,-0.027567174237320496,-0.2097707941772458,0.2979697002032885, ,0.05549632937732907, ,0.21157373893673845, ,0.001042901256735067, ,0.10888281079369136,-0.16739795778169048,0.1080198457,3.921831012991059,1.0781986196490907,-0.14409001680340117, ,0.21815388864016272,0.05498084678938052,0.05257033504950496,-0.13807889711661728,0.0017309633001826115,0.1765311597068932, ,1.0601718425750732
0.01586784395552328,0.02173527961156393,-0.09324965005694145, ,0.017081077190503124,0.021269325093536955,-0.0943300323631547, ,0.0016900516036228138, ,0.025312972781100944,0.004338752319831926,-0.04919625200812957,-0.027567174237320496,-0.2097707941772458,0.2979697002032885, ,0.05549632937732907, ,0.21157373893673845, ,0.0010472155923809852, ,0.10888281079369136,-0.16739795778169048,0.1080198457,3.921831012991059,1.0781986196490907,-0.14409001680340117, ,0.21815388864016272,0.05498084678938052,0.05257033504950496,-0.13807889711661728,0.0017309633001826115,0.1765311597068932, ,1.0620968341827393
0.016126564534677864,0.021745795807051636,-0.09369238395353306, ,0.01712939653932285,0.021264275177420373,-0.09441987685377703, ,0.001329202793484182, ,0.029174237806726105,-0.001987407227074172,-0.044902345139328226,0.01366327720354421,-0.08842118639978777,-0.3783069143813226, ,0.05358457369524355, ,0.08946959714741343, ,0.0010490830572889534, ,0.11096022593685775,-0.16680330735037519,0.10849169526,3.9239279124259046,1.0781986196490907,-0.14261979948087117, ,0.22120499197778737,0.07200071438427222,0.047548691104477625,0.5418864407019632,-0.017135457164415415,0.1675010302612433, ,1.0640039443969727
0.016126564534677864,0.021745795807051636,-0.09369238395353306, ,0.017177673479482878,0.021259120391907766,-0.09450953749397704, ,0.0014175411395140189, ,0.029174237806726105,-0.001987407227074172,-0.044902345139328226,0.01366327720354421,-0.08842118639978777,-0.3783069143813226, ,0.05358457369524355, ,0.08946959714741343, ,0.0010515071236193814, ,0.11096022593685775,-0.16680330735037519,0.10849169526,3.9239279124259046,1.0781986196490907,-0.14261979948087117, ,0.22120499197778737,0.07200071438427222,0.047548691104477625,0.5418864407019632,-0.017135457164415415,0.1675010302612433, ,1.0659258365631104
0.016126564534677864,0.021745795807051636,-0.09369238395353306, ,0.01722590798061726,0.021253862144323576,-0.09459901430462228, ,0.0015074923993742423, ,0.029174237806726105,-0.001987407227074172,-0.044902345139328226,0.01366327720354421,-0.08842118639978777,-0.3783069143813226, ,0.05358457369524355, ,0.08946959714741343, ,0.0010544874195393477, ,0.11096022593685775,-0.16680330735037519,0.10849169526,3.9239279124259046,1.0781986196490907,-0.14261979948087117, ,0.22120499197778737,0.07200071438427222,0.047548691104477625,0.5418864407019632,-0.017135457164415415,0.1675010302612433, ,1.0678739547729492
0.016126564534677864,0.021745795807051636,-0.09369238395353306, ,0.01727410001360617,0.021248501837461582,-0.09468830730718676, ,0.0015987502287545352, ,0.029174237806726105,-0.001987407227074172,-0.044902345139328226,0.01366327720354421,-0.08842118639978777,-0.3783069143813226, ,0.05358457369524355, ,0.08946959714741343, ,0.0010580215936251607, ,0.11096022593685775,-0.16680330735037519,0.10849169526,3.9239279124259046,1.0781986196490907,-0.14261979948087117, ,0.22120499197778737,0.07200071438427222,0.047548691104477625,0.5418864407019632,-0.017135457164415415,0.1675010302612433, ,1.0698559284210205
0.016126564534677864,0.021745795807051636,-0.09369238395353306, ,0.017322249550572606,0.02124304086959102,-0.09477741652375068, ,0.0016910709218744492, ,0.029174237806726105,-0.001987407227074172,-0.044902345139328226,0.01366327720354421,-0.08842118639978777,-0.3783069143813226, ,0.05358457369524355, ,0.08946959714741343, ,0.0010621057828396722, ,0.11096022593685775,-0.16680330735037519,0.10849169526,3.9239279124259046,1.0781986196490907,-0.14261979948087117, ,0.22120499197778737,0.07200071438427222,0.047548691104477625,0.5418864407019632,-0.017135457164415415,0.1675010302612433, ,1.0719640254974365
0.01643392666705393,0.021703905082980736,-0.09414890835581863, ,0.01737035656487879,0.021237480634461656,-0.09486634197699974, ,0.0012685281709594166, ,0.0296112140750506,-0.004920150289175498,-0.04310094670611352,-0.03189996925344954,0.13698659049009412,-0.36973611770460657, ,0.05252355171568072, ,0.14065128961486376, ,0.0010634290032763372, ,0.11320754120325709,-0.16603875679582697,0.10896224853000001,3.931896130278316,1.0766956181516707,-0.13910719781627462, ,0.21665968392344928,0.07702673827797953,0.043881023471074386,0.7989674497791737,-0.20260520201734428,0.433617449413384, ,1.073976993560791
0.01643392666705393,0.021703905082980736,-0.09414890835581863, ,0.01741842103112368,0.02123182252130934,-0.09495508369022501, ,0.001357206604656996, ,0.0296112140750506,-0.004920150289175498,-0.04310094670611352,-0.03189996925344954,0.13698659049009412,-0.36973611770460657, ,0.05252355171568072, ,0.14065128961486376, ,0.0010653001981895897, ,0.11320754120325709,-0.16603875679582697,0.10896224853000001,3.931896130278316,1.0766956181516707,-0.13910719781627462, ,0.21665968392344928,0.07702673827797953,0.043881023471074386,0.7989674497791737,-0.20260520201734428,0.433617449413384, ,1.075916051864624
0.01643392666705393,0.021703905082980736,-0.09414890835581863, ,0.017466442925139446,0.02122606791486164,-0.09504364168732253, ,0.0014473997087712381, ,0.0296112140750506,-0.004920150289175498,-0.04310094670611352,-0.03189996925344954,0.13698659049009412,-0.36973611770460657, ,0.05252355171568072, ,0.14065128961486376, ,0.001067718549522385, ,0.11320754120325709,-0.16603875679582697,0.10896224853000001,3.931896130278316,1.0766956181516707,-0.13910719781627462, ,0.21665968392344928,0.07702673827797953,0.043881023471074386,0.7989674497791737,-0.20260520201734428,0.433617449413384, ,1.0778319835662842
0.01643392666705393,0.021703905082980736,-0.09414890835581863, ,0.017514422223988482,0.0212202181953433,-0.0951320159927931, ,0.0015388061215452786, ,0.0296112140750506,-0.004920150289175498,-0.04310094670611352,-0.03189996925344954,0.13698659049009412,-0.36973611770460657, ,0.05252355171568072, ,0.14065128961486376, ,0.001070681364440768, ,0.11320754120325709,-0.16603875679582697,0.10896224853000001,3.931896130278316,1.0766956181516707,-0.13910719781627462, ,0.21665968392344928,0.07702673827797953,0.043881023471074386,0.7989674497791737,-0.20260520201734428,0.433617449413384, ,1.07977294921875
0.01643392666705393,0.021703905082980736,-0.09414890835581863, ,0.01756235890596025,0.021214274738481687,-0.0952202066317417, ,0.001631188887913702, ,0.0296112140750506,-0.004920150289175498,-0.04310094670611352,-0.03189996925344954,0.13698659049009412,-0.36973611770460657, ,0.05252355171568072, ,0.14065128961486376, ,0.0010741845364624736, ,0.11320754120325709,-0.16603875679582697,0.10896224853000001,3.931896130278316,1.0766956181516707,-0.13910719781627462, ,0.21665968392344928,0.07702673827797953,0.043881023471074386,0.7989674497791737,-0.20260520201734428,0.433617449413384, ,1.0824449062347412
0.01670055999297498,0.02166765870732133,-0.09454926503907897, ,0.017610252950568103,0.021208238915512313,-0.09530821362987735, ,0.001270673359158524, ,0.026951099797889302,-0.002855238148695049,-0.041320843872096655,-0.06091802729343654,0.062407244281288105,0.04566887077424586, ,0.049415850731356833, ,0.08720980293098675, ,0.0010754049639326356, ,0.11525406541492658,-0.16529737443990142,0.10937057988000001,3.9371383788654293,1.0747827071549545,-0.13485194873988615, ,0.21325155406397928,0.07665342613769853,0.04236386042553192,0.3847498918228812,-0.18538756182007737,0.44463311018057466, ,1.088989019393921
0.01670055999297498,0.02166765870732133,-0.09454926503907897, ,0.017658104338546223,0.021202112093184435,-0.09539603701351257, ,0.0013603850926689704, ,0.026951099797889302,-0.002855238148695049,-0.041320843872096655,-0.06091802729343654,0.062407244281288105,0.04566887077424586, ,0.049415850731356833, ,0.08720980293098675, ,0.0010771641005297733, ,0.11525406541492658,-0.16529737443990142,0.10937057988000001,3.9371383788654293,1.0747827071549545,-0.13485194873988615, ,0.21325155406397928,0.07665342613769853,0.04236386042553192,0.3847498918228812,-0.18538756182007737,0.44463311018057466, ,1.0911469459533691
0.01670055999297498,0.02166765870732133,-0.09454926503907897, ,0.017705913051846392,0.02119589563376643,-0.09548367680956318, ,0.0014513512763530104, ,0.026951099797889302,-0.002855238148695049,-0.041320843872096655,-0.06091802729343654,0.062407244281288105,0.04566887077424586, ,0.049415850731356833, ,0.08720980293098675, ,0.0010794597273753148, ,0.11525406541492658,-0.16529737443990142,0.10937057988000001,3.9371383788654293,1.0747827071549545,-0.13485194873988615, ,0.21325155406397928,0.07665342613769853,0.04236386042553192,0.3847498918228812,-0.18538756182007737,0.44463311018057466, ,1.0931909084320068
