NicholasDascanio/dvrk_moveit_final/test/execution/third_experiment_notsharpbends/thirdexp_600vel5.0/thirdexp_600vel5.0_16.csv
Current Position (x),Current Position (y),Current Position (z), ,Planned Position (x),Planned Position (y),Planned Position (z), ,Position Error,,Cartesian linear Velocity(x),Cartesian linear Velocity(y),Cartesian linear Velocity(z),Cartesian Angular Velocity(x),Cartesian Angular Velocity(y),Cartesian Angular Velocity(z), ,Total Linear Velocity, ,Total Angular Velocity, ,MSE, ,Joint 1 Position,Joint 2 Position,Joint 3 Position,Joint 4 Position,Joint 5 Position,Joint 6 Position, ,Joint 1 Velocity,Joint 2 Velocity,Joint 3 Velocity,Joint 4 Velocity,Joint 5 Velocity,Joint 6 Velocity, ,Time Stamp
0.0894921312374249,0.07954804324139889,-0.1392239018901873, ,0.010147929764688923,0.019913329370964763,-0.07996332189085191, ,0.11560111481993716, ,8.987523193969448e-05,1.3011206097729894e-05,6.52053412795921e-05,6.712721031259806e-05,-0.0006689471154971867,4.0958840786595e-05, ,0.0001117970721070975, ,0.0006723067050806198, ,0.009633426234994764, ,0.0,0.0,0.0,0.0,0.0,0.0, ,0.0,0.0,0.0,0.0,0.0,0.0, ,0.019424915313720703
0.0894921312374249,0.07954804324139889,-0.1392239018901873, ,0.010174172502199885,0.019952213516570626,-0.08003197585024521, ,0.11552785641061447, ,8.987523193969448e-05,1.3011206097729894e-05,6.52053412795921e-05,6.712721031259806e-05,-0.0006689471154971867,4.0958840786595e-05, ,0.0001117970721070975, ,0.0006723067050806198, ,0.010505862328661438, ,0.0,0.0,0.0,0.0,0.0,0.0, ,0.0,0.0,0.0,0.0,0.0,0.0, ,0.04079008102416992
0.0894921312374249,0.07954804324139889,-0.1392239018901873, ,0.010200563088848416,0.019990576551486124,-0.08010076152921498, ,0.11545471122532702, ,8.987523193969448e-05,1.3011206097729894e-05,6.52053412795921e-05,6.712721031259806e-05,-0.0006689471154971867,4.0958840786595e-05, ,0.0001117970721070975, ,0.0006723067050806198, ,0.010830740076746209, ,0.0,0.0,0.0,0.0,0.0,0.0, ,0.0,0.0,0.0,0.0,0.0,0.0, ,0.05929398536682129
0.0894921312374249,0.07954804324139889,-0.1392239018901873, ,0.010227100784491136,0.02002842162333964,-0.08016967800278757, ,0.11538167865482193, ,8.987523193969448e-05,1.3011206097729894e-05,6.52053412795921e-05,6.712721031259806e-05,-0.0006689471154971867,4.0958840786595e-05, ,0.0001117970721070975, ,0.0006723067050806198, ,0.010999175264540492, ,0.0,0.0,0.0,0.0,0.0,0.0, ,0.0,0.0,0.0,0.0,0.0,0.0, ,0.08243298530578613
0.0894921312374249,0.07954804324139889,-0.1392239018901873, ,0.010253784851302645,0.020065751871229446,-0.0802387243475734, ,0.11530875809922901, ,8.987523193969448e-05,1.3011206097729894e-05,6.52053412795921e-05,6.712721031259806e-05,-0.0006689471154971867,4.0958840786595e-05, ,0.0001117970721070975, ,0.0006723067050806198, ,0.011101425369421724, ,0.0,0.0,0.0,0.0,0.0,0.0, ,0.0,0.0,0.0,0.0,0.0,0.0, ,0.10193800926208496
0.0894921312374249,0.07954804324139889,-0.1392239018901873, ,0.010280614553772514,0.020102570425733227,-0.08030789964176671, ,0.11523594896792619, ,8.987523193969448e-05,1.3011206097729894e-05,6.52053412795921e-05,6.712721031259806e-05,-0.0006689471154971867,4.0958840786595e-05, ,0.0001117970721070975, ,0.0006723067050806198, ,0.011169517228675095, ,0.0,0.0,0.0,0.0,0.0,0.0, ,0.0,0.0,0.0,0.0,0.0,0.0, ,0.12482094764709473
0.0894921312374249,0.07954804324139889,-0.1392239018901873, ,0.010307589158701936,0.020138880408917988,-0.08037720296514585, ,0.1151632506794062, ,8.987523193969448e-05,1.3011206097729894e-05,6.52053412795921e-05,6.712721031259806e-05,-0.0006689471154971867,4.0958840786595e-05, ,0.0001117970721070975, ,0.0006723067050806198, ,0.01121768498412864, ,0.0,0.0,0.0,0.0,0.0,0.0, ,0.0,0.0,0.0,0.0,0.0,0.0, ,0.14416098594665527
0.0894921312374249,0.07954804324139889,-0.1392239018901873, ,0.01033470793520114,0.020174684934349554,-0.08044663339907221, ,0.11509066266114437, ,8.987523193969448e-05,1.3011206097729894e-05,6.52053412795921e-05,6.712721031259806e-05,-0.0006689471154971867,4.0958840786595e-05, ,0.0001117970721070975, ,0.0006723067050806198, ,0.011253219286809836, ,0.0,0.0,0.0,0.0,0.0,0.0, ,0.0,0.0,0.0,0.0,0.0,0.0, ,0.1643989086151123
0.0894921312374249,0.07954804324139889,-0.1392239018901873, ,0.010361970154685679,0.0202099871071024,-0.08051619002649073, ,0.11501818434946709, ,8.987523193969448e-05,1.3011206097729894e-05,6.52053412795921e-05,6.712721031259806e-05,-0.0006689471154971867,4.0958840786595e-05, ,0.0001117970721070975, ,0.0006723067050806198, ,0.011404199624921688, ,0.0,0.0,0.0,0.0,0.0,0.0, ,0.0,0.0,0.0,0.0,0.0,0.0, ,0.18240594863891602
0.0894921312374249,0.07954804324139889,-0.1392239018901873, ,0.010389375090873617,0.02024479002376937,-0.08058587193192908, ,0.11494581518942144, ,8.987523193969448e-05,1.3011206097729894e-05,6.52053412795921e-05,6.712721031259806e-05,-0.0006689471154971867,4.0958840786595e-05, ,0.0001117970721070975, ,0.0006723067050806198, ,0.01152727981057295, ,0.0,0.0,0.0,0.0,0.0,0.0, ,0.0,0.0,0.0,0.0,0.0,0.0, ,0.2024519443511963
0.0894921312374249,0.07954804324139889,-0.1392239018901873, ,0.010416922019782462,0.02027909677247119,-0.08065567820149794, ,0.11487355463464553, ,8.987523193969448e-05,1.3011206097729894e-05,6.52053412795921e-05,6.712721031259806e-05,-0.0006689471154971867,4.0958840786595e-05, ,0.0001117970721070975, ,0.0006723067050806198, ,0.011629371887082024, ,0.0,0.0,0.0,0.0,0.0,0.0, ,0.0,0.0,0.0,0.0,0.0,0.0, ,0.22365498542785645
0.0894921312374249,0.07954804324139889,-0.1392239018901873, ,0.0104446102197258,0.02031291043286645,-0.08072560792289027, ,0.11480140214724016, ,8.987523193969448e-05,1.3011206097729894e-05,6.52053412795921e-05,6.712721031259806e-05,-0.0006689471154971867,4.0958840786595e-05, ,0.0001117970721070975, ,0.0006723067050806198, ,0.011715279134230344, ,0.0,0.0,0.0,0.0,0.0,0.0, ,0.0,0.0,0.0,0.0,0.0,0.0, ,0.24125099182128906
0.0894921312374249,0.07954804324139889,-0.1392239018901873, ,0.010472438971310376,0.020346234076161027,-0.08079566018538115, ,0.11472935719764114, ,8.987523193969448e-05,1.3011206097729894e-05,6.52053412795921e-05,6.712721031259806e-05,-0.0006689471154971867,4.0958840786595e-05, ,0.0001117970721070975, ,0.0006723067050806198, ,0.01178844326800647, ,0.0,0.0,0.0,0.0,0.0,0.0, ,0.0,0.0,0.0,0.0,0.0,0.0, ,0.2596700191497803
0.0894921312374249,0.07954804324139889,-0.1392239018901873, ,0.01050040755743284,0.020379070765117843,-0.08086583407982778, ,0.11465741926449262, ,8.987523193969448e-05,1.3011206097729894e-05,6.52053412795921e-05,6.712721031259806e-05,-0.0006689471154971867,4.0958840786595e-05, ,0.0001117970721070975, ,0.0006723067050806198, ,0.0118513949580979, ,0.0,0.0,0.0,0.0,0.0,0.0, ,0.0,0.0,0.0,0.0,0.0,0.0, ,0.27849698066711426
0.0894921312374249,0.07954804324139889,-0.1392239018901873, ,0.010528515263276778,0.020411423554066666,-0.08093612869866892, ,0.1145855878345213, ,8.987523193969448e-05,1.3011206097729894e-05,6.52053412795921e-05,6.712721031259806e-05,-0.0006689471154971867,4.0958840786595e-05, ,0.0001117970721070975, ,0.0006723067050806198, ,0.01190603656645404, ,0.0,0.0,0.0,0.0,0.0,0.0, ,0.0,0.0,0.0,0.0,0.0,0.0, ,0.2963430881500244
0.0894921312374249,0.07954804324139889,-0.1392239018901873, ,0.010556761376309239,0.020443295488913656,-0.08100654313592451, ,0.1145138624024121, ,8.987523193969448e-05,1.3011206097729894e-05,6.52053412795921e-05,6.712721031259806e-05,-0.0006689471154971867,4.0958840786595e-05, ,0.0001117970721070975, ,0.0006723067050806198, ,0.011953825743754856, ,0.0,0.0,0.0,0.0,0.0,0.0, ,0.0,0.0,0.0,0.0,0.0,0.0, ,0.3185908794403076
0.0894921312374249,0.07954804324139889,-0.1392239018901873, ,0.010585145186277924,0.02047468960715105,-0.08107707648719632, ,0.11444224247068353, ,8.987523193969448e-05,1.3011206097729894e-05,6.52053412795921e-05,6.712721031259806e-05,-0.0006689471154971867,4.0958840786595e-05, ,0.0001117970721070975, ,0.0006723067050806198, ,0.012069946956845254, ,0.0,0.0,0.0,0.0,0.0,0.0, ,0.0,0.0,0.0,0.0,0.0,0.0, ,0.3337430953979492
0.0894921312374249,0.07954804324139889,-0.1392239018901873, ,0.010613665985208019,0.020505608937866963,-0.08114772784966631, ,0.11437072754956557, ,8.987523193969448e-05,1.3011206097729894e-05,6.52053412795921e-05,6.712721031259806e-05,-0.0006689471154971867,4.0958840786595e-05, ,0.0001117970721070975, ,0.0006723067050806198, ,0.012174718438579393, ,0.0,0.0,0.0,0.0,0.0,0.0, ,0.0,0.0,0.0,0.0,0.0,0.0, ,0.3488180637359619
0.0894921312374249,0.07954804324139889,-0.1392239018901873, ,0.010642323067398764,0.020536056501755034,-0.08121849632209717, ,0.11429931715687738, ,8.987523193969448e-05,1.3011206097729894e-05,6.52053412795921e-05,6.712721031259806e-05,-0.0006689471154971867,4.0958840786595e-05, ,0.0001117970721070975, ,0.0006723067050806198, ,0.012269671077052664, ,0.0,0.0,0.0,0.0,0.0,0.0, ,0.0,0.0,0.0,0.0,0.0,0.0, ,0.3696620464324951
0.0894921312374249,0.07954804324139889,-0.1392239018901873, ,0.010671115729420536,0.020566035311123974,-0.08128938100483198, ,0.11422801081790644, ,8.987523193969448e-05,1.3011206097729894e-05,6.52053412795921e-05,6.712721031259806e-05,-0.0006689471154971867,4.0958840786595e-05, ,0.0001117970721070975, ,0.0006723067050806198, ,0.012356072379211186, ,0.0,0.0,0.0,0.0,0.0,0.0, ,0.0,0.0,0.0,0.0,0.0,0.0, ,0.3843729496002197
0.0894921312374249,0.07954804324139889,-0.1392239018901873, ,0.010700043270111807,0.020595548369907245,-0.08136038099979402, ,0.11415680806528813, ,8.987523193969448e-05,1.3011206097729894e-05,6.52053412795921e-05,6.712721031259806e-05,-0.0006689471154971867,4.0958840786595e-05, ,0.0001117970721070975, ,0.0006723067050806198, ,0.01243498077628128, ,0.0,0.0,0.0,0.0,0.0,0.0, ,0.0,0.0,0.0,0.0,0.0,0.0, ,0.4004220962524414
0.0894921312374249,0.07954804324139889,-0.1392239018901873, ,0.010729104990575696,0.020624598673672993,-0.08143149541048608, ,0.114085708438887, ,8.987523193969448e-05,1.3011206097729894e-05,6.52053412795921e-05,6.712721031259806e-05,-0.0006689471154971867,4.0958840786595e-05, ,0.0001117970721070975, ,0.0006723067050806198, ,0.012507287024937898, ,0.0,0.0,0.0,0.0,0.0,0.0, ,0.0,0.0,0.0,0.0,0.0,0.0, ,0.4173579216003418
0.0894921312374249,0.07954804324139889,-0.1392239018901873, ,0.010758300194177055,0.020653189209633452,-0.08150272334199032, ,0.11401471148567842, ,8.987523193969448e-05,1.3011206097729894e-05,6.52053412795921e-05,6.712721031259806e-05,-0.0006689471154971867,4.0958840786595e-05, ,0.0001117970721070975, ,0.0006723067050806198, ,0.012573746145348256, ,0.0,0.0,0.0,0.0,0.0,0.0, ,0.0,0.0,0.0,0.0,0.0,0.0, ,0.4326050281524658
0.0894921312374249,0.07954804324139889,-0.1392239018901873, ,0.01078762818653908,0.020681322956654615,-0.08157406390096861, ,0.11394381675963106, ,8.987523193969448e-05,1.3011206097729894e-05,6.52053412795921e-05,6.712721031259806e-05,-0.0006689471154971867,4.0958840786595e-05, ,0.0001117970721070975, ,0.0006723067050806198, ,0.01263500232698516, ,0.0,0.0,0.0,0.0,0.0,0.0, ,0.0,0.0,0.0,0.0,0.0,0.0, ,0.4555070400238037
0.0894921312374249,0.07954804324139889,-0.1392239018901873, ,0.010817088275540584,0.020709002885266177,-0.08164551619566127, ,0.11387302382159067, ,8.987523193969448e-05,1.3011206097729894e-05,6.52053412795921e-05,6.712721031259806e-05,-0.0006689471154971867,4.0958840786595e-05, ,0.0001117970721070975, ,0.0006723067050806198, ,0.012691608544709538, ,0.0,0.0,0.0,0.0,0.0,0.0, ,0.0,0.0,0.0,0.0,0.0,0.0, ,0.47069287300109863
0.0894921312374249,0.07954804324139889,-0.1392239018901873, ,0.010846679771312212,0.020736231957670884,-0.08171707933588723, ,0.11380233223916493, ,8.987523193969448e-05,1.3011206097729894e-05,6.52053412795921e-05,6.712721031259806e-05,-0.0006689471154971867,4.0958840786595e-05, ,0.0001117970721070975, ,0.0006723067050806198, ,0.012798737610916397, ,0.0,0.0,0.0,0.0,0.0,0.0, ,0.0,0.0,0.0,0.0,0.0,0.0, ,0.4844489097595215
0.0894921312374249,0.07954804324139889,-0.1392239018901873, ,0.010876401986233792,0.020763013127754228,-0.08178875243304407, ,0.11373174158660843, ,8.987523193969448e-05,1.3011206097729894e-05,6.52053412795921e-05,6.712721031259806e-05,-0.0006689471154971867,4.0958840786595e-05, ,0.0001117970721070975, ,0.0006723067050806198, ,0.012899323353875537, ,0.0,0.0,0.0,0.0,0.0,0.0, ,0.0,0.0,0.0,0.0,0.0,0.0, ,0.5002710819244385
0.0894921312374249,0.07954804324139889,-0.1392239018901873, ,0.010906254234931056,0.0207893493410944,-0.08186053460010712, ,0.11366125144470922, ,8.987523193969448e-05,1.3011206097729894e-05,6.52053412795921e-05,6.712721031259806e-05,-0.0006689471154971867,4.0958840786595e-05, ,0.0001117970721070975, ,0.0006723067050806198, ,0.012993922495444689, ,0.0,0.0,0.0,0.0,0.0,0.0, ,0.0,0.0,0.0,0.0,0.0,0.0, ,0.5133841037750244
0.0894921312374249,0.07954804324139889,-0.1392239018901873, ,0.010936235834272327,0.020815243534971672,-0.08193242495162961, ,0.11359086140067622, ,8.987523193969448e-05,1.3011206097729894e-05,6.52053412795921e-05,6.712721031259806e-05,-0.0006689471154971867,4.0958840786595e-05, ,0.0001117970721070975, ,0.0006723067050806198, ,0.01308303038494297, ,0.0,0.0,0.0,0.0,0.0,0.0, ,0.0,0.0,0.0,0.0,0.0,0.0, ,0.5263900756835938
0.0894921312374249,0.07954804324139889,-0.1392239018901873, ,0.010966346103365564,0.020840698638378074,-0.08200442260374215, ,0.1135205710480273, ,8.987523193969448e-05,1.3011206097729894e-05,6.52053412795921e-05,6.712721031259806e-05,-0.0006689471154971867,4.0958840786595e-05, ,0.0001117970721070975, ,0.0006723067050806198, ,0.013167089229208973, ,0.0,0.0,0.0,0.0,0.0,0.0, ,0.0,0.0,0.0,0.0,0.0,0.0, ,0.5449419021606445
0.0894921312374249,0.07954804324139889,-0.1392239018901873, ,0.01099658436355479,0.02086571757202729,-0.08207652667415268, ,0.11345037998647857, ,8.987523193969448e-05,1.3011206097729894e-05,6.52053412795921e-05,6.712721031259806e-05,-0.0006689471154971867,4.0958840786595e-05, ,0.0001117970721070975, ,0.0006723067050806198, ,0.01324649503287321, ,0.0,0.0,0.0,0.0,0.0,0.0, ,0.0,0.0,0.0,0.0,0.0,0.0, ,0.5585660934448242
0.0894921312374249,0.07954804324139889,-0.1392239018901873, ,0.011026949938417572,0.020890303248363943,-0.08214873628214578, ,0.11338028782183411, ,8.987523193969448e-05,1.3011206097729894e-05,6.52053412795921e-05,6.712721031259806e-05,-0.0006689471154971867,4.0958840786595e-05, ,0.0001117970721070975, ,0.0006723067050806198, ,0.013321603478661289, ,0.0,0.0,0.0,0.0,0.0,0.0, ,0.0,0.0,0.0,0.0,0.0,0.0, ,0.5723989009857178
0.0894921312374249,0.07954804324139889,-0.1392239018901873, ,0.011057442153761352,0.02091445857157368,-0.08222105054858292, ,0.113310294165877, ,8.987523193969448e-05,1.3011206097729894e-05,6.52053412795921e-05,6.712721031259806e-05,-0.0006689471154971867,4.0958840786595e-05, ,0.0001117970721070975, ,0.0006723067050806198, ,0.013392734931906848, ,0.0,0.0,0.0,0.0,0.0,0.0, ,0.0,0.0,0.0,0.0,0.0,0.0, ,0.5870130062103271
0.0894921312374249,0.07954804324139889,-0.1392239018901873, ,0.011088060337620227,0.020938186437592453,-0.08229346859590143, ,0.11324039863626155, ,8.987523193969448e-05,1.3011206097729894e-05,6.52053412795921e-05,6.712721031259806e-05,-0.0006689471154971867,4.0958840786595e-05, ,0.0001117970721070975, ,0.0006723067050806198, ,0.013506915449423586, ,0.0,0.0,0.0,0.0,0.0,0.0, ,0.0,0.0,0.0,0.0,0.0,0.0, ,0.5993049144744873
0.0894921312374249,0.07954804324139889,-0.1392239018901873, ,0.01111880382025228,0.0209614897341164,-0.08236598954811512, ,0.11317060085640519, ,8.987523193969448e-05,1.3011206097729894e-05,6.52053412795921e-05,6.712721031259806e-05,-0.0006689471154971867,4.0958840786595e-05, ,0.0001117970721070975, ,0.0006723067050806198, ,0.013616198130239449, ,0.0,0.0,0.0,0.0,0.0,0.0, ,0.0,0.0,0.0,0.0,0.0,0.0, ,0.6122400760650635
0.0894921312374249,0.07954804324139889,-0.1392239018901873, ,0.011149671934136046,0.020984371340611315,-0.08243861253081312, ,0.11310090045538285, ,8.987523193969448e-05,1.3011206097729894e-05,6.52053412795921e-05,6.712721031259806e-05,-0.0006689471154971867,4.0958840786595e-05, ,0.0001117970721070975, ,0.0006723067050806198, ,0.013720877169152601, ,0.0,0.0,0.0,0.0,0.0,0.0, ,0.0,0.0,0.0,0.0,0.0,0.0, ,0.6235508918762207
0.0894921312374249,0.07954804324139889,-0.1392239018901873, ,0.011180664013967076,0.021006834128322587,-0.08251133667115994, ,0.1130312970678213, ,8.987523193969448e-05,1.3011206097729894e-05,6.52053412795921e-05,6.712721031259806e-05,-0.0006689471154971867,4.0958840786595e-05, ,0.0001117970721070975, ,0.0006723067050806198, ,0.013821223685665365, ,0.0,0.0,0.0,0.0,0.0,0.0, ,0.0,0.0,0.0,0.0,0.0,0.0, ,0.6369049549102783
0.0894921312374249,0.07954804324139889,-0.1392239018901873, ,0.011211779396655323,0.021028880960284626,-0.08258416109789553, ,0.11296179033379412, ,8.987523193969448e-05,1.3011206097729894e-05,6.52053412795921e-05,6.712721031259806e-05,-0.0006689471154971867,4.0958840786595e-05, ,0.0001117970721070975, ,0.0006723067050806198, ,0.013917487942780115, ,0.0,0.0,0.0,0.0,0.0,0.0, ,0.0,0.0,0.0,0.0,0.0,0.0, ,0.6481800079345703
0.0894921312374249,0.07954804324139889,-0.1392239018901873, ,0.011243017421321748,0.021050514691330516,-0.0826570849413342, ,0.11289237989871852, ,8.987523193969448e-05,1.3011206097729894e-05,6.52053412795921e-05,6.712721031259806e-05,-0.0006689471154971867,4.0958840786595e-05, ,0.0001117970721070975, ,0.0006723067050806198, ,0.014009901314610423, ,0.0,0.0,0.0,0.0,0.0,0.0, ,0.0,0.0,0.0,0.0,0.0,0.0, ,0.659959077835083
0.0894921312374249,0.07954804324139889,-0.1392239018901873, ,0.011274377429295037,0.021071738168101792,-0.08273010733336511, ,0.11282306541325209, ,8.987523193969448e-05,1.3011206097729894e-05,6.52053412795921e-05,6.712721031259806e-05,-0.0006689471154971867,4.0958840786595e-05, ,0.0001117970721070975, ,0.0006723067050806198, ,0.014098678035368415, ,0.0,0.0,0.0,0.0,0.0,0.0, ,0.0,0.0,0.0,0.0,0.0,0.0, ,0.6743450164794922
0.0894921312374249,0.07954804324139889,-0.1392239018901873, ,0.011305858764108334,0.021092554229057897,-0.08280322740745154, ,0.11275384653319126, ,8.987523193969448e-05,1.3011206097729894e-05,6.52053412795921e-05,6.712721031259806e-05,-0.0006689471154971867,4.0958840786595e-05, ,0.0001117970721070975, ,0.0006723067050806198, ,0.014184016757553207, ,0.0,0.0,0.0,0.0,0.0,0.0, ,0.0,0.0,0.0,0.0,0.0,0.0, ,0.6864678859710693
0.0894921312374249,0.07954804324139889,-0.1392239018901873, ,0.011337460771496437,0.021112965704486116,-0.08287644429863024, ,0.11268472291937004, ,8.987523193969448e-05,1.3011206097729894e-05,6.52053412795921e-05,6.712721031259806e-05,-0.0006689471154971867,4.0958840786595e-05, ,0.0001117970721070975, ,0.0006723067050806198, ,0.014266101943190264, ,0.0,0.0,0.0,0.0,0.0,0.0, ,0.0,0.0,0.0,0.0,0.0,0.0, ,0.6985149383544922
0.0894921312374249,0.07954804324139889,-0.1392239018901873, ,0.011369182799392294,0.02113297541651099,-0.08294975714351194, ,0.11261569423755965, ,8.987523193969448e-05,1.3011206097729894e-05,6.52053412795921e-05,6.712721031259806e-05,-0.0006689471154971867,4.0958840786595e-05, ,0.0001117970721070975, ,0.0006723067050806198, ,0.014387172865541021, ,0.0,0.0,0.0,0.0,0.0,0.0, ,0.0,0.0,0.0,0.0,0.0,0.0, ,0.7080919742584229
0.0894921312374249,0.07954804324139889,-0.1392239018901873, ,0.01140102419792401,0.021152586179104056,-0.08302316508028056, ,0.11254676015836934, ,8.987523193969448e-05,1.3011206097729894e-05,6.52053412795921e-05,6.712721031259806e-05,-0.0006689471154971867,4.0958840786595e-05, ,0.0001117970721070975, ,0.0006723067050806198, ,0.014504545396843519, ,0.0,0.0,0.0,0.0,0.0,0.0, ,0.0,0.0,0.0,0.0,0.0,0.0, ,0.7189319133758545
0.0894921312374249,0.07954804324139889,-0.1392239018901873, ,0.011432984319411303,0.021171800798093478,-0.08309666724869315, ,0.11247792035714808, ,8.987523193969448e-05,1.3011206097729894e-05,6.52053412795921e-05,6.712721031259806e-05,-0.0006689471154971867,4.0958840786595e-05, ,0.0001117970721070975, ,0.0006723067050806198, ,0.014618377856595458, ,0.0,0.0,0.0,0.0,0.0,0.0, ,0.0,0.0,0.0,0.0,0.0,0.0, ,0.7288720607757568
0.0894921312374249,0.07954804324139889,-0.1392239018901873, ,0.0114650625183629,0.021190622071173528,-0.08317026279007879, ,0.11240917451388702, ,8.987523193969448e-05,1.3011206097729894e-05,6.52053412795921e-05,6.712721031259806e-05,-0.0006689471154971867,4.0958840786595e-05, ,0.0001117970721070975, ,0.0006723067050806198, ,0.014728819669041833, ,0.0,0.0,0.0,0.0,0.0,0.0, ,0.0,0.0,0.0,0.0,0.0,0.0, ,0.738710880279541
0.0894921312374249,0.07954804324139889,-0.1392239018901873, ,0.011497258151472935,0.021209052787914687,-0.08324395084733954, ,0.11234052231312219, ,8.987523193969448e-05,1.3011206097729894e-05,6.52053412795921e-05,6.712721031259806e-05,-0.0006689471154971867,4.0958840786595e-05, ,0.0001117970721070975, ,0.0006723067050806198, ,0.014836011979202257, ,0.0,0.0,0.0,0.0,0.0,0.0, ,0.0,0.0,0.0,0.0,0.0,0.0, ,0.7485358715057373
0.0894921312374249,0.07954804324139889,-0.1392239018901873, ,0.011529570577617698,0.02122709572977283,-0.08331773056494947, ,0.11227196344383937, ,8.987523193969448e-05,1.3011206097729894e-05,6.52053412795921e-05,6.712721031259806e-05,-0.0006689471154971867,4.0958840786595e-05, ,0.0001117970721070975, ,0.0006723067050806198, ,0.014940088218403973, ,0.0,0.0,0.0,0.0,0.0,0.0, ,0.0,0.0,0.0,0.0,0.0,0.0, ,0.7596900463104248
0.0894921312374249,0.07954804324139889,-0.1392239018901873, ,0.011561999157852979,0.021244753670099016,-0.08339160108895405, ,0.1122034975993786, ,8.987523193969448e-05,1.3011206097729894e-05,6.52053412795921e-05,6.712721031259806e-05,-0.0006689471154971867,4.0958840786595e-05, ,0.0001117970721070975, ,0.0006723067050806198, ,0.015041174624084185, ,0.0,0.0,0.0,0.0,0.0,0.0, ,0.0,0.0,0.0,0.0,0.0,0.0, ,0.7696919441223145
0.0894921312374249,0.07954804324139889,-0.1392239018901873, ,0.011594543255410098,0.02126202937414927,-0.08346556156697002, ,0.11213512447734059, ,8.987523193969448e-05,1.3011206097729894e-05,6.52053412795921e-05,6.712721031259806e-05,-0.0006689471154971867,4.0958840786595e-05, ,0.0001117970721070975, ,0.0006723067050806198, ,0.015139390718118546, ,0.0,0.0,0.0,0.0,0.0,0.0, ,0.0,0.0,0.0,0.0,0.0,0.0, ,0.7821600437164307
0.0894921312374249,0.07954804324139889,-0.1392239018901873, ,0.01162720223569342,0.021278925599093897,-0.08353961114818594, ,0.11206684377949261, ,8.987523193969448e-05,1.3011206097729894e-05,6.52053412795921e-05,6.712721031259806e-05,-0.0006689471154971867,4.0958840786595e-05, ,0.0001117970721070975, ,0.0006723067050806198, ,0.015274941457347544, ,0.0,0.0,0.0,0.0,0.0,0.0, ,0.0,0.0,0.0,0.0,0.0,0.0, ,0.7894148826599121
0.0894921312374249,0.07954804324139889,-0.1392239018901873, ,0.01165997546627687,0.021295445094027587,-0.08361374898336031, ,0.11199865521167679, ,8.987523193969448e-05,1.3011206097729894e-05,6.52053412795921e-05,6.712721031259806e-05,-0.0006689471154971867,4.0958840786595e-05, ,0.0001117970721070975, ,0.0006723067050806198, ,0.015407490648447248, ,0.0,0.0,0.0,0.0,0.0,0.0, ,0.0,0.0,0.0,0.0,0.0,0.0, ,0.8005309104919434
0.0894921312374249,0.07954804324139889,-0.1392239018901873, ,0.011692862316900558,0.021311590599978714,-0.08368797422482283, ,0.11193055848371808, ,8.987523193969448e-05,1.3011206097729894e-05,6.52053412795921e-05,6.712721031259806e-05,-0.0006689471154971867,4.0958840786595e-05, ,0.0001117970721070975, ,0.0006723067050806198, ,0.015537131359503766, ,0.0,0.0,0.0,0.0,0.0,0.0, ,0.0,0.0,0.0,0.0,0.0,0.0, ,0.8092849254608154
0.0894921312374249,0.07954804324139889,-0.1392239018901873, ,0.011725862159467991,0.02132736484991903,-0.08376228602647284, ,0.11186255330933381, ,8.987523193969448e-05,1.3011206097729894e-05,6.52053412795921e-05,6.712721031259806e-05,-0.0006689471154971867,4.0958840786595e-05, ,0.0001117970721070975, ,0.0006723067050806198, ,0.015663952859175496, ,0.0,0.0,0.0,0.0,0.0,0.0, ,0.0,0.0,0.0,0.0,0.0,0.0, ,0.8174300193786621
0.0894921312374249,0.07954804324139889,-0.1392239018901873, ,0.011758974368042505,0.021342770568773397,-0.08383668354378006, ,0.11179463940604346, ,8.987523193969448e-05,1.3011206097729894e-05,6.52053412795921e-05,6.712721031259806e-05,-0.0006689471154971867,4.0958840786595e-05, ,0.0001117970721070975, ,0.0006723067050806198, ,0.015788040808593026, ,0.0,0.0,0.0,0.0,0.0,0.0, ,0.0,0.0,0.0,0.0,0.0,0.0, ,0.8255729675292969
0.0894921312374249,0.07954804324139889,-0.1392239018901873, ,0.011792198318844364,0.021357810473429314,-0.08391116593378306, ,0.11172681649508004, ,8.987523193969448e-05,1.3011206097729894e-05,6.52053412795921e-05,6.712721031259806e-05,-0.0006689471154971867,4.0958840786595e-05, ,0.0001117970721070975, ,0.0006723067050806198, ,0.0159094774417448, ,0.0,0.0,0.0,0.0,0.0,0.0, ,0.0,0.0,0.0,0.0,0.0,0.0, ,0.8336160182952881
0.0894921312374249,0.07954804324139889,-0.1392239018901873, ,0.011825533390247419,0.021372487272746682,-0.0839857323550904, ,0.1116590843013012, ,8.987523193969448e-05,1.3011206097729894e-05,6.52053412795921e-05,6.712721031259806e-05,-0.0006689471154971867,4.0958840786595e-05, ,0.0001117970721070975, ,0.0006723067050806198, ,0.016028341735146584, ,0.0,0.0,0.0,0.0,0.0,0.0, ,0.0,0.0,0.0,0.0,0.0,0.0, ,0.8413848876953125
0.0894921312374249,0.07954804324139889,-0.1392239018901873, ,0.011858978962775815,0.02138680366756745,-0.08406038196787875, ,0.11159144255310262, ,8.987523193969448e-05,1.3011206097729894e-05,6.52053412795921e-05,6.712721031259806e-05,-0.0006689471154971867,4.0958840786595e-05, ,0.0001117970721070975, ,0.0006723067050806198, ,0.016144709567530204, ,0.0,0.0,0.0,0.0,0.0,0.0, ,0.0,0.0,0.0,0.0,0.0,0.0, ,0.8496921062469482
0.0894921312374249,0.07954804324139889,-0.1392239018901873, ,0.01189253441910108,0.02140076235072502,-0.08413511393389417, ,0.11152389098233062, ,8.987523193969448e-05,1.3011206097729894e-05,6.52053412795921e-05,6.712721031259806e-05,-0.0006689471154971867,4.0958840786595e-05, ,0.0001117970721070975, ,0.0006723067050806198, ,0.016298212638770446, ,0.0,0.0,0.0,0.0,0.0,0.0, ,0.0,0.0,0.0,0.0,0.0,0.0, ,0.8553709983825684
0.0894921312374249,0.07954804324139889,-0.1392239018901873, ,0.011926199144038708,0.02141436600705418,-0.08420992741645043, ,0.11145642932419707, ,8.987523193969448e-05,1.3011206097729894e-05,6.52053412795921e-05,6.712721031259806e-05,-0.0006689471154971867,4.0958840786595e-05, ,0.0001117970721070975, ,0.0006723067050806198, ,0.016449328076953745, ,0.0,0.0,0.0,0.0,0.0,0.0, ,0.0,0.0,0.0,0.0,0.0,0.0, ,0.8610579967498779
0.0894921312374249,0.07954804324139889,-0.1392239018901873, ,0.011959972524545037,0.021427617313400572,-0.08428482158042952, ,0.11138905731719408, ,8.987523193969448e-05,1.3011206097729894e-05,6.52053412795921e-05,6.712721031259806e-05,-0.0006689471154971867,4.0958840786595e-05, ,0.0001117970721070975, ,0.0006723067050806198, ,0.016598107628719532, ,0.0,0.0,0.0,0.0,0.0,0.0, ,0.0,0.0,0.0,0.0,0.0,0.0, ,0.8676309585571289
0.0894921312374249,0.07954804324139889,-0.1392239018901873, ,0.01199385394971397,0.021440518938630387,-0.08435979559228093, ,0.11132177470301007, ,8.987523193969448e-05,1.3011206097729894e-05,6.52053412795921e-05,6.712721031259806e-05,-0.0006689471154971867,4.0958840786595e-05, ,0.0001117970721070975, ,0.0006723067050806198, ,0.0167446015616168, ,0.0,0.0,0.0,0.0,0.0,0.0, ,0.0,0.0,0.0,0.0,0.0,0.0, ,0.873805046081543
0.0894921312374249,0.07954804324139889,-0.1392239018901873, ,0.012027842810773869,0.02145307354364,-0.08443484862002183, ,0.11125458122644628, ,8.987523193969448e-05,1.3011206097729894e-05,6.52053412795921e-05,6.712721031259806e-05,-0.0006689471154971867,4.0958840786595e-05, ,0.0001117970721070975, ,0.0006723067050806198, ,0.01688885871656147, ,0.0,0.0,0.0,0.0,0.0,0.0, ,0.0,0.0,0.0,0.0,0.0,0.0, ,0.8820290565490723
0.0894921312374249,0.07954804324139889,-0.1392239018901873, ,0.012061938501084389,0.021465283781365595,-0.08450997983323588, ,0.11118747663533461, ,8.987523193969448e-05,1.3011206097729894e-05,6.52053412795921e-05,6.712721031259806e-05,-0.0006689471154971867,4.0958840786595e-05, ,0.0001117970721070975, ,0.0006723067050806198, ,0.01703092655807708, ,0.0,0.0,0.0,0.0,0.0,0.0, ,0.0,0.0,0.0,0.0,0.0,0.0, ,0.8883819580078125
0.0894921312374249,0.07954804324139889,-0.1392239018901873, ,0.012096140416133138,0.02147715229679274,-0.08458518840307376, ,0.1111204606804557, ,8.987523193969448e-05,1.3011206097729894e-05,6.52053412795921e-05,6.712721031259806e-05,-0.0006689471154971867,4.0958840786595e-05, ,0.0001117970721070975, ,0.0006723067050806198, ,0.017170851222427255, ,0.0,0.0,0.0,0.0,0.0,0.0, ,0.0,0.0,0.0,0.0,0.0,0.0, ,0.8941650390625
0.0894921312374249,0.07954804324139889,-0.1392239018901873, ,0.012130447953532608,0.02148868172696613,-0.08466047350225242, ,0.11105353311545813, ,8.987523193969448e-05,1.3011206097729894e-05,6.52053412795921e-05,6.712721031259806e-05,-0.0006689471154971867,4.0958840786595e-05, ,0.0001117970721070975, ,0.0006723067050806198, ,0.017308677563742478, ,0.0,0.0,0.0,0.0,0.0,0.0, ,0.0,0.0,0.0,0.0,0.0,0.0, ,0.899899959564209
0.0894921312374249,0.07954804324139889,-0.1392239018901873, ,0.012164860513016977,0.021499874700999275,-0.08473583430505496, ,0.11098669369677819, ,8.987523193969448e-05,1.3011206097729894e-05,6.52053412795921e-05,6.712721031259806e-05,-0.0006689471154971867,4.0958840786595e-05, ,0.0001117970721070975, ,0.0006723067050806198, ,0.017444449198237996, ,0.0,0.0,0.0,0.0,0.0,0.0, ,0.0,0.0,0.0,0.0,0.0,0.0, ,0.9059090614318848
0.0894921312374249,0.07954804324139889,-0.1392239018901873, ,0.01219937749643885,0.02151073384008391,-0.08481126998733028, ,0.1109199421835609, ,8.987523193969448e-05,1.3011206097729894e-05,6.52053412795921e-05,6.712721031259806e-05,-0.0006689471154971867,4.0958840786595e-05, ,0.0001117970721070975, ,0.0006723067050806198, ,0.01761843328013064, ,0.0,0.0,0.0,0.0,0.0,0.0, ,0.0,0.0,0.0,0.0,0.0,0.0, ,0.9096629619598389
0.0894921312374249,0.07954804324139889,-0.1392239018901873, ,0.012233998307765958,0.021521261757499775,-0.08488677972649254, ,0.1108532783375815, ,8.987523193969448e-05,1.3011206097729894e-05,6.52053412795921e-05,6.712721031259806e-05,-0.0006689471154971867,4.0958840786595e-05, ,0.0001117970721070975, ,0.0006723067050806198, ,0.017790680231787405, ,0.0,0.0,0.0,0.0,0.0,0.0, ,0.0,0.0,0.0,0.0,0.0,0.0, ,0.9139750003814697
0.0894921312374249,0.07954804324139889,-0.1392239018901873, ,0.012268722353078243,0.021531461058624295,-0.084962362701521, ,0.11078670192316764, ,8.987523193969448e-05,1.3011206097729894e-05,6.52053412795921e-05,6.712721031259806e-05,-0.0006689471154971867,4.0958840786595e-05, ,0.0001117970721070975, ,0.0006723067050806198, ,0.017961213885890788, ,0.0,0.0,0.0,0.0,0.0,0.0, ,0.0,0.0,0.0,0.0,0.0,0.0, ,0.9177329540252686
0.0894921312374249,0.07954804324139889,-0.1392239018901873, ,0.012303549040564295,0.021541334340942138,-0.08503801809295959, ,0.1107202127071227, ,8.987523193969448e-05,1.3011206097729894e-05,6.52053412795921e-05,6.712721031259806e-05,-0.0006689471154971867,4.0958840786595e-05, ,0.0001117970721070975, ,0.0006723067050806198, ,0.018130057644209843, ,0.0,0.0,0.0,0.0,0.0,0.0, ,0.0,0.0,0.0,0.0,0.0,0.0, ,0.9214720726013184
0.0894921312374249,0.07954804324139889,-0.1392239018901873, ,0.01233847778051846,0.02155088419405484,-0.08511374508291722, ,0.11065381045864932, ,8.987523193969448e-05,1.3011206097729894e-05,6.52053412795921e-05,6.712721031259806e-05,-0.0006689471154971867,4.0958840786595e-05, ,0.0001117970721070975, ,0.0006723067050806198, ,0.018297234487289007, ,0.0,0.0,0.0,0.0,0.0,0.0, ,0.0,0.0,0.0,0.0,0.0,0.0, ,0.9261460304260254
0.0894921312374249,0.07954804324139889,-0.1392239018901873, ,0.012373507985337491,0.02156011319969049,-0.08518954285506634, ,0.11058749494927453, ,8.987523193969448e-05,1.3011206097729894e-05,6.52053412795921e-05,6.712721031259806e-05,-0.0006689471154971867,4.0958840786595e-05, ,0.0001117970721070975, ,0.0006723067050806198, ,0.018462766983876697, ,0.0,0.0,0.0,0.0,0.0,0.0, ,0.0,0.0,0.0,0.0,0.0,0.0, ,0.9304029941558838
0.0894921312374249,0.07954804324139889,-0.1392239018901873, ,0.01240863906951742,0.021569023931713394,-0.08526541059464365, ,0.11052126595277488, ,8.987523193969448e-05,1.3011206097729894e-05,6.52053412795921e-05,6.712721031259806e-05,-0.0006689471154971867,4.0958840786595e-05, ,0.0001117970721070975, ,0.0006723067050806198, ,0.01862667730010169, ,0.0,0.0,0.0,0.0,0.0,0.0, ,0.0,0.0,0.0,0.0,0.0,0.0, ,0.9345278739929199
0.0894921312374249,0.07954804324139889,-0.1392239018901873, ,0.012443870449650285,0.02157761895613344,-0.08534134748844903, ,0.11045512324510305, ,8.987523193969448e-05,1.3011206097729894e-05,6.52053412795921e-05,6.712721031259806e-05,-0.0006689471154971867,4.0958840786595e-05, ,0.0001117970721070975, ,0.0006723067050806198, ,0.018788987208405238, ,0.0,0.0,0.0,0.0,0.0,0.0, ,0.0,0.0,0.0,0.0,0.0,0.0, ,0.9383220672607422
0.0894921312374249,0.07954804324139889,-0.1392239018901873, ,0.012479201544420754,0.021585900831116268,-0.08541735272484555, ,0.11038906660431468, ,8.987523193969448e-05,1.3011206097729894e-05,6.52053412795921e-05,6.712721031259806e-05,-0.0006689471154971867,4.0958840786595e-05, ,0.0001117970721070975, ,0.0006723067050806198, ,0.01894971809623637, ,0.0,0.0,0.0,0.0,0.0,0.0, ,0.0,0.0,0.0,0.0,0.0,0.0, ,0.942241907119751
0.0894921312374249,0.07954804324139889,-0.1392239018901873, ,0.012514631774603447,0.021593872106992384,-0.08549342549375963, ,0.11032309581049574, ,8.987523193969448e-05,1.3011206097729894e-05,6.52053412795921e-05,6.712721031259806e-05,-0.0006689471154971867,4.0958840786595e-05, ,0.0001117970721070975, ,0.0006723067050806198, ,0.01910889097451774, ,0.0,0.0,0.0,0.0,0.0,0.0, ,0.0,0.0,0.0,0.0,0.0,0.0, ,0.9461190700531006
0.0894921312374249,0.07954804324139889,-0.1392239018901873, ,0.012550160563059224,0.02160153532626691,-0.08556956498667947, ,0.1102572106456921, ,8.987523193969448e-05,1.3011206097729894e-05,6.52053412795921e-05,6.712721031259806e-05,-0.0006689471154971867,4.0958840786595e-05, ,0.0001117970721070975, ,0.0006723067050806198, ,0.01926652648588898, ,0.0,0.0,0.0,0.0,0.0,0.0, ,0.0,0.0,0.0,0.0,0.0,0.0, ,0.9499070644378662
0.0894921312374249,0.07954804324139889,-0.1392239018901873, ,0.012585787334732108,0.021608893023629536,-0.08564577039665597, ,0.11019141089383795, ,8.987523193969448e-05,1.3011206097729894e-05,6.52053412795921e-05,6.712721031259806e-05,-0.0006689471154971867,4.0958840786595e-05, ,0.0001117970721070975, ,0.0006723067050806198, ,0.01942264491273443, ,0.0,0.0,0.0,0.0,0.0,0.0, ,0.0,0.0,0.0,0.0,0.0,0.0, ,0.9541640281677246
0.0894921312374249,0.07954804324139889,-0.1392239018901873, ,0.012621511516646183,0.021615947725963765,-0.0857220409183019, ,0.1101256963406862, ,8.987523193969448e-05,1.3011206097729894e-05,6.52053412795921e-05,6.712721031259806e-05,-0.0006689471154971867,4.0958840786595e-05, ,0.0001117970721070975, ,0.0006723067050806198, ,0.019619825459316932, ,0.0,0.0,0.0,0.0,0.0,0.0, ,0.0,0.0,0.0,0.0,0.0,0.0, ,0.9562869071960449
0.0894921312374249,0.07954804324139889,-0.1392239018901873, ,0.012657332537902305,0.021622701952356695,-0.08579837574779167, ,0.11006006677373939, ,8.987523193969448e-05,1.3011206097729894e-05,6.52053412795921e-05,6.712721031259806e-05,-0.0006689471154971867,4.0958840786595e-05, ,0.0001117970721070975, ,0.0006723067050806198, ,0.019816008195356897, ,0.0,0.0,0.0,0.0,0.0,0.0, ,0.0,0.0,0.0,0.0,0.0,0.0, ,0.9581789970397949
0.0894921312374249,0.07954804324139889,-0.1392239018901873, ,0.012693249829675107,0.02162915821410861,-0.08587477408286036, ,0.10999452198218143, ,8.987523193969448e-05,1.3011206097729894e-05,6.52053412795921e-05,6.712721031259806e-05,-0.0006689471154971867,4.0958840786595e-05, ,0.0001117970721070975, ,0.0006723067050806198, ,0.020011199783640066, ,0.0,0.0,0.0,0.0,0.0,0.0, ,0.0,0.0,0.0,0.0,0.0,0.0, ,0.9600989818572998
0.0894921312374249,0.07954804324139889,-0.1392239018901873, ,0.012729262825209314,0.02163531901474281,-0.08595123512280473, ,0.10992906175680947, ,8.987523193969448e-05,1.3011206097729894e-05,6.52053412795921e-05,6.712721031259806e-05,-0.0006689471154971867,4.0958840786595e-05, ,0.0001117970721070975, ,0.0006723067050806198, ,0.020205406828938486, ,0.0,0.0,0.0,0.0,0.0,0.0, ,0.0,0.0,0.0,0.0,0.0,0.0, ,0.9620449542999268
0.0894921312374249,0.07954804324139889,-0.1392239018901873, ,0.01276537095981704,0.02164118685001495,-0.08602775806848154, ,0.10986368588996762, ,8.987523193969448e-05,1.3011206097729894e-05,6.52053412795921e-05,6.712721031259806e-05,-0.0006689471154971867,4.0958840786595e-05, ,0.0001117970721070975, ,0.0006723067050806198, ,0.1113525535022175, ,0.0,0.0,0.0,0.0,0.0,0.0, ,0.0,0.0,0.0,0.0,0.0,0.0, ,0.9648609161376953
0.0894921312374249,0.07954804324139889,-0.1392239018901873, ,0.012801573670874384,0.021646764207922744,-0.08610434212230822, ,0.10979839417548026, ,8.987523193969448e-05,1.3011206097729894e-05,6.52053412795921e-05,6.712721031259806e-05,-0.0006689471154971867,4.0958840786595e-05, ,0.0001117970721070975, ,0.0006723067050806198, ,0.11133448188213915, ,0.0,0.0,0.0,0.0,0.0,0.0, ,0.0,0.0,0.0,0.0,0.0,0.0, ,0.9669349193572998
0.0894921312374249,0.07954804324139889,-0.1392239018901873, ,0.012837870397817927,0.021652053568715888,-0.08618098648826206, ,0.10973318640858706, ,8.987523193969448e-05,1.3011206097729894e-05,6.52053412795921e-05,6.712721031259806e-05,-0.0006689471154971867,4.0958840786595e-05, ,0.0001117970721070975, ,0.0006723067050806198, ,0.11131607618704084, ,0.0,0.0,0.0,0.0,0.0,0.0, ,0.0,0.0,0.0,0.0,0.0,0.0, ,0.9693419933319092
0.0894921312374249,0.07954804324139889,-0.1392239018901873, ,0.012874260582142175,0.02165705740490529,-0.08625769037187966, ,0.10966806238587805, ,8.987523193969448e-05,1.3011206097729894e-05,6.52053412795921e-05,6.712721031259806e-05,-0.0006689471154971867,4.0958840786595e-05, ,0.0001117970721070975, ,0.0006723067050806198, ,0.11129734875748219, ,0.0,0.0,0.0,0.0,0.0,0.0, ,0.0,0.0,0.0,0.0,0.0,0.0, ,0.9767708778381348
0.0894921312374249,0.07954804324139889,-0.1392239018901873, ,0.01291074366739583,0.02166177818127286,-0.08633445298025758, ,0.10960302190522958, ,8.987523193969448e-05,1.3011206097729894e-05,6.52053412795921e-05,6.712721031259806e-05,-0.0006689471154971867,4.0958840786595e-05, ,0.0001117970721070975, ,0.0006723067050806198, ,0.1112783113771198, ,0.0,0.0,0.0,0.0,0.0,0.0, ,0.0,0.0,0.0,0.0,0.0,0.0, ,0.9787271022796631
0.0894921312374249,0.07954804324139889,-0.1392239018901873, ,0.012947319099178815,0.021666218354881146,-0.08641127352205062, ,0.10953806476574161, ,8.987523193969448e-05,1.3011206097729894e-05,6.52053412795921e-05,6.712721031259806e-05,-0.0006689471154971867,4.0958840786595e-05, ,0.0001117970721070975, ,0.0006723067050806198, ,0.11125897530366004, ,0.0,0.0,0.0,0.0,0.0,0.0, ,0.0,0.0,0.0,0.0,0.0,0.0, ,0.9806489944458008
0.0894921312374249,0.07954804324139889,-0.1392239018901873, ,0.012983986325138823,0.021670380375083103,-0.08648815120747266, ,0.10947319076767477, ,8.987523193969448e-05,1.3011206097729894e-05,6.52053412795921e-05,6.712721031259806e-05,-0.0006689471154971867,4.0958840786595e-05, ,0.0001117970721070975, ,0.0006723067050806198, ,0.1112393512977701, ,0.0,0.0,0.0,0.0,0.0,0.0, ,0.0,0.0,0.0,0.0,0.0,0.0, ,0.9826059341430664
0.0894921312374249,0.07954804324139889,-0.1392239018901873, ,0.01302074479496831,0.021674266683531517,-0.08656508524829587, ,0.10940839971238878, ,8.987523193969448e-05,1.3011206097729894e-05,6.52053412795921e-05,6.712721031259806e-05,-0.0006689471154971867,4.0958840786595e-05, ,0.0001117970721070975, ,0.0006723067050806198, ,0.11121944965010291, ,0.0,0.0,0.0,0.0,0.0,0.0, ,0.0,0.0,0.0,0.0,0.0,0.0, ,0.9844980239868164
0.0894921312374249,0.07954804324139889,-0.1392239018901873, ,0.013057593960401535,0.021677879714188556,-0.08664207485785033, ,0.10934369140228138, ,8.987523193969448e-05,1.3011206097729894e-05,6.52053412795921e-05,6.712721031259806e-05,-0.0006689471154971867,4.0958840786595e-05, ,0.0001117970721070975, ,0.0006723067050806198, ,0.11119928020657796, ,0.0,0.0,0.0,0.0,0.0,0.0, ,0.0,0.0,0.0,0.0,0.0,0.0, ,0.9864940643310547
0.0894921312374249,0.07954804324139889,-0.1392239018901873, ,0.013094533275210679,0.021681221893335885,-0.08671911925102412, ,0.10927906564072795, ,8.987523193969448e-05,1.3011206097729894e-05,6.52053412795921e-05,6.712721031259806e-05,-0.0006689471154971867,4.0958840786595e-05, ,0.0001117970721070975, ,0.0006723067050806198, ,0.11117885239204764, ,0.0,0.0,0.0,0.0,0.0,0.0, ,0.0,0.0,0.0,0.0,0.0,0.0, ,0.9883918762207031
0.0894921312374249,0.07954804324139889,-0.1392239018901873, ,0.01313156219520322,0.021684295639583556,-0.08679621764426196, ,0.10921452223202252, ,8.987523193969448e-05,1.3011206097729894e-05,6.52053412795921e-05,6.712721031259806e-05,-0.0006689471154971867,4.0958840786595e-05, ,0.0001117970721070975, ,0.0006723067050806198, ,0.11115817523246843, ,0.0,0.0,0.0,0.0,0.0,0.0, ,0.0,0.0,0.0,0.0,0.0,0.0, ,0.9902920722961426
0.0894921312374249,0.07954804324139889,-0.1392239018901873, ,0.013168680178218532,0.021687103363880366,-0.08687336925556632, ,0.10915006098131783, ,8.987523193969448e-05,1.3011206097729894e-05,6.52053412795921e-05,6.712721031259806e-05,-0.0006689471154971867,4.0958840786595e-05, ,0.0001117970721070975, ,0.0006723067050806198, ,0.1111372573756856, ,0.0,0.0,0.0,0.0,0.0,0.0, ,0.0,0.0,0.0,0.0,0.0,0.0, ,0.9922029972076416
0.0894921312374249,0.07954804324139889,-0.1392239018901873, ,0.013205886684124691,0.02168964746952299,-0.08695057330449606, ,0.10908568169456795, ,8.987523193969448e-05,1.3011206097729894e-05,6.52053412795921e-05,6.712721031259806e-05,-0.0006689471154971867,4.0958840786595e-05, ,0.0001117970721070975, ,0.0006723067050806198, ,0.11111610711093181, ,0.0,0.0,0.0,0.0,0.0,0.0, ,0.0,0.0,0.0,0.0,0.0,0.0, ,0.9941630363464355
0.0894921312374249,0.07954804324139889,-0.1392239018901873, ,0.0132431811748152,0.021691930352165892,-0.08702782901216637, ,0.10902138417847065, ,8.987523193969448e-05,1.3011206097729894e-05,6.52053412795921e-05,6.712721031259806e-05,-0.0006689471154971867,4.0958840786595e-05, ,0.0001117970721070975, ,0.0006723067050806198, ,0.11109473238713119, ,0.0,0.0,0.0,0.0,0.0,0.0, ,0.0,0.0,0.0,0.0,0.0,0.0, ,0.9970080852508545
0.0894921312374249,0.07954804324139889,-0.1392239018901873, ,0.013280563114205762,0.021693954399830663,-0.08710513560124883, ,0.10895716824041055, ,8.987523193969448e-05,1.3011206097729894e-05,6.52053412795921e-05,6.712721031259806e-05,-0.0006689471154971867,4.0958840786595e-05, ,0.0001117970721070975, ,0.0006723067050806198, ,0.1110731408300936, ,0.0,0.0,0.0,0.0,0.0,0.0, ,0.0,0.0,0.0,0.0,0.0,0.0, ,0.9989440441131592
0.0894921312374249,0.07954804324139889,-0.1392239018901873, ,0.01331803196823121,0.021695721992916132,-0.08718249229597028, ,0.10889303368840307, ,8.987523193969448e-05,1.3011206097729894e-05,6.52053412795921e-05,6.712721031259806e-05,-0.0006689471154971867,4.0958840786595e-05, ,0.0001117970721070975, ,0.0006723067050806198, ,0.1110513397586767, ,0.0,0.0,0.0,0.0,0.0,0.0, ,0.0,0.0,0.0,0.0,0.0,0.0, ,1.0008559226989746
0.0894921312374249,0.07954804324139889,-0.1392239018901873, ,0.013355587204842206,0.021697235504207418,-0.08725989832211306, ,0.10882898033103926, ,8.987523193969448e-05,1.3011206097729894e-05,6.52053412795921e-05,6.712721031259806e-05,-0.0006689471154971867,4.0958840786595e-05, ,0.0001117970721070975, ,0.0006723067050806198, ,0.11102933619998721, ,0.0,0.0,0.0,0.0,0.0,0.0, ,0.0,0.0,0.0,0.0,0.0,0.0, ,1.0027120113372803
0.0894921312374249,0.07954804324139889,-0.1392239018901873, ,0.013393228294002118,0.021698497298885993,-0.08733735290701511, ,0.10876500797743048, ,8.987523193969448e-05,1.3011206097729894e-05,6.52053412795921e-05,6.712721031259806e-05,-0.0006689471154971867,4.0958840786595e-05, ,0.0001117970721070975, ,0.0006723067050806198, ,0.11100713690368763, ,0.0,0.0,0.0,0.0,0.0,0.0, ,0.0,0.0,0.0,0.0,0.0,0.0, ,1.0046439170837402
0.0894921312374249,0.07954804324139889,-0.1392239018901873, ,0.0134309547076836,0.021699509734539043,-0.08741485527956835, ,0.10870111643715552, ,8.987523193969448e-05,1.3011206097729894e-05,6.52053412795921e-05,6.712721031259806e-05,-0.0006689471154971867,4.0958840786595e-05, ,0.0001117970721070975, ,0.0006723067050806198, ,0.11098474835546887, ,0.0,0.0,0.0,0.0,0.0,0.0, ,0.0,0.0,0.0,0.0,0.0,0.0, ,1.0067319869995117
0.0894921312374249,0.07954804324139889,-0.1392239018901873, ,0.013468765919865573,0.0217002751611693,-0.0874924046702196, ,0.10863730552020626, ,8.987523193969448e-05,1.3011206097729894e-05,6.52053412795921e-05,6.712721031259806e-05,-0.0006689471154971867,4.0958840786595e-05, ,0.0001117970721070975, ,0.0006723067050806198, ,0.1109621767897452, ,0.0,0.0,0.0,0.0,0.0,0.0, ,0.0,0.0,0.0,0.0,0.0,0.0, ,1.0094740390777588
0.0894921312374249,0.07954804324139889,-0.1392239018901873, ,0.01350666140652996,0.02170079592120456,-0.08757000031096993, ,0.10857357503693543, ,8.987523193969448e-05,1.3011206097729894e-05,6.52053412795921e-05,6.712721031259806e-05,-0.0006689471154971867,4.0958840786595e-05, ,0.0001117970721070975, ,0.0006723067050806198, ,0.1109394282016232, ,0.0,0.0,0.0,0.0,0.0,0.0, ,0.0,0.0,0.0,0.0,0.0,0.0, ,1.0118379592895508
0.0894921312374249,0.07954804324139889,-0.1392239018901873, ,0.013544640645658529,0.02170107434950721,-0.08764764143537346, ,0.1085099247980051, ,8.987523193969448e-05,1.3011206097729894e-05,6.52053412795921e-05,6.712721031259806e-05,-0.0006689471154971867,4.0958840786595e-05, ,0.0001117970721070975, ,0.0006723067050806198, ,0.11091650835819283, ,0.0,0.0,0.0,0.0,0.0,0.0, ,0.0,0.0,0.0,0.0,0.0,0.0, ,1.015139102935791
0.0894921312374249,0.07954804324139889,-0.1392239018901873, ,0.013582703117229502,0.021701112773384143,-0.08772532727853861, ,0.1084463546143345, ,8.987523193969448e-05,1.3011206097729894e-05,6.52053412795921e-05,6.712721031259806e-05,-0.0006689471154971867,4.0958840786595e-05, ,0.0001117970721070975, ,0.0006723067050806198, ,0.11089342280918481, ,0.0,0.0,0.0,0.0,0.0,0.0, ,0.0,0.0,0.0,0.0,0.0,0.0, ,1.0181150436401367
0.0894921312374249,0.07954804324139889,-0.1392239018901873, ,0.013620848303214503,0.021700913512596176,-0.08780305707712649, ,0.1083828642970503, ,8.987523193969448e-05,1.3011206097729894e-05,6.52053412795921e-05,6.712721031259806e-05,-0.0006689471154971867,4.0958840786595e-05, ,0.0001117970721070975, ,0.0006723067050806198, ,0.11087017689703542, ,0.0,0.0,0.0,0.0,0.0,0.0, ,0.0,0.0,0.0,0.0,0.0,0.0, ,1.0201270580291748
0.0894921312374249,0.07954804324139889,-0.1392239018901873, ,0.013659075687575347,0.021700478879367695,-0.08788083006935071, ,0.10831945365743631, ,8.987523193969448e-05,1.3011206097729894e-05,6.52053412795921e-05,6.712721031259806e-05,-0.0006689471154971867,4.0958840786595e-05, ,0.0001117970721070975, ,0.0006723067050806198, ,0.1108467757663969, ,0.0,0.0,0.0,0.0,0.0,0.0, ,0.0,0.0,0.0,0.0,0.0,0.0, ,1.022062063217163
0.0894921312374249,0.07954804324139889,-0.1392239018901873, ,0.013697384756260854,0.02169981117839626,-0.08795864549497813, ,0.10825612250688398, ,8.987523193969448e-05,1.3011206097729894e-05,6.52053412795921e-05,6.712721031259806e-05,-0.0006689471154971867,4.0958840786595e-05, ,0.0001117970721070975, ,0.0006723067050806198, ,0.1108232243731286, ,0.0,0.0,0.0,0.0,0.0,0.0, ,0.0,0.0,0.0,0.0,0.0,0.0, ,1.0239689350128174
0.0894921312374249,0.07954804324139889,-0.1392239018901873, ,0.013735774997203356,0.02169891270686225,-0.08803650259532692, ,0.10819287065684452, ,8.987523193969448e-05,1.3011206097729894e-05,6.52053412795921e-05,6.712721031259806e-05,-0.0006689471154971867,4.0958840786595e-05, ,0.0001117970721070975, ,0.0006723067050806198, ,0.11079952749280172, ,0.0,0.0,0.0,0.0,0.0,0.0, ,0.0,0.0,0.0,0.0,0.0,0.0, ,1.0258359909057617
0.0894921312374249,0.07954804324139889,-0.1392239018901873, ,0.01377424590031586,0.021697785754438707,-0.08811440061326764, ,0.1081296979187801, ,8.987523193969448e-05,1.3011206097729894e-05,6.52053412795921e-05,6.712721031259806e-05,-0.0006689471154971867,4.0958840786595e-05, ,0.0001117970721070975, ,0.0006723067050806198, ,0.11077568972874796, ,0.0,0.0,0.0,0.0,0.0,0.0, ,0.0,0.0,0.0,0.0,0.0,0.0, ,1.0277149677276611
0.0894921312374249,0.07954804324139889,-0.1392239018901873, ,0.013812796957488677,0.021696432603300626,-0.08819233879322202, ,0.10806660410411721, ,8.987523193969448e-05,1.3011206097729894e-05,6.52053412795921e-05,6.712721031259806e-05,-0.0006689471154971867,4.0958840786595e-05, ,0.0001117970721070975, ,0.0006723067050806198, ,0.11075171551968042, ,0.0,0.0,0.0,0.0,0.0,0.0, ,0.0,0.0,0.0,0.0,0.0,0.0, ,1.0296409130096436
0.0894921312374249,0.07954804324139889,-0.1392239018901873, ,0.013851427662586208,0.021694855528134695,-0.08827031638116303, ,0.10800358902419978, ,8.987523193969448e-05,1.3011206097729894e-05,6.52053412795921e-05,6.712721031259806e-05,-0.0006689471154971867,4.0958840786595e-05, ,0.0001117970721070975, ,0.0006723067050806198, ,0.11072760914691306, ,0.0,0.0,0.0,0.0,0.0,0.0, ,0.0,0.0,0.0,0.0,0.0,0.0, ,1.0315520763397217
0.0894921312374249,0.07954804324139889,-0.1392239018901873, ,0.013890137511443532,0.021693056796149156,-0.08834833262461488, ,0.10794065249024305, ,8.987523193969448e-05,1.3011206097729894e-05,6.52053412795921e-05,6.712721031259806e-05,-0.0006689471154971867,4.0958840786595e-05, ,0.0001117970721070975, ,0.0006723067050806198, ,0.11070337474120288, ,0.0,0.0,0.0,0.0,0.0,0.0, ,0.0,0.0,0.0,0.0,0.0,0.0, ,1.0334548950195312
0.0894921312374249,0.07954804324139889,-0.1392239018901873, ,0.013928926001863597,0.021691038667083017,-0.08842638677265151, ,0.10787779431328878, ,8.987523193969448e-05,1.3011206097729894e-05,6.52053412795921e-05,6.712721031259806e-05,-0.0006689471154971867,4.0958840786595e-05, ,0.0001117970721070975, ,0.0006723067050806198, ,0.11067901628923811, ,0.0,0.0,0.0,0.0,0.0,0.0, ,0.0,0.0,0.0,0.0,0.0,0.0, ,1.0353338718414307
0.0894921312374249,0.07954804324139889,-0.1392239018901873, ,0.013967792633613836,0.021688803393216046,-0.08850447807589744, ,0.10781501430415992, ,8.987523193969448e-05,1.3011206097729894e-05,6.52053412795921e-05,6.712721031259806e-05,-0.0006689471154971867,4.0958840786595e-05, ,0.0001117970721070975, ,0.0006723067050806198, ,0.110654537639793, ,0.0,0.0,0.0,0.0,0.0,0.0, ,0.0,0.0,0.0,0.0,0.0,0.0, ,1.0375800132751465
0.0894921312374249,0.07954804324139889,-0.1392239018901873, ,0.014006736908422834,0.021686353219378132,-0.08858260578652713, ,0.10775231227341686, ,8.987523193969448e-05,1.3011206097729894e-05,6.52053412795921e-05,6.712721031259806e-05,-0.0006689471154971867,4.0958840786595e-05, ,0.0001117970721070975, ,0.0006723067050806198, ,0.11062994250956948, ,0.0,0.0,0.0,0.0,0.0,0.0, ,0.0,0.0,0.0,0.0,0.0,0.0, ,1.0394699573516846
0.0894921312374249,0.07954804324139889,-0.1392239018901873, ,0.014045758329977096,0.021683690382959118,-0.08866076915826451, ,0.10768968803131404, ,8.987523193969448e-05,1.3011206097729894e-05,6.52053412795921e-05,6.712721031259806e-05,-0.0006689471154971867,4.0958840786595e-05, ,0.0001117970721070975, ,0.0006723067050806198, ,0.1106052344887438, ,0.0,0.0,0.0,0.0,0.0,0.0, ,0.0,0.0,0.0,0.0,0.0,0.0, ,1.041356086730957
0.0894921312374249,0.07954804324139889,-0.1392239018901873, ,0.014084856403917956,0.02168081711391837,-0.08873896744638239, ,0.10762714138775725, ,8.987523193969448e-05,1.3011206097729894e-05,6.52053412795921e-05,6.712721031259806e-05,-0.0006689471154971867,4.0958840786595e-05, ,0.0001117970721070975, ,0.0006723067050806198, ,0.11058041704623559, ,0.0,0.0,0.0,0.0,0.0,0.0, ,0.0,0.0,0.0,0.0,0.0,0.0, ,1.0432369709014893
0.0894921312374249,0.07954804324139889,-0.1392239018901873, ,0.014124030637838621,0.021677735634794266,-0.08881719990770313, ,0.1075646721522609, ,8.987523193969448e-05,1.3011206097729894e-05,6.52053412795921e-05,6.712721031259806e-05,-0.0006689471154971867,4.0958840786595e-05, ,0.0001117970721070975, ,0.0006723067050806198, ,0.11055549353471512, ,0.0,0.0,0.0,0.0,0.0,0.0, ,0.0,0.0,0.0,0.0,0.0,0.0, ,1.0451369285583496
0.0894921312374249,0.07954804324139889,-0.1392239018901873, ,0.014163280541280273,0.021674448160713997,-0.08889546580059683, ,0.10750228013390746, ,8.987523193969448e-05,1.3011206097729894e-05,6.52053412795921e-05,6.712721031259806e-05,-0.0006689471154971867,4.0958840786595e-05, ,0.0001117970721070975, ,0.0006723067050806198, ,0.11053046719536425, ,0.0,0.0,0.0,0.0,0.0,0.0, ,0.0,0.0,0.0,0.0,0.0,0.0, ,1.047055959701538
0.0894921312374249,0.07954804324139889,-0.1392239018901873, ,0.014202605625729564,0.021670956899403095,-0.0889737643849824, ,0.1074399651413056, ,8.987523193969448e-05,1.3011206097729894e-05,6.52053412795921e-05,6.712721031259806e-05,-0.0006689471154971867,4.0958840786595e-05, ,0.0001117970721070975, ,0.0006723067050806198, ,0.11050534116240442, ,0.0,0.0,0.0,0.0,0.0,0.0, ,0.0,0.0,0.0,0.0,0.0,0.0, ,1.04978609085083
0.0894921312374249,0.07954804324139889,-0.1392239018901873, ,0.014242005404614917,0.021667264051195182,-0.08905209492232616, ,0.1073777269825506, ,8.987523193969448e-05,1.3011206097729894e-05,6.52053412795921e-05,6.712721031259806e-05,-0.0006689471154971867,4.0958840786595e-05, ,0.0001117970721070975, ,0.0006723067050806198, ,0.11048011846740559, ,0.0,0.0,0.0,0.0,0.0,0.0, ,0.0,0.0,0.0,0.0,0.0,0.0, ,1.0516760349273682
0.0894921312374249,0.07954804324139889,-0.1392239018901873, ,0.014281479393303653,0.021663371809041286,-0.0891304566756424, ,0.10731556546518416, ,8.987523193969448e-05,1.3011206097729894e-05,6.52053412795921e-05,6.712721031259806e-05,-0.0006689471154971867,4.0958840786595e-05, ,0.0001117970721070975, ,0.0006723067050806198, ,0.11045480204338781, ,0.0,0.0,0.0,0.0,0.0,0.0, ,0.0,0.0,0.0,0.0,0.0,0.0, ,1.0539379119873047
0.0894921312374249,0.07954804324139889,-0.1392239018901873, ,0.014321027109098428,0.02165928235852001,-0.08920884890949259, ,0.10725348039615558, ,8.987523193969448e-05,1.3011206097729894e-05,6.52053412795921e-05,6.712721031259806e-05,-0.0006689471154971867,4.0958840786595e-05, ,0.0001117970721070975, ,0.0006723067050806198, ,0.11042939472872723, ,0.0,0.0,0.0,0.0,0.0,0.0, ,0.0,0.0,0.0,0.0,0.0,0.0, ,1.0560810565948486
0.0894921312374249,0.07954804324139889,-0.1392239018901873, ,0.014360648071234284,0.021654997877846575,-0.08928727088998491, ,0.10719147158178344, ,8.987523193969448e-05,1.3011206097729894e-05,6.52053412795921e-05,6.712721031259806e-05,-0.0006689471154971867,4.0958840786595e-05, ,0.0001117970721070975, ,0.0006723067050806198, ,0.11040389927087729, ,0.0,0.0,0.0,0.0,0.0,0.0, ,0.0,0.0,0.0,0.0,0.0,0.0, ,1.0583040714263916
0.0894921312374249,0.07954804324139889,-0.1392239018901873, ,0.014400341800875356,0.021650520537882807,-0.08936572188477418, ,0.10712953882771749, ,8.987523193969448e-05,1.3011206097729894e-05,6.52053412795921e-05,6.712721031259806e-05,-0.0006689471154971867,4.0958840786595e-05, ,0.0001117970721070975, ,0.0006723067050806198, ,0.1103783183299151, ,0.0,0.0,0.0,0.0,0.0,0.0, ,0.0,0.0,0.0,0.0,0.0,0.0, ,1.064713954925537
0.0894921312374249,0.07954804324139889,-0.1392239018901873, ,0.014440107821111898,0.02164585250214662,-0.08944420116306108, ,0.10706768193890161, ,8.987523193969448e-05,1.3011206097729894e-05,6.52053412795921e-05,6.712721031259806e-05,-0.0006689471154971867,4.0958840786595e-05, ,0.0001117970721070975, ,0.0006723067050806198, ,0.11035265448192275, ,0.0,0.0,0.0,0.0,0.0,0.0, ,0.0,0.0,0.0,0.0,0.0,0.0, ,1.0668249130249023
0.0894921312374249,0.07954804324139889,-0.1392239018901873, ,0.014479945656956275,0.021640995926821737,-0.08952270799559314, ,0.10700590071953689, ,8.987523193969448e-05,1.3011206097729894e-05,6.52053412795921e-05,6.712721031259806e-05,-0.0006689471154971867,4.0958840786595e-05, ,0.0001117970721070975, ,0.0006723067050806198, ,0.1103269102222121, ,0.0,0.0,0.0,0.0,0.0,0.0, ,0.0,0.0,0.0,0.0,0.0,0.0, ,1.0688819885253906
0.0894921312374249,0.07954804324139889,-0.1392239018901873, ,0.014519854835340759,0.021635952960767257,-0.08960124165466268, ,0.10694419497304586, ,8.987523193969448e-05,1.3011206097729894e-05,6.52053412795921e-05,6.712721031259806e-05,-0.0006689471154971867,4.0958840786595e-05, ,0.0001117970721070975, ,0.0006723067050806198, ,0.11030108796840167, ,0.0,0.0,0.0,0.0,0.0,0.0, ,0.0,0.0,0.0,0.0,0.0,0.0, ,1.070775032043457
0.0894921312374249,0.07954804324139889,-0.1392239018901873, ,0.01455983488511373,0.02163072574552732,-0.08967980141410745, ,0.10688256450203687, ,8.987523193969448e-05,1.3011206097729894e-05,6.52053412795921e-05,6.712721031259806e-05,-0.0006689471154971867,4.0958840786595e-05, ,0.0001117970721070975, ,0.0006723067050806198, ,0.11027519006335344, ,0.0,0.0,0.0,0.0,0.0,0.0, ,0.0,0.0,0.0,0.0,0.0,0.0, ,1.0727429389953613
0.0894921312374249,0.07954804324139889,-0.1392239018901873, ,0.014599885337036496,0.02162531641534059,-0.08975838654931034, ,0.10682100910826929, ,8.987523193969448e-05,1.3011206097729894e-05,6.52053412795921e-05,6.712721031259806e-05,-0.0006689471154971867,4.0958840786595e-05, ,0.0001117970721070975, ,0.0006723067050806198, ,0.11024921877797687, ,0.0,0.0,0.0,0.0,0.0,0.0, ,0.0,0.0,0.0,0.0,0.0,0.0, ,1.0746779441833496
0.0894921312374249,0.07954804324139889,-0.1392239018901873, ,0.014640005723780406,0.02161972709715,-0.08983699633719866, ,0.1067595285926191, ,8.987523193969448e-05,1.3011206097729894e-05,6.52053412795921e-05,6.712721031259806e-05,-0.0006689471154971867,4.0958840786595e-05, ,0.0001117970721070975, ,0.0006723067050806198, ,0.11022317631390705, ,0.0,0.0,0.0,0.0,0.0,0.0, ,0.0,0.0,0.0,0.0,0.0,0.0, ,1.0766119956970215
0.0894921312374249,0.07954804324139889,-0.1392239018901873, ,0.014680195579922966,0.02161395991061261,-0.08991563005624403, ,0.10669812275504542, ,8.987523193969448e-05,1.3011206097729894e-05,6.52053412795921e-05,6.712721031259806e-05,-0.0006689471154971867,4.0958840786595e-05, ,0.0001117970721070975, ,0.0006723067050806198, ,0.11019706480606362, ,0.0,0.0,0.0,0.0,0.0,0.0, ,0.0,0.0,0.0,0.0,0.0,0.0, ,1.0785810947418213
0.0894921312374249,0.07954804324139889,-0.1392239018901873, ,0.01472045444194557,0.02160801696810865,-0.08999428698646204, ,0.10663679139455703, ,8.987523193969448e-05,1.3011206097729894e-05,6.52053412795921e-05,6.712721031259806e-05,-0.0006689471154971867,4.0958840786595e-05, ,0.0001117970721070975, ,0.0006723067050806198, ,0.11017088632509665, ,0.0,0.0,0.0,0.0,0.0,0.0, ,0.0,0.0,0.0,0.0,0.0,0.0, ,1.0805320739746094
0.0894921312374249,0.07954804324139889,-0.1392239018901873, ,0.014760781848229328,0.021601900374751754,-0.09007296640941186, ,0.10657553430918024, ,8.987523193969448e-05,1.3011206097729894e-05,6.52053412795921e-05,6.712721031259806e-05,-0.0006689471154971867,4.0958840786595e-05, ,0.0001117970721070975, ,0.0006723067050806198, ,0.110144642879725, ,0.0,0.0,0.0,0.0,0.0,0.0, ,0.0,0.0,0.0,0.0,0.0,0.0, ,1.082521915435791
0.0894921312374249,0.07954804324139889,-0.1392239018901873, ,0.014801177339052621,0.021595612228398182,-0.09015166760819593, ,0.10651435129592646, ,8.987523193969448e-05,1.3011206097729894e-05,6.52053412795921e-05,6.712721031259806e-05,-0.0006689471154971867,4.0958840786595e-05, ,0.0001117970721070975, ,0.0006723067050806198, ,0.11011833641897284, ,0.0,0.0,0.0,0.0,0.0,0.0, ,0.0,0.0,0.0,0.0,0.0,0.0, ,1.0844171047210693
0.0894921312374249,0.07954804324139889,-0.1392239018901873, ,0.014841640456587235,0.021589154619656617,-0.0902303898674598, ,0.10645324215076118, ,8.987523193969448e-05,1.3011206097729894e-05,6.52053412795921e-05,6.712721031259806e-05,-0.0006689471154971867,4.0958840786595e-05, ,0.0001117970721070975, ,0.0006723067050806198, ,0.11009196883430945, ,0.0,0.0,0.0,0.0,0.0,0.0, ,0.0,0.0,0.0,0.0,0.0,0.0, ,1.0863089561462402
0.0894921312374249,0.07954804324139889,-0.1392239018901873, ,0.014882170744895713,0.02158252963189773,-0.09030913247339137, ,0.10639220666857298, ,8.987523193969448e-05,1.3011206097729894e-05,6.52053412795921e-05,6.712721031259806e-05,-0.0006689471154971867,4.0958840786595e-05, ,0.0001117970721070975, ,0.0006723067050806198, ,0.11006554196169704, ,0.0,0.0,0.0,0.0,0.0,0.0, ,0.0,0.0,0.0,0.0,0.0,0.0, ,1.0882289409637451
0.0894921312374249,0.07954804324139889,-0.1392239018901873, ,0.014922767749927825,0.021575739341263986,-0.09038789471372127, ,0.10633124464314286, ,8.987523193969448e-05,1.3011206097729894e-05,6.52053412795921e-05,6.712721031259806e-05,-0.0006689471154971867,4.0958840786595e-05, ,0.0001117970721070975, ,0.0006723067050806198, ,0.11003905758355127, ,0.0,0.0,0.0,0.0,0.0,0.0, ,0.0,0.0,0.0,0.0,0.0,0.0, ,1.0901188850402832
0.0894921312374249,0.07954804324139889,-0.1392239018901873, ,0.014963431019517411,0.021568785816678874,-0.09046667587772164, ,0.10627035586711532, ,8.987523193969448e-05,1.3011206097729894e-05,6.52053412795921e-05,6.712721031259806e-05,-0.0006689471154971867,4.0958840786595e-05, ,0.0001117970721070975, ,0.0006723067050806198, ,0.11001251743061863, ,0.0,0.0,0.0,0.0,0.0,0.0, ,0.0,0.0,0.0,0.0,0.0,0.0, ,1.092020034790039
0.0894921312374249,0.07954804324139889,-0.1392239018901873, ,0.015004160103379073,0.021561671119857,-0.09054547525620654, ,0.10620954013196847, ,8.987523193969448e-05,1.3011206097729894e-05,6.52053412795921e-05,6.712721031259806e-05,-0.0006689471154971867,4.0958840786595e-05, ,0.0001117970721070975, ,0.0006723067050806198, ,0.10998592318377493, ,0.0,0.0,0.0,0.0,0.0,0.0, ,0.0,0.0,0.0,0.0,0.0,0.0, ,1.0939140319824219
0.0894921312374249,0.07954804324139889,-0.1392239018901873, ,0.015044954553105318,0.021554397305313285,-0.09062429214153116, ,0.1061487972279857, ,8.987523193969448e-05,1.3011206097729894e-05,6.52053412795921e-05,6.712721031259806e-05,-0.0006689471154971867,4.0958840786595e-05, ,0.0001117970721070975, ,0.0006723067050806198, ,0.1099592764757486, ,0.0,0.0,0.0,0.0,0.0,0.0, ,0.0,0.0,0.0,0.0,0.0,0.0, ,1.095823049545288
0.0894921312374249,0.07954804324139889,-0.1392239018901873, ,0.01508581392216274,0.021546966420372977,-0.09070312582759209, ,0.10608812694422758, ,8.987523193969448e-05,1.3011206097729894e-05,6.52053412795921e-05,6.712721031259806e-05,-0.0006689471154971867,4.0958840786595e-05, ,0.0001117970721070975, ,0.0006723067050806198, ,0.1099325788927726, ,0.0,0.0,0.0,0.0,0.0,0.0, ,0.0,0.0,0.0,0.0,0.0,0.0, ,1.0978260040283203
0.0894921312374249,0.07954804324139889,-0.1392239018901873, ,0.015126737765889341,0.021539380505180977,-0.09078197560982595, ,0.10602752906850439, ,8.987523193969448e-05,1.3011206097729894e-05,6.52053412795921e-05,6.712721031259806e-05,-0.0006689471154971867,4.0958840786595e-05, ,0.0001117970721070975, ,0.0006723067050806198, ,0.10990583197616802, ,0.0,0.0,0.0,0.0,0.0,0.0, ,0.0,0.0,0.0,0.0,0.0,0.0, ,1.099937915802002
0.0894921312374249,0.07954804324139889,-0.1392239018901873, ,0.015167725641491187,0.02153164159271162,-0.09086084078521024, ,0.1059670033873489, ,8.987523193969448e-05,1.3011206097729894e-05,6.52053412795921e-05,6.712721031259806e-05,-0.0006689471154971867,4.0958840786595e-05, ,0.0001117970721070975, ,0.0006723067050806198, ,0.10987903722386312, ,0.0,0.0,0.0,0.0,0.0,0.0, ,0.0,0.0,0.0,0.0,0.0,0.0, ,1.1022000312805176
0.0894921312374249,0.07954804324139889,-0.1392239018901873, ,0.015208777108038897,0.021523751708778308,-0.09093972065226222, ,0.10590654968599018, ,8.987523193969448e-05,1.3011206097729894e-05,6.52053412795921e-05,6.712721031259806e-05,-0.0006689471154971867,4.0958840786595e-05, ,0.0001117970721070975, ,0.0006723067050806198, ,0.10985219609185047, ,0.0,0.0,0.0,0.0,0.0,0.0, ,0.0,0.0,0.0,0.0,0.0,0.0, ,1.104158878326416
0.0894921312374249,0.07954804324139889,-0.1392239018901873, ,0.01524989172646474,0.02151571287204301,-0.09101861451103865, ,0.1058461677483278, ,8.987523193969448e-05,1.3011206097729894e-05,6.52053412795921e-05,6.712721031259806e-05,-0.0006689471154971867,4.0958840786595e-05, ,0.0001117970721070975, ,0.0006723067050806198, ,0.10982530999558522, ,0.0,0.0,0.0,0.0,0.0,0.0, ,0.0,0.0,0.0,0.0,0.0,0.0, ,1.106173038482666
0.0894921312374249,0.07954804324139889,-0.1392239018901873, ,0.015291069059559414,0.02150752709402595,-0.0910975216631361, ,0.10578585735690581, ,8.987523193969448e-05,1.3011206097729894e-05,6.52053412795921e-05,6.712721031259806e-05,-0.0006689471154971867,4.0958840786595e-05, ,0.0001117970721070975, ,0.0006723067050806198, ,0.10979838031132737, ,0.0,0.0,0.0,0.0,0.0,0.0, ,0.0,0.0,0.0,0.0,0.0,0.0, ,1.1081130504608154
0.0894921312374249,0.07954804324139889,-0.1392239018901873, ,0.015332308671968746,0.021499196379115376,-0.0911764414116899, ,0.10572561829288847, ,8.987523193969448e-05,1.3011206097729894e-05,6.52053412795921e-05,6.712721031259806e-05,-0.0006689471154971867,4.0958840786595e-05, ,0.0001117970721070975, ,0.0006723067050806198, ,0.10977140837743041, ,0.0,0.0,0.0,0.0,0.0,0.0, ,0.0,0.0,0.0,0.0,0.0,0.0, ,1.110105037689209
0.0894921312374249,0.07954804324139889,-0.1392239018901873, ,0.015373610130190353,0.02149072272457688,-0.0912553730613739, ,0.10566545033603593, ,8.987523193969448e-05,1.3011206097729894e-05,6.52053412795921e-05,6.712721031259806e-05,-0.0006689471154971867,4.0958840786595e-05, ,0.0001117970721070975, ,0.0006723067050806198, ,0.10974439549557913, ,0.0,0.0,0.0,0.0,0.0,0.0, ,0.0,0.0,0.0,0.0,0.0,0.0, ,1.1120250225067139
0.0894921312374249,0.07954804324139889,-0.1392239018901873, ,0.015414973002570609,0.02148210812056339,-0.0913343159184003, ,0.10560535326468018, ,8.987523193969448e-05,1.3011206097729894e-05,6.52053412795921e-05,6.712721031259806e-05,-0.0006689471154971867,4.0958840786595e-05, ,0.0001117970721070975, ,0.0006723067050806198, ,0.10971734293197848, ,0.0,0.0,0.0,0.0,0.0,0.0, ,0.0,0.0,0.0,0.0,0.0,0.0, ,1.1139469146728516
0.0894921312374249,0.07954804324139889,-0.1392239018901873, ,0.015456396859301436,0.021473354550124467,-0.09141326929051986, ,0.10554532685570153, ,8.987523193969448e-05,1.3011206097729894e-05,6.52053412795921e-05,6.712721031259806e-05,-0.0006689471154971867,4.0958840786595e-05, ,0.0001117970721070975, ,0.0006723067050806198, ,0.10969025191849616, ,0.0,0.0,0.0,0.0,0.0,0.0, ,0.0,0.0,0.0,0.0,0.0,0.0, ,1.1158249378204346
0.0894921312374249,0.07954804324139889,-0.1392239018901873, ,0.01549788127241695,0.021464463989216025,-0.09149223248702071, ,0.10548537088450642, ,8.987523193969448e-05,1.3011206097729894e-05,6.52053412795921e-05,6.712721031259806e-05,-0.0006689471154971867,4.0958840786595e-05, ,0.0001117970721070975, ,0.0006723067050806198, ,0.10966312365376073, ,0.0,0.0,0.0,0.0,0.0,0.0, ,0.0,0.0,0.0,0.0,0.0,0.0, ,1.11769700050354
0.0894921312374249,0.07954804324139889,-0.1392239018901873, ,0.015539425815790181,0.021455438406710204,-0.09157120481872777, ,0.10542548512500506, ,8.987523193969448e-05,1.3011206097729894e-05,6.52053412795921e-05,6.712721031259806e-05,-0.0006689471154971867,4.0958840786595e-05, ,0.0001117970721070975, ,0.0006723067050806198, ,0.10963595930421742, ,0.0,0.0,0.0,0.0,0.0,0.0, ,0.0,0.0,0.0,0.0,0.0,0.0, ,1.1201040744781494
0.0894921312374249,0.07954804324139889,-0.1392239018901873, ,0.015581030065130196,0.02144627976440462,-0.09165018559800422, ,0.1053656693495889, ,8.987523193969448e-05,1.3011206097729894e-05,6.52053412795921e-05,6.712721031259806e-05,-0.0006689471154971867,4.0958840786595e-05, ,0.0001117970721070975, ,0.0006723067050806198, ,0.10960876000514334, ,0.0,0.0,0.0,0.0,0.0,0.0, ,0.0,0.0,0.0,0.0,0.0,0.0, ,1.1219959259033203
0.0894921312374249,0.07954804324139889,-0.1392239018901873, ,0.015622693597978627,0.021436990017032188,-0.09172917413874891, ,0.10530592332911037, ,8.987523193969448e-05,1.3011206097729894e-05,6.52053412795921e-05,6.712721031259806e-05,-0.0006689471154971867,4.0958840786595e-05, ,0.0001117970721070975, ,0.0006723067050806198, ,0.10958152686162413, ,0.0,0.0,0.0,0.0,0.0,0.0, ,0.0,0.0,0.0,0.0,0.0,0.0, ,1.1239008903503418
0.0894921312374249,0.07954804324139889,-0.1392239018901873, ,0.015664415993706413,0.02142757111227078,-0.09180816975639733, ,0.10524624683286175, ,8.987523193969448e-05,1.3011206097729894e-05,6.52053412795921e-05,6.712721031259806e-05,-0.0006689471154971867,4.0958840786595e-05, ,0.0001117970721070975, ,0.0006723067050806198, ,0.10955426094949357, ,0.0,0.0,0.0,0.0,0.0,0.0, ,0.0,0.0,0.0,0.0,0.0,0.0, ,1.1258420944213867
0.0894921312374249,0.07954804324139889,-0.1392239018901873, ,0.015706196833510697,0.021418024990752748,-0.09188717176792138, ,0.10518663962855464, ,8.987523193969448e-05,1.3011206097729894e-05,6.52053412795921e-05,6.712721031259806e-05,-0.0006689471154971867,4.0958840786595e-05, ,0.0001117970721070975, ,0.0006723067050806198, ,0.10952696331623771, ,0.0,0.0,0.0,0.0,0.0,0.0, ,0.0,0.0,0.0,0.0,0.0,0.0, ,1.1278190612792969
0.0894921312374249,0.07954804324139889,-0.1392239018901873, ,0.015748035700411608,0.021408353586074555,-0.09196617949182842, ,0.10512710148230056, ,8.987523193969448e-05,1.3011206097729894e-05,6.52053412795921e-05,6.712721031259806e-05,-0.0006689471154971867,4.0958840786595e-05, ,0.0001117970721070975, ,0.0006723067050806198, ,0.10949963498186542, ,0.0,0.0,0.0,0.0,0.0,0.0, ,0.0,0.0,0.0,0.0,0.0,0.0, ,1.1302249431610107
0.0894921312374249,0.07954804324139889,-0.1392239018901873, ,0.015789932179249178,0.021398558824806443,-0.09204519224816099, ,0.1050676321585916, ,8.987523193969448e-05,1.3011206097729894e-05,6.52053412795921e-05,6.712721031259806e-05,-0.0006689471154971867,4.0958840786595e-05, ,0.0001117970721070975, ,0.0006723067050806198, ,0.10947227693974643, ,0.0,0.0,0.0,0.0,0.0,0.0, ,0.0,0.0,0.0,0.0,0.0,0.0, ,1.1321520805358887
0.0894921312374249,0.07954804324139889,-0.1392239018901873, ,0.015831885856679332,0.021388642626502204,-0.0921242093584972, ,0.1050082314202817, ,8.987523193969448e-05,1.3011206097729894e-05,6.52053412795921e-05,6.712721031259806e-05,-0.0006689471154971867,4.0958840786595e-05, ,0.0001117970721070975, ,0.0006723067050806198, ,0.10944489015741843, ,0.0,0.0,0.0,0.0,0.0,0.0, ,0.0,0.0,0.0,0.0,0.0,0.0, ,1.1341750621795654
0.0894921312374249,0.07954804324139889,-0.1392239018901873, ,0.01587389632117228,0.021378606903708377,-0.0922032301459495, ,0.10494889902856794, ,8.987523193969448e-05,1.3011206097729894e-05,6.52053412795921e-05,6.712721031259806e-05,-0.0006689471154971867,4.0958840786595e-05, ,0.0001117970721070975, ,0.0006723067050806198, ,0.10941747557736446, ,0.0,0.0,0.0,0.0,0.0,0.0, ,0.0,0.0,0.0,0.0,0.0,0.0, ,1.1364169120788574
0.0894921312374249,0.07954804324139889,-0.1392239018901873, ,0.015915963163007522,0.02136845356197434,-0.09228225393516484, ,0.10488963474297344, ,8.987523193969448e-05,1.3011206097729894e-05,6.52053412795921e-05,6.712721031259806e-05,-0.0006689471154971867,4.0958840786595e-05, ,0.0001117970721070975, ,0.0006723067050806198, ,0.1093900341177621, ,0.0,0.0,0.0,0.0,0.0,0.0, ,0.0,0.0,0.0,0.0,0.0,0.0, ,1.138580083847046
0.0894921312374249,0.07954804324139889,-0.1392239018901873, ,0.015958085974271716,0.021358184499861727,-0.09236128005232445, ,0.1048304383213294, ,8.987523193969448e-05,1.3011206097729894e-05,6.52053412795921e-05,6.712721031259806e-05,-0.0006689471154971867,4.0958840786595e-05, ,0.0001117970721070975, ,0.0006723067050806198, ,0.10936256667320528, ,0.0,0.0,0.0,0.0,0.0,0.0, ,0.0,0.0,0.0,0.0,0.0,0.0, ,1.1408679485321045
0.0894921312374249,0.07954804324139889,-0.1392239018901873, ,0.01600026434885519,0.021347801608954036,-0.09244030782514294, ,0.10477130951975863, ,8.987523193969448e-05,1.3011206097729894e-05,6.52053412795921e-05,6.712721031259806e-05,-0.0006689471154971867,4.0958840786595e-05, ,0.0001117970721070975, ,0.0006723067050806198, ,0.10933507411540021, ,0.0,0.0,0.0,0.0,0.0,0.0, ,0.0,0.0,0.0,0.0,0.0,0.0, ,1.1435198783874512
0.0894921312374249,0.07954804324139889,-0.1392239018901873, ,0.01604249788244871,0.02133730677386622,-0.09251933658286887, ,0.10471224809265886, ,8.987523193969448e-05,1.3011206097729894e-05,6.52053412795921e-05,6.712721031259806e-05,-0.0006689471154971867,4.0958840786595e-05, ,0.0001117970721070975, ,0.0006723067050806198, ,0.10930755729383627, ,0.0,0.0,0.0,0.0,0.0,0.0, ,0.0,0.0,0.0,0.0,0.0,0.0, ,1.1456749439239502
0.0894921312374249,0.07954804324139889,-0.1392239018901873, ,0.016084786172540208,0.02132670187225445,-0.09259836565628304, ,0.10465325379268729, ,8.987523193969448e-05,1.3011206097729894e-05,6.52053412795921e-05,6.712721031259806e-05,-0.0006689471154971867,4.0958840786595e-05, ,0.0001117970721070975, ,0.0006723067050806198, ,0.10928001703643303, ,0.0,0.0,0.0,0.0,0.0,0.0, ,0.0,0.0,0.0,0.0,0.0,0.0, ,1.1477079391479492
0.0894921312374249,0.07954804324139889,-0.1392239018901873, ,0.016127128818411655,0.021315988774825666,-0.0926773943777, ,0.10459432637074444, ,8.987523193969448e-05,1.3011206097729894e-05,6.52053412795921e-05,6.712721031259806e-05,-0.0006689471154971867,4.0958840786595e-05, ,0.0001117970721070975, ,0.0006723067050806198, ,0.10925245415016427, ,0.0,0.0,0.0,0.0,0.0,0.0, ,0.0,0.0,0.0,0.0,0.0,0.0, ,1.1506168842315674
0.0894921312374249,0.07954804324139889,-0.1392239018901873, ,0.016169525421135762,0.02130516934534713,-0.09275642208096604, ,0.10453546557595986, ,8.987523193969448e-05,1.3011206097729894e-05,6.52053412795921e-05,6.712721031259806e-05,-0.0006689471154971867,4.0958840786595e-05, ,0.0001117970721070975, ,0.0006723067050806198, ,0.10922486942166015, ,0.0,0.0,0.0,0.0,0.0,0.0, ,0.0,0.0,0.0,0.0,0.0,0.0, ,1.1525890827178955
0.0894921312374249,0.07954804324139889,-0.1392239018901873, ,0.0162119755835727,0.021294245440656372,-0.09283544810145997, ,0.1044766711556771, ,8.987523193969448e-05,1.3011206097729894e-05,6.52053412795921e-05,6.712721031259806e-05,-0.0006689471154971867,4.0958840786595e-05, ,0.0001117970721070975, ,0.0006723067050806198, ,0.10919726361778816, ,0.0,0.0,0.0,0.0,0.0,0.0, ,0.0,0.0,0.0,0.0,0.0,0.0, ,1.1545429229736328
0.0894921312374249,0.07954804324139889,-0.1392239018901873, ,0.01625447891036748,0.021283218910670088,-0.09291447177609191, ,0.10441794285543989, ,8.987523193969448e-05,1.3011206097729894e-05,6.52053412795921e-05,6.712721031259806e-05,-0.0006689471154971867,4.0958840786595e-05, ,0.0001117970721070975, ,0.0006723067050806198, ,0.1091696374862139, ,0.0,0.0,0.0,0.0,0.0,0.0, ,0.0,0.0,0.0,0.0,0.0,0.0, ,1.1564528942108154
0.0894921312374249,0.07954804324139889,-0.1392239018901873, ,0.0162970350079455,0.021272091598394705,-0.09299349244330395, ,0.1043592804189785, ,8.987523193969448e-05,1.3011206097729894e-05,6.52053412795921e-05,6.712721031259806e-05,-0.0006689471154971867,4.0958840786595e-05, ,0.0001117970721070975, ,0.0006723067050806198, ,0.10914199175594243, ,0.0,0.0,0.0,0.0,0.0,0.0, ,0.0,0.0,0.0,0.0,0.0,0.0, ,1.1583409309387207
0.0894921312374249,0.07954804324139889,-0.1392239018901873, ,0.016339643484510533,0.02126086533993536,-0.09307250944306908, ,0.10430068358819641, ,8.987523193969448e-05,1.3011206097729894e-05,6.52053412795921e-05,6.712721031259806e-05,-0.0006689471154971867,4.0958840786595e-05, ,0.0001117970721070975, ,0.0006723067050806198, ,0.10911432713784103, ,0.0,0.0,0.0,0.0,0.0,0.0, ,0.0,0.0,0.0,0.0,0.0,0.0, ,1.1602120399475098
0.0894921312374249,0.07954804324139889,-0.1392239018901873, ,0.01638230395004106,0.021249541964505656,-0.09315152211689078, ,0.10424215210315776, ,8.987523193969448e-05,1.3011206097729894e-05,6.52053412795921e-05,6.712721031259806e-05,-0.0006689471154971867,4.0958840786595e-05, ,0.0001117970721070975, ,0.0006723067050806198, ,0.10908664432514396, ,0.0,0.0,0.0,0.0,0.0,0.0, ,0.0,0.0,0.0,0.0,0.0,0.0, ,1.1621580123901367
0.0894921312374249,0.07954804324139889,-0.1392239018901873, ,0.01642501601628704,0.02123812329443733,-0.09323052980780336, ,0.10418368570207484, ,8.987523193969448e-05,1.3011206097729894e-05,6.52053412795921e-05,6.712721031259806e-05,-0.0006689471154971867,4.0958840786595e-05, ,0.0001117970721070975, ,0.0006723067050806198, ,0.10905894399394019, ,0.0,0.0,0.0,0.0,0.0,0.0, ,0.0,0.0,0.0,0.0,0.0,0.0, ,1.1640899181365967
0.0894921312374249,0.07954804324139889,-0.1392239018901873, ,0.016467779296766242,0.02122661114519001,-0.09330953186037112, ,0.10412528412129671, ,8.987523193969448e-05,1.3011206097729894e-05,6.52053412795921e-05,6.712721031259806e-05,-0.0006689471154971867,4.0958840786595e-05, ,0.0001117970721070975, ,0.0006723067050806198, ,0.10903122680364442, ,0.0,0.0,0.0,0.0,0.0,0.0, ,0.0,0.0,0.0,0.0,0.0,0.0, ,1.1660559177398682
0.0894921312374249,0.07954804324139889,-0.1392239018901873, ,0.016510593406762194,0.021215007325360632,-0.09338852762068839, ,0.1040669470952968, ,8.987523193969448e-05,1.3011206097729894e-05,6.52053412795921e-05,6.712721031259806e-05,-0.0006689471154971867,4.0958840786595e-05, ,0.0001117970721070975, ,0.0006723067050806198, ,0.10900349339745255, ,0.0,0.0,0.0,0.0,0.0,0.0, ,0.0,0.0,0.0,0.0,0.0,0.0, ,1.1680309772491455
0.0894921312374249,0.07954804324139889,-0.1392239018901873, ,0.01655345796331962,0.021203313636693182,-0.09346751643637863, ,0.10400867435666322, ,8.987523193969448e-05,1.3011206097729894e-05,6.52053412795921e-05,6.712721031259806e-05,-0.0006689471154971867,4.0958840786595e-05, ,0.0001117970721070975, ,0.0006723067050806198, ,0.10897574440278149, ,0.0,0.0,0.0,0.0,0.0,0.0, ,0.0,0.0,0.0,0.0,0.0,0.0, ,1.1699819564819336
0.0894921312374249,0.07954804324139889,-0.1392239018901873, ,0.016596372585242183,0.021191531874088197,-0.09354649765659453, ,0.10395046563608733, ,8.987523193969448e-05,1.3011206097729894e-05,6.52053412795921e-05,6.712721031259806e-05,-0.0006689471154971867,4.0958840786595e-05, ,0.0001117970721070975, ,0.0006723067050806198, ,0.10894798043169479, ,0.0,0.0,0.0,0.0,0.0,0.0, ,0.0,0.0,0.0,0.0,0.0,0.0, ,1.1720499992370605
0.0894921312374249,0.07954804324139889,-0.1392239018901873, ,0.016639336893088805,0.02117966382561262,-0.09362547063201748, ,0.10389232066235382, ,8.987523193969448e-05,1.3011206097729894e-05,6.52053412795921e-05,6.712721031259806e-05,-0.0006689471154971867,4.0958840786595e-05, ,0.0001117970721070975, ,0.0006723067050806198, ,0.1089202020813138, ,0.0,0.0,0.0,0.0,0.0,0.0, ,0.0,0.0,0.0,0.0,0.0,0.0, ,1.1739509105682373
0.0894921312374249,0.07954804324139889,-0.1392239018901873, ,0.01668235050917067,0.021167711272509143,-0.09370443471485781, ,0.10383423916233088, ,8.987523193969448e-05,1.3011206097729894e-05,6.52053412795921e-05,6.712721031259806e-05,-0.0006689471154971867,4.0958840786595e-05, ,0.0001117970721070975, ,0.0006723067050806198, ,0.10889240993421553, ,0.0,0.0,0.0,0.0,0.0,0.0, ,0.0,0.0,0.0,0.0,0.0,0.0, ,1.1758499145507812
0.0894921312374249,0.07954804324139889,-0.1392239018901873, ,0.01672541305754789,0.021155675989206018,-0.0937833892588536, ,0.10377622086096124, ,8.987523193969448e-05,1.3011206097729894e-05,6.52053412795921e-05,6.712721031259806e-05,-0.0006689471154971867,4.0958840786595e-05, ,0.0001117970721070975, ,0.0006723067050806198, ,0.10886460455881741, ,0.0,0.0,0.0,0.0,0.0,0.0, ,0.0,0.0,0.0,0.0,0.0,0.0, ,1.17775297164917
0.0894921312374249,0.07954804324139889,-0.1392239018901873, ,0.016768524164026195,0.02114355974332669,-0.0938623336192706, ,0.10371826548125315, ,8.987523193969448e-05,1.3011206097729894e-05,6.52053412795921e-05,6.712721031259806e-05,-0.0006689471154971867,4.0958840786595e-05, ,0.0001117970721070975, ,0.0006723067050806198, ,0.1088367865097495, ,0.0,0.0,0.0,0.0,0.0,0.0, ,0.0,0.0,0.0,0.0,0.0,0.0, ,1.179718017578125
0.0894921312374249,0.07954804324139889,-0.1392239018901873, ,0.016811683456153997,0.021131364295699256,-0.09394126715290252, ,0.10366037274427169, ,8.987523193969448e-05,1.3011206097729894e-05,6.52053412795921e-05,6.712721031259806e-05,-0.0006689471154971867,4.0958840786595e-05, ,0.0001117970721070975, ,0.0006723067050806198, ,0.10880895632821468, ,0.0,0.0,0.0,0.0,0.0,0.0, ,0.0,0.0,0.0,0.0,0.0,0.0, ,1.1821410655975342
0.0894921312374249,0.07954804324139889,-0.1392239018901873, ,0.01685489056321884,0.021119091400366285,-0.09402018921806998, ,0.10360254236913098, ,8.987523193969448e-05,1.3011206097729894e-05,6.52053412795921e-05,6.712721031259806e-05,-0.0006689471154971867,4.0958840786595e-05, ,0.0001117970721070975, ,0.0006723067050806198, ,0.10878111454233722, ,0.0,0.0,0.0,0.0,0.0,0.0, ,0.0,0.0,0.0,0.0,0.0,0.0, ,1.1841330528259277
0.0894921312374249,0.07954804324139889,-0.1392239018901873, ,0.01689814511624442,0.021106742804594375,-0.09409909917462034, ,0.10354477407298657, ,8.987523193969448e-05,1.3011206097729894e-05,6.52053412795921e-05,6.712721031259806e-05,-0.0006689471154971867,4.0958840786595e-05, ,0.0001117970721070975, ,0.0006723067050806198, ,0.10875326166750025, ,0.0,0.0,0.0,0.0,0.0,0.0, ,0.0,0.0,0.0,0.0,0.0,0.0, ,1.1862030029296875
0.0894921312374249,0.07954804324139889,-0.1392239018901873, ,0.01694144674798735,0.021094320248883643,-0.09417799638392776, ,0.10348706757102785, ,8.987523193969448e-05,1.3011206097729894e-05,6.52053412795921e-05,6.712721031259806e-05,-0.0006689471154971867,4.0958840786595e-05, ,0.0001117970721070975, ,0.0006723067050806198, ,0.10872539820667235, ,0.0,0.0,0.0,0.0,0.0,0.0, ,0.0,0.0,0.0,0.0,0.0,0.0, ,1.1882870197296143
0.0894921312374249,0.07954804324139889,-0.1392239018901873, ,0.016984795092933883,0.021081825466977493,-0.09425688020889222, ,0.10342942257647164, ,8.987523193969448e-05,1.3011206097729894e-05,6.52053412795921e-05,6.712721031259806e-05,-0.0006689471154971867,4.0958840786595e-05, ,0.0001117970721070975, ,0.0006723067050806198, ,0.10869752465072392, ,0.0,0.0,0.0,0.0,0.0,0.0, ,0.0,0.0,0.0,0.0,0.0,0.0, ,1.1903879642486572
0.0894921312374249,0.07954804324139889,-0.1392239018901873, ,0.017028189787296404,0.02106926018587236,-0.09433575001393978, ,0.10337183880055559, ,8.987523193969448e-05,1.3011206097729894e-05,6.52053412795921e-05,6.712721031259806e-05,-0.0006689471154971867,4.0958840786595e-05, ,0.0001117970721070975, ,0.0006723067050806198, ,0.10866964147873351, ,0.0,0.0,0.0,0.0,0.0,0.0, ,0.0,0.0,0.0,0.0,0.0,0.0, ,1.1927540302276611
0.0894921312374249,0.07954804324139889,-0.1392239018901873, ,0.01707163046901098,0.021056626125827014,-0.09441460516502179, ,0.10331431595253188, ,8.987523193969448e-05,1.3011206097729894e-05,6.52053412795921e-05,6.712721031259806e-05,-0.0006689471154971867,4.0958840786595e-05, ,0.0001117970721070975, ,0.0006723067050806198, ,0.10864174915828455, ,0.0,0.0,0.0,0.0,0.0,0.0, ,0.0,0.0,0.0,0.0,0.0,0.0, ,1.1949999332427979
0.0894921312374249,0.07954804324139889,-0.1392239018901873, ,0.017115116777733246,0.021043925000372426,-0.0944934450296153, ,0.10325685373966183, ,8.987523193969448e-05,1.3011206097729894e-05,6.52053412795921e-05,6.712721031259806e-05,-0.0006689471154971867,4.0958840786595e-05, ,0.0001117970721070975, ,0.0006723067050806198, ,0.10861384814575283, ,0.0,0.0,0.0,0.0,0.0,0.0, ,0.0,0.0,0.0,0.0,0.0,0.0, ,1.196984052658081
0.0894921312374249,0.07954804324139889,-0.1392239018901873, ,0.017158648354835857,0.021031158516321313,-0.09457226897672155, ,0.10319945186721059, ,8.987523193969448e-05,1.3011206097729894e-05,6.52053412795921e-05,6.712721031259806e-05,-0.0006689471154971867,4.0958840786595e-05, ,0.0001117970721070975, ,0.0006723067050806198, ,0.10858593888658509, ,0.0,0.0,0.0,0.0,0.0,0.0, ,0.0,0.0,0.0,0.0,0.0,0.0, ,1.1988558769226074
0.0894921312374249,0.07954804324139889,-0.1392239018901873, ,0.017202224843404924,0.021018328373777737,-0.09465107637686644, ,0.10314211003844234, ,8.987523193969448e-05,1.3011206097729894e-05,6.52053412795921e-05,6.712721031259806e-05,-0.0006689471154971867,4.0958840786595e-05, ,0.0001117970721070975, ,0.0006723067050806198, ,0.10855802181556896, ,0.0,0.0,0.0,0.0,0.0,0.0, ,0.0,0.0,0.0,0.0,0.0,0.0, ,1.2007970809936523
0.0894921312374249,0.07954804324139889,-0.1392239018901873, ,0.017245845888236803,0.02100543626614685,-0.09472986660210071, ,0.1030848279546153, ,8.987523193969448e-05,1.3011206097729894e-05,6.52053412795921e-05,6.712721031259806e-05,-0.0006689471154971867,4.0958840786595e-05, ,0.0001117970721070975, ,0.0006723067050806198, ,0.10853009735709471, ,0.0,0.0,0.0,0.0,0.0,0.0, ,0.0,0.0,0.0,0.0,0.0,0.0, ,1.202751874923706
0.0894921312374249,0.07954804324139889,-0.1392239018901873, ,0.017289511135835184,0.020992483880144342,-0.09480863902599808, ,0.10302760531497818, ,8.987523193969448e-05,1.3011206097729894e-05,6.52053412795921e-05,6.712721031259806e-05,-0.0006689471154971867,4.0958840786595e-05, ,0.0001117970721070975, ,0.0006723067050806198, ,0.10850216592540883, ,0.0,0.0,0.0,0.0,0.0,0.0, ,0.0,0.0,0.0,0.0,0.0,0.0, ,1.204719066619873
0.0894921312374249,0.07954804324139889,-0.1392239018901873, ,0.017333220234407386,0.02097947289580619,-0.0948873930236565, ,0.10297044181676608, ,8.987523193969448e-05,1.3011206097729894e-05,6.52053412795921e-05,6.712721031259806e-05,-0.0006689471154971867,4.0958840786595e-05, ,0.0001117970721070975, ,0.0006723067050806198, ,0.10847422792486013, ,0.0,0.0,0.0,0.0,0.0,0.0, ,0.0,0.0,0.0,0.0,0.0,0.0, ,1.2066938877105713
0.0894921312374249,0.07954804324139889,-0.1392239018901873, ,0.017376972833861706,0.02096640498649824,-0.09496612797169654, ,0.1029133371551972, ,8.987523193969448e-05,1.3011206097729894e-05,6.52053412795921e-05,6.712721031259806e-05,-0.0006689471154971867,4.0958840786595e-05, ,0.0001117970721070975, ,0.0006723067050806198, ,0.10844628375013819, ,0.0,0.0,0.0,0.0,0.0,0.0, ,0.0,0.0,0.0,0.0,0.0,0.0, ,1.2085859775543213
0.0894921312374249,0.07954804324139889,-0.1392239018901873, ,0.017420768585803586,0.02095328181892582,-0.09504484324826205, ,0.10285629102346984, ,8.987523193969448e-05,1.3011206097729894e-05,6.52053412795921e-05,6.712721031259806e-05,-0.0006689471154971867,4.0958840786595e-05, ,0.0001117970721070975, ,0.0006723067050806198, ,0.10841833378650487, ,0.0,0.0,0.0,0.0,0.0,0.0, ,0.0,0.0,0.0,0.0,0.0,0.0, ,1.2104949951171875
0.0894921312374249,0.07954804324139889,-0.1392239018901873, ,0.017464607143532797,0.020940105053143518,-0.09512353823301949, ,0.10279930311275955, ,8.987523193969448e-05,1.3011206097729894e-05,6.52053412795921e-05,6.712721031259806e-05,-0.0006689471154971867,4.0958840786595e-05, ,0.0001117970721070975, ,0.0006723067050806198, ,0.10839037841001857, ,0.0,0.0,0.0,0.0,0.0,0.0, ,0.0,0.0,0.0,0.0,0.0,0.0, ,1.2129318714141846
0.0894921312374249,0.07954804324139889,-0.1392239018901873, ,0.017508488162040346,0.020926876342564415,-0.0952022123071572, ,0.10274237311221708, ,8.987523193969448e-05,1.3011206097729894e-05,6.52053412795921e-05,6.712721031259806e-05,-0.0006689471154971867,4.0958840786595e-05, ,0.0001117970721070975, ,0.0006723067050806198, ,0.10836241798775223, ,0.0,0.0,0.0,0.0,0.0,0.0, ,0.0,0.0,0.0,0.0,0.0,0.0, ,1.214853048324585
0.0894921312374249,0.07954804324139889,-0.1392239018901873, ,0.0175524112980047,0.020913597333970163,-0.09528086485338559, ,0.10268550070896632, ,8.987523193969448e-05,1.3011206097729894e-05,6.52053412795921e-05,6.712721031259806e-05,-0.0006689471154971867,4.0958840786595e-05, ,0.0001117970721070975, ,0.0006723067050806198, ,0.10833445287800451, ,0.0,0.0,0.0,0.0,0.0,0.0, ,0.0,0.0,0.0,0.0,0.0,0.0, ,1.2167530059814453
0.0894921312374249,0.07954804324139889,-0.1392239018901873, ,0.017596376209789193,0.0209002696675204,-0.09535949525593658, ,0.10262868558810262, ,8.987523193969448e-05,1.3011206097729894e-05,6.52053412795921e-05,6.712721031259806e-05,-0.0006689471154971867,4.0958840786595e-05, ,0.0001117970721070975, ,0.0006723067050806198, ,0.10830648343050499, ,0.0,0.0,0.0,0.0,0.0,0.0, ,0.0,0.0,0.0,0.0,0.0,0.0, ,1.2186410427093506
0.0894921312374249,0.07954804324139889,-0.1392239018901873, ,0.01764038255743833,0.020886894976762282,-0.09543810290056341, ,0.10257192743269172, ,8.987523193969448e-05,1.3011206097729894e-05,6.52053412795921e-05,6.712721031259806e-05,-0.0006689471154971867,4.0958840786595e-05, ,0.0001117970721070975, ,0.0006723067050806198, ,0.10827850998661322, ,0.0,0.0,0.0,0.0,0.0,0.0, ,0.0,0.0,0.0,0.0,0.0,0.0, ,1.2205660343170166
0.0894921312374249,0.07954804324139889,-0.1392239018901873, ,0.017684430002674844,0.02087347488864024,-0.09551668717454007, ,0.10251522592376881, ,8.987523193969448e-05,1.3011206097729894e-05,6.52053412795921e-05,6.712721031259806e-05,-0.0006689471154971867,4.0958840786595e-05, ,0.0001117970721070975, ,0.0006723067050806198, ,0.10825053287951202, ,0.0,0.0,0.0,0.0,0.0,0.0, ,0.0,0.0,0.0,0.0,0.0,0.0, ,1.2224760055541992
0.0894921312374249,0.07954804324139889,-0.1392239018901873, ,0.017728518208896402,0.020860011023505723,-0.09559524746666132, ,0.10245858074033773, ,8.987523193969448e-05,1.3011206097729894e-05,6.52053412795921e-05,6.712721031259806e-05,-0.0006689471154971867,4.0958840786595e-05, ,0.0001117970721070975, ,0.0006723067050806198, ,0.10822255243439523, ,0.0,0.0,0.0,0.0,0.0,0.0, ,0.0,0.0,0.0,0.0,0.0,0.0, ,1.224951982498169
0.0894921312374249,0.07954804324139889,-0.1392239018901873, ,0.01777264684117226,0.020846504995126462,-0.09567378316724187, ,0.10240199155937131, ,8.987523193969448e-05,1.3011206097729894e-05,6.52053412795921e-05,6.712721031259806e-05,-0.0006689471154971867,4.0958840786595e-05, ,0.0001117970721070975, ,0.0006723067050806198, ,0.10819456896864993, ,0.0,0.0,0.0,0.0,0.0,0.0, ,0.0,0.0,0.0,0.0,0.0,0.0, ,1.2272140979766846
0.0894921312374249,0.07954804324139889,-0.1392239018901873, ,0.017816815566240478,0.020832958410696382,-0.0957522936681166, ,0.10234545805581083, ,8.987523193969448e-05,1.3011206097729894e-05,6.52053412795921e-05,6.712721031259806e-05,-0.0006689471154971867,4.0958840786595e-05, ,0.0001117970721070975, ,0.0006723067050806198, ,0.10816658279203348, ,0.0,0.0,0.0,0.0,0.0,0.0, ,0.0,0.0,0.0,0.0,0.0,0.0, ,1.2304339408874512
0.0894921312374249,0.07954804324139889,-0.1392239018901873, ,0.017861024052503945,0.02081937287084518,-0.09583077836263992, ,0.10228897990256709, ,8.987523193969448e-05,1.3011206097729894e-05,6.52053412795921e-05,6.712721031259806e-05,-0.0006689471154971867,4.0958840786595e-05, ,0.0001117970721070975, ,0.0006723067050806198, ,0.10813859420684555, ,0.0,0.0,0.0,0.0,0.0,0.0, ,0.0,0.0,0.0,0.0,0.0,0.0, ,1.2324929237365723
0.0894921312374249,0.07954804324139889,-0.1392239018901873, ,0.017905271970027902,0.02080574996964795,-0.09590923664568533, ,0.10223255677052083, ,8.987523193969448e-05,1.3011206097729894e-05,6.52053412795921e-05,6.712721031259806e-05,-0.0006689471154971867,4.0958840786595e-05, ,0.0001117970721070975, ,0.0006723067050806198, ,0.10811060350809519, ,0.0,0.0,0.0,0.0,0.0,0.0, ,0.0,0.0,0.0,0.0,0.0,0.0, ,1.2346720695495605
0.0894921312374249,0.07954804324139889,-0.1392239018901873, ,0.017949558990536164,0.02079209129463475,-0.09598766791364562, ,0.10217618832852401, ,8.987523193969448e-05,1.3011206097729894e-05,6.52053412795921e-05,6.712721031259806e-05,-0.0006689471154971867,4.0958840786595e-05, ,0.0001117970721070975, ,0.0006723067050806198, ,0.10808261098366324, ,0.0,0.0,0.0,0.0,0.0,0.0, ,0.0,0.0,0.0,0.0,0.0,0.0, ,1.2366690635681152
0.0894921312374249,0.07954804324139889,-0.1392239018901873, ,0.01799388478740875,0.020778398426800043,-0.09606607156443153, ,0.1021198742434012, ,8.987523193969448e-05,1.3011206097729894e-05,6.52053412795921e-05,6.712721031259806e-05,-0.0006689471154971867,4.0958840786595e-05, ,0.0001117970721070975, ,0.0006723067050806198, ,0.10805461691446012, ,0.0,0.0,0.0,0.0,0.0,0.0, ,0.0,0.0,0.0,0.0,0.0,0.0, ,1.2386810779571533
0.0894921312374249,0.07954804324139889,-0.1392239018901873, ,0.0180382490356772,0.020764672940612922,-0.09614444699747272, ,0.10206361417995148, ,8.987523193969448e-05,1.3011206097729894e-05,6.52053412795921e-05,6.712721031259806e-05,-0.0006689471154971867,4.0958840786595e-05, ,0.0001117970721070975, ,0.0006723067050806198, ,0.10802662157457925, ,0.0,0.0,0.0,0.0,0.0,0.0, ,0.0,0.0,0.0,0.0,0.0,0.0, ,1.2406320571899414
0.0894921312374249,0.07954804324139889,-0.1392239018901873, ,0.018082651412022994,0.020750916404025994,-0.09622279361371641, ,0.10200740780095027, ,8.987523193969448e-05,1.3011206097729894e-05,6.52053412795921e-05,6.712721031259806e-05,-0.0006689471154971867,4.0958840786595e-05, ,0.0001117970721070975, ,0.0006723067050806198, ,0.10799862523144609, ,0.0,0.0,0.0,0.0,0.0,0.0, ,0.0,0.0,0.0,0.0,0.0,0.0, ,1.2428159713745117
0.0894921312374249,0.07954804324139889,-0.1392239018901873, ,0.01812709159477316,0.020737130378485524,-0.0963011108156274, ,0.10195125476715214, ,8.987523193969448e-05,1.3011206097729894e-05,6.52053412795921e-05,6.712721031259806e-05,-0.0006689471154971867,4.0958840786595e-05, ,0.0001117970721070975, ,0.0006723067050806198, ,0.10797062814596324, ,0.0,0.0,0.0,0.0,0.0,0.0, ,0.0,0.0,0.0,0.0,0.0,0.0, ,1.2451980113983154
0.0894921312374249,0.07954804324139889,-0.1392239018901873, ,0.018171569263897423,0.020723316418940943,-0.09637939800718807, ,0.10189515473729314, ,8.987523193969448e-05,1.3011206097729894e-05,6.52053412795921e-05,6.712721031259806e-05,-0.0006689471154971867,4.0958840786595e-05, ,0.0001117970721070975, ,0.0006723067050806198, ,0.1079426305726514, ,0.0,0.0,0.0,0.0,0.0,0.0, ,0.0,0.0,0.0,0.0,0.0,0.0, ,1.2471299171447754
0.0894921312374249,0.07954804324139889,-0.1392239018901873, ,0.01821608410100536,0.02070947607385423,-0.09645765459389749, ,0.101839107368094, ,8.987523193969448e-05,1.3011206097729894e-05,6.52053412795921e-05,6.712721031259806e-05,-0.0006689471154971867,4.0958840786595e-05, ,0.0001117970721070975, ,0.0006723067050806198, ,0.10791463275978645, ,0.0,0.0,0.0,0.0,0.0,0.0, ,0.0,0.0,0.0,0.0,0.0,0.0, ,1.2490599155426025
0.0894921312374249,0.07954804324139889,-0.1392239018901873, ,0.018260635789342533,0.02069561088520982,-0.09653587998277124, ,0.10178311231426372, ,8.987523193969448e-05,1.3011206097729894e-05,6.52053412795921e-05,6.712721031259806e-05,-0.0006689471154971867,4.0958840786595e-05, ,0.0001117970721070975, ,0.0006723067050806198, ,0.1078866349495329, ,0.0,0.0,0.0,0.0,0.0,0.0, ,0.0,0.0,0.0,0.0,0.0,0.0, ,1.250943899154663
0.0894921312374249,0.07954804324139889,-0.1392239018901873, ,0.01830522401378772,0.02068172238852425,-0.09661407358234134, ,0.10172716922850267, ,8.987523193969448e-05,1.3011206097729894e-05,6.52053412795921e-05,6.712721031259806e-05,-0.0006689471154971867,4.0958840786595e-05, ,0.0001117970721070975, ,0.0006723067050806198, ,0.10785863737807369, ,0.0,0.0,0.0,0.0,0.0,0.0, ,0.0,0.0,0.0,0.0,0.0,0.0, ,1.252856969833374
0.0894921312374249,0.07954804324139889,-0.1392239018901873, ,0.01834984846084951,0.02066781211285543,-0.09669223480265611, ,0.10167127776150695, ,8.987523193969448e-05,1.3011206097729894e-05,6.52053412795921e-05,6.712721031259806e-05,-0.0006689471154971867,4.0958840786595e-05, ,0.0001117970721070975, ,0.0006723067050806198, ,0.10783064027573629, ,0.0,0.0,0.0,0.0,0.0,0.0, ,0.0,0.0,0.0,0.0,0.0,0.0, ,1.25506591796875
0.0894921312374249,0.07954804324139889,-0.1392239018901873, ,0.018394508818663325,0.02065388158081256,-0.09677036305527882, ,0.10161543756197257, ,8.987523193969448e-05,1.3011206097729894e-05,6.52053412795921e-05,6.712721031259806e-05,-0.0006689471154971867,4.0958840786595e-05, ,0.0001117970721070975, ,0.0006723067050806198, ,0.10780264386711572, ,0.0,0.0,0.0,0.0,0.0,0.0, ,0.0,0.0,0.0,0.0,0.0,0.0, ,1.2569429874420166
0.0894921312374249,0.07954804324139889,-0.1392239018901873, ,0.01843920477698772,0.020639932308565846,-0.09684845775328833, ,0.1015596482766, ,8.987523193969448e-05,1.3011206097729894e-05,6.52053412795921e-05,6.712721031259806e-05,-0.0006689471154971867,4.0958840786595e-05, ,0.0001117970721070975, ,0.0006723067050806198, ,0.10777464837119412, ,0.0,0.0,0.0,0.0,0.0,0.0, ,0.0,0.0,0.0,0.0,0.0,0.0, ,1.2588510513305664
0.0894921312374249,0.07954804324139889,-0.1392239018901873, ,0.018483936027201577,0.020625965805855864,-0.09692651831127858, ,0.10150390955009884, ,8.987523193969448e-05,1.3011206097729894e-05,6.52053412795921e-05,6.712721031259806e-05,-0.0006689471154971867,4.0958840786595e-05, ,0.0001117970721070975, ,0.0006723067050806198, ,0.1077466540014571, ,0.0,0.0,0.0,0.0,0.0,0.0, ,0.0,0.0,0.0,0.0,0.0,0.0, ,1.2608139514923096
0.0894921312374249,0.07954804324139889,-0.1392239018901873, ,0.018528702262300904,0.02061198357600322,-0.09700454414535789, ,0.10144822102519312, ,8.987523193969448e-05,1.3011206097729894e-05,6.52053412795921e-05,6.712721031259806e-05,-0.0006689471154971867,4.0958840786595e-05, ,0.0001117970721070975, ,0.0006723067050806198, ,0.10771866096600703, ,0.0,0.0,0.0,0.0,0.0,0.0, ,0.0,0.0,0.0,0.0,0.0,0.0, ,1.2630550861358643
0.0894921312374249,0.07954804324139889,-0.1392239018901873, ,0.018573503176895097,0.020597987115918506,-0.09708253467314919, ,0.10139258234262655, ,8.987523193969448e-05,1.3011206097729894e-05,6.52053412795921e-05,6.712721031259806e-05,-0.0006689471154971867,4.0958840786595e-05, ,0.0001117970721070975, ,0.0006723067050806198, ,0.10769066946767349, ,0.0,0.0,0.0,0.0,0.0,0.0, ,0.0,0.0,0.0,0.0,0.0,0.0, ,1.2649869918823242
0.0894921312374249,0.07954804324139889,-0.1392239018901873, ,0.01861833846720462,0.020583977916111235,-0.09716048931378922, ,0.10133699314116837, ,8.987523193969448e-05,1.3011206097729894e-05,6.52053412795921e-05,6.712721031259806e-05,-0.0006689471154971867,4.0958840786595e-05, ,0.0001117970721070975, ,0.0006723067050806198, ,0.1076626797041206, ,0.0,0.0,0.0,0.0,0.0,0.0, ,0.0,0.0,0.0,0.0,0.0,0.0, ,1.2668960094451904
0.0894921312374249,0.07954804324139889,-0.1392239018901873, ,0.01866320783105682,0.02056995746070032,-0.09723840748792822, ,0.10128145305761921, ,8.987523193969448e-05,1.3011206097729894e-05,6.52053412795921e-05,6.712721031259806e-05,-0.0006689471154971867,4.0958840786595e-05, ,0.0001117970721070975, ,0.0006723067050806198, ,0.10763469186795174, ,0.0,0.0,0.0,0.0,0.0,0.0, ,0.0,0.0,0.0,0.0,0.0,0.0, ,1.269002914428711
0.0894921312374249,0.07954804324139889,-0.1392239018901873, ,0.018708110967883412,0.020555927227423085,-0.09731628861773012, ,0.10122596172681725, ,8.987523193969448e-05,1.3011206097729894e-05,6.52053412795921e-05,6.712721031259806e-05,-0.0006689471154971867,4.0958840786595e-05, ,0.0001117970721070975, ,0.0006723067050806198, ,0.10760670614681142, ,0.0,0.0,0.0,0.0,0.0,0.0, ,0.0,0.0,0.0,0.0,0.0,0.0, ,1.2710509300231934
0.0894921312374249,0.07954804324139889,-0.1392239018901873, ,0.018753047578716917,0.020541888687644946,-0.09739413212687119, ,0.10117051878164517, ,8.987523193969448e-05,1.3011206097729894e-05,6.52053412795921e-05,6.712721031259806e-05,-0.0006689471154971867,4.0958840786595e-05, ,0.0001117970721070975, ,0.0006723067050806198, ,0.10757872272348462, ,0.0,0.0,0.0,0.0,0.0,0.0, ,0.0,0.0,0.0,0.0,0.0,0.0, ,1.2731499671936035
0.0894921312374249,0.07954804324139889,-0.1392239018901873, ,0.01879801736618751,0.02052784330636943,-0.09747193744054118, ,0.10111512385303616, ,8.987523193969448e-05,1.3011206097729894e-05,6.52053412795921e-05,6.712721031259806e-05,-0.0006689471154971867,4.0958840786595e-05, ,0.0001117970721070975, ,0.0006723067050806198, ,0.1075507417759935, ,0.0,0.0,0.0,0.0,0.0,0.0, ,0.0,0.0,0.0,0.0,0.0,0.0, ,1.2751879692077637
0.0894921312374249,0.07954804324139889,-0.1392239018901873, ,0.018843020034519802,0.02051379254224741,-0.09754970398544154, ,0.10105977656998176, ,8.987523193969448e-05,1.3011206097729894e-05,6.52053412795921e-05,6.712721031259806e-05,-0.0006689471154971867,4.0958840786595e-05, ,0.0001117970721070975, ,0.0006723067050806198, ,0.10752276347769173, ,0.0,0.0,0.0,0.0,0.0,0.0, ,0.0,0.0,0.0,0.0,0.0,0.0, ,1.2773160934448242
0.0894921312374249,0.07954804324139889,-0.1392239018901873, ,0.01888805528952969,0.02049973784758677,-0.09762743118978574, ,0.10100447655953879, ,8.987523193969448e-05,1.3011206097729894e-05,6.52053412795921e-05,6.712721031259806e-05,-0.0006689471154971867,4.0958840786595e-05, ,0.0001117970721070975, ,0.0006723067050806198, ,0.1074947879973563, ,0.0,0.0,0.0,0.0,0.0,0.0, ,0.0,0.0,0.0,0.0,0.0,0.0, ,1.2793810367584229
0.0894921312374249,0.07954804324139889,-0.1392239018901873, ,0.018933122838621117,0.02048568066836227,-0.09770511848329949, ,0.10094922344683668, ,8.987523193969448e-05,1.3011206097729894e-05,6.52053412795921e-05,6.712721031259806e-05,-0.0006689471154971867,4.0958840786595e-05, ,0.0001117970721070975, ,0.0006723067050806198, ,0.10746681549927715, ,0.0,0.0,0.0,0.0,0.0,0.0, ,0.0,0.0,0.0,0.0,0.0,0.0, ,1.28143310546875
0.0894921312374249,0.07954804324139889,-0.1392239018901873, ,0.01897822239078282,0.02047162244422487,-0.09778276529721916, ,0.10089401685508592, ,8.987523193969448e-05,1.3011206097729894e-05,6.52053412795921e-05,6.712721031259806e-05,-0.0006689471154971867,4.0958840786595e-05, ,0.0001117970721070975, ,0.0006723067050806198, ,0.10743884614334442, ,0.0,0.0,0.0,0.0,0.0,0.0, ,0.0,0.0,0.0,0.0,0.0,0.0, ,1.2835769653320312
0.0894921312374249,0.07954804324139889,-0.1392239018901873, ,0.019023353656584974,0.020457564608511548,-0.09786037106429225, ,0.1008388564055859, ,8.987523193969448e-05,1.3011206097729894e-05,6.52053412795921e-05,6.712721031259806e-05,-0.0006689471154971867,4.0958840786595e-05, ,0.0001117970721070975, ,0.0006723067050806198, ,0.10741088008513358, ,0.0,0.0,0.0,0.0,0.0,0.0, ,0.0,0.0,0.0,0.0,0.0,0.0, ,1.2866170406341553
