NicholasDascanio/dvrk_moveit_final/test/execution/third_experiment_notsharpbends/thirdexp_600vel5.0/thirdexp_600vel5.0_29.csv
Current Position (x),Current Position (y),Current Position (z), ,Planned Position (x),Planned Position (y),Planned Position (z), ,Position Error,,Cartesian linear Velocity(x),Cartesian linear Velocity(y),Cartesian linear Velocity(z),Cartesian Angular Velocity(x),Cartesian Angular Velocity(y),Cartesian Angular Velocity(z), ,Total Linear Velocity, ,Total Angular Velocity, ,MSE, ,Joint 1 Position,Joint 2 Position,Joint 3 Position,Joint 4 Position,Joint 5 Position,Joint 6 Position, ,Joint 1 Velocity,Joint 2 Velocity,Joint 3 Velocity,Joint 4 Velocity,Joint 5 Velocity,Joint 6 Velocity, ,Time Stamp
0.08942801082369184,0.07935609970822627,-0.1387786473469329, ,0.008517375156892276,0.019254394677190104,-0.07526169656624956, ,0.11913500303487219, ,6.834425229768078e-05,0.00010461910788273895,-0.00015222979202227538,-0.0003432198224840538,-0.0002704708648802313,0.000778752877003143, ,0.00019695178124468546, ,0.0004369832208391576, ,0.009927916919572682, ,0.0,0.0,0.0,0.0,0.0,0.0, ,0.0,0.0,0.0,0.0,0.0,0.0, ,0.019576072692871094
0.08942801082369184,0.07935609970822627,-0.1387786473469329, ,0.008602111924899134,0.019293223912812345,-0.07550109672337849, ,0.1189303300026098, ,6.834425229768078e-05,0.00010461910788273895,-0.00015222979202227538,-0.0003432198224840538,-0.0002704708648802313,0.000778752877003143, ,0.00019695178124468546, ,0.0004369832208391576, ,0.010821151501703728, ,0.0,0.0,0.0,0.0,0.0,0.0, ,0.0,0.0,0.0,0.0,0.0,0.0, ,0.041046857833862305
0.08942801082369184,0.07935609970822627,-0.1387786473469329, ,0.008686645641353076,0.019331778850245084,-0.07573956566026002, ,0.11872663124113594, ,6.834425229768078e-05,0.00010461910788273895,-0.00015222979202227538,-0.0003432198224840538,-0.0002704708648802313,0.000778752877003143, ,0.00019695178124468546, ,0.0004369832208391576, ,0.01114974888370681, ,0.0,0.0,0.0,0.0,0.0,0.0, ,0.0,0.0,0.0,0.0,0.0,0.0, ,0.05980086326599121
0.08942801082369184,0.07935609970822627,-0.1387786473469329, ,0.008770976668943537,0.01937006031126908,-0.07597710514999186, ,0.11852390384849674, ,6.834425229768078e-05,0.00010461910788273895,-0.00015222979202227538,-0.0003432198224840538,-0.0002704708648802313,0.000778752877003143, ,0.00019695178124468546, ,0.0004369832208391576, ,0.011317044479217017, ,0.0,0.0,0.0,0.0,0.0,0.0, ,0.0,0.0,0.0,0.0,0.0,0.0, ,0.08129596710205078
0.08942801082369184,0.07935609970822627,-0.1387786473469329, ,0.008855105370259991,0.019408069116815623,-0.07621371696441818, ,0.11832214492125, ,6.834425229768078e-05,0.00010461910788273895,-0.00015222979202227538,-0.0003432198224840538,-0.0002704708648802313,0.000778752877003143, ,0.00019695178124468546, ,0.0004369832208391576, ,0.011416115635545475, ,0.0,0.0,0.0,0.0,0.0,0.0, ,0.0,0.0,0.0,0.0,0.0,0.0, ,0.1001749038696289
0.08942801082369184,0.07935609970822627,-0.1387786473469329, ,0.008939032107792786,0.01944580608696531,-0.07644940287413059, ,0.11812135155451156, ,6.834425229768078e-05,0.00010461910788273895,-0.00015222979202227538,-0.0003432198224840538,-0.0002704708648802313,0.000778752877003143, ,0.00019695178124468546, ,0.0004369832208391576, ,0.011479989751659295, ,0.0,0.0,0.0,0.0,0.0,0.0, ,0.0,0.0,0.0,0.0,0.0,0.0, ,0.12595891952514648
0.08942801082369184,0.07935609970822627,-0.1387786473469329, ,0.009022757243933137,0.01948327204094811,-0.07668416464847065, ,0.11792152084200117, ,6.834425229768078e-05,0.00010461910788273895,-0.00015222979202227538,-0.0003432198224840538,-0.0002704708648802313,0.000778752877003143, ,0.00019695178124468546, ,0.0004369832208391576, ,0.011523345631178853, ,0.0,0.0,0.0,0.0,0.0,0.0, ,0.0,0.0,0.0,0.0,0.0,0.0, ,0.14604496955871582
0.08942801082369184,0.07935609970822627,-0.1387786473469329, ,0.009106281140973572,0.019520467797142473,-0.07691800405553058, ,0.11772264987609009, ,6.834425229768078e-05,0.00010461910788273895,-0.00015222979202227538,-0.0003432198224840538,-0.0002704708648802313,0.000778752877003143, ,0.00019695178124468546, ,0.0004369832208391576, ,0.011553701650255701, ,0.0,0.0,0.0,0.0,0.0,0.0, ,0.0,0.0,0.0,0.0,0.0,0.0, ,0.1648879051208496
0.08942801082369184,0.07935609970822627,-0.1387786473469329, ,0.009189604161108181,0.019557394173075112,-0.0771509228621559, ,0.11752473574784777, ,6.834425229768078e-05,0.00010461910788273895,-0.00015222979202227538,-0.0003432198224840538,-0.0002704708648802313,0.000778752877003143, ,0.00019695178124468546, ,0.0004369832208391576, ,0.011575307294226253, ,0.0,0.0,0.0,0.0,0.0,0.0, ,0.0,0.0,0.0,0.0,0.0,0.0, ,0.18439888954162598
0.08942801082369184,0.07935609970822627,-0.1387786473469329, ,0.009272726666432828,0.019594051985420382,-0.07738292283394585, ,0.11732777554709058, ,6.834425229768078e-05,0.00010461910788273895,-0.00015222979202227538,-0.0003432198224840538,-0.0002704708648802313,0.000778752877003143, ,0.00019695178124468546, ,0.0004369832208391576, ,0.0115907455550579, ,0.0,0.0,0.0,0.0,0.0,0.0, ,0.0,0.0,0.0,0.0,0.0,0.0, ,0.20358490943908691
0.08942801082369184,0.07935609970822627,-0.1387786473469329, ,0.009355649018945438,0.01963044204999987,-0.07761400573525522, ,0.1171317663624298, ,6.834425229768078e-05,0.00010461910788273895,-0.00015222979202227538,-0.0003432198224840538,-0.0002704708648802313,0.000778752877003143, ,0.00019695178124468546, ,0.0004369832208391576, ,0.01170619651331834, ,0.0,0.0,0.0,0.0,0.0,0.0, ,0.0,0.0,0.0,0.0,0.0,0.0, ,0.22684788703918457
0.08942801082369184,0.07935609970822627,-0.1387786473469329, ,0.00943837158054623,0.01966656518178217,-0.07784417332919558, ,0.11693670528132066, ,6.834425229768078e-05,0.00010461910788273895,-0.00015222979202227538,-0.0003432198224840538,-0.0002704708648802313,0.000778752877003143, ,0.00019695178124468546, ,0.0004369832208391576, ,0.011802704318830468, ,0.0,0.0,0.0,0.0,0.0,0.0, ,0.0,0.0,0.0,0.0,0.0,0.0, ,0.24397897720336914
0.08942801082369184,0.07935609970822627,-0.1387786473469329, ,0.00952089471303786,0.0197024221948823,-0.07807342737763676, ,0.11674258939011166, ,6.834425229768078e-05,0.00010461910788273895,-0.00015222979202227538,-0.0003432198224840538,-0.0002704708648802313,0.000778752877003143, ,0.00019695178124468546, ,0.0004369832208391576, ,0.011884241144571844, ,0.0,0.0,0.0,0.0,0.0,0.0, ,0.0,0.0,0.0,0.0,0.0,0.0, ,0.26225996017456055
0.08942801082369184,0.07935609970822627,-0.1387786473469329, ,0.009603218778125644,0.01973801390256135,-0.07830176964120723, ,0.11654941577409478, ,6.834425229768078e-05,0.00010461910788273895,-0.00015222979202227538,-0.0003432198224840538,-0.0002704708648802313,0.000778752877003143, ,0.00019695178124468546, ,0.0004369832208391576, ,0.011953742923361323, ,0.0,0.0,0.0,0.0,0.0,0.0, ,0.0,0.0,0.0,0.0,0.0,0.0, ,0.27941393852233887
0.08942801082369184,0.07935609970822627,-0.1387786473469329, ,0.009685344137417414,0.019773341117226367,-0.0785292018792962, ,0.11635718151755552, ,6.834425229768078e-05,0.00010461910788273895,-0.00015222979202227538,-0.0003432198224840538,-0.0002704708648802313,0.000778752877003143, ,0.00019695178124468546, ,0.0004369832208391576, ,0.012013426564227334, ,0.0,0.0,0.0,0.0,0.0,0.0, ,0.0,0.0,0.0,0.0,0.0,0.0, ,0.29930996894836426
0.08942801082369184,0.07935609970822627,-0.1387786473469329, ,0.00976727115242423,0.0198084046504298,-0.07875572585005343, ,0.11616588370382391, ,6.834425229768078e-05,0.00010461910788273895,-0.00015222979202227538,-0.0003432198224840538,-0.0002704708648802313,0.000778752877003143, ,0.00019695178124468546, ,0.0004369832208391576, ,0.012064997363110527, ,0.0,0.0,0.0,0.0,0.0,0.0, ,0.0,0.0,0.0,0.0,0.0,0.0, ,0.31772398948669434
0.08942801082369184,0.07935609970822627,-0.1387786473469329, ,0.009849000184559888,0.019843205312869205,-0.078981343310391, ,0.11597551941532587, ,6.834425229768078e-05,0.00010461910788273895,-0.00015222979202227538,-0.0003432198224840538,-0.0002704708648802313,0.000778752877003143, ,0.00019695178124468546, ,0.0004369832208391576, ,0.012109788533700412, ,0.0,0.0,0.0,0.0,0.0,0.0, ,0.0,0.0,0.0,0.0,0.0,0.0, ,0.33507204055786133
0.08942801082369184,0.07935609970822627,-0.1387786473469329, ,0.009930531595141337,0.01987774391438716,-0.0792060560159839, ,0.11578608573363465, ,6.834425229768078e-05,0.00010461910788273895,-0.00015222979202227538,-0.0003432198224840538,-0.0002704708648802313,0.000778752877003143, ,0.00019695178124468546, ,0.0004369832208391576, ,0.012148857435598867, ,0.0,0.0,0.0,0.0,0.0,0.0, ,0.0,0.0,0.0,0.0,0.0,0.0, ,0.35410404205322266
0.08942801082369184,0.07935609970822627,-0.1387786473469329, ,0.010011865745388683,0.01991202126397061,-0.07942986572127089, ,0.11559757973952324, ,6.834425229768078e-05,0.00010461910788273895,-0.00015222979202227538,-0.0003432198224840538,-0.0002704708648802313,0.000778752877003143, ,0.00019695178124468546, ,0.0004369832208391576, ,0.01218305340728812, ,0.0,0.0,0.0,0.0,0.0,0.0, ,0.0,0.0,0.0,0.0,0.0,0.0, ,0.37073707580566406
0.08942801082369184,0.07935609970822627,-0.1387786473469329, ,0.010093002996425232,0.019946038169751164,-0.07965277417945502, ,0.11540999851301677, ,6.834425229768078e-05,0.00010461910788273895,-0.00015222979202227538,-0.0003432198224840538,-0.0002704708648802313,0.000778752877003143, ,0.00019695178124468546, ,0.0004369832208391576, ,0.012213066521076786, ,0.0,0.0,0.0,0.0,0.0,0.0, ,0.0,0.0,0.0,0.0,0.0,0.0, ,0.3908388614654541
0.08942801082369184,0.07935609970822627,-0.1387786473469329, ,0.010173943709277416,0.01997979543900429,-0.07987478314250464, ,0.11522333913344579, ,6.834425229768078e-05,0.00010461910788273895,-0.00015222979202227538,-0.0003432198224840538,-0.0002704708648802313,0.000778752877003143, ,0.00019695178124468546, ,0.0004369832208391576, ,0.012300660555900941, ,0.0,0.0,0.0,0.0,0.0,0.0, ,0.0,0.0,0.0,0.0,0.0,0.0, ,0.4070420265197754
0.08942801082369184,0.07935609970822627,-0.1387786473469329, ,0.010254688244875064,0.02001329387814937,-0.080095894361154, ,0.11503759867949927, ,6.834425229768078e-05,0.00010461910788273895,-0.00015222979202227538,-0.0003432198224840538,-0.0002704708648802313,0.000778752877003143, ,0.00019695178124468546, ,0.0004369832208391576, ,0.012380623605094652, ,0.0,0.0,0.0,0.0,0.0,0.0, ,0.0,0.0,0.0,0.0,0.0,0.0, ,0.4221479892730713
0.08942801082369184,0.07935609970822627,-0.1387786473469329, ,0.010335236964051111,0.020046534292749496,-0.0803161095849036, ,0.11485277422927881, ,6.834425229768078e-05,0.00010461910788273895,-0.00015222979202227538,-0.0003432198224840538,-0.0002704708648802313,0.000778752877003143, ,0.00019695178124468546, ,0.0004369832208391576, ,0.01245380779670818, ,0.0,0.0,0.0,0.0,0.0,0.0, ,0.0,0.0,0.0,0.0,0.0,0.0, ,0.4407620429992676
0.08942801082369184,0.07935609970822627,-0.1387786473469329, ,0.01041559022754195,0.020079517487511113,-0.08053543056202099, ,0.11466886286035255, ,6.834425229768078e-05,0.00010461910788273895,-0.00015222979202227538,-0.0003432198224840538,-0.0002704708648802313,0.000778752877003143, ,0.00019695178124468546, ,0.0004369832208391576, ,0.012520943513166603, ,0.0,0.0,0.0,0.0,0.0,0.0, ,0.0,0.0,0.0,0.0,0.0,0.0, ,0.4557468891143799
0.08942801082369184,0.07935609970822627,-0.1387786473469329, ,0.010495748395987006,0.020112244266283916,-0.08075385903954131, ,0.11448586164980999, ,6.834425229768078e-05,0.00010461910788273895,-0.00015222979202227538,-0.0003432198224840538,-0.0002704708648802313,0.000778752877003143, ,0.00019695178124468546, ,0.0004369832208391576, ,0.012582660381892798, ,0.0,0.0,0.0,0.0,0.0,0.0, ,0.0,0.0,0.0,0.0,0.0,0.0, ,0.4711949825286865
0.08942801082369184,0.07935609970822627,-0.1387786473469329, ,0.010575711829929038,0.020144715432060676,-0.0809713967632675, ,0.11430376767431684, ,6.834425229768078e-05,0.00010461910788273895,-0.00015222979202227538,-0.0003432198224840538,-0.0002704708648802313,0.000778752877003143, ,0.00019695178124468546, ,0.0004369832208391576, ,0.012639504067806026, ,0.0,0.0,0.0,0.0,0.0,0.0, ,0.0,0.0,0.0,0.0,0.0,0.0, ,0.49230289459228516
0.08942801082369184,0.07935609970822627,-0.1387786473469329, ,0.010655480889813758,0.020176931786976996,-0.08118804547777103, ,0.11412257801017049, ,6.834425229768078e-05,0.00010461910788273895,-0.00015222979202227538,-0.0003432198224840538,-0.0002704708648802313,0.000778752877003143, ,0.00019695178124468546, ,0.0004369832208391576, ,0.012691949815659744, ,0.0,0.0,0.0,0.0,0.0,0.0, ,0.0,0.0,0.0,0.0,0.0,0.0, ,0.507781982421875
0.08942801082369184,0.07935609970822627,-0.1387786473469329, ,0.010735055935990124,0.020208894132311278,-0.08140380692639201, ,0.11394228973335555, ,6.834425229768078e-05,0.00010461910788273895,-0.00015222979202227538,-0.0003432198224840538,-0.0002704708648802313,0.000778752877003143, ,0.00019695178124468546, ,0.0004369832208391576, ,0.012740413453191298, ,0.0,0.0,0.0,0.0,0.0,0.0, ,0.0,0.0,0.0,0.0,0.0,0.0, ,0.5270018577575684
0.08942801082369184,0.07935609970822627,-0.1387786473469329, ,0.010814437328710007,0.02024060326848434,-0.08161868285124028, ,0.11376289991959984, ,6.834425229768078e-05,0.00010461910788273895,-0.00015222979202227538,-0.0003432198224840538,-0.0002704708648802313,0.000778752877003143, ,0.00019695178124468546, ,0.0004369832208391576, ,0.012785260393699135, ,0.0,0.0,0.0,0.0,0.0,0.0, ,0.0,0.0,0.0,0.0,0.0,0.0, ,0.5426409244537354
0.08942801082369184,0.07935609970822627,-0.1387786473469329, ,0.010893625428128249,0.020272059995059467,-0.08183267499319408, ,0.11358440564443154, ,6.834425229768078e-05,0.00010461910788273895,-0.00015222979202227538,-0.0003432198224840538,-0.0002704708648802313,0.000778752877003143, ,0.00019695178124468546, ,0.0004369832208391576, ,0.01282681304993016, ,0.0,0.0,0.0,0.0,0.0,0.0, ,0.0,0.0,0.0,0.0,0.0,0.0, ,0.5586109161376953
0.08942801082369184,0.07935609970822627,-0.1387786473469329, ,0.010972620594302488,0.020303265110742073,-0.08204578509190256, ,0.11340680398323477, ,6.834425229768078e-05,0.00010461910788273895,-0.00015222979202227538,-0.0003432198224840538,-0.0002704708648802313,0.000778752877003143, ,0.00019695178124468546, ,0.0004369832208391576, ,0.012911469367613759, ,0.0,0.0,0.0,0.0,0.0,0.0, ,0.0,0.0,0.0,0.0,0.0,0.0, ,0.5737359523773193
0.08942801082369184,0.07935609970822627,-0.1387786473469329, ,0.011051423187193097,0.020334219413379928,-0.08225801488578437, ,0.11323009201130756, ,6.834425229768078e-05,0.00010461910788273895,-0.00015222979202227538,-0.0003432198224840538,-0.0002704708648802313,0.000778752877003143, ,0.00019695178124468546, ,0.0004369832208391576, ,0.012991363795718693, ,0.0,0.0,0.0,0.0,0.0,0.0, ,0.0,0.0,0.0,0.0,0.0,0.0, ,0.5869228839874268
0.08942801082369184,0.07935609970822627,-0.1387786473469329, ,0.011130033566662907,0.0203649236999626,-0.08246936611202862, ,0.11305426680391903, ,6.834425229768078e-05,0.00010461910788273895,-0.00015222979202227538,-0.0003432198224840538,-0.0002704708648802313,0.000778752877003143, ,0.00019695178124468546, ,0.0004369832208391576, ,0.013066840656585206, ,0.0,0.0,0.0,0.0,0.0,0.0, ,0.0,0.0,0.0,0.0,0.0,0.0, ,0.6000049114227295
0.08942801082369184,0.07935609970822627,-0.1387786473469329, ,0.011208452092477408,0.02039537876662162,-0.08267984050659495, ,0.1128793254363669, ,6.834425229768078e-05,0.00010461910788273895,-0.00015222979202227538,-0.0003432198224840538,-0.0002704708648802313,0.000778752877003143, ,0.00019695178124468546, ,0.0004369832208391576, ,0.013138212126052772, ,0.0,0.0,0.0,0.0,0.0,0.0, ,0.0,0.0,0.0,0.0,0.0,0.0, ,0.6167769432067871
0.08942801082369184,0.07935609970822627,-0.1387786473469329, ,0.011286679124304335,0.020425585408630143,-0.08288943980421357, ,0.11270526498403595, ,6.834425229768078e-05,0.00010461910788273895,-0.00015222979202227538,-0.0003432198224840538,-0.0002704708648802313,0.000778752877003143, ,0.00019695178124468546, ,0.0004369832208391576, ,0.013205761898370904, ,0.0,0.0,0.0,0.0,0.0,0.0, ,0.0,0.0,0.0,0.0,0.0,0.0, ,0.6303219795227051
0.08942801082369184,0.07935609970822627,-0.1387786473469329, ,0.011364715021713514,0.020455544420403215,-0.08309816573838591, ,0.11253208252245582, ,6.834425229768078e-05,0.00010461910788273895,-0.00015222979202227538,-0.0003432198224840538,-0.0002704708648802313,0.000778752877003143, ,0.00019695178124468546, ,0.0004369832208391576, ,0.013269748360899117, ,0.0,0.0,0.0,0.0,0.0,0.0, ,0.0,0.0,0.0,0.0,0.0,0.0, ,0.6439578533172607
0.08942801082369184,0.07935609970822627,-0.1387786473469329, ,0.01144256014417698,0.02048525659549728,-0.08330602004138385, ,0.11235977512736015, ,6.834425229768078e-05,0.00010461910788273895,-0.00015222979202227538,-0.0003432198224840538,-0.0002704708648802313,0.000778752877003143, ,0.00019695178124468546, ,0.0004369832208391576, ,0.013330407353425803, ,0.0,0.0,0.0,0.0,0.0,0.0, ,0.0,0.0,0.0,0.0,0.0,0.0, ,0.6587660312652588
0.08942801082369184,0.07935609970822627,-0.1387786473469329, ,0.011520214851068343,0.020514722726610254,-0.08351300444425076, ,0.11218833987474527, ,6.834425229768078e-05,0.00010461910788273895,-0.00015222979202227538,-0.0003432198224840538,-0.0002704708648802313,0.000778752877003143, ,0.00019695178124468546, ,0.0004369832208391576, ,0.013387954574159842, ,0.0,0.0,0.0,0.0,0.0,0.0, ,0.0,0.0,0.0,0.0,0.0,0.0, ,0.673321008682251
0.08942801082369184,0.07935609970822627,-0.1387786473469329, ,0.011597679501663261,0.02054394360558142,-0.08371912067680141, ,0.11201777384092905, ,6.834425229768078e-05,0.00010461910788273895,-0.00015222979202227538,-0.0003432198224840538,-0.0002704708648802313,0.000778752877003143, ,0.00019695178124468546, ,0.0004369832208391576, ,0.013442587684075693, ,0.0,0.0,0.0,0.0,0.0,0.0, ,0.0,0.0,0.0,0.0,0.0,0.0, ,0.6874289512634277
0.08942801082369184,0.07935609970822627,-0.1387786473469329, ,0.011674954455138543,0.020572920023391453,-0.0839243704676215, ,0.111848074102611, ,6.834425229768078e-05,0.00010461910788273895,-0.00015222979202227538,-0.0003432198224840538,-0.0002704708648802313,0.000778752877003143, ,0.00019695178124468546, ,0.0004369832208391576, ,0.013494488152830317, ,0.0,0.0,0.0,0.0,0.0,0.0, ,0.0,0.0,0.0,0.0,0.0,0.0, ,0.7025740146636963
0.08942801082369184,0.07935609970822627,-0.1387786473469329, ,0.011752040070572527,0.02060165277016214,-0.08412875554406798, ,0.11167923773693159, ,6.834425229768078e-05,0.00010461910788273895,-0.00015222979202227538,-0.0003432198224840538,-0.0002704708648802313,0.000778752877003143, ,0.00019695178124468546, ,0.0004369832208391576, ,0.013582741913807185, ,0.0,0.0,0.0,0.0,0.0,0.0, ,0.0,0.0,0.0,0.0,0.0,0.0, ,0.7147500514984131
0.08942801082369184,0.07935609970822627,-0.1387786473469329, ,0.01182893670694451,0.02063014263515658,-0.08433227763226972, ,0.111511261821532, ,6.834425229768078e-05,0.00010461910788273895,-0.00015222979202227538,-0.0003432198224840538,-0.0002704708648802313,0.000778752877003143, ,0.00019695178124468546, ,0.0004369832208391576, ,0.013667529513633989, ,0.0,0.0,0.0,0.0,0.0,0.0, ,0.0,0.0,0.0,0.0,0.0,0.0, ,0.7258028984069824
0.08942801082369184,0.07935609970822627,-0.1387786473469329, ,0.0119056447231349,0.020658390406778526,-0.08453493845712635, ,0.11134414343461502, ,6.834425229768078e-05,0.00010461910788273895,-0.00015222979202227538,-0.0003432198224840538,-0.0002704708648802313,0.000778752877003143, ,0.00019695178124468546, ,0.0004369832208391576, ,0.013749026642391797, ,0.0,0.0,0.0,0.0,0.0,0.0, ,0.0,0.0,0.0,0.0,0.0,0.0, ,0.7368700504302979
0.08942801082369184,0.07935609970822627,-0.1387786473469329, ,0.011982164477924575,0.02068639687257342,-0.08473673974230933, ,0.11117787965500454, ,6.834425229768078e-05,0.00010461910788273895,-0.00015222979202227538,-0.0003432198224840538,-0.0002704708648802313,0.000778752877003143, ,0.00019695178124468546, ,0.0004369832208391576, ,0.013827397461519267, ,0.0,0.0,0.0,0.0,0.0,0.0, ,0.0,0.0,0.0,0.0,0.0,0.0, ,0.7509040832519531
0.08942801082369184,0.07935609970822627,-0.1387786473469329, ,0.012058496329995021,0.02071416281922698,-0.08493768321026109, ,0.11101246756220726, ,6.834425229768078e-05,0.00010461910788273895,-0.00015222979202227538,-0.0003432198224840538,-0.0002704708648802313,0.000778752877003143, ,0.00019695178124468546, ,0.0004369832208391576, ,0.013902795533543707, ,0.0,0.0,0.0,0.0,0.0,0.0, ,0.0,0.0,0.0,0.0,0.0,0.0, ,0.7619850635528564
0.08942801082369184,0.07935609970822627,-0.1387786473469329, ,0.012134640637927996,0.020741689032566284,-0.08513777058219574, ,0.11084790423647246, ,6.834425229768078e-05,0.00010461910788273895,-0.00015222979202227538,-0.0003432198224840538,-0.0002704708648802313,0.000778752877003143, ,0.00019695178124468546, ,0.0004369832208391576, ,0.013975364663266484, ,0.0,0.0,0.0,0.0,0.0,0.0, ,0.0,0.0,0.0,0.0,0.0,0.0, ,0.7736330032348633
0.08942801082369184,0.07935609970822627,-0.1387786473469329, ,0.012210597760205149,0.02076897629755906,-0.08533700357809842, ,0.11068418675885404, ,6.834425229768078e-05,0.00010461910788273895,-0.00015222979202227538,-0.0003432198224840538,-0.0002704708648802313,0.000778752877003143, ,0.00019695178124468546, ,0.0004369832208391576, ,0.01404523966008746, ,0.0,0.0,0.0,0.0,0.0,0.0, ,0.0,0.0,0.0,0.0,0.0,0.0, ,0.7858119010925293
0.08942801082369184,0.07935609970822627,-0.1387786473469329, ,0.012286368055207888,0.02079602539831399,-0.0855353839167256, ,0.11052131221127123, ,6.834425229768078e-05,0.00010461910788273895,-0.00015222979202227538,-0.0003432198224840538,-0.0002704708648802313,0.000778752877003143, ,0.00019695178124468546, ,0.0004369832208391576, ,0.01411254702996117, ,0.0,0.0,0.0,0.0,0.0,0.0, ,0.0,0.0,0.0,0.0,0.0,0.0, ,0.8003668785095215
0.08942801082369184,0.07935609970822627,-0.1387786473469329, ,0.012361951881217529,0.020822837118080233,-0.08573291331560493, ,0.11035927767657008, ,6.834425229768078e-05,0.00010461910788273895,-0.00015222979202227538,-0.0003432198224840538,-0.0002704708648802313,0.000778752877003143, ,0.00019695178124468546, ,0.0004369832208391576, ,0.014177405604448048, ,0.0,0.0,0.0,0.0,0.0,0.0, ,0.0,0.0,0.0,0.0,0.0,0.0, ,0.8116979598999023
0.08942801082369184,0.07935609970822627,-0.1387786473469329, ,0.01243734959641416,0.02084941223924805,-0.08592959349103488, ,0.11019808023858556, ,6.834425229768078e-05,0.00010461910788273895,-0.00015222979202227538,-0.0003432198224840538,-0.0002704708648802313,0.000778752877003143, ,0.00019695178124468546, ,0.0004369832208391576, ,0.014239927113432865, ,0.0,0.0,0.0,0.0,0.0,0.0, ,0.0,0.0,0.0,0.0,0.0,0.0, ,0.8227498531341553
0.08942801082369184,0.07935609970822627,-0.1387786473469329, ,0.012512561558877283,0.020875751543348014,-0.08612542615808484, ,0.11003771698220298, ,6.834425229768078e-05,0.00010461910788273895,-0.00015222979202227538,-0.0003432198224840538,-0.0002704708648802313,0.000778752877003143, ,0.00019695178124468546, ,0.0004369832208391576, ,0.014335352374894876, ,0.0,0.0,0.0,0.0,0.0,0.0, ,0.0,0.0,0.0,0.0,0.0,0.0, ,0.8351140022277832
0.08942801082369184,0.07935609970822627,-0.1387786473469329, ,0.012587588126585033,0.020901855811051678,-0.08632041303059519, ,0.10987818499341992, ,6.834425229768078e-05,0.00010461910788273895,-0.00015222979202227538,-0.0003432198224840538,-0.0002704708648802313,0.000778752877003143, ,0.00019695178124468546, ,0.0004369832208391576, ,0.014428074275669014, ,0.0,0.0,0.0,0.0,0.0,0.0, ,0.0,0.0,0.0,0.0,0.0,0.0, ,0.844627857208252
0.08942801082369184,0.07935609970822627,-0.1387786473469329, ,0.012662429657413985,0.020927725822170975,-0.08651455582117695, ,0.1097194813594088, ,6.834425229768078e-05,0.00010461910788273895,-0.00015222979202227538,-0.0003432198224840538,-0.0002704708648802313,0.000778752877003143, ,0.00019695178124468546, ,0.0004369832208391576, ,0.014518192045407776, ,0.0,0.0,0.0,0.0,0.0,0.0, ,0.0,0.0,0.0,0.0,0.0,0.0, ,0.854313850402832
0.08942801082369184,0.07935609970822627,-0.1387786473469329, ,0.012737086509139127,0.020953362355658506,-0.08670785624121173, ,0.10956160316857871, ,6.834425229768078e-05,0.00010461910788273895,-0.00015222979202227538,-0.0003432198224840538,-0.0002704708648802313,0.000778752877003143, ,0.00019695178124468546, ,0.0004369832208391576, ,0.014605800204037017, ,0.0,0.0,0.0,0.0,0.0,0.0, ,0.0,0.0,0.0,0.0,0.0,0.0, ,0.8654968738555908
0.08942801082369184,0.07935609970822627,-0.1387786473469329, ,0.012811559039433165,0.02097876618960756,-0.08690031600085113, ,0.10940454751063837, ,6.834425229768078e-05,0.00010461910788273895,-0.00015222979202227538,-0.0003432198224840538,-0.0002704708648802313,0.000778752877003143, ,0.00019695178124468546, ,0.0004369832208391576, ,0.01469098883750412, ,0.0,0.0,0.0,0.0,0.0,0.0, ,0.0,0.0,0.0,0.0,0.0,0.0, ,0.8801469802856445
0.08942801082369184,0.07935609970822627,-0.1387786473469329, ,0.012885847605866755,0.021003938101251764,-0.08709193680901747, ,0.10924831147665809, ,6.834425229768078e-05,0.00010461910788273895,-0.00015222979202227538,-0.0003432198224840538,-0.0002704708648802313,0.000778752877003143, ,0.00019695178124468546, ,0.0004369832208391576, ,0.014773843854377123, ,0.0,0.0,0.0,0.0,0.0,0.0, ,0.0,0.0,0.0,0.0,0.0,0.0, ,0.8908710479736328
0.08942801082369184,0.07935609970822627,-0.1387786473469329, ,0.012959952565907776,0.021028878866965407,-0.08728272037340253, ,0.1090928921591331, ,6.834425229768078e-05,0.00010461910788273895,-0.00015222979202227538,-0.0003432198224840538,-0.0002704708648802313,0.000778752877003143, ,0.00019695178124468546, ,0.0004369832208391576, ,0.014854447224828489, ,0.0,0.0,0.0,0.0,0.0,0.0, ,0.0,0.0,0.0,0.0,0.0,0.0, ,0.9011070728302002
0.08942801082369184,0.07935609970822627,-0.1387786473469329, ,0.01303387427692131,0.021053589262263188,-0.08747266840046852, ,0.1089382866520458, ,6.834425229768078e-05,0.00010461910788273895,-0.00015222979202227538,-0.0003432198224840538,-0.0002704708648802313,0.000778752877003143, ,0.00019695178124468546, ,0.0004369832208391576, ,0.014932877203398406, ,0.0,0.0,0.0,0.0,0.0,0.0, ,0.0,0.0,0.0,0.0,0.0,0.0, ,0.9105730056762695
0.08942801082369184,0.07935609970822627,-0.1387786473469329, ,0.013107613096169202,0.021078070061800482,-0.08766178259544707, ,0.10878449205092892, ,6.834425229768078e-05,0.00010461910788273895,-0.00015222979202227538,-0.0003432198224840538,-0.0002704708648802313,0.000778752877003143, ,0.00019695178124468546, ,0.0004369832208391576, ,0.01500920853680766, ,0.0,0.0,0.0,0.0,0.0,0.0, ,0.0,0.0,0.0,0.0,0.0,0.0, ,0.9209330081939697
0.08942801082369184,0.07935609970822627,-0.1387786473469329, ,0.013181169380809803,0.021102322039372894,-0.08785006466233902, ,0.10863150545292884, ,6.834425229768078e-05,0.00010461910788273895,-0.00015222979202227538,-0.0003432198224840538,-0.0002704708648802313,0.000778752877003143, ,0.00019695178124468546, ,0.0004369832208391576, ,0.015083512657977773, ,0.0,0.0,0.0,0.0,0.0,0.0, ,0.0,0.0,0.0,0.0,0.0,0.0, ,0.934891939163208
0.08942801082369184,0.07935609970822627,-0.1387786473469329, ,0.013254543487897738,0.02112634596791662,-0.08803751630391518, ,0.10847932395686789, ,6.834425229768078e-05,0.00010461910788273895,-0.00015222979202227538,-0.0003432198224840538,-0.0002704708648802313,0.000778752877003143, ,0.00019695178124468546, ,0.0004369832208391576, ,0.015189094397725485, ,0.0,0.0,0.0,0.0,0.0,0.0, ,0.0,0.0,0.0,0.0,0.0,0.0, ,0.9426469802856445
0.08942801082369184,0.07935609970822627,-0.1387786473469329, ,0.013327735774383499,0.021150142619508434,-0.08822413922171446, ,0.10832794466330847, ,6.834425229768078e-05,0.00010461910788273895,-0.00015222979202227538,-0.0003432198224840538,-0.0002704708648802313,0.000778752877003143, ,0.00019695178124468546, ,0.0004369832208391576, ,0.01529251084788289, ,0.0,0.0,0.0,0.0,0.0,0.0, ,0.0,0.0,0.0,0.0,0.0,0.0, ,0.950916051864624
0.08942801082369184,0.07935609970822627,-0.1387786473469329, ,0.013400746597113202,0.02117371276536537,-0.08840993511604504, ,0.10817736467461568, ,6.834425229768078e-05,0.00010461910788273895,-0.00015222979202227538,-0.0003432198224840538,-0.0002704708648802313,0.000778752877003143, ,0.00019695178124468546, ,0.0004369832208391576, ,0.015393819729958501, ,0.0,0.0,0.0,0.0,0.0,0.0, ,0.0,0.0,0.0,0.0,0.0,0.0, ,0.9586338996887207
0.08942801082369184,0.07935609970822627,-0.1387786473469329, ,0.013473576312828306,0.021197057175844986,-0.08859490568598397, ,0.10802758109502061, ,6.834425229768078e-05,0.00010461910788273895,-0.00015222979202227538,-0.0003432198224840538,-0.0002704708648802313,0.000778752877003143, ,0.00019695178124468546, ,0.0004369832208391576, ,0.015493076785888389, ,0.0,0.0,0.0,0.0,0.0,0.0, ,0.0,0.0,0.0,0.0,0.0,0.0, ,0.9663379192352295
0.08942801082369184,0.07935609970822627,-0.1387786473469329, ,0.013546225278165238,0.02122017662044518,-0.08877905262937597, ,0.10787859103068428, ,6.834425229768078e-05,0.00010461910788273895,-0.00015222979202227538,-0.0003432198224840538,-0.0002704708648802313,0.000778752877003143, ,0.00019695178124468546, ,0.0004369832208391576, ,0.015590335861920445, ,0.0,0.0,0.0,0.0,0.0,0.0, ,0.0,0.0,0.0,0.0,0.0,0.0, ,0.9745819568634033
0.08942801082369184,0.07935609970822627,-0.1387786473469329, ,0.013618693849654893,0.021243071867804608,-0.08896237764283427, ,0.10773039158976043, ,6.834425229768078e-05,0.00010461910788273895,-0.00015222979202227538,-0.0003432198224840538,-0.0002704708648802313,0.000778752877003143, ,0.00019695178124468546, ,0.0004369832208391576, ,0.01568564898826935, ,0.0,0.0,0.0,0.0,0.0,0.0, ,0.0,0.0,0.0,0.0,0.0,0.0, ,0.985569953918457
0.08942801082369184,0.07935609970822627,-0.1387786473469329, ,0.013690982383722697,0.021265743685701933,-0.08914488242173992, ,0.1075829798824593, ,6.834425229768078e-05,0.00010461910788273895,-0.00015222979202227538,-0.0003432198224840538,-0.0002704708648802313,0.000778752877003143, ,0.00019695178124468546, ,0.0004369832208391576, ,0.015779066454788895, ,0.0,0.0,0.0,0.0,0.0,0.0, ,0.0,0.0,0.0,0.0,0.0,0.0, ,0.9936208724975586
0.08942801082369184,0.07935609970822627,-0.1387786473469329, ,0.013763091236688275,0.021288192841056545,-0.08932656866024152, ,0.10743635302111074, ,6.834425229768078e-05,0.00010461910788273895,-0.00015222979202227538,-0.0003432198224840538,-0.0002704708648802313,0.000778752877003143, ,0.00019695178124468546, ,0.0004369832208391576, ,0.01587063688289211, ,0.0,0.0,0.0,0.0,0.0,0.0, ,0.0,0.0,0.0,0.0,0.0,0.0, ,1.0015099048614502
0.08942801082369184,0.07935609970822627,-0.1387786473469329, ,0.01383502076476444,0.021310420099928246,-0.08950743805125463, ,0.10729050812022849, ,6.834425229768078e-05,0.00010461910788273895,-0.00015222979202227538,-0.0003432198224840538,-0.0002704708648802313,0.000778752877003143, ,0.00019695178124468546, ,0.0004369832208391576, ,0.015960407293934446, ,0.0,0.0,0.0,0.0,0.0,0.0, ,0.0,0.0,0.0,0.0,0.0,0.0, ,1.0088579654693604
0.08942801082369184,0.07935609970822627,-0.1387786473469329, ,0.013906771324057703,0.02133242622751718,-0.08968749228646218, ,0.10714544229657284, ,6.834425229768078e-05,0.00010461910788273895,-0.00015222979202227538,-0.0003432198224840538,-0.0002704708648802313,0.000778752877003143, ,0.00019695178124468546, ,0.0004369832208391576, ,0.016048423174261348, ,0.0,0.0,0.0,0.0,0.0,0.0, ,0.0,0.0,0.0,0.0,0.0,0.0, ,1.0171229839324951
0.08942801082369184,0.07935609970822627,-0.1387786473469329, ,0.013978343270567566,0.021354211988164062,-0.08986673305631415, ,0.10700115266921432, ,6.834425229768078e-05,0.00010461910788273895,-0.00015222979202227538,-0.0003432198224840538,-0.0002704708648802313,0.000778752877003143, ,0.00019695178124468546, ,0.0004369832208391576, ,0.016167323948294537, ,0.0,0.0,0.0,0.0,0.0,0.0, ,0.0,0.0,0.0,0.0,0.0,0.0, ,1.0270099639892578
0.08942801082369184,0.07935609970822627,-0.1387786473469329, ,0.014049736960186163,0.021375778145349886,-0.09004516205002606, ,0.10685763635959784, ,6.834425229768078e-05,0.00010461910788273895,-0.00015222979202227538,-0.0003432198224840538,-0.0002704708648802313,0.000778752877003143, ,0.00019695178124468546, ,0.0004369832208391576, ,0.016284503997520874, ,0.0,0.0,0.0,0.0,0.0,0.0, ,0.0,0.0,0.0,0.0,0.0,0.0, ,1.0335469245910645
0.08942801082369184,0.07935609970822627,-0.1387786473469329, ,0.014120952748697934,0.021397125461696396,-0.09022278095558064, ,0.10671489049160511, ,6.834425229768078e-05,0.00010461910788273895,-0.00015222979202227538,-0.0003432198224840538,-0.0002704708648802313,0.000778752877003143, ,0.00019695178124468546, ,0.0004369832208391576, ,0.016399995770972058, ,0.0,0.0,0.0,0.0,0.0,0.0, ,0.0,0.0,0.0,0.0,0.0,0.0, ,1.039133071899414
0.08942801082369184,0.07935609970822627,-0.1387786473469329, ,0.014191990991779342,0.021418254698965588,-0.0903995914597256, ,0.10657291219161917, ,6.834425229768078e-05,0.00010461910788273895,-0.00015222979202227538,-0.0003432198224840538,-0.0002704708648802313,0.000778752877003143, ,0.00019695178124468546, ,0.0004369832208391576, ,0.016513830939382183, ,0.0,0.0,0.0,0.0,0.0,0.0, ,0.0,0.0,0.0,0.0,0.0,0.0, ,1.0456280708312988
0.08942801082369184,0.07935609970822627,-0.1387786473469329, ,0.014262852044998567,0.02143916661806,-0.09057559524797516, ,0.10643169858858685, ,6.834425229768078e-05,0.00010461910788273895,-0.00015222979202227538,-0.0003432198224840538,-0.0002704708648802313,0.000778752877003143, ,0.00019695178124468546, ,0.0004369832208391576, ,0.016626040418219343, ,0.0,0.0,0.0,0.0,0.0,0.0, ,0.0,0.0,0.0,0.0,0.0,0.0, ,1.0513150691986084
0.08942801082369184,0.07935609970822627,-0.1387786473469329, ,0.014333536263815056,0.021459861979022672,-0.09075079400460778, ,0.1062912468140831, ,6.834425229768078e-05,0.00010461910788273895,-0.00015222979202227538,-0.0003432198224840538,-0.0002704708648802313,0.000778752877003143, ,0.00019695178124468546, ,0.0004369832208391576, ,0.01673665438990449, ,0.0,0.0,0.0,0.0,0.0,0.0, ,0.0,0.0,0.0,0.0,0.0,0.0, ,1.0570619106292725
0.08942801082369184,0.07935609970822627,-0.1387786473469329, ,0.014404044003579147,0.021480341541037222,-0.0909251894126678, ,0.1061515540023734, ,6.834425229768078e-05,0.00010461910788273895,-0.00015222979202227538,-0.0003432198224840538,-0.0002704708648802313,0.000778752877003143, ,0.00019695178124468546, ,0.0004369832208391576, ,0.016845702325250806, ,0.0,0.0,0.0,0.0,0.0,0.0, ,0.0,0.0,0.0,0.0,0.0,0.0, ,1.0638539791107178
0.08942801082369184,0.07935609970822627,-0.1387786473469329, ,0.014474375619531847,0.021500606062427638,-0.09109878315396372, ,0.10601261729047785, ,6.834425229768078e-05,0.00010461910788273895,-0.00015222979202227538,-0.0003432198224840538,-0.0002704708648802313,0.000778752877003143, ,0.00019695178124468546, ,0.0004369832208391576, ,0.016953213004155313, ,0.0,0.0,0.0,0.0,0.0,0.0, ,0.0,0.0,0.0,0.0,0.0,0.0, ,1.0709519386291504
0.08942801082369184,0.07935609970822627,-0.1387786473469329, ,0.014544531466804489,0.021520656300658587,-0.09127157690906838, ,0.10587443381823376, ,6.834425229768078e-05,0.00010461910788273895,-0.00015222979202227538,-0.0003432198224840538,-0.0002704708648802313,0.000778752877003143, ,0.00019695178124468546, ,0.0004369832208391576, ,0.017059214535572974, ,0.0,0.0,0.0,0.0,0.0,0.0, ,0.0,0.0,0.0,0.0,0.0,0.0, ,1.0767500400543213
0.08942801082369184,0.07935609970822627,-0.1387786473469329, ,0.01461451190041816,0.021540493012335293,-0.09144357235731904, ,0.10573700072835901, ,6.834425229768078e-05,0.00010461910788273895,-0.00015222979202227538,-0.0003432198224840538,-0.0002704708648802313,0.000778752877003143, ,0.00019695178124468546, ,0.0004369832208391576, ,0.01716373437680217, ,0.0,0.0,0.0,0.0,0.0,0.0, ,0.0,0.0,0.0,0.0,0.0,0.0, ,1.0823628902435303
0.08942801082369184,0.07935609970822627,-0.1387786473469329, ,0.014684317275283566,0.021560116953203413,-0.09161477117681627, ,0.10560031516651532, ,6.834425229768078e-05,0.00010461910788273895,-0.00015222979202227538,-0.0003432198224840538,-0.0002704708648802313,0.000778752877003143, ,0.00019695178124468546, ,0.0004369832208391576, ,0.01729975125926956, ,0.0,0.0,0.0,0.0,0.0,0.0, ,0.0,0.0,0.0,0.0,0.0,0.0, ,1.0860719680786133
0.08942801082369184,0.07935609970822627,-0.1387786473469329, ,0.014753947946200486,0.021579528878149363,-0.09178517504442402, ,0.10546437428137094, ,6.834425229768078e-05,0.00010461910788273895,-0.00015222979202227538,-0.0003432198224840538,-0.0002704708648802313,0.000778752877003143, ,0.00019695178124468546, ,0.0004369832208391576, ,0.017434475350073423, ,0.0,0.0,0.0,0.0,0.0,0.0, ,0.0,0.0,0.0,0.0,0.0,0.0, ,1.089829921722412
0.08942801082369184,0.07935609970822627,-0.1387786473469329, ,0.014823404267857799,0.021598729541200023,-0.0919547856357696, ,0.10532917522466334, ,6.834425229768078e-05,0.00010461910788273895,-0.00015222979202227538,-0.0003432198224840538,-0.0002704708648802313,0.000778752877003143, ,0.00019695178124468546, ,0.0004369832208391576, ,0.01756792274500622, ,0.0,0.0,0.0,0.0,0.0,0.0, ,0.0,0.0,0.0,0.0,0.0,0.0, ,1.093919038772583
0.08942801082369184,0.07935609970822627,-0.1387786473469329, ,0.014892686594832553,0.02161771969552292,-0.09212360462524266, ,0.10519471515126252, ,6.834425229768078e-05,0.00010461910788273895,-0.00015222979202227538,-0.0003432198224840538,-0.0002704708648802313,0.000778752877003143, ,0.00019695178124468546, ,0.0004369832208391576, ,0.017700109291536877, ,0.0,0.0,0.0,0.0,0.0,0.0, ,0.0,0.0,0.0,0.0,0.0,0.0, ,1.0976629257202148
0.08942801082369184,0.07935609970822627,-0.1387786473469329, ,0.014961795281589876,0.021636500093426346,-0.09229163368599558, ,0.1050609912192331, ,6.834425229768078e-05,0.00010461910788273895,-0.00015222979202227538,-0.0003432198224840538,-0.0002704708648802313,0.000778752877003143, ,0.00019695178124468546, ,0.0004369832208391576, ,0.017831050593484544, ,0.0,0.0,0.0,0.0,0.0,0.0, ,0.0,0.0,0.0,0.0,0.0,0.0, ,1.1014080047607422
0.08942801082369184,0.07935609970822627,-0.1387786473469329, ,0.01503073068248274,0.021655071486359166,-0.09245887448994214, ,0.10492800058989721, ,6.834425229768078e-05,0.00010461910788273895,-0.00015222979202227538,-0.0003432198224840538,-0.0002704708648802313,0.000778752877003143, ,0.00019695178124468546, ,0.0004369832208391576, ,0.017960762015587408, ,0.0,0.0,0.0,0.0,0.0,0.0, ,0.0,0.0,0.0,0.0,0.0,0.0, ,1.1143529415130615
0.08942801082369184,0.07935609970822627,-0.1387786473469329, ,0.015099493151751527,0.021673434624910816,-0.09262532870775864, ,0.10479574042789637, ,6.834425229768078e-05,0.00010461910788273895,-0.00015222979202227538,-0.0003432198224840538,-0.0002704708648802313,0.000778752877003143, ,0.00019695178124468546, ,0.0004369832208391576, ,0.01808925868796935, ,0.0,0.0,0.0,0.0,0.0,0.0, ,0.0,0.0,0.0,0.0,0.0,0.0, ,1.1183009147644043
0.08942801082369184,0.07935609970822627,-0.1387786473469329, ,0.015168083043523423,0.021691590258811694,-0.09279099800888213, ,0.10466420790125426, ,6.834425229768078e-05,0.00010461910788273895,-0.00015222979202227538,-0.0003432198224840538,-0.0002704708648802313,0.000778752877003143, ,0.00019695178124468546, ,0.0004369832208391576, ,0.01821655551050711, ,0.0,0.0,0.0,0.0,0.0,0.0, ,0.0,0.0,0.0,0.0,0.0,0.0, ,1.1222560405731201
0.08942801082369184,0.07935609970822627,-0.1387786473469329, ,0.015236500711812304,0.02170953913693266,-0.09295588406151069, ,0.10453340018143858, ,6.834425229768078e-05,0.00010461910788273895,-0.00015222979202227538,-0.0003432198224840538,-0.0002704708648802313,0.000778752877003143, ,0.00019695178124468546, ,0.0004369832208391576, ,0.01834266715710049, ,0.0,0.0,0.0,0.0,0.0,0.0, ,0.0,0.0,0.0,0.0,0.0,0.0, ,1.126173973083496
0.08942801082369184,0.07935609970822627,-0.1387786473469329, ,0.015304746510518278,0.021727282007285558,-0.09311998853260324, ,0.10440331444342278, ,6.834425229768078e-05,0.00010461910788273895,-0.00015222979202227538,-0.0003432198224840538,-0.0002704708648802313,0.000778752877003143, ,0.00019695178124468546, ,0.0004369832208391576, ,0.01846760807984813, ,0.0,0.0,0.0,0.0,0.0,0.0, ,0.0,0.0,0.0,0.0,0.0,0.0, ,1.1299018859863281
0.08942801082369184,0.07935609970822627,-0.1387786473469329, ,0.015372820793427297,0.02174481961702278,-0.0932833130878789, ,0.10427394786574806, ,6.834425229768078e-05,0.00010461910788273895,-0.00015222979202227538,-0.0003432198224840538,-0.0002704708648802313,0.000778752877003143, ,0.00019695178124468546, ,0.0004369832208391576, ,0.018591392513131313, ,0.0,0.0,0.0,0.0,0.0,0.0, ,0.0,0.0,0.0,0.0,0.0,0.0, ,1.1341419219970703
0.08942801082369184,0.07935609970822627,-0.1387786473469329, ,0.015440723914210757,0.021762152712437775,-0.09344585939181664, ,0.10414529763058483, ,6.834425229768078e-05,0.00010461910788273895,-0.00015222979202227538,-0.0003432198224840538,-0.0002704708648802313,0.000778752877003143, ,0.00019695178124468546, ,0.0004369832208391576, ,0.018714034477608093, ,0.0,0.0,0.0,0.0,0.0,0.0, ,0.0,0.0,0.0,0.0,0.0,0.0, ,1.1378710269927979
0.08942801082369184,0.07935609970822627,-0.1387786473469329, ,0.015508456226425318,0.021779282038964513,-0.09360762910765473, ,0.10401736092379427, ,6.834425229768078e-05,0.00010461910788273895,-0.00015222979202227538,-0.0003432198224840538,-0.0002704708648802313,0.000778752877003143, ,0.00019695178124468546, ,0.0004369832208391576, ,0.018835547784120096, ,0.0,0.0,0.0,0.0,0.0,0.0, ,0.0,0.0,0.0,0.0,0.0,0.0, ,1.1417059898376465
0.08942801082369184,0.07935609970822627,-0.1387786473469329, ,0.015576018083511922,0.021796208341178135,-0.09376862389739152, ,0.10389013493498907, ,6.834425229768078e-05,0.00010461910788273895,-0.00015222979202227538,-0.0003432198224840538,-0.0002704708648802313,0.000778752877003143, ,0.00019695178124468546, ,0.0004369832208391576, ,0.018955946037514184, ,0.0,0.0,0.0,0.0,0.0,0.0, ,0.0,0.0,0.0,0.0,0.0,0.0, ,1.1474769115447998
0.08942801082369184,0.07935609970822627,-0.1387786473469329, ,0.015643409838796384,0.021812932362794395,-0.09392884542178297, ,0.1037636168575951, ,6.834425229768078e-05,0.00010461910788273895,-0.00015222979202227538,-0.0003432198224840538,-0.0002704708648802313,0.000778752877003143, ,0.00019695178124468546, ,0.0004369832208391576, ,0.019075242640381154, ,0.0,0.0,0.0,0.0,0.0,0.0, ,0.0,0.0,0.0,0.0,0.0,0.0, ,1.1536178588867188
0.08942801082369184,0.07935609970822627,-0.1387786473469329, ,0.01571063184548814,0.021829454846670048,-0.09408829534034435, ,0.10363780388891167, ,6.834425229768078e-05,0.00010461910788273895,-0.00015222979202227538,-0.0003432198224840538,-0.0002704708648802313,0.000778752877003143, ,0.00019695178124468546, ,0.0004369832208391576, ,0.019228158664338715, ,0.0,0.0,0.0,0.0,0.0,0.0, ,0.0,0.0,0.0,0.0,0.0,0.0, ,1.1588690280914307
0.08942801082369184,0.07935609970822627,-0.1387786473469329, ,0.015777684456680364,0.021845776534802692,-0.09424697531134882, ,0.10351269323017225, ,6.834425229768078e-05,0.00010461910788273895,-0.00015222979202227538,-0.0003432198224840538,-0.0002704708648802313,0.000778752877003143, ,0.00019695178124468546, ,0.0004369832208391576, ,0.019380296813374515, ,0.0,0.0,0.0,0.0,0.0,0.0, ,0.0,0.0,0.0,0.0,0.0,0.0, ,1.1621379852294922
0.08942801082369184,0.07935609970822627,-0.1387786473469329, ,0.01584456802534929,0.021861898168331093,-0.0944048869918271, ,0.10338828208660493, ,6.834425229768078e-05,0.00010461910788273895,-0.00015222979202227538,-0.0003432198224840538,-0.0002704708648802313,0.000778752877003143, ,0.00019695178124468546, ,0.0004369832208391576, ,0.01953166255260556, ,0.0,0.0,0.0,0.0,0.0,0.0, ,0.0,0.0,0.0,0.0,0.0,0.0, ,1.1641039848327637
0.08942801082369184,0.07935609970822627,-0.1387786473469329, ,0.015911282904353976,0.021877820487534783,-0.09456203203756729, ,0.10326456766749258, ,6.834425229768078e-05,0.00010461910788273895,-0.00015222979202227538,-0.0003432198224840538,-0.0002704708648802313,0.000778752877003143, ,0.00019695178124468546, ,0.0004369832208391576, ,0.019682261302812195, ,0.0,0.0,0.0,0.0,0.0,0.0, ,0.0,0.0,0.0,0.0,0.0,0.0, ,1.1660490036010742
0.08942801082369184,0.07935609970822627,-0.1387786473469329, ,0.01597782944643585,0.021893544231834382,-0.09471841210311464, ,0.10314154718623247, ,6.834425229768078e-05,0.00010461910788273895,-0.00015222979202227538,-0.0003432198224840538,-0.0002704708648802313,0.000778752877003143, ,0.00019695178124468546, ,0.0004369832208391576, ,0.01983209844084347, ,0.0,0.0,0.0,0.0,0.0,0.0, ,0.0,0.0,0.0,0.0,0.0,0.0, ,1.1679739952087402
0.08942801082369184,0.07935609970822627,-0.1387786473469329, ,0.01604420800421843,0.0219090701397916,-0.09487402884177068, ,0.10301921786039629, ,6.834425229768078e-05,0.00010461910788273895,-0.00015222979202227538,-0.0003432198224840538,-0.0002704708648802313,0.000778752877003143, ,0.00019695178124468546, ,0.0004369832208391576, ,0.10930880440598244, ,0.0,0.0,0.0,0.0,0.0,0.0, ,0.0,0.0,0.0,0.0,0.0,0.0, ,1.1698510646820068
0.08942801082369184,0.07935609970822627,-0.1387786473469329, ,0.01611041893020687,0.021924398949109053,-0.09502888390559361, ,0.10289757691178907, ,6.834425229768078e-05,0.00010461910788273895,-0.00015222979202227538,-0.0003432198224840538,-0.0002704708648802313,0.000778752877003143, ,0.00019695178124468546, ,0.0004369832208391576, ,0.10924655947885435, ,0.0,0.0,0.0,0.0,0.0,0.0, ,0.0,0.0,0.0,0.0,0.0,0.0, ,1.1717760562896729
0.08942801082369184,0.07935609970822627,-0.1387786473469329, ,0.016176462576787558,0.021939531396630567,-0.09518297894539682, ,0.10277662156650885, ,6.834425229768078e-05,0.00010461910788273895,-0.00015222979202227538,-0.0003432198224840538,-0.0002704708648802313,0.000778752877003143, ,0.00019695178124468546, ,0.0004369832208391576, ,0.1091843485373895, ,0.0,0.0,0.0,0.0,0.0,0.0, ,0.0,0.0,0.0,0.0,0.0,0.0, ,1.1739509105682373
0.08942801082369184,0.07935609970822627,-0.1387786473469329, ,0.016242339296227606,0.021954468218341114,-0.09533631561074973, ,0.10265634905500513, ,6.834425229768078e-05,0.00010461910788273895,-0.00015222979202227538,-0.0003432198224840538,-0.0002704708648802313,0.000778752877003143, ,0.00019695178124468546, ,0.0004369832208391576, ,0.10912217711374773, ,0.0,0.0,0.0,0.0,0.0,0.0, ,0.0,0.0,0.0,0.0,0.0,0.0, ,1.1758310794830322
0.08942801082369184,0.07935609970822627,-0.1387786473469329, ,0.016308049440674807,0.021969210149366713,-0.0954888955499765, ,0.10253675661213756, ,6.834425229768078e-05,0.00010461910788273895,-0.00015222979202227538,-0.0003432198224840538,-0.0002704708648802313,0.000778752877003143, ,0.00019695178124468546, ,0.0004369832208391576, ,0.10906005050524198, ,0.0,0.0,0.0,0.0,0.0,0.0, ,0.0,0.0,0.0,0.0,0.0,0.0, ,1.1777310371398926
0.08942801082369184,0.07935609970822627,-0.1387786473469329, ,0.01637359336215666,0.021983757923974726,-0.09564072041015581, ,0.10241784147723457, ,6.834425229768078e-05,0.00010461910788273895,-0.00015222979202227538,-0.0003432198224840538,-0.0002704708648802313,0.000778752877003143, ,0.00019695178124468546, ,0.0004369832208391576, ,0.10899797378535407, ,0.0,0.0,0.0,0.0,0.0,0.0, ,0.0,0.0,0.0,0.0,0.0,0.0, ,1.1795618534088135
0.08942801082369184,0.07935609970822627,-0.1387786473469329, ,0.01643897141258066,0.021998112275573575,-0.09579179183712112, ,0.1022996008941507, ,6.834425229768078e-05,0.00010461910788273895,-0.00015222979202227538,-0.0003432198224840538,-0.0002704708648802313,0.000778752877003143, ,0.00019695178124468546, ,0.0004369832208391576, ,0.10893595181413922, ,0.0,0.0,0.0,0.0,0.0,0.0, ,0.0,0.0,0.0,0.0,0.0,0.0, ,1.1815710067749023
0.08942801082369184,0.07935609970822627,-0.1387786473469329, ,0.01650418394373349,0.022012273936712925,-0.09594211147545949, ,0.10218203211132494, ,6.834425229768078e-05,0.00010461910788273895,-0.00015222979202227538,-0.0003432198224840538,-0.0002704708648802313,0.000778752877003143, ,0.00019695178124468546, ,0.0004369832208391576, ,0.10887398924805836, ,0.0,0.0,0.0,0.0,0.0,0.0, ,0.0,0.0,0.0,0.0,0.0,0.0, ,1.1838719844818115
0.08942801082369184,0.07935609970822627,-0.1387786473469329, ,0.01656923130728058,0.022026243639083776,-0.09609168096851148, ,0.10206513238183794, ,6.834425229768078e-05,0.00010461910788273895,-0.00015222979202227538,-0.0003432198224840538,-0.0002704708648802313,0.000778752877003143, ,0.00019695178124468546, ,0.0004369832208391576, ,0.10881209054927453, ,0.0,0.0,0.0,0.0,0.0,0.0, ,0.0,0.0,0.0,0.0,0.0,0.0, ,1.185770034790039
0.08942801082369184,0.07935609970822627,-0.1387786473469329, ,0.01663411385476586,0.022040022113518493,-0.09624050195837054, ,0.10194889896346916, ,6.834425229768078e-05,0.00010461910788273895,-0.00015222979202227538,-0.0003432198224840538,-0.0002704708648802313,0.000778752877003143, ,0.00019695178124468546, ,0.0004369832208391576, ,0.10875025999444746, ,0.0,0.0,0.0,0.0,0.0,0.0, ,0.0,0.0,0.0,0.0,0.0,0.0, ,1.1876530647277832
0.08942801082369184,0.07935609970822627,-0.1387786473469329, ,0.016698831937611357,0.022053610089990718,-0.0963885760858834, ,0.10183332911875337, ,6.834425229768078e-05,0.00010461910788273895,-0.00015222979202227538,-0.0003432198224840538,-0.0002704708648802313,0.000778752877003143, ,0.00019695178124468546, ,0.0004369832208391576, ,0.10868850168305733, ,0.0,0.0,0.0,0.0,0.0,0.0, ,0.0,0.0,0.0,0.0,0.0,0.0, ,1.189845085144043
0.08942801082369184,0.07935609970822627,-0.1387786473469329, ,0.016763385907116898,0.022067008297615362,-0.09653590499064844, ,0.1017184201150376, ,6.834425229768078e-05,0.00010461910788273895,-0.00015222979202227538,-0.0003432198224840538,-0.0002704708648802313,0.000778752877003143, ,0.00019695178124468546, ,0.0004369832208391576, ,0.10862681954528725, ,0.0,0.0,0.0,0.0,0.0,0.0, ,0.0,0.0,0.0,0.0,0.0,0.0, ,1.1918089389801025
0.08942801082369184,0.07935609970822627,-0.1387786473469329, ,0.01682777611445934,0.0220802174646489,-0.09668249031101661, ,0.1016041692245368, ,6.834425229768078e-05,0.00010461910788273895,-0.00015222979202227538,-0.0003432198224840538,-0.0002704708648802313,0.000778752877003143, ,0.00019695178124468546, ,0.0004369832208391576, ,0.10856521734949118, ,0.0,0.0,0.0,0.0,0.0,0.0, ,0.0,0.0,0.0,0.0,0.0,0.0, ,1.193786859512329
0.08942801082369184,0.07935609970822627,-0.1387786473469329, ,0.016892002910692542,0.022093238318489118,-0.09682833368409002, ,0.10149057372439003, ,6.834425229768078e-05,0.00010461910788273895,-0.00015222979202227538,-0.0003432198224840538,-0.0002704708648802313,0.000778752877003143, ,0.00019695178124468546, ,0.0004369832208391576, ,0.10850369870927291, ,0.0,0.0,0.0,0.0,0.0,0.0, ,0.0,0.0,0.0,0.0,0.0,0.0, ,1.1959779262542725
0.08942801082369184,0.07935609970822627,-0.1387786473469329, ,0.01695606664674689,0.022106071585675312,-0.09697343674572197, ,0.10137763089671556, ,6.834425229768078e-05,0.00010461910788273895,-0.00015222979202227538,-0.0003432198224840538,-0.0002704708648802313,0.000778752877003143, ,0.00019695178124468546, ,0.0004369832208391576, ,0.10844226709019915, ,0.0,0.0,0.0,0.0,0.0,0.0, ,0.0,0.0,0.0,0.0,0.0,0.0, ,1.1981220245361328
0.08942801082369184,0.07935609970822627,-0.1387786473469329, ,0.017019967673428612,0.022118717991888307,-0.09711780113051639, ,0.1012653380286664, ,6.834425229768078e-05,0.00010461910788273895,-0.00015222979202227538,-0.0003432198224840538,-0.0002704708648802313,0.000778752877003143, ,0.00019695178124468546, ,0.0004369832208391576, ,0.10838092581616895, ,0.0,0.0,0.0,0.0,0.0,0.0, ,0.0,0.0,0.0,0.0,0.0,0.0, ,1.200221061706543
0.08942801082369184,0.07935609970822627,-0.1387786473469329, ,0.017083706341419837,0.022131178261950414,-0.09726142847182777, ,0.10115369241248443, ,6.834425229768078e-05,0.00010461910788273895,-0.00015222979202227538,-0.0003432198224840538,-0.0002704708648802313,0.000778752877003143, ,0.00019695178124468546, ,0.0004369832208391576, ,0.10831967807545977, ,0.0,0.0,0.0,0.0,0.0,0.0, ,0.0,0.0,0.0,0.0,0.0,0.0, ,1.202584981918335
0.08942801082369184,0.07935609970822627,-0.1387786473469329, ,0.017147283001277817,0.02214345311982549,-0.0974043204017603, ,0.10104269134555542, ,6.834425229768078e-05,0.00010461910788273895,-0.00015222979202227538,-0.0003432198224840538,-0.0002704708648802313,0.000778752877003143, ,0.00019695178124468546, ,0.0004369832208391576, ,0.10825852692646896, ,0.0,0.0,0.0,0.0,0.0,0.0, ,0.0,0.0,0.0,0.0,0.0,0.0, ,1.2045109272003174
0.08942801082369184,0.07935609970822627,-0.1387786473469329, ,0.017210698003434707,0.022155543288619094,-0.09754647855116808, ,0.10093233213046245, ,6.834425229768078e-05,0.00010461910788273895,-0.00015222979202227538,-0.0003432198224840538,-0.0002704708648802313,0.000778752877003143, ,0.00019695178124468546, ,0.0004369832208391576, ,0.10819747530316891, ,0.0,0.0,0.0,0.0,0.0,0.0, ,0.0,0.0,0.0,0.0,0.0,0.0, ,1.2064099311828613
0.08942801082369184,0.07935609970822627,-0.1387786473469329, ,0.017273951698197017,0.022167449490578233,-0.09768790454965384, ,0.10082261207504019, ,6.834425229768078e-05,0.00010461910788273895,-0.00015222979202227538,-0.0003432198224840538,-0.0002704708648802313,0.000778752877003143, ,0.00019695178124468546, ,0.0004369832208391576, ,0.1081365260202918, ,0.0,0.0,0.0,0.0,0.0,0.0, ,0.0,0.0,0.0,0.0,0.0,0.0, ,1.2082610130310059
0.08942801082369184,0.07935609970822627,-0.1387786473469329, ,0.017337044435745363,0.022179172447091763,-0.09782860002556926, ,0.10071352849242755, ,6.834425229768078e-05,0.00010461910788273895,-0.00015222979202227538,-0.0003432198224840538,-0.0002704708648802313,0.000778752877003143, ,0.00019695178124468546, ,0.0004369832208391576, ,0.10807568177826013, ,0.0,0.0,0.0,0.0,0.0,0.0, ,0.0,0.0,0.0,0.0,0.0,0.0, ,1.210176944732666
0.08942801082369184,0.07935609970822627,-0.1387786473469329, ,0.017399976566134023,0.02219071287869014,-0.09796856660601438, ,0.10060507870112083, ,6.834425229768078e-05,0.00010461910788273895,-0.00015222979202227538,-0.0003432198224840538,-0.0002704708648802313,0.000778752877003143, ,0.00019695178124468546, ,0.0004369832208391576, ,0.10801494516787688, ,0.0,0.0,0.0,0.0,0.0,0.0, ,0.0,0.0,0.0,0.0,0.0,0.0, ,1.2123298645019531
0.08942801082369184,0.07935609970822627,-0.1387786473469329, ,0.017462748439290316,0.02220207150504559,-0.0981078059168372, ,0.10049726002502615, ,6.834425229768078e-05,0.00010461910788273895,-0.00015222979202227538,-0.0003432198224840538,-0.0002704708648802313,0.000778752877003143, ,0.00019695178124468546, ,0.0004369832208391576, ,0.10795431867478938, ,0.0,0.0,0.0,0.0,0.0,0.0, ,0.0,0.0,0.0,0.0,0.0,0.0, ,1.2146198749542236
0.08942801082369184,0.07935609970822627,-0.1387786473469329, ,0.01752536040501469,0.022213249044972006,-0.09824631958263298, ,0.1003900697935115, ,6.834425229768078e-05,0.00010461910788273895,-0.00015222979202227538,-0.0003432198224840538,-0.0002704708648802313,0.000778752877003143, ,0.00019695178124468546, ,0.0004369832208391576, ,0.10789380468373916, ,0.0,0.0,0.0,0.0,0.0,0.0, ,0.0,0.0,0.0,0.0,0.0,0.0, ,1.2165398597717285
0.08942801082369184,0.07935609970822627,-0.1387786473469329, ,0.01758781281297974,0.022224246216425176,-0.09838410922674432, ,0.10028350534145841, ,6.834425229768078e-05,0.00010461910788273895,-0.00015222979202227538,-0.0003432198224840538,-0.0002704708648802313,0.000778752877003143, ,0.00019695178124468546, ,0.0004369832208391576, ,0.10783340548260995, ,0.0,0.0,0.0,0.0,0.0,0.0, ,0.0,0.0,0.0,0.0,0.0,0.0, ,1.2184898853302002
0.08942801082369184,0.07935609970822627,-0.1387786473469329, ,0.01765010601273003,0.022235063736502768,-0.09852117647126009, ,0.10017756400931332, ,6.834425229768078e-05,0.00010461910788273895,-0.00015222979202227538,-0.0003432198224840538,-0.0002704708648802313,0.000778752877003143, ,0.00019695178124468546, ,0.0004369832208391576, ,0.10777312326628477, ,0.0,0.0,0.0,0.0,0.0,0.0, ,0.0,0.0,0.0,0.0,0.0,0.0, ,1.220376968383789
0.08942801082369184,0.07935609970822627,-0.1387786473469329, ,0.017712240353681945,0.022245702321444193,-0.09865752293701628, ,0.10007224314313792, ,6.834425229768078e-05,0.00010461910788273895,-0.00015222979202227538,-0.0003432198224840538,-0.0002704708648802313,0.000778752877003143, ,0.00019695178124468546, ,0.0004369832208391576, ,0.1077129601403227, ,0.0,0.0,0.0,0.0,0.0,0.0, ,0.0,0.0,0.0,0.0,0.0,0.0, ,1.2227270603179932
0.08942801082369184,0.07935609970822627,-0.1387786473469329, ,0.017774216185122843,0.02225616268663081,-0.09879315024359381, ,0.09996754009466036, ,6.834425229768078e-05,0.00010461910788273895,-0.00015222979202227538,-0.0003432198224840538,-0.0002704708648802313,0.000778752877003143, ,0.00019695178124468546, ,0.0004369832208391576, ,0.10765291812446484, ,0.0,0.0,0.0,0.0,0.0,0.0, ,0.0,0.0,0.0,0.0,0.0,0.0, ,1.2246458530426025
0.08942801082369184,0.07935609970822627,-0.1387786473469329, ,0.01783603385621086,0.02226644554658601,-0.09892806000931961, ,0.0998634522213245, ,6.834425229768078e-05,0.00010461910788273895,-0.00015222979202227538,-0.0003432198224840538,-0.0002704708648802313,0.000778752877003143, ,0.00019695178124468546, ,0.0004369832208391576, ,0.10759299915597915, ,0.0,0.0,0.0,0.0,0.0,0.0, ,0.0,0.0,0.0,0.0,0.0,0.0, ,1.226505994796753
0.08942801082369184,0.07935609970822627,-0.1387786473469329, ,0.017897693715974602,0.022276551614974972,-0.09906225385126545, ,0.09975997688633989, ,6.834425229768078e-05,0.00010461910788273895,-0.00015222979202227538,-0.0003432198224840538,-0.0002704708648802313,0.000778752877003143, ,0.00019695178124468546, ,0.0004369832208391576, ,0.10753320509285214, ,0.0,0.0,0.0,0.0,0.0,0.0, ,0.0,0.0,0.0,0.0,0.0,0.0, ,1.228355884552002
0.08942801082369184,0.07935609970822627,-0.1387786473469329, ,0.01795919611331245,0.022286481604605075,-0.09919573338524781, ,0.0996571114587307, ,6.834425229768078e-05,0.00010461910788273895,-0.00015222979202227538,-0.0003432198224840538,-0.0002704708648802313,0.000778752877003143, ,0.00019695178124468546, ,0.0004369832208391576, ,0.10747353771683606, ,0.0,0.0,0.0,0.0,0.0,0.0, ,0.0,0.0,0.0,0.0,0.0,0.0, ,1.2301890850067139
0.08942801082369184,0.07935609970822627,-0.1387786473469329, ,0.018020541396992502,0.022296236227425586,-0.09932850022582715, ,0.09955485331338448, ,6.834425229768078e-05,0.00010461910788273895,-0.00015222979202227538,-0.0003432198224840538,-0.0002704708648802313,0.000778752877003143, ,0.00019695178124468546, ,0.0004369832208391576, ,0.10741399873635897, ,0.0,0.0,0.0,0.0,0.0,0.0, ,0.0,0.0,0.0,0.0,0.0,0.0, ,1.232867956161499
0.08942801082369184,0.07935609970822627,-0.1387786473469329, ,0.0180817299156517,0.022305816194527983,-0.09946055598630843, ,0.09945319983110015, ,6.834425229768078e-05,0.00010461910788273895,-0.00015222979202227538,-0.0003432198224840538,-0.0002704708648802313,0.000778752877003143, ,0.00019695178124468546, ,0.0004369832208391576, ,0.1073545897893048, ,0.0,0.0,0.0,0.0,0.0,0.0, ,0.0,0.0,0.0,0.0,0.0,0.0, ,1.2352979183197021
0.08942801082369184,0.07935609970822627,-0.1387786473469329, ,0.018142762017796035,0.022315222216145708,-0.099591902278739, ,0.09935214839863621, ,6.834425229768078e-05,0.00010461910788273895,-0.00015222979202227538,-0.0003432198224840538,-0.0002704708648802313,0.000778752877003143, ,0.00019695178124468546, ,0.0004369832208391576, ,0.10729531244567023, ,0.0,0.0,0.0,0.0,0.0,0.0, ,0.0,0.0,0.0,0.0,0.0,0.0, ,1.240954875946045
0.08942801082369184,0.07935609970822627,-0.1387786473469329, ,0.018203638051799417,0.022324455001654586,-0.0997225407139101, ,0.09925169640875749, ,6.834425229768078e-05,0.00010461910788273895,-0.00015222979202227538,-0.0003432198224840538,-0.0002704708648802313,0.000778752877003143, ,0.00019695178124468546, ,0.0004369832208391576, ,0.10723616821010469, ,0.0,0.0,0.0,0.0,0.0,0.0, ,0.0,0.0,0.0,0.0,0.0,0.0, ,1.2430469989776611
0.08942801082369184,0.07935609970822627,-0.1387786473469329, ,0.018264358365903892,0.022333515259572334,-0.09985247290135478, ,0.09915184126028258, ,6.834425229768078e-05,0.00010461910788273895,-0.00015222979202227538,-0.0003432198224840538,-0.0002704708648802313,0.000778752877003143, ,0.00019695178124468546, ,0.0004369832208391576, ,0.10717715852433955, ,0.0,0.0,0.0,0.0,0.0,0.0, ,0.0,0.0,0.0,0.0,0.0,0.0, ,1.2464599609375
0.08942801082369184,0.07935609970822627,-0.1387786473469329, ,0.01832492330821883,0.0223424036975591,-0.09998170044934869, ,0.09905258035812974, ,6.834425229768078e-05,0.00010461910788273895,-0.00015222979202227538,-0.0003432198224840538,-0.0002704708648802313,0.000778752877003143, ,0.00019695178124468546, ,0.0004369832208391576, ,0.10711828476951195, ,0.0,0.0,0.0,0.0,0.0,0.0, ,0.0,0.0,0.0,0.0,0.0,0.0, ,1.2485358715057373
0.08942801082369184,0.07935609970822627,-0.1387786473469329, ,0.018385333226720705,0.02235112102241719,-0.10011022496490923, ,0.09895391111336288, ,6.834425229768078e-05,0.00010461910788273895,-0.00015222979202227538,-0.0003432198224840538,-0.0002704708648802313,0.000778752877003143, ,0.00019695178124468546, ,0.0004369832208391576, ,0.10705954826838857, ,0.0,0.0,0.0,0.0,0.0,0.0, ,0.0,0.0,0.0,0.0,0.0,0.0, ,1.250514030456543
0.08942801082369184,0.07935609970822627,-0.1387786473469329, ,0.018445588469252545,0.02235966794009125,-0.10023804805379502, ,0.09885583094323722, ,6.834425229768078e-05,0.00010461910788273895,-0.00015222979202227538,-0.0003432198224840538,-0.0002704708648802313,0.000778752877003143, ,0.00019695178124468546, ,0.0004369832208391576, ,0.10700095028749462, ,0.0,0.0,0.0,0.0,0.0,0.0, ,0.0,0.0,0.0,0.0,0.0,0.0, ,1.2524380683898926
0.08942801082369184,0.07935609970822627,-0.1387786473469329, ,0.0185056893835236,0.022368045155668325,-0.10036517132050515, ,0.09875833727124413, ,6.834425229768078e-05,0.00010461910788273895,-0.00015222979202227538,-0.0003432198224840538,-0.0002704708648802313,0.000778752877003143, ,0.00019695178124468546, ,0.0004369832208391576, ,0.10694249203915242, ,0.0,0.0,0.0,0.0,0.0,0.0, ,0.0,0.0,0.0,0.0,0.0,0.0, ,1.2545130252838135
0.08942801082369184,0.07935609970822627,-0.1387786473469329, ,0.01856563631710905,0.022376253373377567,-0.10049159636827984, ,0.09866142752715543, ,6.834425229768078e-05,0.00010461910788273895,-0.00015222979202227538,-0.0003432198224840538,-0.0002704708648802313,0.000778752877003143, ,0.00019695178124468546, ,0.0004369832208391576, ,0.10688417468343413, ,0.0,0.0,0.0,0.0,0.0,0.0, ,0.0,0.0,0.0,0.0,0.0,0.0, ,1.2564020156860352
0.08942801082369184,0.07935609970822627,-0.1387786473469329, ,0.0186254296174492,0.022384293296590887,-0.10061732479909903, ,0.09856509914706754, ,6.834425229768078e-05,0.00010461910788273895,-0.00015222979202227538,-0.0003432198224840538,-0.0002704708648802313,0.000778752877003143, ,0.00019695178124468546, ,0.0004369832208391576, ,0.10682599933003296, ,0.0,0.0,0.0,0.0,0.0,0.0, ,0.0,0.0,0.0,0.0,0.0,0.0, ,1.2582590579986572
0.08942801082369184,0.07935609970822627,-0.1387786473469329, ,0.018685069631849495,0.022392165627822314,-0.10074235821368242, ,0.09846934957344494, ,6.834425229768078e-05,0.00010461910788273895,-0.00015222979202227538,-0.0003432198224840538,-0.0002704708648802313,0.000778752877003143, ,0.00019695178124468546, ,0.0004369832208391576, ,0.10676796704005667, ,0.0,0.0,0.0,0.0,0.0,0.0, ,0.0,0.0,0.0,0.0,0.0,0.0, ,1.260171890258789
0.08942801082369184,0.07935609970822627,-0.1387786473469329, ,0.01874455670747982,0.022399871068728597,-0.1008666982114887, ,0.09837417625516309, ,6.834425229768078e-05,0.00010461910788273895,-0.00015222979202227538,-0.0003432198224840538,-0.0002704708648802313,0.000778752877003143, ,0.00019695178124468546, ,0.0004369832208391576, ,0.10671007882774705, ,0.0,0.0,0.0,0.0,0.0,0.0, ,0.0,0.0,0.0,0.0,0.0,0.0, ,1.2620930671691895
0.08942801082369184,0.07935609970822627,-0.1387786473469329, ,0.01880389119137427,0.02240741032010877,-0.10099034639071568, ,0.09827957664755094, ,6.834425229768078e-05,0.00010461910788273895,-0.00015222979202227538,-0.0003432198224840538,-0.0002704708648802313,0.000778752877003143, ,0.00019695178124468546, ,0.0004369832208391576, ,0.10665233566212927, ,0.0,0.0,0.0,0.0,0.0,0.0, ,0.0,0.0,0.0,0.0,0.0,0.0, ,1.2643799781799316
0.08942801082369184,0.07935609970822627,-0.1387786473469329, ,0.018863073430430557,0.022414784081904674,-0.10111330434829928, ,0.09818554821243287, ,6.834425229768078e-05,0.00010461910788273895,-0.00015222979202227538,-0.0003432198224840538,-0.0002704708648802313,0.000778752877003143, ,0.00019695178124468546, ,0.0004369832208391576, ,0.10659473846859392, ,0.0,0.0,0.0,0.0,0.0,0.0, ,0.0,0.0,0.0,0.0,0.0,0.0, ,1.266252040863037
0.08942801082369184,0.07935609970822627,-0.1387786473469329, ,0.01892210377140967,0.022421993053200483,-0.10123557367991336, ,0.09809208841817041, ,6.834425229768078e-05,0.00010461910788273895,-0.00015222979202227538,-0.0003432198224840538,-0.0002704708648802313,0.000778752877003143, ,0.00019695178124468546, ,0.0004369832208391576, ,0.10653728813041538, ,0.0,0.0,0.0,0.0,0.0,0.0, ,0.0,0.0,0.0,0.0,0.0,0.0, ,1.2681019306182861
0.08942801082369184,0.07935609970822627,-0.1387786473469329, ,0.018980982560935555,0.02242903793222313,-0.10135715597996978, ,0.0979991947397026, ,6.834425229768078e-05,0.00010461910788273895,-0.00015222979202227538,-0.0003432198224840538,-0.0002704708648802313,0.000778752877003143, ,0.00019695178124468546, ,0.0004369832208391576, ,0.10647998549020926, ,0.0,0.0,0.0,0.0,0.0,0.0, ,0.0,0.0,0.0,0.0,0.0,0.0, ,1.2699768543243408
0.08942801082369184,0.07935609970822627,-0.1387786473469329, ,0.01903971014549454,0.02243591941634223,-0.1014780528416169, ,0.09790686465858717, ,6.834425229768078e-05,0.00010461910788273895,-0.00015222979202227538,-0.0003432198224840538,-0.0002704708648802313,0.000778752877003143, ,0.00019695178124468546, ,0.0004369832208391576, ,0.10642283135133178, ,0.0,0.0,0.0,0.0,0.0,0.0, ,0.0,0.0,0.0,0.0,0.0,0.0, ,1.2719440460205078
0.08942801082369184,0.07935609970822627,-0.1387786473469329, ,0.019098286871434944,0.02244263820206992,-0.10159826585674005, ,0.09781509566304004, ,6.834425229768078e-05,0.00010461910788273895,-0.00015222979202227538,-0.0003432198224840538,-0.0002704708648802313,0.000778752877003143, ,0.00019695178124468546, ,0.0004369832208391576, ,0.10636582647922388, ,0.0,0.0,0.0,0.0,0.0,0.0, ,0.0,0.0,0.0,0.0,0.0,0.0, ,1.2751569747924805
0.08942801082369184,0.07935609970822627,-0.1387786473469329, ,0.019156713084966782,0.02244919498506124,-0.10171779661596077, ,0.09772388524797469, ,6.834425229768078e-05,0.00010461910788273895,-0.00015222979202227538,-0.0003432198224840538,-0.0002704708648802313,0.000778752877003143, ,0.00019695178124468546, ,0.0004369832208391576, ,0.10630897160270249, ,0.0,0.0,0.0,0.0,0.0,0.0, ,0.0,0.0,0.0,0.0,0.0,0.0, ,1.2771189212799072
0.08942801082369184,0.07935609970822627,-0.1387786473469329, ,0.01921498913216111,0.022455590460113976,-0.10183664670863661, ,0.09763323091504122, ,6.834425229768078e-05,0.00010461910788273895,-0.00015222979202227538,-0.0003432198224840538,-0.0002704708648802313,0.000778752877003143, ,0.00019695178124468546, ,0.0004369832208391576, ,0.10625226741520143, ,0.0,0.0,0.0,0.0,0.0,0.0, ,0.0,0.0,0.0,0.0,0.0,0.0, ,1.2791378498077393
0.08942801082369184,0.07935609970822627,-0.1387786473469329, ,0.019273115358949933,0.02246182532116861,-0.10195481772286043, ,0.09754313017266458, ,6.834425229768078e-05,0.00010461910788273895,-0.00015222979202227538,-0.0003432198224840538,-0.0002704708648802313,0.000778752877003143, ,0.00019695178124468546, ,0.0004369832208391576, ,0.10619571457596418, ,0.0,0.0,0.0,0.0,0.0,0.0, ,0.0,0.0,0.0,0.0,0.0,0.0, ,1.281153917312622
0.08942801082369184,0.07935609970822627,-0.1387786473469329, ,0.019331092111125527,0.022467900261308547,-0.10207231124546, ,0.09745358053608248, ,6.834425229768078e-05,0.00010461910788273895,-0.00015222979202227538,-0.0003432198224840538,-0.0002704708648802313,0.000778752877003143, ,0.00019695178124468546, ,0.0004369832208391576, ,0.10613931371119074, ,0.0,0.0,0.0,0.0,0.0,0.0, ,0.0,0.0,0.0,0.0,0.0,0.0, ,1.2831640243530273
0.08942801082369184,0.07935609970822627,-0.1387786473469329, ,0.019388919734339812,0.022473815972760196,-0.10218912886199784, ,0.09736457952738266, ,6.834425229768078e-05,0.00010461910788273895,-0.00015222979202227538,-0.0003432198224840538,-0.0002704708648802313,0.000778752877003143, ,0.00019695178124468546, ,0.0004369832208391576, ,0.10608306541514069, ,0.0,0.0,0.0,0.0,0.0,0.0, ,0.0,0.0,0.0,0.0,0.0,0.0, ,1.2857649326324463
0.08942801082369184,0.07935609970822627,-0.1387786473469329, ,0.019446598574104686,0.02247957314689261,-0.10230527215677028, ,0.09727612467553963, ,6.834425229768078e-05,0.00010461910788273895,-0.00015222979202227538,-0.0003432198224840538,-0.0002704708648802313,0.000778752877003143, ,0.00019695178124468546, ,0.0004369832208391576, ,0.10602697025119419, ,0.0,0.0,0.0,0.0,0.0,0.0, ,0.0,0.0,0.0,0.0,0.0,0.0, ,1.2881040573120117
0.08942801082369184,0.07935609970822627,-0.1387786473469329, ,0.019504128975790822,0.022485172474217895,-0.1024207427128079, ,0.09718821351645077, ,6.834425229768078e-05,0.00010461910788273895,-0.00015222979202227538,-0.0003432198224840538,-0.0002704708648802313,0.000778752877003143, ,0.00019695178124468546, ,0.0004369832208391576, ,0.10597102875287302, ,0.0,0.0,0.0,0.0,0.0,0.0, ,0.0,0.0,0.0,0.0,0.0,0.0, ,1.2901289463043213
0.08942801082369184,0.07935609970822627,-0.1387786473469329, ,0.019561511284627596,0.02249061464439134,-0.10253554211187418, ,0.09710084359297214, ,6.834425229768078e-05,0.00010461910788273895,-0.00015222979202227538,-0.0003432198224840538,-0.0002704708648802313,0.000778752877003143, ,0.00019695178124468546, ,0.0004369832208391576, ,0.10591524142482332, ,0.0,0.0,0.0,0.0,0.0,0.0, ,0.0,0.0,0.0,0.0,0.0,0.0, ,1.2921149730682373
0.08942801082369184,0.07935609970822627,-0.1387786473469329, ,0.019618745845702664,0.022495900346210972,-0.10264967193446546, ,0.09701401245495368, ,6.834425229768078e-05,0.00010461910788273895,-0.00015222979202227538,-0.0003432198224840538,-0.0002704708648802313,0.000778752877003143, ,0.00019695178124468546, ,0.0004369832208391576, ,0.10585960874376163, ,0.0,0.0,0.0,0.0,0.0,0.0, ,0.0,0.0,0.0,0.0,0.0,0.0, ,1.2945420742034912
0.08942801082369184,0.07935609970822627,-0.1387786473469329, ,0.01967583300396146,0.022501030267618106,-0.102763133759811, ,0.09692771765927344, ,6.834425229768078e-05,0.00010461910788273895,-0.00015222979202227538,-0.0003432198224840538,-0.0002704708648802313,0.000778752877003143, ,0.00019695178124468546, ,0.0004369832208391576, ,0.10580413115938593, ,0.0,0.0,0.0,0.0,0.0,0.0, ,0.0,0.0,0.0,0.0,0.0,0.0, ,1.296454906463623
0.08942801082369184,0.07935609970822627,-0.1387786473469329, ,0.01973277310420674,0.02250600509569706,-0.10287592916587165, ,0.09684195676987206, ,6.834425229768078e-05,0.00010461910788273895,-0.00015222979202227538,-0.0003432198224840538,-0.0002704708648802313,0.000778752877003143, ,0.00019695178124468546, ,0.0004369832208391576, ,0.10574880909525312, ,0.0,0.0,0.0,0.0,0.0,0.0, ,0.0,0.0,0.0,0.0,0.0,0.0, ,1.2982990741729736
0.08942801082369184,0.07935609970822627,-0.1387786473469329, ,0.01978956649109839,0.022510825516675208,-0.10298805972933987, ,0.09675672735778604, ,6.834425229768078e-05,0.00010461910788273895,-0.00015222979202227538,-0.0003432198224840538,-0.0002704708648802313,0.000778752877003143, ,0.00019695178124468546, ,0.0004369832208391576, ,0.1056936429496245, ,0.0,0.0,0.0,0.0,0.0,0.0, ,0.0,0.0,0.0,0.0,0.0,0.0, ,1.3002030849456787
0.08942801082369184,0.07935609970822627,-0.1387786473469329, ,0.01984621350915277,0.02251549221592324,-0.1030995270256393, ,0.09667202700118063, ,6.834425229768078e-05,0.00010461910788273895,-0.00015222979202227538,-0.0003432198224840538,-0.0002704708648802313,0.000778752877003143, ,0.00019695178124468546, ,0.0004369832208391576, ,0.10563863309628031, ,0.0,0.0,0.0,0.0,0.0,0.0, ,0.0,0.0,0.0,0.0,0.0,0.0, ,1.3020849227905273
0.08942801082369184,0.07935609970822627,-0.1387786473469329, ,0.01990271450274223,0.02252000587795506,-0.10321033262892462, ,0.09658785328538226, ,6.834425229768078e-05,0.00010461910788273895,-0.00015222979202227538,-0.0003432198224840538,-0.0002704708648802313,0.000778752877003143, ,0.00019695178124468546, ,0.0004369832208391576, ,0.10558377988530518, ,0.0,0.0,0.0,0.0,0.0,0.0, ,0.0,0.0,0.0,0.0,0.0,0.0, ,1.3045358657836914
0.08942801082369184,0.07935609970822627,-0.1387786473469329, ,0.01995906981609487,0.02252436718642778,-0.10332047811208077, ,0.09650420380291032, ,6.834425229768078e-05,0.00010461910788273895,-0.00015222979202227538,-0.0003432198224840538,-0.0002704708648802313,0.000778752877003143, ,0.00019695178124468546, ,0.0004369832208391576, ,0.10552908364384497, ,0.0,0.0,0.0,0.0,0.0,0.0, ,0.0,0.0,0.0,0.0,0.0,0.0, ,1.3066749572753906
0.08942801082369184,0.07935609970822627,-0.1387786473469329, ,0.02001527979329425,0.02252857682414165,-0.10342996504672197, ,0.09642107615350873, ,6.834425229768078e-05,0.00010461910788273895,-0.00015222979202227538,-0.0003432198224840538,-0.0002704708648802313,0.000778752877003143, ,0.00019695178124468546, ,0.0004369832208391576, ,0.10547454467683696, ,0.0,0.0,0.0,0.0,0.0,0.0, ,0.0,0.0,0.0,0.0,0.0,0.0, ,1.3085839748382568
0.08942801082369184,0.07935609970822627,-0.1387786473469329, ,0.020071344778278547,0.022532635473040605,-0.10353879500319274, ,0.09633846794417597, ,6.834425229768078e-05,0.00010461910788273895,-0.00015222979202227538,-0.0003432198224840538,-0.0002704708648802313,0.000778752877003143, ,0.00019695178124468546, ,0.0004369832208391576, ,0.10542016326771397, ,0.0,0.0,0.0,0.0,0.0,0.0, ,0.0,0.0,0.0,0.0,0.0,0.0, ,1.3104779720306396
0.08942801082369184,0.07935609970822627,-0.1387786473469329, ,0.02012726511484045,0.022536543814211565,-0.1036469695505663, ,0.09625637678919596, ,6.834425229768078e-05,0.00010461910788273895,-0.00015222979202227538,-0.0003432198224840538,-0.0002704708648802313,0.000778752877003143, ,0.00019695178124468546, ,0.0004369832208391576, ,0.1053659396790837, ,0.0,0.0,0.0,0.0,0.0,0.0, ,0.0,0.0,0.0,0.0,0.0,0.0, ,1.3125090599060059
0.08942801082369184,0.07935609970822627,-0.1387786473469329, ,0.020183041146626706,0.022540302527885105,-0.10375449025664431, ,0.09617480031016724, ,6.834425229768078e-05,0.00010461910788273895,-0.00015222979202227538,-0.0003432198224840538,-0.0002704708648802313,0.000778752877003143, ,0.00019695178124468546, ,0.0004369832208391576, ,0.10531187415338418, ,0.0,0.0,0.0,0.0,0.0,0.0, ,0.0,0.0,0.0,0.0,0.0,0.0, ,1.3145198822021484
0.08942801082369184,0.07935609970822627,-0.1387786473469329, ,0.020238673217137525,0.02254391229343508,-0.10386135868795689, ,0.09609373613603212, ,6.834425229768078e-05,0.00010461910788273895,-0.00015222979202227538,-0.0003432198224840538,-0.0002704708648802313,0.000778752877003143, ,0.00019695178124468546, ,0.0004369832208391576, ,0.10525796691351663, ,0.0,0.0,0.0,0.0,0.0,0.0, ,0.0,0.0,0.0,0.0,0.0,0.0, ,1.3167009353637695
0.08942801082369184,0.07935609970822627,-0.1387786473469329, ,0.020294161669726196,0.022547373789379023,-0.1039675764097618, ,0.09601318190310507, ,6.834425229768078e-05,0.00010461910788273895,-0.00015222979202227538,-0.0003432198224840538,-0.0002704708648802313,0.000778752877003143, ,0.00019695178124468546, ,0.0004369832208391576, ,0.10520421816345608, ,0.0,0.0,0.0,0.0,0.0,0.0, ,0.0,0.0,0.0,0.0,0.0,0.0, ,1.3185570240020752
0.08942801082369184,0.07935609970822627,-0.1387786473469329, ,0.020349506847598977,0.022550687693377706,-0.10407314498604416, ,0.09593313525510062, ,6.834425229768078e-05,0.00010461910788273895,-0.00015222979202227538,-0.0003432198224840538,-0.0002704708648802313,0.000778752877003143, ,0.00019695178124468546, ,0.0004369832208391576, ,0.10515062808884132, ,0.0,0.0,0.0,0.0,0.0,0.0, ,0.0,0.0,0.0,0.0,0.0,0.0, ,1.320725917816162
0.08942801082369184,0.07935609970822627,-0.1387786473469329, ,0.020404709093814307,0.022553854682235638,-0.10417806597951572, ,0.09585359384316088, ,6.834425229768078e-05,0.00010461910788273895,-0.00015222979202227538,-0.0003432198224840538,-0.0002704708648802313,0.000778752877003143, ,0.00019695178124468546, ,0.0004369832208391576, ,0.1050971968575443, ,0.0,0.0,0.0,0.0,0.0,0.0, ,0.0,0.0,0.0,0.0,0.0,0.0, ,1.3228528499603271
0.08942801082369184,0.07935609970822627,-0.1387786473469329, ,0.02045976875128237,0.02255687543190099,-0.1042823409516154, ,0.09577455532588179, ,6.834425229768078e-05,0.00010461910788273895,-0.00015222979202227538,-0.0003432198224840538,-0.0002704708648802313,0.000778752877003143, ,0.00019695178124468546, ,0.0004369832208391576, ,0.10504392462022051, ,0.0,0.0,0.0,0.0,0.0,0.0, ,0.0,0.0,0.0,0.0,0.0,0.0, ,1.324859857559204
0.08942801082369184,0.07935609970822627,-0.1387786473469329, ,0.020514686162765017,0.02255975061746525,-0.10438597146250715, ,0.09569601736934018, ,6.834425229768078e-05,0.00010461910788273895,-0.00015222979202227538,-0.0003432198224840538,-0.0002704708648802313,0.000778752877003143, ,0.00019695178124468546, ,0.0004369832208391576, ,0.10499081151084053, ,0.0,0.0,0.0,0.0,0.0,0.0, ,0.0,0.0,0.0,0.0,0.0,0.0, ,1.3273608684539795
0.08942801082369184,0.07935609970822627,-0.1387786473469329, ,0.020569461670874922,0.02256248091316395,-0.10448895907108159, ,0.0956179776471183, ,6.834425229768078e-05,0.00010461910788273895,-0.00015222979202227538,-0.0003432198224840538,-0.0002704708648802313,0.000778752877003143, ,0.00019695178124468546, ,0.0004369832208391576, ,0.10493785764720368, ,0.0,0.0,0.0,0.0,0.0,0.0, ,0.0,0.0,0.0,0.0,0.0,0.0, ,1.3294339179992676
0.08942801082369184,0.07935609970822627,-0.1387786473469329, ,0.020624095618075527,0.022565066992376093,-0.10459130533495381, ,0.0955404338403298, ,6.834425229768078e-05,0.00010461910788273895,-0.00015222979202227538,-0.0003432198224840538,-0.0002704708648802313,0.000778752877003143, ,0.00019695178124468546, ,0.0004369832208391576, ,0.10488506313143472, ,0.0,0.0,0.0,0.0,0.0,0.0, ,0.0,0.0,0.0,0.0,0.0,0.0, ,1.3314290046691895
0.08942801082369184,0.07935609970822627,-0.1387786473469329, ,0.02067858834668032,0.022567509527624433,-0.10469301181046405, ,0.09546338363764377, ,6.834425229768078e-05,0.00010461910788273895,-0.00015222979202227538,-0.0003432198224840538,-0.0002704708648802313,0.000778752877003143, ,0.00019695178124468546, ,0.0004369832208391576, ,0.10483242805046383, ,0.0,0.0,0.0,0.0,0.0,0.0, ,0.0,0.0,0.0,0.0,0.0,0.0, ,1.3333508968353271
0.08942801082369184,0.07935609970822627,-0.1387786473469329, ,0.02073294019885257,0.02256980919057562,-0.10479408005267629, ,0.09538682473530886, ,6.834425229768078e-05,0.00010461910788273895,-0.00015222979202227538,-0.0003432198224840538,-0.0002704708648802313,0.000778752877003143, ,0.00019695178124468546, ,0.0004369832208391576, ,0.10477995247649073, ,0.0,0.0,0.0,0.0,0.0,0.0, ,0.0,0.0,0.0,0.0,0.0,0.0, ,1.3352110385894775
0.08942801082369184,0.07935609970822627,-0.1387786473469329, ,0.0207871515166049,0.022571966652039963,-0.10489451161537927, ,0.0953107548371763, ,6.834425229768078e-05,0.00010461910788273895,-0.00015222979202227538,-0.0003432198224840538,-0.0002704708648802313,0.000778752877003143, ,0.00019695178124468546, ,0.0004369832208391576, ,0.10472763646743374, ,0.0,0.0,0.0,0.0,0.0,0.0, ,0.0,0.0,0.0,0.0,0.0,0.0, ,1.3370940685272217
0.08942801082369184,0.07935609970822627,-0.1387786473469329, ,0.020841222641798794,0.022573982581971738,-0.10499430805108459, ,0.09523517165472298, ,6.834425229768078e-05,0.00010461910788273895,-0.00015222979202227538,-0.0003432198224840538,-0.0002704708648802313,0.000778752877003143, ,0.00019695178124468546, ,0.0004369832208391576, ,0.1046754800673639, ,0.0,0.0,0.0,0.0,0.0,0.0, ,0.0,0.0,0.0,0.0,0.0,0.0, ,1.3390090465545654
0.08942801082369184,0.07935609970822627,-0.1387786473469329, ,0.020895153916144143,0.022575857649469167,-0.10509347091102705, ,0.09516007290707361, ,6.834425229768078e-05,0.00010461910788273895,-0.00015222979202227538,-0.0003432198224840538,-0.0002704708648802313,0.000778752877003143, ,0.00019695178124468546, ,0.0004369832208391576, ,0.10462348330692516, ,0.0,0.0,0.0,0.0,0.0,0.0, ,0.0,0.0,0.0,0.0,0.0,0.0, ,1.3408839702606201
0.08942801082369184,0.07935609970822627,-0.1387786473469329, ,0.02094894568119901,0.022577592522774154,-0.10519200174516409, ,0.09508545632102225, ,6.834425229768078e-05,0.00010461910788273895,-0.00015222979202227538,-0.0003432198224840538,-0.0002704708648802313,0.000778752877003143, ,0.00019695178124468546, ,0.0004369832208391576, ,0.1045716462037409, ,0.0,0.0,0.0,0.0,0.0,0.0, ,0.0,0.0,0.0,0.0,0.0,0.0, ,1.3427748680114746
0.08942801082369184,0.07935609970822627,-0.1387786473469329, ,0.02100259827836892,0.022579187869272873,-0.10528990210217515, ,0.09501131963105347, ,6.834425229768078e-05,0.00010461910788273895,-0.00015222979202227538,-0.0003432198224840538,-0.0002704708648802313,0.000778752877003143, ,0.00019695178124468546, ,0.0004369832208391576, ,0.10451996876280745, ,0.0,0.0,0.0,0.0,0.0,0.0, ,0.0,0.0,0.0,0.0,0.0,0.0, ,1.3450369834899902
0.08942801082369184,0.07935609970822627,-0.1387786473469329, ,0.021056112048906738,0.02258064435549528,-0.10538717352946171, ,0.09493766057936268, ,6.834425229768078e-05,0.00010461910788273895,-0.00015222979202227538,-0.0003432198224840538,-0.0002704708648802313,0.000778752877003143, ,0.00019695178124468546, ,0.0004369832208391576, ,0.10446845097687495, ,0.0,0.0,0.0,0.0,0.0,0.0, ,0.0,0.0,0.0,0.0,0.0,0.0, ,1.3469960689544678
0.08942801082369184,0.07935609970822627,-0.1387786473469329, ,0.021109487333911832,0.022581962647115608,-0.10548381757314661, ,0.09486447691587621, ,6.834425229768078e-05,0.00010461910788273895,-0.00015222979202227538,-0.0003432198224840538,-0.0002704708648802313,0.000778752877003143, ,0.00019695178124468546, ,0.0004369832208391576, ,0.10441709282681613, ,0.0,0.0,0.0,0.0,0.0,0.0, ,0.0,0.0,0.0,0.0,0.0,0.0, ,1.3489670753479004
0.08942801082369184,0.07935609970822627,-0.1387786473469329, ,0.021162724474330253,0.022583143408951917,-0.10557983577807331, ,0.09479176639827055, ,6.834425229768078e-05,0.00010461910788273895,-0.00015222979202227538,-0.0003432198224840538,-0.0002704708648802313,0.000778752877003143, ,0.00019695178124468546, ,0.0004369832208391576, ,0.10436589428198344, ,0.0,0.0,0.0,0.0,0.0,0.0, ,0.0,0.0,0.0,0.0,0.0,0.0, ,1.350956916809082
0.08942801082369184,0.07935609970822627,-0.1387786473469329, ,0.021215823810953677,0.022584187304966443,-0.10567522968780535, ,0.09471952679199158, ,6.834425229768078e-05,0.00010461910788273895,-0.00015222979202227538,-0.0003432198224840538,-0.0002704708648802313,0.000778752877003143, ,0.00019695178124468546, ,0.0004369832208391576, ,0.10431485530055491, ,0.0,0.0,0.0,0.0,0.0,0.0, ,0.0,0.0,0.0,0.0,0.0,0.0, ,1.3531849384307861
0.08942801082369184,0.07935609970822627,-0.1387786473469329, ,0.021268785684419415,0.02258509499826567,-0.10577000084462727, ,0.09464775587027179, ,6.834425229768078e-05,0.00010461910788273895,-0.00015222979202227538,-0.0003432198224840538,-0.0002704708648802313,0.000778752877003143, ,0.00019695178124468546, ,0.0004369832208391576, ,0.10426397582986921, ,0.0,0.0,0.0,0.0,0.0,0.0, ,0.0,0.0,0.0,0.0,0.0,0.0, ,1.3550899028778076
0.08942801082369184,0.07935609970822627,-0.1387786473469329, ,0.021321610435209623,0.0225858671511004,-0.10586415078954246, ,0.09457645141414892, ,6.834425229768078e-05,0.00010461910788273895,-0.00015222979202227538,-0.0003432198224840538,-0.0002704708648802313,0.000778752877003143, ,0.00019695178124468546, ,0.0004369832208391576, ,0.10421325580675025, ,0.0,0.0,0.0,0.0,0.0,0.0, ,0.0,0.0,0.0,0.0,0.0,0.0, ,1.356997013092041
0.08942801082369184,0.07935609970822627,-0.1387786473469329, ,0.021374298403651373,0.022586504424865258,-0.10595768106227388, ,0.09450561121248251, ,6.834425229768078e-05,0.00010461910788273895,-0.00015222979202227538,-0.0003432198224840538,-0.0002704708648802313,0.000778752877003143, ,0.00019695178124468546, ,0.0004369832208391576, ,0.10416269515782178, ,0.0,0.0,0.0,0.0,0.0,0.0, ,0.0,0.0,0.0,0.0,0.0,0.0, ,1.3589398860931396
0.08942801082369184,0.07935609970822627,-0.1387786473469329, ,0.021426849929915594,0.022587007480099546,-0.10605059320126292, ,0.09443523306197062, ,6.834425229768078e-05,0.00010461910788273895,-0.00015222979202227538,-0.0003432198224840538,-0.0002704708648802313,0.000778752877003143, ,0.00019695178124468546, ,0.0004369832208391576, ,0.1041122937998122, ,0.0,0.0,0.0,0.0,0.0,0.0, ,0.0,0.0,0.0,0.0,0.0,0.0, ,1.3611159324645996
0.08942801082369184,0.07935609970822627,-0.1387786473469329, ,0.021479265354017354,0.02258737697648664,-0.10614288874366942, ,0.09436531476716552, ,6.834425229768078e-05,0.00010461910788273895,-0.00015222979202227538,-0.0003432198224840538,-0.0002704708648802313,0.000778752877003143, ,0.00019695178124468546, ,0.0004369832208391576, ,0.1040620516398501, ,0.0,0.0,0.0,0.0,0.0,0.0, ,0.0,0.0,0.0,0.0,0.0,0.0, ,1.3631348609924316
0.08942801082369184,0.07935609970822627,-0.1387786473469329, ,0.02153154501581465,0.022587613572854427,-0.10623456922537103, ,0.09429585414048947, ,6.834425229768078e-05,0.00010461910788273895,-0.00015222979202227538,-0.0003432198224840538,-0.0002704708648802313,0.000778752877003143, ,0.00019695178124468546, ,0.0004369832208391576, ,0.10401196857575083, ,0.0,0.0,0.0,0.0,0.0,0.0, ,0.0,0.0,0.0,0.0,0.0,0.0, ,1.3651599884033203
0.08942801082369184,0.07935609970822627,-0.1387786473469329, ,0.02158368925500865,0.022587717927175153,-0.10632563618096304, ,0.094226849002249, ,6.834425229768078e-05,0.00010461910788273895,-0.00015222979202227538,-0.0003432198224840538,-0.0002704708648802313,0.000778752877003143, ,0.00019695178124468546, ,0.0004369832208391576, ,0.1039620444962942, ,0.0,0.0,0.0,0.0,0.0,0.0, ,0.0,0.0,0.0,0.0,0.0,0.0, ,1.3672590255737305
0.08942801082369184,0.07935609970822627,-0.1387786473469329, ,0.02163569841114303,0.022587690696565237,-0.1064160911437575, ,0.09415829718064969, ,6.834425229768078e-05,0.00010461910788273895,-0.00015222979202227538,-0.0003432198224840538,-0.0002704708648802313,0.000778752877003143, ,0.00019695178124468546, ,0.0004369832208391576, ,0.10391227928149396, ,0.0,0.0,0.0,0.0,0.0,0.0, ,0.0,0.0,0.0,0.0,0.0,0.0, ,1.3693430423736572
0.08942801082369184,0.07935609970822627,-0.1387786473469329, ,0.021687572823603306,0.022587532537285886,-0.10650593564578299, ,0.09409019651180958, ,6.834425229768078e-05,0.00010461910788273895,-0.00015222979202227538,-0.0003432198224840538,-0.0002704708648802313,0.000778752877003143, ,0.00019695178124468546, ,0.0004369832208391576, ,0.1038626728028592, ,0.0,0.0,0.0,0.0,0.0,0.0, ,0.0,0.0,0.0,0.0,0.0,0.0, ,1.3712458610534668
0.08942801082369184,0.07935609970822627,-0.1387786473469329, ,0.02173931283161677,0.022587244104742735,-0.10659517121778461, ,0.09402254483977218, ,6.834425229768078e-05,0.00010461910788273895,-0.00015222979202227538,-0.0003432198224840538,-0.0002704708648802313,0.000778752877003143, ,0.00019695178124468546, ,0.0004369832208391576, ,0.1038132249236477, ,0.0,0.0,0.0,0.0,0.0,0.0, ,0.0,0.0,0.0,0.0,0.0,0.0, ,1.3731598854064941
0.08942801082369184,0.07935609970822627,-0.1387786473469329, ,0.02179091877425189,0.02258682605348572,-0.10668379938922276, ,0.09395534001651935, ,6.834425229768078e-05,0.00010461910788273895,-0.00015222979202227538,-0.0003432198224840538,-0.0002704708648802313,0.000778752877003143, ,0.00019695178124468546, ,0.0004369832208391576, ,0.10376393549911206, ,0.0,0.0,0.0,0.0,0.0,0.0, ,0.0,0.0,0.0,0.0,0.0,0.0, ,1.3750920295715332
0.08942801082369184,0.07935609970822627,-0.1387786473469329, ,0.02184239099041792,0.02258627903720968,-0.10677182168827325, ,0.093888579901983, ,6.834425229768078e-05,0.00010461910788273895,-0.00015222979202227538,-0.0003432198224840538,-0.0002704708648802313,0.000778752877003143, ,0.00019695178124468546, ,0.0004369832208391576, ,0.10371480437673829, ,0.0,0.0,0.0,0.0,0.0,0.0, ,0.0,0.0,0.0,0.0,0.0,0.0, ,1.3769729137420654
0.08942801082369184,0.07935609970822627,-0.1387786473469329, ,0.021893729818864272,0.02258560370875391,-0.1068592396418269, ,0.09382226236405675, ,6.834425229768078e-05,0.00010461910788273895,-0.00015222979202227538,-0.0003432198224840538,-0.0002704708648802313,0.000778752877003143, ,0.00019695178124468546, ,0.0004369832208391576, ,0.10366583139647749, ,0.0,0.0,0.0,0.0,0.0,0.0, ,0.0,0.0,0.0,0.0,0.0,0.0, ,1.378835916519165
0.08942801082369184,0.07935609970822627,-0.1387786473469329, ,0.021944935598180535,0.022584800720102362,-0.10694605477548898, ,0.09375638527860662, ,6.834425229768078e-05,0.00010461910788273895,-0.00015222979202227538,-0.0003432198224840538,-0.0002704708648802313,0.000778752877003143, ,0.00019695178124468546, ,0.0004369832208391576, ,0.10361701639097073, ,0.0,0.0,0.0,0.0,0.0,0.0, ,0.0,0.0,0.0,0.0,0.0,0.0, ,1.3806750774383545
0.08942801082369184,0.07935609970822627,-0.1387786473469329, ,0.021996008666795595,0.022583870722383576,-0.1070322686135782, ,0.09369094652948178, ,6.834425229768078e-05,0.00010461910788273895,-0.00015222979202227538,-0.0003432198224840538,-0.0002704708648802313,0.000778752877003143, ,0.00019695178124468546, ,0.0004369832208391576, ,0.10356835918576734, ,0.0,0.0,0.0,0.0,0.0,0.0, ,0.0,0.0,0.0,0.0,0.0,0.0, ,1.382565975189209
0.08942801082369184,0.07935609970822627,-0.1387786473469329, ,0.02204694936297746,0.022582814365871062,-0.1071178826791274, ,0.09362594400852368, ,6.834425229768078e-05,0.00010461910788273895,-0.00015222979202227538,-0.0003432198224840538,-0.0002704708648802313,0.000778752877003143, ,0.00019695178124468546, ,0.0004369832208391576, ,0.10351985959953688, ,0.0,0.0,0.0,0.0,0.0,0.0, ,0.0,0.0,0.0,0.0,0.0,0.0, ,1.3847119808197021
0.08942801082369184,0.07935609970822627,-0.1387786473469329, ,0.02209775802483266,0.022581632299982942,-0.10720289849388252, ,0.0935613756155759, ,6.834425229768078e-05,0.00010461910788273895,-0.00015222979202227538,-0.0003432198224840538,-0.0002704708648802313,0.000778752877003143, ,0.00019695178124468546, ,0.0004369832208391576, ,0.10347151744427494, ,0.0,0.0,0.0,0.0,0.0,0.0, ,0.0,0.0,0.0,0.0,0.0,0.0, ,1.3866050243377686
0.08942801082369184,0.07935609970822627,-0.1387786473469329, ,0.022148434990306103,0.022580325173282106,-0.10728731757830169, ,0.09349723925849251, ,6.834425229768078e-05,0.00010461910788273895,-0.00015222979202227538,-0.0003432198224840538,-0.0002704708648802313,0.000778752877003143, ,0.00019695178124468546, ,0.0004369832208391576, ,0.10342333252550305, ,0.0,0.0,0.0,0.0,0.0,0.0, ,0.0,0.0,0.0,0.0,0.0,0.0, ,1.388484001159668
0.08942801082369184,0.07935609970822627,-0.1387786473469329, ,0.02219898059718024,0.0225788936334764,-0.10737114145155581, ,0.0934335328531463, ,6.834425229768078e-05,0.00010461910788273895,-0.00015222979202227538,-0.0003432198224840538,-0.0002704708648802313,0.000778752877003143, ,0.00019695178124468546, ,0.0004369832208391576, ,0.10337530464246288, ,0.0,0.0,0.0,0.0,0.0,0.0, ,0.0,0.0,0.0,0.0,0.0,0.0, ,1.3903460502624512
0.08942801082369184,0.07935609970822627,-0.1387786473469329, ,0.022249395183074956,0.022577338327418518,-0.10745437163152737, ,0.09337025432343636, ,6.834425229768078e-05,0.00010461910788273895,-0.00015222979202227538,-0.0003432198224840538,-0.0002704708648802313,0.000778752877003143, ,0.00019695178124468546, ,0.0004369832208391576, ,0.10332743358830485, ,0.0,0.0,0.0,0.0,0.0,0.0, ,0.0,0.0,0.0,0.0,0.0,0.0, ,1.392293930053711
0.08942801082369184,0.07935609970822627,-0.1387786473469329, ,0.022299679085447114,0.022575659901105986,-0.10753700963481047, ,0.09330740160129503, ,6.834425229768078e-05,0.00010461910788273895,-0.00015222979202227538,-0.0003432198224840538,-0.0002704708648802313,0.000778752877003143, ,0.00019695178124468546, ,0.0004369832208391576, ,0.10327971915027147, ,0.0,0.0,0.0,0.0,0.0,0.0, ,0.0,0.0,0.0,0.0,0.0,0.0, ,1.394845962524414
0.08942801082369184,0.07935609970822627,-0.1387786473469329, ,0.02234983264158991,0.02257385899968146,-0.10761905697670966, ,0.09324497262669472, ,6.834425229768078e-05,0.00010461910788273895,-0.00015222979202227538,-0.0003432198224840538,-0.0002704708648802313,0.000778752877003143, ,0.00019695178124468546, ,0.0004369832208391576, ,0.10323216110987538, ,0.0,0.0,0.0,0.0,0.0,0.0, ,0.0,0.0,0.0,0.0,0.0,0.0, ,1.3969359397888184
0.08942801082369184,0.07935609970822627,-0.1387786473469329, ,0.022399856188632765,0.022571936267432337,-0.10770051517124049, ,0.09318296534765352, ,6.834425229768078e-05,0.00010461910788273895,-0.00015222979202227538,-0.0003432198224840538,-0.0002704708648802313,0.000778752877003143, ,0.00019695178124468546, ,0.0004369832208391576, ,0.10318475924307244, ,0.0,0.0,0.0,0.0,0.0,0.0, ,0.0,0.0,0.0,0.0,0.0,0.0, ,1.399055004119873
0.08942801082369184,0.07935609970822627,-0.1387786473469329, ,0.022449750063540427,0.02256989234779134,-0.10778138573112847, ,0.09312137772024089, ,6.834425229768078e-05,0.00010461910788273895,-0.00015222979202227538,-0.0003432198224840538,-0.0002704708648802313,0.000778752877003143, ,0.00019695178124468546, ,0.0004369832208391576, ,0.10313751332043004, ,0.0,0.0,0.0,0.0,0.0,0.0, ,0.0,0.0,0.0,0.0,0.0,0.0, ,1.4014809131622314
0.08942801082369184,0.07935609970822627,-0.1387786473469329, ,0.022499514603113162,0.022567727883335997,-0.10786167016780882, ,0.09306020770858232, ,6.834425229768078e-05,0.00010461910788273895,-0.00015222979202227538,-0.0003432198224840538,-0.0002704708648802313,0.000778752877003143, ,0.00019695178124468546, ,0.0004369832208391576, ,0.10309042310729057, ,0.0,0.0,0.0,0.0,0.0,0.0, ,0.0,0.0,0.0,0.0,0.0,0.0, ,1.4044849872589111
0.08942801082369184,0.07935609970822627,-0.1387786473469329, ,0.022549150143985737,0.022565443515789145,-0.10794136999142578, ,0.09299945328486404, ,6.834425229768078e-05,0.00010461910788273895,-0.00015222979202227538,-0.0003432198224840538,-0.0002704708648802313,0.000778752877003143, ,0.00019695178124468546, ,0.0004369832208391576, ,0.10304348836393044, ,0.0,0.0,0.0,0.0,0.0,0.0, ,0.0,0.0,0.0,0.0,0.0,0.0, ,1.4065940380096436
0.08942801082369184,0.07935609970822627,-0.1387786473469329, ,0.0225986570226273,0.022563039886018706,-0.10802048671083235, ,0.09293911242933661, ,6.834425229768078e-05,0.00010461910788273895,-0.00015222979202227538,-0.0003432198224840538,-0.0002704708648802313,0.000778752877003143, ,0.00019695178124468546, ,0.0004369832208391576, ,0.10299670884571474, ,0.0,0.0,0.0,0.0,0.0,0.0, ,0.0,0.0,0.0,0.0,0.0,0.0, ,1.408823013305664
0.08942801082369184,0.07935609970822627,-0.1387786473469329, ,0.022648035575341015,0.022560517634037717,-0.10809902183359044, ,0.09287918313031814, ,6.834425229768078e-05,0.00010461910788273895,-0.00015222979202227538,-0.0003432198224840538,-0.0002704708648802313,0.000778752877003143, ,0.00019695178124468546, ,0.0004369832208391576, ,0.10295008430324748, ,0.0,0.0,0.0,0.0,0.0,0.0, ,0.0,0.0,0.0,0.0,0.0,0.0, ,1.411052942276001
0.08942801082369184,0.07935609970822627,-0.1387786473469329, ,0.022697286138263377,0.02255787739900457,-0.10817697686596937, ,0.09281966338419728, ,6.834425229768078e-05,0.00010461910788273895,-0.00015222979202227538,-0.0003432198224840538,-0.0002704708648802313,0.000778752877003143, ,0.00019695178124468546, ,0.0004369832208391576, ,0.10290361448251789, ,0.0,0.0,0.0,0.0,0.0,0.0, ,0.0,0.0,0.0,0.0,0.0,0.0, ,1.412950038909912
0.08942801082369184,0.07935609970822627,-0.1387786473469329, ,0.022746409047363948,0.022555119819222817,-0.10825435331294586, ,0.0927605511954357, ,6.834425229768078e-05,0.00010461910788273895,-0.00015222979202227538,-0.0003432198224840538,-0.0002704708648802313,0.000778752877003143, ,0.00019695178124468546, ,0.0004369832208391576, ,0.10285729912504263, ,0.0,0.0,0.0,0.0,0.0,0.0, ,0.0,0.0,0.0,0.0,0.0,0.0, ,1.4150910377502441
0.08942801082369184,0.07935609970822627,-0.1387786473469329, ,0.022795404638444882,0.022552245532141284,-0.10833115267820409, ,0.09270184457656928, ,6.834425229768078e-05,0.00010461910788273895,-0.00015222979202227538,-0.0003432198224840538,-0.0002704708648802313,0.000778752877003143, ,0.00019695178124468546, ,0.0004369832208391576, ,0.10281113796800412, ,0.0,0.0,0.0,0.0,0.0,0.0, ,0.0,0.0,0.0,0.0,0.0,0.0, ,1.417111873626709
0.08942801082369184,0.07935609970822627,-0.1387786473469329, ,0.022844273247140674,0.022549255174354247,-0.10840737646413467, ,0.09264354154820964, ,6.834425229768078e-05,0.00010461910788273895,-0.00015222979202227538,-0.0003432198224840538,-0.0002704708648802313,0.000778752877003143, ,0.00019695178124468546, ,0.0004369832208391576, ,0.10276513074438513, ,0.0,0.0,0.0,0.0,0.0,0.0, ,0.0,0.0,0.0,0.0,0.0,0.0, ,1.4190020561218262
0.08942801082369184,0.07935609970822627,-0.1387786473469329, ,0.022893015208917223,0.02254614938160135,-0.10848302617183449, ,0.092585640139045, ,6.834425229768078e-05,0.00010461910788273895,-0.00015222979202227538,-0.0003432198224840538,-0.0002704708648802313,0.000778752877003143, ,0.00019695178124468546, ,0.0004369832208391576, ,0.10271927718309982, ,0.0,0.0,0.0,0.0,0.0,0.0, ,0.0,0.0,0.0,0.0,0.0,0.0, ,1.4209239482879639
0.08942801082369184,0.07935609970822627,-0.1387786473469329, ,0.022941630859072023,0.0225429287887676,-0.10855810330110588, ,0.0925281383858402, ,6.834425229768078e-05,0.00010461910788273895,-0.00015222979202227538,-0.0003432198224840538,-0.0002704708648802313,0.000778752877003143, ,0.00019695178124468546, ,0.0004369832208391576, ,0.10267357700912108, ,0.0,0.0,0.0,0.0,0.0,0.0, ,0.0,0.0,0.0,0.0,0.0,0.0, ,1.4228649139404297
0.08942801082369184,0.07935609970822627,-0.1387786473469329, ,0.022990120532733416,0.02253959402988338,-0.10863260935045695, ,0.09247103433343638, ,6.834425229768078e-05,0.00010461910788273895,-0.00015222979202227538,-0.0003432198224840538,-0.0002704708648802313,0.000778752877003143, ,0.00019695178124468546, ,0.0004369832208391576, ,0.10262802994360463, ,0.0,0.0,0.0,0.0,0.0,0.0, ,0.0,0.0,0.0,0.0,0.0,0.0, ,1.4252979755401611
0.08942801082369184,0.07935609970822627,-0.1387786473469329, ,0.023038484564860073,0.022536145738124756,-0.10870654581710035, ,0.09241432603475029, ,6.834425229768078e-05,0.00010461910788273895,-0.00015222979202227538,-0.0003432198224840538,-0.0002704708648802313,0.000778752877003143, ,0.00019695178124468546, ,0.0004369832208391576, ,0.10258263570400972, ,0.0,0.0,0.0,0.0,0.0,0.0, ,0.0,0.0,0.0,0.0,0.0,0.0, ,1.4271888732910156
0.08942801082369184,0.07935609970822627,-0.1387786473469329, ,0.023086723290240845,0.02253258454581309,-0.10877991419695314, ,0.09235801155077299, ,6.834425229768078e-05,0.00010461910788273895,-0.00015222979202227538,-0.0003432198224840538,-0.0002704708648802313,0.000778752877003143, ,0.00019695178124468546, ,0.0004369832208391576, ,0.10253739400421663, ,0.0,0.0,0.0,0.0,0.0,0.0, ,0.0,0.0,0.0,0.0,0.0,0.0, ,1.4290990829467773
0.08942801082369184,0.07935609970822627,-0.1387786473469329, ,0.023134837043493926,0.022528911084415546,-0.10885271598463701, ,0.0923020889505678, ,6.834425229768078e-05,0.00010461910788273895,-0.00015222979202227538,-0.0003432198224840538,-0.0002704708648802313,0.000778752877003143, ,0.00019695178124468546, ,0.0004369832208391576, ,0.10249230455464109, ,0.0,0.0,0.0,0.0,0.0,0.0, ,0.0,0.0,0.0,0.0,0.0,0.0, ,1.4311740398406982
0.08942801082369184,0.07935609970822627,-0.1387786473469329, ,0.023182826159066968,0.02252512598454481,-0.10892495267347665, ,0.09224655631126819, ,6.834425229768078e-05,0.00010461910788273895,-0.00015222979202227538,-0.0003432198224840538,-0.0002704708648802313,0.000778752877003143, ,0.00019695178124468546, ,0.0004369832208391576, ,0.10244736706234558, ,0.0,0.0,0.0,0.0,0.0,0.0, ,0.0,0.0,0.0,0.0,0.0,0.0, ,1.4330589771270752
0.08942801082369184,0.07935609970822627,-0.1387786473469329, ,0.023230690971236163,0.02252122987595918,-0.10899662575549991, ,0.09219141171807516, ,6.834425229768078e-05,0.00010461910788273895,-0.00015222979202227538,-0.0003432198224840538,-0.0002704708648802313,0.000778752877003143, ,0.00019695178124468546, ,0.0004369832208391576, ,0.1024025812311479, ,0.0,0.0,0.0,0.0,0.0,0.0, ,0.0,0.0,0.0,0.0,0.0,0.0, ,1.4352118968963623
0.08942801082369184,0.07935609970822627,-0.1387786473469329, ,0.023278431814106135,0.02251722338756252,-0.10906773672143776, ,0.09213665326425359, ,6.834425229768078e-05,0.00010461910788273895,-0.00015222979202227538,-0.0003432198224840538,-0.0002704708648802313,0.000778752877003143, ,0.00019695178124468546, ,0.0004369832208391576, ,0.10235794676172663, ,0.0,0.0,0.0,0.0,0.0,0.0, ,0.0,0.0,0.0,0.0,0.0,0.0, ,1.4371700286865234
0.08942801082369184,0.07935609970822627,-0.1387786473469329, ,0.02332604902160925,0.022513107147404652,-0.10913828706072304, ,0.09208227905112869, ,6.834425229768078e-05,0.00010461910788273895,-0.00015222979202227538,-0.0003432198224840538,-0.0002704708648802313,0.000778752877003143, ,0.00019695178124468546, ,0.0004369832208391576, ,0.10231346335172405, ,0.0,0.0,0.0,0.0,0.0,0.0, ,0.0,0.0,0.0,0.0,0.0,0.0, ,1.439079999923706
0.08942801082369184,0.07935609970822627,-0.1387786473469329, ,0.02337354292750534,0.022508881782680977,-0.10920827826149042, ,0.09202828718808181, ,6.834425229768078e-05,0.00010461910788273895,-0.00015222979202227538,-0.0003432198224840538,-0.0002704708648802313,0.000778752877003143, ,0.00019695178124468546, ,0.0004369832208391576, ,0.10226913069584628, ,0.0,0.0,0.0,0.0,0.0,0.0, ,0.0,0.0,0.0,0.0,0.0,0.0, ,1.4411120414733887
