NicholasDascanio/dvrk_moveit_final/test/execution/third_experiment_notsharpbends/thirdexp_600vel5.0/thirdexp_600vel5.0_11.csv
Current Position (x),Current Position (y),Current Position (z), ,Planned Position (x),Planned Position (y),Planned Position (z), ,Position Error,,Cartesian linear Velocity(x),Cartesian linear Velocity(y),Cartesian linear Velocity(z),Cartesian Angular Velocity(x),Cartesian Angular Velocity(y),Cartesian Angular Velocity(z), ,Total Linear Velocity, ,Total Angular Velocity, ,MSE, ,Joint 1 Position,Joint 2 Position,Joint 3 Position,Joint 4 Position,Joint 5 Position,Joint 6 Position, ,Joint 1 Velocity,Joint 2 Velocity,Joint 3 Velocity,Joint 4 Velocity,Joint 5 Velocity,Joint 6 Velocity, ,Time Stamp
0.010186776566597087,0.019568726581558095,-0.07909369655729465, ,0.010197411139475514,0.01948360183100219,-0.07912223932757567, ,9.041021531235824e-05, ,1.145998953326131e-05,3.575457840250022e-05,1.0322085793990964e-05,-0.022310717159714263,-0.0018302098381800685,0.045078084261828535, ,3.893926927898756e-05, ,0.022385659879318714, ,7.534184609363187e-06, ,0.22168876988748878,-0.18654261257689303,0.09460972565,2.1143037001544593,1.2764581808087447,-1.1138051712774908, ,0.00020770401252065255,-0.0005126344631724782,0.0,-0.0006754835706300441,0.0,0.049799687473813026, ,0.023067951202392578
0.010187844009378982,0.01957431702356465,-0.07909544970217547, ,0.010220936815088375,0.019538971507898274,-0.0792430707335481, ,0.00015535896553131384, ,-0.0001781870204830929,0.00035586400494831704,-0.00048243123201897154,-0.2568434459063504,0.0924297609327265,0.6640345791647525, ,0.0006254036279986236, ,0.27296852641124997, ,1.1171326401985095e-05, ,0.22168876988748878,-0.18655805804264147,0.09461750339000001,2.1147230800414283,1.2770047268078064,-1.1033875704535818, ,0.00018153524059796048,-0.0008397336031238834,0.0016692153579987436,0.0022940252192208003,0.1351073102747402,0.707468156607415, ,0.041809797286987305
0.010180495886259106,0.01958794856906178,-0.07908720458269275, ,0.010244629554530602,0.019593667983492078,-0.07936345400657611, ,0.00028365398517079746, ,-0.00022202166558141624,0.0008265686431158409,-0.0006257857634425894,0.05898193501634336,0.20146158781266765,0.14589363279224166, ,0.0010602439169819994, ,0.20991817458779805, ,1.6544473937952173e-05, ,0.22168876988748878,-0.18657350350838994,0.09464991064000002,2.115771529758851,1.281513731300066,-1.0966911612777124, ,-0.0002499148565125699,-0.0009759839579291057,0.002765898857440528,0.04170103372006935,0.23554844404008593,0.1371865511033209, ,0.06124091148376465
0.010199247735119599,0.01961666657195856,-0.07918812668060984, ,0.010268488631096001,0.0196476951089728,-0.0794833914255622, ,0.0003048579036151713, ,0.0016907083880713701,0.0017606872575822007,-0.00725746162706484,0.1534657336835422,-0.005581107621276546,-0.3271800631012094, ,0.007656974842640262, ,0.15356718450624293, ,1.9863834991181926e-05, ,0.22168104715461456,-0.1866275626385095,0.09476787303,2.115981219702335,1.2835632787965474,-1.0977906786521743, ,-0.0003567432864034959,-0.003656132124778614,0.007603251322195704,0.007045519188643262,0.0,-0.34413624911372387, ,0.08028793334960938
0.010248191764143957,0.019662028201304926,-0.07935456470337726, ,0.01029251331989096,0.0197010567253095,-0.07960288526222535, ,0.0002552464023966603, ,0.0033463703318393928,0.002469969434600608,-0.010495521262473065,-0.13138284009599088,-0.2576354880648084,-0.1653408567289973, ,0.011289592994289046, ,0.28920147865238266, ,2.0952451385121177e-05, ,0.22165015622311765,-0.18670478996725173,0.09492472412000001,2.117449049306727,1.280284002802177,-1.1052448127408903, ,-0.0014101265609633411,-0.0032139844452961936,0.008427942603174603,0.0759764288936893,-0.3256379575480474,-0.0063135818750365, ,0.1001579761505127
0.010292778350937722,0.019703339824192593,-0.07953428325586981, ,0.01031670289783271,0.01975375666326194,-0.07972193778110978, ,0.0001957765625628208, ,0.0011376969066781715,0.0013056177259990203,-0.005433633873842168,-0.09825642652591657,0.0032761381123612467,0.21298896243529852, ,0.00570292635169638, ,0.09831102903457815, ,2.073071023530842e-05, ,0.221626988024495,-0.18679746276174244,0.09509583440000001,2.1176587392502113,1.27809781880593,-1.103380447541607, ,-0.0007350264743018857,-0.002864824464824154,0.005815557327491786,0.0,0.01153166186584173,0.23490690651864227, ,0.11890697479248047
0.010306026480834968,0.019722399764335728,-0.07958569729672449, ,0.010341056643647307,0.019805798743392226,-0.07984055123959598, ,0.00027043120051404755, ,0.001134994559425494,0.0014779373650202197,-0.00488163383969922,-0.1058738215041357,0.003959045873499516,0.21632211934800769, ,0.005225213914256997, ,0.10594781791686816, ,2.1607433820877355e-05, ,0.22161926529162077,-0.1868437991589878,0.09515416745000001,2.118287809080665,1.278371091805461,-1.1009895636645017, ,-0.0005481091542528077,-0.004236796531290562,0.005299005828343314,0.021541739824793883,0.008806997497017728,0.26226796151719756, ,0.1387948989868164
0.010332014560776983,0.019763318332523153,-0.07970454936437352, ,0.010365573837867879,0.01985718677607616,-0.07995872788790866, ,0.0002730278952789095, ,0.0011779706794510078,0.0017874801775305826,-0.0057377817154968536,0.007045994357138393,0.028740816718351818,0.0022566250071557594, ,0.0061241194731488586, ,0.029591900511790784, ,2.2301989394903403e-05, ,0.22158065162724963,-0.1869441946863527,0.09529157419,2.1193362587980875,1.2794641838035845,-1.0988587935088725, ,-0.0029713412160554866,-0.0041358999688528054,0.006331006168521463,0.03918705116635451,0.02339539517006743,0.03658051890436106, ,0.15891790390014648
0.010360456071896779,0.01980519575802106,-0.07984322610497752, ,0.01039025376283247,0.01990792456151454,-0.08007646996912769, ,0.0002566004863908226, ,0.0012668160065443283,0.0018827142872289743,-0.006143533642924403,0.011013484948404033,0.005648327668212144,-0.016525684034146542, ,0.006549232130831599, ,0.012377416830847119, ,2.2666995834488062e-05, ,0.22152659249713005,-0.18708320387808874,0.09544064754,2.119755638685057,1.2796008203033498,-1.0988885326724283, ,-0.002397703000605159,-0.006696686580866414,0.006560466029654037,0.017193486864686747,0.0,-0.0017009288458035149, ,0.1784358024597168
0.01039129777282085,0.01985188453526835,-0.07996269855662762, ,0.010415095702682594,0.019958015889744687,-0.0801937797191968, ,0.0002553991181719581, ,0.0016023842632847778,0.0024676665455848623,-0.006155808943651873,0.01678900070820048,0.01078601309640616,-0.04201905381420621, ,0.0068228291242098255, ,0.019955165107218304, ,2.3175868662820393e-05, ,0.2215111470313816,-0.18726854946707014,0.09557027654000001,2.1208040884024792,1.2794641838035845,-1.0988587935088725, ,-0.0005892955626428912,-0.009919171183540413,0.006755221170483461,0.05664264012550231,0.0,0.011321488133265957, ,0.19607996940612793
0.010419767594896575,0.019898531822483752,-0.08009185853862476, ,0.010440098943360804,0.020007464540651523,-0.0803106593669342, ,0.00024526211139654243, ,0.0013109860569423908,0.0023033666542009884,-0.006342578072835956,0.012428337910211256,0.0014225790687464857,0.002798690041604765, ,0.006874043860436292, ,0.012509488564802931, ,2.350931678492184e-05, ,0.22148797883275895,-0.18750795418617108,0.09570897957,2.1210137783459637,1.2793275473038188,-1.098584018124895, ,-0.0014225790687464838,-0.012739554511809742,0.006859953281653747,0.0,0.0,0.0, ,0.21384596824645996
0.010433533641204498,0.01992294010094951,-0.08014559171668782, ,0.010465262772609223,0.020056274283979318,-0.08042711113404075, ,0.0003131100836617286, ,0.0020146404088509286,0.003531691177489245,-0.007243171907983404,0.03640412595053238,0.022281639103252038,-0.09984400054177549, ,0.008306332393946823, ,0.0426817502852627, ,2.4362478403387656e-05, ,0.22145708790126203,-0.1877319134395236,0.09583083083,2.1224816079503555,1.2791909108040536,-1.0982275640007766, ,-0.0017131845636141406,-0.01489981811249345,0.008114524462557312,0.11205737827261887,-0.00023378034775206066,0.004874434948547011, ,0.23401999473571777
0.010480771381117394,0.020011651373858533,-0.08034485703883447, ,0.010490586479967244,0.0201044488793428,-0.08054313723511039, ,0.00021914093507319175, ,0.0008759894440217108,0.002073938517904575,-0.004554192989879536,-0.008198885566035983,-0.0013464355439341056,0.0506393344170042, ,0.005080280727593073, ,0.008308706953540957, ,2.4361530195908772e-05, ,0.22142619696976515,-0.18809488188461215,0.09598768192000001,2.122900987837325,1.2791909108040536,-1.0971657403789494, ,-0.0014576315671065855,-0.014640071206181852,0.005016948510236221,-0.006239789721326379,-0.00023378034775206066,0.04655025336199011, ,0.2542088031768799
0.010486539670838261,0.020026745453212903,-0.08038052066422459, ,0.010516069356769912,0.020151992076238526,-0.08065873987764005, ,0.00030653653884009146, ,0.0009625522420813385,0.002163732372793824,-0.00459243024400834,-0.0026657471536736237,-0.0005841812375382161,0.03708741573608298, ,0.005167074621668852, ,0.002729005966074807, ,2.4998630685521274e-05, ,0.2214107515040167,-0.18821072287772553,0.09602657062000002,2.12269129789384,1.2791909108040536,-1.0969207041585276, ,-0.0008697838912443114,-0.015015338854188414,0.0050858274329501916,0.0,-0.0003240128742632963,0.03799420150655772, ,0.2753748893737793
0.01051781211962697,0.020094890473104764,-0.08049739354760338, ,0.010541710696145887,0.020198907614056186,-0.08077392126203856, ,0.0002964089816825411, ,0.0012141505986310317,0.002636880866366067,-0.004496778798210925,0.013493435258734997,0.01125729751353334,-0.02767076384146705, ,0.005352412721343791, ,0.017572693036390027, ,2.5487817709581885e-05, ,0.22138758330539401,-0.1886123049871852,0.09616008849,2.1241591274982317,1.2791909108040536,-1.0961855954972624, ,-0.0010776526106229542,-0.01513025216174598,0.005138326296774195,0.061802229113225624,-0.0004986666115032308,0.031809398944341, ,0.29374098777770996
0.010538875420253929,0.020140904089362525,-0.08060236239727478, ,0.010567509793015387,0.020245199222090147,-0.08088868358163623, ,0.0003060673498239514, ,0.0014854950111822366,0.002709093603223024,-0.006659808266723307,0.0013713304348928446,0.004640506494878146,0.013995777989044788, ,0.007341589046574817, ,0.004838887743019406, ,2.5982507970470367e-05, ,0.22135669237389713,-0.18891349156927995,0.0962754583,2.1241591274982317,1.2791909108040536,-1.0954504868359973, ,-0.0015964910112282525,-0.014306790525926547,0.0072834071879286704,0.025129904946979656,-0.0005237947201830864,0.03933446861309107, ,0.31241297721862793
0.010576168592702117,0.020201247710036483,-0.08075773751742649, ,0.01059346594408854,0.020290870619550747,-0.08100302902269481, ,0.00026172387516538575, ,0.0017388761374405662,0.0027269065134679932,-0.0076952672780980945,0.009739069921418195,0.0037339384979817947,-0.002904761488958043, ,0.008347265889854093, ,0.010430328501836563, ,2.6152515918221298e-05, ,0.22133352417527444,-0.18919150995275205,0.09644397600000001,2.12499788727217,1.2790542743042879,-1.0949306752315981, ,-0.0010038880379716723,-0.012587470693523116,0.008392419135932562,0.01906164255616521,-0.00048623354466343857,0.014781438059986926, ,0.33121395111083984
0.010595130847107333,0.020231882332336276,-0.0808331826771575, ,0.010619578447863114,0.02033592551557549,-0.0811169597644168, ,0.00030323605394911847, ,0.0017848966585639415,0.0030950976728650425,-0.006641981694823891,0.023148588697450047,0.015220158831710226,-0.06797344519166956, ,0.007541976300725359, ,0.027703977703923275, ,2.6544789968424343e-05, ,0.221318078709526,-0.18932279641161384,0.09652564227,2.1256269571026234,1.2789176378045226,-1.0949009360680424, ,-0.001570178582595327,-0.01311818379298739,0.007377865456229736,0.08807017181965741,-0.002900131278960305,0.0160592937750572, ,0.34858179092407227
0.01062828347907023,0.020283040349297073,-0.08097770074113378, ,0.010645846604622724,0.020380367609240523,-0.0812304779789551, ,0.00027143579511157445, ,0.0016235521616504275,0.0024706366525131095,-0.0066968118206280364,-0.0015539523976406452,-0.00991401515051776,-0.0030569169405473026, ,0.007320331662653295, ,0.010035061085497678, ,2.687118485993915e-05, ,0.22130263324377755,-0.18957764659646326,0.09667860449000001,2.125836647046108,1.2785077283052262,-1.094239967396391, ,-0.0002768376106283122,-0.011811231724213321,0.00714616936742934,0.02181074413652794,-0.01630562152501199,0.022073472864165902, ,0.367567777633667
0.010658978567936567,0.020331915738710817,-0.08109943557308268, ,0.010672269716435147,0.020424200589571975,-0.08134358583142252, ,0.00026134746406707664, ,0.0015332488524107196,0.002222166830790156,-0.006255935182161005,-0.0036266173131416068,-0.009009935350272934,-0.006226820344652484, ,0.006813633573261964, ,0.009712429076701936, ,2.711657102495271e-05, ,0.22129491051090333,-0.18979388311694156,0.09681212236000002,2.126675406820046,1.2785077283052262,-1.0939949311759691, ,-0.0004122526971519334,-0.009497098622677598,0.006648084941569284,0.02608892394698997,-0.01630562152501199,0.023687038803362648, ,0.3836219310760498
0.010674198189827084,0.02035716446179933,-0.0811581047924258, ,0.010698847087149698,0.020467428135557263,-0.08145628547990134, ,0.0003188688888449371, ,0.0017417241829032688,0.0026080593775103743,-0.0067178172083954555,0.008056401643564517,0.0018314041704506658,-0.04935284470573355, ,0.007413814462970055, ,0.008261938936850502, ,2.7634014276959386e-05, ,0.2212562968465322,-0.18995606050730027,0.09694304765,2.1277238565374685,1.2785077283052262,-1.0937498949555475, ,-0.0022467410754522573,-0.007601642155199376,0.007204347137042063,-0.0016403468450307249,-0.012294506158055364,0.019759040719163547, ,0.3997328281402588
0.01070254244701397,0.020398573343376223,-0.08128842245688961, ,0.010725578022396147,0.020510053916156287,-0.08156857907545269, ,0.00030240087097304757, ,0.00106892045804886,0.0017438441875063915,-0.005447834265421132,-0.01002498651630097,-0.006892186456872952,0.032839183131545414, ,0.005819147848219, ,0.012165631262275921, ,2.8030739919678277e-05, ,0.22124085138078375,-0.19004873330179095,0.09701434360000001,2.1277238565374685,1.2782344553056955,-1.093282022927733, ,-0.0016754757217706854,-0.008623563703765899,0.005765042171552661,-0.0070961973773093386,-0.007570338210500644,0.029393502577034006, ,0.4157099723815918
0.010736545441706425,0.020444297855725196,-0.0814236120603028, ,0.010752461829581873,0.02055208159031312,-0.0816804687621264, ,0.0002790090143999281, ,0.001960629818439718,0.002772046661305878,-0.00739836229406353,0.004163931947986596,0.006436909022961471,-0.03796284434262846, ,0.008140274971500225, ,0.007666296685611883, ,2.8287843652272183e-05, ,0.22124085138078375,-0.1902186334250239,0.09715823179000001,2.1283529263679224,1.2779611823061645,-1.092569114679497, ,-0.000780635412602834,-0.008907799574997507,0.008008452247360484,0.07257293936199856,-0.008347553306195594,0.03575909681825605, ,0.4311378002166748
0.010748116901013741,0.02046058978099178,-0.08146624449490512, ,0.010779497817890818,0.02059351480696702,-0.08179195667697048, ,0.0003531886889756515, ,0.002133739998444149,0.0030692631445178318,-0.007423315659246789,0.011637805412702682,0.012678484029955204,-0.06978547720910219, ,0.008311367998595328, ,0.017209952050482494, ,2.886198817606166e-05, ,0.22124085138078375,-0.19027269255514348,0.09720489823,2.1287723062548913,1.2779611823061645,-1.0924874359393564, ,-0.0006773432866882726,-0.009282013346297099,0.008126944653061225,0.10612458142774557,-0.008347553306195594,0.036025020845063024, ,0.4496169090270996
0.010783877537810644,0.020507773081188514,-0.08162659558483125, ,0.010806685298280619,0.020634357205063767,-0.08190304495004035, ,0.0003049065199031235, ,0.0014965769480310366,0.002071372601855741,-0.006074683330719268,-0.0026040389501399185,-0.002095456134000166,-0.003785493278749317, ,0.00659030383105476, ,0.003342446258538533, ,2.918517863237009e-05, ,0.2212254059150353,-0.19043486994550218,0.09737600851000001,2.128981996198376,1.2779611823061645,-1.0920790422386535, ,-0.00028624379410596695,-0.007697710379865099,0.0064989031089351295,0.028608049609274707,-0.008347553306195594,0.027149277731354192, ,0.4646618366241455
0.010813784041357305,0.02055223776682185,-0.08175072424261975, ,0.01083402358348131,0.020674612413567307,-0.08201373570440877, ,0.00029079240406836715, ,0.001621666207789766,0.0021417096612643075,-0.006961760278968141,-0.009781852757595324,-0.0030929669202383095,0.018737199326268425, ,0.00746209271883288, ,0.010259194480466936, ,2.942699709232539e-05, ,0.22120996044928687,-0.19061249280160936,0.09750952638,2.129611066028829,1.277824545806399,-1.091559230634254, ,-0.00043421140048588636,-0.007522729253773667,0.007405305216178523,0.01640340788284811,-0.0065235369238588236,0.03878109474978093, ,0.4799959659576416
0.010845766004957189,0.020599083605704005,-0.08187248884595812, ,0.010861511987993164,0.020714284051470706,-0.08212403105617519, ,0.00027711470947516673, ,0.001720189317630278,0.0024582387331234705,-0.006895629137706052,0.003030166404084943,0.004620884397987175,-0.020429180824717577, ,0.007520085781578459, ,0.005525799984180353, ,2.9597196001454224e-05, ,0.22120996044928687,-0.19080556112346497,0.09764045167,2.1304498258027675,1.277551272806868,-1.090846322386018, ,-0.0008666849949109541,-0.008437744975807756,0.007439893283512378,0.04851120512391172,-0.005476246075560104,0.02880654252713316, ,0.49730682373046875
0.010861189029703181,0.020619985194355733,-0.08194547508826606, ,0.010889149828084426,0.020753375727807707,-0.082233933114475, ,0.0003190342827112318, ,0.0018363167581575035,0.0025727502429186925,-0.007714080591683785,-0.0002289802189114859,0.0021876598520665404,-0.0019746688261880656, ,0.008336554589500432, ,0.002199604567362138, ,3.00410607264584e-05, ,0.2211945149835384,-0.1908827884522072,0.09771693278000002,2.1304498258027675,1.2774146363071028,-1.0905715470020407, ,-0.0007142376307627679,-0.00932473758820396,0.008283313322932919,0.03203750343316079,-0.004374766156395238,0.03125106150896921, ,0.5107619762420654
0.010879098296916597,0.020646401687443142,-0.08202359514734897, ,0.010916936421789905,0.02079189104166393,-0.08234344398148999, ,0.00035341498636429935, ,0.0017523059956129727,0.0025109739910637273,-0.008127191608260318,0.0013836439361729648,-0.0030931930294879296,0.014455720014936155, ,0.008684860973178362, ,0.003388551047680931, ,3.0593676793173035e-05, ,0.22118679225066418,-0.19099090671244634,0.09780119163,2.130659515746252,1.2774146363071028,-1.090326510781619, ,-0.0010092626630250137,-0.010512346123107055,0.008656962782608697,0.0,-0.004374766156395238,0.01496737820709092, ,0.5249538421630859
0.010926554406529789,0.02071361138103862,-0.08219477844003535, ,0.01094487108890854,0.020829833582188175,-0.08245256575245659, ,0.00028336795750186027, ,0.0024447006779630843,0.0034940070010928814,-0.007960945399943844,0.022485264955149048,0.017152451928240123,-0.0881525587375132, ,0.00903112938615134, ,0.028280624379208977, ,3.085387310877322e-05, ,0.22118679225066418,-0.19120714323292465,0.09798915368000001,2.1325467252376127,1.2774146363071028,-1.0901631533013378, ,0.0009432528893809535,-0.011578445773361491,0.008824826326869806,0.11873130593243943,-0.004374766156395238,0.027172733086512354, ,0.5398368835449219
0.010947030962752978,0.02074340591721821,-0.08227557809069386, ,0.010972953151001396,0.020867206928604005,-0.0825613005156766, ,0.00031246752535544044, ,0.001559017167503415,0.0021550501151724527,-0.006887203534024852,-0.01593860594254743,-0.013678333190500432,0.05195210673121705, ,0.007382976909523663, ,0.021003236483131193, ,3.120731784721288e-05, ,0.22118679225066418,-0.19133070695891222,0.09807600511,2.132966105124582,1.2772779998073371,-1.08988837791736, ,0.0008546645103135133,-0.010800180123726022,0.0073000969385884525,-0.017806726063587713,-0.009904024227624044,0.03951644180578006, ,0.5528957843780518
0.010961326961039488,0.020763545358321187,-0.08234220178912187, ,0.011001181931390167,0.02090401465022072,-0.08266965035252544, ,0.00035852838423682735, ,0.0015865303146275892,0.0022505900311194996,-0.007101664067391693,-0.00818615150169394,-0.010263119027647639,0.04204945064075608, ,0.007616814718337916, ,0.013128010912583147, ,3.170759341616408e-05, ,0.22118679225066418,-0.19143110248627715,0.09814600477,2.132756415181097,1.2771413633075719,-1.0896136025333825, ,0.0007009476385743556,-0.01134045668719775,0.007563538233618236,-0.017774942536394615,-0.006432091958360054,0.027249679276992324, ,0.566694974899292
0.010978701593374794,0.020787198647439397,-0.08241959842763226, ,0.011029556755154653,0.020940260306444775,-0.0827776173374632, ,0.00039267245731482733, ,0.0018125177534306478,0.0026084883262504264,-0.007940199055285601,-0.0016481065655038188,-0.0047852721415442764,0.018808359151216137, ,0.008551970123441988, ,0.005061131608488989, ,3.2302434194567145e-05, ,0.2211945149835384,-0.19154694347939052,0.09822767104,2.1325467252376127,1.2770047268078064,-1.089338827149405, ,-6.402940236890377e-05,-0.011598257340316644,0.008495366144000002,0.003996240322794666,-0.005850566155021026,0.024331477376575504, ,0.5806999206542969
0.011019036319250487,0.02084656388964026,-0.08258565177004765, ,0.011058076949131149,0.02097594744679125,-0.0828852035380429, ,0.0003286267447296535, ,0.0019052513894919293,0.002640916568566895,-0.00800399762664884,0.001960534988493878,-0.0009052016044913305,0.00043757883214073126, ,0.008641087963138226, ,0.0021594106918159666, ,3.265110666180416e-05, ,0.2211945149835384,-0.1917940709313657,0.09840785535,2.133175795068066,1.2770047268078064,-1.0890937909289835, ,-8.489873546429766e-05,-0.01024850125894662,0.008582333793103449,0.02114026967943566,-0.005216203928782413,0.022280526448230715, ,0.5949938297271729
0.011056724951108814,0.02090005752279802,-0.08273714804586593, ,0.01108674184191025,0.02101107961089507,-0.08299241101492057, ,0.0002799751795238313, ,0.002039015893755216,0.002783617609225878,-0.008033434533741756,-0.0017206413431516876,-0.0029043367465514595,-0.014583094091904334, ,0.008743122052064319, ,0.0033757584496887888, ,3.282192869798756e-05, ,0.2211945149835384,-0.192010307451844,0.09856989160000001,2.13380486489852,1.2767314538082757,-1.0883808826807473, ,-8.623500904403047e-05,-0.009843432887975722,0.008600870151187908,0.044300878475599915,-0.012575118462644088,0.032678667847927556, ,0.6078829765319824
0.011076342917680546,0.020928284426167627,-0.08281994285884849, ,0.011115550763834973,0.02104566032852227,-0.08309924182186475, ,0.0003054869365383641, ,0.0018749858966124865,0.002631085536976341,-0.0076962677567058895,-0.0037058917349110047,-0.007833865335512866,0.009696682984633824, ,0.008346898861151518, ,0.008666201742604802, ,3.3067816476079936e-05, ,0.2211945149835384,-0.19212614844495735,0.09865933561000001,2.1340145548420044,1.2767314538082757,-1.0879724889800444, ,0.0005367582721167729,-0.011372355003627025,0.008227691900826447,0.015258799845785914,-0.011264115567106003,0.027935856967351243, ,0.6231169700622559
0.011096045092217444,0.02095666012728554,-0.08289866420039663, ,0.011144503046998745,0.021079693119581168,-0.08320569800576569, ,0.0003342978435679908, ,0.002062193968488052,0.0027090085356452267,-0.008227065593863239,-0.0041583369993396565,-0.0038526364613778053,0.00024469564839117177, ,0.008903705941662465, ,0.005668733245949305, ,3.3500590185352264e-05, ,0.2211945149835384,-0.1922342667051965,0.09874489075000001,2.1344339347289734,1.2767314538082757,-1.088054167720185, ,0.0004952253489318221,-0.009634727596401523,0.008795588912203204,0.030869630383731608,-0.00988623127438298,0.034104988897544236, ,0.6352388858795166
0.011105408976669931,0.020969071478283603,-0.0829358561359874, ,0.01117359802524322,0.021113181494134266,-0.08331178160664549, ,0.00040833491462684014, ,0.0020920001763761243,0.0027318590805125286,-0.008207762903899645,-0.0020409673220357885,-0.0018700645242114241,-0.00831108796742925, ,0.00889982531628389, ,0.0027681495054505717, ,3.414850072758578e-05, ,0.2211945149835384,-0.1922728803695676,0.09878507574,2.1346436246724583,1.2767314538082757,-1.0879724889800444, ,0.00047210419587123085,-0.00923720547966915,0.008790734834437087,0.03867334164207919,-0.009372589324037693,0.032830169789759, ,0.6464259624481201
0.011150230577543059,0.02102968174210467,-0.08312349388726374, ,0.01120283503415666,0.021146128952408662,-0.08341749465766667, ,0.011207297141073443, ,0.002255910511572501,0.0027684946877729903,-0.009027022760364177,0.015062396771671326,0.0021321249003051724,-0.040461980256319426, ,0.009707771885895519, ,0.015212550514523695, ,6.789821280337696e-05, ,0.2211945149835384,-0.19250456235579436,0.09898470440000001,2.1350630045594268,1.2764581808087447,-1.0871779019916674, ,0.0003761355374713781,-0.0077997880844766455,0.009487082501488983,0.038649239079403055,-0.0058803995768233926,-0.004817813242399164, ,0.6583349704742432
0.011163782590905337,0.021044754203749776,-0.08317942544397566, ,0.011232213411071622,0.021178538984808086,-0.08352283918514282, ,0.000374852160743236, ,0.002425337175739521,0.002895318864075269,-0.009981750711559965,0.007560973348974442,-0.0027336796438618438,-0.029341661436102236, ,0.010672416737010512, ,0.008039976572621748, ,6.780020944169918e-05, ,0.22120223771641262,-0.1925508987530397,0.09904303745000001,2.1350630045594268,1.2763215443089793,-1.08690312660769, ,0.0,-0.007560602203989407,0.010576900079681276,0.03269997846842534,-0.010705657673644162,0.003654514038338103, ,0.6750538349151611
0.0112150679977062,0.021107742390719598,-0.08337930333751106, ,0.011261732495063055,0.021210415071924033,-0.08362781720854698, ,0.00027290730821385355, ,0.0024472169124881865,0.0030224905935806426,-0.009377368280562702,0.010303538043470697,0.006764888612246597,-0.05875522187252767, ,0.010151815397964798, ,0.012325848515951752, ,6.740407349957983e-05, ,0.2212176831821611,-0.19272079887627264,0.09925822159000001,2.1361114542768496,1.2763215443089793,-1.08690312660769, ,-0.0005640553017155907,-0.006521399519637861,0.010037058298676748,0.07632395947621229,-0.009512247331569253,0.017404443226426623, ,0.6871068477630615
0.011236050497065116,0.021132563860125356,-0.08346814072624022, ,0.011291391626946421,0.02124176068454683,-0.0837324307405221, ,0.000291265855824865, ,0.0021786739558884854,0.0027695424884223874,-0.008453216324810765,0.0066404697753748645,0.004933477212795915,-0.042706267902426875, ,0.00915826686853418, ,0.008272544535027496, ,6.707512412407803e-05, ,0.2212176831821611,-0.19278258073926643,0.09935285076000001,2.136321144220334,1.2763215443089793,-1.0866580903872685, ,-0.0005232266285840942,-0.006853602658521592,0.009055606321773737,0.0633486299003376,-0.00854336012509901,0.021087694129444265, ,0.6991739273071289
0.011253597830401125,0.02115383732635025,-0.08354477383840027, ,0.011321190149275582,0.021272579283677186,-0.08383668178689026, ,0.00032230207010239926, ,0.0018471995515788972,0.0024045468977238653,-0.007513701893945849,0.006944593475558904,0.005902988094167612,-0.023392419413844758, ,0.008102450747631372, ,0.009114418414393175, ,6.684612791081499e-05, ,0.2212176831821611,-0.19285208533513445,0.09943322074000001,2.136321144220334,1.2761849078092138,-1.0863833150032907, ,-0.0004712112569248524,-0.006745249521934391,0.008118660305810398,0.0408436900677754,-0.002171561117895834,0.016124954352062872, ,0.711615800857544
0.011291708211619279,0.021199749181185782,-0.08370095493853047, ,0.01135112740634074,0.02130287432053747,-0.0839405723466612, ,0.0002675480094243712, ,0.0017525064401006684,0.0019764516992830028,-0.007191189461889341,-0.01042351410505746,-0.007787883540626684,0.01358509976730858, ,0.007660995106314929, ,0.013011562439216003, ,6.647104712980229e-05, ,0.2212254059150353,-0.19298337179399627,0.09959914586000002,2.1367405241073034,1.2760482713094483,-1.0858635033988915, ,0.0006934727812368443,-0.005253334632825796,0.007574327874465051,0.010945482735286335,-0.010032647794924037,0.028800907794323365, ,0.7261137962341309
0.011311543676451007,0.021225171718139122,-0.0837683247293391, ,0.011381202744166485,0.021332649236582863,-0.08404410441204364, ,0.00030406945929908235, ,0.002010709722176057,0.0025765418342802433,-0.006684652032904945,0.0040126805932132565,0.006551494822791775,-0.049474487756349404, ,0.007440839617386585, ,0.0076826868092418794, ,6.620928794891905e-05, ,0.22123312864790953,-0.19304515365699007,0.09967303439000001,2.1375792838812413,1.2760482713094483,-1.0857818246587507, ,0.0009608828810962161,-0.006787969418578717,0.00727342991780822,0.08419227954898954,-0.009106668388998762,0.036070413795147145, ,0.7375907897949219
0.011328743554305722,0.021245415168033417,-0.08383736190435898, ,0.011411415510509913,0.02136190746351276,-0.08414727996845354, ,0.0003412540310396341, ,0.0019471544282550182,0.0024327982608977044,-0.007789173389361023,0.0005643835570491897,0.004866473981589443,-0.03200427173032036, ,0.008389346806231693, ,0.004899088603100493, ,6.623710154917801e-05, ,0.22124085138078375,-0.19309921278710965,0.09974692292000001,2.1377889738247258,1.2760482713094483,-1.0856184671784697, ,-0.0012176277581055026,-0.004902556646946406,0.008304906944734099,0.05876304908549947,-0.00816334273531918,0.028527723881413135, ,0.7469167709350586
0.0113485919439294,0.021267887233519356,-0.0839256057785045, ,0.011441765054858496,0.021390652423282214,-0.08425010099452354, ,0.0003592348335517622, ,0.0021057563743629854,0.0024999480720606132,-0.008891786238486606,-0.0013492125474599736,0.0009222843793612078,-0.014083465337611286, ,0.009473532223099771, ,0.001634297216311145, ,6.631250296263466e-05, ,0.22124085138078375,-0.19315327191722922,0.09984025580000001,2.1377889738247258,1.2760482713094483,-1.0855367884383291, ,-0.0009246028242152056,-0.0051758903124634725,0.00941419120567376,0.03524909742044395,-0.007325667341642071,0.023049480163961217, ,0.7562987804412842
0.011363523010102045,0.021283932623395334,-0.08399198774445629, ,0.011472250728428071,0.021418887528112884,-0.0843525694621133, ,0.0004000671420501574, ,0.002392083649717265,0.0027023133396494783,-0.01027727304772403,-0.001723941206405632,-0.00014365788591548913,-0.009385595507452535, ,0.010892515910953124, ,0.0017298832958495154, ,6.649421284920491e-05, ,0.22124085138078375,-0.1931841628487261,0.09991025546000001,2.1377889738247258,1.2760482713094483,-1.0855367884383291, ,-0.000799239564706237,-0.004941071526900397,0.010843302600408444,0.027939553518641514,-0.00686560981082462,0.02038446421292471, ,0.7679359912872314
0.011363523010102045,0.021283932623395334,-0.08399198774445629, ,0.011502871884160843,0.021446616180504783,-0.08445468733631811, ,0.000509877397777479, ,0.002392083649717265,0.0027023133396494783,-0.01027727304772403,-0.001723941206405632,-0.00014365788591548913,-0.009385595507452535, ,0.010892515910953124, ,0.0017298832958495154, ,6.695862733488935e-05, ,0.22124085138078375,-0.1931841628487261,0.09991025546000001,2.1377889738247258,1.2760482713094483,-1.0855367884383291, ,-0.000799239564706237,-0.004941071526900397,0.010843302600408444,0.027939553518641514,-0.00686560981082462,0.02038446421292471, ,0.7774748802185059
0.011399530515024915,0.021324541779990804,-0.08414174417191778, ,0.011533627876723362,0.021473841773247307,-0.08455645657547928, ,0.0004607157128518991, ,0.0025708462886631215,0.002815223135626788,-0.01096793082114874,0.006721885304827636,0.001950966969696993,-0.008327262957785384, ,0.011611642366211842, ,0.006999275351854794, ,6.728400866868121e-05, ,0.22124085138078375,-0.19326911291034257,0.10006840284000001,2.1382083537116947,1.275911634809683,-1.0853436917944923, ,0.0004433760144329638,-0.005742125090875432,0.011618389146608317,0.01358396507765631,-0.00011690333201156436,0.0038705195834112, ,0.7877647876739502
0.011453506470167539,0.02138151913151507,-0.0843342767122912, ,0.011564518062504745,0.021500567689430292,-0.0846578791311927, ,0.00036223563918234174, ,0.0030903850987438262,0.003149076613073376,-0.011163273505451207,0.00020336973163670544,0.004427606957591556,-0.04712017496575251, ,0.012003576089276581, ,0.004432255549389633, ,6.734986478051523e-05, ,0.22127174231228064,-0.19335406297195906,0.10027192037,2.1396761833160864,1.2755017253103864,-1.0845193656425598, ,0.002015079306263812,-0.003436943921703156,0.011878308366890382,0.07954688371030516,-0.009438249779152042,0.03465030032117719, ,0.7976658344268799
0.011482291534449969,0.02141027115435199,-0.08445326991521018, ,0.01159554179961412,0.021526797302455995,-0.0847589569483189, ,0.0003461914614234735, ,0.00277480018339922,0.0029752458848687504,-0.010681603805186096,-0.003321287625567303,-0.0032797733311009736,-0.012236598176569946, ,0.011430147154966416, ,0.004667732376809844, ,6.737364850223034e-05, ,0.22129491051090333,-0.1934081221020786,0.10039766050000001,2.1396761833160864,1.2755017253103864,-1.084437686902419, ,0.0019232322982469996,-0.006142928179524563,0.01132916893314367,0.03799378439827294,-0.009438249779152042,0.028487418738956428, ,0.8115639686584473
0.01153027296315345,0.021456815393298162,-0.08464418562822949, ,0.011626698447879358,0.02155253397604959,-0.08485969196499274, ,0.0002547604804000851, ,0.0021117682872860036,0.0023290173854347025,-0.008510972669349694,0.013319407579682791,0.01520186526905826,-0.0063795560315439495, ,0.009073066904815671, ,0.020211464105171835, ,6.716940033777495e-05, ,0.2213489696410229,-0.19350079489656932,0.10059858545000001,2.1396761833160864,1.2753650888106212,-1.0841629115184415, ,0.0015778281167522085,-0.004947148717708986,0.009202086377816292,0.019836492754557636,0.01597148207208294,0.007977979254697906, ,0.8222489356994629
0.011551771514550668,0.021480379630788096,-0.084729244138568, ,0.011657987368844248,0.021577781064271297,-0.08496008611263198, ,0.00036157541263290955, ,0.0021117682872860036,0.0023290173854347025,-0.008510972669349694,0.013319407579682791,0.01520186526905826,-0.0063795560315439495, ,0.009073066904815671, ,0.020211464105171835, ,6.723261510667921e-05, ,0.2213489696410229,-0.19350079489656932,0.10059858545000001,2.1396761833160864,1.2753650888106212,-1.0841629115184415, ,0.0015778281167522085,-0.004947148717708986,0.009202086377816292,0.019836492754557636,0.01597148207208294,0.007977979254697906, ,0.8321809768676758
0.011551771514550668,0.021480379630788096,-0.084729244138568, ,0.01168940792576728,0.0216025419115269,-0.08506014131594831, ,0.0003786295637244323, ,0.0019762663365811054,0.0020993269212290153,-0.008266059860313077,0.011112900041709475,0.009329230518512989,0.004616173589114188, ,0.00875445873652847, ,0.014509688170770087, ,6.749952290059094e-05, ,0.22136441510677135,-0.1935548540266889,0.10068932575000002,2.139885873259571,1.2753650888106212,-1.084081232778301, ,0.001676261871718099,-0.004659569960707462,0.008869048730512249,0.0,0.01330969190807534,-9.60973577555143e-05, ,0.8396158218383789
0.011573961338022626,0.021503895287586033,-0.08481287803967281, ,0.01172095948361897,0.021626819852579474,-0.0851598594929553, ,0.00039637738634995355, ,0.0019827626025125636,0.0021023664070022414,-0.008184356868967029,0.009706285301623737,0.010339255602464771,-0.0028228947627217194, ,0.00867957311195785, ,0.014181401342882698, ,6.780405132166947e-05, ,0.2213798605725198,-0.19359346769106,0.10077876976000001,2.14030525314654,1.2753650888106212,-1.0839178752980196, ,0.0012592133306706143,-0.003893540907788823,0.008776204694214878,0.011811836759667117,0.011466190783524077,0.005003125383713237, ,0.8545429706573486
0.011627154779395042,0.02155730169938576,-0.08499074698438656, ,0.011752641409080217,0.021650618212560827,-0.08525924255497863, ,0.00031071649021005717, ,0.002201140501940914,0.0019469814573751327,-0.009507870097226406,-0.007538848936014321,-0.0019294030844803256,0.04946167284381546, ,0.00995165062139841, ,0.0077818225271018004, ,6.789832407804984e-05, ,0.2214493651683878,-0.19366297228692803,0.10097062068000001,2.1417730827509316,1.2753650888106212,-1.083509481597317, ,0.00268991594641355,-0.002930723903791471,0.010024425122718693,-0.03204706564074582,0.009022489950758496,0.017543237945133967, ,0.8625807762145996
0.011627154779395042,0.02155730169938576,-0.08499074698438656, ,0.01178445307054006,0.021673940306982227,-0.0853582924066657, ,0.000416457626436996, ,0.002201140501940914,0.0019469814573751327,-0.009507870097226406,-0.007538848936014321,-0.0019294030844803256,0.04946167284381546, ,0.00995165062139841, ,0.0077818225271018004, ,6.82407929435931e-05, ,0.2214493651683878,-0.19366297228692803,0.10097062068000001,2.1417730827509316,1.2753650888106212,-1.083509481597317, ,0.00268991594641355,-0.002930723903791471,0.010024425122718693,-0.03204706564074582,0.009022489950758496,0.017543237945133967, ,0.8710927963256836
0.011651930083677804,0.021579144842789243,-0.08509324418015274, ,0.011816393838094238,0.0216967894417461,-0.08545701094599449, ,0.00041619086740513316, ,0.002536869323633082,0.002196896541246247,-0.010456589114520444,-0.013482521819338782,-0.0029050415233206105,0.05691736279990848, ,0.01098190859040621, ,0.013791937349393364, ,6.857622080221314e-05, ,0.22148025609988473,-0.19369386321842494,0.10107821275000001,2.141563392807447,1.2753650888106212,-1.0832644453768951, ,0.003702776934497501,-0.0030269975881441562,0.011038677422037424,-0.025699530466353312,0.008146107641935046,0.032970372192877025, ,0.8786988258361816
0.01167998413623876,0.021602741226175344,-0.08520424497964807, ,0.011848463083541958,0.021719168913157554,-0.0855554000642844, ,0.00040651009267467155, ,0.0030580095050937563,0.0027576343425345586,-0.011961642726155085,0.011207141902262036,0.0049580367461013524,-0.0135216380723501, ,0.012650567813681275, ,0.01225487303535489, ,6.888296142742386e-05, ,0.22152659249713005,-0.19372475414992182,0.10119487885000002,2.1413537028639626,1.2753650888106212,-1.0830194091564735, ,0.0036738820424589793,-0.002675433079883094,0.012692280095617531,0.012086885276684101,0.007447876376693318,-0.005159281185172869, ,0.8862128257751465
0.01167998413623876,0.021602741226175344,-0.08520424497964807, ,0.01188066018038536,0.021741082007935064,-0.08565346164620366, ,0.0005110818526454793, ,0.0030580095050937563,0.0027576343425345586,-0.011961642726155085,0.011207141902262036,0.0049580367461013524,-0.0135216380723501, ,0.012650567813681275, ,0.01225487303535489, ,6.942445569624175e-05, ,0.22152659249713005,-0.19372475414992182,0.10119487885000002,2.1413537028639626,1.2753650888106212,-1.0830194091564735, ,0.0036738820424589793,-0.002675433079883094,0.012692280095617531,0.012086885276684101,0.007447876376693318,-0.005159281185172869, ,0.8951587677001953
0.011718571628447381,0.02163726097275064,-0.08534996503470403, ,0.011912984503826237,0.021762532003222253,-0.08575119756978086, ,0.000463116340019088, ,0.003312924185748251,0.00279691231618473,-0.012222676391966093,-0.005117335666942531,-0.0015315744102919338,0.02534993241488121, ,0.012968885971727363, ,0.005341588875087859, ,6.984682133914409e-05, ,0.22158065162724963,-0.19376336781429296,0.10134913736000001,2.141563392807447,1.2753650888106212,-1.0827743729360517, ,0.006484382203585804,-0.0034098357217793866,0.012981916479217606,0.0008755442286836215,0.0067496870504391085,0.026438219713486463, ,0.903127908706665
0.011762290283274919,0.021675296497050564,-0.08550482794161668, ,0.011945435430764977,0.021783522166598807,-0.08584860970641332, ,0.00040427817453458394, ,0.003309932196068197,0.0028911086682906024,-0.012518307190537313,0.00754529465079304,0.0035617949827076215,-0.011241320813814711, ,0.013267334901595424, ,0.008343713049298014, ,7.012874208220957e-05, ,0.22165787895599187,-0.19380198147866406,0.10151376619000001,2.141982772694416,1.2753650888106212,-1.0825293367156301, ,0.0047525125761605546,-0.0024333960587651898,0.013285080500417015,0.01737514327887748,0.006145719143872416,0.0035383886376893856, ,0.9109828472137451
0.011762290283274919,0.021675296497050564,-0.08550482794161668, ,0.011978012339797823,0.0218040557560922,-0.08594569992087649, ,0.0005074278811376864, ,0.003309932196068197,0.0028911086682906024,-0.012518307190537313,0.00754529465079304,0.0035617949827076215,-0.011241320813814711, ,0.013267334901595424, ,0.008343713049298014, ,7.07947547613375e-05, ,0.22165787895599187,-0.19380198147866406,0.10151376619000001,2.141982772694416,1.2753650888106212,-1.0825293367156301, ,0.0047525125761605546,-0.0024333960587651898,0.013285080500417015,0.01737514327887748,0.006145719143872416,0.0035383886376893856, ,0.9168519973754883
0.011801846076054851,0.021708101637976825,-0.08564413223713967, ,0.012010714611215292,0.02182413602018865,-0.08604247007133457, ,0.0004645030387268065, ,0.0038191741053115623,0.003118542438423146,-0.013118999363948456,0.0044385588495729576,0.0046835131107468035,-0.021060988806534474, ,0.014014975636732608, ,0.0064525739917478415, ,7.135626650842613e-05, ,0.2217273835518599,-0.1938174269444125,0.10166154325000001,2.1424021525813854,1.2753650888106212,-1.0824476579754896, ,0.00759315429799906,-0.001422965019175483,0.01398490914837577,0.04229487457563901,0.005712384049089254,0.01966366494732282, ,0.9231069087982178
0.011839404257808732,0.021738405375304,-0.0857789727325777, ,0.012043541626999865,0.02184376619784452,-0.08613892200934826, ,0.00042700872388552356, ,0.003901165866910792,0.0032709183945263866,-0.013599182748614555,0.00976300055826968,0.007334750995120945,-0.037483406942457255, ,0.014520873723540766, ,0.01221123609395195, ,7.182737253577179e-05, ,0.2217968881477279,-0.19383287241016098,0.10180413515000002,2.14261184252487,1.2753650888106212,-1.082365979235349, ,0.006737841812022129,-0.0012469073751239237,0.014493914030937218,0.051907400709778145,0.005358325248699547,0.011716369116455511, ,0.9297878742218018
0.011839404257808732,0.021738405375304,-0.0857789727325777, ,0.01207649277082409,0.021862949518497654,-0.0862350575798862, ,0.0005289003635393814, ,0.003901165866910792,0.0032709183945263866,-0.013599182748614555,0.00976300055826968,0.007334750995120945,-0.037483406942457255, ,0.014520873723540766, ,0.01221123609395195, ,7.251620384551261e-05, ,0.2217968881477279,-0.19383287241016098,0.10180413515000002,2.14261184252487,1.2753650888106212,-1.082365979235349, ,0.006737841812022129,-0.0012469073751239237,0.014493914030937218,0.051907400709778145,0.005358325248699547,0.011716369116455511, ,0.9371178150177002
0.01189759739599671,0.0217834386045478,-0.08599450796850099, ,0.012109567428048775,0.021881689202078506,-0.0863308786213325, ,0.00040954815405467627, ,0.003957410061593956,0.003160717748719521,-0.014116770590184171,0.0011706284822086005,0.0024586091446837273,-0.011703585081791966, ,0.014997814606754025, ,0.0027229706827465398, ,7.293541682044303e-05, ,0.22190500640796706,-0.19384831787590942,0.10203098590000001,2.14261184252487,1.2753650888106212,-1.082202621755068, ,0.00711479833168217,-0.0005906260509136048,0.014970687518796997,0.03159890536342117,0.004912896096963286,0.01912779886102399, ,0.9430739879608154
0.01189759739599671,0.0217834386045478,-0.08599450796850099, ,0.012142764985720656,0.021899988459021653,-0.08642638696549795, ,0.0005101083058292939, ,0.003957410061593956,0.003160717748719521,-0.014116770590184171,0.0011706284822086005,0.0024586091446837273,-0.011703585081791966, ,0.014997814606754025, ,0.0027229706827465398, ,7.356730848067724e-05, ,0.22190500640796706,-0.19384831787590942,0.10203098590000001,2.14261184252487,1.2753650888106212,-1.082202621755068, ,0.00711479833168217,-0.0005906260509136048,0.014970687518796997,0.03159890536342117,0.004912896096963286,0.01912779886102399, ,0.9487028121948242
0.011919746073235298,0.021800338930909702,-0.08607444475220587, ,0.012176084832570292,0.02191785049027699,-0.08652158443762863, ,0.0005286325986943101, ,0.0038077373795072783,0.003070005831638911,-0.0135324467718425,0.0018513928929447339,0.0015600479455725666,-0.009566307237724928, ,0.014389263893276277, ,0.002420940193109889, ,7.423095217303128e-05, ,0.22195134280521242,-0.19385604060878364,0.10211524475000001,2.14261184252487,1.2753650888106212,-1.0821209430149274, ,0.007127955395136416,-0.0012466351233578238,0.014363220486925161,0.027326607522184933,0.00475436292573923,0.01682505773547635, ,0.9546568393707275
0.011919746073235298,0.021800338930909702,-0.08607444475220587, ,0.012209526359010367,0.021935278487320926,-0.086616472856415, ,0.0006292660515718918, ,0.0038077373795072783,0.003070005831638911,-0.0135324467718425,0.0018513928929447339,0.0015600479455725666,-0.009566307237724928, ,0.014389263893276277, ,0.002420940193109889, ,7.510155858642057e-05, ,0.22195134280521242,-0.19385604060878364,0.10211524475000001,2.14261184252487,1.2753650888106212,-1.0821209430149274, ,0.007127955395136416,-0.0012466351233578238,0.014363220486925161,0.027326607522184933,0.00475436292573923,0.01682505773547635, ,0.9604668617248535
0.011976632610855513,0.021844491955840664,-0.08625680513239921, ,0.012243088957133653,0.02195227563216782,-0.08671105403400257, ,0.000537548481499443, ,0.003944058108826772,0.0028235296012676914,-0.013098066252818749,0.001555498639783885,-0.0015876688897332979,-0.012117588121912107, ,0.01396736386503432, ,0.002222584759139708, ,7.576590710927202e-05, ,0.22208262926407424,-0.19386376334165786,0.10230968825000002,2.143450602298808,1.2753650888106212,-1.0818759067945058, ,0.00980454331627968,0.0004324812534569897,0.013899486492146597,0.025687944816289932,0.004417490142455601,0.012721308787647552, ,0.9670259952545166
0.011976632610855513,0.021844491955840664,-0.08625680513239921, ,0.0122767720207104,0.021968845097381076,-0.08680532977600028, ,0.0006375160027769425, ,0.003944058108826772,0.0028235296012676914,-0.013098066252818749,0.001555498639783885,-0.0015876688897332979,-0.012117588121912107, ,0.01396736386503432, ,0.002222584759139708, ,7.679553462740421e-05, ,0.22208262926407424,-0.19386376334165786,0.10230968825000002,2.143450602298808,1.2753650888106212,-1.0818759067945058, ,0.00980454331627968,0.0004324812534569897,0.013899486492146597,0.025687944816289932,0.004417490142455601,0.012721308787647552, ,0.9708809852600098
0.012023620162298979,0.021880022864031765,-0.08640257671767948, ,0.012310574945187258,0.021984990046084753,-0.08689930188149084, ,0.0005831783990289969, ,0.005059492819213292,0.0037367995101735057,-0.015980609885960773,0.002976014957681186,0.0006332652369100966,-0.045172580966107816, ,0.017173876396846782, ,0.003042473935959382, ,7.770183701089406e-05, ,0.22219847025718759,-0.19385604060878364,0.10246653934000001,2.144289362072746,1.2755017253103864,-1.0817422884777805, ,0.012372482602147428,0.0006312642682198858,0.01701796102564103,0.07151415989581732,0.0,0.026265332782712508, ,0.9752109050750732
0.012023620162298979,0.021880022864031765,-0.08640257671767948, ,0.012344497127684395,0.022000713631974558,-0.08699297214303946, ,0.0006827115398669947, ,0.005059492819213292,0.0037367995101735057,-0.015980609885960773,0.002976014957681186,0.0006332652369100966,-0.045172580966107816, ,0.017173876396846782, ,0.003042473935959382, ,7.880962664502264e-05, ,0.22219847025718759,-0.19385604060878364,0.10246653934000001,2.144289362072746,1.2755017253103864,-1.0817422884777805, ,0.012372482602147428,0.0006312642682198858,0.01701796102564103,0.07151415989581732,0.0,0.026265332782712508, ,0.9793148040771484
0.012023620162298979,0.021880022864031765,-0.08640257671767948, ,0.012378537966993905,0.02201601899932916,-0.08708634234670373, ,0.0007823023918793964, ,0.005059492819213292,0.0037367995101735057,-0.015980609885960773,0.002976014957681186,0.0006332652369100966,-0.045172580966107816, ,0.017173876396846782, ,0.003042473935959382, ,8.011649513579534e-05, ,0.22219847025718759,-0.19385604060878364,0.10246653934000001,2.144289362072746,1.2755017253103864,-1.0817422884777805, ,0.012372482602147428,0.0006312642682198858,0.01701796102564103,0.07151415989581732,0.0,0.026265332782712508, ,0.9840188026428223
0.012023620162298979,0.021880022864031765,-0.08640257671767948, ,0.012412696863577696,0.022030909283021736,-0.08717941427204345, ,0.0008818299024096119, ,0.005059492819213292,0.0037367995101735057,-0.015980609885960773,0.002976014957681186,0.0006332652369100966,-0.045172580966107816, ,0.017173876396846782, ,0.003042473935959382, ,8.161982203608289e-05, ,0.22219847025718759,-0.19385604060878364,0.10246653934000001,2.144289362072746,1.2755017253103864,-1.0817422884777805, ,0.012372482602147428,0.0006312642682198858,0.01701796102564103,0.07151415989581732,0.0,0.026265332782712508, ,0.9887819290161133
0.0120735629431663,0.021914984690409717,-0.08657478841506339, ,0.012446973219565545,0.022045387608530864,-0.08727218969212903, ,0.0008017535137608493, ,0.005963202248615002,0.004307452089866903,-0.019907578183403288,-0.0034532707287882364,-0.006952943250763153,-0.01628721001288848, ,0.021223232404435955, ,0.0077630774717182185, ,8.294453960805111e-05, ,0.22232203398317518,-0.19385604060878364,0.10264801994000002,2.144289362072746,1.2755017253103864,-1.0815789309974995, ,0.014140506863130795,0.0005513178978152185,0.02106985650793651,0.04130510338990514,0.0,0.026213501128258196, ,0.9927527904510498
0.012143252212701811,0.02196308141424557,-0.08681880974363311, ,0.012481366438752622,0.022059457091952214,-0.08736467037355272, ,0.0006492867844085453, ,0.005859667183422609,0.004429872097454933,-0.020667776915614496,-0.015378310948024911,-0.00838774687433252,0.018066740837720936, ,0.021934367301882612, ,0.01751693392507006, ,8.394329519729169e-05, ,0.2224842113735339,-0.1938405951430352,0.10290468536000001,2.144289362072746,1.2755017253103864,-1.0813338947770776, ,0.011856141639374243,-0.0005238634544511196,0.021820289753424663,0.025195526568308285,0.0,0.047191221291032925, ,0.9965348243713379
0.012143252212701811,0.02196308141424557,-0.08681880974363311, ,0.01251587592659826,0.0220731208400095,-0.08745685807643586, ,0.0007470359980434684, ,0.005859667183422609,0.004429872097454933,-0.020667776915614496,-0.015378310948024911,-0.00838774687433252,0.018066740837720936, ,0.021934367301882612, ,0.01751693392507006, ,8.51349606451289e-05, ,0.2224842113735339,-0.1938405951430352,0.10290468536000001,2.144289362072746,1.2755017253103864,-1.0813338947770776, ,0.011856141639374243,-0.0005238634544511196,0.021820289753424663,0.025195526568308285,0.0,0.047191221291032925, ,1.0004158020019531
0.012143252212701811,0.02196308141424557,-0.08681880974363311, ,0.012550501090223135,0.02208638195006603,-0.08754875455444025, ,0.0008449107036842781, ,0.005859667183422609,0.004429872097454933,-0.020667776915614496,-0.015378310948024911,-0.00838774687433252,0.018066740837720936, ,0.021934367301882612, ,0.01751693392507006, ,8.651742126478877e-05, ,0.2224842113735339,-0.1938405951430352,0.10290468536000001,2.144289362072746,1.2755017253103864,-1.0813338947770776, ,0.011856141639374243,-0.0005238634544511196,0.021820289753424663,0.025195526568308285,0.0,0.047191221291032925, ,1.0042669773101807
0.012213018512869378,0.022013163573859993,-0.08706111222283472, ,0.012585241338407743,0.022099243510135785,-0.08764036155477732, ,0.0006938943549539511, ,0.006642901508217786,0.004568630100358163,-0.02225122115729821,0.002209396289704519,-0.01301538514581956,-0.01540239712966067, ,0.023666798778727474, ,0.013201372193045405, ,8.75803998615732e-05, ,0.22265411149676684,-0.19384831787590942,0.10316135078000001,2.144289362072746,1.275638361810152,-1.0810369189800715, ,0.016903623362748622,0.0009957793526364858,0.02349382230088496,0.01813760865028851,0.0005592029561688985,0.002267070552978762, ,1.0081229209899902
0.012213018512869378,0.022013163573859993,-0.08706111222283472, ,0.012620096081590019,0.022111708598894796,-0.08773168081821628, ,0.0007906234944818019, ,0.006642901508217786,0.004568630100358163,-0.02225122115729821,0.002209396289704519,-0.01301538514581956,-0.01540239712966067, ,0.023666798778727474, ,0.013201372193045405, ,8.883134029807453e-05, ,0.22265411149676684,-0.19384831787590942,0.10316135078000001,2.144289362072746,1.275638361810152,-1.0810369189800715, ,0.016903623362748622,0.0009957793526364858,0.02349382230088496,0.01813760865028851,0.0005592029561688985,0.002267070552978762, ,1.0118918418884277
0.012282985451627915,0.02206226846245713,-0.08728601551534416, ,0.012655064731863647,0.022123780285692493,-0.08782271407909516, ,0.0006559512508646176, ,0.007712268439640044,0.00517567507620393,-0.02557736615381794,-0.012329223604748377,-0.017615562456956474,0.012466122491326927, ,0.027211548216629976, ,0.02150132202387759, ,8.979953578444795e-05, ,0.222831734352874,-0.19383287241016098,0.10339986814,2.1449184319031995,1.275638361810152,-1.0808735614997904, ,0.020381645523726538,0.0016616076554160193,0.02699798562711865,0.01690844812641098,0.0005544439327134426,0.03237977704309269, ,1.0157279968261719
0.012282985451627915,0.02206226846245713,-0.08728601551534416, ,0.012690146702975788,0.022135461630562816,-0.08791346306532966, ,0.0007515503658699846, ,0.007712268439640044,0.00517567507620393,-0.02557736615381794,-0.012329223604748377,-0.017615562456956474,0.012466122491326927, ,0.027211548216629976, ,0.02150132202387759, ,9.095266339392594e-05, ,0.222831734352874,-0.19383287241016098,0.10339986814,2.1449184319031995,1.275638361810152,-1.0808735614997904, ,0.020381645523726538,0.0016616076554160193,0.02699798562711865,0.01690844812641098,0.0005544439327134426,0.03237977704309269, ,1.0195319652557373
0.012282985451627915,0.02206226846245713,-0.08728601551534416, ,0.012725341410325214,0.022146755684235755,-0.08800392949842256, ,0.0008474770627800883, ,0.007712268439640044,0.00517567507620393,-0.02557736615381794,-0.012329223604748377,-0.017615562456956474,0.012466122491326927, ,0.027211548216629976, ,0.02150132202387759, ,9.228915282362922e-05, ,0.222831734352874,-0.19383287241016098,0.10339986814,2.1449184319031995,1.275638361810152,-1.0808735614997904, ,0.020381645523726538,0.0016616076554160193,0.02699798562711865,0.01690844812641098,0.0005544439327134426,0.03237977704309269, ,1.0233988761901855
0.01235539989177056,0.022113325497235513,-0.0875196183614463, ,0.012760648270959884,0.022157665488148418,-0.0880941150934734, ,0.0007044421755826009, ,0.007712268439640044,0.00517567507620393,-0.02557736615381794,-0.012329223604748377,-0.017615562456956474,0.012466122491326927, ,0.027211548216629976, ,0.02150132202387759, ,9.351591238827646e-05, ,0.22301707994185538,-0.1938174269444125,0.10364875582000001,2.1455475017336534,1.2757749983099174,-1.0809033006633462, ,0.02438883103533045,0.0012341438030079048,0.02814277653710248,0.10336432523972162,0.0013263897373191435,0.02341532478714321, ,1.0263028144836426
0.01235539989177056,0.022113325497235513,-0.0875196183614463, ,0.012796066703575571,0.022168194074456325,-0.08818402155918777, ,0.0007991429214863387, ,0.007712268439640044,0.00517567507620393,-0.02557736615381794,-0.012329223604748377,-0.017615562456956474,0.012466122491326927, ,0.027211548216629976, ,0.02150132202387759, ,9.49271664064726e-05, ,0.22301707994185538,-0.1938174269444125,0.10364875582000001,2.1455475017336534,1.2757749983099174,-1.0809033006633462, ,0.02438883103533045,0.0012341438030079048,0.02814277653710248,0.10336432523972162,0.0013263897373191435,0.02341532478714321, ,1.0285837650299072
0.01235539989177056,0.022113325497235513,-0.0875196183614463, ,0.012831596128513102,0.02217834446604495,-0.0882736505978872, ,0.0008941783579269079, ,0.008688001875224565,0.006052744821505182,-0.026396298256883933,0.011292938211295102,-0.0040706997712165235,-0.07795019411338651, ,0.028440844891186638, ,0.012003675902575872, ,9.652247816599443e-05, ,0.22301707994185538,-0.1938174269444125,0.10364875582000001,2.1455475017336534,1.2757749983099174,-1.0809033006633462, ,0.02438883103533045,0.0012341438030079048,0.02814277653710248,0.10336432523972162,0.0013263897373191435,0.02341532478714321, ,1.0306129455566406
0.01235539989177056,0.022113325497235513,-0.0875196183614463, ,0.01286723596775696,0.02218811967654047,-0.08836300390551789, ,0.0009893783471897897, ,0.008688001875224565,0.006052744821505182,-0.026396298256883933,0.011292938211295102,-0.0040706997712165235,-0.07795019411338651, ,0.028440844891186638, ,0.012003675902575872, ,9.83010755146474e-05, ,0.22301707994185538,-0.1938174269444125,0.10364875582000001,2.1455475017336534,1.2757749983099174,-1.0809033006633462, ,0.02438883103533045,0.0012341438030079048,0.02814277653710248,0.10336432523972162,0.0013263897373191435,0.02341532478714321, ,1.0352568626403809
0.01235539989177056,0.022113325497235513,-0.0875196183614463, ,0.012902985644932927,0.022197522710321736,-0.08845208317166092, ,0.0010846335556520834, ,0.008688001875224565,0.006052744821505182,-0.026396298256883933,0.011292938211295102,-0.0040706997712165235,-0.07795019411338651, ,0.028440844891186638, ,0.012003675902575872, ,0.0005481714506957074, ,0.22301707994185538,-0.1938174269444125,0.10364875582000001,2.1455475017336534,1.2757749983099174,-1.0809033006633462, ,0.02438883103533045,0.0012341438030079048,0.02814277653710248,0.10336432523972162,0.0013263897373191435,0.02341532478714321, ,1.0373477935791016
0.01235539989177056,0.022113325497235513,-0.0875196183614463, ,0.012938844585305791,0.02220655656253111,-0.08854089007954145, ,0.0011798710370763434, ,0.008688001875224565,0.006052744821505182,-0.026396298256883933,0.011292938211295102,-0.0040706997712165235,-0.07795019411338651, ,0.028440844891186638, ,0.012003675902575872, ,0.0005549639193664669, ,0.22301707994185538,-0.1938174269444125,0.10364875582000001,2.1455475017336534,1.2757749983099174,-1.0809033006633462, ,0.02438883103533045,0.0012341438030079048,0.02814277653710248,0.10336432523972162,0.0013263897373191435,0.02341532478714321, ,1.0392858982086182
0.01235539989177056,0.022113325497235513,-0.0875196183614463, ,0.012974812215778179,0.022215224219085745,-0.08862942630603833, ,0.0012750406466175209, ,0.008688001875224565,0.006052744821505182,-0.026396298256883933,0.011292938211295102,-0.0040706997712165235,-0.07795019411338651, ,0.028440844891186638, ,0.012003675902575872, ,0.0005626243100819036, ,0.22301707994185538,-0.1938174269444125,0.10364875582000001,2.1455475017336534,1.2757749983099174,-1.0809033006633462, ,0.02438883103533045,0.0012341438030079048,0.02814277653710248,0.10336432523972162,0.0013263897373191435,0.02341532478714321, ,1.041212797164917
0.01235539989177056,0.022113325497235513,-0.0875196183614463, ,0.013010887964887157,0.02222352865668909,-0.08871769352169327, ,0.0013701070906876132, ,0.008688001875224565,0.006052744821505182,-0.026396298256883933,0.011292938211295102,-0.0040706997712165235,-0.07795019411338651, ,0.028440844891186638, ,0.012003675902575872, ,0.0005711241288251216, ,0.22301707994185538,-0.1938174269444125,0.10364875582000001,2.1455475017336534,1.2757749983099174,-1.0809033006633462, ,0.02438883103533045,0.0012341438030079048,0.02814277653710248,0.10336432523972162,0.0013263897373191435,0.02341532478714321, ,1.0430939197540283
0.012371051137207139,0.022124316863987557,-0.0875656773934087, ,0.013047071262803812,0.022231472842842038,-0.08880569339072054, ,0.0014163775229808205, ,0.008746006525483723,0.005931139801590375,-0.026678387074833863,0.0141466536655311,-0.009291544093289406,-0.07103185230244491, ,0.028695075995795443, ,0.016924747771724123, ,0.0005799288516809101, ,0.22306341633910073,-0.1938174269444125,0.10369801484,2.145757191677138,1.2757749983099174,-1.0807399431830649, ,0.025564908825019064,0.0012341438030079048,0.028393603422459897,0.0796885069315981,0.0013263897373191435,0.005757036218039158, ,1.0449879169464111
0.012371051137207139,0.022124316863987557,-0.0875656773934087, ,0.0130833615413298,0.022239059735854296,-0.08889342757101655, ,0.001511116333246149, ,0.008746006525483723,0.005931139801590375,-0.026678387074833863,0.0141466536655311,-0.009291544093289406,-0.07103185230244491, ,0.028695075995795443, ,0.016924747771724123, ,0.0005895287226248817, ,0.22306341633910073,-0.1938174269444125,0.10369801484,2.145757191677138,1.2757749983099174,-1.0807399431830649, ,0.025564908825019064,0.0012341438030079048,0.028393603422459897,0.0796885069315981,0.0013263897373191435,0.005757036218039158, ,1.046968936920166
0.012371051137207139,0.022124316863987557,-0.0875656773934087, ,0.01311975823389618,0.022246292284855335,-0.08898089771416882, ,0.0016057051025081745, ,0.008746006525483723,0.005931139801590375,-0.026678387074833863,0.0141466536655311,-0.009291544093289406,-0.07103185230244491, ,0.028695075995795443, ,0.016924747771724123, ,0.0005998978693583846, ,0.22306341633910073,-0.1938174269444125,0.10369801484,2.145757191677138,1.2757749983099174,-1.0807399431830649, ,0.025564908825019064,0.0012341438030079048,0.028393603422459897,0.0796885069315981,0.0013263897373191435,0.005757036218039158, ,1.0489189624786377
0.012371051137207139,0.022124316863987557,-0.0875656773934087, ,0.013156260775560983,0.022253173429806396,-0.08906810546546666, ,0.001700131848541809, ,0.008746006525483723,0.005931139801590375,-0.026678387074833863,0.0141466536655311,-0.009291544093289406,-0.07103185230244491, ,0.028695075995795443, ,0.016924747771724123, ,0.0006110113438955909, ,0.22306341633910073,-0.1938174269444125,0.10369801484,2.145757191677138,1.2757749983099174,-1.0807399431830649, ,0.025564908825019064,0.0012341438030079048,0.028393603422459897,0.0796885069315981,0.0013263897373191435,0.005757036218039158, ,1.0508298873901367
0.012371051137207139,0.022124316863987557,-0.0875656773934087, ,0.013192868603007295,0.022259706101510967,-0.08915505246390912, ,0.0017943877249523192, ,0.008746006525483723,0.005931139801590375,-0.026678387074833863,0.0141466536655311,-0.009291544093289406,-0.07103185230244491, ,0.028695075995795443, ,0.016924747771724123, ,0.0006228451077061582, ,0.22306341633910073,-0.1938174269444125,0.10369801484,2.145757191677138,1.2757749983099174,-1.0807399431830649, ,0.025564908825019064,0.0012341438030079048,0.028393603422459897,0.0796885069315981,0.0013263897373191435,0.005757036218039158, ,1.0528228282928467
0.012634646718806833,0.022283271530886203,-0.08840866228726417, ,0.013229581154541254,0.022265893221626535,-0.08924174034221535, ,0.0010238496149809334, ,0.01135271179647684,0.005885203171947254,-0.034424883072807555,-0.011312802648323537,-0.031197341867468902,0.005169750829275953, ,0.03672318417683078, ,0.033184413467061455, ,0.0006268154493623442, ,0.2238743032908943,-0.19369386321842494,0.10458856607000001,2.1455475017336534,1.2760482713094483,-1.080717742770036, ,0.03859168017831264,0.012511132703819483,0.03628430870159454,0.002341687571727673,0.008739238212347508,0.00870484717499585, ,1.0549039840698242
0.012634646718806833,0.022283271530886203,-0.08840866228726417, ,0.013266397870089963,0.022271737702675768,-0.08932817072683409, ,0.001115678411004291, ,0.01135271179647684,0.005885203171947254,-0.034424883072807555,-0.011312802648323537,-0.031197341867468902,0.005169750829275953, ,0.03672318417683078, ,0.033184413467061455, ,0.0006316082234960888, ,0.2238743032908943,-0.19369386321842494,0.10458856607000001,2.1455475017336534,1.2760482713094483,-1.080717742770036, ,0.03859168017831264,0.012511132703819483,0.03628430870159454,0.002341687571727673,0.008739238212347508,0.00870484717499585, ,1.056999921798706
0.012634646718806833,0.022283271530886203,-0.08840866228726417, ,0.013303318191199379,0.022277242448057802,-0.08941434523795276, ,0.0012077069533363955, ,0.01135271179647684,0.005885203171947254,-0.034424883072807555,-0.011312802648323537,-0.031197341867468902,0.005169750829275953, ,0.03672318417683078, ,0.033184413467061455, ,0.0006372014150479364, ,0.2238743032908943,-0.19369386321842494,0.10458856607000001,2.1455475017336534,1.2760482713094483,-1.080717742770036, ,0.03859168017831264,0.012511132703819483,0.03628430870159454,0.002341687571727673,0.008739238212347508,0.00870484717499585, ,1.0588819980621338
0.012634646718806833,0.022283271530886203,-0.08840866228726417, ,0.013340341561032495,0.022282410352059454,-0.08950026548950782, ,0.0012998474922549426, ,0.01135271179647684,0.005885203171947254,-0.034424883072807555,-0.011312802648323537,-0.031197341867468902,0.005169750829275953, ,0.03672318417683078, ,0.033184413467061455, ,0.0006435730119441576, ,0.2238743032908943,-0.19369386321842494,0.10458856607000001,2.1455475017336534,1.2760482713094483,-1.080717742770036, ,0.03859168017831264,0.012511132703819483,0.03628430870159454,0.002341687571727673,0.008739238212347508,0.00870484717499585, ,1.0607869625091553
0.012634646718806833,0.022283271530886203,-0.08840866228726417, ,0.01337746742436703,0.02228724429986654,-0.08958593308919252, ,0.0013920362511714065, ,0.01135271179647684,0.005885203171947254,-0.034424883072807555,-0.011312802648323537,-0.031197341867468902,0.005169750829275953, ,0.03672318417683078, ,0.033184413467061455, ,0.0006507012332701313, ,0.2238743032908943,-0.19369386321842494,0.10458856607000001,2.1455475017336534,1.2760482713094483,-1.080717742770036, ,0.03859168017831264,0.012511132703819483,0.03628430870159454,0.002341687571727673,0.008739238212347508,0.00870484717499585, ,1.062673807144165
0.012750766128101316,0.02234336270725399,-0.08876068624128855, ,0.013414695227593398,0.022291747167575385,-0.0896713496384683, ,0.001128172786434618, ,0.012889409158940077,0.007109580173649789,-0.03982287981965539,0.07917050818636724,0.04890826368810425,-0.06328904082891895, ,0.04245638651419641, ,0.09305851637879252, ,0.0006552056818848907, ,0.22427588540035398,-0.19353940856094043,0.10496578646000002,2.145757191677138,1.276868090308041,-1.0810595352316523, ,0.04317422272905859,0.013693642360529694,0.042819385806451615,0.017536984050319507,0.10479918167171572,-0.08150020160882218, ,1.0645568370819092
0.012750766128101316,0.02234336270725399,-0.08876068624128855, ,0.013452024418713163,0.02229592182220361,-0.08975651673257329, ,0.0012188897386960873, ,0.012889409158940077,0.007109580173649789,-0.03982287981965539,0.07917050818636724,0.04890826368810425,-0.06328904082891895, ,0.04245638651419641, ,0.09305851637879252, ,0.0006604737571821916, ,0.22427588540035398,-0.19353940856094043,0.10496578646000002,2.145757191677138,1.276868090308041,-1.0810595352316523, ,0.04317422272905859,0.013693642360529694,0.042819385806451615,0.017536984050319507,0.10479918167171572,-0.08150020160882218, ,1.0665078163146973
0.012750766128101316,0.02234336270725399,-0.08876068624128855, ,0.013489454447336258,0.022299771121701922,-0.08984143596053135, ,0.001309801746429004, ,0.012889409158940077,0.007109580173649789,-0.03982287981965539,0.07917050818636724,0.04890826368810425,-0.06328904082891895, ,0.04245638651419641, ,0.09305851637879252, ,0.0006664860533789214, ,0.22427588540035398,-0.19353940856094043,0.10496578646000002,2.145757191677138,1.276868090308041,-1.0810595352316523, ,0.04317422272905859,0.013693642360529694,0.042819385806451615,0.017536984050319507,0.10479918167171572,-0.08150020160882218, ,1.068504810333252
0.012750766128101316,0.02234336270725399,-0.08876068624128855, ,0.013526984764679569,0.022303297914965044,-0.08992610890516314, ,0.001400832090161098, ,0.012889409158940077,0.007109580173649789,-0.03982287981965539,0.07917050818636724,0.04890826368810425,-0.06328904082891895, ,0.04245638651419641, ,0.09305851637879252, ,0.0006732231729824275, ,0.22427588540035398,-0.19353940856094043,0.10496578646000002,2.145757191677138,1.276868090308041,-1.0810595352316523, ,0.04317422272905859,0.013693642360529694,0.042819385806451615,0.017536984050319507,0.10479918167171572,-0.08150020160882218, ,1.070664882659912
0.012750766128101316,0.02234336270725399,-0.08876068624128855, ,0.013564614823564405,0.02230650504184326,-0.09001053714309382, ,0.0014919234106849915, ,0.012889409158940077,0.007109580173649789,-0.03982287981965539,0.07917050818636724,0.04890826368810425,-0.06328904082891895, ,0.04245638651419641, ,0.09305851637879252, ,0.0006806659024160872, ,0.22427588540035398,-0.19353940856094043,0.10496578646000002,2.145757191677138,1.276868090308041,-1.0810595352316523, ,0.04317422272905859,0.013693642360529694,0.042819385806451615,0.017536984050319507,0.10479918167171572,-0.08150020160882218, ,1.0727508068084717
0.012887509748187798,0.022419087112872944,-0.08917399269592757, ,0.013602344078414891,0.02230939533315339,-0.0900947222447634, ,0.0011707960148158588, ,0.015608145058135736,0.008518131918249669,-0.04663301941610197,0.019931757382803388,-0.010040590812007515,-0.022554732093016602, ,0.049908028045546476, ,0.02231295332803693, ,0.0006850814890142833, ,0.22473924937280745,-0.19342356756782708,0.10540652506,2.1459668816206223,1.2774146363071028,-1.081341849366157, ,0.053523373693440936,0.013237123944548861,0.04962246579439253,0.02520953318525322,0.04657922353903584,-0.009490961234262744, ,1.0747439861297607
0.012887509748187798,0.022419087112872944,-0.08917399269592757, ,0.013640171985255575,0.022311971610690522,-0.09017866577443656, ,0.0012598976817965776, ,0.015608145058135736,0.008518131918249669,-0.04663301941610197,0.019931757382803388,-0.010040590812007515,-0.022554732093016602, ,0.049908028045546476, ,0.02231295332803693, ,0.0006902137764498395, ,0.22473924937280745,-0.19342356756782708,0.10540652506,2.1459668816206223,1.2774146363071028,-1.081341849366157, ,0.053523373693440936,0.013237123944548861,0.04962246579439253,0.02520953318525322,0.04657922353903584,-0.009490961234262744, ,1.0769639015197754
0.012887509748187798,0.022419087112872944,-0.08917399269592757, ,0.013678098001709812,0.0223142366872387,-0.09026236929021099, ,0.0013492912989220074, ,0.015608145058135736,0.008518131918249669,-0.04663301941610197,0.019931757382803388,-0.010040590812007515,-0.022554732093016602, ,0.049908028045546476, ,0.02231295332803693, ,0.0006960463208964958, ,0.22473924937280745,-0.19342356756782708,0.10540652506,2.1459668816206223,1.2774146363071028,-1.081341849366157, ,0.053523373693440936,0.013237123944548861,0.04962246579439253,0.02520953318525322,0.04657922353903584,-0.009490961234262744, ,1.0789377689361572
0.012887509748187798,0.022419087112872944,-0.08917399269592757, ,0.0137161215869972,0.022316193366582696,-0.09034583434402826, ,0.001438887608767302, ,0.015608145058135736,0.008518131918249669,-0.04663301941610197,0.019931757382803388,-0.010040590812007515,-0.022554732093016602, ,0.049908028045546476, ,0.02231295332803693, ,0.0007025624725444853, ,0.22473924937280745,-0.19342356756782708,0.10540652506,2.1459668816206223,1.2774146363071028,-1.081341849366157, ,0.053523373693440936,0.013237123944548861,0.04962246579439253,0.02520953318525322,0.04657922353903584,-0.009490961234262744, ,1.080866813659668
0.012887509748187798,0.022419087112872944,-0.08917399269592757, ,0.01375424220193155,0.022317844443519225,-0.09042906248168217, ,0.0015286187855657874, ,0.015608145058135736,0.008518131918249669,-0.04663301941610197,0.019931757382803388,-0.010040590812007515,-0.022554732093016602, ,0.049908028045546476, ,0.02231295332803693, ,0.0007097455709185836, ,0.22473924937280745,-0.19342356756782708,0.10540652506,2.1459668816206223,1.2774146363071028,-1.081341849366157, ,0.053523373693440936,0.013237123944548861,0.04962246579439253,0.02520953318525322,0.04657922353903584,-0.009490961234262744, ,1.0827059745788574
0.013065997689950737,0.022511033181078687,-0.08970341661949335, ,0.013792459308919616,0.022319192703868063,-0.09051205524282896, ,0.0011038322679109305, ,0.017005557559250376,0.008428646397695434,-0.048832195235859584,0.009346439549485202,-0.024529224200789696,-0.015801230906377497, ,0.052390975936238, ,0.026244258432775024, ,0.0007131428700305866, ,0.22537251346849388,-0.1932459447117199,0.10596911492000001,2.1459668816206223,1.2779611823061645,-1.0816241635006616, ,0.06267961793822377,0.01840157873928074,0.05188537954397395,0.01924256026981296,0.04164241610735826,-0.005482297661628822, ,1.0846478939056396
0.013065997689950737,0.022511033181078687,-0.08970341661949335, ,0.013830772371958431,0.022320240924483127,-0.090594814160996, ,0.0011899040198325936, ,0.017005557559250376,0.008428646397695434,-0.048832195235859584,0.009346439549485202,-0.024529224200789696,-0.015801230906377497, ,0.052390975936238, ,0.026244258432775024, ,0.000717217751652826, ,0.22537251346849388,-0.1932459447117199,0.10596911492000001,2.1459668816206223,1.2779611823061645,-1.0816241635006616, ,0.06267961793822377,0.01840157873928074,0.05188537954397395,0.01924256026981296,0.04164241610735826,-0.005482297661628822, ,1.0865228176116943
0.013065997689950737,0.022511033181078687,-0.08970341661949335, ,0.013869180856633006,0.02232099187326449,-0.09067734076359271, ,0.0012766155006019456, ,0.017005557559250376,0.008428646397695434,-0.048832195235859584,0.009346439549485202,-0.024529224200789696,-0.015801230906377497, ,0.052390975936238, ,0.026244258432775024, ,0.0007219584105422253, ,0.22537251346849388,-0.1932459447117199,0.10596911492000001,2.1459668816206223,1.2779611823061645,-1.0816241635006616, ,0.06267961793822377,0.01840157873928074,0.05188537954397395,0.01924256026981296,0.04164241610735826,-0.005482297661628822, ,1.0885088443756104
0.013065997689950737,0.022511033181078687,-0.08970341661949335, ,0.013907684230114938,0.022321448309168827,-0.09075963657191785, ,0.0013638105599570157, ,0.017005557559250376,0.008428646397695434,-0.048832195235859584,0.009346439549485202,-0.024529224200789696,-0.015801230906377497, ,0.052390975936238, ,0.026244258432775024, ,0.000727352126083526, ,0.22537251346849388,-0.1932459447117199,0.10596911492000001,2.1459668816206223,1.2779611823061645,-1.0816241635006616, ,0.06267961793822377,0.01840157873928074,0.05188537954397395,0.01924256026981296,0.04164241610735826,-0.005482297661628822, ,1.0904159545898438
0.013065997689950737,0.022511033181078687,-0.08970341661949335, ,0.013946281961160024,0.022321612982221253,-0.0908417031011713, ,0.0014513705675134872, ,0.017005557559250376,0.008428646397695434,-0.048832195235859584,0.009346439549485202,-0.024529224200789696,-0.015801230906377497, ,0.052390975936238, ,0.026244258432775024, ,0.0007333856130954424, ,0.22537251346849388,-0.1932459447117199,0.10596911492000001,2.1459668816206223,1.2779611823061645,-1.0816241635006616, ,0.06267961793822377,0.01840157873928074,0.05188537954397395,0.01924256026981296,0.04164241610735826,-0.005482297661628822, ,1.0922789573669434
0.013232346468829582,0.022588350527399353,-0.09017381341252838, ,0.01398497352010606,0.02232148863352638,-0.09092354186046213, ,0.0010953335082776146, ,0.016992235585494016,0.007159807165693627,-0.04709016294167724,0.028058956998708754,8.294694786628088e-05,-0.009734774220645689, ,0.050571556775687254, ,0.02805495312340108, ,0.0007363769180143034, ,0.22600577756418028,-0.1930219854583674,0.10647077915000001,2.146176571564107,1.2786443648049917,-1.0820178955388626, ,0.06817309020005086,0.026959358397292833,0.0502486167823344,-0.0011002246363785717,0.08202652403825919,-0.03098884795338936, ,1.0944328308105469
0.013232346468829582,0.022588350527399353,-0.09017381341252838, ,0.014023758378871551,0.022321077995279548,-0.09100515435281796, ,0.001178513969702344, ,0.016992235585494016,0.007159807165693627,-0.04709016294167724,0.028058956998708754,8.294694786628088e-05,-0.009734774220645689, ,0.050571556775687254, ,0.02805495312340108, ,0.0007400009922084676, ,0.22600577756418028,-0.1930219854583674,0.10647077915000001,2.146176571564107,1.2786443648049917,-1.0820178955388626, ,0.06817309020005086,0.026959358397292833,0.0502486167823344,-0.0011002246363785717,0.08202652403825919,-0.03098884795338936, ,1.096560001373291
0.013232346468829582,0.022588350527399353,-0.09017381341252838, ,0.014062636010952418,0.022320383790778307,-0.09108654207519579, ,0.0012626402921452008, ,0.016992235585494016,0.007159807165693627,-0.04709016294167724,0.028058956998708754,8.294694786628088e-05,-0.009734774220645689, ,0.050571556775687254, ,0.02805495312340108, ,0.0007442500922079533, ,0.22600577756418028,-0.1930219854583674,0.10647077915000001,2.146176571564107,1.2786443648049917,-1.0820178955388626, ,0.06817309020005086,0.026959358397292833,0.0502486167823344,-0.0011002246363785717,0.08202652403825919,-0.03098884795338936, ,1.0984208583831787
0.013232346468829582,0.022588350527399353,-0.09017381341252838, ,0.014101605891421162,0.02231940873443356,-0.09116770651848986, ,0.0013475032978978831, ,0.016992235585494016,0.007159807165693627,-0.04709016294167724,0.028058956998708754,8.294694786628088e-05,-0.009734774220645689, ,0.050571556775687254, ,0.02805495312340108, ,0.0007491150374151302, ,0.22600577756418028,-0.1930219854583674,0.10647077915000001,2.146176571564107,1.2786443648049917,-1.0820178955388626, ,0.06817309020005086,0.026959358397292833,0.0502486167823344,-0.0011002246363785717,0.08202652403825919,-0.03098884795338936, ,1.1003248691558838
0.013232346468829582,0.022588350527399353,-0.09017381341252838, ,0.014140667496924265,0.02231815553178086,-0.09124864916754251, ,0.0014329425410647334, ,0.016992235585494016,0.007159807165693627,-0.04709016294167724,0.028058956998708754,8.294694786628088e-05,-0.009734774220645689, ,0.050571556775687254, ,0.02805495312340108, ,0.000754585657444327, ,0.22600577756418028,-0.1930219854583674,0.10647077915000001,2.146176571564107,1.2786443648049917,-1.0820178955388626, ,0.06817309020005086,0.026959358397292833,0.0502486167823344,-0.0011002246363785717,0.08202652403825919,-0.03098884795338936, ,1.1022989749908447
0.013405135570087106,0.022653913293192208,-0.0906356278216256, ,0.014179820305679767,0.02231662687949169,-0.09132937150115228, ,0.0010932423598225814, ,0.017443886215609897,0.005970311594784838,-0.04438680878081662,0.04035219767998166,0.0013014518093722774,-0.03159843672073321, ,0.04806373456762122, ,0.04037104582038526, ,0.0007572734090505036, ,0.2267394371872316,-0.1927053534105242,0.10696466564000001,2.146176571564107,1.2796008203033498,-1.0826344633844565, ,0.07921280597535124,0.03396454601233743,0.047548691104477625,-0.0011002246363785717,0.0959072625955897,-0.05808886891628892, ,1.104475975036621
0.013405135570087106,0.022653913293192208,-0.0906356278216256, ,0.014219063797476339,0.022314825465384724,-0.09140987499208474, ,0.0011734216613273163, ,0.017443886215609897,0.005970311594784838,-0.04438680878081662,0.04035219767998166,0.0013014518093722774,-0.03159843672073321, ,0.04806373456762122, ,0.04037104582038526, ,0.000760550166942447, ,0.2267394371872316,-0.1927053534105242,0.10696466564000001,2.146176571564107,1.2796008203033498,-1.0826344633844565, ,0.07921280597535124,0.03396454601233743,0.047548691104477625,-0.0011002246363785717,0.0959072625955897,-0.05808886891628892, ,1.1065089702606201
0.013405135570087106,0.022653913293192208,-0.0906356278216256, ,0.014258397453670297,0.022312753968437158,-0.09149016110708105, ,0.001254859618760023, ,0.017443886215609897,0.005970311594784838,-0.04438680878081662,0.04035219767998166,0.0013014518093722774,-0.03159843672073321, ,0.04806373456762122, ,0.04037104582038526, ,0.0007644119595347718, ,0.2267394371872316,-0.1927053534105242,0.10696466564000001,2.146176571564107,1.2796008203033498,-1.0826344633844565, ,0.07921280597535124,0.03396454601233743,0.047548691104477625,-0.0011002246363785717,0.0959072625955897,-0.05808886891628892, ,1.109025001525879
0.013405135570087106,0.022653913293192208,-0.0906356278216256, ,0.014297820757183402,0.022310415058796162,-0.09157023130686799, ,0.0013372963601691208, ,0.017443886215609897,0.005970311594784838,-0.04438680878081662,0.04035219767998166,0.0013014518093722774,-0.03159843672073321, ,0.04806373456762122, ,0.04037104582038526, ,0.0007688529238807745, ,0.2267394371872316,-0.1927053534105242,0.10696466564000001,2.146176571564107,1.2796008203033498,-1.0826344633844565, ,0.07921280597535124,0.03396454601233743,0.047548691104477625,-0.0011002246363785717,0.0959072625955897,-0.05808886891628892, ,1.1110479831695557
0.013405135570087106,0.022653913293192208,-0.0906356278216256, ,0.014337333192501984,0.02230781139778965,-0.09165008704616683, ,0.001420530340222969, ,0.017443886215609897,0.005970311594784838,-0.04438680878081662,0.04035219767998166,0.0013014518093722774,-0.03159843672073321, ,0.04806373456762122, ,0.04037104582038526, ,0.0007738658270834067, ,0.2267394371872316,-0.1927053534105242,0.10696466564000001,2.146176571564107,1.2796008203033498,-1.0826344633844565, ,0.07921280597535124,0.03396454601233743,0.047548691104477625,-0.0011002246363785717,0.0959072625955897,-0.05808886891628892, ,1.1131188869476318
0.013570712421853919,0.022702719946936296,-0.09103790147944296, ,0.014376934245673474,0.022304945637938077,-0.09172972977370349, ,0.0011343916514332108, ,0.01753055743728011,0.004582988102280189,-0.040489631410505364,0.02070941966118839,-0.030517899969546756,-0.025262649215597715, ,0.0443591532354485, ,0.03687971608689326, ,0.0007766179326127946, ,0.22754260140615096,-0.1923578304311841,0.10739503392000001,2.1459668816206223,1.2804206393019424,-1.083057934586213, ,0.0891051094445735,0.03882853582588821,0.043284813913043486,-0.015243569461291464,0.07255307624402754,-0.05759859111637744, ,1.115445852279663
0.013570712421853919,0.022702719946936296,-0.09103790147944296, ,0.014416623404305603,0.0223018204229654,-0.0918091609322175, ,0.0012129002275729623, ,0.01753055743728011,0.004582988102280189,-0.040489631410505364,0.02070941966118839,-0.030517899969546756,-0.025262649215597715, ,0.0443591532354485, ,0.03687971608689326, ,0.000779923101514008, ,0.22754260140615096,-0.1923578304311841,0.10739503392000001,2.1459668816206223,1.2804206393019424,-1.083057934586213, ,0.0891051094445735,0.03882853582588821,0.043284813913043486,-0.015243569461291464,0.07255307624402754,-0.05759859111637744, ,1.1175999641418457
0.013570712421853919,0.022702719946936296,-0.09103790147944296, ,0.014456400157563462,0.022298438387810718,-0.09188838195847192, ,0.0012927503198393064, ,0.01753055743728011,0.004582988102280189,-0.040489631410505364,0.02070941966118839,-0.030517899969546756,-0.025262649215597715, ,0.0443591532354485, ,0.03687971608689326, ,0.0007837789452608147, ,0.22754260140615096,-0.1923578304311841,0.10739503392000001,2.1459668816206223,1.2804206393019424,-1.083057934586213, ,0.0891051094445735,0.03882853582588821,0.043284813913043486,-0.015243569461291464,0.07255307624402754,-0.05759859111637744, ,1.1195828914642334
0.013570712421853919,0.022702719946936296,-0.09103790147944296, ,0.014496263996167841,0.022294802158639118,-0.0919673942832624, ,0.0013736810077584793, ,0.01753055743728011,0.004582988102280189,-0.040489631410505364,0.02070941966118839,-0.030517899969546756,-0.025262649215597715, ,0.0443591532354485, ,0.03687971608689326, ,0.0007881811994585585, ,0.22754260140615096,-0.1923578304311841,0.10739503392000001,2.1459668816206223,1.2804206393019424,-1.083057934586213, ,0.0891051094445735,0.03882853582588821,0.043284813913043486,-0.015243569461291464,0.07255307624402754,-0.05759859111637744, ,1.121607780456543
0.013570712421853919,0.022702719946936296,-0.09103790147944296, ,0.014536214412393262,0.022290914352853134,-0.09204619933142666, ,0.0014554870316730957, ,0.01753055743728011,0.004582988102280189,-0.040489631410505364,0.02070941966118839,-0.030517899969546756,-0.025262649215597715, ,0.0443591532354485, ,0.03687971608689326, ,0.0007931242056231106, ,0.22754260140615096,-0.1923578304311841,0.10739503392000001,2.1459668816206223,1.2804206393019424,-1.083057934586213, ,0.0891051094445735,0.03882853582588821,0.043284813913043486,-0.015243569461291464,0.07255307624402754,-0.05759859111637744, ,1.1235368251800537
0.013751530091160103,0.02274115959960391,-0.09143346041931492, ,0.014576250900065773,0.022286777579104244,-0.09212479852185435, ,0.0011681505918408747, ,0.017552551913216984,0.002964152332391499,-0.0356935365114258,-0.006605200040622378,-0.05193968270375459,0.001738667048631017, ,0.0398861733738433, ,0.05235743854529578, ,0.0007958817525805942, ,0.22852338848117745,-0.19193308012310173,0.10781762446000001,2.1455475017336534,1.2811038218007695,-1.0835333453645546, ,0.10010225902792276,0.045361826748791,0.038198588776978425,-0.017332666101215807,0.06156916872651326,-0.0244059067888946, ,1.1254448890686035
0.013751530091160103,0.02274115959960391,-0.09143346041931492, ,0.014616372954560756,0.02228239443730372,-0.09220319326749646, ,0.0012453542909891197, ,0.017552551913216984,0.002964152332391499,-0.0356935365114258,-0.006605200040622378,-0.05193968270375459,0.001738667048631017, ,0.0398861733738433, ,0.05235743854529578, ,0.0007991625740288316, ,0.22852338848117745,-0.19193308012310173,0.10781762446000001,2.1455475017336534,1.2811038218007695,-1.0835333453645546, ,0.10010225902792276,0.045361826748791,0.038198588776978425,-0.017332666101215807,0.06156916872651326,-0.0244059067888946, ,1.127323865890503
0.013751530091160103,0.02274115959960391,-0.09143346041931492, ,0.014656580072801541,0.022277767518634327,-0.09228138497537458, ,0.0013239424997874539, ,0.017552551913216984,0.002964152332391499,-0.0356935365114258,-0.006605200040622378,-0.05193968270375459,0.001738667048631017, ,0.0398861733738433, ,0.05235743854529578, ,0.0008029653271140391, ,0.22852338848117745,-0.19193308012310173,0.10781762446000001,2.1455475017336534,1.2811038218007695,-1.0835333453645546, ,0.10010225902792276,0.045361826748791,0.038198588776978425,-0.017332666101215807,0.06156916872651326,-0.0244059067888946, ,1.1292459964752197
0.013751530091160103,0.02274115959960391,-0.09143346041931492, ,0.014696871753256353,0.022272899405561354,-0.09235937504659002, ,0.0014036582078346728, ,0.017552551913216984,0.002964152332391499,-0.0356935365114258,-0.006605200040622378,-0.05193968270375459,0.001738667048631017, ,0.0398861733738433, ,0.05235743854529578, ,0.0008072868586300148, ,0.22852338848117745,-0.19193308012310173,0.10781762446000001,2.1455475017336534,1.2811038218007695,-1.0835333453645546, ,0.10010225902792276,0.045361826748791,0.038198588776978425,-0.017332666101215807,0.06156916872651326,-0.0244059067888946, ,1.131140947341919
0.013751530091160103,0.02274115959960391,-0.09143346041931492, ,0.014737247495937187,0.022267792671844047,-0.09243716487633453, ,0.001484297034767068, ,0.017552551913216984,0.002964152332391499,-0.0356935365114258,-0.006605200040622378,-0.05193968270375459,0.001738667048631017, ,0.0398861733738433, ,0.05235743854529578, ,0.0008121226456024224, ,0.22852338848117745,-0.19193308012310173,0.10781762446000001,2.1455475017336534,1.2811038218007695,-1.0835333453645546, ,0.10010225902792276,0.045361826748791,0.038198588776978425,-0.017332666101215807,0.06156916872651326,-0.0244059067888946, ,1.1330838203430176
0.013751530091160103,0.02274115959960391,-0.09143346041931492, ,0.0147777068023973,0.022262449882546588,-0.09251475585389814, ,0.001565695197904492, ,0.017552551913216984,0.002964152332391499,-0.0356935365114258,-0.006605200040622378,-0.05193968270375459,0.001738667048631017, ,0.0398861733738433, ,0.05235743854529578, ,0.0008174671317889618, ,0.22852338848117745,-0.19193308012310173,0.10781762446000001,2.1455475017336534,1.2811038218007695,-1.0835333453645546, ,0.10010225902792276,0.045361826748791,0.038198588776978425,-0.017332666101215807,0.06156916872651326,-0.0244059067888946, ,1.135119915008545
0.01392437939376569,0.022756614614033166,-0.09177807697299695, ,0.014818249175729064,0.022256873594049778,-0.09259214936268001, ,0.0013082270941260836, ,0.018474584428677665,0.0010153477671640465,-0.036389726481442765,0.006769712298525556,-0.0336154919154898,0.020592432013648652, ,0.04082344172524949, ,0.034289451593156266, ,0.0008209231878617585, ,0.22955051195344933,-0.19139248882190601,0.10818577082000001,2.1449184319031995,1.2819236407993624,-1.0842018527867334, ,0.11099057492218804,0.06339141052670058,0.03894574943765281,-0.0691705276510927,0.10729270946937171,-0.06855642167147784, ,1.1372637748718262
0.01392437939376569,0.022756614614033166,-0.09177807697299695, ,0.014858874120562481,0.022251066354062096,-0.09266934678019713, ,0.0013868025478767458, ,0.018474584428677665,0.0010153477671640465,-0.036389726481442765,0.006769712298525556,-0.0336154919154898,0.020592432013648652, ,0.04082344172524949, ,0.034289451593156266, ,0.0008248803861835416, ,0.22955051195344933,-0.19139248882190601,0.10818577082000001,2.1449184319031995,1.2819236407993624,-1.0842018527867334, ,0.11099057492218804,0.06339141052670058,0.03894574943765281,-0.0691705276510927,0.10729270946937171,-0.06855642167147784, ,1.1392018795013428
0.01392437939376569,0.022756614614033166,-0.09177807697299695, ,0.014899581143062342,0.022245030701631075,-0.09274634947809424, ,0.001466386100379862, ,0.018474584428677665,0.0010153477671640465,-0.036389726481442765,0.006769712298525556,-0.0336154919154898,0.020592432013648652, ,0.04082344172524949, ,0.034289451593156266, ,0.0008293352869765716, ,0.22955051195344933,-0.19139248882190601,0.10818577082000001,2.1449184319031995,1.2819236407993624,-1.0842018527867334, ,0.11099057492218804,0.06339141052670058,0.03894574943765281,-0.0691705276510927,0.10729270946937171,-0.06855642167147784, ,1.141068935394287
0.01392437939376569,0.022756614614033166,-0.09177807697299695, ,0.014940369750927095,0.022238769167154383,-0.09282315882215292, ,0.0015468019860775033, ,0.018474584428677665,0.0010153477671640465,-0.036389726481442765,0.006769712298525556,-0.0336154919154898,0.020592432013648652, ,0.04082344172524949, ,0.034289451593156266, ,0.0008342833331772676, ,0.22955051195344933,-0.19139248882190601,0.10818577082000001,2.1449184319031995,1.2819236407993624,-1.0842018527867334, ,0.11099057492218804,0.06339141052670058,0.03894574943765281,-0.0691705276510927,0.10729270946937171,-0.06855642167147784, ,1.142988920211792
0.014128392430098632,0.02276607244950188,-0.09216801984788896, ,0.014981239453385966,0.022232284272391326,-0.09289977617230123, ,0.0012440840733127466, ,0.018789601597745585,0.0005069641587042799,-0.03482076884945495,0.008958800030457634,-0.03430531231527208,0.0002660110339325868, ,0.039570090777345794, ,0.03545508934201239, ,0.0008370901875617572, ,0.23079387194619946,-0.1906897201303516,0.10860447249,2.144289362072746,1.2831533692972512,-1.0850412564397198, ,0.11615292724415029,0.06659434495331282,0.03739157633802818,-0.04998575436112587,0.10811851150315469,-0.07013879148758645, ,1.144864797592163
0.014128392430098632,0.02276607244950188,-0.09216801984788896, ,0.015022189761197317,0.022225578530474008,-0.09297620288262348, ,0.0013206692103694797, ,0.018789601597745585,0.0005069641587042799,-0.03482076884945495,0.008958800030457634,-0.03430531231527208,0.0002660110339325868, ,0.039570090777345794, ,0.03545508934201239, ,0.0008403798407781363, ,0.23079387194619946,-0.1906897201303516,0.10860447249,2.144289362072746,1.2831533692972512,-1.0850412564397198, ,0.11615292724415029,0.06659434495331282,0.03739157633802818,-0.04998575436112587,0.10811851150315469,-0.07013879148758645, ,1.1467869281768799
0.014128392430098632,0.02276607244950188,-0.09216801984788896, ,0.015063220186646664,0.022218654445918713,-0.09305244030136876, ,0.0013984880920454887, ,0.018789601597745585,0.0005069641587042799,-0.03482076884945495,0.008958800030457634,-0.03430531231527208,0.0002660110339325868, ,0.039570090777345794, ,0.03545508934201239, ,0.0008441508424758886, ,0.23079387194619946,-0.1906897201303516,0.10860447249,2.144289362072746,1.2831533692972512,-1.0850412564397198, ,0.11615292724415029,0.06659434495331282,0.03739157633802818,-0.04998575436112587,0.10811851150315469,-0.07013879148758645, ,1.148850917816162
0.014128392430098632,0.02276607244950188,-0.09216801984788896, ,0.01510433024354449,0.02221151451463705,-0.09312848977096219, ,0.0014773258245774116, ,0.018789601597745585,0.0005069641587042799,-0.03482076884945495,0.008958800030457634,-0.03430531231527208,0.0002660110339325868, ,0.039570090777345794, ,0.03545508934201239, ,0.00084840033900006, ,0.23079387194619946,-0.1906897201303516,0.10860447249,2.144289362072746,1.2831533692972512,-1.0850412564397198, ,0.11615292724415029,0.06659434495331282,0.03739157633802818,-0.04998575436112587,0.10811851150315469,-0.07013879148758645, ,1.1509809494018555
0.014128392430098632,0.02276607244950188,-0.09216801984788896, ,0.015145519447224271,0.02220416122394735,-0.09320435262801216, ,0.0015570090640484337, ,0.018789601597745585,0.0005069641587042799,-0.03482076884945495,0.008958800030457634,-0.03430531231527208,0.0002660110339325868, ,0.039570090777345794, ,0.03545508934201239, ,0.0008531243971670492, ,0.23079387194619946,-0.1906897201303516,0.10860447249,2.144289362072746,1.2831533692972512,-1.0850412564397198, ,0.11615292724415029,0.06659434495331282,0.03739157633802818,-0.04998575436112587,0.10811851150315469,-0.07013879148758645, ,1.1531059741973877
0.014280865496935673,0.022765316823094017,-0.09244432208542645, ,0.015186787314540302,0.02219659705258592,-0.09328003020332182, ,0.0013574036154714887, ,0.019457532269220753,-0.0005259975832193229,-0.03504814840204228,0.019998069232570057,-0.014658497032685437,-0.04484268286607205, ,0.040090459486976426, ,0.0247939795949361, ,0.000856463994639264, ,0.23079387194619946,-0.1906897201303516,0.10860447249,2.144289362072746,1.2831533692972512,-1.0850412564397198, ,0.11615292724415029,0.06659434495331282,0.03739157633802818,-0.04998575436112587,0.10811851150315469,-0.07013879148758645, ,1.1554749011993408
0.014280865496935673,0.022765316823094017,-0.09244432208542645, ,0.015228133363865722,0.02218882447071825,-0.093355523821897, ,0.0014352520505517142, ,0.019457532269220753,-0.0005259975832193229,-0.03504814840204228,0.019998069232570057,-0.014658497032685437,-0.04484268286607205, ,0.040090459486976426, ,0.0247939795949361, ,0.0008602718107965828, ,0.23174376808972907,-0.1900950696990363,0.10890261919000001,2.1440796721292616,1.2842464612953748,-1.0858509209291505, ,0.1204275908102421,0.08048934822601424,0.03765676482269504,-0.013853410355733592,0.12822842804535278,-0.08465923975598298, ,1.1574928760528564
0.014280865496935673,0.022765316823094017,-0.09244432208542645, ,0.015269557115090631,0.022180845939950327,-0.09343083480295697, ,0.00151404249309657, ,0.019457532269220753,-0.0005259975832193229,-0.03504814840204228,0.019998069232570057,-0.014658497032685437,-0.04484268286607205, ,0.040090459486976426, ,0.0247939795949361, ,0.0008645448217920075, ,0.23174376808972907,-0.1900950696990363,0.10890261919000001,2.1440796721292616,1.2842464612953748,-1.0858509209291505, ,0.1204275908102421,0.08048934822601424,0.03765676482269504,-0.013853410355733592,0.12822842804535278,-0.08465923975598298, ,1.1594069004058838
0.014280865496935673,0.022765316823094017,-0.09244432208542645, ,0.015311058089619809,0.022172663913340003,-0.09350596445994294, ,0.00159361814147247, ,0.019457532269220753,-0.0005259975832193229,-0.03504814840204228,0.019998069232570057,-0.014658497032685437,-0.04484268286607205, ,0.040090459486976426, ,0.0247939795949361, ,0.0008692790641275949, ,0.23174376808972907,-0.1900950696990363,0.10890261919000001,2.1440796721292616,1.2842464612953748,-1.0858509209291505, ,0.1204275908102421,0.08048934822601424,0.03765676482269504,-0.013853410355733592,0.12822842804535278,-0.08465923975598298, ,1.1613588333129883
0.014280865496935673,0.022765316823094017,-0.09244432208542645, ,0.015352635810370862,0.022164280835408157,-0.09358091410052788, ,0.0016738510304226, ,0.019457532269220753,-0.0005259975832193229,-0.03504814840204228,0.019998069232570057,-0.014658497032685437,-0.04484268286607205, ,0.040090459486976426, ,0.0247939795949361, ,0.0008744698510069176, ,0.23174376808972907,-0.1900950696990363,0.10890261919000001,2.1440796721292616,1.2842464612953748,-1.0858509209291505, ,0.1204275908102421,0.08048934822601424,0.03765676482269504,-0.013853410355733592,0.12822842804535278,-0.08465923975598298, ,1.1632969379425049
0.014519291008982544,0.022750491051633525,-0.09287909733359125, ,0.01539428980177193,0.022155699142150112,-0.09365568502662637, ,0.001312436188141513, ,0.020260251852125138,-0.0016126260061274018,-0.03731354256574398,0.009791670960378819,-0.027447828442845414,0.010485091800388778, ,0.042489749664510454, ,0.029140826585750054, ,0.000877277327527011, ,0.23323425553445443,-0.18906794622676446,0.10936798730000001,2.1432409123553238,1.28588609929256,-1.0868612208129456, ,0.12636077437878931,0.08918885484818684,0.039822028800000006,-0.09703746715954789,0.1377022932902067,-0.11236102452424297, ,1.165179967880249
0.014519291008982544,0.022750491051633525,-0.09287909733359125, ,0.015436019589759983,0.022146921261046695,-0.09373027853440345, ,0.0013889554418840646, ,0.020260251852125138,-0.0016126260061274018,-0.03731354256574398,0.009791670960378819,-0.027447828442845414,0.010485091800388778, ,0.042489749664510454, ,0.029140826585750054, ,0.0008805364237968012, ,0.23323425553445443,-0.18906794622676446,0.10936798730000001,2.1432409123553238,1.28588609929256,-1.0868612208129456, ,0.12636077437878931,0.08918885484818684,0.039822028800000006,-0.09703746715954789,0.1377022932902067,-0.11236102452424297, ,1.1670868396759033
0.014519291008982544,0.022750491051633525,-0.09287909733359125, ,0.015477824701778489,0.022137949611075673,-0.09380469591428428, ,0.0014665355737951535, ,0.020260251852125138,-0.0016126260061274018,-0.03731354256574398,0.009791670960378819,-0.027447828442845414,0.010485091800388778, ,0.042489749664510454, ,0.029140826585750054, ,0.0008842452791765374, ,0.23323425553445443,-0.18906794622676446,0.10936798730000001,2.1432409123553238,1.28588609929256,-1.0868612208129456, ,0.12636077437878931,0.08918885484818684,0.039822028800000006,-0.09703746715954789,0.1377022932902067,-0.11236102452424297, ,1.1690797805786133
0.014519291008982544,0.022750491051633525,-0.09287909733359125, ,0.015519704666775483,0.02212878660272313,-0.09387893845096434, ,0.0015450003781499577, ,0.020260251852125138,-0.0016126260061274018,-0.03731354256574398,0.009791670960378819,-0.027447828442845414,0.010485091800388778, ,0.042489749664510454, ,0.029140826585750054, ,0.0008884009716229112, ,0.23323425553445443,-0.18906794622676446,0.10936798730000001,2.1432409123553238,1.28588609929256,-1.0868612208129456, ,0.12636077437878931,0.08918885484818684,0.039822028800000006,-0.09703746715954789,0.1377022932902067,-0.11236102452424297, ,1.1710278987884521
0.014519291008982544,0.022750491051633525,-0.09287909733359125, ,0.015561659015201427,0.022119434637994515,-0.09395300742341742, ,0.0016242063103602677, ,0.020260251852125138,-0.0016126260061274018,-0.03731354256574398,0.009791670960378819,-0.027447828442845414,0.010485091800388778, ,0.042489749664510454, ,0.029140826585750054, ,0.0008929997549900195, ,0.23323425553445443,-0.18906794622676446,0.10936798730000001,2.1432409123553238,1.28588609929256,-1.0868612208129456, ,0.12636077437878931,0.08918885484818684,0.039822028800000006,-0.09703746715954789,0.1377022932902067,-0.11236102452424297, ,1.1729178428649902
0.014719542904567302,0.022731328489799224,-0.09324358699828755, ,0.01560368727900741,0.022109896110426033,-0.09402690410490669, ,0.0013347191339415539, ,0.02200837333957494,-0.0021982003970727367,-0.039555380306903684,0.00023276952943919178,-0.017382069082669562,0.03308748770917302, ,0.04531918681158774, ,0.017380842133212702, ,0.0008957433536170477, ,0.234493060992953,-0.1881721092133544,0.10975687430000002,2.142192462637901,1.2872524642902146,-1.0878120423696285, ,0.13793160110242844,0.09926458322015773,0.04236386042553192,-0.1056581166918028,0.16133021940508246,-0.08297804008154878, ,1.1750919818878174
0.014719542904567302,0.022731328489799224,-0.09324358699828755, ,0.015645788991642737,0.02210017340509601,-0.0941006297629931, ,0.0014109609687384737, ,0.02200837333957494,-0.0021982003970727367,-0.039555380306903684,0.00023276952943919178,-0.017382069082669562,0.03308748770917302, ,0.04531918681158774, ,0.017380842133212702, ,0.0008989237092659454, ,0.234493060992953,-0.1881721092133544,0.10975687430000002,2.142192462637901,1.2872524642902146,-1.0878120423696285, ,0.13793160110242844,0.09926458322015773,0.04236386042553192,-0.1056581166918028,0.16133021940508246,-0.08297804008154878, ,1.1770379543304443
