NicholasDascanio/dvrk_moveit_final/test/execution/third_experiment_notsharpbends/thirdexp_600vel4.0/thirdexp_600vel4.0_21.csv
Current Position (x),Current Position (y),Current Position (z), ,Planned Position (x),Planned Position (y),Planned Position (z), ,Position Error,,Cartesian linear Velocity(x),Cartesian linear Velocity(y),Cartesian linear Velocity(z),Cartesian Angular Velocity(x),Cartesian Angular Velocity(y),Cartesian Angular Velocity(z), ,Total Linear Velocity, ,Total Angular Velocity, ,MSE, ,Joint 1 Position,Joint 2 Position,Joint 3 Position,Joint 4 Position,Joint 5 Position,Joint 6 Position, ,Joint 1 Velocity,Joint 2 Velocity,Joint 3 Velocity,Joint 4 Velocity,Joint 5 Velocity,Joint 6 Velocity, ,Time Stamp
0.08958435507232612,0.07941449842505807,-0.1391489551595156, ,0.010134562346482794,0.020301355294417827,-0.07895810906737834, ,0.11588602680327936, ,2.588449643193841e-05,5.359639011884457e-06,1.9723317073772712e-05,-0.0007478540370277251,-0.0008831203869873451,0.0012214492897535004, ,3.298093573968635e-05, ,0.0011572325948621324, ,0.00965716890027328, ,0.0,0.0,0.0,0.0,0.0,0.0, ,0.0,0.0,0.0,0.0,0.0,0.0, ,0.01885509490966797
0.08958435507232612,0.07941449842505807,-0.1391489551595156, ,0.010154225856933433,0.02030873695073611,-0.07902156096891756, ,0.11583583210209605, ,2.588449643193841e-05,5.359639011884457e-06,1.9723317073772712e-05,-0.0007478540370277251,-0.0008831203869873451,0.0012214492897535004, ,3.298093573968635e-05, ,0.0011572325948621324, ,0.010532811768426156, ,0.0,0.0,0.0,0.0,0.0,0.0, ,0.0,0.0,0.0,0.0,0.0,0.0, ,0.03952312469482422
0.08958435507232612,0.07941449842505807,-0.1391489551595156, ,0.010173987641899616,0.02031603099213437,-0.07908525461589602, ,0.11578550613677557, ,2.588449643193841e-05,5.359639011884457e-06,1.9723317073772712e-05,-0.0007478540370277251,-0.0008831203869873451,0.0012214492897535004, ,3.298093573968635e-05, ,0.0011572325948621324, ,0.010859605157567218, ,0.0,0.0,0.0,0.0,0.0,0.0, ,0.0,0.0,0.0,0.0,0.0,0.0, ,0.061055898666381836
0.08958435507232612,0.07941449842505807,-0.1391489551595156, ,0.010193847413130917,0.02032323783468996,-0.07914918810984012, ,0.11573505013849024, ,2.588449643193841e-05,5.359639011884457e-06,1.9723317073772712e-05,-0.0007478540370277251,-0.0008831203869873451,0.0012214492897535004, ,3.298093573968635e-05, ,0.0011572325948621324, ,0.011029581313824791, ,0.0,0.0,0.0,0.0,0.0,0.0, ,0.0,0.0,0.0,0.0,0.0,0.0, ,0.07995200157165527
0.08958435507232612,0.07941449842505807,-0.1391489551595156, ,0.010213804882861095,0.02033035789380083,-0.07921335955709702, ,0.1156844653352921, ,2.588449643193841e-05,5.359639011884457e-06,1.9723317073772712e-05,-0.0007478540370277251,-0.0008831203869873451,0.0012214492897535004, ,3.298093573968635e-05, ,0.0011572325948621324, ,0.011133209240691026, ,0.0,0.0,0.0,0.0,0.0,0.0, ,0.0,0.0,0.0,0.0,0.0,0.0, ,0.09914612770080566
0.08958435507232612,0.07941449842505807,-0.1391489551595156, ,0.010233859763807146,0.02033739158418646,-0.07927776706883055, ,0.11563375295209112, ,2.588449643193841e-05,5.359639011884457e-06,1.9723317073772712e-05,-0.0007478540370277251,-0.0008831203869873451,0.0012214492897535004, ,3.298093573968635e-05, ,0.0011572325948621324, ,0.011202590862387491, ,0.0,0.0,0.0,0.0,0.0,0.0, ,0.0,0.0,0.0,0.0,0.0,0.0, ,0.11877608299255371
0.08958435507232612,0.07941449842505807,-0.1391489551595156, ,0.010254011769168524,0.020344339319888556,-0.07934240876101724, ,0.11558291421063331, ,2.588449643193841e-05,5.359639011884457e-06,1.9723317073772712e-05,-0.0007478540370277251,-0.0008831203869873451,0.0012214492897535004, ,3.298093573968635e-05, ,0.0011572325948621324, ,0.011251993717759135, ,0.0,0.0,0.0,0.0,0.0,0.0, ,0.0,0.0,0.0,0.0,0.0,0.0, ,0.13757610321044922
0.08958435507232612,0.07941449842505807,-0.1391489551595156, ,0.010274260612627812,0.020351201514270355,-0.07940728275443994, ,0.11553195032948035, ,2.588449643193841e-05,5.359639011884457e-06,1.9723317073772712e-05,-0.0007478540370277251,-0.0008831203869873451,0.0012214492897535004, ,3.298093573968635e-05, ,0.0011572325948621324, ,0.0112887255854651, ,0.0,0.0,0.0,0.0,0.0,0.0, ,0.0,0.0,0.0,0.0,0.0,0.0, ,0.15823698043823242
0.08958435507232612,0.07941449842505807,-0.1391489551595156, ,0.010294606008349555,0.020357978580018303,-0.07947238717468474, ,0.11548086252398745, ,2.588449643193841e-05,5.359639011884457e-06,1.9723317073772712e-05,-0.0007478540370277251,-0.0008831203869873451,0.0012214492897535004, ,3.298093573968635e-05, ,0.0011572325948621324, ,0.011316916962305712, ,0.0,0.0,0.0,0.0,0.0,0.0, ,0.0,0.0,0.0,0.0,0.0,0.0, ,0.17882990837097168
0.08958435507232612,0.07941449842505807,-0.1391489551595156, ,0.010315047670980076,0.020364670929141716,-0.07953772015213562, ,0.1154296520062833, ,2.588449643193841e-05,5.359639011884457e-06,1.9723317073772712e-05,-0.0007478540370277251,-0.0008831203869873451,0.0012214492897535004, ,3.298093573968635e-05, ,0.0011572325948621324, ,0.011339078554298125, ,0.0,0.0,0.0,0.0,0.0,0.0, ,0.0,0.0,0.0,0.0,0.0,0.0, ,0.1989140510559082
0.08958435507232612,0.07941449842505807,-0.1391489551595156, ,0.01033558531564715,0.020371278972973347,-0.0796032798219696, ,0.11537831998524933, ,2.588449643193841e-05,5.359639011884457e-06,1.9723317073772712e-05,-0.0007478540370277251,-0.0008831203869873451,0.0012214492897535004, ,3.298093573968635e-05, ,0.0011572325948621324, ,0.011356824397532663, ,0.0,0.0,0.0,0.0,0.0,0.0, ,0.0,0.0,0.0,0.0,0.0,0.0, ,0.21759295463562012
0.08958435507232612,0.07941449842505807,-0.1391489551595156, ,0.010356218657959633,0.020377803122169837,-0.07966906432415262, ,0.11532686766649926, ,2.588449643193841e-05,5.359639011884457e-06,1.9723317073772712e-05,-0.0007478540370277251,-0.0008831203869873451,0.0012214492897535004, ,3.298093573968635e-05, ,0.0011572325948621324, ,0.01146521653049717, ,0.0,0.0,0.0,0.0,0.0,0.0, ,0.0,0.0,0.0,0.0,0.0,0.0, ,0.23936009407043457
0.08958435507232612,0.07941449842505807,-0.1391489551595156, ,0.01037694741400691,0.02038424378671241,-0.0797350718034349, ,0.11527529625235867, ,2.588449643193841e-05,5.359639011884457e-06,1.9723317073772712e-05,-0.0007478540370277251,-0.0008831203869873451,0.0012214492897535004, ,3.298093573968635e-05, ,0.0011572325948621324, ,0.011558203818788587, ,0.0,0.0,0.0,0.0,0.0,0.0, ,0.0,0.0,0.0,0.0,0.0,0.0, ,0.25757789611816406
0.08958435507232612,0.07941449842505807,-0.1391489551595156, ,0.010397771300358787,0.020390601375906765,-0.07980130040934535, ,0.11522360694184598, ,2.588449643193841e-05,5.359639011884457e-06,1.9723317073772712e-05,-0.0007478540370277251,-0.0008831203869873451,0.0012214492897535004, ,3.298093573968635e-05, ,0.0011572325948621324, ,0.011638777722189656, ,0.0,0.0,0.0,0.0,0.0,0.0, ,0.0,0.0,0.0,0.0,0.0,0.0, ,0.2756221294403076
0.08958435507232612,0.07941449842505807,-0.1391489551595156, ,0.010418690034065044,0.020396876298383732,-0.07986774829618801, ,0.11517180093065192, ,2.588449643193841e-05,5.359639011884457e-06,1.9723317073772712e-05,-0.0007478540370277251,-0.0008831203869873451,0.0012214492897535004, ,3.298093573968635e-05, ,0.0011572325948621324, ,0.011709202056182528, ,0.0,0.0,0.0,0.0,0.0,0.0, ,0.0,0.0,0.0,0.0,0.0,0.0, ,0.29215312004089355
0.08958435507232612,0.07941449842505807,-0.1391489551595156, ,0.010439703332654664,0.020403068962099855,-0.07993441362303681, ,0.11511987941112059, ,2.588449643193841e-05,5.359639011884457e-06,1.9723317073772712e-05,-0.0007478540370277251,-0.0008831203869873451,0.0012214492897535004, ,3.298093573968635e-05, ,0.0011572325948621324, ,0.011771221552395763, ,0.0,0.0,0.0,0.0,0.0,0.0, ,0.0,0.0,0.0,0.0,0.0,0.0, ,0.3152000904083252
0.08958435507232612,0.07941449842505807,-0.1391489551595156, ,0.010460810914136165,0.02040917977433762,-0.08000129455373113, ,0.11506784357222986, ,2.588449643193841e-05,5.359639011884457e-06,1.9723317073772712e-05,-0.0007478540370277251,-0.0008831203869873451,0.0012214492897535004, ,3.298093573968635e-05, ,0.0011572325948621324, ,0.011826202574086534, ,0.0,0.0,0.0,0.0,0.0,0.0, ,0.0,0.0,0.0,0.0,0.0,0.0, ,0.3316950798034668
0.08958435507232612,0.07941449842505807,-0.1391489551595156, ,0.010482012496996599,0.02041520914170581,-0.08006838925687086, ,0.1150156945995729, ,2.588449643193841e-05,5.359639011884457e-06,1.9723317073772712e-05,-0.0007478540370277251,-0.0008831203869873451,0.0012214492897535004, ,3.298093573968635e-05, ,0.0011572325948621324, ,0.011875230410845357, ,0.0,0.0,0.0,0.0,0.0,0.0, ,0.0,0.0,0.0,0.0,0.0,0.0, ,0.3529469966888428
0.08958435507232612,0.07941449842505807,-0.1391489551595156, ,0.010503307800201324,0.02042115747014027,-0.0801356959058121, ,0.11496343367533887, ,2.588449643193841e-05,5.359639011884457e-06,1.9723317073772712e-05,-0.0007478540370277251,-0.0008831203869873451,0.0012214492897535004, ,3.298093573968635e-05, ,0.0011572325948621324, ,0.011919178019419979, ,0.0,0.0,0.0,0.0,0.0,0.0, ,0.0,0.0,0.0,0.0,0.0,0.0, ,0.3719959259033203
0.08958435507232612,0.07941449842505807,-0.1391489551595156, ,0.010524696543193922,0.020427025164903793,-0.08020321267866241, ,0.11491106197829459, ,2.588449643193841e-05,5.359639011884457e-06,1.9723317073772712e-05,-0.0007478540370277251,-0.0008831203869873451,0.0012214492897535004, ,3.298093573968635e-05, ,0.0011572325948621324, ,0.01195875553135529, ,0.0,0.0,0.0,0.0,0.0,0.0, ,0.0,0.0,0.0,0.0,0.0,0.0, ,0.3891410827636719
0.08958435507232612,0.07941449842505807,-0.1391489551595156, ,0.01054617844589559,0.02043281263058682,-0.08027093775827582, ,0.11485858068376632, ,2.588449643193841e-05,5.359639011884457e-06,1.9723317073772712e-05,-0.0007478540370277251,-0.0008831203869873451,0.0012214492897535004, ,3.298093573968635e-05, ,0.0011572325948621324, ,0.011994546525917511, ,0.0,0.0,0.0,0.0,0.0,0.0, ,0.0,0.0,0.0,0.0,0.0,0.0, ,0.40818095207214355
0.08958435507232612,0.07941449842505807,-0.1391489551595156, ,0.010567753228704695,0.020438520271108183,-0.08033886933224862, ,0.11480599096362125, ,2.588449643193841e-05,5.359639011884457e-06,1.9723317073772712e-05,-0.0007478540370277251,-0.0008831203869873451,0.0012214492897535004, ,3.298093573968635e-05, ,0.0011572325948621324, ,0.012027035019900278, ,0.0,0.0,0.0,0.0,0.0,0.0, ,0.0,0.0,0.0,0.0,0.0,0.0, ,0.4260420799255371
0.08958435507232612,0.07941449842505807,-0.1391489551595156, ,0.010589420612496249,0.0204441484897149,-0.0804070055929146, ,0.1147532939862501, ,2.588449643193841e-05,5.359639011884457e-06,1.9723317073772712e-05,-0.0007478540370277251,-0.0008831203869873451,0.0012214492897535004, ,3.298093573968635e-05, ,0.0011572325948621324, ,0.01211167891865392, ,0.0,0.0,0.0,0.0,0.0,0.0, ,0.0,0.0,0.0,0.0,0.0,0.0, ,0.4431619644165039
0.08958435507232612,0.07941449842505807,-0.1391489551595156, ,0.010611180318622097,0.02044969768898293,-0.08047534473733996, ,0.11470049091654909, ,2.588449643193841e-05,5.359639011884457e-06,1.9723317073772712e-05,-0.0007478540370277251,-0.0008831203869873451,0.0012214492897535004, ,3.298093573968635e-05, ,0.0011572325948621324, ,0.012190124114985717, ,0.0,0.0,0.0,0.0,0.0,0.0, ,0.0,0.0,0.0,0.0,0.0,0.0, ,0.45876193046569824
0.08958435507232612,0.07941449842505807,-0.1391489551595156, ,0.010633032068910236,0.020455168270817517,-0.08054388496731925, ,0.11464758291590237, ,2.588449643193841e-05,5.359639011884457e-06,1.9723317073772712e-05,-0.0007478540370277251,-0.0008831203869873451,0.0012214492897535004, ,3.298093573968635e-05, ,0.0011572325948621324, ,0.012263003221351746, ,0.0,0.0,0.0,0.0,0.0,0.0, ,0.0,0.0,0.0,0.0,0.0,0.0, ,0.47643208503723145
0.08958435507232612,0.07941449842505807,-0.1391489551595156, ,0.010654975585664013,0.02046056063645377,-0.08061262448937022, ,0.11459457114216515, ,2.588449643193841e-05,5.359639011884457e-06,1.9723317073772712e-05,-0.0007478540370277251,-0.0008831203869873451,0.0012214492897535004, ,3.298093573968635e-05, ,0.0011572325948621324, ,0.012330865547982819, ,0.0,0.0,0.0,0.0,0.0,0.0, ,0.0,0.0,0.0,0.0,0.0,0.0, ,0.49324607849121094
0.08958435507232612,0.07941449842505807,-0.1391489551595156, ,0.010677010591662303,0.02046587518645695,-0.08068156151472984, ,0.11454145674964601, ,2.588449643193841e-05,5.359639011884457e-06,1.9723317073772712e-05,-0.0007478540370277251,-0.0008831203869873451,0.0012214492897535004, ,3.298093573968635e-05, ,0.0011572325948621324, ,0.012394190378125383, ,0.0,0.0,0.0,0.0,0.0,0.0, ,0.0,0.0,0.0,0.0,0.0,0.0, ,0.5083940029144287
0.08958435507232612,0.07941449842505807,-0.1391489551595156, ,0.010699136810159151,0.020471112320722545,-0.08075069425934851, ,0.1144882408890908, ,2.588449643193841e-05,5.359639011884457e-06,1.9723317073772712e-05,-0.0007478540370277251,-0.0008831203869873451,0.0012214492897535004, ,3.298093573968635e-05, ,0.0011572325948621324, ,0.01245339778300603, ,0.0,0.0,0.0,0.0,0.0,0.0, ,0.0,0.0,0.0,0.0,0.0,0.0, ,0.5260729789733887
0.08958435507232612,0.07941449842505807,-0.1391489551595156, ,0.010721353964882987,0.020476272438477324,-0.08082002094388652, ,0.1144349247076653, ,2.588449643193841e-05,5.359639011884457e-06,1.9723317073772712e-05,-0.0007478540370277251,-0.0008831203869873451,0.0012214492897535004, ,3.298093573968635e-05, ,0.0011572325948621324, ,0.012508857492532685, ,0.0,0.0,0.0,0.0,0.0,0.0, ,0.0,0.0,0.0,0.0,0.0,0.0, ,0.5415530204772949
0.08958435507232612,0.07941449842505807,-0.1391489551595156, ,0.010743661780036341,0.020481355938279558,-0.08088953979370912, ,0.11438150934893898, ,2.588449643193841e-05,5.359639011884457e-06,1.9723317073772712e-05,-0.0007478540370277251,-0.0008831203869873451,0.0012214492897535004, ,3.298093573968635e-05, ,0.0011572325948621324, ,0.01256089621765515, ,0.0,0.0,0.0,0.0,0.0,0.0, ,0.0,0.0,0.0,0.0,0.0,0.0, ,0.5575640201568604
0.08958435507232612,0.07941449842505807,-0.1391489551595156, ,0.010766059980295891,0.020486363218018874,-0.08095924903888134, ,0.11432799595286901, ,2.588449643193841e-05,5.359639011884457e-06,1.9723317073772712e-05,-0.0007478540370277251,-0.0008831203869873451,0.0012214492897535004, ,3.298093573968635e-05, ,0.0011572325948621324, ,0.012609803730770442, ,0.0,0.0,0.0,0.0,0.0,0.0, ,0.0,0.0,0.0,0.0,0.0,0.0, ,0.5752899646759033
0.08958435507232612,0.07941449842505807,-0.1391489551595156, ,0.010788548290811516,0.02049129467491758,-0.08102914691416352, ,0.11427438565578399, ,2.588449643193841e-05,5.359639011884457e-06,1.9723317073772712e-05,-0.0007478540370277251,-0.0008831203869873451,0.0012214492897535004, ,3.298093573968635e-05, ,0.0011572325948621324, ,0.012655837943174635, ,0.0,0.0,0.0,0.0,0.0,0.0, ,0.0,0.0,0.0,0.0,0.0,0.0, ,0.5900030136108398
0.08958435507232612,0.07941449842505807,-0.1391489551595156, ,0.010811126437206183,0.02049615070553034,-0.0810992316590073, ,0.11422067959036808, ,2.588449643193841e-05,5.359639011884457e-06,1.9723317073772712e-05,-0.0007478540370277251,-0.0008831203869873451,0.0012214492897535004, ,3.298093573968635e-05, ,0.0011572325948621324, ,0.012699229167405308, ,0.0,0.0,0.0,0.0,0.0,0.0, ,0.0,0.0,0.0,0.0,0.0,0.0, ,0.6049740314483643
0.08958435507232612,0.07941449842505807,-0.1391489551595156, ,0.010833794145575632,0.020500931705745046,-0.08116950151755009, ,0.11416687888564536, ,2.588449643193841e-05,5.359639011884457e-06,1.9723317073772712e-05,-0.0007478540370277251,-0.0008831203869873451,0.0012214492897535004, ,3.298093573968635e-05, ,0.0011572325948621324, ,0.012781818300456967, ,0.0,0.0,0.0,0.0,0.0,0.0, ,0.0,0.0,0.0,0.0,0.0,0.0, ,0.6187469959259033
0.08958435507232612,0.07941449842505807,-0.1391489551595156, ,0.010856551142488007,0.020505638070782855,-0.08123995473861098, ,0.11411298466696446, ,2.588449643193841e-05,5.359639011884457e-06,1.9723317073772712e-05,-0.0007478540370277251,-0.0008831203869873451,0.0012214492897535004, ,3.298093573968635e-05, ,0.0011572325948621324, ,0.012860541164877944, ,0.0,0.0,0.0,0.0,0.0,0.0, ,0.0,0.0,0.0,0.0,0.0,0.0, ,0.6323819160461426
0.08958435507232612,0.07941449842505807,-0.1391489551595156, ,0.010879397154983147,0.020510270195198976,-0.08131058957568577, ,0.11405899805598332, ,2.588449643193841e-05,5.359639011884457e-06,1.9723317073772712e-05,-0.0007478540370277251,-0.0008831203869873451,0.0012214492897535004, ,3.298093573968635e-05, ,0.0011572325948621324, ,0.012935651195821189, ,0.0,0.0,0.0,0.0,0.0,0.0, ,0.0,0.0,0.0,0.0,0.0,0.0, ,0.650352954864502
0.08958435507232612,0.07941449842505807,-0.1391489551595156, ,0.010902331910572728,0.020514828472882763,-0.08138140428694236, ,0.11400492017065413, ,2.588449643193841e-05,5.359639011884457e-06,1.9723317073772712e-05,-0.0007478540370277251,-0.0008831203869873451,0.0012214492897535004, ,3.298093573968635e-05, ,0.0011572325948621324, ,0.013007380130989095, ,0.0,0.0,0.0,0.0,0.0,0.0, ,0.0,0.0,0.0,0.0,0.0,0.0, ,0.6644299030303955
0.08958435507232612,0.07941449842505807,-0.1391489551595156, ,0.010925355137239245,0.020519313297058518,-0.08145239713521642, ,0.11395075212520829, ,2.588449643193841e-05,5.359639011884457e-06,1.9723317073772712e-05,-0.0007478540370277251,-0.0008831203869873451,0.0012214492897535004, ,3.298093573968635e-05, ,0.0011572325948621324, ,0.013075940284307312, ,0.0,0.0,0.0,0.0,0.0,0.0, ,0.0,0.0,0.0,0.0,0.0,0.0, ,0.6778991222381592
0.08958435507232612,0.07941449842505807,-0.1391489551595156, ,0.010948466563436239,0.02052372506028568,-0.08152356638800624, ,0.11389649503014193, ,2.588449643193841e-05,5.359639011884457e-06,1.9723317073772712e-05,-0.0007478540370277251,-0.0008831203869873451,0.0012214492897535004, ,3.298093573968635e-05, ,0.0011572325948621324, ,0.013141526539556551, ,0.0,0.0,0.0,0.0,0.0,0.0, ,0.0,0.0,0.0,0.0,0.0,0.0, ,0.6908829212188721
0.08958435507232612,0.07941449842505807,-0.1391489551595156, ,0.010971665918087731,0.02052806415445876,-0.08159491031746839, ,0.1138421499922015, ,2.588449643193841e-05,5.359639011884457e-06,1.9723317073772712e-05,-0.0007478540370277251,-0.0008831203869873451,0.0012214492897535004, ,3.298093573968635e-05, ,0.0011572325948621324, ,0.013204318103393637, ,0.0,0.0,0.0,0.0,0.0,0.0, ,0.0,0.0,0.0,0.0,0.0,0.0, ,0.7092480659484863
0.08958435507232612,0.07941449842505807,-0.1391489551595156, ,0.010994952930587581,0.02053233097080884,-0.0816664272004129, ,0.11378771811436932, ,2.588449643193841e-05,5.359639011884457e-06,1.9723317073772712e-05,-0.0007478540370277251,-0.0008831203869873451,0.0012214492897535004, ,3.298093573968635e-05, ,0.0011572325948621324, ,0.01326448005097283, ,0.0,0.0,0.0,0.0,0.0,0.0, ,0.0,0.0,0.0,0.0,0.0,0.0, ,0.7222490310668945
0.08958435507232612,0.07941449842505807,-0.1391489551595156, ,0.011018327330799303,0.020536525899903017,-0.08173811531829858, ,0.11373320049584972, ,2.588449643193841e-05,5.359639011884457e-06,1.9723317073772712e-05,-0.0007478540370277251,-0.0008831203869873451,0.0012214492897535004, ,3.298093573968635e-05, ,0.0011572325948621324, ,0.013322164692240897, ,0.0,0.0,0.0,0.0,0.0,0.0, ,0.0,0.0,0.0,0.0,0.0,0.0, ,0.7350449562072754
0.08958435507232612,0.07941449842505807,-0.1391489551595156, ,0.01104178884905587,0.0205406493316454,-0.08180997295722871, ,0.11367859823205465, ,2.588449643193841e-05,5.359639011884457e-06,1.9723317073772712e-05,-0.0007478540370277251,-0.0008831203869873451,0.0012214492897535004, ,3.298093573968635e-05, ,0.0011572325948621324, ,0.01337751278271886, ,0.0,0.0,0.0,0.0,0.0,0.0, ,0.0,0.0,0.0,0.0,0.0,0.0, ,0.7503209114074707
0.08958435507232612,0.07941449842505807,-0.1391489551595156, ,0.011065337216158879,0.020544701655277112,-0.08188199840794588, ,0.11362391241459072, ,2.588449643193841e-05,5.359639011884457e-06,1.9723317073772712e-05,-0.0007478540370277251,-0.0008831203869873451,0.0012214492897535004, ,3.298093573968635e-05, ,0.0011572325948621324, ,0.013430654599036834, ,0.0,0.0,0.0,0.0,0.0,0.0, ,0.0,0.0,0.0,0.0,0.0,0.0, ,0.7635679244995117
0.08958435507232612,0.07941449842505807,-0.1391489551595156, ,0.011088972163378967,0.020548683259376862,-0.08195418996582753, ,0.11356914413124496, ,2.588449643193841e-05,5.359639011884457e-06,1.9723317073772712e-05,-0.0007478540370277251,-0.0008831203869873451,0.0012214492897535004, ,3.298093573968635e-05, ,0.0011572325948621324, ,0.013481710896525051, ,0.0,0.0,0.0,0.0,0.0,0.0, ,0.0,0.0,0.0,0.0,0.0,0.0, ,0.7772049903869629
0.08958435507232612,0.07941449842505807,-0.1391489551595156, ,0.01111269342245416,0.020552594531861795,-0.08202654593088161, ,0.11351429446597194, ,2.588449643193841e-05,5.359639011884457e-06,1.9723317073772712e-05,-0.0007478540370277251,-0.0008831203869873451,0.0012214492897535004, ,3.298093573968635e-05, ,0.0011572325948621324, ,0.013565577295205827, ,0.0,0.0,0.0,0.0,0.0,0.0, ,0.0,0.0,0.0,0.0,0.0,0.0, ,0.7896261215209961
0.08958435507232612,0.07941449842505807,-0.1391489551595156, ,0.01113650072559074,0.020556435859987135,-0.08209906460774141, ,0.11345936449888051, ,2.588449643193841e-05,5.359639011884457e-06,1.9723317073772712e-05,-0.0007478540370277251,-0.0008831203869873451,0.0012214492897535004, ,3.298093573968635e-05, ,0.0011572325948621324, ,0.013646756790718854, ,0.0,0.0,0.0,0.0,0.0,0.0, ,0.0,0.0,0.0,0.0,0.0,0.0, ,0.8037528991699219
0.08958435507232612,0.07941449842505807,-0.1391489551595156, ,0.01116039380546239,0.020560207630347042,-0.0821717443056612, ,0.11340435530622066, ,2.588449643193841e-05,5.359639011884457e-06,1.9723317073772712e-05,-0.0007478540370277251,-0.0008831203869873451,0.0012214492897535004, ,3.298093573968635e-05, ,0.0011572325948621324, ,0.013725369794613886, ,0.0,0.0,0.0,0.0,0.0,0.0, ,0.0,0.0,0.0,0.0,0.0,0.0, ,0.8156759738922119
0.08958435507232612,0.07941449842505807,-0.1391489551595156, ,0.01118437239520957,0.020563910228875066,-0.08224458333851115, ,0.11334926796037113, ,2.588449643193841e-05,5.359639011884457e-06,1.9723317073772712e-05,-0.0007478540370277251,-0.0008831203869873451,0.0012214492897535004, ,3.298093573968635e-05, ,0.0011572325948621324, ,0.013801529620640145, ,0.0,0.0,0.0,0.0,0.0,0.0, ,0.0,0.0,0.0,0.0,0.0,0.0, ,0.8278191089630127
0.08958435507232612,0.07941449842505807,-0.1391489551595156, ,0.01120843622843936,0.020567544040844536,-0.08231758002477377, ,0.11329410352982625, ,2.588449643193841e-05,5.359639011884457e-06,1.9723317073772712e-05,-0.0007478540370277251,-0.0008831203869873451,0.0012214492897535004, ,3.298093573968635e-05, ,0.0011572325948621324, ,0.013875343000315654, ,0.0,0.0,0.0,0.0,0.0,0.0, ,0.0,0.0,0.0,0.0,0.0,0.0, ,0.8410050868988037
0.08958435507232612,0.07941449842505807,-0.1391489551595156, ,0.01123258503922538,0.020571109450868628,-0.0823907326875375, ,0.11323886307918421, ,2.588449643193841e-05,5.359639011884457e-06,1.9723317073772712e-05,-0.0007478540370277251,-0.0008831203869873451,0.0012214492897535004, ,3.298093573968635e-05, ,0.0011572325948621324, ,0.013946910554199402, ,0.0,0.0,0.0,0.0,0.0,0.0, ,0.0,0.0,0.0,0.0,0.0,0.0, ,0.8522200584411621
0.08958435507232612,0.07941449842505807,-0.1391489551595156, ,0.011256818562106748,0.020574606842901303,-0.08246403965449406, ,0.11318354766913408, ,2.588449643193841e-05,5.359639011884457e-06,1.9723317073772712e-05,-0.0007478540370277251,-0.0008831203869873451,0.0012214492897535004, ,3.298093573968635e-05, ,0.0011572325948621324, ,0.014016327223243962, ,0.0,0.0,0.0,0.0,0.0,0.0, ,0.0,0.0,0.0,0.0,0.0,0.0, ,0.863224983215332
0.08958435507232612,0.07941449842505807,-0.1391489551595156, ,0.011281136532088062,0.020578036600237465,-0.08253749925793205, ,0.11312815835644456, ,2.588449643193841e-05,5.359639011884457e-06,1.9723317073772712e-05,-0.0007478540370277251,-0.0008831203869873451,0.0012214492897535004, ,3.298093573968635e-05, ,0.0011572325948621324, ,0.014083682664118628, ,0.0,0.0,0.0,0.0,0.0,0.0, ,0.0,0.0,0.0,0.0,0.0,0.0, ,0.8750519752502441
0.08958435507232612,0.07941449842505807,-0.1391489551595156, ,0.011305538684639585,0.020581399105513095,-0.08261110983473328, ,0.11307269619395124, ,2.588449643193841e-05,5.359639011884457e-06,1.9723317073772712e-05,-0.0007478540370277251,-0.0008831203869873451,0.0012214492897535004, ,3.298093573968635e-05, ,0.0011572325948621324, ,0.014149061611965857, ,0.0,0.0,0.0,0.0,0.0,0.0, ,0.0,0.0,0.0,0.0,0.0,0.0, ,0.8883030414581299
0.08958435507232612,0.07941449842505807,-0.1391489551595156, ,0.011330024755695589,0.020584694740706424,-0.0826848697263678, ,0.11301716223054573, ,2.588449643193841e-05,5.359639011884457e-06,1.9723317073772712e-05,-0.0007478540370277251,-0.0008831203869873451,0.0012214492897535004, ,3.298093573968635e-05, ,0.0011572325948621324, ,0.014212544213678612, ,0.0,0.0,0.0,0.0,0.0,0.0, ,0.0,0.0,0.0,0.0,0.0,0.0, ,0.8998169898986816
0.08958435507232612,0.07941449842505807,-0.1391489551595156, ,0.011354594481654916,0.020587923887137607,-0.08275877727888924, ,0.11296155751116364, ,2.588449643193841e-05,5.359639011884457e-06,1.9723317073772712e-05,-0.0007478540370277251,-0.0008831203869873451,0.0012214492897535004, ,3.298093573968635e-05, ,0.0011572325948621324, ,0.014274206334456101, ,0.0,0.0,0.0,0.0,0.0,0.0, ,0.0,0.0,0.0,0.0,0.0,0.0, ,0.9125490188598633
0.08958435507232612,0.07941449842505807,-0.1391489551595156, ,0.01137924759938063,0.02059108692546935,-0.08283283084293032, ,0.11290588307677324, ,2.588449643193841e-05,5.359639011884457e-06,1.9723317073772712e-05,-0.0007478540370277251,-0.0008831203869873451,0.0012214492897535004, ,3.298093573968635e-05, ,0.0011572325948621324, ,0.01436569279129419, ,0.0,0.0,0.0,0.0,0.0,0.0, ,0.0,0.0,0.0,0.0,0.0,0.0, ,0.9230771064758301
0.08958435507232612,0.07941449842505807,-0.1391489551595156, ,0.011403983846199138,0.020594184235707604,-0.08290702877369784, ,0.11285013996436458, ,2.588449643193841e-05,5.359639011884457e-06,1.9723317073772712e-05,-0.0007478540370277251,-0.0008831203869873451,0.0012214492897535004, ,3.298093573968635e-05, ,0.0011572325948621324, ,0.014455064634448641, ,0.0,0.0,0.0,0.0,0.0,0.0, ,0.0,0.0,0.0,0.0,0.0,0.0, ,0.9330599308013916
0.08958435507232612,0.07941449842505807,-0.1391489551595156, ,0.011428802959899936,0.020597216197201663,-0.08298136943096843, ,0.11279432920693831, ,2.588449643193841e-05,5.359639011884457e-06,1.9723317073772712e-05,-0.0007478540370277251,-0.0008831203869873451,0.0012214492897535004, ,3.298093573968635e-05, ,0.0011572325948621324, ,0.014542390078488933, ,0.0,0.0,0.0,0.0,0.0,0.0, ,0.0,0.0,0.0,0.0,0.0,0.0, ,0.9429879188537598
0.08958435507232612,0.07941449842505807,-0.1391489551595156, ,0.011453704678735657,0.020600183188644594,-0.08305585117908353, ,0.11273845183349487, ,2.588449643193841e-05,5.359639011884457e-06,1.9723317073772712e-05,-0.0007478540370277251,-0.0008831203869873451,0.0012214492897535004, ,3.298093573968635e-05, ,0.0011572325948621324, ,0.014627734431241705, ,0.0,0.0,0.0,0.0,0.0,0.0, ,0.0,0.0,0.0,0.0,0.0,0.0, ,0.9556469917297363
0.08958435507232612,0.07941449842505807,-0.1391489551595156, ,0.01147868874142125,0.02060308558807404,-0.08313047238694525, ,0.11268250886902359, ,2.588449643193841e-05,5.359639011884457e-06,1.9723317073772712e-05,-0.0007478540370277251,-0.0008831203869873451,0.0012214492897535004, ,3.298093573968635e-05, ,0.0011572325948621324, ,0.014711160247091527, ,0.0,0.0,0.0,0.0,0.0,0.0, ,0.0,0.0,0.0,0.0,0.0,0.0, ,0.9650540351867676
0.08958435507232612,0.07941449842505807,-0.1391489551595156, ,0.011503754887133566,0.020605923772871966,-0.08320523142801074, ,0.11262650133449312, ,2.588449643193841e-05,5.359639011884457e-06,1.9723317073772712e-05,-0.0007478540370277251,-0.0008831203869873451,0.0012214492897535004, ,3.298093573968635e-05, ,0.0011572325948621324, ,0.014792727470680327, ,0.0,0.0,0.0,0.0,0.0,0.0, ,0.0,0.0,0.0,0.0,0.0,0.0, ,0.9749710559844971
0.08958435507232612,0.07941449842505807,-0.1391489551595156, ,0.011528902855511284,0.020608698119765782,-0.08328012668028885, ,0.11257043024683987, ,2.588449643193841e-05,5.359639011884457e-06,1.9723317073772712e-05,-0.0007478540370277251,-0.0008831203869873451,0.0012214492897535004, ,3.298093573968635e-05, ,0.0011572325948621324, ,0.014872493571699827, ,0.0,0.0,0.0,0.0,0.0,0.0, ,0.0,0.0,0.0,0.0,0.0,0.0, ,0.984126091003418
0.08958435507232612,0.07941449842505807,-0.1391489551595156, ,0.011554132386654408,0.020611409004828184,-0.08335515652633406, ,0.11251429661895897, ,2.588449643193841e-05,5.359639011884457e-06,1.9723317073772712e-05,-0.0007478540370277251,-0.0008831203869873451,0.0012214492897535004, ,3.298093573968635e-05, ,0.0011572325948621324, ,0.014950513671414468, ,0.0,0.0,0.0,0.0,0.0,0.0, ,0.0,0.0,0.0,0.0,0.0,0.0, ,0.9961259365081787
0.08958435507232612,0.07941449842505807,-0.1391489551595156, ,0.011579443221123777,0.02061405680347801,-0.08343031935324334, ,0.11245810145969341, ,2.588449643193841e-05,5.359639011884457e-06,1.9723317073772712e-05,-0.0007478540370277251,-0.0008831203869873451,0.0012214492897535004, ,3.298093573968635e-05, ,0.0011572325948621324, ,0.015026840661500746, ,0.0,0.0,0.0,0.0,0.0,0.0, ,0.0,0.0,0.0,0.0,0.0,0.0, ,1.0059881210327148
0.08958435507232612,0.07941449842505807,-0.1391489551595156, ,0.011604835099941032,0.020616641890480132,-0.08350561355264978, ,0.11240184577382517, ,2.588449643193841e-05,5.359639011884457e-06,1.9723317073772712e-05,-0.0007478540370277251,-0.0008831203869873451,0.0012214492897535004, ,3.298093573968635e-05, ,0.0011572325948621324, ,0.015101525315741871, ,0.0,0.0,0.0,0.0,0.0,0.0, ,0.0,0.0,0.0,0.0,0.0,0.0, ,1.0160369873046875
0.08958435507232612,0.07941449842505807,-0.1391489551595156, ,0.011630307764587466,0.020619164639946747,-0.08358103752071959, ,0.11234553056206475, ,2.588449643193841e-05,5.359639011884457e-06,1.9723317073772712e-05,-0.0007478540370277251,-0.0008831203869873451,0.0012214492897535004, ,3.298093573968635e-05, ,0.0011572325948621324, ,0.015174616395073925, ,0.0,0.0,0.0,0.0,0.0,0.0, ,0.0,0.0,0.0,0.0,0.0,0.0, ,1.0258610248565674
0.08958435507232612,0.07941449842505807,-0.1391489551595156, ,0.011655860957004667,0.020621625425336743,-0.0836565896581461, ,0.11228915682104233, ,2.588449643193841e-05,5.359639011884457e-06,1.9723317073772712e-05,-0.0007478540370277251,-0.0008831203869873451,0.0012214492897535004, ,3.298093573968635e-05, ,0.0011572325948621324, ,0.015276172873894293, ,0.0,0.0,0.0,0.0,0.0,0.0, ,0.0,0.0,0.0,0.0,0.0,0.0, ,1.0334351062774658
0.08958435507232612,0.07941449842505807,-0.1391489551595156, ,0.01168149441959342,0.020624024619456737,-0.08373226837014622, ,0.112232725543298, ,2.588449643193841e-05,5.359639011884457e-06,1.9723317073772712e-05,-0.0007478540370277251,-0.0008831203869873451,0.0012214492897535004, ,3.298093573968635e-05, ,0.0011572325948621324, ,0.015376032315393747, ,0.0,0.0,0.0,0.0,0.0,0.0, ,0.0,0.0,0.0,0.0,0.0,0.0, ,1.041290044784546
0.08958435507232612,0.07941449842505807,-0.1391489551595156, ,0.011707207895213338,0.020626362594461666,-0.08380807206645467, ,0.11217623771727316, ,2.588449643193841e-05,5.359639011884457e-06,1.9723317073772712e-05,-0.0007478540370277251,-0.0008831203869873451,0.0012214492897535004, ,3.298093573968635e-05, ,0.0011572325948621324, ,0.015474234075966806, ,0.0,0.0,0.0,0.0,0.0,0.0, ,0.0,0.0,0.0,0.0,0.0,0.0, ,1.0486268997192383
0.08958435507232612,0.07941449842505807,-0.1391489551595156, ,0.01173300112718306,0.020628639721854494,-0.08388399916132033, ,0.11211969432730103, ,2.588449643193841e-05,5.359639011884457e-06,1.9723317073772712e-05,-0.0007478540370277251,-0.0008831203869873451,0.0012214492897535004, ,3.298093573968635e-05, ,0.0011572325948621324, ,0.015570816302934947, ,0.0,0.0,0.0,0.0,0.0,0.0, ,0.0,0.0,0.0,0.0,0.0,0.0, ,1.056204080581665
0.08958435507232612,0.07941449842505807,-0.1391489551595156, ,0.011758873859279248,0.020630856372487367,-0.08396004807350063, ,0.11206309635359835, ,2.588449643193841e-05,5.359639011884457e-06,1.9723317073772712e-05,-0.0007478540370277251,-0.0008831203869873451,0.0012214492897535004, ,3.298093573968635e-05, ,0.0011572325948621324, ,0.015665815980686587, ,0.0,0.0,0.0,0.0,0.0,0.0, ,0.0,0.0,0.0,0.0,0.0,0.0, ,1.064363956451416
0.08958435507232612,0.07941449842505807,-0.1391489551595156, ,0.011784825835736546,0.020633012916561416,-0.08403621722625815, ,0.11200644477225619, ,2.588449643193841e-05,5.359639011884457e-06,1.9723317073772712e-05,-0.0007478540370277251,-0.0008831203869873451,0.0012214492897535004, ,3.298093573968635e-05, ,0.0011572325948621324, ,0.015759268974719746, ,0.0,0.0,0.0,0.0,0.0,0.0, ,0.0,0.0,0.0,0.0,0.0,0.0, ,1.071800947189331
0.08958435507232612,0.07941449842505807,-0.1391489551595156, ,0.011810856801247105,0.020635109723627677,-0.08411250504735447, ,0.11194974055523209, ,2.588449643193841e-05,5.359639011884457e-06,1.9723317073772712e-05,-0.0007478540370277251,-0.0008831203869873451,0.0012214492897535004, ,3.298093573968635e-05, ,0.0011572325948621324, ,0.015851210073697854, ,0.0,0.0,0.0,0.0,0.0,0.0, ,0.0,0.0,0.0,0.0,0.0,0.0, ,1.082284927368164
0.08958435507232612,0.07941449842505807,-0.1391489551595156, ,0.011836966500960014,0.0206371471625873,-0.0841889099690468, ,0.11189298467034133, ,2.588449643193841e-05,5.359639011884457e-06,1.9723317073772712e-05,-0.0007478540370277251,-0.0008831203869873451,0.0012214492897535004, ,3.298093573968635e-05, ,0.0011572325948621324, ,0.015941673029622388, ,0.0,0.0,0.0,0.0,0.0,0.0, ,0.0,0.0,0.0,0.0,0.0,0.0, ,1.0899550914764404
0.08958435507232612,0.07941449842505807,-0.1391489551595156, ,0.011863154680481457,0.020639125601691663,-0.08426543042808211, ,0.11183617808124911, ,2.588449643193841e-05,5.359639011884457e-06,1.9723317073772712e-05,-0.0007478540370277251,-0.0008831203869873451,0.0012214492897535004, ,3.298093573968635e-05, ,0.0011572325948621324, ,0.01603069059622009, ,0.0,0.0,0.0,0.0,0.0,0.0, ,0.0,0.0,0.0,0.0,0.0,0.0, ,1.0982921123504639
0.08958435507232612,0.07941449842505807,-0.1391489551595156, ,0.011889421085873639,0.020641045408543616,-0.08434206486569398, ,0.11177932174746205, ,2.588449643193841e-05,5.359639011884457e-06,1.9723317073772712e-05,-0.0007478540370277251,-0.0008831203869873451,0.0012214492897535004, ,3.298093573968635e-05, ,0.0011572325948621324, ,0.016118294565636602, ,0.0,0.0,0.0,0.0,0.0,0.0, ,0.0,0.0,0.0,0.0,0.0,0.0, ,1.106323003768921
0.08958435507232612,0.07941449842505807,-0.1391489551595156, ,0.01191576546365488,0.02064290695009681,-0.08441881172759627, ,0.11172241662432118, ,2.588449643193841e-05,5.359639011884457e-06,1.9723317073772712e-05,-0.0007478540370277251,-0.0008831203869873451,0.0012214492897535004, ,3.298093573968635e-05, ,0.0011572325948621324, ,0.016204515803523053, ,0.0,0.0,0.0,0.0,0.0,0.0, ,0.0,0.0,0.0,0.0,0.0,0.0, ,1.1136510372161865
0.08958435507232612,0.07941449842505807,-0.1391489551595156, ,0.011942187560799417,0.02064471059265687,-0.08449566946397959, ,0.11166546366299344, ,2.588449643193841e-05,5.359639011884457e-06,1.9723317073772712e-05,-0.0007478540370277251,-0.0008831203869873451,0.0012214492897535004, ,3.298093573968635e-05, ,0.0011572325948621324, ,0.016289384282597148, ,0.0,0.0,0.0,0.0,0.0,0.0, ,0.0,0.0,0.0,0.0,0.0,0.0, ,1.1243259906768799
0.08958435507232612,0.07941449842505807,-0.1391489551595156, ,0.011968687124735913,0.02064645670188193,-0.08457263652950671, ,0.11160846381046471, ,2.588449643193841e-05,5.359639011884457e-06,1.9723317073772712e-05,-0.0007478540370277251,-0.0008831203869873451,0.0012214492897535004, ,3.298093573968635e-05, ,0.0011572325948621324, ,0.016402429887935298, ,0.0,0.0,0.0,0.0,0.0,0.0, ,0.0,0.0,0.0,0.0,0.0,0.0, ,1.130100965499878
0.08958435507232612,0.07941449842505807,-0.1391489551595156, ,0.01199526390334893,0.020648145642781987,-0.08464971138330656, ,0.11155141800953246, ,2.588449643193841e-05,5.359639011884457e-06,1.9723317073772712e-05,-0.0007478540370277251,-0.0008831203869873451,0.0012214492897535004, ,3.298093573968635e-05, ,0.0011572325948621324, ,0.01651415771651187, ,0.0,0.0,0.0,0.0,0.0,0.0, ,0.0,0.0,0.0,0.0,0.0,0.0, ,1.1356279850006104
0.08958435507232612,0.07941449842505807,-0.1391489551595156, ,0.01202191764497656,0.02064977777972086,-0.0847268924889716, ,0.11149432719879813, ,2.588449643193841e-05,5.359639011884457e-06,1.9723317073772712e-05,-0.0007478540370277251,-0.0008831203869873451,0.0012214492897535004, ,3.298093573968635e-05, ,0.0011572325948621324, ,0.016624588828899146, ,0.0,0.0,0.0,0.0,0.0,0.0, ,0.0,0.0,0.0,0.0,0.0,0.0, ,1.141197919845581
0.08958435507232612,0.07941449842505807,-0.1391489551595156, ,0.012048648098411661,0.02065135347641527,-0.08480417831455121, ,0.11143719231266064, ,2.588449643193841e-05,5.359639011884457e-06,1.9723317073772712e-05,-0.0007478540370277251,-0.0008831203869873451,0.0012214492897535004, ,3.298093573968635e-05, ,0.0011572325948621324, ,0.01673374383922887, ,0.0,0.0,0.0,0.0,0.0,0.0, ,0.0,0.0,0.0,0.0,0.0,0.0, ,1.1468839645385742
0.08958435507232612,0.07941449842505807,-0.1391489551595156, ,0.012075455012900355,0.020652873095936015,-0.08488156733254876, ,0.11138001428130902, ,2.588449643193841e-05,5.359639011884457e-06,1.9723317073772712e-05,-0.0007478540370277251,-0.0008831203869873451,0.0012214492897535004, ,3.298093573968635e-05, ,0.0011572325948621324, ,0.016841642926995398, ,0.0,0.0,0.0,0.0,0.0,0.0, ,0.0,0.0,0.0,0.0,0.0,0.0, ,1.1524441242218018
0.08958435507232612,0.07941449842505807,-0.1391489551595156, ,0.012102338138142297,0.020654337000707984,-0.08495905801991487, ,0.11132279403071654, ,2.588449643193841e-05,5.359639011884457e-06,1.9723317073772712e-05,-0.0007478540370277251,-0.0008831203869873451,0.0012214492897535004, ,3.298093573968635e-05, ,0.0011572325948621324, ,0.016948305848486153, ,0.0,0.0,0.0,0.0,0.0,0.0, ,0.0,0.0,0.0,0.0,0.0,0.0, ,1.1580970287322998
0.08958435507232612,0.07941449842505807,-0.1391489551595156, ,0.012129297224290172,0.020655745552510967,-0.08503664885804518, ,0.1112655324826328, ,2.588449643193841e-05,5.359639011884457e-06,1.9723317073772712e-05,-0.0007478540370277251,-0.0008831203869873451,0.0012214492897535004, ,3.298093573968635e-05, ,0.0011572325948621324, ,0.01705375194785295, ,0.0,0.0,0.0,0.0,0.0,0.0, ,0.0,0.0,0.0,0.0,0.0,0.0, ,1.1639800071716309
0.08958435507232612,0.07941449842505807,-0.1391489551595156, ,0.012156332021948879,0.020657099112479656,-0.08511433833277399, ,0.1112082305545787, ,2.588449643193841e-05,5.359639011884457e-06,1.9723317073772712e-05,-0.0007478540370277251,-0.0008831203869873451,0.0012214492897535004, ,3.298093573968635e-05, ,0.0011572325948621324, ,0.01715800016783736, ,0.0,0.0,0.0,0.0,0.0,0.0, ,0.0,0.0,0.0,0.0,0.0,0.0, ,1.170417070388794
0.08958435507232612,0.07941449842505807,-0.1391489551595156, ,0.01218344228217588,0.020658398041104427,-0.0851921249343699, ,0.11115088915983928, ,2.588449643193841e-05,5.359639011884457e-06,1.9723317073772712e-05,-0.0007478540370277251,-0.0008831203869873451,0.0012214492897535004, ,3.298093573968635e-05, ,0.0011572325948621324, ,0.017261069060162625, ,0.0,0.0,0.0,0.0,0.0,0.0, ,0.0,0.0,0.0,0.0,0.0,0.0, ,1.1763460636138916
0.08958435507232612,0.07941449842505807,-0.1391489551595156, ,0.01221062775648029,0.020659642698231416,-0.08527000715753141, ,0.1110935092074582, ,2.588449643193841e-05,5.359639011884457e-06,1.9723317073772712e-05,-0.0007478540370277251,-0.0008831203869873451,0.0012214492897535004, ,3.298093573968635e-05, ,0.0011572325948621324, ,0.017362976795604154, ,0.0,0.0,0.0,0.0,0.0,0.0, ,0.0,0.0,0.0,0.0,0.0,0.0, ,1.181859016418457
0.08958435507232612,0.07941449842505807,-0.1391489551595156, ,0.01223788819682277,0.020660833443063128,-0.08534798350138252, ,0.1110360916022312, ,2.588449643193841e-05,5.359639011884457e-06,1.9723317073772712e-05,-0.0007478540370277251,-0.0008831203869873451,0.0012214492897535004, ,3.298093573968635e-05, ,0.0011572325948621324, ,0.017463741173750172, ,0.0,0.0,0.0,0.0,0.0,0.0, ,0.0,0.0,0.0,0.0,0.0,0.0, ,1.1877169609069824
0.08958435507232612,0.07941449842505807,-0.1391489551595156, ,0.01226522335561481,0.020661970634158915,-0.0854260524694675, ,0.11097863724470088, ,2.588449643193841e-05,5.359639011884457e-06,1.9723317073772712e-05,-0.0007478540370277251,-0.0008831203869873451,0.0012214492897535004, ,3.298093573968635e-05, ,0.0011572325948621324, ,0.01759330021105375, ,0.0,0.0,0.0,0.0,0.0,0.0, ,0.0,0.0,0.0,0.0,0.0,0.0, ,1.1914911270141602
0.08958435507232612,0.07941449842505807,-0.1391489551595156, ,0.01229263298571863,0.020663054629435334,-0.08550421256974626, ,0.11092114703115091, ,2.588449643193841e-05,5.359639011884457e-06,1.9723317073772712e-05,-0.0007478540370277251,-0.0008831203869873451,0.0012214492897535004, ,3.298093573968635e-05, ,0.0011572325948621324, ,0.017721881784243977, ,0.0,0.0,0.0,0.0,0.0,0.0, ,0.0,0.0,0.0,0.0,0.0,0.0, ,1.1955149173736572
0.08958435507232612,0.07941449842505807,-0.1391489551595156, ,0.01232011684044698,0.020664085786166367,-0.0855824623145902, ,0.11086362185360023, ,2.588449643193841e-05,5.359639011884457e-06,1.9723317073772712e-05,-0.0007478540370277251,-0.0008831203869873451,0.0012214492897535004, ,3.298093573968635e-05, ,0.0011572325948621324, ,0.01784949575765364, ,0.0,0.0,0.0,0.0,0.0,0.0, ,0.0,0.0,0.0,0.0,0.0,0.0, ,1.199265956878662
0.08958435507232612,0.07941449842505807,-0.1391489551595156, ,0.012347674673562193,0.02066506446098411,-0.08566080022077714, ,0.11080606259979814, ,2.588449643193841e-05,5.359639011884457e-06,1.9723317073772712e-05,-0.0007478540370277251,-0.0008831203869873451,0.0012214492897535004, ,3.298093573968635e-05, ,0.0011572325948621324, ,0.017976151864035582, ,0.0,0.0,0.0,0.0,0.0,0.0, ,0.0,0.0,0.0,0.0,0.0,0.0, ,1.2030730247497559
0.08958435507232612,0.07941449842505807,-0.1391489551595156, ,0.012375306239276383,0.020665991009879092,-0.08573922480948684, ,0.11074847015321874, ,2.588449643193841e-05,5.359639011884457e-06,1.9723317073772712e-05,-0.0007478540370277251,-0.0008831203869873451,0.0012214492897535004, ,3.298093573968635e-05, ,0.0011572325948621324, ,0.01810185970676692, ,0.0,0.0,0.0,0.0,0.0,0.0, ,0.0,0.0,0.0,0.0,0.0,0.0, ,1.2072479724884033
0.08958435507232612,0.07941449842505807,-0.1391489551595156, ,0.012403011292250509,0.020666865788200723,-0.08581773460629602, ,0.1106908453930564, ,2.588449643193841e-05,5.359639011884457e-06,1.9723317073772712e-05,-0.0007478540370277251,-0.0008831203869873451,0.0012214492897535004, ,3.298093573968635e-05, ,0.0011572325948621324, ,0.018226628762009003, ,0.0,0.0,0.0,0.0,0.0,0.0, ,0.0,0.0,0.0,0.0,0.0,0.0, ,1.2113969326019287
0.08958435507232612,0.07941449842505807,-0.1391489551595156, ,0.01243078958759477,0.02066768915065745,-0.08589632814117419, ,0.11063318919422019, ,2.588449643193841e-05,5.359639011884457e-06,1.9723317073772712e-05,-0.0007478540370277251,-0.0008831203869873451,0.0012214492897535004, ,3.298093573968635e-05, ,0.0011572325948621324, ,0.01835046838082403, ,0.0,0.0,0.0,0.0,0.0,0.0, ,0.0,0.0,0.0,0.0,0.0,0.0, ,1.2161281108856201
0.08958435507232612,0.07941449842505807,-0.1391489551595156, ,0.012458640880867242,0.020668461451317628,-0.08597500394847864, ,0.11057550242732982, ,2.588449643193841e-05,5.359639011884457e-06,1.9723317073772712e-05,-0.0007478540370277251,-0.0008831203869873451,0.0012214492897535004, ,3.298093573968635e-05, ,0.0011572325948621324, ,0.018473387791249456, ,0.0,0.0,0.0,0.0,0.0,0.0, ,0.0,0.0,0.0,0.0,0.0,0.0, ,1.220318078994751
0.08958435507232612,0.07941449842505807,-0.1391489551595156, ,0.012486564928074402,0.02066918304360966,-0.08605376056694984, ,0.11051778595871048, ,2.588449643193841e-05,5.359639011884457e-06,1.9723317073772712e-05,-0.0007478540370277251,-0.0008831203869873451,0.0012214492897535004, ,3.298093573968635e-05, ,0.0011572325948621324, ,0.01859539610033107, ,0.0,0.0,0.0,0.0,0.0,0.0, ,0.0,0.0,0.0,0.0,0.0,0.0, ,1.2243480682373047
0.08958435507232612,0.07941449842505807,-0.1391489551595156, ,0.012514561485670157,0.020669854280322166,-0.086132596539707, ,0.11046004065038889, ,2.588449643193841e-05,5.359639011884457e-06,1.9723317073772712e-05,-0.0007478540370277251,-0.0008831203869873451,0.0012214492897535004, ,3.298093573968635e-05, ,0.0011572325948621324, ,0.018716502296115742, ,0.0,0.0,0.0,0.0,0.0,0.0, ,0.0,0.0,0.0,0.0,0.0,0.0, ,1.2280819416046143
0.08958435507232612,0.07941449842505807,-0.1391489551595156, ,0.012542630310555749,0.02067047551360514,-0.08621151041424296, ,0.11040226736008861, ,2.588449643193841e-05,5.359639011884457e-06,1.9723317073772712e-05,-0.0007478540370277251,-0.0008831203869873451,0.0012214492897535004, ,3.298093573968635e-05, ,0.0011572325948621324, ,0.0188367152496048, ,0.0,0.0,0.0,0.0,0.0,0.0, ,0.0,0.0,0.0,0.0,0.0,0.0, ,1.2317540645599365
0.08958435507232612,0.07941449842505807,-0.1391489551595156, ,0.012570771160079144,0.020671047094969697,-0.08629050074242017, ,0.11034446694122603, ,2.588449643193841e-05,5.359639011884457e-06,1.9723317073772712e-05,-0.0007478540370277251,-0.0008831203869873451,0.0012214492897535004, ,3.298093573968635e-05, ,0.0011572325948621324, ,0.018956043716668865, ,0.0,0.0,0.0,0.0,0.0,0.0, ,0.0,0.0,0.0,0.0,0.0,0.0, ,1.235827922821045
0.08958435507232612,0.07941449842505807,-0.1391489551595156, ,0.012598983792034961,0.02067156937528859,-0.08636956608046534, ,0.11028664024290658, ,2.588449643193841e-05,5.359639011884457e-06,1.9723317073772712e-05,-0.0007478540370277251,-0.0008831203869873451,0.0012214492897535004, ,3.298093573968635e-05, ,0.0011572325948621324, ,0.019074496339925116, ,0.0,0.0,0.0,0.0,0.0,0.0, ,0.0,0.0,0.0,0.0,0.0,0.0, ,1.239483118057251
0.08958435507232612,0.07941449842505807,-0.1391489551595156, ,0.012627267964663964,0.02067204270479681,-0.08644870498896484, ,0.11022878810992069, ,2.588449643193841e-05,5.359639011884457e-06,1.9723317073772712e-05,-0.0007478540370277251,-0.0008831203869873451,0.0012214492897535004, ,3.298093573968635e-05, ,0.0011572325948621324, ,0.01919208165057776, ,0.0,0.0,0.0,0.0,0.0,0.0, ,0.0,0.0,0.0,0.0,0.0,0.0, ,1.2439920902252197
0.08958435507232612,0.07941449842505807,-0.1391489551595156, ,0.012655623436652483,0.02067246743309194,-0.08652791603286121, ,0.11017091138273977, ,2.588449643193841e-05,5.359639011884457e-06,1.9723317073772712e-05,-0.0007478540370277251,-0.0008831203869873451,0.0012214492897535004, ,3.298093573968635e-05, ,0.0011572325948621324, ,0.019308808070222613, ,0.0,0.0,0.0,0.0,0.0,0.0, ,0.0,0.0,0.0,0.0,0.0,0.0, ,1.2477490901947021
0.08958435507232612,0.07941449842505807,-0.1391489551595156, ,0.012684049967132236,0.02067284390913476,-0.08660719778144685, ,0.11011301089751312, ,2.588449643193841e-05,5.359639011884457e-06,1.9723317073772712e-05,-0.0007478540370277251,-0.0008831203869873451,0.0012214492897535004, ,3.298093573968635e-05, ,0.0011572325948621324, ,0.019424683912616564, ,0.0,0.0,0.0,0.0,0.0,0.0, ,0.0,0.0,0.0,0.0,0.0,0.0, ,1.2516119480133057
0.08958435507232612,0.07941449842505807,-0.1391489551595156, ,0.012712547315679888,0.020673172481249155,-0.08668654880835999, ,0.11005508748606466, ,2.588449643193841e-05,5.359639011884457e-06,1.9723317073772712e-05,-0.0007478540370277251,-0.0008831203869873451,0.0012214492897535004, ,3.298093573968635e-05, ,0.0011572325948621324, ,0.019539717385412738, ,0.0,0.0,0.0,0.0,0.0,0.0, ,0.0,0.0,0.0,0.0,0.0,0.0, ,1.2558960914611816
0.08958435507232612,0.07941449842505807,-0.1391489551595156, ,0.012741115242316988,0.020673453497122827,-0.0867659676915808, ,0.10999714197588875, ,2.588449643193841e-05,5.359639011884457e-06,1.9723317073772712e-05,-0.0007478540370277251,-0.0008831203869873451,0.0012214492897535004, ,3.298093573968635e-05, ,0.0011572325948621324, ,0.019685616457332862, ,0.0,0.0,0.0,0.0,0.0,0.0, ,0.0,0.0,0.0,0.0,0.0,0.0, ,1.2580311298370361
0.08958435507232612,0.07941449842505807,-0.1391489551595156, ,0.012769753507508868,0.020673687303808037,-0.08684545301342537, ,0.10993917519014805, ,2.588449643193841e-05,5.359639011884457e-06,1.9723317073772712e-05,-0.0007478540370277251,-0.0008831203869873451,0.0012214492897535004, ,3.298093573968635e-05, ,0.0011572325948621324, ,0.019830952300702934, ,0.0,0.0,0.0,0.0,0.0,0.0, ,0.0,0.0,0.0,0.0,0.0,0.0, ,1.2601120471954346
0.08958435507232612,0.07941449842505807,-0.1391489551595156, ,0.01279846187216479,0.02067387424772157,-0.08692500336054237, ,0.10988118794766986, ,2.588449643193841e-05,5.359639011884457e-06,1.9723317073772712e-05,-0.0007478540370277251,-0.0008831203869873451,0.0012214492897535004, ,3.298093573968635e-05, ,0.0011572325948621324, ,0.019975727599170726, ,0.0,0.0,0.0,0.0,0.0,0.0, ,0.0,0.0,0.0,0.0,0.0,0.0, ,1.2623040676116943
0.08958435507232612,0.07941449842505807,-0.1391489551595156, ,0.012827240097637856,0.020674014674645018,-0.08700461732390728, ,0.10982318106294366, ,2.588449643193841e-05,5.359639011884457e-06,1.9723317073772712e-05,-0.0007478540370277251,-0.0008831203869873451,0.0012214492897535004, ,3.298093573968635e-05, ,0.0011572325948621324, ,0.020119945020460887, ,0.0,0.0,0.0,0.0,0.0,0.0, ,0.0,0.0,0.0,0.0,0.0,0.0, ,1.2651948928833008
0.08958435507232612,0.07941449842505807,-0.1391489551595156, ,0.012856087945723783,0.020674108929725824,-0.08708429349881847, ,0.10976515534611817, ,2.588449643193841e-05,5.359639011884457e-06,1.9723317073772712e-05,-0.0007478540370277251,-0.0008831203869873451,0.0012214492897535004, ,3.298093573968635e-05, ,0.0011572325948621324, ,0.020263607216495595, ,0.0,0.0,0.0,0.0,0.0,0.0, ,0.0,0.0,0.0,0.0,0.0,0.0, ,1.2673869132995605
0.08958435507232612,0.07941449842505807,-0.1391489551595156, ,0.012885005178661063,0.020674157357477154,-0.08716403048489213, ,0.10970711160299895, ,2.588449643193841e-05,5.359639011884457e-06,1.9723317073772712e-05,-0.0007478540370277251,-0.0008831203869873451,0.0012214492897535004, ,3.298093573968635e-05, ,0.0011572325948621324, ,0.11187892995347588, ,0.0,0.0,0.0,0.0,0.0,0.0, ,0.0,0.0,0.0,0.0,0.0,0.0, ,1.2692949771881104
0.08958435507232612,0.07941449842505807,-0.1391489551595156, ,0.01291399155913057,0.020674160301778648,-0.08724382688605786, ,0.10964905063504583, ,2.588449643193841e-05,5.359639011884457e-06,1.9723317073772712e-05,-0.0007478540370277251,-0.0008831203869873451,0.0012214492897535004, ,3.298093573968635e-05, ,0.0011572325948621324, ,0.111859539698533, ,0.0,0.0,0.0,0.0,0.0,0.0, ,0.0,0.0,0.0,0.0,0.0,0.0, ,1.2711529731750488
0.08958435507232612,0.07941449842505807,-0.1391489551595156, ,0.012943046850255237,0.020674118105876396,-0.08732368131055392, ,0.10959097323937063, ,2.588449643193841e-05,5.359639011884457e-06,1.9723317073772712e-05,-0.0007478540370277251,-0.0008831203869873451,0.0012214492897535004, ,3.298093573968635e-05, ,0.0011572325948621324, ,0.11183998309112643, ,0.0,0.0,0.0,0.0,0.0,0.0, ,0.0,0.0,0.0,0.0,0.0,0.0, ,1.2730560302734375
0.08958435507232612,0.07941449842505807,-0.1391489551595156, ,0.01297217081559934,0.02067403111238393,-0.08740359237092266, ,0.10953288020873501, ,2.588449643193841e-05,5.359639011884457e-06,1.9723317073772712e-05,-0.0007478540370277251,-0.0008831203869873451,0.0012214492897535004, ,3.298093573968635e-05, ,0.0011572325948621324, ,0.11182026426307182, ,0.0,0.0,0.0,0.0,0.0,0.0, ,0.0,0.0,0.0,0.0,0.0,0.0, ,1.2751429080963135
0.08958435507232612,0.07941449842505807,-0.1391489551595156, ,0.013001363219168276,0.02067389966328236,-0.08748355868400556, ,0.10947477233154866, ,2.588449643193841e-05,5.359639011884457e-06,1.9723317073772712e-05,-0.0007478540370277251,-0.0008831203869873451,0.0012214492897535004, ,3.298093573968635e-05, ,0.0011572325948621324, ,0.11180038721280466, ,0.0,0.0,0.0,0.0,0.0,0.0, ,0.0,0.0,0.0,0.0,0.0,0.0, ,1.2770180702209473
0.08958435507232612,0.07941449842505807,-0.1391489551595156, ,0.013030623825408488,0.02067372409992055,-0.08756357887093895, ,0.10941665039186714, ,2.588449643193841e-05,5.359639011884457e-06,1.9723317073772712e-05,-0.0007478540370277251,-0.0008831203869873451,0.0012214492897535004, ,3.298093573968635e-05, ,0.0011572325948621324, ,0.11178035581094806, ,0.0,0.0,0.0,0.0,0.0,0.0, ,0.0,0.0,0.0,0.0,0.0,0.0, ,1.2788810729980469
0.08958435507232612,0.07941449842505807,-0.1391489551595156, ,0.01305995239920669,0.020673504763015892,-0.08764365155714875, ,0.10935851516939041, ,2.588449643193841e-05,5.359639011884457e-06,1.9723317073772712e-05,-0.0007478540370277251,-0.0008831203869873451,0.0012214492897535004, ,3.298093573968635e-05, ,0.0011572325948621324, ,0.11176017380560174, ,0.0,0.0,0.0,0.0,0.0,0.0, ,0.0,0.0,0.0,0.0,0.0,0.0, ,1.280730962753296
0.08958435507232612,0.07941449842505807,-0.1391489551595156, ,0.013089348705889667,0.020673241992654474,-0.08772377537234702, ,0.10930036743946091, ,2.588449643193841e-05,5.359639011884457e-06,1.9723317073772712e-05,-0.0007478540370277251,-0.0008831203869873451,0.0012214492897535004, ,3.298093573968635e-05, ,0.0011572325948621324, ,0.11173984482736918, ,0.0,0.0,0.0,0.0,0.0,0.0, ,0.0,0.0,0.0,0.0,0.0,0.0, ,1.2826290130615234
0.08958435507232612,0.07941449842505807,-0.1391489551595156, ,0.013118812511223562,0.02067293612829207,-0.08780394895052576, ,0.10924220797306247, ,2.588449643193841e-05,5.359639011884457e-06,1.9723317073772712e-05,-0.0007478540370277251,-0.0008831203869873451,0.0012214492897535004, ,3.298093573968635e-05, ,0.0011572325948621324, ,0.11171937239413715, ,0.0,0.0,0.0,0.0,0.0,0.0, ,0.0,0.0,0.0,0.0,0.0,0.0, ,1.284862995147705
0.08958435507232612,0.07941449842505807,-0.1391489551595156, ,0.013148343581414229,0.020672587508753493,-0.08788417092995346, ,0.10918403753681874, ,2.588449643193841e-05,5.359639011884457e-06,1.9723317073772712e-05,-0.0007478540370277251,-0.0008831203869873451,0.0012214492897535004, ,3.298093573968635e-05, ,0.0011572325948621324, ,0.11169875991562238, ,0.0,0.0,0.0,0.0,0.0,0.0, ,0.0,0.0,0.0,0.0,0.0,0.0, ,1.287221908569336
0.08958435507232612,0.07941449842505807,-0.1391489551595156, ,0.013177941683106233,0.020672196472233957,-0.08796443995316978, ,0.10912585689299201, ,2.588449643193841e-05,5.359639011884457e-06,1.9723317073772712e-05,-0.0007478540370277251,-0.0008831203869873451,0.0012214492897535004, ,3.298093573968635e-05, ,0.0011572325948621324, ,0.11167801069769794, ,0.0,0.0,0.0,0.0,0.0,0.0, ,0.0,0.0,0.0,0.0,0.0,0.0, ,1.2891759872436523
0.08958435507232612,0.07941449842505807,-0.1391489551595156, ,0.013207606583382717,0.020671763356298997,-0.08804475466698088, ,0.10906766679948245, ,2.588449643193841e-05,5.359639011884457e-06,1.9723317073772712e-05,-0.0007478540370277251,-0.0008831203869873451,0.0012214492897535004, ,3.298093573968635e-05, ,0.0011572325948621324, ,0.11165712794651222, ,0.0,0.0,0.0,0.0,0.0,0.0, ,0.0,0.0,0.0,0.0,0.0,0.0, ,1.2911980152130127
0.08958435507232612,0.07941449842505807,-0.1391489551595156, ,0.013237338049764413,0.02067128849788558,-0.08812511372245582, ,0.10900946800982658, ,2.588449643193841e-05,5.359639011884457e-06,1.9723317073772712e-05,-0.0007478540370277251,-0.0008831203869873451,0.0012214492897535004, ,3.298093573968635e-05, ,0.0011572325948621324, ,0.11163611477241155, ,0.0,0.0,0.0,0.0,0.0,0.0, ,0.0,0.0,0.0,0.0,0.0,0.0, ,1.2932660579681396
0.08958435507232612,0.07941449842505807,-0.1391489551595156, ,0.013267135850210828,0.020670772233300997,-0.08820551577491985, ,0.09405760357807015, ,2.588449643193841e-05,5.359639011884457e-06,1.9723317073772712e-05,-0.0007478540370277251,-0.0008831203869873451,0.0012214492897535004, ,3.298093573968635e-05, ,0.0011572325948621324, ,0.11149770129844035, ,0.0,0.0,0.0,0.0,0.0,0.0, ,0.0,0.0,0.0,0.0,0.0,0.0, ,1.2958459854125977
0.08958435507232612,0.07941449842505807,-0.1391489551595156, ,0.01329699975311787,0.020670214898225226,-0.08828595948395195, ,0.10889304733440268, ,2.588449643193841e-05,5.359639011884457e-06,1.9723317073772712e-05,-0.0007478540370277251,-0.0008831203869873451,0.0012214492897535004, ,3.298093573968635e-05, ,0.0011572325948621324, ,0.11147735243934631, ,0.0,0.0,0.0,0.0,0.0,0.0, ,0.0,0.0,0.0,0.0,0.0,0.0, ,1.2979800701141357
0.08958435507232612,0.07941449842505807,-0.1391489551595156, ,0.013326929527318966,0.020669616827709774,-0.08836644351337855, ,0.10883482693388559, ,2.588449643193841e-05,5.359639011884457e-06,1.9723317073772712e-05,-0.0007478540370277251,-0.0008831203869873451,0.0012214492897535004, ,3.298093573968635e-05, ,0.0011572325948621324, ,0.11145686774550552, ,0.0,0.0,0.0,0.0,0.0,0.0, ,0.0,0.0,0.0,0.0,0.0,0.0, ,1.3007700443267822
0.08958435507232612,0.07941449842505807,-0.1391489551595156, ,0.013356924942083941,0.02066897835617903,-0.08844696653126989, ,0.10877660080772328, ,2.588449643193841e-05,5.359639011884457e-06,1.9723317073772712e-05,-0.0007478540370277251,-0.0008831203869873451,0.0012214492897535004, ,3.298093573968635e-05, ,0.0011572325948621324, ,0.11143625030752258, ,0.0,0.0,0.0,0.0,0.0,0.0, ,0.0,0.0,0.0,0.0,0.0,0.0, ,1.3028271198272705
0.08958435507232612,0.07941449842505807,-0.1391489551595156, ,0.01338698576711884,0.020668299817430347,-0.08852752720993462, ,0.10871836968762733, ,2.588449643193841e-05,5.359639011884457e-06,1.9723317073772712e-05,-0.0007478540370277251,-0.0008831203869873451,0.0012214492897535004, ,3.298093573968635e-05, ,0.0011572325948621324, ,0.11141550312721804, ,0.0,0.0,0.0,0.0,0.0,0.0, ,0.0,0.0,0.0,0.0,0.0,0.0, ,1.3060359954833984
0.08958435507232612,0.07941449842505807,-0.1391489551595156, ,0.013417111772565956,0.020667581544634047,-0.08860812422591562, ,0.10866013430094336, ,2.588449643193841e-05,5.359639011884457e-06,1.9723317073772712e-05,-0.0007478540370277251,-0.0008831203869873451,0.0012214492897535004, ,3.298093573968635e-05, ,0.0011572325948621324, ,0.11139462912095839, ,0.0,0.0,0.0,0.0,0.0,0.0, ,0.0,0.0,0.0,0.0,0.0,0.0, ,1.3080101013183594
0.08958435507232612,0.07941449842505807,-0.1391489551595156, ,0.013447302729002483,0.02066682387033479,-0.08868875625998546, ,0.10860189537065101, ,2.588449643193841e-05,5.359639011884457e-06,1.9723317073772712e-05,-0.0007478540370277251,-0.0008831203869873451,0.0012214492897535004, ,3.298093573968635e-05, ,0.0011572325948621324, ,0.11137363112283577, ,0.0,0.0,0.0,0.0,0.0,0.0, ,0.0,0.0,0.0,0.0,0.0,0.0, ,1.309899091720581
0.08958435507232612,0.07941449842505807,-0.1391489551595156, ,0.013477558407440823,0.020666027126451377,-0.088769421997141, ,0.10854365361536443, ,2.588449643193841e-05,5.359639011884457e-06,1.9723317073772712e-05,-0.0007478540370277251,-0.0008831203869873451,0.0012214492897535004, ,3.298093573968635e-05, ,0.0011572325948621324, ,0.11135251188770538, ,0.0,0.0,0.0,0.0,0.0,0.0, ,0.0,0.0,0.0,0.0,0.0,0.0, ,1.3117749691009521
0.08958435507232612,0.07941449842505807,-0.1391489551595156, ,0.013507878579328357,0.020665191644277006,-0.0888501201265996, ,0.10848540974933205, ,2.588449643193841e-05,5.359639011884457e-06,1.9723317073772712e-05,-0.0007478540370277251,-0.0008831203869873451,0.0012214492897535004, ,3.298093573968635e-05, ,0.0011572325948621324, ,0.1113312740940878, ,0.0,0.0,0.0,0.0,0.0,0.0, ,0.0,0.0,0.0,0.0,0.0,0.0, ,1.3136780261993408
0.08958435507232612,0.07941449842505807,-0.1391489551595156, ,0.013538263016546608,0.02066431775448007,-0.08893084934179372, ,0.10842716448243753, ,2.588449643193841e-05,5.359639011884457e-06,1.9723317073772712e-05,-0.0007478540370277251,-0.0008831203869873451,0.0012214492897535004, ,3.298093573968635e-05, ,0.0011572325948621324, ,0.11130992034694331, ,0.0,0.0,0.0,0.0,0.0,0.0, ,0.0,0.0,0.0,0.0,0.0,0.0, ,1.3156120777130127
0.08958435507232612,0.07941449842505807,-0.1391489551595156, ,0.013568711491411112,0.02066340578710435,-0.08901160834036709, ,0.10836891852019982, ,2.588449643193841e-05,5.359639011884457e-06,1.9723317073772712e-05,-0.0007478540370277251,-0.0008831203869873451,0.0012214492897535004, ,3.298093573968635e-05, ,0.0011572325948621324, ,0.11128845318032474, ,0.0,0.0,0.0,0.0,0.0,0.0, ,0.0,0.0,0.0,0.0,0.0,0.0, ,1.3175039291381836
0.08958435507232612,0.07941449842505807,-0.1391489551595156, ,0.013599223776670687,0.02066245607156977,-0.08909239582416899, ,0.10831067256377441, ,2.588449643193841e-05,5.359639011884457e-06,1.9723317073772712e-05,-0.0007478540370277251,-0.0008831203869873451,0.0012214492897535004, ,3.298093573968635e-05, ,0.0011572325948621324, ,0.11126687505991495, ,0.0,0.0,0.0,0.0,0.0,0.0, ,0.0,0.0,0.0,0.0,0.0,0.0, ,1.3193860054016113
0.08958435507232612,0.07941449842505807,-0.1391489551595156, ,0.013629799645507815,0.02066146893667218,-0.08917321049925064, ,0.10825242730995348, ,2.588449643193841e-05,5.359639011884457e-06,1.9723317073772712e-05,-0.0007478540370277251,-0.0008831203869873451,0.0012214492897535004, ,3.298093573968635e-05, ,0.0011572325948621324, ,0.1112451883854548, ,0.0,0.0,0.0,0.0,0.0,0.0, ,0.0,0.0,0.0,0.0,0.0,0.0, ,1.3212909698486328
0.08958435507232612,0.07941449842505807,-0.1391489551595156, ,0.013660438871537475,0.020660444710584445,-0.08925405107585974, ,0.10819418345116731, ,2.588449643193841e-05,5.359639011884457e-06,1.9723317073772712e-05,-0.0007478540370277251,-0.0008831203869873451,0.0012214492897535004, ,3.298093573968635e-05, ,0.0011572325948621324, ,0.11122339549306703, ,0.0,0.0,0.0,0.0,0.0,0.0, ,0.0,0.0,0.0,0.0,0.0,0.0, ,1.3232100009918213
0.08958435507232612,0.07941449842505807,-0.1391489551595156, ,0.01369114122880719,0.020659383720856357,-0.08933491626843637, ,0.10813594167548526, ,2.588449643193841e-05,5.359639011884457e-06,1.9723317073772712e-05,-0.0007478540370277251,-0.0008831203869873451,0.0012214492897535004, ,3.298093573968635e-05, ,0.0011572325948621324, ,0.11120149865748134, ,0.0,0.0,0.0,0.0,0.0,0.0, ,0.0,0.0,0.0,0.0,0.0,0.0, ,1.3254780769348145
0.08958435507232612,0.07941449842505807,-0.1391489551595156, ,0.013721906491796356,0.020658286294415473,-0.08941580479560791, ,0.10807770266661688, ,2.588449643193841e-05,5.359639011884457e-06,1.9723317073772712e-05,-0.0007478540370277251,-0.0008831203869873451,0.0012214492897535004, ,3.298093573968635e-05, ,0.0011572325948621324, ,0.1111795000941654, ,0.0,0.0,0.0,0.0,0.0,0.0, ,0.0,0.0,0.0,0.0,0.0,0.0, ,1.3275330066680908
0.08958435507232612,0.07941449842505807,-0.1391489551595156, ,0.013752734435416124,0.02065715275756721,-0.0894967153801849, ,0.10801946710391323, ,2.588449643193841e-05,5.359639011884457e-06,1.9723317073772712e-05,-0.0007478540370277251,-0.0008831203869873451,0.0012214492897535004, ,3.298093573968635e-05, ,0.0011572325948621324, ,0.11115740196136643, ,0.0,0.0,0.0,0.0,0.0,0.0, ,0.0,0.0,0.0,0.0,0.0,0.0, ,1.3294079303741455
0.08958435507232612,0.07941449842505807,-0.1391489551595156, ,0.013783624835008945,0.02065598343599538,-0.08957764674915547, ,0.10796123566236854, ,2.588449643193841e-05,5.359639011884457e-06,1.9723317073772712e-05,-0.0007478540370277251,-0.0008831203869873451,0.0012214492897535004, ,3.298093573968635e-05, ,0.0011572325948621324, ,0.11113520636206783, ,0.0,0.0,0.0,0.0,0.0,0.0, ,0.0,0.0,0.0,0.0,0.0,0.0, ,1.3312640190124512
0.08958435507232612,0.07941449842505807,-0.1391489551595156, ,0.013814577466348529,0.020654778654762205,-0.08965859763368167, ,0.10790300901262148, ,2.588449643193841e-05,5.359639011884457e-06,1.9723317073772712e-05,-0.0007478540370277251,-0.0008831203869873451,0.0012214492897535004, ,3.298093573968635e-05, ,0.0011572325948621324, ,0.11111291534586475, ,0.0,0.0,0.0,0.0,0.0,0.0, ,0.0,0.0,0.0,0.0,0.0,0.0, ,1.335582971572876
0.08958435507232612,0.07941449842505807,-0.1391489551595156, ,0.013845592105638155,0.02065353873831012,-0.08973956676909454, ,0.10784478782095701, ,2.588449643193841e-05,5.359639011884457e-06,1.9723317073772712e-05,-0.0007478540370277251,-0.0008831203869873451,0.0012214492897535004, ,3.298093573968635e-05, ,0.0011572325948621324, ,0.11109053091076265, ,0.0,0.0,0.0,0.0,0.0,0.0, ,0.0,0.0,0.0,0.0,0.0,0.0, ,1.3384160995483398
0.08958435507232612,0.07941449842505807,-0.1391489551595156, ,0.013876668529512306,0.02065226401046003,-0.0898205528948888, ,0.10778657274930845, ,2.588449643193841e-05,5.359639011884457e-06,1.9723317073772712e-05,-0.0007478540370277251,-0.0008831203869873451,0.0012214492897535004, ,3.298093573968635e-05, ,0.0011572325948621324, ,0.11106805500490242, ,0.0,0.0,0.0,0.0,0.0,0.0, ,0.0,0.0,0.0,0.0,0.0,0.0, ,1.3406710624694824
0.08958435507232612,0.07941449842505807,-0.1391489551595156, ,0.013907806515034652,0.020650954794413662,-0.08990155475471906, ,0.10772836445525896, ,2.588449643193841e-05,5.359639011884457e-06,1.9723317073772712e-05,-0.0007478540370277251,-0.0008831203869873451,0.0012214492897535004, ,3.298093573968635e-05, ,0.0011572325948621324, ,0.11104548952821564, ,0.0,0.0,0.0,0.0,0.0,0.0, ,0.0,0.0,0.0,0.0,0.0,0.0, ,1.3427760601043701
0.08958435507232612,0.07941449842505807,-0.1391489551595156, ,0.013939005839698272,0.020649611412752858,-0.08998257109639476, ,0.10767016359204407, ,2.588449643193841e-05,5.359639011884457e-06,1.9723317073772712e-05,-0.0007478540370277251,-0.0008831203869873451,0.0012214492897535004, ,3.298093573968635e-05, ,0.0011572325948621324, ,0.11102283633401314, ,0.0,0.0,0.0,0.0,0.0,0.0, ,0.0,0.0,0.0,0.0,0.0,0.0, ,1.3456299304962158
0.08958435507232612,0.07941449842505807,-0.1391489551595156, ,0.013970266281425262,0.02064823418744058,-0.09006360067187535, ,0.10761197080855375, ,2.588449643193841e-05,5.359639011884457e-06,1.9723317073772712e-05,-0.0007478540370277251,-0.0008831203869873451,0.0012214492897535004, ,3.298093573968635e-05, ,0.0011572325948621324, ,0.11100009723051008, ,0.0,0.0,0.0,0.0,0.0,0.0, ,0.0,0.0,0.0,0.0,0.0,0.0, ,1.3475301265716553
0.08958435507232612,0.07941449842505807,-0.1391489551595156, ,0.014001587618566578,0.02064682343982073,-0.090144642237266, ,0.1075537867493346, ,2.588449643193841e-05,5.359639011884457e-06,1.9723317073772712e-05,-0.0007478540370277251,-0.0008831203869873451,0.0012214492897535004, ,3.298093573968635e-05, ,0.0011572325948621324, ,0.11097727398229038, ,0.0,0.0,0.0,0.0,0.0,0.0, ,0.0,0.0,0.0,0.0,0.0,0.0, ,1.3494210243225098
0.08958435507232612,0.07941449842505807,-0.1391489551595156, ,0.014032969629901316,0.02064537949061915,-0.09022569455281285, ,0.10749561205459235, ,2.588449643193841e-05,5.359639011884457e-06,1.9723317073772712e-05,-0.0007478540370277251,-0.0008831203869873451,0.0012214492897535004, ,3.298093573968635e-05, ,0.0011572325948621324, ,0.1109543683117134, ,0.0,0.0,0.0,0.0,0.0,0.0, ,0.0,0.0,0.0,0.0,0.0,0.0, ,1.3513879776000977
0.08958435507232612,0.07941449842505807,-0.1391489551595156, ,0.014064412094636186,0.020643902659943862,-0.0903067563828979, ,0.10743744736019484, ,2.588449643193841e-05,5.359639011884457e-06,1.9723317073772712e-05,-0.0007478540370277251,-0.0008831203869873451,0.0012214492897535004, ,3.298093573968635e-05, ,0.0011572325948621324, ,0.11093138190026557, ,0.0,0.0,0.0,0.0,0.0,0.0, ,0.0,0.0,0.0,0.0,0.0,0.0, ,1.3532440662384033
0.08958435507232612,0.07941449842505807,-0.1391489551595156, ,0.014095914792405457,0.020642393267285397,-0.09038782649603518, ,0.10737929329767416, ,2.588449643193841e-05,5.359639011884457e-06,1.9723317073772712e-05,-0.0007478540370277251,-0.0008831203869873451,0.0012214492897535004, ,3.298093573968635e-05, ,0.0011572325948621324, ,0.11090831638985914, ,0.0,0.0,0.0,0.0,0.0,0.0, ,0.0,0.0,0.0,0.0,0.0,0.0, ,1.3551819324493408
0.08958435507232612,0.07941449842505807,-0.1391489551595156, ,0.014127477503270855,0.020640851631517014,-0.09046890366486511, ,0.10732115049422988, ,2.588449643193841e-05,5.359639011884457e-06,1.9723317073772712e-05,-0.0007478540370277251,-0.0008831203869873451,0.0012214492897535004, ,3.298093573968635e-05, ,0.0011572325948621324, ,0.11088517338408088, ,0.0,0.0,0.0,0.0,0.0,0.0, ,0.0,0.0,0.0,0.0,0.0,0.0, ,1.35748291015625
0.08958435507232612,0.07941449842505807,-0.1391489551595156, ,0.014159100007720183,0.02063927807089584,-0.09054998666615115, ,0.1072630195727317, ,2.588449643193841e-05,5.359639011884457e-06,1.9723317073772712e-05,-0.0007478540370277251,-0.0008831203869873451,0.0012214492897535004, ,3.298093573968635e-05, ,0.0011572325948621324, ,0.11086195444939274, ,0.0,0.0,0.0,0.0,0.0,0.0, ,0.0,0.0,0.0,0.0,0.0,0.0, ,1.3593840599060059
0.08958435507232612,0.07941449842505807,-0.1391489551595156, ,0.01419078208666823,0.02063767290306207,-0.09063107428077309, ,0.10720490115172317, ,2.588449643193841e-05,5.359639011884457e-06,1.9723317073772712e-05,-0.0007478540370277251,-0.0008831203869873451,0.0012214492897535004, ,3.298093573968635e-05, ,0.0011572325948621324, ,0.11083866111628655, ,0.0,0.0,0.0,0.0,0.0,0.0, ,0.0,0.0,0.0,0.0,0.0,0.0, ,1.3612639904022217
0.08958435507232612,0.07941449842505807,-0.1391489551595156, ,0.014222523521455562,0.02063603644504067,-0.09071216529372478, ,0.10714679584542376, ,2.588449643193841e-05,5.359639011884457e-06,1.9723317073772712e-05,-0.0007478540370277251,-0.0008831203869873451,0.0012214492897535004, ,3.298093573968635e-05, ,0.0011572325948621324, ,0.11081529488039502, ,0.0,0.0,0.0,0.0,0.0,0.0, ,0.0,0.0,0.0,0.0,0.0,0.0, ,1.3631360530853271
0.08958435507232612,0.07941449842505807,-0.1391489551595156, ,0.014254324093848154,0.020634369013240953,-0.09079325849410788, ,0.10708870426373336, ,2.588449643193841e-05,5.359639011884457e-06,1.9723317073772712e-05,-0.0007478540370277251,-0.0008831203869873451,0.0012214492897535004, ,3.298093573968635e-05, ,0.0011572325948621324, ,0.11079185720356068, ,0.0,0.0,0.0,0.0,0.0,0.0, ,0.0,0.0,0.0,0.0,0.0,0.0, ,1.3652899265289307
0.08958435507232612,0.07941449842505807,-0.1391489551595156, ,0.01428618358603704,0.02063267092345756,-0.0908743526751277, ,0.1070306270122351, ,2.588449643193841e-05,5.359639011884457e-06,1.9723317073772712e-05,-0.0007478540370277251,-0.0008831203869873451,0.0012214492897535004, ,3.298093573968635e-05, ,0.0011572325948621324, ,0.11076834951486489, ,0.0,0.0,0.0,0.0,0.0,0.0, ,0.0,0.0,0.0,0.0,0.0,0.0, ,1.3671629428863525
0.08958435507232612,0.07941449842505807,-0.1391489551595156, ,0.014318101780638472,0.020630942490870236,-0.0909554466340885, ,0.10697256469219894, ,2.588449643193841e-05,5.359639011884457e-06,1.9723317073772712e-05,-0.0007478540370277251,-0.0008831203869873451,0.0012214492897535004, ,3.298093573968635e-05, ,0.0011572325948621324, ,0.11074477321161852, ,0.0,0.0,0.0,0.0,0.0,0.0, ,0.0,0.0,0.0,0.0,0.0,0.0, ,1.369035005569458
0.08958435507232612,0.07941449842505807,-0.1391489551595156, ,0.014350078460692813,0.020629184030044864,-0.09103653917238874, ,0.10691451790058563, ,2.588449643193841e-05,5.359639011884457e-06,1.9723317073772712e-05,-0.0007478540370277251,-0.0008831203869873451,0.0012214492897535004, ,3.298093573968635e-05, ,0.0011572325948621324, ,0.11072112966031585, ,0.0,0.0,0.0,0.0,0.0,0.0, ,0.0,0.0,0.0,0.0,0.0,0.0, ,1.3709208965301514
0.08958435507232612,0.07941449842505807,-0.1391489551595156, ,0.014382113409664748,0.020627395854933343,-0.09111762909551649, ,0.10685648723005024, ,2.588449643193841e-05,5.359639011884457e-06,1.9723317073772712e-05,-0.0007478540370277251,-0.0008831203869873451,0.0012214492897535004, ,3.298093573968635e-05, ,0.0011572325948621324, ,0.11069742019755348, ,0.0,0.0,0.0,0.0,0.0,0.0, ,0.0,0.0,0.0,0.0,0.0,0.0, ,1.3752610683441162
0.08958435507232612,0.07941449842505807,-0.1391489551595156, ,0.014414206411442441,0.02062557827887447,-0.09119871521304503, ,0.10679847326894616, ,2.588449643193841e-05,5.359639011884457e-06,1.9723317073772712e-05,-0.0007478540370277251,-0.0008831203869873451,0.0012214492897535004, ,3.298093573968635e-05, ,0.0011572325948621324, ,0.11067364613091563, ,0.0,0.0,0.0,0.0,0.0,0.0, ,0.0,0.0,0.0,0.0,0.0,0.0, ,1.3772659301757812
0.08958435507232612,0.07941449842505807,-0.1391489551595156, ,0.014446357250337282,0.02062373161459422,-0.09127979633862766, ,0.10674047660132932, ,2.588449643193841e-05,5.359639011884457e-06,1.9723317073772712e-05,-0.0007478540370277251,-0.0008831203869873451,0.0012214492897535004, ,3.298093573968635e-05, ,0.0011572325948621324, ,0.11064980873982722, ,0.0,0.0,0.0,0.0,0.0,0.0, ,0.0,0.0,0.0,0.0,0.0,0.0, ,1.3793220520019531
0.08958435507232612,0.07941449842505807,-0.1391489551595156, ,0.014478565711084058,0.020621856174205623,-0.0913608712899932, ,0.10668249780696218, ,2.588449643193841e-05,5.359639011884457e-06,1.9723317073772712e-05,-0.0007478540370277251,-0.0008831203869873451,0.0012214492897535004, ,3.298093573968635e-05, ,0.0011572325948621324, ,0.11062590927637621, ,0.0,0.0,0.0,0.0,0.0,0.0, ,0.0,0.0,0.0,0.0,0.0,0.0, ,1.381714105606079
0.08958435507232612,0.07941449842505807,-0.1391489551595156, ,0.014510831578839391,0.02061995226921031,-0.09144193888894202, ,0.10662453746131793, ,2.588449643193841e-05,5.359639011884457e-06,1.9723317073772712e-05,-0.0007478540370277251,-0.0008831203869873451,0.0012214492897535004, ,3.298093573968635e-05, ,0.0011572325948621324, ,0.11060194896610641, ,0.0,0.0,0.0,0.0,0.0,0.0, ,0.0,0.0,0.0,0.0,0.0,0.0, ,1.3838369846343994
0.08958435507232612,0.07941449842505807,-0.1391489551595156, ,0.014543154639182371,0.020618020210498043,-0.09152299796134032, ,0.10656659613558514, ,2.588449643193841e-05,5.359639011884457e-06,1.9723317073772712e-05,-0.0007478540370277251,-0.0008831203869873451,0.0012214492897535004, ,3.298093573968635e-05, ,0.0011572325948621324, ,0.11057792900878188, ,0.0,0.0,0.0,0.0,0.0,0.0, ,0.0,0.0,0.0,0.0,0.0,0.0, ,1.3860759735107422
0.08958435507232612,0.07941449842505807,-0.1391489551595156, ,0.014575534678114243,0.020616060308346895,-0.09160404733711608, ,0.10650867439667211, ,2.588449643193841e-05,5.359639011884457e-06,1.9723317073772712e-05,-0.0007478540370277251,-0.0008831203869873451,0.0012214492897535004, ,3.298093573968635e-05, ,0.0011572325948621324, ,0.11055385057912442, ,0.0,0.0,0.0,0.0,0.0,0.0, ,0.0,0.0,0.0,0.0,0.0,0.0, ,1.3880760669708252
0.08958435507232612,0.07941449842505807,-0.1391489551595156, ,0.014607971482056926,0.02061407287242488,-0.0916850858502544, ,0.10645077280721157, ,2.588449643193841e-05,5.359639011884457e-06,1.9723317073772712e-05,-0.0007478540370277251,-0.0008831203869873451,0.0012214492897535004, ,3.298093573968635e-05, ,0.0011572325948621324, ,0.11052971482752494, ,0.0,0.0,0.0,0.0,0.0,0.0, ,0.0,0.0,0.0,0.0,0.0,0.0, ,1.3903930187225342
0.08958435507232612,0.07941449842505807,-0.1391489551595156, ,0.014640464837853893,0.02061205821178899,-0.09176611233879227, ,0.1063928919255656, ,2.588449643193841e-05,5.359639011884457e-06,1.9723317073772712e-05,-0.0007478540370277251,-0.0008831203869873451,0.0012214492897535004, ,3.298093573968635e-05, ,0.0011572325948621324, ,0.11050552288072985, ,0.0,0.0,0.0,0.0,0.0,0.0, ,0.0,0.0,0.0,0.0,0.0,0.0, ,1.392322063446045
0.08958435507232612,0.07941449842505807,-0.1391489551595156, ,0.014673014532768973,0.020610016634886697,-0.09184712564481497, ,0.10633503230582995, ,2.588449643193841e-05,5.359639011884457e-06,1.9723317073772712e-05,-0.0007478540370277251,-0.0008831203869873451,0.0012214492897535004, ,3.298093573968635e-05, ,0.0011572325948621324, ,0.11048127584250368, ,0.0,0.0,0.0,0.0,0.0,0.0, ,0.0,0.0,0.0,0.0,0.0,0.0, ,1.3942859172821045
0.08958435507232612,0.07941449842505807,-0.1391489551595156, ,0.014705620354486321,0.02060794844955569,-0.09192812461445067, ,0.1062771944978396, ,2.588449643193841e-05,5.359639011884457e-06,1.9723317073772712e-05,-0.0007478540370277251,-0.0008831203869873451,0.0012214492897535004, ,3.298093573968635e-05, ,0.0011572325948621324, ,0.11045697479426862, ,0.0,0.0,0.0,0.0,0.0,0.0, ,0.0,0.0,0.0,0.0,0.0,0.0, ,1.396169900894165
0.08958435507232612,0.07941449842505807,-0.1391489551595156, ,0.014738282091110094,0.02060585396302442,-0.09200910809786557, ,0.10621937904717366, ,2.588449643193841e-05,5.359639011884457e-06,1.9723317073772712e-05,-0.0007478540370277251,-0.0008831203869873451,0.0012214492897535004, ,3.298093573968635e-05, ,0.0011572325948621324, ,0.11043262079572211, ,0.0,0.0,0.0,0.0,0.0,0.0, ,0.0,0.0,0.0,0.0,0.0,0.0, ,1.398090124130249
0.08958435507232612,0.07941449842505807,-0.1391489551595156, ,0.014770999531163712,0.020603733481912852,-0.09209007494925961, ,0.10616158649516066, ,2.588449643193841e-05,5.359639011884457e-06,1.9723317073772712e-05,-0.0007478540370277251,-0.0008831203869873451,0.0012214492897535004, ,3.298093573968635e-05, ,0.0011572325948621324, ,0.11040821488543319, ,0.0,0.0,0.0,0.0,0.0,0.0, ,0.0,0.0,0.0,0.0,0.0,0.0, ,1.4007339477539062
0.08958435507232612,0.07941449842505807,-0.1391489551595156, ,0.014803772463589826,0.02060158731223242,-0.09217102402686207, ,0.10610381737888369, ,2.588449643193841e-05,5.359639011884457e-06,1.9723317073772712e-05,-0.0007478540370277251,-0.0008831203869873451,0.0012214492897535004, ,3.298093573968635e-05, ,0.0011572325948621324, ,0.1103837580814187, ,0.0,0.0,0.0,0.0,0.0,0.0, ,0.0,0.0,0.0,0.0,0.0,0.0, ,1.4026029109954834
0.08958435507232612,0.07941449842505807,-0.1391489551595156, ,0.014836600677749771,0.020599415759386862,-0.09225195419292646, ,0.10604607223118595, ,2.588449643193841e-05,5.359639011884457e-06,1.9723317073772712e-05,-0.0007478540370277251,-0.0008831203869873451,0.0012214492897535004, ,3.298093573968635e-05, ,0.0011572325948621324, ,0.11035925138169989, ,0.0,0.0,0.0,0.0,0.0,0.0, ,0.0,0.0,0.0,0.0,0.0,0.0, ,1.4045329093933105
0.08958435507232612,0.07941449842505807,-0.1391489551595156, ,0.014869483963423323,0.020597219128172178,-0.09233286431372606, ,0.10598835158067635, ,2.588449643193841e-05,5.359639011884457e-06,1.9723317073772712e-05,-0.0007478540370277251,-0.0008831203869873451,0.0012214492897535004, ,3.298093573968635e-05, ,0.0011572325948621324, ,0.11033469576484022, ,0.0,0.0,0.0,0.0,0.0,0.0, ,0.0,0.0,0.0,0.0,0.0,0.0, ,1.4064300060272217
0.08958435507232612,0.07941449842505807,-0.1391489551595156, ,0.014902422110808076,0.020594997722777616,-0.09241375325954898, ,0.10593065595173519, ,2.588449643193841e-05,5.359639011884457e-06,1.9723317073772712e-05,-0.0007478540370277251,-0.0008831203869873451,0.0012214492897535004, ,3.298093573968635e-05, ,0.0011572325948621324, ,0.11031009219046532, ,0.0,0.0,0.0,0.0,0.0,0.0, ,0.0,0.0,0.0,0.0,0.0,0.0, ,1.4086940288543701
0.08958435507232612,0.07941449842505807,-0.1391489551595156, ,0.014935414910519368,0.02059275184678545,-0.09249461990469394, ,0.1058729858645199, ,2.588449643193841e-05,5.359639011884457e-06,1.9723317073772712e-05,-0.0007478540370277251,-0.0008831203869873451,0.0012214492897535004, ,3.298093573968635e-05, ,0.0011572325948621324, ,0.11028544159976561, ,0.0,0.0,0.0,0.0,0.0,0.0, ,0.0,0.0,0.0,0.0,0.0,0.0, ,1.4110031127929688
0.08958435507232612,0.07941449842505807,-0.1391489551595156, ,0.014968462153589473,0.020590481803171988,-0.09257546312746533, ,0.10581534183497096, ,2.588449643193841e-05,5.359639011884457e-06,1.9723317073772712e-05,-0.0007478540370277251,-0.0008831203869873451,0.0012214492897535004, ,3.298093573968635e-05, ,0.0011572325948621324, ,0.11026074491598223, ,0.0,0.0,0.0,0.0,0.0,0.0, ,0.0,0.0,0.0,0.0,0.0,0.0, ,1.4129219055175781
0.08958435507232612,0.07941449842505807,-0.1391489551595156, ,0.015001563631467986,0.020588187894307403,-0.09265628181016847, ,0.10575772437481785, ,2.588449643193841e-05,5.359639011884457e-06,1.9723317073772712e-05,-0.0007478540370277251,-0.0008831203869873451,0.0012214492897535004, ,3.298093573968635e-05, ,0.0011572325948621324, ,0.11023600304487693, ,0.0,0.0,0.0,0.0,0.0,0.0, ,0.0,0.0,0.0,0.0,0.0,0.0, ,1.4147961139678955
0.08958435507232612,0.07941449842505807,-0.1391489551595156, ,0.01503471913602028,0.020585870421956996,-0.09273707483910568, ,0.10570013399158511, ,2.588449643193841e-05,5.359639011884457e-06,1.9723317073772712e-05,-0.0007478540370277251,-0.0008831203869873451,0.0012214492897535004, ,3.298093573968635e-05, ,0.0011572325948621324, ,0.11021121687518683, ,0.0,0.0,0.0,0.0,0.0,0.0, ,0.0,0.0,0.0,0.0,0.0,0.0, ,1.416707992553711
0.08958435507232612,0.07941449842505807,-0.1391489551595156, ,0.01506792845952851,0.02058352968728031,-0.0928178411045702, ,0.10564257118859896, ,2.588449643193841e-05,5.359639011884457e-06,1.9723317073772712e-05,-0.0007478540370277251,-0.0008831203869873451,0.0012214492897535004, ,3.298093573968635e-05, ,0.0011572325948621324, ,0.11018638727906406, ,0.0,0.0,0.0,0.0,0.0,0.0, ,0.0,0.0,0.0,0.0,0.0,0.0, ,1.4200899600982666
0.08958435507232612,0.07941449842505807,-0.1391489551595156, ,0.01510119139468974,0.020581165990833244,-0.09289857950084315, ,0.10558503646499301, ,2.588449643193841e-05,5.359639011884457e-06,1.9723317073772712e-05,-0.0007478540370277251,-0.0008831203869873451,0.0012214492897535004, ,3.298093573968635e-05, ,0.0011572325948621324, ,0.11016151511250152, ,0.0,0.0,0.0,0.0,0.0,0.0, ,0.0,0.0,0.0,0.0,0.0,0.0, ,1.4221079349517822
0.08958435507232612,0.07941449842505807,-0.1391489551595156, ,0.015134507734617178,0.020578779632566536,-0.0929792889261873, ,0.10552753031571546, ,2.588449643193841e-05,5.359639011884457e-06,1.9723317073772712e-05,-0.0007478540370277251,-0.0008831203869873451,0.0012214492897535004, ,3.298093573968635e-05, ,0.0011572325948621324, ,0.11013660121574462, ,0.0,0.0,0.0,0.0,0.0,0.0, ,0.0,0.0,0.0,0.0,0.0,0.0, ,1.4241790771484375
0.08958435507232612,0.07941449842505807,-0.1391489551595156, ,0.015167877272838175,0.020576370911828096,-0.09305996828284394, ,0.1054700532315349, ,2.588449643193841e-05,5.359639011884457e-06,1.9723317073772712e-05,-0.0007478540370277251,-0.0008831203869873451,0.0012214492897535004, ,3.298093573968635e-05, ,0.0011572325948621324, ,0.11011164641369002, ,0.0,0.0,0.0,0.0,0.0,0.0, ,0.0,0.0,0.0,0.0,0.0,0.0, ,1.4261469841003418
0.08958435507232612,0.07941449842505807,-0.1391489551595156, ,0.015201299803295158,0.020573940127361866,-0.09314061647702683, ,0.10541260569904766, ,2.588449643193841e-05,5.359639011884457e-06,1.9723317073772712e-05,-0.0007478540370277251,-0.0008831203869873451,0.0012214492897535004, ,3.298093573968635e-05, ,0.0011572325948621324, ,0.1100866515162717, ,0.0,0.0,0.0,0.0,0.0,0.0, ,0.0,0.0,0.0,0.0,0.0,0.0, ,1.428149938583374
0.08958435507232612,0.07941449842505807,-0.1391489551595156, ,0.015234775120344601,0.020571487577309037,-0.09322123241891872, ,0.105355188200684, ,2.588449643193841e-05,5.359639011884457e-06,1.9723317073772712e-05,-0.0007478540370277251,-0.0008831203869873451,0.0012214492897535004, ,3.298093573968635e-05, ,0.0011572325948621324, ,0.11006161731883472, ,0.0,0.0,0.0,0.0,0.0,0.0, ,0.0,0.0,0.0,0.0,0.0,0.0, ,1.430387020111084
0.08958435507232612,0.07941449842505807,-0.1391489551595156, ,0.015268303018756374,0.020569013559208635,-0.09330181502266588, ,0.1052978012147155, ,2.588449643193841e-05,5.359639011884457e-06,1.9723317073772712e-05,-0.0007478540370277251,-0.0008831203869873451,0.0012214492897535004, ,3.298093573968635e-05, ,0.0011572325948621324, ,0.11003654460249725, ,0.0,0.0,0.0,0.0,0.0,0.0, ,0.0,0.0,0.0,0.0,0.0,0.0, ,1.432724952697754
0.08958435507232612,0.07941449842505807,-0.1391489551595156, ,0.015301883293714229,0.02056651836999728,-0.09338236320637386, ,0.10524044521526162, ,2.588449643193841e-05,5.359639011884457e-06,1.9723317073772712e-05,-0.0007478540370277251,-0.0008831203869873451,0.0012214492897535004, ,3.298093573968635e-05, ,0.0011572325948621324, ,0.11001143413450125, ,0.0,0.0,0.0,0.0,0.0,0.0, ,0.0,0.0,0.0,0.0,0.0,0.0, ,1.434622049331665
0.08958435507232612,0.07941449842505807,-0.1391489551595156, ,0.015335515740814744,0.020564002306009938,-0.0934628758921024, ,0.10518312067229729, ,2.588449643193841e-05,5.359639011884457e-06,1.9723317073772712e-05,-0.0007478540370277251,-0.0008831203869873451,0.0012214492897535004, ,3.298093573968635e-05, ,0.0011572325948621324, ,0.10998628666855227, ,0.0,0.0,0.0,0.0,0.0,0.0, ,0.0,0.0,0.0,0.0,0.0,0.0, ,1.4365520477294922
0.08958435507232612,0.07941449842505807,-0.1391489551595156, ,0.015369200156067075,0.02056146566298043,-0.0935433520058615, ,0.1051258280516596, ,2.588449643193841e-05,5.359639011884457e-06,1.9723317073772712e-05,-0.0007478540370277251,-0.0008831203869873451,0.0012214492897535004, ,3.298093573968635e-05, ,0.0011572325948621324, ,0.10996110294514869, ,0.0,0.0,0.0,0.0,0.0,0.0, ,0.0,0.0,0.0,0.0,0.0,0.0, ,1.4384031295776367
0.08958435507232612,0.07941449842505807,-0.1391489551595156, ,0.015402936335892878,0.020558908736041645,-0.09362379047760591, ,0.10506856781505544, ,2.588449643193841e-05,5.359639011884457e-06,1.9723317073772712e-05,-0.0007478540370277251,-0.0008831203869873451,0.0012214492897535004, ,3.298093573968635e-05, ,0.0011572325948621324, ,0.10993588369190078, ,0.0,0.0,0.0,0.0,0.0,0.0, ,0.0,0.0,0.0,0.0,0.0,0.0, ,1.4402790069580078
0.08958435507232612,0.07941449842505807,-0.1391489551595156, ,0.015436724077125395,0.020556331819726055,-0.09370419024123093, ,0.10501134042006906, ,2.588449643193841e-05,5.359639011884457e-06,1.9723317073772712e-05,-0.0007478540370277251,-0.0008831203869873451,0.0012214492897535004, ,3.298093573968635e-05, ,0.0011572325948621324, ,0.10991062962384011, ,0.0,0.0,0.0,0.0,0.0,0.0, ,0.0,0.0,0.0,0.0,0.0,0.0, ,1.442215919494629
0.08958435507232612,0.07941449842505807,-0.1391489551595156, ,0.015470563177009605,0.02055373520796624,-0.09378455023456782, ,0.10495414632016908, ,2.588449643193841e-05,5.359639011884457e-06,1.9723317073772712e-05,-0.0007478540370277251,-0.0008831203869873451,0.0012214492897535004, ,3.298093573968635e-05, ,0.0011572325948621324, ,0.10988534144371934, ,0.0,0.0,0.0,0.0,0.0,0.0, ,0.0,0.0,0.0,0.0,0.0,0.0, ,1.4441430568695068
0.08958435507232612,0.07941449842505807,-0.1391489551595156, ,0.015504453433201192,0.020551119194095274,-0.09386486939937923, ,0.10489698596471661, ,2.588449643193841e-05,5.359639011884457e-06,1.9723317073772712e-05,-0.0007478540370277251,-0.0008831203869873451,0.0012214492897535004, ,3.298093573968635e-05, ,0.0011572325948621324, ,0.10986001984230309, ,0.0,0.0,0.0,0.0,0.0,0.0, ,0.0,0.0,0.0,0.0,0.0,0.0, ,1.446044921875
0.08958435507232612,0.07941449842505807,-0.1391489551595156, ,0.0155383946437671,0.020548484070846768,-0.09394514668135363, ,0.10483985979897288, ,2.588449643193841e-05,5.359639011884457e-06,1.9723317073772712e-05,-0.0007478540370277251,-0.0008831203869873451,0.0012214492897535004, ,3.298093573968635e-05, ,0.0011572325948621324, ,0.1098346654986499, ,0.0,0.0,0.0,0.0,0.0,0.0, ,0.0,0.0,0.0,0.0,0.0,0.0, ,1.4478929042816162
0.08958435507232612,0.07941449842505807,-0.1391489551595156, ,0.015572386607184236,0.020545830130355894,-0.09402538103010238, ,0.10478276826410667, ,2.588449643193841e-05,5.359639011884457e-06,1.9723317073772712e-05,-0.0007478540370277251,-0.0008831203869873451,0.0012214492897535004, ,3.298093573968635e-05, ,0.0011572325948621324, ,0.10980927908038585, ,0.0,0.0,0.0,0.0,0.0,0.0, ,0.0,0.0,0.0,0.0,0.0,0.0, ,1.4498169422149658
0.08958435507232612,0.07941449842505807,-0.1391489551595156, ,0.015606429122339754,0.02054315766415919,-0.09410557139915297, ,0.10472571179720308, ,2.588449643193841e-05,5.359639011884457e-06,1.9723317073772712e-05,-0.0007478540370277251,-0.0008831203869873451,0.0012214492897535004, ,3.298093573968635e-05, ,0.0011572325948621324, ,0.10978386124396994, ,0.0,0.0,0.0,0.0,0.0,0.0, ,0.0,0.0,0.0,0.0,0.0,0.0, ,1.4517230987548828
0.08958435507232612,0.07941449842505807,-0.1391489551595156, ,0.015640521988530255,0.02054046696319546,-0.09418571674594617, ,0.10466869083127074, ,2.588449643193841e-05,5.359639011884457e-06,1.9723317073772712e-05,-0.0007478540370277251,-0.0008831203869873451,0.0012214492897535004, ,3.298093573968635e-05, ,0.0011572325948621324, ,0.10975841263495155, ,0.0,0.0,0.0,0.0,0.0,0.0, ,0.0,0.0,0.0,0.0,0.0,0.0, ,1.453610897064209
0.08958435507232612,0.07941449842505807,-0.1391489551595156, ,0.015674665005461462,0.020537758317805938,-0.09426581603183015, ,0.10461170579525061, ,2.588449643193841e-05,5.359639011884457e-06,1.9723317073772712e-05,-0.0007478540370277251,-0.0008831203869873451,0.0012214492897535004, ,3.298093573968635e-05, ,0.0011572325948621324, ,0.10973293388822035, ,0.0,0.0,0.0,0.0,0.0,0.0, ,0.0,0.0,0.0,0.0,0.0,0.0, ,1.4554929733276367
0.08958435507232612,0.07941449842505807,-0.1391489551595156, ,0.015708857973248162,0.02053503201773479,-0.09434586822205661, ,0.10455475711402372, ,2.588449643193841e-05,5.359639011884457e-06,1.9723317073772712e-05,-0.0007478540370277251,-0.0008831203869873451,0.0012214492897535004, ,3.298093573968635e-05, ,0.0011572325948621324, ,0.10970742562824894, ,0.0,0.0,0.0,0.0,0.0,0.0, ,0.0,0.0,0.0,0.0,0.0,0.0, ,1.4573290348052979
0.08958435507232612,0.07941449842505807,-0.1391489551595156, ,0.015743100692413227,0.020532288352129682,-0.0944258722857758, ,0.10449784520841986, ,2.588449643193841e-05,5.359639011884457e-06,1.9723317073772712e-05,-0.0007478540370277251,-0.0008831203869873451,0.0012214492897535004, ,3.298093573968635e-05, ,0.0011572325948621324, ,0.1096818884693282, ,0.0,0.0,0.0,0.0,0.0,0.0, ,0.0,0.0,0.0,0.0,0.0,0.0, ,1.45920991897583
0.08958435507232612,0.07941449842505807,-0.1391489551595156, ,0.01577739296388827,0.02052952760954131,-0.09450582719603139, ,0.104440970495226, ,2.588449643193841e-05,5.359639011884457e-06,1.9723317073772712e-05,-0.0007478540370277251,-0.0008831203869873451,0.0012214492897535004, ,3.298093573968635e-05, ,0.0011572325948621324, ,0.109656323015796, ,0.0,0.0,0.0,0.0,0.0,0.0, ,0.0,0.0,0.0,0.0,0.0,0.0, ,1.4621450901031494
0.08958435507232612,0.07941449842505807,-0.1391489551595156, ,0.015811734589011747,0.020526750077925603,-0.09458573192975715, ,0.10438413338719453, ,2.588449643193841e-05,5.359639011884457e-06,1.9723317073772712e-05,-0.0007478540370277251,-0.0008831203869873451,0.0012214492897535004, ,3.298093573968635e-05, ,0.0011572325948621324, ,0.10963072986225911, ,0.0,0.0,0.0,0.0,0.0,0.0, ,0.0,0.0,0.0,0.0,0.0,0.0, ,1.4642839431762695
0.08958435507232612,0.07941449842505807,-0.1391489551595156, ,0.015846125369530013,0.020523956044642244,-0.0946655854677705, ,0.10432733429305256, ,2.588449643193841e-05,5.359639011884457e-06,1.9723317073772712e-05,-0.0007478540370277251,-0.0008831203869873451,0.0012214492897535004, ,3.298093573968635e-05, ,0.0011572325948621324, ,0.10960510959380884, ,0.0,0.0,0.0,0.0,0.0,0.0, ,0.0,0.0,0.0,0.0,0.0,0.0, ,1.468074083328247
0.08958435507232612,0.07941449842505807,-0.1391489551595156, ,0.015880565107596077,0.020521145796456246,-0.09474538679476945, ,0.10427057361750998, ,2.588449643193841e-05,5.359639011884457e-06,1.9723317073772712e-05,-0.0007478540370277251,-0.0008831203869873451,0.0012214492897535004, ,3.298093573968635e-05, ,0.0011572325948621324, ,0.10957946278623047, ,0.0,0.0,0.0,0.0,0.0,0.0, ,0.0,0.0,0.0,0.0,0.0,0.0, ,1.4704139232635498
0.08958435507232612,0.07941449842505807,-0.1391489551595156, ,0.015915053605769683,0.020518319619537904,-0.09482513489932698, ,0.1042138517612687, ,2.588449643193841e-05,5.359639011884457e-06,1.9723317073772712e-05,-0.0007478540370277251,-0.0008831203869873451,0.0012214492897535004, ,3.298093573968635e-05, ,0.0011572325948621324, ,0.10955379000620674, ,0.0,0.0,0.0,0.0,0.0,0.0, ,0.0,0.0,0.0,0.0,0.0,0.0, ,1.4723470211029053
0.08958435507232612,0.07941449842505807,-0.1391489551595156, ,0.01594959066701649,0.020515477799463434,-0.09490482877388648, ,0.1041571691210317, ,2.588449643193841e-05,5.359639011884457e-06,1.9723317073772712e-05,-0.0007478540370277251,-0.0008831203869873451,0.0012214492897535004, ,3.298093573968635e-05, ,0.0011572325948621324, ,0.10952809181151542, ,0.0,0.0,0.0,0.0,0.0,0.0, ,0.0,0.0,0.0,0.0,0.0,0.0, ,1.4742350578308105
0.08958435507232612,0.07941449842505807,-0.1391489551595156, ,0.01598417609470835,0.02051262062121493,-0.09498446741475755, ,0.10410052608951179, ,2.588449643193841e-05,5.359639011884457e-06,1.9723317073772712e-05,-0.0007478540370277251,-0.0008831203869873451,0.0012214492897535004, ,3.298093573968635e-05, ,0.0011572325948621324, ,0.10950236875122156, ,0.0,0.0,0.0,0.0,0.0,0.0, ,0.0,0.0,0.0,0.0,0.0,0.0, ,1.4761769771575928
0.08958435507232612,0.07941449842505807,-0.1391489551595156, ,0.016018809692621913,0.020509748369181943,-0.09506404982211128, ,0.10404392305544068, ,2.588449643193841e-05,5.359639011884457e-06,1.9723317073772712e-05,-0.0007478540370277251,-0.0008831203869873451,0.0012214492897535004, ,3.298093573968635e-05, ,0.0011572325948621324, ,0.1094766213658641, ,0.0,0.0,0.0,0.0,0.0,0.0, ,0.0,0.0,0.0,0.0,0.0,0.0, ,1.4781770706176758
0.08958435507232612,0.07941449842505807,-0.1391489551595156, ,0.016053491264939383,0.02050686132716024,-0.09514357499997492, ,0.10398736040357878, ,2.588449643193841e-05,5.359639011884457e-06,1.9723317073772712e-05,-0.0007478540370277251,-0.0008831203869873451,0.0012214492897535004, ,3.298093573968635e-05, ,0.0011572325948621324, ,0.10945085018763741, ,0.0,0.0,0.0,0.0,0.0,0.0, ,0.0,0.0,0.0,0.0,0.0,0.0, ,1.4800961017608643
0.08958435507232612,0.07941449842505807,-0.1391489551595156, ,0.016088220616247456,0.020503959778353332,-0.09522304195622756, ,0.10393083851472422, ,2.588449643193841e-05,5.359639011884457e-06,1.9723317073772712e-05,-0.0007478540370277251,-0.0008831203869873451,0.0012214492897535004, ,3.298093573968635e-05, ,0.0011572325948621324, ,0.10942505574056771, ,0.0,0.0,0.0,0.0,0.0,0.0, ,0.0,0.0,0.0,0.0,0.0,0.0, ,1.4819819927215576
0.08958435507232612,0.07941449842505807,-0.1391489551595156, ,0.016122997551537063,0.020501044005372757,-0.09530244970259623, ,0.10387435776572192, ,2.588449643193841e-05,5.359639011884457e-06,1.9723317073772712e-05,-0.0007478540370277251,-0.0008831203869873451,0.0012214492897535004, ,3.298093573968635e-05, ,0.0011572325948621324, ,0.10939923854068472, ,0.0,0.0,0.0,0.0,0.0,0.0, ,0.0,0.0,0.0,0.0,0.0,0.0, ,1.483860969543457
0.08958435507232612,0.07941449842505807,-0.1391489551595156, ,0.016157821876202818,0.02049811429023851,-0.09538179725465022, ,0.10381791852947368, ,2.588449643193841e-05,5.359639011884457e-06,1.9723317073772712e-05,-0.0007478540370277251,-0.0008831203869873451,0.0012214492897535004, ,3.298093573968635e-05, ,0.0011572325948621324, ,0.10937339909618836, ,0.0,0.0,0.0,0.0,0.0,0.0, ,0.0,0.0,0.0,0.0,0.0,0.0, ,1.4858191013336182
0.08958435507232612,0.07941449842505807,-0.1391489551595156, ,0.016192693396043303,0.020495170914378705,-0.09546108363179653, ,0.10376152117494783, ,2.588449643193841e-05,5.359639011884457e-06,1.9723317073772712e-05,-0.0007478540370277251,-0.0008831203869873451,0.0012214492897535004, ,3.298093573968635e-05, ,0.0011572325948621324, ,0.10934753790761122, ,0.0,0.0,0.0,0.0,0.0,0.0, ,0.0,0.0,0.0,0.0,0.0,0.0, ,1.4876749515533447
0.08958435507232612,0.07941449842505807,-0.1391489551595156, ,0.01622761191725965,0.02049221415863135,-0.09554030785727595, ,0.1037051660671884, ,2.588449643193841e-05,5.359639011884457e-06,1.9723317073772712e-05,-0.0007478540370277251,-0.0008831203869873451,0.0012214492897535004, ,3.298093573968635e-05, ,0.0011572325948621324, ,0.10932165546797626, ,0.0,0.0,0.0,0.0,0.0,0.0, ,0.0,0.0,0.0,0.0,0.0,0.0, ,1.4895360469818115
0.08958435507232612,0.07941449842505807,-0.1391489551595156, ,0.01626257724645621,0.020489244303243472,-0.09561946895815761, ,0.10364885356732545, ,2.588449643193841e-05,5.359639011884457e-06,1.9723317073772712e-05,-0.0007478540370277251,-0.0008831203869873451,0.0012214492897535004, ,3.298093573968635e-05, ,0.0011572325948621324, ,0.10929575226295045, ,0.0,0.0,0.0,0.0,0.0,0.0, ,0.0,0.0,0.0,0.0,0.0,0.0, ,1.491607904434204
0.08958435507232612,0.07941449842505807,-0.1391489551595156, ,0.01629758919063938,0.020486261627872298,-0.09569856596533483, ,0.10359258403258481, ,2.588449643193841e-05,5.359639011884457e-06,1.9723317073772712e-05,-0.0007478540370277251,-0.0008831203869873451,0.0012214492897535004, ,3.298093573968635e-05, ,0.0011572325948621324, ,0.10926982877099424, ,0.0,0.0,0.0,0.0,0.0,0.0, ,0.0,0.0,0.0,0.0,0.0,0.0, ,1.4935410022735596
0.08958435507232612,0.07941449842505807,-0.1391489551595156, ,0.016332647557217625,0.02048326641158553,-0.09577759791352014, ,0.10353635781629802, ,2.588449643193841e-05,5.359639011884457e-06,1.9723317073772712e-05,-0.0007478540370277251,-0.0008831203869873451,0.0012214492897535004, ,3.298093573968635e-05, ,0.0011572325948621324, ,0.10924388546350693, ,0.0,0.0,0.0,0.0,0.0,0.0, ,0.0,0.0,0.0,0.0,0.0,0.0, ,1.4954140186309814
0.08958435507232612,0.07941449842505807,-0.1391489551595156, ,0.01636775215400117,0.02048025893286133,-0.0958565638412408, ,0.10348017526791259, ,2.588449643193841e-05,5.359639011884457e-06,1.9723317073772712e-05,-0.0007478540370277251,-0.0008831203869873451,0.0012214492897535004, ,3.298093573968635e-05, ,0.0011572325948621324, ,0.10921792280496821, ,0.0,0.0,0.0,0.0,0.0,0.0, ,0.0,0.0,0.0,0.0,0.0,0.0, ,1.497344970703125
0.08958435507232612,0.07941449842505807,-0.1391489551595156, ,0.016402902789201236,0.020477239469589334,-0.09593546279083394, ,0.10342403673300214, ,2.588449643193841e-05,5.359639011884457e-06,1.9723317073772712e-05,-0.0007478540370277251,-0.0008831203869873451,0.0012214492897535004, ,3.298093573968635e-05, ,0.0011572325948621324, ,0.10919194125307599, ,0.0,0.0,0.0,0.0,0.0,0.0, ,0.0,0.0,0.0,0.0,0.0,0.0, ,1.4992239475250244
0.08958435507232612,0.07941449842505807,-0.1391489551595156, ,0.01643809927142997,0.02047420829907079,-0.0960142938084422, ,0.10336794255327651, ,2.588449643193841e-05,5.359639011884457e-06,1.9723317073772712e-05,-0.0007478540370277251,-0.0008831203869873451,0.0012214492897535004, ,3.298093573968635e-05, ,0.0011572325948621324, ,0.10916594125888046, ,0.0,0.0,0.0,0.0,0.0,0.0, ,0.0,0.0,0.0,0.0,0.0,0.0, ,1.5038199424743652
0.08958435507232612,0.07941449842505807,-0.1391489551595156, ,0.016473341409699856,0.02047116569801913,-0.09609305594400912, ,0.10331189306659229, ,2.588449643193841e-05,5.359639011884457e-06,1.9723317073772712e-05,-0.0007478540370277251,-0.0008831203869873451,0.0012214492897535004, ,3.298093573968635e-05, ,0.0011572325948621324, ,0.10913992326691474, ,0.0,0.0,0.0,0.0,0.0,0.0, ,0.0,0.0,0.0,0.0,0.0,0.0, ,1.505924940109253
0.08958435507232612,0.07941449842505807,-0.1391489551595156, ,0.016508629013423787,0.020468111942559764,-0.09617174825127349, ,0.10325588860696348, ,2.588449643193841e-05,5.359639011884457e-06,1.9723317073772712e-05,-0.0007478540370277251,-0.0008831203869873451,0.0012214492897535004, ,3.298093573968635e-05, ,0.0011572325948621324, ,0.10911388771532203, ,0.0,0.0,0.0,0.0,0.0,0.0, ,0.0,0.0,0.0,0.0,0.0,0.0, ,1.5082991123199463
0.08958435507232612,0.07941449842505807,-0.1391489551595156, ,0.016543961892413743,0.020465047308231798,-0.09625036978776645, ,0.10319992950457152, ,2.588449643193841e-05,5.359639011884457e-06,1.9723317073772712e-05,-0.0007478540370277251,-0.0008831203869873451,0.0012214492897535004, ,3.298093573968635e-05, ,0.0011572325948621324, ,0.10908783503597952, ,0.0,0.0,0.0,0.0,0.0,0.0, ,0.0,0.0,0.0,0.0,0.0,0.0, ,1.5105249881744385
0.08958435507232612,0.07941449842505807,-0.1391489551595156, ,0.016579339856881835,0.02046197206998659,-0.09632891961480523, ,0.10314401608577643, ,2.588449643193841e-05,5.359639011884457e-06,1.9723317073772712e-05,-0.0007478540370277251,-0.0008831203869873451,0.0012214492897535004, ,3.298093573968635e-05, ,0.0011572325948621324, ,0.10906176565461898, ,0.0,0.0,0.0,0.0,0.0,0.0, ,0.0,0.0,0.0,0.0,0.0,0.0, ,1.5125460624694824
0.08958435507232612,0.07941449842505807,-0.1391489551595156, ,0.016614762717438294,0.020458886502190275,-0.09640739679748925, ,0.10308814867312732, ,2.588449643193841e-05,5.359639011884457e-06,1.9723317073772712e-05,-0.0007478540370277251,-0.0008831203869873451,0.0012214492897535004, ,3.298093573968635e-05, ,0.0011572325948621324, ,0.10903567999094434, ,0.0,0.0,0.0,0.0,0.0,0.0, ,0.0,0.0,0.0,0.0,0.0,0.0, ,1.5150620937347412
0.08958435507232612,0.07941449842505807,-0.1391489551595156, ,0.01665023028509245,0.020455790878622305,-0.09648580040469551, ,0.10303232758537315, ,2.588449643193841e-05,5.359639011884457e-06,1.9723317073772712e-05,-0.0007478540370277251,-0.0008831203869873451,0.0012214492897535004, ,3.298093573968635e-05, ,0.0011572325948621324, ,0.1090095784587462, ,0.0,0.0,0.0,0.0,0.0,0.0, ,0.0,0.0,0.0,0.0,0.0,0.0, ,1.5170629024505615
0.08958435507232612,0.07941449842505807,-0.1391489551595156, ,0.016685742371251498,0.020452685472477146,-0.09656412950907345, ,0.10297655313747385, ,2.588449643193841e-05,5.359639011884457e-06,1.9723317073772712e-05,-0.0007478540370277251,-0.0008831203869873451,0.0012214492897535004, ,3.298093573968635e-05, ,0.0011572325948621324, ,0.10898346146601343, ,0.0,0.0,0.0,0.0,0.0,0.0, ,0.0,0.0,0.0,0.0,0.0,0.0, ,1.5190470218658447
0.08958435507232612,0.07941449842505807,-0.1391489551595156, ,0.016721298787720693,0.02044957055636394,-0.09664238318704076, ,0.10292082564061107, ,2.588449643193841e-05,5.359639011884457e-06,1.9723317073772712e-05,-0.0007478540370277251,-0.0008831203869873451,0.0012214492897535004, ,3.298093573968635e-05, ,0.0011572325948621324, ,0.10895732941504185, ,0.0,0.0,0.0,0.0,0.0,0.0, ,0.0,0.0,0.0,0.0,0.0,0.0, ,1.5209250450134277
0.08958435507232612,0.07941449842505807,-0.1391489551595156, ,0.016756899346702374,0.020446446402307465,-0.0967205605187785, ,0.10286514540219946, ,2.588449643193841e-05,5.359639011884457e-06,1.9723317073772712e-05,-0.0007478540370277251,-0.0008831203869873451,0.0012214492897535004, ,3.298093573968635e-05, ,0.0011572325948621324, ,0.10893118270254039, ,0.0,0.0,0.0,0.0,0.0,0.0, ,0.0,0.0,0.0,0.0,0.0,0.0, ,1.5228009223937988
