NicholasDascanio/dvrk_moveit_final/test/execution/third_experiment_notsharpbends/thirdexp_600vel4.0/thirdexp_600vel4.0_22.csv
Current Position (x),Current Position (y),Current Position (z), ,Planned Position (x),Planned Position (y),Planned Position (z), ,Position Error,,Cartesian linear Velocity(x),Cartesian linear Velocity(y),Cartesian linear Velocity(z),Cartesian Angular Velocity(x),Cartesian Angular Velocity(y),Cartesian Angular Velocity(z), ,Total Linear Velocity, ,Total Angular Velocity, ,MSE, ,Joint 1 Position,Joint 2 Position,Joint 3 Position,Joint 4 Position,Joint 5 Position,Joint 6 Position, ,Joint 1 Velocity,Joint 2 Velocity,Joint 3 Velocity,Joint 4 Velocity,Joint 5 Velocity,Joint 6 Velocity, ,Time Stamp
0.08958435507232612,0.07941449842505807,-0.1391489551595156, ,0.010338829013299208,0.019850040380252704,-0.08025551301887814, ,0.11530921727995515, ,2.588449643193841e-05,5.359639011884457e-06,1.9723317073772712e-05,-0.0007478540370277251,-0.0008831203869873451,0.0012214492897535004, ,3.298093573968635e-05, ,0.0011572325948621324, ,0.009609101439996262, ,0.0,0.0,0.0,0.0,0.0,0.0, ,0.0,0.0,0.0,0.0,0.0,0.0, ,0.01907205581665039
0.08958435507232612,0.07941449842505807,-0.1391489551595156, ,0.010351091221466047,0.01988618948180434,-0.0802899980327505, ,0.11526450667987022, ,2.588449643193841e-05,5.359639011884457e-06,1.9723317073772712e-05,-0.0007478540370277251,-0.0008831203869873451,0.0012214492897535004, ,3.298093573968635e-05, ,0.0011572325948621324, ,0.010480623816355698, ,0.0,0.0,0.0,0.0,0.0,0.0, ,0.0,0.0,0.0,0.0,0.0,0.0, ,0.03865408897399902
0.08958435507232612,0.07941449842505807,-0.1391489551595156, ,0.010363512007453154,0.01992195585949025,-0.080324786493698, ,0.11521973535835643, ,2.588449643193841e-05,5.359639011884457e-06,1.9723317073772712e-05,-0.0007478540370277251,-0.0008831203869873451,0.0012214492897535004, ,3.298093573968635e-05, ,0.0011572325948621324, ,0.01080604560369318, ,0.0,0.0,0.0,0.0,0.0,0.0, ,0.0,0.0,0.0,0.0,0.0,0.0, ,0.05843520164489746
0.08958435507232612,0.07941449842505807,-0.1391489551595156, ,0.010376090766503842,0.019957341348201783,-0.08035987683731215, ,0.11517490348151865, ,2.588449643193841e-05,5.359639011884457e-06,1.9723317073772712e-05,-0.0007478540370277251,-0.0008831203869873451,0.0012214492897535004, ,3.298093573968635e-05, ,0.0011572325948621324, ,0.010975437209516678, ,0.0,0.0,0.0,0.0,0.0,0.0, ,0.0,0.0,0.0,0.0,0.0,0.0, ,0.07750105857849121
0.08958435507232612,0.07941449842505807,-0.1391489551595156, ,0.010388826895231568,0.019992347778820908,-0.08039526750251488, ,0.11513001122196367, ,2.588449643193841e-05,5.359639011884457e-06,1.9723317073772712e-05,-0.0007478540370277251,-0.0008831203869873451,0.0012214492897535004, ,3.298093573968635e-05, ,0.0011572325948621324, ,0.011078814885032002, ,0.0,0.0,0.0,0.0,0.0,0.0, ,0.0,0.0,0.0,0.0,0.0,0.0, ,0.09772896766662598
0.08958435507232612,0.07941449842505807,-0.1391489551595156, ,0.010401719791619886,0.020026976978223074,-0.08043095693155432, ,0.11508505875870463, ,2.588449643193841e-05,5.359639011884457e-06,1.9723317073772712e-05,-0.0007478540370277251,-0.0008831203869873451,0.0012214492897535004, ,3.298093573968635e-05, ,0.0011572325948621324, ,0.011148119883554335, ,0.0,0.0,0.0,0.0,0.0,0.0, ,0.0,0.0,0.0,0.0,0.0,0.0, ,0.11716413497924805
0.08958435507232612,0.07941449842505807,-0.1391489551595156, ,0.010414768855019694,0.0200612307692821,-0.08046694357000433, ,0.11504004627706489, ,2.588449643193841e-05,5.359639011884457e-06,1.9723317073772712e-05,-0.0007478540370277251,-0.0008831203869873451,0.0012214492897535004, ,3.298093573968635e-05, ,0.0011572325948621324, ,0.011197548320242133, ,0.0,0.0,0.0,0.0,0.0,0.0, ,0.0,0.0,0.0,0.0,0.0,0.0, ,0.14321613311767578
0.08958435507232612,0.07941449842505807,-0.1391489551595156, ,0.010427973486148925,0.02009511097087276,-0.08050322586675913, ,0.11499497396858493, ,2.588449643193841e-05,5.359639011884457e-06,1.9723317073772712e-05,-0.0007478540370277251,-0.0008831203869873451,0.0012214492897535004, ,3.298093573968635e-05, ,0.0011572325948621324, ,0.01123437137836608, ,0.0,0.0,0.0,0.0,0.0,0.0, ,0.0,0.0,0.0,0.0,0.0,0.0, ,0.16196608543395996
0.08958435507232612,0.07941449842505807,-0.1391489551595156, ,0.010441333087091172,0.02012861939787491,-0.08053980227403222, ,0.11494984203092733, ,2.588449643193841e-05,5.359639011884457e-06,1.9723317073772712e-05,-0.0007478540370277251,-0.0008831203869873451,0.0012214492897535004, ,3.298093573968635e-05, ,0.0011572325948621324, ,0.01126269885931463, ,0.0,0.0,0.0,0.0,0.0,0.0, ,0.0,0.0,0.0,0.0,0.0,0.0, ,0.1832561492919922
0.08958435507232612,0.07941449842505807,-0.1391489551595156, ,0.010454847061293123,0.02016175786117745,-0.08057667124735299, ,0.11490465066778482, ,2.588449643193841e-05,5.359639011884457e-06,1.9723317073772712e-05,-0.0007478540370277251,-0.0008831203869873451,0.0012214492897535004, ,3.298093573968635e-05, ,0.0011572325948621324, ,0.011285028879654223, ,0.0,0.0,0.0,0.0,0.0,0.0, ,0.0,0.0,0.0,0.0,0.0,0.0, ,0.2047901153564453
0.08958435507232612,0.07941449842505807,-0.1391489551595156, ,0.010468514813564677,0.020194528167681473,-0.08061383124556404, ,0.11485940008878723, ,2.588449643193841e-05,5.359639011884457e-06,1.9723317073772712e-05,-0.0007478540370277251,-0.0008831203869873451,0.0012214492897535004, ,3.298093573968635e-05, ,0.0011572325948621324, ,0.011404795908229893, ,0.0,0.0,0.0,0.0,0.0,0.0, ,0.0,0.0,0.0,0.0,0.0,0.0, ,0.22252798080444336
0.08958435507232612,0.07941449842505807,-0.1391489551595156, ,0.010482335750076632,0.02022693212030432,-0.08065128073081775, ,0.11481409050941041, ,2.588449643193841e-05,5.359639011884457e-06,1.9723317073772712e-05,-0.0007478540370277251,-0.0008831203869873451,0.0012214492897535004, ,3.298093573968635e-05, ,0.0011572325948621324, ,0.011506220302691071, ,0.0,0.0,0.0,0.0,0.0,0.0, ,0.0,0.0,0.0,0.0,0.0,0.0, ,0.2410111427307129
0.08958435507232612,0.07941449842505807,-0.1391489551595156, ,0.01049630927835974,0.020258971517983126,-0.08068901816857464, ,0.11476872215088474, ,2.588449643193841e-05,5.359639011884457e-06,1.9723317073772712e-05,-0.0007478540370277251,-0.0008831203869873451,0.0012214492897535004, ,3.298093573968635e-05, ,0.0011572325948621324, ,0.011593140763362894, ,0.0,0.0,0.0,0.0,0.0,0.0, ,0.0,0.0,0.0,0.0,0.0,0.0, ,0.2577521800994873
0.08958435507232612,0.07941449842505807,-0.1391489551595156, ,0.010510434807303232,0.02029064815567855,-0.08072704202759952, ,0.11472329524010526, ,2.588449643193841e-05,5.359639011884457e-06,1.9723317073772712e-05,-0.0007478540370277251,-0.0008831203869873451,0.0012214492897535004, ,3.298093573968635e-05, ,0.0011572325948621324, ,0.011668394592129844, ,0.0,0.0,0.0,0.0,0.0,0.0, ,0.0,0.0,0.0,0.0,0.0,0.0, ,0.2795450687408447
0.08958435507232612,0.07941449842505807,-0.1391489551595156, ,0.01052471174715353,0.020321963824378213,-0.08076535077995903, ,0.1146778100095421, ,2.588449643193841e-05,5.359639011884457e-06,1.9723317073772712e-05,-0.0007478540370277251,-0.0008831203869873451,0.0012214492897535004, ,3.298093573968635e-05, ,0.0011572325948621324, ,0.011734124243016739, ,0.0,0.0,0.0,0.0,0.0,0.0, ,0.0,0.0,0.0,0.0,0.0,0.0, ,0.29627299308776855
0.08958435507232612,0.07941449842505807,-0.1391489551595156, ,0.01053913950951245,0.020352920311100954,-0.08080394290101924, ,0.11463226669715133, ,2.588449643193841e-05,5.359639011884457e-06,1.9723317073772712e-05,-0.0007478540370277251,-0.0008831203869873451,0.0012214492897535004, ,3.298093573968635e-05, ,0.0011572325948621324, ,0.011791977759106486, ,0.0,0.0,0.0,0.0,0.0,0.0, ,0.0,0.0,0.0,0.0,0.0,0.0, ,0.3145580291748047
0.08958435507232612,0.07941449842505807,-0.1391489551595156, ,0.01055371750733654,0.02038351939889991,-0.08084281686944178, ,0.1145866655462872, ,2.588449643193841e-05,5.359639011884457e-06,1.9723317073772712e-05,-0.0007478540370277251,-0.0008831203869873451,0.0012214492897535004, ,3.298093573968635e-05, ,0.0011572325948621324, ,0.0118432436119206, ,0.0,0.0,0.0,0.0,0.0,0.0, ,0.0,0.0,0.0,0.0,0.0,0.0, ,0.33277106285095215
0.08958435507232612,0.07941449842505807,-0.1391489551595156, ,0.010568445154934991,0.020413762866866553,-0.08088197116718243, ,0.11454100680561405, ,2.588449643193841e-05,5.359639011884457e-06,1.9723317073772712e-05,-0.0007478540370277251,-0.0008831203869873451,0.0012214492897535004, ,3.298093573968635e-05, ,0.0011572325948621324, ,0.011888943694094902, ,0.0,0.0,0.0,0.0,0.0,0.0, ,0.0,0.0,0.0,0.0,0.0,0.0, ,0.35094308853149414
0.08958435507232612,0.07941449842505807,-0.1391489551595156, ,0.010583321867969033,0.020443652490134013,-0.08092140427948685, ,0.11449529072902002, ,2.588449643193841e-05,5.359639011884457e-06,1.9723317073772712e-05,-0.0007478540370277251,-0.0008831203869873451,0.0012214492897535004, ,3.298093573968635e-05, ,0.0011572325948621324, ,0.011929898871593077, ,0.0,0.0,0.0,0.0,0.0,0.0, ,0.0,0.0,0.0,0.0,0.0,0.0, ,0.36885809898376465
0.08958435507232612,0.07941449842505807,-0.1391489551595156, ,0.010598347063449856,0.020473190039881326,-0.08096111469488916, ,0.1144495175755302, ,2.588449643193841e-05,5.359639011884457e-06,1.9723317073772712e-05,-0.0007478540370277251,-0.0008831203869873451,0.0012214492897535004, ,3.298093573968635e-05, ,0.0011572325948621324, ,0.011966776099359705, ,0.0,0.0,0.0,0.0,0.0,0.0, ,0.0,0.0,0.0,0.0,0.0,0.0, ,0.38562917709350586
0.08958435507232612,0.07941449842505807,-0.1391489551595156, ,0.01061352015973727,0.020502377283336627,-0.08100110090520762, ,0.11440368760922205, ,2.588449643193841e-05,5.359639011884457e-06,1.9723317073772712e-05,-0.0007478540370277251,-0.0008831203869873451,0.0012214492897535004, ,3.298093573968635e-05, ,0.0011572325948621324, ,0.012000122879036247, ,0.0,0.0,0.0,0.0,0.0,0.0, ,0.0,0.0,0.0,0.0,0.0,0.0, ,0.4057810306549072
0.08958435507232612,0.07941449842505807,-0.1391489551595156, ,0.010628840576539341,0.020531215983780864,-0.08104136140554344, ,0.11435780109913922, ,2.588449643193841e-05,5.359639011884457e-06,1.9723317073772712e-05,-0.0007478540370277251,-0.0008831203869873451,0.0012214492897535004, ,3.298093573968635e-05, ,0.0011572325948621324, ,0.012087954544427869, ,0.0,0.0,0.0,0.0,0.0,0.0, ,0.0,0.0,0.0,0.0,0.0,0.0, ,0.42073512077331543
0.08958435507232612,0.07941449842505807,-0.1391489551595156, ,0.01064430773490958,0.020559707900551696,-0.08108189469427654, ,0.11431185831920859, ,2.588449643193841e-05,5.359639011884457e-06,1.9723317073772712e-05,-0.0007478540370277251,-0.0008831203869873451,0.0012214492897535004, ,3.298093573968635e-05, ,0.0011572325948621324, ,0.012169098424445314, ,0.0,0.0,0.0,0.0,0.0,0.0, ,0.0,0.0,0.0,0.0,0.0,0.0, ,0.4359560012817383
0.08958435507232612,0.07941449842505807,-0.1391489551595156, ,0.010659921057246464,0.020587854789047167,-0.08112269927306343, ,0.11426585954815599, ,2.588449643193841e-05,5.359639011884457e-06,1.9723317073772712e-05,-0.0007478540370277251,-0.0008831203869873451,0.0012214492897535004, ,3.298093573968635e-05, ,0.0011572325948621324, ,0.012244267634012394, ,0.0,0.0,0.0,0.0,0.0,0.0, ,0.0,0.0,0.0,0.0,0.0,0.0, ,0.4528491497039795
0.08958435507232612,0.07941449842505807,-0.1391489551595156, ,0.010675679967291723,0.02061565840072926,-0.08116377364683476, ,0.1142198050694232, ,2.588449643193841e-05,5.359639011884457e-06,1.9723317073772712e-05,-0.0007478540370277251,-0.0008831203869873451,0.0012214492897535004, ,3.298093573968635e-05, ,0.0011572325948621324, ,0.012314077350739106, ,0.0,0.0,0.0,0.0,0.0,0.0, ,0.0,0.0,0.0,0.0,0.0,0.0, ,0.4680960178375244
0.08958435507232612,0.07941449842505807,-0.1391489551595156, ,0.010691583890129641,0.0206431204831272,-0.08120511632379113, ,0.11417369517108616, ,2.588449643193841e-05,5.359639011884457e-06,1.9723317073772712e-05,-0.0007478540370277251,-0.0008831203869873451,0.0012214492897535004, ,3.298093573968635e-05, ,0.0011572325948621324, ,0.012379061070096672, ,0.0,0.0,0.0,0.0,0.0,0.0, ,0.0,0.0,0.0,0.0,0.0,0.0, ,0.4873380661010742
0.08958435507232612,0.07941449842505807,-0.1391489551595156, ,0.010707632252184388,0.02067024277984204,-0.08124672581540189, ,0.11412753014577293, ,2.588449643193841e-05,5.359639011884457e-06,1.9723317073772712e-05,-0.0007478540370277251,-0.0008831203869873451,0.0012214492897535004, ,3.298093573968635e-05, ,0.0011572325948621324, ,0.01243968372706454, ,0.0,0.0,0.0,0.0,0.0,0.0, ,0.0,0.0,0.0,0.0,0.0,0.0, ,0.5033390522003174
0.08958435507232612,0.07941449842505807,-0.1391489551595156, ,0.010723824481219784,0.0206970270305496,-0.08128860063640139, ,0.11408131029058267, ,2.588449643193841e-05,5.359639011884457e-06,1.9723317073772712e-05,-0.0007478540370277251,-0.0008831203869873451,0.0012214492897535004, ,3.298093573968635e-05, ,0.0011572325948621324, ,0.012496352367041453, ,0.0,0.0,0.0,0.0,0.0,0.0, ,0.0,0.0,0.0,0.0,0.0,0.0, ,0.5186071395874023
0.08958435507232612,0.07941449842505807,-0.1391489551595156, ,0.01074016000633748,0.020723474971004248,-0.08133073930478603, ,0.11403503590700564, ,2.588449643193841e-05,5.359639011884457e-06,1.9723317073772712e-05,-0.0007478540370277251,-0.0008831203869873451,0.0012214492897535004, ,3.298093573968635e-05, ,0.0011572325948621324, ,0.012549424883911921, ,0.0,0.0,0.0,0.0,0.0,0.0, ,0.0,0.0,0.0,0.0,0.0,0.0, ,0.5344641208648682
0.08958435507232612,0.07941449842505807,-0.1391489551595156, ,0.010756638257975593,0.02074958833304289,-0.08137314034181226, ,0.11398870730084282, ,2.588449643193841e-05,5.359639011884457e-06,1.9723317073772712e-05,-0.0007478540370277251,-0.0008831203869873451,0.0012214492897535004, ,3.298093573968635e-05, ,0.0011572325948621324, ,0.01259921722174909, ,0.0,0.0,0.0,0.0,0.0,0.0, ,0.0,0.0,0.0,0.0,0.0,0.0, ,0.5495851039886475
0.08958435507232612,0.07941449842505807,-0.1391489551595156, ,0.010773258667907432,0.020775368844588155,-0.08141580227199299, ,0.1139423247821273, ,2.588449643193841e-05,5.359639011884457e-06,1.9723317073772712e-05,-0.0007478540370277251,-0.0008831203869873451,0.0012214492897535004, ,3.298093573968635e-05, ,0.0011572325948621324, ,0.0126460093463332, ,0.0,0.0,0.0,0.0,0.0,0.0, ,0.0,0.0,0.0,0.0,0.0,0.0, ,0.5647940635681152
0.08958435507232612,0.07941449842505807,-0.1391489551595156, ,0.010790020669239992,0.020800818229652664,-0.08145872362309484, ,0.11389588866504559, ,2.588449643193841e-05,5.359639011884457e-06,1.9723317073772712e-05,-0.0007478540370277251,-0.0008831203869873451,0.0012214492897535004, ,3.298093573968635e-05, ,0.0011572325948621324, ,0.012734112899252342, ,0.0,0.0,0.0,0.0,0.0,0.0, ,0.0,0.0,0.0,0.0,0.0,0.0, ,0.5820980072021484
0.08958435507232612,0.07941449842505807,-0.1391489551595156, ,0.010806923696412694,0.020825938208342117,-0.0815019029261358, ,0.11384939926785966, ,2.588449643193841e-05,5.359639011884457e-06,1.9723317073772712e-05,-0.0007478540370277251,-0.0008831203869873451,0.0012214492897535004, ,3.298093573968635e-05, ,0.0011572325948621324, ,0.01281787767543232, ,0.0,0.0,0.0,0.0,0.0,0.0, ,0.0,0.0,0.0,0.0,0.0,0.0, ,0.5952939987182617
0.08958435507232612,0.07941449842505807,-0.1391489551595156, ,0.010823967185195819,0.020850730496859378,-0.081545338715382, ,0.11380285691282972, ,2.588449643193841e-05,5.359639011884457e-06,1.9723317073772712e-05,-0.0007478540370277251,-0.0008831203869873451,0.0012214492897535004, ,3.298093573968635e-05, ,0.0011572325948621324, ,0.012897605202534319, ,0.0,0.0,0.0,0.0,0.0,0.0, ,0.0,0.0,0.0,0.0,0.0,0.0, ,0.6082961559295654
0.08958435507232612,0.07941449842505807,-0.1391489551595156, ,0.010841150572689381,0.020875196807507938,-0.081589029528345, ,0.11375626192613755, ,2.588449643193841e-05,5.359639011884457e-06,1.9723317073772712e-05,-0.0007478540370277251,-0.0008831203869873451,0.0012214492897535004, ,3.298093573968635e-05, ,0.0011572325948621324, ,0.012973569686380262, ,0.0,0.0,0.0,0.0,0.0,0.0, ,0.0,0.0,0.0,0.0,0.0,0.0, ,0.6266610622406006
0.08958435507232612,0.07941449842505807,-0.1391489551595156, ,0.010858473297321716,0.020899338848695544,-0.08163297390577874, ,0.11370961463781043, ,2.588449643193841e-05,5.359639011884457e-06,1.9723317073772712e-05,-0.0007478540370277251,-0.0008831203869873451,0.0012214492897535004, ,3.298093573968635e-05, ,0.0011572325948621324, ,0.013046021037118074, ,0.0,0.0,0.0,0.0,0.0,0.0, ,0.0,0.0,0.0,0.0,0.0,0.0, ,0.6403470039367676
0.08958435507232612,0.07941449842505807,-0.1391489551595156, ,0.010875934798847669,0.020923158324938216,-0.08167717039167711, ,0.11366291538164572, ,2.588449643193841e-05,5.359639011884457e-06,1.9723317073772712e-05,-0.0007478540370277251,-0.0008831203869873451,0.0012214492897535004, ,3.298093573968635e-05, ,0.0011572325948621324, ,0.013115187501891508, ,0.0,0.0,0.0,0.0,0.0,0.0, ,0.0,0.0,0.0,0.0,0.0,0.0, ,0.6541011333465576
0.08958435507232612,0.07941449842505807,-0.1391489551595156, ,0.010893534518347988,0.020946656936863466,-0.08172161753327115, ,0.1136161644951356, ,2.588449643193841e-05,5.359639011884457e-06,1.9723317073772712e-05,-0.0007478540370277251,-0.0008831203869873451,0.0012214492897535004, ,3.298093573968635e-05, ,0.0011572325948621324, ,0.013181277962442704, ,0.0,0.0,0.0,0.0,0.0,0.0, ,0.0,0.0,0.0,0.0,0.0,0.0, ,0.6698391437530518
0.08958435507232612,0.07941449842505807,-0.1391489551595156, ,0.01091127189822718,0.02096983638121424,-0.08176631388102537, ,0.1135693623193936, ,2.588449643193841e-05,5.359639011884457e-06,1.9723317073772712e-05,-0.0007478540370277251,-0.0008831203869873451,0.0012214492897535004, ,3.298093573968635e-05, ,0.0011572325948621324, ,0.013244483946366426, ,0.0,0.0,0.0,0.0,0.0,0.0, ,0.0,0.0,0.0,0.0,0.0,0.0, ,0.68277907371521
0.08958435507232612,0.07941449842505807,-0.1391489551595156, ,0.010929146382212736,0.020992698350852514,-0.08181125798863634, ,0.11352250919907994, ,2.588449643193841e-05,5.359639011884457e-06,1.9723317073772712e-05,-0.0007478540370277251,-0.0008831203869873451,0.0012214492897535004, ,3.298093573968635e-05, ,0.0011572325948621324, ,0.013304981392803969, ,0.0,0.0,0.0,0.0,0.0,0.0, ,0.0,0.0,0.0,0.0,0.0,0.0, ,0.6963331699371338
0.08958435507232612,0.07941449842505807,-0.1391489551595156, ,0.010947157415353315,0.021015244534762875,-0.08185644841302844, ,0.11347560548232931, ,2.588449643193841e-05,5.359639011884457e-06,1.9723317073772712e-05,-0.0007478540370277251,-0.0008831203869873451,0.0012214492897535004, ,3.298093573968635e-05, ,0.0011572325948621324, ,0.01336293220685725, ,0.0,0.0,0.0,0.0,0.0,0.0, ,0.0,0.0,0.0,0.0,0.0,0.0, ,0.7104799747467041
0.08958435507232612,0.07941449842505807,-0.1391489551595156, ,0.010965304444017478,0.021037476618056487,-0.08190188371435175, ,0.11342865152067794, ,2.588449643193841e-05,5.359639011884457e-06,1.9723317073772712e-05,-0.0007478540370277251,-0.0008831203869873451,0.0012214492897535004, ,3.298093573968635e-05, ,0.0011572325948621324, ,0.013418485631641264, ,0.0,0.0,0.0,0.0,0.0,0.0, ,0.0,0.0,0.0,0.0,0.0,0.0, ,0.7254021167755127
0.08958435507232612,0.07941449842505807,-0.1391489551595156, ,0.010983586915892503,0.021059396281974386,-0.0819475624559798, ,0.1133816476689913, ,2.588449643193841e-05,5.359639011884457e-06,1.9723317073772712e-05,-0.0007478540370277251,-0.0008831203869873451,0.0012214492897535004, ,3.298093573968635e-05, ,0.0011572325948621324, ,0.013508789845594957, ,0.0,0.0,0.0,0.0,0.0,0.0, ,0.0,0.0,0.0,0.0,0.0,0.0, ,0.7367269992828369
0.08958435507232612,0.07941449842505807,-0.1391489551595156, ,0.01100200427998299,0.021081005203891334,-0.08199348320450509, ,0.1133345942853936, ,2.588449643193841e-05,5.359639011884457e-06,1.9723317073772712e-05,-0.0007478540370277251,-0.0008831203869873451,0.0012214492897535004, ,3.298093573968635e-05, ,0.0011572325948621324, ,0.01359603810292421, ,0.0,0.0,0.0,0.0,0.0,0.0, ,0.0,0.0,0.0,0.0,0.0,0.0, ,0.7479240894317627
0.08958435507232612,0.07941449842505807,-0.1391489551595156, ,0.011020555986608994,0.02110230505731948,-0.08203964452973792, ,0.11328749173119644, ,2.588449643193841e-05,5.359639011884457e-06,1.9723317073772712e-05,-0.0007478540370277251,-0.0008831203869873451,0.0012214492897535004, ,3.298093573968635e-05, ,0.0011572325948621324, ,0.013680376568652007, ,0.0,0.0,0.0,0.0,0.0,0.0, ,0.0,0.0,0.0,0.0,0.0,0.0, ,0.7597761154174805
0.08958435507232612,0.07941449842505807,-0.1391489551595156, ,0.011039241487405232,0.02112329751191207,-0.08208604500470265, ,0.1132403403708287, ,2.588449643193841e-05,5.359639011884457e-06,1.9723317073772712e-05,-0.0007478540370277251,-0.0008831203869873451,0.0012214492897535004, ,3.298093573968635e-05, ,0.0011572325948621324, ,0.013761942225612523, ,0.0,0.0,0.0,0.0,0.0,0.0, ,0.0,0.0,0.0,0.0,0.0,0.0, ,0.7712430953979492
0.08958435507232612,0.07941449842505807,-0.1391489551595156, ,0.011058060235319443,0.02114398423346691,-0.08213268320563526, ,0.11319314057176687, ,2.588449643193841e-05,5.359639011884457e-06,1.9723317073772712e-05,-0.0007478540370277251,-0.0008831203869873451,0.0012214492897535004, ,3.298093573968635e-05, ,0.0011572325948621324, ,0.013840863584422035, ,0.0,0.0,0.0,0.0,0.0,0.0, ,0.0,0.0,0.0,0.0,0.0,0.0, ,0.7828080654144287
0.08958435507232612,0.07941449842505807,-0.1391489551595156, ,0.011077011684611032,0.021164366883930474,-0.08217955771198002, ,0.11314589270446611, ,2.588449643193841e-05,5.359639011884457e-06,1.9723317073772712e-05,-0.0007478540370277251,-0.0008831203869873451,0.0012214492897535004, ,3.298093573968635e-05, ,0.0011572325948621324, ,0.013917261328579228, ,0.0,0.0,0.0,0.0,0.0,0.0, ,0.0,0.0,0.0,0.0,0.0,0.0, ,0.7946250438690186
0.08958435507232612,0.07941449842505807,-0.1391489551595156, ,0.011096095290849496,0.02118444712140098,-0.0822266671063875, ,0.11309859714229169, ,2.588449643193841e-05,5.359639011884457e-06,1.9723317073772712e-05,-0.0007478540370277251,-0.0008831203869873451,0.0012214492897535004, ,3.298093573968635e-05, ,0.0011572325948621324, ,0.01399124890150627, ,0.0,0.0,0.0,0.0,0.0,0.0, ,0.0,0.0,0.0,0.0,0.0,0.0, ,0.8082461357116699
0.08958435507232612,0.07941449842505807,-0.1391489551595156, ,0.011115310510913627,0.021204226600132395,-0.08227400997471065, ,0.113051254261451, ,2.588449643193841e-05,5.359639011884457e-06,1.9723317073772712e-05,-0.0007478540370277251,-0.0008831203869873451,0.0012214492897535004, ,3.298093573968635e-05, ,0.0011572325948621324, ,0.014062933041536845, ,0.0,0.0,0.0,0.0,0.0,0.0, ,0.0,0.0,0.0,0.0,0.0,0.0, ,0.8194279670715332
0.08958435507232612,0.07941449842505807,-0.1391489551595156, ,0.011134656802989432,0.021223706970538256,-0.08232158490600323, ,0.11300386444092594, ,2.588449643193841e-05,5.359639011884457e-06,1.9723317073772712e-05,-0.0007478540370277251,-0.0008831203869873451,0.0012214492897535004, ,3.298093573968635e-05, ,0.0011572325948621324, ,0.014132414270157486, ,0.0,0.0,0.0,0.0,0.0,0.0, ,0.0,0.0,0.0,0.0,0.0,0.0, ,0.8307461738586426
0.08958435507232612,0.07941449842505807,-0.1391489551595156, ,0.011154133626569232,0.021242889879194884,-0.08236939049251585, ,0.1129564280624065, ,2.588449643193841e-05,5.359639011884457e-06,1.9723317073772712e-05,-0.0007478540370277251,-0.0008831203869873451,0.0012214492897535004, ,3.298093573968635e-05, ,0.0011572325948621324, ,0.01419978733819926, ,0.0,0.0,0.0,0.0,0.0,0.0, ,0.0,0.0,0.0,0.0,0.0,0.0, ,0.841742992401123
0.08958435507232612,0.07941449842505807,-0.1391489551595156, ,0.011173740442449837,0.021261776968845524,-0.08241742532969379, ,0.11290894551022419, ,2.588449643193841e-05,5.359639011884457e-06,1.9723317073772712e-05,-0.0007478540370277251,-0.0008831203869873451,0.0012214492897535004, ,3.298093573968635e-05, ,0.0011572325948621324, ,0.014298865373232895, ,0.0,0.0,0.0,0.0,0.0,0.0, ,0.0,0.0,0.0,0.0,0.0,0.0, ,0.8542051315307617
0.08958435507232612,0.07941449842505807,-0.1391489551595156, ,0.011193476712731623,0.021280369878403725,-0.08246568801617357, ,0.11286141717128645, ,2.588449643193841e-05,5.359639011884457e-06,1.9723317073772712e-05,-0.0007478540370277251,-0.0008831203869873451,0.0012214492897535004, ,3.298093573968635e-05, ,0.0011572325948621324, ,0.01439551745338505, ,0.0,0.0,0.0,0.0,0.0,0.0, ,0.0,0.0,0.0,0.0,0.0,0.0, ,0.8634941577911377
0.08958435507232612,0.07941449842505807,-0.1391489551595156, ,0.011213341900817053,0.021298670242956962,-0.08251417715378144, ,0.11281384343501084, ,2.588449643193841e-05,5.359639011884457e-06,1.9723317073772712e-05,-0.0007478540370277251,-0.0008831203869873451,0.0012214492897535004, ,3.298093573968635e-05, ,0.0011572325948621324, ,0.014489827513819428, ,0.0,0.0,0.0,0.0,0.0,0.0, ,0.0,0.0,0.0,0.0,0.0,0.0, ,0.8732571601867676
0.08958435507232612,0.07941449842505807,-0.1391489551595156, ,0.011233335471408756,0.021316679693770577,-0.08256289134752863, ,0.1127662246932615, ,2.588449643193841e-05,5.359639011884457e-06,1.9723317073772712e-05,-0.0007478540370277251,-0.0008831203869873451,0.0012214492897535004, ,3.298093573968635e-05, ,0.0011572325948621324, ,0.014581875657938526, ,0.0,0.0,0.0,0.0,0.0,0.0, ,0.0,0.0,0.0,0.0,0.0,0.0, ,0.8831629753112793
0.08958435507232612,0.07941449842505807,-0.1391489551595156, ,0.011253456890509248,0.021334399858291105,-0.08261182920560993, ,0.11271856134028381, ,2.588449643193841e-05,5.359639011884457e-06,1.9723317073772712e-05,-0.0007478540370277251,-0.0008831203869873451,0.0012214492897535004, ,3.298093573968635e-05, ,0.0011572325948621324, ,0.014671738373628347, ,0.0,0.0,0.0,0.0,0.0,0.0, ,0.0,0.0,0.0,0.0,0.0,0.0, ,0.8948462009429932
0.08958435507232612,0.07941449842505807,-0.1391489551595156, ,0.011273705625418226,0.021351832360150338,-0.08266098933940075, ,0.11267085377264144, ,2.588449643193841e-05,5.359639011884457e-06,1.9723317073772712e-05,-0.0007478540370277251,-0.0008831203869873451,0.0012214492897535004, ,3.298093573968635e-05, ,0.0011572325948621324, ,0.01475948873502232, ,0.0,0.0,0.0,0.0,0.0,0.0, ,0.0,0.0,0.0,0.0,0.0,0.0, ,0.9045050144195557
0.08958435507232612,0.07941449842505807,-0.1391489551595156, ,0.011294081144732366,0.021368978819168445,-0.08271037036345341, ,0.11262310238915321, ,2.588449643193841e-05,5.359639011884457e-06,1.9723317073772712e-05,-0.0007478540370277251,-0.0008831203869873451,0.0012214492897535004, ,3.298093573968635e-05, ,0.0011572325948621324, ,0.014845196590903206, ,0.0,0.0,0.0,0.0,0.0,0.0, ,0.0,0.0,0.0,0.0,0.0,0.0, ,0.9138100147247314
0.08958435507232612,0.07941449842505807,-0.1391489551595156, ,0.011314582918342878,0.02138584085135829,-0.08275997089549515, ,0.11257530759083051, ,2.588449643193841e-05,5.359639011884457e-06,1.9723317073772712e-05,-0.0007478540370277251,-0.0008831203869873451,0.0012214492897535004, ,3.298093573968635e-05, ,0.0011572325948621324, ,0.014928928740764156, ,0.0,0.0,0.0,0.0,0.0,0.0, ,0.0,0.0,0.0,0.0,0.0,0.0, ,0.9236941337585449
0.08958435507232612,0.07941449842505807,-0.1391489551595156, ,0.011335210417435187,0.021402420068928438,-0.08280978955642493, ,0.11252746978081507, ,2.588449643193841e-05,5.359639011884457e-06,1.9723317073772712e-05,-0.0007478540370277251,-0.0008831203869873451,0.0012214492897535004, ,3.298093573968635e-05, ,0.0011572325948621324, ,0.015010749099461767, ,0.0,0.0,0.0,0.0,0.0,0.0, ,0.0,0.0,0.0,0.0,0.0,0.0, ,0.9343490600585938
0.08958435507232612,0.07941449842505807,-0.1391489551595156, ,0.011355963114486462,0.021418718080287516,-0.08285982497031111, ,0.11247958936431747, ,2.588449643193841e-05,5.359639011884457e-06,1.9723317073772712e-05,-0.0007478540370277251,-0.0008831203869873451,0.0012214492897535004, ,3.298093573968635e-05, ,0.0011572325948621324, ,0.015090718851314352, ,0.0,0.0,0.0,0.0,0.0,0.0, ,0.0,0.0,0.0,0.0,0.0,0.0, ,0.944465160369873
0.08958435507232612,0.07941449842505807,-0.1391489551595156, ,0.011376840483265234,0.02143473649004715,-0.08291007576438768, ,0.11243166674855647, ,2.588449643193841e-05,5.359639011884457e-06,1.9723317073772712e-05,-0.0007478540370277251,-0.0008831203869873451,0.0012214492897535004, ,3.298093573968635e-05, ,0.0011572325948621324, ,0.01516889659442637, ,0.0,0.0,0.0,0.0,0.0,0.0, ,0.0,0.0,0.0,0.0,0.0,0.0, ,0.9542520046234131
0.08958435507232612,0.07941449842505807,-0.1391489551595156, ,0.011397841998829244,0.021450476899026148,-0.08296054056905207, ,0.11238370234269827, ,2.588449643193841e-05,5.359639011884457e-06,1.9723317073772712e-05,-0.0007478540370277251,-0.0008831203869873451,0.0012214492897535004, ,3.298093573968635e-05, ,0.0011572325948621324, ,0.015277299353262833, ,0.0,0.0,0.0,0.0,0.0,0.0, ,0.0,0.0,0.0,0.0,0.0,0.0, ,0.9621891975402832
0.08958435507232612,0.07941449842505807,-0.1391489551595156, ,0.011418967137524685,0.021465940904253897,-0.08301121801786229, ,0.11233569655779642, ,2.588449643193841e-05,5.359639011884457e-06,1.9723317073772712e-05,-0.0007478540370277251,-0.0008831203869873451,0.0012214492897535004, ,3.298093573968635e-05, ,0.0011572325948621324, ,0.015383799351484755, ,0.0,0.0,0.0,0.0,0.0,0.0, ,0.0,0.0,0.0,0.0,0.0,0.0, ,0.9703409671783447
0.08958435507232612,0.07941449842505807,-0.1391489551595156, ,0.011440215376984312,0.02148113009897426,-0.08306210674753393, ,0.11228764980673253, ,2.588449643193841e-05,5.359639011884457e-06,1.9723317073772712e-05,-0.0007478540370277251,-0.0008831203869873451,0.0012214492897535004, ,3.298093573968635e-05, ,0.0011572325948621324, ,0.015488443583238969, ,0.0,0.0,0.0,0.0,0.0,0.0, ,0.0,0.0,0.0,0.0,0.0,0.0, ,0.9789271354675293
0.08958435507232612,0.07941449842505807,-0.1391489551595156, ,0.01146158619612601,0.02149604607264904,-0.08311320539793725, ,0.11223956250415754, ,2.588449643193841e-05,5.359639011884457e-06,1.9723317073772712e-05,-0.0007478540370277251,-0.0008831203869873451,0.0012214492897535004, ,3.298093573968635e-05, ,0.0011572325948621324, ,0.015591277505879462, ,0.0,0.0,0.0,0.0,0.0,0.0, ,0.0,0.0,0.0,0.0,0.0,0.0, ,0.987339973449707
0.08958435507232612,0.07941449842505807,-0.1391489551595156, ,0.011483079075152038,0.021510690410961642,-0.0831645126120947, ,0.11219143506643264, ,2.588449643193841e-05,5.359639011884457e-06,1.9723317073772712e-05,-0.0007478540370277251,-0.0008831203869873451,0.0012214492897535004, ,3.298093573968635e-05, ,0.0011572325948621324, ,0.015692345102315396, ,0.0,0.0,0.0,0.0,0.0,0.0, ,0.0,0.0,0.0,0.0,0.0,0.0, ,0.9952371120452881
0.08958435507232612,0.07941449842505807,-0.1391489551595156, ,0.01150469349554712,0.021525064695820852,-0.0832160270361779, ,0.11214326791157171, ,2.588449643193841e-05,5.359639011884457e-06,1.9723317073772712e-05,-0.0007478540370277251,-0.0008831203869873451,0.0012214492897535004, ,3.298093573968635e-05, ,0.0011572325948621324, ,0.015791688940348214, ,0.0,0.0,0.0,0.0,0.0,0.0, ,0.0,0.0,0.0,0.0,0.0,0.0, ,1.0026280879974365
0.08958435507232612,0.07941449842505807,-0.1391489551595156, ,0.011526428940076997,0.021539170505364403,-0.0832677473195045, ,0.11209506145918408, ,2.588449643193841e-05,5.359639011884457e-06,1.9723317073772712e-05,-0.0007478540370277251,-0.0008831203869873451,0.0012214492897535004, ,3.298093573968635e-05, ,0.0011572325948621324, ,0.015889350229166162, ,0.0,0.0,0.0,0.0,0.0,0.0, ,0.0,0.0,0.0,0.0,0.0,0.0, ,1.0107550621032715
0.08958435507232612,0.07941449842505807,-0.1391489551595156, ,0.01154828489278747,0.021553009413962845,-0.08331967211453588, ,0.11204681613041682, ,2.588449643193841e-05,5.359639011884457e-06,1.9723317073772712e-05,-0.0007478540370277251,-0.0008831203869873451,0.0012214492897535004, ,3.298093573968635e-05, ,0.0011572325948621324, ,0.01598536887315379, ,0.0,0.0,0.0,0.0,0.0,0.0, ,0.0,0.0,0.0,0.0,0.0,0.0, ,1.0195670127868652
0.08958435507232612,0.07941449842505807,-0.1391489551595156, ,0.011570260839002582,0.02156658299222274,-0.08337180007687378, ,0.11199853234789924, ,2.588449643193841e-05,5.359639011884457e-06,1.9723317073772712e-05,-0.0007478540370277251,-0.0008831203869873451,0.0012214492897535004, ,3.298093573968635e-05, ,0.0011572325948621324, ,0.01607978352316417, ,0.0,0.0,0.0,0.0,0.0,0.0, ,0.0,0.0,0.0,0.0,0.0,0.0, ,1.0281682014465332
0.08958435507232612,0.07941449842505807,-0.1391489551595156, ,0.01159235626532351,0.021579892806990898,-0.08342412986525787, ,0.11195021053568596, ,2.588449643193841e-05,5.359639011884457e-06,1.9723317073772712e-05,-0.0007478540370277251,-0.0008831203869873451,0.0012214492897535004, ,3.298093573968635e-05, ,0.0011572325948621324, ,0.016172631625392293, ,0.0,0.0,0.0,0.0,0.0,0.0, ,0.0,0.0,0.0,0.0,0.0,0.0, ,1.0355260372161865
0.08958435507232612,0.07941449842505807,-0.1391489551595156, ,0.011614570659627262,0.021592940421357544,-0.08347666014156294, ,0.11190185111920178, ,2.588449643193841e-05,5.359639011884457e-06,1.9723317073772712e-05,-0.0007478540370277251,-0.0008831203869873451,0.0012214492897535004, ,3.298093573968635e-05, ,0.0011572325948621324, ,0.01629546874989428, ,0.0,0.0,0.0,0.0,0.0,0.0, ,0.0,0.0,0.0,0.0,0.0,0.0, ,1.0411369800567627
0.08958435507232612,0.07941449842505807,-0.1391489551595156, ,0.011636903511064696,0.021605727394660507,-0.08352938957079561, ,0.1118534545251869, ,2.588449643193841e-05,5.359639011884457e-06,1.9723317073772712e-05,-0.0007478540370277251,-0.0008831203869873451,0.0012214492897535004, ,3.298093573968635e-05, ,0.0011572325948621324, ,0.016416792542332633, ,0.0,0.0,0.0,0.0,0.0,0.0, ,0.0,0.0,0.0,0.0,0.0,0.0, ,1.0467250347137451
0.08958435507232612,0.07941449842505807,-0.1391489551595156, ,0.01165935431005977,0.021618255282488282,-0.08358231682109181, ,0.11180502118164214, ,2.588449643193841e-05,5.359639011884457e-06,1.9723317073772712e-05,-0.0007478540370277251,-0.0008831203869873451,0.0012214492897535004, ,3.298093573968635e-05, ,0.0011572325948621324, ,0.01653662902423808, ,0.0,0.0,0.0,0.0,0.0,0.0, ,0.0,0.0,0.0,0.0,0.0,0.0, ,1.052333116531372
0.08958435507232612,0.07941449842505807,-0.1391489551595156, ,0.011681922548308236,0.021630525636683953,-0.08363544056371425, ,0.11175655151777443, ,2.588449643193841e-05,5.359639011884457e-06,1.9723317073772712e-05,-0.0007478540370277251,-0.0008831203869873451,0.0012214492897535004, ,3.298093573968635e-05, ,0.0011572325948621324, ,0.016655003623181053, ,0.0,0.0,0.0,0.0,0.0,0.0, ,0.0,0.0,0.0,0.0,0.0,0.0, ,1.059946060180664
0.08958435507232612,0.07941449842505807,-0.1391489551595156, ,0.011704607718775312,0.021642540005349275,-0.08368875947304887, ,0.11170804596394412, ,2.588449643193841e-05,5.359639011884457e-06,1.9723317073772712e-05,-0.0007478540370277251,-0.0008831203869873451,0.0012214492897535004, ,3.298093573968635e-05, ,0.0011572325948621324, ,0.01677194118964772, ,0.0,0.0,0.0,0.0,0.0,0.0, ,0.0,0.0,0.0,0.0,0.0,0.0, ,1.0659151077270508
0.08958435507232612,0.07941449842505807,-0.1391489551595156, ,0.011727409315695454,0.021654299932847544,-0.08374227222660265, ,0.11165950495161099, ,2.588449643193841e-05,5.359639011884457e-06,1.9723317073772712e-05,-0.0007478540370277251,-0.0008831203869873451,0.0012214492897535004, ,3.298093573968635e-05, ,0.0011572325948621324, ,0.016887466013343892, ,0.0,0.0,0.0,0.0,0.0,0.0, ,0.0,0.0,0.0,0.0,0.0,0.0, ,1.0717220306396484
0.08958435507232612,0.07941449842505807,-0.1391489551595156, ,0.011750326834570194,0.021665806959807857,-0.08379597750500027, ,0.11161092891328217, ,2.588449643193841e-05,5.359639011884457e-06,1.9723317073772712e-05,-0.0007478540370277251,-0.0008831203869873451,0.0012214492897535004, ,3.298093573968635e-05, ,0.0011572325948621324, ,0.01700160183894923, ,0.0,0.0,0.0,0.0,0.0,0.0, ,0.0,0.0,0.0,0.0,0.0,0.0, ,1.0773530006408691
0.08958435507232612,0.07941449842505807,-0.1391489551595156, ,0.01177335977216719,0.021677062623128455,-0.0838498739919815, ,0.11156231828245962, ,2.588449643193841e-05,5.359639011884457e-06,1.9723317073772712e-05,-0.0007478540370277251,-0.0008831203869873451,0.0012214492897535004, ,3.298093573968635e-05, ,0.0011572325948621324, ,0.017114371881343297, ,0.0,0.0,0.0,0.0,0.0,0.0, ,0.0,0.0,0.0,0.0,0.0,0.0, ,1.0832669734954834
0.08958435507232612,0.07941449842505807,-0.1391489551595156, ,0.011796507626518439,0.021688068455980626,-0.08390396037439858, ,0.1115136734935885, ,2.588449643193841e-05,5.359639011884457e-06,1.9723317073772712e-05,-0.0007478540370277251,-0.0008831203869873451,0.0012214492897535004, ,3.298093573968635e-05, ,0.0011572325948621324, ,0.01722579884032396, ,0.0,0.0,0.0,0.0,0.0,0.0, ,0.0,0.0,0.0,0.0,0.0,0.0, ,1.0887889862060547
0.08958435507232612,0.07941449842505807,-0.1391489551595156, ,0.011819769896919196,0.021698825987812222,-0.08395823534221304, ,0.11146499498200578, ,2.588449643193841e-05,5.359639011884457e-06,1.9723317073772712e-05,-0.0007478540370277251,-0.0008831203869873451,0.0012214492897535004, ,3.298093573968635e-05, ,0.0011572325948621324, ,0.017335904914837833, ,0.0,0.0,0.0,0.0,0.0,0.0, ,0.0,0.0,0.0,0.0,0.0,0.0, ,1.094999074935913
0.08958435507232612,0.07941449842505807,-0.1391489551595156, ,0.011843146083926528,0.02170933674435132,-0.08401269758849339, ,0.1114162831838894, ,2.588449643193841e-05,5.359639011884457e-06,1.9723317073772712e-05,-0.0007478540370277251,-0.0008831203869873451,0.0012214492897535004, ,3.298093573968635e-05, ,0.0011572325948621324, ,0.01744471181674145, ,0.0,0.0,0.0,0.0,0.0,0.0, ,0.0,0.0,0.0,0.0,0.0,0.0, ,1.1006371974945068
0.08958435507232612,0.07941449842505807,-0.1391489551595156, ,0.011866635689357826,0.021719602247609854,-0.08406734580941103, ,0.1113675385362084, ,2.588449643193841e-05,5.359639011884457e-06,1.9723317073772712e-05,-0.0007478540370277251,-0.0008831203869873451,0.0012214492897535004, ,3.298093573968635e-05, ,0.0011572325948621324, ,0.017584270420578543, ,0.0,0.0,0.0,0.0,0.0,0.0, ,0.0,0.0,0.0,0.0,0.0,0.0, ,1.1063001155853271
0.08958435507232612,0.07941449842505807,-0.1391489551595156, ,0.011890238216289614,0.02172962401588737,-0.08412217870423896, ,0.11131876147667222, ,2.588449643193841e-05,5.359639011884457e-06,1.9723317073772712e-05,-0.0007478540370277251,-0.0008831203869873451,0.0012214492897535004, ,3.298093573968635e-05, ,0.0011572325948621324, ,0.017722725367188573, ,0.0,0.0,0.0,0.0,0.0,0.0, ,0.0,0.0,0.0,0.0,0.0,0.0, ,1.110300064086914
0.08958435507232612,0.07941449842505807,-0.1391489551595156, ,0.011913953169055802,0.021739403563774642,-0.08417719497534813, ,0.11126995244368176, ,2.588449643193841e-05,5.359639011884457e-06,1.9723317073772712e-05,-0.0007478540370277251,-0.0008831203869873451,0.0012214492897535004, ,3.298093573968635e-05, ,0.0011572325948621324, ,0.01786008859492282, ,0.0,0.0,0.0,0.0,0.0,0.0, ,0.0,0.0,0.0,0.0,0.0,0.0, ,1.1145191192626953
0.08958435507232612,0.07941449842505807,-0.1391489551595156, ,0.011937780053246637,0.021748942402157447,-0.08423239332820454, ,0.11122111187628021, ,2.588449643193841e-05,5.359639011884457e-06,1.9723317073772712e-05,-0.0007478540370277251,-0.0008831203869873451,0.0012214492897535004, ,3.298093573968635e-05, ,0.0011572325948621324, ,0.0179963718705301, ,0.0,0.0,0.0,0.0,0.0,0.0, ,0.0,0.0,0.0,0.0,0.0,0.0, ,1.1188311576843262
0.08958435507232612,0.07941449842505807,-0.1391489551595156, ,0.011961718375707225,0.021758242038219883,-0.08428777247136693, ,0.11117224021410439, ,2.588449643193841e-05,5.359639011884457e-06,1.9723317073772712e-05,-0.0007478540370277251,-0.0008831203869873451,0.0012214492897535004, ,3.298093573968635e-05, ,0.0011572325948621324, ,0.018131586792244206, ,0.0,0.0,0.0,0.0,0.0,0.0, ,0.0,0.0,0.0,0.0,0.0,0.0, ,1.1228690147399902
0.08958435507232612,0.07941449842505807,-0.1391489551595156, ,0.011985767644536172,0.021767303975448394,-0.0843433311164831, ,0.11112333789733682, ,2.588449643193841e-05,5.359639011884457e-06,1.9723317073772712e-05,-0.0007478540370277251,-0.0008831203869873451,0.0012214492897535004, ,3.298093573968635e-05, ,0.0011572325948621324, ,0.018265744792804867, ,0.0,0.0,0.0,0.0,0.0,0.0, ,0.0,0.0,0.0,0.0,0.0,0.0, ,1.1266191005706787
0.08958435507232612,0.07941449842505807,-0.1391489551595156, ,0.012009927369083873,0.021776129713635333,-0.08439906797828789, ,0.11107440536665789, ,2.588449643193841e-05,5.359639011884457e-06,1.9723317073772712e-05,-0.0007478540370277251,-0.0008831203869873451,0.0012214492897535004, ,3.298093573968635e-05, ,0.0011572325948621324, ,0.01839885714241388, ,0.0,0.0,0.0,0.0,0.0,0.0, ,0.0,0.0,0.0,0.0,0.0,0.0, ,1.1303961277008057
0.08958435507232612,0.07941449842505807,-0.1391489551595156, ,0.012034197059951564,0.02178472074888245,-0.08445498177460008, ,0.11102544306319853, ,2.588449643193841e-05,5.359639011884457e-06,1.9723317073772712e-05,-0.0007478540370277251,-0.0008831203869873451,0.0012214492897535004, ,3.298093573968635e-05, ,0.0011572325948621324, ,0.018530934951628063, ,0.0,0.0,0.0,0.0,0.0,0.0, ,0.0,0.0,0.0,0.0,0.0,0.0, ,1.1342110633850098
0.08958435507232612,0.07941449842505807,-0.1391489551595156, ,0.012058576228990077,0.02179307857360477,-0.0845110712263192, ,0.11097645142849337, ,2.588449643193841e-05,5.359639011884457e-06,1.9723317073772712e-05,-0.0007478540370277251,-0.0008831203869873451,0.0012214492897535004, ,3.298093573968635e-05, ,0.0011572325948621324, ,0.01866198917419054, ,0.0,0.0,0.0,0.0,0.0,0.0, ,0.0,0.0,0.0,0.0,0.0,0.0, ,1.1379070281982422
0.08958435507232612,0.07941449842505807,-0.1391489551595156, ,0.01208306438929752,0.02180120467653409,-0.08456733505742345, ,0.11092743090443463, ,2.588449643193841e-05,5.359639011884457e-06,1.9723317073772712e-05,-0.0007478540370277251,-0.0008831203869873451,0.0012214492897535004, ,3.298093573968635e-05, ,0.0011572325948621324, ,0.018792030609801943, ,0.0,0.0,0.0,0.0,0.0,0.0, ,0.0,0.0,0.0,0.0,0.0,0.0, ,1.1418771743774414
0.08958435507232612,0.07941449842505807,-0.1391489551595156, ,0.01210766105521875,0.02180910054272295,-0.08462377199496586, ,0.11087838193322593, ,2.588449643193841e-05,5.359639011884457e-06,1.9723317073772712e-05,-0.0007478540370277251,-0.0008831203869873451,0.0012214492897535004, ,3.298093573968635e-05, ,0.0011572325948621324, ,0.01892106990683297, ,0.0,0.0,0.0,0.0,0.0,0.0, ,0.0,0.0,0.0,0.0,0.0,0.0, ,1.1457021236419678
0.08958435507232612,0.07941449842505807,-0.1391489551595156, ,0.012132365742343804,0.021816767653547824,-0.08468038076907257, ,0.11082930495733653, ,2.588449643193841e-05,5.359639011884457e-06,1.9723317073772712e-05,-0.0007478540370277251,-0.0008831203869873451,0.0012214492897535004, ,3.298093573968635e-05, ,0.0011572325948621324, ,0.019049117564979758, ,0.0,0.0,0.0,0.0,0.0,0.0, ,0.0,0.0,0.0,0.0,0.0,0.0, ,1.149482011795044
0.08958435507232612,0.07941449842505807,-0.1391489551595156, ,0.012157177967506441,0.021824207486713022,-0.08473716011293876, ,0.11078020041945684, ,2.588449643193841e-05,5.359639011884457e-06,1.9723317073772712e-05,-0.0007478540370277251,-0.0008831203869873451,0.0012214492897535004, ,3.298093573968635e-05, ,0.0011572325948621324, ,0.019176183937863495, ,0.0,0.0,0.0,0.0,0.0,0.0, ,0.0,0.0,0.0,0.0,0.0,0.0, ,1.154745101928711
0.08958435507232612,0.07941449842505807,-0.1391489551595156, ,0.012182097248782772,0.02183142151625428,-0.08479410876282688, ,0.1107310687624531, ,2.588449643193841e-05,5.359639011884457e-06,1.9723317073772712e-05,-0.0007478540370277251,-0.0008831203869873451,0.0012214492897535004, ,3.298093573968635e-05, ,0.0011572325948621324, ,0.01930227923557556, ,0.0,0.0,0.0,0.0,0.0,0.0, ,0.0,0.0,0.0,0.0,0.0,0.0, ,1.1586401462554932
0.08958435507232612,0.07941449842505807,-0.1391489551595156, ,0.012207123105489557,0.02183841121254281,-0.08485122545806342, ,0.11068191042932336, ,2.588449643193841e-05,5.359639011884457e-06,1.9723317073772712e-05,-0.0007478540370277251,-0.0008831203869873451,0.0012214492897535004, ,3.298093573968635e-05, ,0.0011572325948621324, ,0.019427413527169608, ,0.0,0.0,0.0,0.0,0.0,0.0, ,0.0,0.0,0.0,0.0,0.0,0.0, ,1.1627061367034912
0.08958435507232612,0.07941449842505807,-0.1391489551595156, ,0.012232255058183452,0.02184517804228824,-0.08490850894103578, ,0.11063272586315376, ,2.588449643193841e-05,5.359639011884457e-06,1.9723317073772712e-05,-0.0007478540370277251,-0.0008831203869873451,0.0012214492897535004, ,3.298093573968635e-05, ,0.0011572325948621324, ,0.019585481659467673, ,0.0,0.0,0.0,0.0,0.0,0.0, ,0.0,0.0,0.0,0.0,0.0,0.0, ,1.1646511554718018
0.08958435507232612,0.07941449842505807,-0.1391489551595156, ,0.012257492628659218,0.02185172346854288,-0.08496595795718971, ,0.1105835155070748, ,2.588449643193841e-05,5.359639011884457e-06,1.9723317073772712e-05,-0.0007478540370277251,-0.0008831203869873451,0.0012214492897535004, ,3.298093573968635e-05, ,0.0011572325948621324, ,0.019742917704186718, ,0.0,0.0,0.0,0.0,0.0,0.0, ,0.0,0.0,0.0,0.0,0.0,0.0, ,1.1667561531066895
0.08958435507232612,0.07941449842505807,-0.1391489551595156, ,0.012282835339948084,0.02185804895070513,-0.08502357125502705, ,0.11053427980421839, ,2.588449643193841e-05,5.359639011884457e-06,1.9723317073772712e-05,-0.0007478540370277251,-0.0008831203869873451,0.0012214492897535004, ,3.298093573968635e-05, ,0.0011572325948621324, ,0.019899724892615097, ,0.0,0.0,0.0,0.0,0.0,0.0, ,0.0,0.0,0.0,0.0,0.0,0.0, ,1.1686711311340332
0.08958435507232612,0.07941449842505807,-0.1391489551595156, ,0.012308282716316975,0.021864155944523105,-0.08508134758610143, ,0.11048501919767559, ,2.588449643193841e-05,5.359639011884457e-06,1.9723317073772712e-05,-0.0007478540370277251,-0.0008831203869873451,0.0012214492897535004, ,3.298093573968635e-05, ,0.0011572325948621324, ,0.020055906434520373, ,0.0,0.0,0.0,0.0,0.0,0.0, ,0.0,0.0,0.0,0.0,0.0,0.0, ,1.1706180572509766
0.08958435507232612,0.07941449842505807,-0.1391489551595156, ,0.012333834283266579,0.02187004590209857,-0.08513928570501685, ,0.1104357341304538, ,2.588449643193841e-05,5.359639011884457e-06,1.9723317073772712e-05,-0.0007478540370277251,-0.0008831203869873451,0.0012214492897535004, ,3.298093573968635e-05, ,0.0011572325948621324, ,0.020211465518334373, ,0.0,0.0,0.0,0.0,0.0,0.0, ,0.0,0.0,0.0,0.0,0.0,0.0, ,1.1725611686706543
0.08958435507232612,0.07941449842505807,-0.1391489551595156, ,0.012359489567530515,0.02187572027188999,-0.08519738436942388, ,0.11038642504543547, ,2.588449643193841e-05,5.359639011884457e-06,1.9723317073772712e-05,-0.0007478540370277251,-0.0008831203869873451,0.0012214492897535004, ,3.298093573968635e-05, ,0.0011572325948621324, ,0.1118230933131859, ,0.0,0.0,0.0,0.0,0.0,0.0, ,0.0,0.0,0.0,0.0,0.0,0.0, ,1.1744849681854248
0.08958435507232612,0.07941449842505807,-0.1391489551595156, ,0.01238524809707307,0.02188118049871699,-0.08525564234001792, ,0.1103370923853363, ,2.588449643193841e-05,5.359639011884457e-06,1.9723317073772712e-05,-0.0007478540370277251,-0.0008831203869873451,0.0012214492897535004, ,3.298093573968635e-05, ,0.0011572325948621324, ,0.11180920545404711, ,0.0,0.0,0.0,0.0,0.0,0.0, ,0.0,0.0,0.0,0.0,0.0,0.0, ,1.1763792037963867
0.08958435507232612,0.07941449842505807,-0.1391489551595156, ,0.012411109401088954,0.021886428023763362,-0.08531405838053487, ,0.11028773659266454, ,2.588449643193841e-05,5.359639011884457e-06,1.9723317073772712e-05,-0.0007478540370277251,-0.0008831203869873451,0.0012214492897535004, ,3.298093573968635e-05, ,0.0011572325948621324, ,0.11179511777940468, ,0.0,0.0,0.0,0.0,0.0,0.0, ,0.0,0.0,0.0,0.0,0.0,0.0, ,1.1782851219177246
0.08958435507232612,0.07941449842505807,-0.1391489551595156, ,0.012437073010000781,0.021891464284581094,-0.08537263125774965, ,0.11023835810968027, ,2.588449643193841e-05,5.359639011884457e-06,1.9723317073772712e-05,-0.0007478540370277251,-0.0008831203869873451,0.0012214492897535004, ,3.298093573968635e-05, ,0.0011572325948621324, ,0.11178083558059987, ,0.0,0.0,0.0,0.0,0.0,0.0, ,0.0,0.0,0.0,0.0,0.0,0.0, ,1.1801481246948242
0.08958435507232612,0.07941449842505807,-0.1391489551595156, ,0.012463138455458593,0.021896290715093886,-0.08543135974147235, ,0.11018895737835516, ,2.588449643193841e-05,5.359639011884457e-06,1.9723317073772712e-05,-0.0007478540370277251,-0.0008831203869873451,0.0012214492897535004, ,3.298093573968635e-05, ,0.0011572325948621324, ,0.11176636396057946, ,0.0,0.0,0.0,0.0,0.0,0.0, ,0.0,0.0,0.0,0.0,0.0,0.0, ,1.182056188583374
0.08958435507232612,0.07941449842505807,-0.1391489551595156, ,0.01248930527033779,0.021900908745600824,-0.08549024260454634, ,0.11013953484033265, ,2.588449643193841e-05,5.359639011884457e-06,1.9723317073772712e-05,-0.0007478540370277251,-0.0008831203869873451,0.0012214492897535004, ,3.298093573968635e-05, ,0.0011572325948621324, ,0.11175170784237903, ,0.0,0.0,0.0,0.0,0.0,0.0, ,0.0,0.0,0.0,0.0,0.0,0.0, ,1.184000015258789
0.08958435507232612,0.07941449842505807,-0.1391489551595156, ,0.012515572988738101,0.021905319802779964,-0.08554927862284473, ,0.11009009093688868, ,2.588449643193841e-05,5.359639011884457e-06,1.9723317073772712e-05,-0.0007478540370277251,-0.0008831203869873451,0.0012214492897535004, ,3.298093573968635e-05, ,0.0011572325948621324, ,0.11173687197715143, ,0.0,0.0,0.0,0.0,0.0,0.0, ,0.0,0.0,0.0,0.0,0.0,0.0, ,1.1858901977539062
0.08958435507232612,0.07941449842505807,-0.1391489551595156, ,0.012541941145982206,0.021909525309692302,-0.08560846657526748, ,0.11004062610889243, ,2.588449643193841e-05,5.359639011884457e-06,1.9723317073772712e-05,-0.0007478540370277251,-0.0008831203869873451,0.0012214492897535004, ,3.298093573968635e-05, ,0.0011572325948621324, ,0.11172186095176861, ,0.0,0.0,0.0,0.0,0.0,0.0, ,0.0,0.0,0.0,0.0,0.0,0.0, ,1.1877551078796387
0.08958435507232612,0.07941449842505807,-0.1391489551595156, ,0.012568409278614192,0.021913526685784928,-0.08566780524373901, ,0.10999114079676797, ,2.588449643193841e-05,5.359639011884457e-06,1.9723317073772712e-05,-0.0007478540370277251,-0.0008831203869873451,0.0012214492897535004, ,3.298093573968635e-05, ,0.0011572325948621324, ,0.11170667919602298, ,0.0,0.0,0.0,0.0,0.0,0.0, ,0.0,0.0,0.0,0.0,0.0,0.0, ,1.1896021366119385
0.08958435507232612,0.07941449842505807,-0.1391489551595156, ,0.01259497692439827,0.02191732534689506,-0.08572729341320533, ,0.10994163544045567, ,2.588449643193841e-05,5.359639011884457e-06,1.9723317073772712e-05,-0.0007478540370277251,-0.0008831203869873451,0.0012214492897535004, ,3.298093573968635e-05, ,0.0011572325948621324, ,0.11169133098945283, ,0.0,0.0,0.0,0.0,0.0,0.0, ,0.0,0.0,0.0,0.0,0.0,0.0, ,1.1914951801300049
0.08958435507232612,0.07941449842505807,-0.1391489551595156, ,0.012621643622317264,0.021920922705253688,-0.08578692987163065, ,0.10989211047937464, ,2.588449643193841e-05,5.359639011884457e-06,1.9723317073772712e-05,-0.0007478540370277251,-0.0008831203869873451,0.0012214492897535004, ,3.298093573968635e-05, ,0.0011572325948621324, ,0.11167582046781423, ,0.0,0.0,0.0,0.0,0.0,0.0, ,0.0,0.0,0.0,0.0,0.0,0.0, ,1.1940500736236572
0.08958435507232612,0.07941449842505807,-0.1391489551595156, ,0.012648408912571244,0.021924320169489142,-0.08584671340999524, ,0.10984256635238501, ,2.588449643193841e-05,5.359639011884457e-06,1.9723317073772712e-05,-0.0007478540370277251,-0.0008831203869873451,0.0012214492897535004, ,3.298093573968635e-05, ,0.0011572325948621324, ,0.11166015162922081, ,0.0,0.0,0.0,0.0,0.0,0.0, ,0.0,0.0,0.0,0.0,0.0,0.0, ,1.1961250305175781
0.08958435507232612,0.07941449842505807,-0.1391489551595156, ,0.01267527233657634,0.02192751914463056,-0.08590664282229231, ,0.10979300349775094, ,2.588449643193841e-05,5.359639011884457e-06,1.9723317073772712e-05,-0.0007478540370277251,-0.0008831203869873451,0.0012214492897535004, ,3.298093573968635e-05, ,0.0011572325948621324, ,0.11164432833997108, ,0.0,0.0,0.0,0.0,0.0,0.0, ,0.0,0.0,0.0,0.0,0.0,0.0, ,1.1981971263885498
0.08958435507232612,0.07941449842505807,-0.1391489551595156, ,0.01270223343696315,0.021930521032111978,-0.08596671690552482, ,0.10974342235310382, ,2.588449643193841e-05,5.359639011884457e-06,1.9723317073772712e-05,-0.0007478540370277251,-0.0008831203869873451,0.0012214492897535004, ,3.298093573968635e-05, ,0.0011572325948621324, ,0.11162835434008143, ,0.0,0.0,0.0,0.0,0.0,0.0, ,0.0,0.0,0.0,0.0,0.0,0.0, ,1.2002651691436768
0.08958435507232612,0.07941449842505807,-0.1391489551595156, ,0.012729291757575341,0.021933327229775552,-0.08602693445970319, ,0.10969382335540606, ,2.588449643193841e-05,5.359639011884457e-06,1.9723317073772712e-05,-0.0007478540370277251,-0.0008831203869873451,0.0012214492897535004, ,3.298093573968635e-05, ,0.0011572325948621324, ,0.11161223324854247, ,0.0,0.0,0.0,0.0,0.0,0.0, ,0.0,0.0,0.0,0.0,0.0,0.0, ,1.2026941776275635
0.08958435507232612,0.07941449842505807,-0.1391489551595156, ,0.012756446843468515,0.021935939131875467,-0.08608729428784206, ,0.10964420694091488, ,2.588449643193841e-05,5.359639011884457e-06,1.9723317073772712e-05,-0.0007478540370277251,-0.0008831203869873451,0.0012214492897535004, ,3.298093573968635e-05, ,0.0011572325948621324, ,0.11159596856831415, ,0.0,0.0,0.0,0.0,0.0,0.0, ,0.0,0.0,0.0,0.0,0.0,0.0, ,1.2051410675048828
0.08958435507232612,0.07941449842505807,-0.1391489551595156, ,0.01278369824090808,0.02193835812908184,-0.08614779519595789, ,0.10959457354514691, ,2.588449643193841e-05,5.359639011884457e-06,1.9723317073772712e-05,-0.0007478540370277251,-0.0008831203869873451,0.0012214492897535004, ,3.298093573968635e-05, ,0.0011572325948621324, ,0.11157956369107506, ,0.0,0.0,0.0,0.0,0.0,0.0, ,0.0,0.0,0.0,0.0,0.0,0.0, ,1.2071170806884766
0.08958435507232612,0.07941449842505807,-0.1391489551595156, ,0.012811045497368917,0.021940585608483623,-0.08620843599306553, ,0.10954492360284289, ,2.588449643193841e-05,5.359639011884457e-06,1.9723317073772712e-05,-0.0007478540370277251,-0.0008831203869873451,0.0012214492897535004, ,3.298093573968635e-05, ,0.0011572325948621324, ,0.11156302190173985, ,0.0,0.0,0.0,0.0,0.0,0.0, ,0.0,0.0,0.0,0.0,0.0,0.0, ,1.2090799808502197
0.08958435507232612,0.07941449842505807,-0.1391489551595156, ,0.012838488161533556,0.021942622953592842,-0.08626921549117575, ,0.10949525754793259, ,2.588449643193841e-05,5.359639011884457e-06,1.9723317073772712e-05,-0.0007478540370277251,-0.0008831203869873451,0.0012214492897535004, ,3.298093573968635e-05, ,0.0011572325948621324, ,0.11154634638275754, ,0.0,0.0,0.0,0.0,0.0,0.0, ,0.0,0.0,0.0,0.0,0.0,0.0, ,1.2110440731048584
0.08958435507232612,0.07941449842505807,-0.1391489551595156, ,0.012866025783290267,0.021944471544348292,-0.08633013250529264, ,0.10944557581350056, ,2.588449643193841e-05,5.359639011884457e-06,1.9723317073772712e-05,-0.0007478540370277251,-0.0008831203869873451,0.0012214492897535004, ,3.298093573968635e-05, ,0.0011572325948621324, ,0.11152954021820348, ,0.0,0.0,0.0,0.0,0.0,0.0, ,0.0,0.0,0.0,0.0,0.0,0.0, ,1.21293306350708
0.08958435507232612,0.07941449842505807,-0.1391489551595156, ,0.012893657913732119,0.021946132757119045,-0.08639118585340995, ,0.10939587883175214, ,2.588449643193841e-05,5.359639011884457e-06,1.9723317073772712e-05,-0.0007478540370277251,-0.0008831203869873451,0.0012214492897535004, ,3.298093573968635e-05, ,0.0011572325948621324, ,0.11151260639767609, ,0.0,0.0,0.0,0.0,0.0,0.0, ,0.0,0.0,0.0,0.0,0.0,0.0, ,1.2148540019989014
0.08958435507232612,0.07941449842505807,-0.1391489551595156, ,0.012921384105155951,0.021947607964707842,-0.08645237435650935, ,0.10934616703397901, ,2.588449643193841e-05,5.359639011884457e-06,1.9723317073772712e-05,-0.0007478540370277251,-0.0008831203869873451,0.0012214492897535004, ,3.298093573968635e-05, ,0.0011572325948621324, ,0.11149554782000917, ,0.0,0.0,0.0,0.0,0.0,0.0, ,0.0,0.0,0.0,0.0,0.0,0.0, ,1.21675705909729
0.08958435507232612,0.07941449842505807,-0.1391489551595156, ,0.012949203911060253,0.02194889853635525,-0.08651369683855673, ,0.10929644085052644, ,2.588449643193841e-05,5.359639011884457e-06,1.9723317073772712e-05,-0.0007478540370277251,-0.0008831203869873451,0.0012214492897535004, ,3.298093573968635e-05, ,0.0011572325948621324, ,0.11147836729681009, ,0.0,0.0,0.0,0.0,0.0,0.0, ,0.0,0.0,0.0,0.0,0.0,0.0, ,1.2186520099639893
0.08958435507232612,0.07941449842505807,-0.1391489551595156, ,0.01297711688614409,0.021950005837743074,-0.08657515212649933, ,0.10924670071076013, ,2.588449643193841e-05,5.359639011884457e-06,1.9723317073772712e-05,-0.0007478540370277251,-0.0008831203869873451,0.0012214492897535004, ,3.298093573968635e-05, ,0.0011572325948621324, ,0.11146106755583295, ,0.0,0.0,0.0,0.0,0.0,0.0, ,0.0,0.0,0.0,0.0,0.0,0.0, ,1.220541000366211
0.08958435507232612,0.07941449842505807,-0.1391489551595156, ,0.013005122586306029,0.021950931230997922,-0.08663673905026378, ,0.10919694704303298, ,2.588449643193841e-05,5.359639011884457e-06,1.9723317073772712e-05,-0.0007478540370277251,-0.0008831203869873451,0.0012214492897535004, ,3.298093573968635e-05, ,0.0011572325948621324, ,0.11144365124419603, ,0.0,0.0,0.0,0.0,0.0,0.0, ,0.0,0.0,0.0,0.0,0.0,0.0, ,1.2224290370941162
0.08958435507232612,0.07941449842505807,-0.1391489551595156, ,0.01303322056864243,0.021951676074694764,-0.08669845644275236, ,0.10914718027465331, ,2.588449643193841e-05,5.359639011884457e-06,1.9723317073772712e-05,-0.0007478540370277251,-0.0008831203869873451,0.0012214492897535004, ,3.298093573968635e-05, ,0.0011572325948621324, ,0.11142612093145143, ,0.0,0.0,0.0,0.0,0.0,0.0, ,0.0,0.0,0.0,0.0,0.0,0.0, ,1.2243120670318604
0.08958435507232612,0.07941449842505807,-0.1391489551595156, ,0.013061410391445729,0.021952241723861014,-0.0867603031398405, ,0.1090974008318528, ,2.588449643193841e-05,5.359639011884457e-06,1.9723317073772712e-05,-0.0007478540370277251,-0.0008831203869873451,0.0012214492897535004, ,3.298093573968635e-05, ,0.0011572325948621324, ,0.11140847911251509, ,0.0,0.0,0.0,0.0,0.0,0.0, ,0.0,0.0,0.0,0.0,0.0,0.0, ,1.2262141704559326
0.08958435507232612,0.07941449842505807,-0.1391489551595156, ,0.013089691614203798,0.02195262952998015,-0.0868222779803742, ,0.10904760913975417, ,2.588449643193841e-05,5.359639011884457e-06,1.9723317073772712e-05,-0.0007478540370277251,-0.0008831203869873451,0.0012214492897535004, ,3.298093573968635e-05, ,0.0011572325948621324, ,0.11139072821046425, ,0.0,0.0,0.0,0.0,0.0,0.0, ,0.0,0.0,0.0,0.0,0.0,0.0, ,1.2281310558319092
0.08958435507232612,0.07941449842505807,-0.1391489551595156, ,0.013118063797597623,0.021952840840994838,-0.08688437980616633, ,0.10899780562234121, ,2.588449643193841e-05,5.359639011884457e-06,1.9723317073772712e-05,-0.0007478540370277251,-0.0008831203869873451,0.0012214492897535004, ,3.298093573968635e-05, ,0.0011572325948621324, ,0.1113728705792096, ,0.0,0.0,0.0,0.0,0.0,0.0, ,0.0,0.0,0.0,0.0,0.0,0.0, ,1.229990005493164
0.08958435507232612,0.07941449842505807,-0.1391489551595156, ,0.013146526503501052,0.02195287700131106,-0.08694660746199516, ,0.10894799070242614, ,2.588449643193841e-05,5.359639011884457e-06,1.9723317073772712e-05,-0.0007478540370277251,-0.0008831203869873451,0.0012214492897535004, ,3.298093573968635e-05, ,0.0011572325948621324, ,0.11135490850604823, ,0.0,0.0,0.0,0.0,0.0,0.0, ,0.0,0.0,0.0,0.0,0.0,0.0, ,1.2318711280822754
0.08958435507232612,0.07941449842505807,-0.1391489551595156, ,0.01317507929497864,0.02195273935180156,-0.08700895979560011, ,0.10889816480162026, ,2.588449643193841e-05,5.359639011884457e-06,1.9723317073772712e-05,-0.0007478540370277251,-0.0008831203869873451,0.0012214492897535004, ,3.298093573968635e-05, ,0.0011572325948621324, ,0.1113368442141039, ,0.0,0.0,0.0,0.0,0.0,0.0, ,0.0,0.0,0.0,0.0,0.0,0.0, ,1.2339551448822021
0.08958435507232612,0.07941449842505807,-0.1391489551595156, ,0.013203721736284032,0.02195242922980976,-0.08707143565767969, ,0.10884832834030346, ,2.588449643193841e-05,5.359639011884457e-06,1.9723317073772712e-05,-0.0007478540370277251,-0.0008831203869873451,0.0012214492897535004, ,3.298093573968635e-05, ,0.0011572325948621324, ,0.11131867986466011, ,0.0,0.0,0.0,0.0,0.0,0.0, ,0.0,0.0,0.0,0.0,0.0,0.0, ,1.2362191677093506
0.08958435507232612,0.07941449842505807,-0.1391489551595156, ,0.013232453392859235,0.02195194796915309,-0.08713403390188869, ,0.10879848173759381, ,2.588449643193841e-05,5.359639011884457e-06,1.9723317073772712e-05,-0.0007478540370277251,-0.0008831203869873451,0.0012214492897535004, ,3.298093573968635e-05, ,0.0011572325948621324, ,0.11130041755939152, ,0.0,0.0,0.0,0.0,0.0,0.0, ,0.0,0.0,0.0,0.0,0.0,0.0, ,1.2381041049957275
0.08958435507232612,0.07941449842505807,-0.1391489551595156, ,0.013261273831333093,0.021951296900126795,-0.0871967533848351, ,0.1087486254113182, ,2.588449643193841e-05,5.359639011884457e-06,1.9723317073772712e-05,-0.0007478540370277251,-0.0008831203869873451,0.0012214492897535004, ,3.298093573968635e-05, ,0.0011572325948621324, ,0.11128205934249889, ,0.0,0.0,0.0,0.0,0.0,0.0, ,0.0,0.0,0.0,0.0,0.0,0.0, ,1.240041971206665
0.08958435507232612,0.07941449842505807,-0.1391489551595156, ,0.013290182619519498,0.02195047734950765,-0.08725959296607717, ,0.10869875977798338, ,2.588449643193841e-05,5.359639011884457e-06,1.9723317073772712e-05,-0.0007478540370277251,-0.0008831203869873451,0.0012214492897535004, ,3.298093573968635e-05, ,0.0011572325948621324, ,0.11126360720275236, ,0.0,0.0,0.0,0.0,0.0,0.0, ,0.0,0.0,0.0,0.0,0.0,0.0, ,1.2421810626983643
0.08958435507232612,0.07941449842505807,-0.1391489551595156, ,0.01331917932641596,0.02194949064055766,-0.08732255150812088, ,0.10864888525274688, ,2.588449643193841e-05,5.359639011884457e-06,1.9723317073772712e-05,-0.0007478540370277251,-0.0008831203869873451,0.0012214492897535004, ,3.298093573968635e-05, ,0.0011572325948621324, ,0.11124506307544735, ,0.0,0.0,0.0,0.0,0.0,0.0, ,0.0,0.0,0.0,0.0,0.0,0.0, ,1.2464070320129395
0.08958435507232612,0.07941449842505807,-0.1391489551595156, ,0.013348263522203373,0.021948338093027327,-0.08738562787641675, ,0.10859900224938794, ,2.588449643193841e-05,5.359639011884457e-06,1.9723317073772712e-05,-0.0007478540370277251,-0.0008831203869873451,0.0012214492897535004, ,3.298093573968635e-05, ,0.0011572325948621324, ,0.11122642884427791, ,0.0,0.0,0.0,0.0,0.0,0.0, ,0.0,0.0,0.0,0.0,0.0,0.0, ,1.248730182647705
0.08958435507232612,0.07941449842505807,-0.1391489551595156, ,0.01337743477824277,0.021947021023159922,-0.08744882093935756, ,0.10854911118028007, ,2.588449643193841e-05,5.359639011884457e-06,1.9723317073772712e-05,-0.0007478540370277251,-0.0008831203869873451,0.0012214492897535004, ,3.298093573968635e-05, ,0.0011572325948621324, ,0.11120770634313107, ,0.0,0.0,0.0,0.0,0.0,0.0, ,0.0,0.0,0.0,0.0,0.0,0.0, ,1.2508959770202637
0.08958435507232612,0.07941449842505807,-0.1391489551595156, ,0.013406692667075584,0.021945540743694543,-0.08751212956827477, ,0.10849921245636254, ,2.588449643193841e-05,5.359639011884457e-06,1.9723317073772712e-05,-0.0007478540370277251,-0.0008831203869873451,0.0012214492897535004, ,3.298093573968635e-05, ,0.0011572325948621324, ,0.1111888973578063, ,0.0,0.0,0.0,0.0,0.0,0.0, ,0.0,0.0,0.0,0.0,0.0,0.0, ,1.2545721530914307
0.08958435507232612,0.07941449842505807,-0.1391489551595156, ,0.013436036762421154,0.021943898563870374,-0.0875755526374361, ,0.10844930648711311, ,2.588449643193841e-05,5.359639011884457e-06,1.9723317073772712e-05,-0.0007478540370277251,-0.0008831203869873451,0.0012214492897535004, ,3.298093573968635e-05, ,0.0011572325948621324, ,0.11117000362766359, ,0.0,0.0,0.0,0.0,0.0,0.0, ,0.0,0.0,0.0,0.0,0.0,0.0, ,1.2573540210723877
0.08958435507232612,0.07941449842505807,-0.1391489551595156, ,0.013465466639176239,0.02194209578942956,-0.08763908902404283, ,0.10839939368052039, ,2.588449643193841e-05,5.359639011884457e-06,1.9723317073772712e-05,-0.0007478540370277251,-0.0008831203869873451,0.0012214492897535004, ,3.298093573968635e-05, ,0.0011572325948621324, ,0.11115102684720371, ,0.0,0.0,0.0,0.0,0.0,0.0, ,0.0,0.0,0.0,0.0,0.0,0.0, ,1.259648084640503
0.08958435507232612,0.07941449842505807,-0.1391489551595156, ,0.01349498187341239,0.02194013372262185,-0.08770273760822674, ,0.10834947444305747, ,2.588449643193841e-05,5.359639011884457e-06,1.9723317073772712e-05,-0.0007478540370277251,-0.0008831203869873451,0.0012214492897535004, ,3.298093573968635e-05, ,0.0011572325948621324, ,0.11113196866758365, ,0.0,0.0,0.0,0.0,0.0,0.0, ,0.0,0.0,0.0,0.0,0.0,0.0, ,1.2615900039672852
0.08958435507232612,0.07941449842505807,-0.1391489551595156, ,0.013524582042376129,0.021938013662207156,-0.08776649727304703, ,0.10829954917965476, ,2.588449643193841e-05,5.359639011884457e-06,1.9723317073772712e-05,-0.0007478540370277251,-0.0008831203869873451,0.0012214492897535004, ,3.298093573968635e-05, ,0.0011572325948621324, ,0.11111283069807062, ,0.0,0.0,0.0,0.0,0.0,0.0, ,0.0,0.0,0.0,0.0,0.0,0.0, ,1.2634460926055908
0.08958435507232612,0.07941449842505807,-0.1391489551595156, ,0.013554266724486298,0.02193573690346036,-0.08783036690448819, ,0.10824961829367376, ,2.588449643193841e-05,5.359639011884457e-06,1.9723317073772712e-05,-0.0007478540370277251,-0.0008831203869873451,0.0012214492897535004, ,3.298093573968635e-05, ,0.0011572325948621324, ,0.11109361450743709, ,0.0,0.0,0.0,0.0,0.0,0.0, ,0.0,0.0,0.0,0.0,0.0,0.0, ,1.265364170074463
0.08958435507232612,0.07941449842505807,-0.1391489551595156, ,0.013584035499332922,0.021933304738173995,-0.08789434539145659, ,0.10819968218688163, ,2.588449643193841e-05,5.359639011884457e-06,1.9723317073772712e-05,-0.0007478540370277251,-0.0008831203869873451,0.0012214492897535004, ,3.298093573968635e-05, ,0.0011572325948621324, ,0.11107432162530005, ,0.0,0.0,0.0,0.0,0.0,0.0, ,0.0,0.0,0.0,0.0,0.0,0.0, ,1.2672550678253174
0.08958435507232612,0.07941449842505807,-0.1391489551595156, ,0.013613887947676475,0.021930718454662403,-0.08795843162577718, ,0.10814974125942495, ,2.588449643193841e-05,5.359639011884457e-06,1.9723317073772712e-05,-0.0007478540370277251,-0.0008831203869873451,0.0012214492897535004, ,3.298093573968635e-05, ,0.0011572325948621324, ,0.11105495354340685, ,0.0,0.0,0.0,0.0,0.0,0.0, ,0.0,0.0,0.0,0.0,0.0,0.0, ,1.2691841125488281
0.08958435507232612,0.07941449842505807,-0.1391489551595156, ,0.013643823651445997,0.02192797933776506,-0.08802262450219207, ,0.10809979590980441, ,2.588449643193841e-05,5.359639011884457e-06,1.9723317073772712e-05,-0.0007478540370277251,-0.0008831203869873451,0.0012214492897535004, ,3.298093573968635e-05, ,0.0011572325948621324, ,0.11103551171686998, ,0.0,0.0,0.0,0.0,0.0,0.0, ,0.0,0.0,0.0,0.0,0.0,0.0, ,1.2710461616516113
0.08958435507232612,0.07941449842505807,-0.1391489551595156, ,0.013673842193737067,0.02192508866885114,-0.08808692291835642, ,0.10804984653485018, ,2.588449643193841e-05,5.359639011884457e-06,1.9723317073772712e-05,-0.0007478540370277251,-0.0008831203869873451,0.0012214492897535004, ,3.298093573968635e-05, ,0.0011572325948621324, ,0.11101599756535352, ,0.0,0.0,0.0,0.0,0.0,0.0, ,0.0,0.0,0.0,0.0,0.0,0.0, ,1.2729341983795166
0.08958435507232612,0.07941449842505807,-0.1391489551595156, ,0.0137039431588119,0.02192204772582166,-0.088151325774836, ,0.10799989352969686, ,2.588449643193841e-05,5.359639011884457e-06,1.9723317073772712e-05,-0.0007478540370277251,-0.0008831203869873451,0.0012214492897535004, ,3.298093573968635e-05, ,0.0011572325948621324, ,0.1109964124742129, ,0.0,0.0,0.0,0.0,0.0,0.0, ,0.0,0.0,0.0,0.0,0.0,0.0, ,1.2758831977844238
0.08958435507232612,0.07941449842505807,-0.1391489551595156, ,0.01373412613209635,0.02191885778311468,-0.08821583197510459, ,0.10794993728775923, ,2.588449643193841e-05,5.359639011884457e-06,1.9723317073772712e-05,-0.0007478540370277251,-0.0008831203869873451,0.0012214492897535004, ,3.298093573968635e-05, ,0.0011572325948621324, ,0.11097675779559062, ,0.0,0.0,0.0,0.0,0.0,0.0, ,0.0,0.0,0.0,0.0,0.0,0.0, ,1.2778170108795166
0.08958435507232612,0.07941449842505807,-0.1391489551595156, ,0.013764390700179954,0.021915520111707623,-0.08828044042554097, ,0.10789997820070797, ,2.588449643193841e-05,5.359639011884457e-06,1.9723317073772712e-05,-0.0007478540370277251,-0.0008831203869873451,0.0012214492897535004, ,3.298093573968635e-05, ,0.0011572325948621324, ,0.11095703484946959, ,0.0,0.0,0.0,0.0,0.0,0.0, ,0.0,0.0,0.0,0.0,0.0,0.0, ,1.2796721458435059
0.08958435507232612,0.07941449842505807,-0.1391489551595156, ,0.013794736450813258,0.021912035979122082,-0.08834515003542581, ,0.10785001665844628, ,2.588449643193841e-05,5.359639011884457e-06,1.9723317073772712e-05,-0.0007478540370277251,-0.0008831203869873451,0.0012214492897535004, ,3.298093573968635e-05, ,0.0011572325948621324, ,0.110937244924686, ,0.0,0.0,0.0,0.0,0.0,0.0, ,0.0,0.0,0.0,0.0,0.0,0.0, ,1.2815611362457275
0.08958435507232612,0.07941449842505807,-0.1391489551595156, ,0.01382516297290787,0.02190840664942645,-0.08840995971693905, ,0.10780005304908588, ,2.588449643193841e-05,5.359639011884457e-06,1.9723317073772712e-05,-0.0007478540370277251,-0.0008831203869873451,0.0012214492897535004, ,3.298093573968635e-05, ,0.0011572325948621324, ,0.11091738927990372, ,0.0,0.0,0.0,0.0,0.0,0.0, ,0.0,0.0,0.0,0.0,0.0,0.0, ,1.2834692001342773
0.08958435507232612,0.07941449842505807,-0.1391489551595156, ,0.01385566985653327,0.021904633383240554,-0.08847486838515725, ,0.10775008775892439, ,2.588449643193841e-05,5.359639011884457e-06,1.9723317073772712e-05,-0.0007478540370277251,-0.0008831203869873451,0.0012214492897535004, ,3.298093573968635e-05, ,0.0011572325948621324, ,0.11089746914455163, ,0.0,0.0,0.0,0.0,0.0,0.0, ,0.0,0.0,0.0,0.0,0.0,0.0, ,1.2853460311889648
0.08958435507232612,0.07941449842505807,-0.1391489551595156, ,0.013886256692916954,0.021900717437738672,-0.08853987495805052, ,0.10770012117242198, ,2.588449643193841e-05,5.359639011884457e-06,1.9723317073772712e-05,-0.0007478540370277251,-0.0008831203869873451,0.0012214492897535004, ,3.298093573968635e-05, ,0.0011572325948621324, ,0.11087748571972582, ,0.0,0.0,0.0,0.0,0.0,0.0, ,0.0,0.0,0.0,0.0,0.0,0.0, ,1.2876451015472412
0.08958435507232612,0.07941449842505807,-0.1391489551595156, ,0.013916923074442302,0.021896660066653164,-0.08860497835647971, ,0.10765015367217921, ,2.588449643193841e-05,5.359639011884457e-06,1.9723317073772712e-05,-0.0007478540370277251,-0.0008831203869873451,0.0012214492897535004, ,3.298093573968635e-05, ,0.0011572325948621324, ,0.11085744017905783, ,0.0,0.0,0.0,0.0,0.0,0.0, ,0.0,0.0,0.0,0.0,0.0,0.0, ,1.2896661758422852
0.08958435507232612,0.07941449842505807,-0.1391489551595156, ,0.013947668594647647,0.021892462520278506,-0.08867017750419355, ,0.10760018563891431, ,2.588449643193841e-05,5.359639011884457e-06,1.9723317073772712e-05,-0.0007478540370277251,-0.0008831203869873451,0.0012214492897535004, ,3.298093573968635e-05, ,0.0011572325948621324, ,0.11083733366955077, ,0.0,0.0,0.0,0.0,0.0,0.0, ,0.0,0.0,0.0,0.0,0.0,0.0, ,1.291882038116455
0.08958435507232612,0.07941449842505807,-0.1391489551595156, ,0.013978492848223983,0.021888126045474743,-0.08873547132782586, ,0.10755021745144194, ,2.588449643193841e-05,5.359639011884457e-06,1.9723317073772712e-05,-0.0007478540370277251,-0.0008831203869873451,0.0012214492897535004, ,3.298093573968635e-05, ,0.0011572325948621324, ,0.11081716731238447, ,0.0,0.0,0.0,0.0,0.0,0.0, ,0.0,0.0,0.0,0.0,0.0,0.0, ,1.2941160202026367
0.08958435507232612,0.07941449842505807,-0.1391489551595156, ,0.014009395431014631,0.021883651885671162,-0.0888008587568929, ,0.10750024948665067, ,2.588449643193841e-05,5.359639011884457e-06,1.9723317073772712e-05,-0.0007478540370277251,-0.0008831203869873451,0.0012214492897535004, ,3.298093573968635e-05, ,0.0011572325948621324, ,0.11079694220369098, ,0.0,0.0,0.0,0.0,0.0,0.0, ,0.0,0.0,0.0,0.0,0.0,0.0, ,1.2967851161956787
0.08958435507232612,0.07941449842505807,-0.1391489551595156, ,0.014040375940013271,0.021879041280869937,-0.08886633872378982, ,0.10745028211948236, ,2.588449643193841e-05,5.359639011884457e-06,1.9723317073772712e-05,-0.0007478540370277251,-0.0008831203869873451,0.0012214492897535004, ,3.298093573968635e-05, ,0.0011572325948621324, ,0.11077665941530185, ,0.0,0.0,0.0,0.0,0.0,0.0, ,0.0,0.0,0.0,0.0,0.0,0.0, ,1.2987940311431885
0.08958435507232612,0.07941449842505807,-0.1391489551595156, ,0.014071433973362751,0.021874295467649834,-0.08893191016378912, ,0.10740031572291033, ,2.588449643193841e-05,5.359639011884457e-06,1.9723317073772712e-05,-0.0007478540370277251,-0.0008831203869873451,0.0012214492897535004, ,3.298093573968635e-05, ,0.0011572325948621324, ,0.11075631999546816, ,0.0,0.0,0.0,0.0,0.0,0.0, ,0.0,0.0,0.0,0.0,0.0,0.0, ,1.3006830215454102
0.08958435507232612,0.07941449842505807,-0.1391489551595156, ,0.014102569130353316,0.021869415679169737,-0.08899757201503601, ,0.10735035066791972, ,2.588449643193841e-05,5.359639011884457e-06,1.9723317073772712e-05,-0.0007478540370277251,-0.0008831203869873451,0.0012214492897535004, ,3.298093573968635e-05, ,0.0011572325948621324, ,0.11073592496955467, ,0.0,0.0,0.0,0.0,0.0,0.0, ,0.0,0.0,0.0,0.0,0.0,0.0, ,1.3025591373443604
0.08958435507232612,0.07941449842505807,-0.1391489551595156, ,0.01413378101142192,0.021864403145172535,-0.08906332321854742, ,0.1073003873234856, ,2.588449643193841e-05,5.359639011884457e-06,1.9723317073772712e-05,-0.0007478540370277251,-0.0008831203869873451,0.0012214492897535004, ,3.298093573968635e-05, ,0.0011572325948621324, ,0.11071547534070902, ,0.0,0.0,0.0,0.0,0.0,0.0, ,0.0,0.0,0.0,0.0,0.0,0.0, ,1.304419994354248
0.08958435507232612,0.07941449842505807,-0.1391489551595156, ,0.014165069218150158,0.02185925909198844,-0.08912916271820769, ,0.10725042605655401, ,2.588449643193841e-05,5.359639011884457e-06,1.9723317073772712e-05,-0.0007478540370277251,-0.0008831203869873451,0.0012214492897535004, ,3.298093573968635e-05, ,0.0011572325948621324, ,0.11069497209050691, ,0.0,0.0,0.0,0.0,0.0,0.0, ,0.0,0.0,0.0,0.0,0.0,0.0, ,1.3062820434570312
0.08958435507232612,0.07941449842505807,-0.1391489551595156, ,0.014196433353263278,0.021853984742539145,-0.08919508946076711, ,0.10720046723202095, ,2.588449643193841e-05,5.359639011884457e-06,1.9723317073772712e-05,-0.0007478540370277251,-0.0008831203869873451,0.0012214492897535004, ,3.298093573968635e-05, ,0.0011572325948621324, ,0.11067441617957464, ,0.0,0.0,0.0,0.0,0.0,0.0, ,0.0,0.0,0.0,0.0,0.0,0.0, ,1.3082220554351807
0.08958435507232612,0.07941449842505807,-0.1391489551595156, ,0.014227873020628699,0.021848581316340723,-0.08926110239583744, ,0.10715051121271399, ,2.588449643193841e-05,5.359639011884457e-06,1.9723317073772712e-05,-0.0007478540370277251,-0.0008831203869873451,0.0012214492897535004, ,3.298093573968635e-05, ,0.0011572325948621324, ,0.1106538085481895, ,0.0,0.0,0.0,0.0,0.0,0.0, ,0.0,0.0,0.0,0.0,0.0,0.0, ,1.310115098953247
0.08958435507232612,0.07941449842505807,-0.1391489551595156, ,0.01425938782525412,0.021843050029508385,-0.0893272004758905, ,0.10710055835937192, ,2.588449643193841e-05,5.359639011884457e-06,1.9723317073772712e-05,-0.0007478540370277251,-0.0008831203869873451,0.0012214492897535004, ,3.298093573968635e-05, ,0.0011572325948621324, ,0.11063315011685916, ,0.0,0.0,0.0,0.0,0.0,0.0, ,0.0,0.0,0.0,0.0,0.0,0.0, ,1.3120360374450684
0.08958435507232612,0.07941449842505807,-0.1391489551595156, ,0.014290977373287142,0.02183739209475902,-0.08939338265625467, ,0.10705060903062606, ,2.588449643193841e-05,5.359639011884457e-06,1.9723317073772712e-05,-0.0007478540370277251,-0.0008831203869873451,0.0012214492897535004, ,3.298093573968635e-05, ,0.0011572325948621324, ,0.11061244178688094, ,0.0,0.0,0.0,0.0,0.0,0.0, ,0.0,0.0,0.0,0.0,0.0,0.0, ,1.3139159679412842
0.08958435507232612,0.07941449842505807,-0.1391489551595156, ,0.014322641272012934,0.021831608721415395,-0.0894596478951121, ,0.10700066358298173, ,2.588449643193841e-05,5.359639011884457e-06,1.9723317073772712e-05,-0.0007478540370277251,-0.0008831203869873451,0.0012214492897535004, ,3.298093573968635e-05, ,0.0011572325948621324, ,0.11059168444088152, ,0.0,0.0,0.0,0.0,0.0,0.0, ,0.0,0.0,0.0,0.0,0.0,0.0, ,1.315803050994873
0.08958435507232612,0.07941449842505807,-0.1391489551595156, ,0.014354379129853463,0.0218257011154099,-0.08952599515349582, ,0.10695072237079932, ,2.588449643193841e-05,5.359639011884457e-06,1.9723317073772712e-05,-0.0007478540370277251,-0.0008831203869873451,0.0012214492897535004, ,3.298093573968635e-05, ,0.0011572325948621324, ,0.11057087894333821, ,0.0,0.0,0.0,0.0,0.0,0.0, ,0.0,0.0,0.0,0.0,0.0,0.0, ,1.3176920413970947
0.08958435507232612,0.07941449842505807,-0.1391489551595156, ,0.014386190556365782,0.021819670479287814,-0.08959242339528715, ,0.10690078574627643, ,2.588449643193841e-05,5.359639011884457e-06,1.9723317073772712e-05,-0.0007478540370277251,-0.0008831203869873451,0.0012214492897535004, ,3.298093573968635e-05, ,0.0011572325948621324, ,0.11055002614108217, ,0.0,0.0,0.0,0.0,0.0,0.0, ,0.0,0.0,0.0,0.0,0.0,0.0, ,1.319594144821167
0.08958435507232612,0.07941449842505807,-0.1391489551595156, ,0.014418075162240583,0.0218135180122115,-0.08965893158721289, ,0.10685085405942969, ,2.588449643193841e-05,5.359639011884457e-06,1.9723317073772712e-05,-0.0007478540370277251,-0.0008831203869873451,0.0012214492897535004, ,3.298093573968635e-05, ,0.0011572325948621324, ,0.11052912686378472, ,0.0,0.0,0.0,0.0,0.0,0.0, ,0.0,0.0,0.0,0.0,0.0,0.0, ,1.3214411735534668
0.08958435507232612,0.07941449842505807,-0.1391489551595156, ,0.014450032559300968,0.021807244909963504,-0.0897255186988419, ,0.10680092765807751, ,2.588449643193841e-05,5.359639011884457e-06,1.9723317073772712e-05,-0.0007478540370277251,-0.0008831203869873451,0.0012214492897535004, ,3.298093573968635e-05, ,0.0011572325948621324, ,0.11050818192442681, ,0.0,0.0,0.0,0.0,0.0,0.0, ,0.0,0.0,0.0,0.0,0.0,0.0, ,1.3233070373535156
0.08958435507232612,0.07941449842505807,-0.1391489551595156, ,0.01448206236050104,0.021800852364950725,-0.08979218370258306, ,0.10675100688782214, ,2.588449643193841e-05,5.359639011884457e-06,1.9723317073772712e-05,-0.0007478540370277251,-0.0008831203869873451,0.0012214492897535004, ,3.298093573968635e-05, ,0.0011572325948621324, ,0.11048719211975304, ,0.0,0.0,0.0,0.0,0.0,0.0, ,0.0,0.0,0.0,0.0,0.0,0.0, ,1.3251709938049316
0.08958435507232612,0.07941449842505807,-0.1391489551595156, ,0.014514164179924577,0.02179434156620752,-0.08985892557368155, ,0.1067010920920332, ,2.588449643193841e-05,5.359639011884457e-06,1.9723317073772712e-05,-0.0007478540370277251,-0.0008831203869873451,0.0012214492897535004, ,3.298093573968635e-05, ,0.0011572325948621324, ,0.11046615823071017, ,0.0,0.0,0.0,0.0,0.0,0.0, ,0.0,0.0,0.0,0.0,0.0,0.0, ,1.3274860382080078
0.08958435507232612,0.07941449842505807,-0.1391489551595156, ,0.014546337632783644,0.02178771369939972,-0.08992574329021687, ,0.10665118361183022, ,2.588449643193841e-05,5.359639011884457e-06,1.9723317073772712e-05,-0.0007478540370277251,-0.0008831203869873451,0.0012214492897535004, ,3.298093573968635e-05, ,0.0011572325948621324, ,0.11044508102287105, ,0.0,0.0,0.0,0.0,0.0,0.0, ,0.0,0.0,0.0,0.0,0.0,0.0, ,1.3305060863494873
0.08958435507232612,0.07941449842505807,-0.1391489551595156, ,0.014578582335416628,0.0217809699468283,-0.0899926358330995, ,0.10660128178606684, ,2.588449643193841e-05,5.359639011884457e-06,1.9723317073772712e-05,-0.0007478540370277251,-0.0008831203869873451,0.0012214492897535004, ,3.298093573968635e-05, ,0.0011572325948621324, ,0.11042396124684464, ,0.0,0.0,0.0,0.0,0.0,0.0, ,0.0,0.0,0.0,0.0,0.0,0.0, ,1.3325281143188477
0.08958435507232612,0.07941449842505807,-0.1391489551595156, ,0.01461089790528771,0.021774111487433176,-0.09005960218606834, ,0.10655138695131358, ,2.588449643193841e-05,5.359639011884457e-06,1.9723317073772712e-05,-0.0007478540370277251,-0.0008831203869873451,0.0012214492897535004, ,3.298093573968635e-05, ,0.0011572325948621324, ,0.11040279963867235, ,0.0,0.0,0.0,0.0,0.0,0.0, ,0.0,0.0,0.0,0.0,0.0,0.0, ,1.3345561027526855
0.08958435507232612,0.07941449842505807,-0.1391489551595156, ,0.014643283960985036,0.021767139496796137,-0.09012664133568722, ,0.10650149944184288, ,2.588449643193841e-05,5.359639011884457e-06,1.9723317073772712e-05,-0.0007478540370277251,-0.0008831203869873451,0.0012214492897535004, ,3.298093573968635e-05, ,0.0011572325948621324, ,0.11038159692021132, ,0.0,0.0,0.0,0.0,0.0,0.0, ,0.0,0.0,0.0,0.0,0.0,0.0, ,1.337104082107544
0.08958435507232612,0.07941449842505807,-0.1391489551595156, ,0.014675740122219406,0.021760055147145334,-0.09019375227134305, ,0.10645161958961238, ,2.588449643193841e-05,5.359639011884457e-06,1.9723317073772712e-05,-0.0007478540370277251,-0.0008831203869873451,0.0012214492897535004, ,3.298093573968635e-05, ,0.0011572325948621324, ,0.11036035379950539, ,0.0,0.0,0.0,0.0,0.0,0.0, ,0.0,0.0,0.0,0.0,0.0,0.0, ,1.3392400741577148
0.08958435507232612,0.07941449842505807,-0.1391489551595156, ,0.014708266009822694,0.021752859607358593,-0.09026093398524239, ,0.1064017477242501, ,2.588449643193841e-05,5.359639011884457e-06,1.9723317073772712e-05,-0.0007478540370277251,-0.0008831203869873451,0.0012214492897535004, ,3.298093573968635e-05, ,0.0011572325948621324, ,0.11033907097114379, ,0.0,0.0,0.0,0.0,0.0,0.0, ,0.0,0.0,0.0,0.0,0.0,0.0, ,1.341156005859375
0.08958435507232612,0.07941449842505807,-0.1391489551595156, ,0.014740861245746662,0.021745554042967068,-0.0903281854724083, ,0.10635188417303908, ,2.588449643193841e-05,5.359639011884457e-06,1.9723317073772712e-05,-0.0007478540370277251,-0.0008831203869873451,0.0012214492897535004, ,3.298093573968635e-05, ,0.0011572325948621324, ,0.11031774911660848, ,0.0,0.0,0.0,0.0,0.0,0.0, ,0.0,0.0,0.0,0.0,0.0,0.0, ,1.3430640697479248
0.08958435507232612,0.07941449842505807,-0.1391489551595156, ,0.01477352545306145,0.02173813961615888,-0.09039550573067841, ,0.10630202926090225, ,2.588449643193841e-05,5.359639011884457e-06,1.9723317073772712e-05,-0.0007478540370277251,-0.0008831203869873451,0.0012214492897535004, ,3.298093573968635e-05, ,0.0011572325948621324, ,0.11029638890461005, ,0.0,0.0,0.0,0.0,0.0,0.0, ,0.0,0.0,0.0,0.0,0.0,0.0, ,1.34495210647583
0.08958435507232612,0.07941449842505807,-0.1391489551595156, ,0.014806258255954545,0.021730617485782748,-0.09046289376070124, ,0.10625218331038781, ,2.588449643193841e-05,5.359639011884457e-06,1.9723317073772712e-05,-0.0007478540370277251,-0.0008831203869873451,0.0012214492897535004, ,3.298093573968635e-05, ,0.0011572325948621324, ,0.11027499099141311, ,0.0,0.0,0.0,0.0,0.0,0.0, ,0.0,0.0,0.0,0.0,0.0,0.0, ,1.3480210304260254
0.08958435507232612,0.07941449842505807,-0.1391489551595156, ,0.014839059279728783,0.021722988807351823,-0.09053034856593384, ,0.10620234664165493, ,2.588449643193841e-05,5.359639011884457e-06,1.9723317073772712e-05,-0.0007478540370277251,-0.0008831203869873451,0.0012214492897535004, ,3.298093573968635e-05, ,0.0011572325948621324, ,0.11025355602115122, ,0.0,0.0,0.0,0.0,0.0,0.0, ,0.0,0.0,0.0,0.0,0.0,0.0, ,1.3499372005462646
0.08958435507232612,0.07941449842505807,-0.1391489551595156, ,0.014871928150801132,0.021715254733047248,-0.09059786915263847, ,0.10615251957245973, ,2.588449643193841e-05,5.359639011884457e-06,1.9723317073772712e-05,-0.0007478540370277251,-0.0008831203869873451,0.0012214492897535004, ,3.298093573968635e-05, ,0.0011572325948621324, ,0.1102320846261319, ,0.0,0.0,0.0,0.0,0.0,0.0, ,0.0,0.0,0.0,0.0,0.0,0.0, ,1.3517940044403076
0.08958435507232612,0.07941449842505807,-0.1391489551595156, ,0.0149048644967018,0.0217074164117217,-0.09066545452988065, ,0.10610270241814064, ,2.588449643193841e-05,5.359639011884457e-06,1.9723317073772712e-05,-0.0007478540370277251,-0.0008831203869873451,0.0012214492897535004, ,3.298093573968635e-05, ,0.0011572325948621324, ,0.11021057742713196, ,0.0,0.0,0.0,0.0,0.0,0.0, ,0.0,0.0,0.0,0.0,0.0,0.0, ,1.3536641597747803
0.08958435507232612,0.07941449842505807,-0.1391489551595156, ,0.014937867946072428,0.021699474988903,-0.090733103709525, ,0.10605289549160572, ,2.588449643193841e-05,5.359639011884457e-06,1.9723317073772712e-05,-0.0007478540370277251,-0.0008831203869873451,0.0012214492897535004, ,3.298093573968635e-05, ,0.0011572325948621324, ,0.11018903503368363, ,0.0,0.0,0.0,0.0,0.0,0.0, ,0.0,0.0,0.0,0.0,0.0,0.0, ,1.3555841445922852
0.08958435507232612,0.07941449842505807,-0.1391489551595156, ,0.014970938128664363,0.021691431606798386,-0.09080081570623384, ,0.10600309910331851, ,2.588449643193841e-05,5.359639011884457e-06,1.9723317073772712e-05,-0.0007478540370277251,-0.0008831203869873451,0.0012214492897535004, ,3.298093573968635e-05, ,0.0011572325948621324, ,0.11016745804435185, ,0.0,0.0,0.0,0.0,0.0,0.0, ,0.0,0.0,0.0,0.0,0.0,0.0, ,1.3574659824371338
0.08958435507232612,0.07941449842505807,-0.1391489551595156, ,0.015004074675337957,0.021683287404297296,-0.09086858953746337, ,0.10595331356128523, ,2.588449643193841e-05,5.359639011884457e-06,1.9723317073772712e-05,-0.0007478540370277251,-0.0008831203869873451,0.0012214492897535004, ,3.298093573968635e-05, ,0.0011572325948621324, ,0.1101458470470028, ,0.0,0.0,0.0,0.0,0.0,0.0, ,0.0,0.0,0.0,0.0,0.0,0.0, ,1.3596880435943604
0.08958435507232612,0.07941449842505807,-0.1391489551595156, ,0.015037277218060814,0.021675043516975395,-0.0909364242234608, ,0.1059035391710421, ,2.588449643193841e-05,5.359639011884457e-06,1.9723317073772712e-05,-0.0007478540370277251,-0.0008831203869873451,0.0012214492897535004, ,3.298093573968635e-05, ,0.0011572325948621324, ,0.11012420261906422, ,0.0,0.0,0.0,0.0,0.0,0.0, ,0.0,0.0,0.0,0.0,0.0,0.0, ,1.3617169857025146
0.08958435507232612,0.07941449842505807,-0.1391489551595156, ,0.015070545389906407,0.021666701077098505,-0.09100431878726238, ,0.10585377623564197, ,2.588449643193841e-05,5.359639011884457e-06,1.9723317073772712e-05,-0.0007478540370277251,-0.0008831203869873451,0.0012214492897535004, ,3.298093573968635e-05, ,0.0011572325948621324, ,0.11010252532777781, ,0.0,0.0,0.0,0.0,0.0,0.0, ,0.0,0.0,0.0,0.0,0.0,0.0, ,1.3636770248413086
0.08958435507232612,0.07941449842505807,-0.1391489551595156, ,0.015103878825052588,0.021658261213625914,-0.09107227225468961, ,0.10580402505564279, ,2.588449643193841e-05,5.359639011884457e-06,1.9723317073772712e-05,-0.0007478540370277251,-0.0008831203869873451,0.0012214492897535004, ,3.298093573968635e-05, ,0.0011572325948621324, ,0.1100808157304438, ,0.0,0.0,0.0,0.0,0.0,0.0, ,0.0,0.0,0.0,0.0,0.0,0.0, ,1.366011142730713
0.08958435507232612,0.07941449842505807,-0.1391489551595156, ,0.0151372771587805,0.02164972505221404,-0.09114028365434694, ,0.1057542859290949, ,2.588449643193841e-05,5.359639011884457e-06,1.9723317073772712e-05,-0.0007478540370277251,-0.0008831203869873451,0.0012214492897535004, ,3.298093573968635e-05, ,0.0011572325948621324, ,0.11005907437465812, ,0.0,0.0,0.0,0.0,0.0,0.0, ,0.0,0.0,0.0,0.0,0.0,0.0, ,1.3680481910705566
0.08958435507232612,0.07941449842505807,-0.1391489551595156, ,0.015170740027473045,0.021641093715220293,-0.09120835201761872, ,0.10570455915152925, ,2.588449643193841e-05,5.359639011884457e-06,1.9723317073772712e-05,-0.0007478540370277251,-0.0008831203869873451,0.0012214492897535004, ,3.298093573968635e-05, ,0.0011572325948621324, ,0.11003730179854249, ,0.0,0.0,0.0,0.0,0.0,0.0, ,0.0,0.0,0.0,0.0,0.0,0.0, ,1.3700921535491943
0.08958435507232612,0.07941449842505807,-0.1391489551595156, ,0.015204267068613058,0.021632368321706733,-0.09127647637866661, ,0.10565484501594596, ,2.588449643193841e-05,5.359639011884457e-06,1.9723317073772712e-05,-0.0007478540370277251,-0.0008831203869873451,0.0012214492897535004, ,3.298093573968635e-05, ,0.0011572325948621324, ,0.11001549853096737, ,0.0,0.0,0.0,0.0,0.0,0.0, ,0.0,0.0,0.0,0.0,0.0,0.0, ,1.3725130558013916
0.08958435507232612,0.07941449842505807,-0.1391489551595156, ,0.01523785792078303,0.02162354998744311,-0.09134465577442574, ,0.10560514381280289, ,2.588449643193841e-05,5.359639011884457e-06,1.9723317073772712e-05,-0.0007478540370277251,-0.0008831203869873451,0.0012214492897535004, ,3.298093573968635e-05, ,0.0011572325948621324, ,0.10999366509176853, ,0.0,0.0,0.0,0.0,0.0,0.0, ,0.0,0.0,0.0,0.0,0.0,0.0, ,1.3775660991668701
0.08958435507232612,0.07941449842505807,-0.1391489551595156, ,0.015271512223661982,0.021614639824911852,-0.09141288924460422, ,0.10555545583000395, ,2.588449643193841e-05,5.359639011884457e-06,1.9723317073772712e-05,-0.0007478540370277251,-0.0008831203869873451,0.0012214492897535004, ,3.298093573968635e-05, ,0.0011572325948621324, ,0.10997180199195689, ,0.0,0.0,0.0,0.0,0.0,0.0, ,0.0,0.0,0.0,0.0,0.0,0.0, ,1.3800179958343506
0.08958435507232612,0.07941449842505807,-0.1391489551595156, ,0.01530522961802617,0.021605638943310006,-0.09148117583167728, ,0.10550578135288897, ,2.588449643193841e-05,5.359639011884457e-06,1.9723317073772712e-05,-0.0007478540370277251,-0.0008831203869873451,0.0012214492897535004, ,3.298093573968635e-05, ,0.0011572325948621324, ,0.10994990973392223, ,0.0,0.0,0.0,0.0,0.0,0.0, ,0.0,0.0,0.0,0.0,0.0,0.0, ,1.3820741176605225
0.08958435507232612,0.07941449842505807,-0.1391489551595156, ,0.015339009745745983,0.021596548448554322,-0.09154951458088628, ,0.10545612066422266, ,2.588449643193841e-05,5.359639011884457e-06,1.9723317073772712e-05,-0.0007478540370277251,-0.0008831203869873451,0.0012214492897535004, ,3.298093573968635e-05, ,0.0011572325948621324, ,0.10992798881163102, ,0.0,0.0,0.0,0.0,0.0,0.0, ,0.0,0.0,0.0,0.0,0.0,0.0, ,1.3841240406036377
0.08958435507232612,0.07941449842505807,-0.1391489551595156, ,0.015372852249784836,0.021587369443284515,-0.09161790454023601, ,0.10540647404418406, ,2.588449643193841e-05,5.359639011884457e-06,1.9723317073772712e-05,-0.0007478540370277251,-0.0008831203869873451,0.0012214492897535004, ,3.298093573968635e-05, ,0.0011572325948621324, ,0.10990603971081817, ,0.0,0.0,0.0,0.0,0.0,0.0, ,0.0,0.0,0.0,0.0,0.0,0.0, ,1.3863940238952637
0.08958435507232612,0.07941449842505807,-0.1391489551595156, ,0.015406756774198995,0.021578103026866198,-0.09168634476049092, ,0.10535684177035638, ,2.588449643193841e-05,5.359639011884457e-06,1.9723317073772712e-05,-0.0007478540370277251,-0.0008831203869873451,0.0012214492897535004, ,3.298093573968635e-05, ,0.0011572325948621324, ,0.10988406290917341, ,0.0,0.0,0.0,0.0,0.0,0.0, ,0.0,0.0,0.0,0.0,0.0,0.0, ,1.3884780406951904
0.08958435507232612,0.07941449842505807,-0.1391489551595156, ,0.015440722964134701,0.021568750295395428,-0.09175483429517256, ,0.1053072241177174, ,2.588449643193841e-05,5.359639011884457e-06,1.9723317073772712e-05,-0.0007478540370277251,-0.0008831203869873451,0.0012214492897535004, ,3.298093573968635e-05, ,0.0011572325948621324, ,0.10986205887652217, ,0.0,0.0,0.0,0.0,0.0,0.0, ,0.0,0.0,0.0,0.0,0.0,0.0, ,1.3903050422668457
0.08958435507232612,0.07941449842505807,-0.1391489551595156, ,0.015474750465827494,0.02155931234170218,-0.09182337220055706, ,0.10525762135862926, ,2.588449643193841e-05,5.359639011884457e-06,1.9723317073772712e-05,-0.0007478540370277251,-0.0008831203869873451,0.0012214492897535004, ,3.298093573968635e-05, ,0.0011572325948621324, ,0.10984002807500115, ,0.0,0.0,0.0,0.0,0.0,0.0, ,0.0,0.0,0.0,0.0,0.0,0.0, ,1.3921840190887451
0.08958435507232612,0.07941449842505807,-0.1391489551595156, ,0.01550883892660062,0.02154979025535378,-0.09189195753567235, ,0.1052080337628292, ,2.588449643193841e-05,5.359639011884457e-06,1.9723317073772712e-05,-0.0007478540370277251,-0.0008831203869873451,0.0012214492897535004, ,3.298093573968635e-05, ,0.0011572325948621324, ,0.1098179709592289, ,0.0,0.0,0.0,0.0,0.0,0.0, ,0.0,0.0,0.0,0.0,0.0,0.0, ,1.3941571712493896
0.08958435507232612,0.07941449842505807,-0.1391489551595156, ,0.015542987994863856,0.02154018512265844,-0.09196058936229437, ,0.1051584615974206, ,2.588449643193841e-05,5.359639011884457e-06,1.9723317073772712e-05,-0.0007478540370277251,-0.0008831203869873451,0.0012214492897535004, ,3.298093573968635e-05, ,0.0011572325948621324, ,0.10979588797647151, ,0.0,0.0,0.0,0.0,0.0,0.0, ,0.0,0.0,0.0,0.0,0.0,0.0, ,1.3967909812927246
0.08958435507232612,0.07941449842505807,-0.1391489551595156, ,0.015577197320112049,0.021530498026669412,-0.09202926674494571, ,0.10510890512686312, ,2.588449643193841e-05,5.359639011884457e-06,1.9723317073772712e-05,-0.0007478540370277251,-0.0008831203869873451,0.0012214492897535004, ,3.298093573968635e-05, ,0.0011572325948621324, ,0.10977377956680354, ,0.0,0.0,0.0,0.0,0.0,0.0, ,0.0,0.0,0.0,0.0,0.0,0.0, ,1.3987271785736084
0.08958435507232612,0.07941449842505807,-0.1391489551595156, ,0.015611466552923373,0.021520730047188182,-0.0920979887508912, ,0.10505936461296507, ,2.588449643193841e-05,5.359639011884457e-06,1.9723317073772712e-05,-0.0007478540370277251,-0.0008831203869873451,0.0012214492897535004, ,3.298093573968635e-05, ,0.0011572325948621324, ,0.1097516461632644, ,0.0,0.0,0.0,0.0,0.0,0.0, ,0.0,0.0,0.0,0.0,0.0,0.0, ,1.4006240367889404
0.08958435507232612,0.07941449842505807,-0.1391489551595156, ,0.015645795344958312,0.021510882260768537,-0.09216675445013674, ,0.10500984031487368, ,2.588449643193841e-05,5.359639011884457e-06,1.9723317073772712e-05,-0.0007478540370277251,-0.0008831203869873451,0.0012214492897535004, ,3.298093573968635e-05, ,0.0011572325948621324, ,0.10972948819201024, ,0.0,0.0,0.0,0.0,0.0,0.0, ,0.0,0.0,0.0,0.0,0.0,0.0, ,1.4025321006774902
0.08958435507232612,0.07941449842505807,-0.1391489551595156, ,0.01568018334895829,0.02150095574071972,-0.09223556291542467, ,0.10496033248906776, ,2.588449643193841e-05,5.359639011884457e-06,1.9723317073772712e-05,-0.0007478540370277251,-0.0008831203869873451,0.0012214492897535004, ,3.298093573968635e-05, ,0.0011572325948621324, ,0.10970730607246167, ,0.0,0.0,0.0,0.0,0.0,0.0, ,0.0,0.0,0.0,0.0,0.0,0.0, ,1.4044461250305176
0.08958435507232612,0.07941449842505807,-0.1391489551595156, ,0.015714630218744228,0.021490951557110286,-0.0923044132222325, ,0.10491084138934886, ,2.588449643193841e-05,5.359639011884457e-06,1.9723317073772712e-05,-0.0007478540370277251,-0.0008831203869873451,0.0012214492897535004, ,3.298093573968635e-05, ,0.0011572325948621324, ,0.10968510021744725, ,0.0,0.0,0.0,0.0,0.0,0.0, ,0.0,0.0,0.0,0.0,0.0,0.0, ,1.406339168548584
0.08958435507232612,0.07941449842505807,-0.1391489551595156, ,0.015749135609214676,0.021480870776772302,-0.09237330444876893, ,0.10486136726683393, ,2.588449643193841e-05,5.359639011884457e-06,1.9723317073772712e-05,-0.0007478540370277251,-0.0008831203869873451,0.0012214492897535004, ,3.298093573968635e-05, ,0.0011572325948621324, ,0.10966287103334305, ,0.0,0.0,0.0,0.0,0.0,0.0, ,0.0,0.0,0.0,0.0,0.0,0.0, ,1.4084019660949707
0.08958435507232612,0.07941449842505807,-0.1391489551595156, ,0.015783699176345138,0.02147071446330407,-0.09244223567597176, ,0.10481191036994729, ,2.588449643193841e-05,5.359639011884457e-06,1.9723317073772712e-05,-0.0007478540370277251,-0.0008831203869873451,0.0012214492897535004, ,3.298093573968635e-05, ,0.0011572325948621324, ,0.10964061892020821, ,0.0,0.0,0.0,0.0,0.0,0.0, ,0.0,0.0,0.0,0.0,0.0,0.0, ,1.4103031158447266
0.08958435507232612,0.07941449842505807,-0.1391489551595156, ,0.015818320577186355,0.021460483677074413,-0.09251120598750456, ,0.10476247094441346, ,2.588449643193841e-05,5.359639011884457e-06,1.9723317073772712e-05,-0.0007478540370277251,-0.0008831203869873451,0.0012214492897535004, ,3.298093573968635e-05, ,0.0011572325948621324, ,0.10961834427191691, ,0.0,0.0,0.0,0.0,0.0,0.0, ,0.0,0.0,0.0,0.0,0.0,0.0, ,1.4122600555419922
0.08958435507232612,0.07941449842505807,-0.1391489551595156, ,0.01585299946986278,0.021450179475226202,-0.09258021446975442, ,0.10471304923324962, ,2.588449643193841e-05,5.359639011884457e-06,1.9723317073772712e-05,-0.0007478540370277251,-0.0008831203869873451,0.0012214492897535004, ,3.298093573968635e-05, ,0.0011572325948621324, ,0.10959604747628661, ,0.0,0.0,0.0,0.0,0.0,0.0, ,0.0,0.0,0.0,0.0,0.0,0.0, ,1.4152979850769043
0.08958435507232612,0.07941449842505807,-0.1391489551595156, ,0.015887735513571394,0.02143980291167989,-0.09264926021182815, ,0.10466364547675919, ,2.588449643193841e-05,5.359639011884457e-06,1.9723317073772712e-05,-0.0007478540370277251,-0.0008831203869873451,0.0012214492897535004, ,3.298093573968635e-05, ,0.0011572325948621324, ,0.10957372891520277, ,0.0,0.0,0.0,0.0,0.0,0.0, ,0.0,0.0,0.0,0.0,0.0,0.0, ,1.4173691272735596
0.08958435507232612,0.07941449842505807,-0.1391489551595156, ,0.01592252836858017,0.021429355037137277,-0.09271834230555055, ,0.10461425991252445, ,2.588449643193841e-05,5.359639011884457e-06,1.9723317073772712e-05,-0.0007478540370277251,-0.0008831203869873451,0.0012214492897535004, ,3.298093573968635e-05, ,0.0011572325948621324, ,0.10955138896474025, ,0.0,0.0,0.0,0.0,0.0,0.0, ,0.0,0.0,0.0,0.0,0.0,0.0, ,1.4194331169128418
0.08958435507232612,0.07941449842505807,-0.1391489551595156, ,0.01595737769622699,0.021418836899085116,-0.0927874598454605, ,0.10456489277540043, ,2.588449643193841e-05,5.359639011884457e-06,1.9723317073772712e-05,-0.0007478540370277251,-0.0008831203869873451,0.0012214492897535004, ,3.298093573968635e-05, ,0.0011572325948621324, ,0.10952902799528133, ,0.0,0.0,0.0,0.0,0.0,0.0, ,0.0,0.0,0.0,0.0,0.0,0.0, ,1.421497106552124
0.08958435507232612,0.07941449842505807,-0.1391489551595156, ,0.01599228315891759,0.021408249541798905,-0.09285661192880915, ,0.10451554429750837, ,2.588449643193841e-05,5.359639011884457e-06,1.9723317073772712e-05,-0.0007478540370277251,-0.0008831203869873451,0.0012214492897535004, ,3.298093573968635e-05, ,0.0011572325948621324, ,0.10950664637163056, ,0.0,0.0,0.0,0.0,0.0,0.0, ,0.0,0.0,0.0,0.0,0.0,0.0, ,1.423525094985962
0.08958435507232612,0.07941449842505807,-0.1391489551595156, ,0.016027244420124837,0.021397594006346356,-0.09292579765555652, ,0.10446621470822959, ,2.588449643193841e-05,5.359639011884457e-06,1.9723317073772712e-05,-0.0007478540370277251,-0.0008831203869873451,0.0012214492897535004, ,3.298093573968635e-05, ,0.0011572325948621324, ,0.10948424445312654, ,0.0,0.0,0.0,0.0,0.0,0.0, ,0.0,0.0,0.0,0.0,0.0,0.0, ,1.4254791736602783
0.08958435507232612,0.07941449842505807,-0.1391489551595156, ,0.016062261144387364,0.021386871330590838,-0.09299501612836802, ,0.10441690423419996, ,2.588449643193841e-05,5.359639011884457e-06,1.9723317073772712e-05,-0.0007478540370277251,-0.0008831203869873451,0.0012214492897535004, ,3.298093573968635e-05, ,0.0011572325948621324, ,0.10946182259375077, ,0.0,0.0,0.0,0.0,0.0,0.0, ,0.0,0.0,0.0,0.0,0.0,0.0, ,1.4274630546569824
0.08958435507232612,0.07941449842505807,-0.1391489551595156, ,0.016097332997307274,0.0213760825491959,-0.09306426645261313, ,0.10436761309930366, ,2.588449643193841e-05,5.359639011884457e-06,1.9723317073772712e-05,-0.0007478540370277251,-0.0008831203869873451,0.0012214492897535004, ,3.298093573968635e-05, ,0.0011572325948621324, ,0.10943938114223338, ,0.0,0.0,0.0,0.0,0.0,0.0, ,0.0,0.0,0.0,0.0,0.0,0.0, ,1.4293251037597656
0.08958435507232612,0.07941449842505807,-0.1391489551595156, ,0.016132459645549897,0.02136522869362788,-0.09313354773636152, ,0.104318341524668, ,2.588449643193841e-05,5.359639011884457e-06,1.9723317073772712e-05,-0.0007478540370277251,-0.0008831203869873451,0.0012214492897535004, ,3.298093573968635e-05, ,0.0011572325948621324, ,0.10941692044215633, ,0.0,0.0,0.0,0.0,0.0,0.0, ,0.0,0.0,0.0,0.0,0.0,0.0, ,1.4311540126800537
0.08958435507232612,0.07941449842505807,-0.1391489551595156, ,0.016167640756841514,0.021354310792160255,-0.09320285909038029, ,0.10426908972865831, ,2.588449643193841e-05,5.359639011884457e-06,1.9723317073772712e-05,-0.0007478540370277251,-0.0008831203869873451,0.0012214492897535004, ,3.298093573968635e-05, ,0.0011572325948621324, ,0.10939444083205371, ,0.0,0.0,0.0,0.0,0.0,0.0, ,0.0,0.0,0.0,0.0,0.0,0.0, ,1.4331049919128418
0.08958435507232612,0.07941449842505807,-0.1391489551595156, ,0.016202875999968433,0.021343329869877036,-0.09327219962813131, ,0.10421985792687263, ,2.588449643193841e-05,5.359639011884457e-06,1.9723317073772712e-05,-0.0007478540370277251,-0.0008831203869873451,0.0012214492897535004, ,3.298093573968635e-05, ,0.0011572325948621324, ,0.10937194264550944, ,0.0,0.0,0.0,0.0,0.0,0.0, ,0.0,0.0,0.0,0.0,0.0,0.0, ,1.4349780082702637
0.08958435507232612,0.07941449842505807,-0.1391489551595156, ,0.016238165044775585,0.021332286948676376,-0.09334156846576817, ,0.1041706463321371, ,2.588449643193841e-05,5.359639011884457e-06,1.9723317073772712e-05,-0.0007478540370277251,-0.0008831203869873451,0.0012214492897535004, ,3.298093573968635e-05, ,0.0011572325948621324, ,0.10934942621125242, ,0.0,0.0,0.0,0.0,0.0,0.0, ,0.0,0.0,0.0,0.0,0.0,0.0, ,1.4369699954986572
0.08958435507232612,0.07941449842505807,-0.1391489551595156, ,0.016273507562165026,0.021321183047274345,-0.09341096472213375, ,0.10412145515450104, ,2.588449643193841e-05,5.359639011884457e-06,1.9723317073772712e-05,-0.0007478540370277251,-0.0008831203869873451,0.0012214492897535004, ,3.298093573968635e-05, ,0.0011572325948621324, ,0.10932689185324918, ,0.0,0.0,0.0,0.0,0.0,0.0, ,0.0,0.0,0.0,0.0,0.0,0.0, ,1.4392671585083008
0.08958435507232612,0.07941449842505807,-0.1391489551595156, ,0.016308903224094264,0.021310019181208565,-0.0934803875187571, ,0.10407228460123291, ,2.588449643193841e-05,5.359639011884457e-06,1.9723317073772712e-05,-0.0007478540370277251,-0.0008831203869873451,0.0012214492897535004, ,3.298093573968635e-05, ,0.0011572325948621324, ,0.10930433989079417, ,0.0,0.0,0.0,0.0,0.0,0.0, ,0.0,0.0,0.0,0.0,0.0,0.0, ,1.441162109375
