NicholasDascanio/dvrk_moveit_final/test/execution/third_experiment_notsharpbends/thirdexp_600vel4.0/thirdexp_600vel4.0_19.csv
Current Position (x),Current Position (y),Current Position (z), ,Planned Position (x),Planned Position (y),Planned Position (z), ,Position Error,,Cartesian linear Velocity(x),Cartesian linear Velocity(y),Cartesian linear Velocity(z),Cartesian Angular Velocity(x),Cartesian Angular Velocity(y),Cartesian Angular Velocity(z), ,Total Linear Velocity, ,Total Angular Velocity, ,MSE, ,Joint 1 Position,Joint 2 Position,Joint 3 Position,Joint 4 Position,Joint 5 Position,Joint 6 Position, ,Joint 1 Velocity,Joint 2 Velocity,Joint 3 Velocity,Joint 4 Velocity,Joint 5 Velocity,Joint 6 Velocity, ,Time Stamp
0.010129412592802419,0.01971429205658282,-0.08018399614423077, ,0.01027605280267374,0.019665329109159517,-0.0802465894337119, ,0.00016678921205986704, ,-1.3780320864535776e-05,7.728616932069281e-06,1.5927374563275712e-07,0.013859148395948484,-0.0001521694084999295,-0.005967370705953012, ,1.580044717526298e-05, ,0.013859983758641446, ,1.389910100498892e-05, ,0.19007962423328786,-0.22843071568668677,0.09121733472000002,1.7490238186044176,0.6199197994358033,-1.2656870635588766, ,-0.00015856275423697635,-0.00014363147894473394,0.0,-0.0007608661479092211,0.0,-0.015403105619219537, ,0.018696069717407227
0.010139966966382617,0.01971587822302668,-0.0801924243395053, ,0.01029023003657205,0.01970517607689189,-0.08028188362868005, ,0.00017520413983207483, ,0.0012820746399279722,0.0001931327827493343,-0.00126555702563167,0.09542839285794393,-0.13039426939936163,-0.09198502536179931, ,0.0018118085547994911, ,0.16158355007747582, ,1.554515235872463e-05, ,0.19007962423328786,-0.22846160661818368,0.0912199273,1.7488141286609333,0.6186900709379144,-1.269339990613621, ,0.00036219925929728623,-0.0001315787676133357,0.0007743081569788256,0.003641711520342574,-0.13531206195114445,-0.12492311494987662, ,0.03899502754211426
0.010160468014781255,0.01972403319770029,-0.0802080832321901, ,0.010304544334915417,0.019744616791931218,-0.08031746085498186, ,0.0001820580532205068, ,0.0011730023937617062,0.00035057842584628883,-0.0009845776016423208,0.08093908555934522,-0.10843090486942128,-0.07814539183457161, ,0.001571061075227599, ,0.13530852412905686, ,1.637660640976402e-05, ,0.19008734696616209,-0.2285002202825548,0.09122900133,1.7494431984913867,0.6165038869416672,-1.2728664222636148, ,0.0017887054755007005,-0.0022797962087280615,0.0006427333369180687,0.00623700075559021,-0.1116374998599644,-0.10246785175784723, ,0.05825996398925781
0.010181658992214019,0.01973535033541901,-0.08023222490985622, ,0.010318995209241962,0.019783653169884608,-0.08035331968999526, ,0.00018936300087894466, ,0.001531717534090337,0.00036425287814478727,-0.0019200051353262867,0.21699517313246083,-0.15360106202432502,-0.11965122451580278, ,0.002482993854836507, ,0.2658574644762887, ,1.6986057285509367e-05, ,0.19011051516478475,-0.22855427941267437,0.09124714939,1.749862578378356,0.6147276124447165,-1.277380537545822, ,0.0011095526473039116,-0.0023277959766367724,0.0005332975497340922,-0.03418029829889073,-0.13482263029682212,-0.32278459624499756, ,0.08266997337341309
0.010215800920707802,0.01974246070727688,-0.08025776367506819, ,0.010333582172146782,0.01982228712220208,-0.08038945871401232, ,0.00019387692743809784, ,0.001263489288765007,0.00048320482098260296,-0.0013064239767815392,-0.1407179542603489,-0.1139671847851329,0.03007302003974231, ,0.0018805945041274646, ,0.18108026358237517, ,1.7447910258259448e-05, ,0.19013368336340744,-0.2286315067414166,0.09126140858000001,1.7496528884348712,0.6109017904512842,-1.2787531669500534, ,0.0014359348196195264,-0.0033547832554083144,0.0009637287496422151,0.0013747280074933805,-0.11950536801726269,0.14216277360930396, ,0.10167193412780762
0.010220962598767275,0.01975332666917169,-0.08028128254631865, ,0.01034830473728117,0.019860520556179748,-0.08042587651023689, ,0.00022048574569521776, ,2.3685450351390018e-06,0.0005335371964959232,-0.0013505138616798776,-0.15105028041789273,0.04001606075948354,0.08279819890878541, ,0.0014520865127945401, ,0.1562609110847182, ,1.8189952889108207e-05, ,0.19014140609628166,-0.2286932886044104,0.09128733438000002,1.7496528884348712,0.6109017904512842,-1.2761394472655554, ,0.00040645584437750906,-0.0018340789693005997,0.0016179445570063983,0.0028681347362429677,0.03931921458634433,0.1755538822196745, ,0.12578606605529785
0.010217193945068544,0.019779915649454135,-0.08032419106066442, ,0.010363162419351908,0.019898355374964174,-0.08046257166478243, ,0.00023341798486743205, ,-0.00014354134049163994,0.0012470017583787118,-0.0019557117231412315,0.009964960378442612,0.07279912958912824,0.012958177980359826, ,0.0023238816333586744, ,0.07347798108447187, ,1.8905486999890846e-05, ,0.19014912882915588,-0.22882457506327222,0.09134307485000001,1.7502819582653246,0.612678064948235,-1.2734222642664401, ,0.0001778396291335098,-0.007529033194846436,0.0025160024514294744,0.011968303493099564,0.07319260866415085,0.010386809750822186, ,0.1448829174041748
0.01022785530421851,0.019805357643532865,-0.08037496470525017, ,0.010378154734119582,0.019935793477556026,-0.08049954276666961, ,0.00023478313144885461, ,0.0004168514164888056,0.0012942832652114312,-0.0022552421374197155,0.08397919811146771,0.013073064818156335,-0.040875061339684805, ,0.002633448570302548, ,0.08499065089247476, ,1.9463148724890188e-05, ,0.19017229702777855,-0.2289790297207567,0.09140011161000001,1.7502819582653246,0.6128147014480004,-1.2729619309891527, ,0.0008070331066499451,-0.007978464333318428,0.0025972299885863364,0.011616621247447535,0.01270892982288402,-0.0801238518606056, ,0.16651201248168945
0.010235207040649754,0.0198302446535205,-0.08040749745946633, ,0.010393281198398163,0.019972836758813662,-0.08053678840782372, ,0.00024907046626799616, ,0.0004033502714819057,0.0012701538841345666,-0.0014890671524354319,0.04010681635551968,-0.00040238250626136926,-0.017402938565507196, ,0.0019983251275377634, ,0.04010883481041808, ,2.005487675770643e-05, ,0.1901954652264012,-0.2291643753097381,0.09143900031,1.7504916482088093,0.6129513379477659,-1.2734817425935518, ,0.0013489659047778372,-0.01031532678312625,0.0017896698687911404,0.005814631231930006,0.0,-0.03203105918057872, ,0.18654489517211914
0.010245144637215793,0.01985828033090932,-0.08043087043090982, ,0.010408541330053731,0.02000948710945728,-0.0805743071830727, ,0.0002648321562428925, ,0.000476577661938088,0.0014709348741195954,-0.0012465623090029585,0.004565095408845933,0.0009158795022246753,-0.007061200579924286, ,0.001986125187893853, ,0.004656063933350949, ,2.0685106058351804e-05, ,0.19024180162364657,-0.2293883345630906,0.09146881498000001,1.751120718039263,0.6128147014480004,-1.2732069672095743, ,0.00269345100799932,-0.012702040096167955,0.0016126541029755108,0.015242181589780515,0.0,0.011872430541950954, ,0.20835304260253906
0.010256234927250477,0.019891270828475333,-0.08046427635336179, ,0.010423934648003874,0.02004574641607239,-0.08061209769014488, ,0.00027172973910222757, ,0.0006009513412334146,0.0015470396520585064,-0.0018885153927171094,0.0023942381548009116,-0.010194220207125336,0.03535512394285725, ,0.002514152856948241, ,0.010471604554663309, ,2.1455950964451452e-05, ,0.19029586075376614,-0.2296663529465627,0.09151029626000001,1.7513304079827472,0.6128147014480004,-1.2732069672095743, ,0.0032359676854813286,-0.014653635200505062,0.002266156141698677,-0.030935116190487007,0.0,0.006977523297702034, ,0.2253119945526123
0.01026190012886262,0.01990557158123812,-0.08048150397869755, ,0.010439460672215855,0.020081616561113947,-0.08065015852966606, ,0.00030160228622768537, ,0.0007004801626210228,0.001753750235500783,-0.0020649951110328865,0.010477717018901406,-0.0015291193171332275,-0.0032595755824289764, ,0.002798306122520256, ,0.010588709070356849, ,2.2360107027348307e-05, ,0.19032675168526303,-0.2297976394054245,0.09153103690000002,1.751120718039263,0.6128147014480004,-1.2731252884694337, ,0.0035695807023989816,-0.01409430291971941,0.0024982452195734008,0.008672182921806867,0.0,0.005495296465054044, ,0.24293208122253418
0.010282277883202625,0.019957822331684763,-0.08053916442257861, ,0.010455118923706307,0.020117099422910116,-0.08068848830515794, ,0.00027846155745483455, ,0.0007583938569154712,0.0021211017329645435,-0.0023447849436779174,0.004468718186555178,0.0015810604723312163,-0.00947350218744405, ,0.0032514996902800047, ,0.004740168180258863, ,2.2958716284780088e-05, ,0.19041942447975374,-0.23020694424775842,0.09160103656000002,1.7517497878697164,0.612678064948235,-1.2724421193847535, ,0.0034669695378122026,-0.016801866423241992,0.002863863991370011,0.021184192590444635,0.0,0.01765383156455594, ,0.25972509384155273
0.010289379713686642,0.019978101085773307,-0.08056277896004702, ,0.010470908924540319,0.020152196875665628,-0.08072708562303534, ,0.0003004311534341053, ,0.0007300189583228768,0.0022045470425402476,-0.0024158968434499135,-0.014343761880145214,0.0023555361065013794,1.0517463086076485e-05, ,0.003351046538094484, ,0.01453588852258575, ,2.3638446044715482e-05, ,0.19045031541125063,-0.23037684437099135,0.09162955494000001,1.7517497878697164,0.612678064948235,-1.2722787619044724, ,0.0029551655669908853,-0.0175800188140924,0.00294923375671172,0.021184192590444635,0.0,0.03934417186947886, ,0.2778620719909668
0.010307840626474373,0.020031158749971342,-0.08061911552927999, ,0.010486830197829583,0.020186910789466432,-0.08076594909260397, ,0.0002790269875464027, ,0.0005558030323439697,0.002105300073718195,-0.002072937814347565,-0.004134318821772622,-0.0006750628037577749,0.010827320692619633, ,0.003006372663744907, ,0.0041890693322985525, ,2.408933701848394e-05, ,0.19052754273999287,-0.23082476287769638,0.09169825831,1.751959477813201,0.6125414284484696,-1.2715139140796514, ,0.0018444444247449298,-0.018462439991920387,0.00257372944255938,0.003780622075660026,0.0,0.025436650351111277, ,0.29586100578308105
0.01031526586872991,0.02005129903597843,-0.08064002689070662, ,0.01050288226773255,0.020221243030282502,-0.08080507732605785, ,0.000302196162424955, ,0.0008004879646694619,0.0020851506434980097,-0.0022635432349362716,0.0031376438352858967,0.00023413584817896465,-0.0064353090915491035, ,0.0031799783276127186, ,0.003146367488563363, ,2.4636722462449324e-05, ,0.1905970473358609,-0.23116456312416225,0.09175270249,1.7525885476436547,0.6125414284484696,-1.2711055203789487, ,0.0024352249298540637,-0.016945882421155495,0.00277553781495034,0.01381934899453843,0.0,0.02334509347062064, ,0.31344008445739746
0.010327231180057786,0.020086355095326462,-0.08067679391027316, ,0.01051906465945231,0.02025519545997252,-0.0808444689384774, ,0.0003056502374180566, ,0.0007995710948030033,0.0020366405331545346,-0.0022058853370485938,0.0016012497916999399,-0.0009616356051035817,-0.0018614920529008102, ,0.0031069516760224075, ,0.0018678179462122844, ,2.5145326918546373e-05, ,0.19062021553448358,-0.23126495865152716,0.09176955426000001,1.7525885476436547,0.6125414284484696,-1.271023841638808, ,0.004361884844099309,-0.016567203484369897,0.002716373042291951,0.01381934899453843,0.0,0.01907231276750033, ,0.3329639434814453
0.010344186702699102,0.020132875408656044,-0.08073155306757787, ,0.010535376899236447,0.02028876993628711,-0.080884122547827, ,0.0002900590307175225, ,0.0007047604750576858,0.001834731847135744,-0.001989079524486005,-0.0022389971958447423,-0.00034304906879959677,-0.0012001203546472988, ,0.002796312863902597, ,0.0022651249580252827, ,2.5511712484354447e-05, ,0.19069744286322582,-0.2316510952952384,0.09183566505000001,1.7525885476436547,0.6125414284484696,-1.2706971266782459, ,0.0037107282217143244,-0.014818385627493876,0.0024471979597480414,0.01381934899453843,-6.417757094011827e-05,0.02141478996376639, ,0.35030508041381836
0.010357944440509352,0.02016845807938922,-0.08077197132807719, ,0.010551818514375306,0.020321968312872946,-0.08092403677495237, ,0.0002903040620366131, ,0.0007372316977715906,0.001848973548609121,-0.0020756449201945015,-0.009539548326520713,-0.0006895971442372719,0.003403319960431199, ,0.0028758504123797234, ,0.009564440728910256, ,2.5843399094613588e-05, ,0.19076694745909384,-0.2319368364115847,0.09188492407000001,1.7527982375871392,0.6125414284484696,-1.270288732977543, ,0.003917691664946796,-0.014797589514809103,0.0025388606184252476,0.012533415919324635,-2.7460799115084916e-06,0.02922692337564748, ,0.3714120388031006
0.010372507361406583,0.020204488317988448,-0.08081216614716512, ,0.01056838903320169,0.02035479243927647,-0.08096421024357851, ,0.0002899626966966206, ,0.0007713348283729586,0.0016253487185415734,-0.001976966016311154,-0.019681347609652032,-0.002282983043572254,0.010822183010931465, ,0.002673033951145228, ,0.01981331510068406, ,2.614221214068181e-05, ,0.19084417478783608,-0.23221485479505677,0.09193418309000001,1.753217617474108,0.6125414284484696,-1.26988033927684, ,0.004611891301951718,-0.012719064677452187,0.002394589825616356,0.007997015135363824,3.795647864622474e-05,0.03728126026695295, ,0.3887820243835449
0.010379701400039878,0.020220206563540306,-0.0808328461317588, ,0.010585087985089149,0.020387244160947518,-0.08100464158030725, ,0.0003155929093115669, ,0.0007472705857226598,0.0016725080602570253,-0.002217770549264357,0.015090213625998368,-0.0021073164679156244,-0.004987406833401962, ,0.002876491395623379, ,0.01523664431298977, ,2.654177930508694e-05, ,0.1908827884522072,-0.23233841852104437,0.09195881260000001,1.753217617474108,0.6125414284484696,-1.269553624316278, ,0.003769393108560319,-0.012666436406629844,0.0026354751025810725,0.007080860362187595,5.177386883270811e-05,-0.0014839824175927677, ,0.40645503997802734
0.010395762207057643,0.02025402740111235,-0.08087742172351305, ,0.01060191490045171,0.020419325319243377,-0.08104532941461502, ,0.0003130739967855473, ,0.0007955761188547934,0.001473309053512528,-0.0019123267066792253,0.011459498978469696,-0.00033011312150334774,-0.015476209619153247, ,0.0025417659925989745, ,0.011464252766096968, ,2.7023787737358957e-05, ,0.19096773851382368,-0.23257782324014534,0.09201066420000001,1.7536369973610773,0.6125414284484696,-1.2690635518754345, ,0.004917156985860217,-0.01039506531290455,0.002310197464829587,0.01945663334572567,7.34847462282527e-05,0.0024915843811732525, ,0.4228329658508301
0.010412092776078564,0.02028424604700909,-0.08091882619127769, ,0.010618869310742013,0.02045103775143248,-0.08108627237885042, ,0.0003140290331872653, ,0.0009250177843567896,0.0016705826054841098,-0.0023539049438866346,0.02634836556477036,-0.0018747539853593727,-0.018734444919147983, ,0.003031067902237817, ,0.026414978144381072, ,2.7474657466798555e-05, ,0.19106813404118858,-0.23280950522637206,0.09206121951000001,1.7536369973610773,0.6125414284484696,-1.2687368369148724, ,0.005484799598039832,-0.01163156522402852,0.0027891457748205222,0.015978747881891464,8.771158639343466e-05,-0.013253891821700427, ,0.43783092498779297
0.010431633003165328,0.020319548169754648,-0.08097466697431197, ,0.010635950748450858,0.02048238329069829,-0.08112746910823139, ,0.00030267062920214736, ,0.0009486602262761785,0.0016979817309215482,-0.002753568271887821,-0.0042624107002755575,-0.0019550296205755172,-0.00039442116736926254, ,0.003371236629400106, ,0.00468938009089174, ,2.784298355332193e-05, ,0.1911685295685535,-0.2330334644797246,0.09212603401000001,1.7540563772480462,0.6125414284484696,-1.268573479434591, ,0.004886242694579889,-0.011120952293590605,0.003184488508596562,0.011270443803146108,9.728797833638619e-05,0.019140534749147124, ,0.4589269161224365
0.010439344673615203,0.020334138212378224,-0.08099689707187709, ,0.01065315874710643,0.020513363766142805,-0.08116891824084439, ,0.00032776445767961337, ,0.0008752825701031177,0.0016570520147162575,-0.002532585389681865,0.010977179009926287,0.00020501565695321146,-0.014946275177309757, ,0.0031505443518591468, ,0.010979093329204081, ,2.829371569603883e-05, ,0.19120714323292465,-0.23312613727421527,0.09215195981,1.7542660671915309,0.6125414284484696,-1.2683284432141695, ,0.00441963674552234,-0.01076965619276163,0.0029525137201112145,0.019412911747356633,0.0001001732694691844,0.0035443924481910177, ,0.4737269878387451
0.010460447098014351,0.020371067933320268,-0.08105077324586481, ,0.010670492841272418,0.020543981002790687,-0.08121061841764006, ,0.00031554496160511857, ,0.0009568918904782028,0.0015251230046703583,-0.0027453523872480096,-0.017397102313933408,-0.012070890090144244,0.04229455549317579, ,0.0032830781287697124, ,0.02117464418435072, ,2.8663820409884505e-05, ,0.19133070695891222,-0.23337326472619047,0.09221547802,1.7546854470785,0.6125414284484696,-1.2680834069937479, ,0.005482202229358893,-0.011667202433276241,0.0031362101831069115,-0.030327712854590863,0.00010526620608042302,0.025762112278004262, ,0.48876309394836426
0.010471063662380061,0.020387894876977963,-0.0810801283803564, ,0.010687952566547788,0.020574236821592987,-0.08125256828243235, ,0.00033391561344440053, ,0.0010539237290859945,0.001814648032441956,-0.002606956429658897,-0.025020718460955667,-0.0013416142738362693,0.0036153665913397663, ,0.0033466288313041014, ,0.025056661410526287, ,2.90839210129581e-05, ,0.1913847660890318,-0.2334891057193038,0.09224658898000002,1.7544757571350151,0.6125414284484696,-1.2677566920331855, ,0.006364333412260639,-0.012330683674437471,0.0031294325186640476,0.019313812681857796,0.00010684596157860438,0.04524926374842915, ,0.505012035369873
0.010491373754071939,0.02042165764097999,-0.08113085853983379, ,0.0107055374595655,0.02060413303943068,-0.08129476648189536, ,0.00032562121746183983, ,0.0009854507749432655,0.0016591700508308172,-0.002382345289949243,-0.026565794818815144,-0.005216765120178983,0.019111890552746726, ,0.0030658648972114806, ,0.02707316185076581, ,2.9445593578554114e-05, ,0.1915160525478936,-0.23372851043840479,0.09230881090000001,1.7546854470785,0.6125414284484696,-1.2673482983324829, ,0.006283071210236143,-0.012200686752181895,0.0028227558958001065,0.0018506726931610006,0.00010899937103754848,0.043091562242238084, ,0.5199098587036133
0.010501006894939435,0.02043985197478831,-0.08115192386486811, ,0.010723247057991237,0.02063367146911891,-0.08133721166556154, ,0.0003482646343539208, ,0.0010183783539778168,0.001830859157489834,-0.00239554589532505,-0.00261816817384715,-0.0007559637848942142,-0.009959267846428076, ,0.003182417298693502, ,0.0027251212361521847, ,2.9870876166197463e-05, ,0.1915778344108874,-0.23385207416439238,0.0923347367,1.7551048269654688,0.6125414284484696,-1.2671849408522018, ,0.006399395104804088,-0.012849958234051563,0.0028814782054992767,0.022726136349144326,0.00010958560191456438,0.02155406685375269, ,0.535175085067749
0.010523607628940503,0.020478942836115347,-0.08120772650796175, ,0.010741080900522748,0.02066285391941042,-0.08137990248581915, ,0.0003328099724506549, ,0.0011842609499180118,0.0021223859460444165,-0.002910164755863827,-0.003177213521404562,5.55769698333086e-05,-0.014196948284946375, ,0.0037915768497736578, ,0.00317769953762787, ,3.0214623283857078e-05, ,0.19171684360262345,-0.23413009254786446,0.09240084749000001,1.7553145169089535,0.6125414284484696,-1.266776547151499, ,0.007108556291255427,-0.01434138454865812,0.00346957340884339,0.029059324596336953,0.00011013821793439766,0.025097264244193302, ,0.5503048896789551
0.010535679110412867,0.020499029715499387,-0.08124009460318432, ,0.01075903852688868,0.020691682194999388,-0.08142283759790962, ,0.0003469861797061743, ,0.0011562070550927722,0.0021078777767214313,-0.0031210050274039407,0.014093685444457235,0.0003069319959714921,-0.021677292910010873, ,0.003939623821752916, ,0.014097027217159426, ,3.0589246748039706e-05, ,0.19178634819849147,-0.2342691017396005,0.0924384399,1.7553145169089535,0.6125414284484696,-1.266531510931077, ,0.006290574257439983,-0.013677852631661975,0.0036660095558112777,0.027698812738016484,0.00011011615883297973,0.004966826507468316, ,0.5656008720397949
0.010558481187360289,0.020535529592200907,-0.08129785632006316, ,0.01077711947784753,0.020720158096525377,-0.08146601565992555, ,0.00033191557700600483, ,0.001130202001359708,0.00193794677873236,-0.0030203754706977274,0.023630990999807075,-0.004720294702902819,-0.009017004508965502, ,0.0037624011302716167, ,0.024097819765776542, ,3.099824275418458e-05, ,0.1919253573902275,-0.2345239519244499,0.09250584698000001,1.7553145169089535,0.6125414284484696,-1.2664498321909365, ,0.006522911106764935,-0.01311818379298739,0.0035016072807210383,0.019396792016862844,0.00010967900243204617,-0.010211058134799327, ,0.5809659957885742
0.010569454595567554,0.020553892312024518,-0.08132676127868231, ,0.010795323295186735,0.020748283420577145,-0.08150943533280855, ,0.0003495345227626238, ,0.001317541612323735,0.0020773892076305957,-0.0033993188014241693,0.025463453627496763,-0.006147862562793458,-0.009373411219476482, ,0.004196049348363357, ,0.026195108021857365, ,3.144755402022978e-05, ,0.1919871392532213,-0.2346397929175633,0.09253955052000001,1.755524206852438,0.6125414284484696,-1.266368153450796, ,0.007800798224929081,-0.013721362284336434,0.003947660847583643,0.007292363109723485,0.00010933451811147105,-0.011769138338445248, ,0.5946059226989746
0.010599656798095013,0.020602238514637727,-0.08139938255528253, ,0.010813649521721435,0.020776059959696124,-0.08155309528034609, ,0.00031564914442099593, ,0.0013255785107824875,0.0019715930517957767,-0.0030390689427428636,0.0022788600981834568,-0.006319921176738659,-7.503623910898813e-05, ,0.003857496285012071, ,0.006718229436990228, ,3.1763833047644966e-05, ,0.1921724848422027,-0.23494870223253225,0.09262510566000001,1.7561532766828913,0.6125414284484696,-1.2662864747106555, ,0.008700854778861154,-0.01335260187962161,0.0035762935608441857,0.009020860291828825,0.00010817795154406596,0.013865070001852978, ,0.6086220741271973
0.01061234800604993,0.020620211484616766,-0.08142815508341347, ,0.010832097701293543,0.020803489502380635,-0.08159699416917002, ,0.0003322459890415827, ,0.0012870253466402246,0.0019534429539976735,-0.0030080709811990407,8.260791891639616e-05,-0.00589505921623987,0.0008906525087660814, ,0.003810625230241004, ,0.005895637962507192, ,3.211949375220182e-05, ,0.19225743490381916,-0.23507226595851985,0.09265880920000001,1.7561532766828913,0.6125414284484696,-1.2661231172303744, ,0.008304760400853609,-0.013231586943456605,0.003537377641572286,0.009020860291828825,0.00010757054576189426,0.016165783209108397, ,0.6261758804321289
0.010640422795008602,0.020664242155635174,-0.08149943722915762, ,0.010850667378770903,0.020830573833089273,-0.08164113066875381, ,0.00030322605882522163, ,0.001073200239386149,0.0017386903199297571,-0.0026870647001658488,-0.0014310041955145334,-0.004072434766532781,0.0005977449789560754, ,0.003375665784006662, ,0.004316537709224886, ,3.236756211473286e-05, ,0.19242733502705212,-0.23537345254061462,0.09274177176000001,1.7561532766828913,0.6125414284484696,-1.265796402269812, ,0.0064802882487172775,-0.011692507572423539,0.0031492312218268093,0.009020860291828825,0.00010587281166467292,0.016168460926216058, ,0.6410059928894043
0.010651567404484108,0.020682051868827604,-0.08152575522596764, ,0.010869358100046212,0.020857314732244957,-0.08168550345141022, ,0.0003219772568035342, ,0.0012399347081642907,0.0019282917557900173,-0.002916070113180505,0.005209843348187908,-0.004670462952116228,-0.004991620282842801, ,0.003709341192306631, ,0.006996834404849822, ,3.266293153269077e-05, ,0.19249683962292014,-0.23548929353372797,0.09277288272,1.756362966626376,0.6125414284484696,-1.265633044789531, ,0.007891741992496986,-0.012946376747403926,0.003437378403107467,0.012781897457928508,0.00010514417870116288,0.0109521701766875, ,0.6541049480438232
0.010665422487079579,0.020701683810698,-0.08155932740602012, ,0.010888169412035574,0.02088371397623873,-0.08173011119228901, ,0.0003345418888517183, ,0.0013738427846411352,0.0018507468589501377,-0.0033150183110027803,-0.006938966444993768,-0.005337419895407793,-1.5048229422821028e-05, ,0.004037580257420035, ,0.00875427358861395, ,3.298384476942678e-05, ,0.1925817896845366,-0.23560513452684134,0.09281177142000001,1.7565726565698605,0.6125414284484696,-1.2653880085691094, ,0.008562838154020315,-0.010940389849950516,0.0038198588776978426,0.012183841422343888,0.00010431846856570678,0.022102888844378006, ,0.6710898876190186
0.010696845391686596,0.020744280209172065,-0.08163320543837145, ,0.010907100862678095,0.02090977333743328,-0.0817749525693744, ,0.0003027995834394568, ,0.001044989184549095,0.0015527837706801964,-0.002662641656851428,-0.00292925615661816,-0.003966397441651961,0.0006435490879744447, ,0.003254658265795798, ,0.00493080623857757, ,3.319723548175161e-05, ,0.19278258073926643,-0.23586770744456498,0.09289732656000001,1.756782346513345,0.6125414284484696,-1.2653063298289686, ,0.006185489334263135,-0.009643775964529935,0.0030774365378670792,0.008235457761413911,0.00010227380244383313,0.015439204819491337, ,0.6849429607391357
0.010709148113660832,0.020760437803077382,-0.08165978259672918, ,0.010926152000934356,0.02093549458416716,-0.08182002626348314, ,0.00032157984456755083, ,0.0012063694597054917,0.0016263074260826865,-0.002590854193940939,0.0006385567677849982,-0.006309174522749267,0.00037931798114157277, ,0.00328827136527738, ,0.006341406609534967, ,3.345653547069141e-05, ,0.1928675308008829,-0.23597582570480413,0.09292843752,1.756782346513345,0.6125414284484696,-1.2651429723486876, ,0.00828496981882959,-0.010671189382603478,0.003046826993114002,0.007362529071121097,0.00010138784018232463,0.01242475511828491, ,0.6983039379119873
0.010720616550799304,0.020777318127661287,-0.08168762935995792, ,0.010945322376785728,0.020960879480758136,-0.08186533095826175, ,0.0003402430552160047, ,0.0011596912801475324,0.0016031146804047379,-0.003087678303885281,-0.003162398413539658,-0.006363049004587146,0.007736156425224038, ,0.003667235723547546, ,0.007105572185270425, ,3.3758664550238885e-05, ,0.1929293126638767,-0.23606849849929482,0.09295825219000001,1.7569920364568297,0.6125414284484696,-1.2649796148684065, ,0.006659841740235253,-0.009367287183380623,0.0034635380560991526,5.845030101426307e-05,0.00010057247992279036,0.01506978962440977, ,0.7123229503631592
0.010749986625237552,0.02081366137101992,-0.08176065703666711, ,0.010964611541233201,0.02098592978750715,-0.08191086534018446, ,0.0003135327675550312, ,0.0014629982616954588,0.0018626308875063704,-0.003739689376990884,-0.005513480777249307,-0.0042524431980790955,-0.00561000982819398, ,0.0044266278783285104, ,0.006962883217644007, ,3.3974368784047154e-05, ,0.1931146582528581,-0.23626928955402465,0.09304380733,1.757201726400314,0.6125414284484696,-1.2645712211677038, ,0.00853557967369118,-0.009539465236741367,0.004244287641886492,0.016800534587800054,9.867400012189654e-05,0.01995654006352782, ,0.7259969711303711
0.010765147636626964,0.020831941792415227,-0.08179842357224074, ,0.010984019046296126,0.021010647260702328,-0.0819566280985502, ,0.00032383485067404347, ,0.0013993985338311707,0.00175683158688977,-0.0034647923361312695,-0.015833567910096553,-0.004457923924210159,0.0007181864253403742, ,0.004129111213529667, ,0.01644916283518272, ,3.430400789934869e-05, ,0.19320733104734877,-0.23636968508138956,0.0930865849,1.757201726400314,0.6125414284484696,-1.264489542427563, ,0.008432334361563721,-0.00920945110646435,0.003945705107753283,0.014901508864431747,9.776806824769962e-05,0.030631930635527382, ,0.7375888824462891
0.010779654108046125,0.020849702313049535,-0.0818350608213837, ,0.0110035444450118,0.021035033652622392,-0.08200261792548176, ,0.0003354846815403078, ,0.0014371154235832003,0.0016939867909230516,-0.003652456238139817,-0.00932559251420397,-0.007269944123480775,0.00666905615031988, ,0.0042749653285200995, ,0.011824498410059186, ,3.465444204568441e-05, ,0.19329228110896526,-0.23645463514300605,0.09312676989,1.7574114163437988,0.6125414284484696,-1.264326184947282, ,0.00856450671782308,-0.008615548892194772,0.004093757779491134,0.004011844770128377,9.689280719397135e-05,0.020670120816541127, ,0.7484960556030273
0.010792354473913057,0.02086531410467478,-0.08186575175164489, ,0.011023187291433817,0.021059090711540617,-0.08204883351592149, ,0.0003526359247490864, ,0.0013494703846333362,0.0016076434139020602,-0.0030924143062721083,-0.025558409826767742,-0.006309974916097628,0.011208168599561518, ,0.0037374608903507633, ,0.026325806654915504, ,3.5039307132054037e-05, ,0.1933695084377075,-0.2365318624717483,0.09316306601,1.757621106287283,0.6125414284484696,-1.2640811487268602, ,0.008773476223687406,-0.008948265356793841,0.0035444618424566093,0.007918590433001284,9.611111171903542e-05,0.039671765018317436, ,0.7617480754852295
0.010810758454160815,0.020888230460186202,-0.08190459482042735, ,0.011042947140631183,0.02108282018172867,-0.0820952735676301, ,0.000357959677183929, ,0.00143740204182756,0.0016630547667184613,-0.0029847380465544385,-0.004347586064988466,-0.005293634568994125,-0.007739775997359989, ,0.0037068230323964264, ,0.006850114692882888, ,3.542601874040902e-05, ,0.1934930721636951,-0.23665542619773589,0.09320843616,1.7580404861742522,0.6125414284484696,-1.263917791246579, ,0.00993805390488988,-0.009201041945785032,0.003465798851174935,0.018368916913040455,9.493167424526557e-05,0.018626243267994093, ,0.7733719348907471
0.010825118048249097,0.02090534229051799,-0.08193669483610802, ,0.011062823548687688,0.02110622380346029,-0.08214193678118446, ,0.0003728022843271098, ,0.0015672761345385494,0.0017798628931547272,-0.0031433299891010145,0.008307941693236493,-0.006715286573929347,-0.013221337160856375, ,0.0039376121978560805, ,0.010682554406196405, ,3.5839024338049886e-05, ,0.19360119042393423,-0.2367558217251008,0.09324602857000001,1.7580404861742522,0.612678064948235,-1.263702494189713, ,0.011096461828633159,-0.010047082363641876,0.003663480110395585,0.018368916913040455,0.0,0.005521322386565961, ,0.7844369411468506
0.010841725552022652,0.020923053134135637,-0.08197171266735115, ,0.011082816072700306,0.021129303313015116,-0.08218882185997445, ,0.0003844478858960998, ,0.001627848875374949,0.0018517872540130419,-0.003650543268588955,0.02056308554103379,-0.0064274390071078855,-0.019432228319196467, ,0.0044051644862620944, ,0.021544197792204928, ,3.6269008449389484e-05, ,0.1937170314170476,-0.23685621725246572,0.09328621356000001,1.7580404861742522,0.612678064948235,-1.2636208154495727, ,0.01062379598283418,-0.009448261455285545,0.004177501054287963,0.018368916913040455,0.0,-0.008695132701680583, ,0.7964808940887451
0.010857136451500288,0.020939496391179698,-0.08200721015223242, ,0.011102924270778516,0.0211520604426827,-0.0822359275102015, ,0.0003973748330396346, ,0.001872064173648657,0.0020096109827797133,-0.0043012579649968664,0.015204326315165393,-0.008361047887528021,-0.014615911697283508, ,0.005103330349273566, ,0.017351618339605433, ,3.6718410405247726e-05, ,0.1938174269444125,-0.23694116731408219,0.09332639855000001,1.7580404861742522,0.612678064948235,-1.2634574579692917, ,0.01202902035219556,-0.009525919656034883,0.004874177331701347,0.015804464529277865,0.0,-0.0032078890604438186, ,0.8079209327697754
0.010898010693318775,0.0209867206196307,-0.0821149409150944, ,0.011123147702043226,0.02117449692076549,-0.08228325244087514, ,0.00033804641940996406, ,0.0019282729872269172,0.0022105824978921732,-0.004992555259198966,0.0018956246470055566,-0.009580389034512886,0.0006514496866950478, ,0.0057905543525133656, ,0.00976612736723955, ,3.700840044706664e-05, ,0.19404910893063926,-0.23715740383456047,0.09344695352000001,1.7582501761177367,0.612678064948235,-1.2634574579692917, ,0.011167955891871906,-0.010460050923797582,0.005596911988756149,0.006169888539716996,0.0,0.010543144727541236, ,0.8193168640136719
0.010916415424386774,0.021008389671532176,-0.08215677691135384, ,0.011143485926625639,0.021196614471583886,-0.08233079536381185, ,0.000342450011151114, ,0.0018539577449871289,0.001959313812659625,-0.003941203046037813,0.004638337455429124,-0.009508033819950815,-0.0066892557553687336, ,0.004775892731916651, ,0.010579077489121869, ,3.730063250645672e-05, ,0.19416494992375263,-0.2372577993619254,0.09349491625,1.7586695560047059,0.612678064948235,-1.2634574579692917, ,0.012646180911310072,-0.010083539337144109,0.004513689861150468,0.012869053690796578,0.0,0.008489380152475794, ,0.8311200141906738
0.010934826003051637,0.021028410270624538,-0.08219633756458049, ,0.011163938505666375,0.021218414815478728,-0.08237855499363173, ,0.0003489949245614885, ,0.0018396568102401322,0.0019673808991383414,-0.003991781974647511,0.0055820843206495245,-0.009816251205169099,-0.0050041138923951015, ,0.004815521582848328, ,0.011292406832571211, ,3.760013281631976e-05, ,0.1942885136497402,-0.2373581948892903,0.0935402864,1.7588792459481901,0.612678064948235,-1.263375779229151, ,0.012374095913218251,-0.010175629959300388,0.004562821976511029,0.010474528828598421,0.0,0.007048443629711443, ,0.8431038856506348
0.010952669691537105,0.021045502965018975,-0.0822340268028389, ,0.011184505001314054,0.021239899668816176,-0.08242653004775681, ,0.0003586017130613257, ,0.0020505802606329486,0.001994673591067854,-0.004200580841222958,0.01150117292828121,-0.01190851742099015,-0.008038551187976526, ,0.005082172915579555, ,0.01655565657364389, ,3.791381422236553e-05, ,0.1944120773757278,-0.23744314495090676,0.09358306397,1.7588792459481901,0.612678064948235,-1.2632941004890104, ,0.014373968730456039,-0.009828193400003262,0.004797834795180723,0.010474528828598421,0.0,0.00012030685799004142, ,0.8547909259796143
0.01098100997230321,0.02107321238671981,-0.08229183588833888, ,0.011205184976724738,0.02126107074399062,-0.08247471924640806, ,0.00034495147146017344, ,0.0019017684347118903,0.0020168582023328083,-0.004084150060699864,0.009050737908895604,-0.01035026779562115,-0.006473425714071776, ,0.004936063401730001, ,0.01374932358337136, ,3.827601095977426e-05, ,0.19461286843045764,-0.23758987687551705,0.09364917476000001,1.7588792459481901,0.612678064948235,-1.2631307430087293, ,0.012862149845279313,-0.010436223742585158,0.004672575981226167,0.010474528828598421,0.0,0.003494209675632299, ,0.8639159202575684
0.010998909444309346,0.02109251942408978,-0.08233298433106946, ,0.011225977996060968,0.021281929749428902,-0.08252312131260381, ,0.0003515515186806105, ,0.0018921036097679829,0.0019822832978028393,-0.00417657131680241,0.004909443997364567,-0.00995516486730258,-0.0049399131141132325, ,0.004995322923213448, ,0.011099907505360994, ,3.864506963231283e-05, ,0.194728709423571,-0.23769027240288196,0.0936958412,1.7588792459481901,0.612678064948235,-1.2629673855284482, ,0.012519240455520036,-0.009782589182595867,0.004752032076372315,0.010474528828598421,0.0,0.007368344259986409, ,0.8739819526672363
0.011018334254335974,0.021112140709176042,-0.08237519254559497, ,0.011246883624489992,0.02130247838959414,-0.08257173497215682, ,0.0003564998914776284, ,0.0019222578358811069,0.002008014638633945,-0.004263288286080963,0.001880238878616611,-0.010050288064922464,-0.003482514791826127, ,0.005089481799437904, ,0.010224655838716163, ,3.901699342118769e-05, ,0.19485999588243283,-0.2377906679302469,0.09374380393000001,1.7588792459481901,0.612678064948235,-1.2628040280481672, ,0.012659677369059603,-0.009815114256575358,0.0048460028962579865,0.010474528828598421,0.0,0.010756437904840571, ,0.8852870464324951
0.011032425417529064,0.021127200540549663,-0.08240581234881911, ,0.011267901428183486,0.0213227183649893,-0.08262055895367179, ,0.00037388805218017447, ,0.001991703289773254,0.0020868580690738717,-0.004503069543829464,-0.003582896397470769,-0.01000131536527883,-0.0015361178903977996, ,0.00534784946604865, ,0.010623721277367364, ,3.941970307225579e-05, ,0.1949526686769235,-0.2378601725261149,0.09377880376000002,1.7590889358916748,0.612678064948235,-1.2626406705678859, ,0.012900617395115659,-0.009969196261522678,0.005105388307692308,0.011334819042876438,0.0,0.017148943366223038, ,0.895103931427002
0.011058320666323207,0.021154798631568154,-0.08246530654043695, ,0.011289030974316246,0.02134265137216107,-0.08266959198854382, ,0.00036089949109237713, ,0.002100646985952651,0.0020788951645473145,-0.004849586501379039,-0.004890457130811471,-0.010907550613606144,2.0717794404085413e-05, ,0.005679173540148949, ,0.011953711919495317, ,3.978451593579944e-05, ,0.19511484606728224,-0.23797601351922826,0.09384621084000001,1.759508315778644,0.612678064948235,-1.2626406705678859, ,0.013380843423360234,-0.008987056218475498,0.005451338644763861,0.00950347712527183,0.0,0.017148943366223038, ,0.9043600559234619
0.011081772585250857,0.02117716829118519,-0.08252107728935314, ,0.011310271831064981,0.02136227910370379,-0.08271883281095473, ,0.0003543799720255596, ,0.002423438145134063,0.0023395283976910606,-0.006034938863671134,-0.003677599703984707,-0.012034426490221262,-0.0005439584231639622, ,0.0069113625758704025, ,0.012583805168796584, ,4.012693309955839e-05, ,0.1952615779918925,-0.23806868631371897,0.09390843276000001,1.759508315778644,0.612678064948235,-1.2625589918277453, ,0.014408888788106708,-0.008591001716948344,0.00669840686291001,0.009190180727988948,0.0,0.015311631839470052, ,0.9142029285430908
0.011106070245351027,0.02120138389948381,-0.08258433967842432, ,0.011331623567607668,0.021381603248262743,-0.08276828015787233, ,0.0003423264740490744, ,0.002304141413467297,0.0022102803150496034,-0.005489446679287121,-0.0013011097896800398,-0.012183453633247538,-0.0006554702192890029, ,0.006350467035509061, ,0.012252731292799574, ,4.043562985021478e-05, ,0.19540058718362854,-0.23816135910820965,0.09397843242000001,1.759508315778644,0.612678064948235,-1.2624773130876048, ,0.014265926271568065,-0.008710260458690037,0.0061264659692307705,0.008108254163640555,0.0,0.012585886525500543, ,0.9237949848175049
0.01112233477750122,0.021217664216680247,-0.08262242722756456, ,0.011353085754122133,0.02140062549053861,-0.08281793276904674, ,0.00035347313574530495, ,0.002248281738231386,0.0020869906624268347,-0.005216318532776388,0.0010914077019509177,-0.013565667799008519,0.00276233127319472, ,0.006051469229444033, ,0.013609500716149034, ,4.0761696631452344e-05, ,0.19550098271099348,-0.23822314097120345,0.09402120999000001,1.7597180057221284,0.612678064948235,-1.2623139556073237, ,0.014296014094376435,-0.008401748077221357,0.005826192948061449,0.002607627496019882,0.0,0.008455555153276654, ,0.9359879493713379
0.011151323131300227,0.021243736251275114,-0.08269265791445228, ,0.011374657961785198,0.021419347511290807,-0.08286778938700845, ,0.00033374959750049477, ,0.0022620135784873277,0.0020098604740505775,-0.005497358013646865,-0.004229323284723938,-0.012991679359293809,0.0041868130830839114, ,0.006275124674826729, ,0.013662756054348678, ,4.103875657674708e-05, ,0.19567860556710062,-0.23831581376569413,0.0940976911,1.7597180057221284,0.612678064948235,-1.2621505981270427, ,0.013777140179801218,-0.006743321928864648,0.006084343590527121,0.002607627496019882,0.0,0.012568553875767413, ,0.9451770782470703
0.011172552632240124,0.021263347481008645,-0.08274200860978449, ,0.011396339762771763,0.0214377709873412,-0.08291784875706629, ,0.00033380233185076915, ,0.002250152983157777,0.0019857333233932644,-0.004824796706396513,-0.001767091451096851,-0.014425470723930228,0.004044623496190276, ,0.005681988079651605, ,0.014533300216708138, ,4.131008262942015e-05, ,0.19582533749171088,-0.2383930410944364,0.09415472786000001,1.7597180057221284,0.6128147014480004,-1.2620986585504579, ,0.015188370928052303,-0.008298364289317463,0.0054253445231607625,0.002607627496019882,-8.071615358740806e-06,0.011503920293649932, ,0.954509973526001
0.011172552632240124,0.021263347481008645,-0.08274200860978449, ,0.011418130730253434,0.02145589759157825,-0.08296810962730451, ,0.0003853645253883531, ,0.002250152983157777,0.0019857333233932644,-0.004824796706396513,-0.001767091451096851,-0.014425470723930228,0.004044623496190276, ,0.005681988079651605, ,0.014533300216708138, ,4.177059349735043e-05, ,0.19582533749171088,-0.2383930410944364,0.09415472786000001,1.7597180057221284,0.6128147014480004,-1.2620986585504579, ,0.015188370928052303,-0.008298364289317463,0.0054253445231607625,0.002607627496019882,-8.071615358740806e-06,0.011503920293649932, ,0.9624660015106201
0.01119507311371582,0.021283997601987844,-0.08279159371527404, ,0.011440030438397726,0.02147372899296055,-0.08301857074858085, ,0.00038408419036002254, ,0.0021110219252179823,0.0018971996701255688,-0.004807106342546467,-0.006554208599147619,-0.009733260025799913,-0.005195946135649519, ,0.00558247718720158, ,0.011734308608691771, ,4.2220804734633876e-05, ,0.19596434668344692,-0.23847026842317864,0.09420917204000001,1.759927695665613,0.6128147014480004,-1.2619353010701766, ,0.013335714103213995,-0.00666385586721753,0.005366850242587601,0.014681736204854332,-8.071615358740806e-06,0.01755294120341895, ,0.9721109867095947
0.011215837285288055,0.021301191354143212,-0.08283556483729673, ,0.011462038462367078,0.021491266856520683,-0.083069230874524, ,0.0003890289618429976, ,0.0021751974819679575,0.0016551269555240445,-0.004539524150008177,-0.008859098285304186,-0.01216982317803601,-0.0015411974797588115, ,0.005298887508993704, ,0.015052847461048286, ,4.267377951427269e-05, ,0.1961110786080572,-0.2385243275532982,0.09425972735,1.7601373856090976,0.6128147014480004,-1.2619353010701766, ,0.014846204874604316,-0.004888411710186416,0.005059978246505719,0.01035805905631647,-8.071615358740806e-06,0.0172718840092951, ,0.9801969528198242
0.011235756503272302,0.021318632176008337,-0.08287958413896165, ,0.011484154378317632,0.021508512843368865,-0.08312008876153135, ,0.0003944599417452999, ,0.0021069348622904014,0.0018303919211920788,-0.004667091095120341,-0.003435577272752213,-0.011385367124773367,-0.002031750954846606, ,0.005437945235955534, ,0.011892425049107837, ,4.313044241975882e-05, ,0.19624236506691903,-0.23859383214916624,0.09430898637000001,1.7601373856090976,0.6128147014480004,-1.2618536223300363, ,0.013743221080155072,-0.006600860986659768,0.005217429256469047,0.009263097326205597,-8.071615358740806e-06,0.012901358178402406, ,0.9882850646972656
0.011260622038928005,0.021338466648933855,-0.08293848408644092, ,0.011506377763398346,0.021525468610696832,-0.08317114316876613, ,0.00038664694283228787, ,0.002556706336947213,0.0020501998499746826,-0.0063123492358078005,-0.006676604829626179,-0.013056664838292355,-0.0009589721468914675, ,0.00711237088410226, ,0.01466470384046236, ,4.356389418727553e-05, ,0.1963968197244035,-0.2386478912792858,0.09437380087000001,1.7601373856090976,0.6128147014480004,-1.2617719435898955, ,0.015173799417727977,-0.004488998727636157,0.006913546666666667,0.008182916846465481,-8.071615358740806e-06,0.013968950448480795, ,0.9964730739593506
0.011287412646517593,0.021360854992355547,-0.08300589490710714, ,0.011528708195749944,0.02154213581178163,-0.08322239285815598, ,0.00037142649391162515, ,0.0028157158520339814,0.0022817100338253077,-0.007284894848555089,-0.006951905279276224,-0.015598675012845741,0.005588375894807544, ,0.008136593230115355, ,0.01707769389148561, ,4.395981972374646e-05, ,0.196551274381888,-0.23869422767653115,0.0944476894,1.7603470755525819,0.6128147014480004,-1.261526907369474, ,0.016000158752060494,-0.004777030634575648,0.007940584007976072,0.0009692769812130659,-8.071615358740806e-06,0.01307246823068696, ,1.0041120052337646
0.01131607404515256,0.02138605931355707,-0.08308107659471589, ,0.011551145254503691,0.02155851609598935,-0.08327383659439, ,0.0003495085589038709, ,0.0027736419839069883,0.0022924607667086116,-0.007036357278503808,-0.003074293132557272,-0.011496464553213358,-0.008372540553197312, ,0.007903087369664037, ,0.011900418406096205, ,4.430577446480001e-05, ,0.19672117450512094,-0.23874828680665072,0.09453065196,1.7605567654960663,0.6129513379477659,-1.2614749677928894, ,0.015951746773990718,-0.004715093642988307,0.00770252007736944,0.015252843850671521,0.0007170191676003167,0.011828878852270956, ,1.017732858657837
0.01133333839601371,0.02140008289649123,-0.08312363058919373, ,0.011573688519780566,0.02157461110877903,-0.0833254731449161, ,0.0003591221187558082, ,0.002521776549367738,0.0019731446203573024,-0.006013401475493349,-0.0009837000747975756,-0.009687229273398353,-0.014420266209790993, ,0.006812756708062574, ,0.009737046213781282, ,4.466525869582098e-05, ,0.19682157003248585,-0.2387714550052734,0.09457731840000001,1.760766455439551,0.6129513379477659,-1.2613932890527488, ,0.01531336801008081,-0.0036891369591000485,0.006606723981750311,0.020334083829779616,0.0007170191676003167,0.009473150980565427, ,1.0254418849945068
0.011364295109128716,0.02142176576255378,-0.08319131216119187, ,0.011596337572690102,0.021590422491706136,-0.08337730127993917, ,0.0003418782670431185, ,0.002521776549367738,0.0019731446203573024,-0.006013401475493349,-0.0009837000747975756,-0.009687229273398353,-0.014420266209790993, ,0.006812756708062574, ,0.009737046213781282, ,4.4985292484565746e-05, ,0.19703780655296413,-0.23881779140251874,0.09465250322,1.760766455439551,0.6130879744475313,-1.2613413494761638, ,0.016160923289930306,-0.0030266319894275595,0.00544574752820513,0.018212657009031078,0.001002314513293156,0.01175166062416118, ,1.0331659317016602
0.011364295109128716,0.02142176576255378,-0.08319131216119187, ,0.011619091995329513,0.02160595188242663,-0.0834293197724186, ,0.0003943267718191273, ,0.002372679364683264,0.0016330009476028461,-0.004912417649497982,-0.004053740031109605,-0.010732386081447911,-0.01147938124367138, ,0.005694571680606439, ,0.011472441605009386, ,4.540238509522891e-05, ,0.19703780655296413,-0.23881779140251874,0.09465250322,1.760766455439551,0.6130879744475313,-1.2613413494761638, ,0.016160923289930306,-0.0030266319894275595,0.00544574752820513,0.018212657009031078,0.001002314513293156,0.01175166062416118, ,1.040802001953125
0.0113887737271465,0.021438786151731812,-0.08324624915778114, ,0.011641951370782314,0.02162120091470076,-0.08348152739806577, ,0.00039080674934989626, ,0.002628565827215152,0.0018185632519427642,-0.005719271198251206,-0.002312006934756179,-0.010747159382467331,-0.009745421065289446, ,0.006551838951658206, ,0.010993034373601867, ,4.5806240710999135e-05, ,0.19720770667619708,-0.23884868233401563,0.09471342885,1.760766455439551,0.6132246109472966,-1.2614527673798603, ,0.01744108464592369,-0.0029281699458395,0.0063109395879556275,0.01591672744628208,0.0029302426186022293,0.009535903410708507, ,1.0485799312591553
0.01141553290665353,0.02145640631760072,-0.08330409159287197, ,0.011664915283117916,0.02163617121839652,-0.08353392293534186, ,0.00038383516674564514, ,0.0026857537132133013,0.0019215811899887917,-0.005871682461644529,-0.00036262853978546214,-0.01148211447998709,-0.008645176616750377, ,0.006736646213669064, ,0.011487839022639596, ,4.6279208934823797e-05, ,0.19738532953230425,-0.23887957326551254,0.09477694706,1.760766455439551,0.6132246109472966,-1.2612894098995793, ,0.017747698065919353,-0.0037459212891362624,0.006490958239608803,0.014200700449541684,0.0029302426186022293,0.00790727939698527, ,1.0560529232025146
0.01141553290665353,0.02145640631760072,-0.08330409159287197, ,0.011687983317389643,0.02165086441949365,-0.08358650516545543, ,0.00043795046030508023, ,0.0026857537132133013,0.0019215811899887917,-0.005871682461644529,-0.00036262853978546214,-0.01148211447998709,-0.008645176616750377, ,0.006736646213669064, ,0.011487839022639596, ,4.685003495295473e-05, ,0.19738532953230425,-0.23887957326551254,0.09477694706,1.760766455439551,0.6132246109472966,-1.2612894098995793, ,0.017747698065919353,-0.0037459212891362624,0.006490958239608803,0.014200700449541684,0.0029302426186022293,0.00790727939698527, ,1.0620229244232178
0.011450640351800614,0.02148018274902455,-0.0833854762958085, ,0.011711155059634666,0.021665282140087498,-0.08363927287235978, ,0.0004080960669240572, ,0.0027805228962143476,0.001866390016017946,-0.006437715084512039,0.0006333987231675663,-0.00869388278892606,-0.007889936956201105, ,0.007256644870573283, ,0.008716924964260558, ,4.735771230032701e-05, ,0.19761701151853098,-0.23891046419700943,0.09486639107000001,1.760766455439551,0.6133612474470621,-1.2613191490631352, ,0.01781767584650221,-0.001601767193992817,0.0070512667197875165,0.012476368489002791,0.00640070428435651,0.004655519550090524, ,1.0687410831451416
0.011450640351800614,0.02148018274902455,-0.0833854762958085, ,0.011734430096872235,0.021679425998392662,-0.08369222484275092, ,0.00046295697735087985, ,0.0027805228962143476,0.001866390016017946,-0.006437715084512039,0.0006333987231675663,-0.00869388278892606,-0.007889936956201105, ,0.007256644870573283, ,0.008716924964260558, ,4.796315350872305e-05, ,0.19761701151853098,-0.23891046419700943,0.09486639107000001,1.760766455439551,0.6133612474470621,-1.2613191490631352, ,0.01781767584650221,-0.001601767193992817,0.0070512667197875165,0.012476368489002791,0.00640070428435651,0.004655519550090524, ,1.0743319988250732
0.011482785337709425,0.021502198257274004,-0.08345896012902511, ,0.01175780801710316,0.02169329760874669,-0.0837453598660654, ,0.00044066001144980356, ,0.0029673951459780966,0.001972660483820095,-0.007112052123130767,0.0014714638333900487,-0.012412019502118165,0.002500253163661532, ,0.0079547538452757, ,0.01249893658428548, ,4.85199462871914e-05, ,0.19781780257326081,-0.23893363239563212,0.09494676105000001,1.7609761453830355,0.6133612474470621,-1.261155791582854, ,0.018534558898138823,-0.0016335043055269677,0.007751246481751827,0.0,0.00640070428435651,0.0011324293505933715, ,1.0805299282073975
0.011482785337709425,0.021502198257274004,-0.08345896012902511, ,0.011781288409308427,0.021706898581614027,-0.08379867673447719, ,0.00049640072376945, ,0.0029673951459780966,0.001972660483820095,-0.007112052123130767,0.0014714638333900487,-0.012412019502118165,0.002500253163661532, ,0.0079547538452757, ,0.01249893658428548, ,4.9174500176944906e-05, ,0.197995425429368,-0.23894135512850634,0.09502842732000001,1.7611858353265202,0.6134978839468276,-1.2611038520062694, ,0.019438128135696595,-0.0016280037313688325,0.009736437359413203,0.01530078513885924,0.010151624149574911,0.00218220415567071, ,1.086122989654541
0.011514990392697096,0.02152508248769815,-0.08354096212203839, ,0.011804870863448183,0.021720230523589682,-0.08385217424289615, ,0.0004679384867736132, ,0.003450839833349508,0.0025528751210486477,-0.009111123930856684,0.003934862067798688,-0.0062661281958446835,-0.01065799745986473, ,0.010071645656124433, ,0.007399151253610174, ,4.9768962118026127e-05, ,0.197995425429368,-0.23894135512850634,0.09502842732000001,1.7611858353265202,0.6134978839468276,-1.2611038520062694, ,0.019438128135696595,-0.0016280037313688325,0.009736437359413203,0.01530078513885924,0.010151624149574911,0.00218220415567071, ,1.0915510654449463
0.011549955852903665,0.021551343297392486,-0.08363653693921409, ,0.011828554970460932,0.021733295037403115,-0.08390585118896512, ,0.00042808184861722946, ,0.0038470723881782365,0.0027855497434484187,-0.010370391552591156,0.0026092478817512804,-0.009350235820916415,-0.008253911745281714, ,0.011406326064389136, ,0.009707469519495457, ,5.0283307066851126e-05, ,0.19820393921697205,-0.23894907786138056,0.09513990826,1.7613955252700046,0.6136345204465931,-1.2610519124296846, ,0.021187082285883185,-0.0008029490348742649,0.01121747290140845,0.01233610225394991,0.009316816300471228,0.0020368921368798983, ,1.099289894104004
0.011549955852903665,0.021551343297392486,-0.08363653693921409, ,0.011852340322262199,0.021746093721921853,-0.08395970637305772, ,0.0004835313621001439, ,0.0038470723881782365,0.0027855497434484187,-0.010370391552591156,0.0026092478817512804,-0.009350235820916415,-0.008253911745281714, ,0.011406326064389136, ,0.009707469519495457, ,5.089373172905221e-05, ,0.19820393921697205,-0.23894907786138056,0.09513990826,1.7613955252700046,0.6136345204465931,-1.2610519124296846, ,0.021187082285883185,-0.0008029490348742649,0.01121747290140845,0.01233610225394991,0.009316816300471228,0.0020368921368798983, ,1.1057260036468506
0.011591650372623908,0.02158152232847165,-0.08374835853796529, ,0.011876226511743807,0.02175862817215532,-0.08401373859827625, ,0.0004275238417140514, ,0.004104733149481737,0.0029565380456495903,-0.010983503316155562,0.0001818578923061366,-0.004198410209913509,-0.003154806941482821, ,0.012092447913463509, ,0.004202328013937394, ,5.139526940519618e-05, ,0.1984510666689472,-0.238964523327129,0.09526175952,1.7613955252700046,0.6139077934461239,-1.2610297120166558, ,0.023396681843804435,-0.0009194056745861209,0.011922763113772456,0.010918798877299688,0.017329526711833347,0.005788833434098573, ,1.1123249530792236
0.011591650372623908,0.02158152232847165,-0.08374835853796529, ,0.011900213132772569,0.02177089997925874,-0.08406794667044859, ,0.0004829197096747641, ,0.004104733149481737,0.0029565380456495903,-0.010983503316155562,0.0001818578923061366,-0.004198410209913509,-0.003154806941482821, ,0.012092447913463509, ,0.004202328013937394, ,5.208641335222231e-05, ,0.1984510666689472,-0.238964523327129,0.09526175952,1.7613955252700046,0.6139077934461239,-1.2610297120166558, ,0.023396681843804435,-0.0009194056745861209,0.011922763113772456,0.010918798877299688,0.017329526711833347,0.005788833434098573, ,1.11611008644104
0.01163316504194551,0.021610114164466423,-0.08385724272936049, ,0.011924299780189322,0.02178291073053668,-0.0841223293981269, ,0.00042998724517785426, ,0.004121921444071358,0.0028445356241212616,-0.010538624438129236,-0.005460144290151337,-0.0015071620120320358,0.0019367723535189656, ,0.01166808571942823, ,0.00566432546795137, ,5.26766568639495e-05, ,0.19869047138804818,-0.23897224606000322,0.09537972191,1.7613955252700046,0.6140444299458894,-1.2609777724400713, ,0.024986029899544702,-0.000853423223728813,0.011492649004329005,0.009837557203573046,0.021986998404827866,0.01244722984122216, ,1.119884967803955
0.01163316504194551,0.021610114164466423,-0.08385724272936049, ,0.011948486049807987,0.02179466200944708,-0.08417688559258424, ,0.0004854449557841662, ,0.004121921444071358,0.0028445356241212616,-0.010538624438129236,-0.005460144290151337,-0.0015071620120320358,0.0019367723535189656, ,0.01166808571942823, ,0.00566432546795137, ,5.3362742860440955e-05, ,0.19869047138804818,-0.23897224606000322,0.09537972191,1.7613955252700046,0.6140444299458894,-1.2609777724400713, ,0.024986029899544702,-0.000853423223728813,0.011492649004329005,0.009837557203573046,0.021986998404827866,0.01244722984122216, ,1.123642921447754
0.01163316504194551,0.021610114164466423,-0.08385724272936049, ,0.011972771538414282,0.021806155395604907,-0.0842316140678128, ,0.0005421426341883264, ,0.004174865995368467,0.0026928685342107826,-0.010493331426190038,-0.0008982158136540137,-0.0056036701733387624,-0.001625926597401577, ,0.011609954842362392, ,0.005675190202634494, ,5.414586722818816e-05, ,0.19892987610714916,-0.23897996879287745,0.09548731398000002,1.7613955252700046,0.6141810664456548,-1.2609258328634863, ,0.025105010994304438,0.0006307321174736387,0.011369601370449681,0.008988460798264075,0.018390417489057245,0.005053444892879361, ,1.127363920211792
0.011674784804148887,0.021637173448806047,-0.08395975790309984, ,0.01199715584376501,0.02181739246478567,-0.0842865136405212, ,0.00049312401365338, ,0.004174865995368467,0.0026928685342107826,-0.010493331426190038,-0.0008982158136540137,-0.0056036701733387624,-0.001625926597401577, ,0.011609954842362392, ,0.005675190202634494, ,5.483553081097849e-05, ,0.19892987610714916,-0.23897996879287745,0.09548731398000002,1.7613955252700046,0.6141810664456548,-1.2609258328634863, ,0.025105010994304438,0.0006307321174736387,0.011369601370449681,0.008988460798264075,0.018390417489057245,0.005053444892879361, ,1.1313350200653076
0.011674784804148887,0.021637173448806047,-0.08395975790309984, ,0.012021638564586812,0.021828374788929815,-0.08434158313013251, ,0.0005501417886269018, ,0.004174865995368467,0.0026928685342107826,-0.010493331426190038,-0.0008982158136540137,-0.0056036701733387624,-0.001625926597401577, ,0.011609954842362392, ,0.005675190202634494, ,5.562208568063018e-05, ,0.19892987610714916,-0.23897996879287745,0.09548731398000002,1.7613955252700046,0.6141810664456548,-1.2609258328634863, ,0.025105010994304438,0.0006307321174736387,0.011369601370449681,0.008988460798264075,0.018390417489057245,0.005053444892879361, ,1.13509202003479
0.01171751360557094,0.021667101681343632,-0.08407147532790885, ,0.012046219300575095,0.02183910393614582,-0.08439682135878177, ,0.0004934392053637043, ,0.004574745653565356,0.003054432791074261,-0.012105279802015582,-0.015009654160583823,-0.007829141767662338,0.013149707110615146, ,0.013296452780914587, ,0.016928819182029795, ,5.630214801871282e-05, ,0.199200171757747,-0.23897996879287745,0.09561305411000001,1.761605215213489,0.6144543394451857,-1.260985311190598, ,0.026301813070529596,0.0005683269493476571,0.01309935157894737,-0.0001363525993368232,0.019119040540983418,0.018906947930234275, ,1.139664888381958
0.01171751360557094,0.021667101681343632,-0.08407147532790885, ,0.012070897652393102,0.021849581470714457,-0.08445222715131331, ,0.0005505915991940453, ,0.004574745653565356,0.003054432791074261,-0.012105279802015582,-0.015009654160583823,-0.007829141767662338,0.013149707110615146, ,0.013296452780914587, ,0.016928819182029795, ,5.707872125126001e-05, ,0.199200171757747,-0.23897996879287745,0.09561305411000001,1.761605215213489,0.6144543394451857,-1.260985311190598, ,0.026301813070529596,0.0005683269493476571,0.01309935157894737,-0.0001363525993368232,0.019119040540983418,0.018906947930234275, ,1.1437249183654785
0.01171751360557094,0.021667101681343632,-0.08407147532790885, ,0.01209567322167105,0.021859808953092204,-0.08450779933527829, ,0.0006087030698466115, ,0.004574745653565356,0.003054432791074261,-0.012105279802015582,-0.015009654160583823,-0.007829141767662338,0.013149707110615146, ,0.013296452780914587, ,0.016928819182029795, ,5.795247677660293e-05, ,0.19940096281247685,-0.23897224606000322,0.09570897957,1.761605215213489,0.6145909759449512,-1.261015050354154, ,0.02935259559494921,0.0005739369411598837,0.013887368369659986,-0.0001363525993368232,0.02518958858383189,-0.00047363299510647106, ,1.148961067199707
0.011751764063923071,0.021689171154258998,-0.08416010760316364, ,0.012120545611004395,0.021869787939915505,-0.08456353674093345, ,0.0005756538212591593, ,0.004938055320712045,0.0032411056670591035,-0.012795094408445595,0.003362564821386308,-0.005361975033693417,0.006498973553745389, ,0.01409267885167653, ,0.006329081726483349, ,5.8761893797212e-05, ,0.19940096281247685,-0.23897224606000322,0.09570897957,1.761605215213489,0.6145909759449512,-1.261015050354154, ,0.02935259559494921,0.0005739369411598837,0.013887368369659986,-0.0001363525993368232,0.02518958858383189,-0.00047363299510647106, ,1.1529948711395264
0.011751764063923071,0.021689171154258998,-0.08416010760316364, ,0.012145514423953573,0.021879519984004003,-0.08461943820123712, ,0.0006342370387607284, ,0.004938055320712045,0.0032411056670591035,-0.012795094408445595,0.003362564821386308,-0.005361975033693417,0.006498973553745389, ,0.01409267885167653, ,0.006329081726483349, ,5.9668408272942355e-05, ,0.19940096281247685,-0.23897224606000322,0.09570897957,1.761605215213489,0.6145909759449512,-1.261015050354154, ,0.02935259559494921,0.0005739369411598837,0.013887368369659986,-0.0001363525993368232,0.02518958858383189,-0.00047363299510647106, ,1.1567609310150146
0.011816560409726139,0.02173447630151722,-0.08433081418560559, ,0.012170579265042652,0.02188900663436449,-0.08467550255184825, ,0.0005177055567719305, ,0.005130928600932085,0.0034031051914938932,-0.013060596162630986,-0.01233388534457177,0.00126107990163545,0.004071000959265264, ,0.014439069408225962, ,0.01239817205009947, ,6.036485711949138e-05, ,0.19979482218906228,-0.23897224606000322,0.09589564533000002,1.7618149051569736,0.6151375219440128,-1.2611340070083774, ,0.03111375133064616,0.00043734345862136504,0.014234862841823058,0.01335487223101793,0.030320161810220427,0.020702039375404473, ,1.16048002243042
0.011816560409726139,0.02173447630151722,-0.08433081418560559, ,0.012195739739758241,0.021898249436194887,-0.084731728631123, ,0.0005756135827013381, ,0.005130928600932085,0.0034031051914938932,-0.013060596162630986,-0.01233388534457177,0.00126107990163545,0.004071000959265264, ,0.014439069408225962, ,0.01239817205009947, ,6.115733772656866e-05, ,0.19979482218906228,-0.23897224606000322,0.09589564533000002,1.7618149051569736,0.6151375219440128,-1.2611340070083774, ,0.03111375133064616,0.00043734345862136504,0.014234862841823058,0.01335487223101793,0.030320161810220427,0.020702039375404473, ,1.1641628742218018
0.011871548276760669,0.021767545035502385,-0.08446492824593928, ,0.01222099545454831,0.021907249930887888,-0.08478811528011301, ,0.0004960651639819483, ,0.005697537560436522,0.0035379935113880093,-0.013786783367913984,-0.017537718753561384,-0.02448277098536816,-0.0010126435113985836, ,0.015331494642499742, ,0.030116061430788883, ,6.180621010248674e-05, ,0.20012689970265393,-0.23895680059425478,0.09604082981,1.7618149051569736,0.6152741584437783,-1.2610820674317926, ,0.03378317606211135,0.0007009791248326147,0.014928595613870667,0.012650403894987665,0.0062829848454298365,0.022301931340036094, ,1.1679439544677734
0.011871548276760669,0.021767545035502385,-0.08446492824593928, ,0.012246346016821731,0.021916009656034536,-0.08484466134256323, ,0.0005538161375188078, ,0.005697537560436522,0.0035379935113880093,-0.013786783367913984,-0.017537718753561384,-0.02448277098536816,-0.0010126435113985836, ,0.015331494642499742, ,0.030116061430788883, ,6.2550507191265e-05, ,0.20012689970265393,-0.23895680059425478,0.09604082981,1.7618149051569736,0.6152741584437783,-1.2610820674317926, ,0.03378317606211135,0.0007009791248326147,0.014928595613870667,0.012650403894987665,0.0062829848454298365,0.022301931340036094, ,1.1717369556427002
0.011871548276760669,0.021767545035502385,-0.08446492824593928, ,0.012271791034946354,0.02192453014542837,-0.08490136566490847, ,0.0006126305664060897, ,0.005697537560436522,0.0035379935113880093,-0.013786783367913984,-0.017537718753561384,-0.02448277098536816,-0.0010126435113985836, ,0.015331494642499742, ,0.030116061430788883, ,6.339107538440907e-05, ,0.20012689970265393,-0.23895680059425478,0.09604082981,1.7618149051569736,0.6152741584437783,-1.2610820674317926, ,0.03378317606211135,0.0007009791248326147,0.014928595613870667,0.012650403894987665,0.0062829848454298365,0.022301931340036094, ,1.1754729747772217
0.011871548276760669,0.021767545035502385,-0.08446492824593928, ,0.012297330118248776,0.021932812929068943,-0.0849582270962725, ,0.0006722703391679649, ,0.005697537560436522,0.0035379935113880093,-0.013786783367913984,-0.017537718753561384,-0.02448277098536816,-0.0010126435113985836, ,0.015331494642499742, ,0.030116061430788883, ,6.443906034789196e-05, ,0.20046669994911984,-0.23894135512850634,0.09618471800000002,1.7618149051569736,0.6154107949435438,-1.2609484491150673, ,0.03590501004860794,0.001165615927743591,0.014942599924953096,0.011443515156726269,0.011918213378339187,0.03223624155569218, ,1.1776769161224365
0.011927029330821824,0.02180030257585924,-0.08459768959859294, ,0.012322962877012797,0.021940859533165425,-0.08501524448846415, ,0.0005923442557346927, ,0.005843816746291534,0.0034960428577801347,-0.013761801079906032,-0.026424086888901386,-0.021376599331961423,0.005768528575524822, ,0.015354467714335646, ,0.03398809899523695, ,6.534611394821292e-05, ,0.20046669994911984,-0.23894135512850634,0.09618471800000002,1.7618149051569736,0.6154107949435438,-1.2609484491150673, ,0.03590501004860794,0.001165615927743591,0.014942599924953096,0.011443515156726269,0.011918213378339187,0.03223624155569218, ,1.180501937866211
0.011927029330821824,0.02180030257585924,-0.08459768959859294, ,0.012348688922478597,0.021948671480140968,-0.08507241669597619, ,0.0006520551817015505, ,0.005843816746291534,0.0034960428577801347,-0.013761801079906032,-0.026424086888901386,-0.021376599331961423,0.005768528575524822, ,0.015354467714335646, ,0.03398809899523695, ,6.635247598552567e-05, ,0.20046669994911984,-0.23894135512850634,0.09618471800000002,1.7618149051569736,0.6154107949435438,-1.2609484491150673, ,0.03590501004860794,0.001165615927743591,0.014942599924953096,0.011443515156726269,0.011918213378339187,0.03223624155569218, ,1.1825580596923828
0.011927029330821824,0.02180030257585924,-0.08459768959859294, ,0.012374507866841664,0.02195625028863584,-0.0851297425759825, ,0.000712486561324361, ,0.005843816746291534,0.0034960428577801347,-0.013761801079906032,-0.026424086888901386,-0.021376599331961423,0.005768528575524822, ,0.015354467714335646, ,0.03398809899523695, ,6.745886996727025e-05, ,0.20046669994911984,-0.23894135512850634,0.09618471800000002,1.7618149051569736,0.6154107949435438,-1.2609484491150673, ,0.03590501004860794,0.001165615927743591,0.014942599924953096,0.011443515156726269,0.011918213378339187,0.03223624155569218, ,1.1846120357513428
0.011927029330821824,0.02180030257585924,-0.08459768959859294, ,0.012400419323251706,0.021963597473511575,-0.08518722098833555, ,0.0007735053768551946, ,0.005843816746291534,0.0034960428577801347,-0.013761801079906032,-0.026424086888901386,-0.021376599331961423,0.005768528575524822, ,0.015354467714335646, ,0.03398809899523695, ,6.866578707306157e-05, ,0.20046669994911984,-0.23894135512850634,0.09618471800000002,1.7618149051569736,0.6154107949435438,-1.2609484491150673, ,0.03590501004860794,0.001165615927743591,0.014942599924953096,0.011443515156726269,0.011918213378339187,0.03223624155569218, ,1.1866660118103027
0.011927029330821824,0.02180030257585924,-0.08459768959859294, ,0.012426422905811472,0.02197071454585464,-0.08524485079556428, ,0.0008350160460278756, ,0.005843816746291534,0.0034960428577801347,-0.013761801079906032,-0.026424086888901386,-0.021376599331961423,0.005768528575524822, ,0.015354467714335646, ,0.03398809899523695, ,0.00038321964003522335, ,0.20046669994911984,-0.23894135512850634,0.09618471800000002,1.7618149051569736,0.6154107949435438,-1.2609484491150673, ,0.03590501004860794,0.001165615927743591,0.014942599924953096,0.011443515156726269,0.011918213378339187,0.03223624155569218, ,1.1895289421081543
0.011927029330821824,0.02180030257585924,-0.08459768959859294, ,0.01245251822957608,0.021977603012980226,-0.08530263086287145, ,0.0008969482782188878, ,0.005843816746291534,0.0034960428577801347,-0.013761801079906032,-0.026424086888901386,-0.021376599331961423,0.005768528575524822, ,0.015354467714335646, ,0.03398809899523695, ,0.0003879763866850721, ,0.20046669994911984,-0.23894135512850634,0.09618471800000002,1.7618149051569736,0.6154107949435438,-1.2609484491150673, ,0.03590501004860794,0.001165615927743591,0.014942599924953096,0.011443515156726269,0.011918213378339187,0.03223624155569218, ,1.191565990447998
0.011989270707847768,0.021838276664629137,-0.08475170861507675, ,0.01247870491055171,0.021984264378435835,-0.08536056005813152, ,0.0007947064433291216, ,0.006149133822820236,0.003906020997478903,-0.015508573705316005,0.023658334108078178,0.02051125003045304,-0.0013813374269727799, ,0.017134313676856652, ,0.031311774996686685, ,0.00039170785509465056, ,0.20086828205857948,-0.23891818692988365,0.09635323570000001,1.7618149051569736,0.6159573409426056,-1.2613124419897126, ,0.039343673946298,0.002065856665663312,0.016999798847385277,0.01033364128135769,0.06042694892964418,-0.016846355444356358, ,1.1934959888458252
0.011989270707847768,0.021838276664629137,-0.08475170861507675, ,0.012504982565694427,0.02199070014200539,-0.08541863725188827, ,0.000856729504206777, ,0.006149133822820236,0.003906020997478903,-0.015508573705316005,0.023658334108078178,0.02051125003045304,-0.0013813374269727799, ,0.017134313676856652, ,0.031311774996686685, ,0.0003959353246320335, ,0.20086828205857948,-0.23891818692988365,0.09635323570000001,1.7618149051569736,0.6159573409426056,-1.2613124419897126, ,0.039343673946298,0.002065856665663312,0.016999798847385277,0.01033364128135769,0.06042694892964418,-0.016846355444356358, ,1.195410966873169
0.011989270707847768,0.021838276664629137,-0.08475170861507675, ,0.012531350812909648,0.02199691179971275,-0.08547686131735249, ,0.0009191639614370814, ,0.006149133822820236,0.003906020997478903,-0.015508573705316005,0.023658334108078178,0.02051125003045304,-0.0013813374269727799, ,0.017134313676856652, ,0.031311774996686685, ,0.00040064909613478166, ,0.20086828205857948,-0.23891818692988365,0.09635323570000001,1.7618149051569736,0.6159573409426056,-1.2613124419897126, ,0.039343673946298,0.002065856665663312,0.016999798847385277,0.01033364128135769,0.06042694892964418,-0.016846355444356358, ,1.1973180770874023
0.011989270707847768,0.021838276664629137,-0.08475170861507675, ,0.012557809271050352,0.022002900843825723,-0.08553523113039901, ,0.0009819596479700877, ,0.006149133822820236,0.003906020997478903,-0.015508573705316005,0.023658334108078178,0.02051125003045304,-0.0013813374269727799, ,0.017134313676856652, ,0.031311774996686685, ,0.00040583936891902544, ,0.20086828205857948,-0.23891818692988365,0.09635323570000001,1.7618149051569736,0.6159573409426056,-1.2613124419897126, ,0.039343673946298,0.002065856665663312,0.016999798847385277,0.01033364128135769,0.06042694892964418,-0.016846355444356358, ,1.1992120742797852
0.011989270707847768,0.021838276664629137,-0.08475170861507675, ,0.012584357559916645,0.022008668762859434,-0.08559374556956546, ,0.0010450780168816099, ,0.006149133822820236,0.003906020997478903,-0.015508573705316005,0.023658334108078178,0.02051125003045304,-0.0013813374269727799, ,0.017134313676856652, ,0.031311774996686685, ,0.00041149634810453507, ,0.20086828205857948,-0.23891818692988365,0.09635323570000001,1.7618149051569736,0.6159573409426056,-1.2613124419897126, ,0.039343673946298,0.002065856665663312,0.016999798847385277,0.01033364128135769,0.06042694892964418,-0.016846355444356358, ,1.2011709213256836
0.012095904799506833,0.02190469353667383,-0.08502558445609587, ,0.012610995300254717,0.02201421704158034,-0.08565240351604887, ,0.0008186670605368681, ,0.00862381519072184,0.00536229498507633,-0.022530730015289078,0.033962612860667284,-0.004051542708386556,-0.0037351236924458805, ,0.02471352243150595, ,0.03420333703969527, ,0.00041506802102060815, ,0.20151699162001435,-0.23885640506688985,0.09665138240000001,1.762024595100458,0.6167771599411982,-1.2615725557111883, ,0.05007754171950965,0.004883624825670632,0.024393279509954065,0.0007003366346505901,0.04858557215466579,-0.03518248320609761, ,1.2030880451202393
0.012095904799506833,0.02190469353667383,-0.08502558445609587, ,0.012637722113755119,0.022019547161010285,-0.08571120385370369, ,0.0008813803466259926, ,0.00862381519072184,0.00536229498507633,-0.022530730015289078,0.033962612860667284,-0.004051542708386556,-0.0037351236924458805, ,0.02471352243150595, ,0.03420333703969527, ,0.00041912291080848106, ,0.20151699162001435,-0.23885640506688985,0.09665138240000001,1.762024595100458,0.6167771599411982,-1.2615725557111883, ,0.05007754171950965,0.004883624825670632,0.024393279509954065,0.0007003366346505901,0.04858557215466579,-0.03518248320609761, ,1.2049870491027832
0.012095904799506833,0.02190469353667383,-0.08502558445609587, ,0.01266453762305263,0.02202466059842975,-0.0857701454690396, ,0.0009445138886833873, ,0.00862381519072184,0.00536229498507633,-0.022530730015289078,0.033962612860667284,-0.004051542708386556,-0.0037351236924458805, ,0.02471352243150595, ,0.03420333703969527, ,0.0004236521433763682, ,0.20151699162001435,-0.23885640506688985,0.09665138240000001,1.762024595100458,0.6167771599411982,-1.2615725557111883, ,0.05007754171950965,0.004883624825670632,0.024393279509954065,0.0007003366346505901,0.04858557215466579,-0.03518248320609761, ,1.2069180011749268
0.012095904799506833,0.02190469353667383,-0.08502558445609587, ,0.012691441451724579,0.02202955882738196,-0.08582922725121886, ,0.0010080163625216783, ,0.00862381519072184,0.00536229498507633,-0.022530730015289078,0.033962612860667284,-0.004051542708386556,-0.0037351236924458805, ,0.02471352243150595, ,0.03420333703969527, ,0.0004286467093519691, ,0.20151699162001435,-0.23885640506688985,0.09665138240000001,1.762024595100458,0.6167771599411982,-1.2615725557111883, ,0.05007754171950965,0.004883624825670632,0.024393279509954065,0.0007003366346505901,0.04858557215466579,-0.03518248320609761, ,1.2088379859924316
0.012095904799506833,0.02190469353667383,-0.08502558445609587, ,0.012718433224290119,0.022034243317676443,-0.08588844809205382, ,0.001071848142079627, ,0.00862381519072184,0.00536229498507633,-0.022530730015289078,0.033962612860667284,-0.004051542708386556,-0.0037351236924458805, ,0.02471352243150595, ,0.03420333703969527, ,0.00043409756895135607, ,0.20151699162001435,-0.23885640506688985,0.09665138240000001,1.762024595100458,0.6167771599411982,-1.2615725557111883, ,0.05007754171950965,0.004883624825670632,0.024393279509954065,0.0007003366346505901,0.04858557215466579,-0.03518248320609761, ,1.2107419967651367
0.012186490619151266,0.02196259507845005,-0.0852748997339836, ,0.01274551256620889,0.022038715535392977,-0.08594780688600516, ,0.0008781252168677688, ,0.010231767633962982,0.006567186449925968,-0.028599463695645554,0.03295020420978299,0.014148019906997511,0.002514158943345242, ,0.031076459426100198, ,0.035858936005887916, ,0.0004378288937237629, ,0.20202669198971318,-0.23878690047102183,0.09692101072,1.762024595100458,0.6174603424400255,-1.2621296452296704, ,0.0560856628596163,0.008694287993489449,0.030869789767441865,0.0008043578698577886,0.0739171249779614,-0.034266172031961036, ,1.212773084640503
0.012186490619151266,0.02196259507845005,-0.0852748997339836, ,0.012772679103880306,0.022042976942885425,-0.08600730253017905, ,0.0009415370622731471, ,0.010231767633962982,0.006567186449925968,-0.028599463695645554,0.03295020420978299,0.014148019906997511,0.002514158943345242, ,0.031076459426100198, ,0.035858936005887916, ,0.0004420264617950077, ,0.20202669198971318,-0.23878690047102183,0.09692101072,1.762024595100458,0.6174603424400255,-1.2621296452296704, ,0.0560856628596163,0.008694287993489449,0.030869789767441865,0.0008043578698577886,0.0739171249779614,-0.034266172031961036, ,1.2147250175476074
0.012186490619151266,0.02196259507845005,-0.0852748997339836, ,0.012799932464642203,0.02204702899878518,-0.08606693392432462, ,0.0010053646817805154, ,0.010231767633962982,0.006567186449925968,-0.028599463695645554,0.03295020420978299,0.014148019906997511,0.002514158943345242, ,0.031076459426100198, ,0.035858936005887916, ,0.000446682149563483, ,0.20202669198971318,-0.23878690047102183,0.09692101072,1.762024595100458,0.6174603424400255,-1.2621296452296704, ,0.0560856628596163,0.008694287993489449,0.030869789767441865,0.0008043578698577886,0.0739171249779614,-0.034266172031961036, ,1.2166550159454346
0.012186490619151266,0.02196259507845005,-0.0852748997339836, ,0.01282727227677007,0.022050873158005264,-0.08612669997083207, ,0.0010695596269333324, ,0.010231767633962982,0.006567186449925968,-0.028599463695645554,0.03295020420978299,0.014148019906997511,0.002514158943345242, ,0.031076459426100198, ,0.035858936005887916, ,0.00045178770265667844, ,0.20202669198971318,-0.23878690047102183,0.09692101072,1.762024595100458,0.6174603424400255,-1.2621296452296704, ,0.0560856628596163,0.008694287993489449,0.030869789767441865,0.0008043578698577886,0.0739171249779614,-0.034266172031961036, ,1.2185149192810059
0.012186490619151266,0.02196259507845005,-0.0852748997339836, ,0.012854698169475742,0.02205451087174397,-0.08618659957473015, ,0.0011340839664613844, ,0.010231767633962982,0.006567186449925968,-0.028599463695645554,0.03295020420978299,0.014148019906997511,0.002514158943345242, ,0.031076459426100198, ,0.035858936005887916, ,0.0004573348267526517, ,0.20202669198971318,-0.23878690047102183,0.09692101072,1.762024595100458,0.6174603424400255,-1.2621296452296704, ,0.0560856628596163,0.008694287993489449,0.030869789767441865,0.0008043578698577886,0.0739171249779614,-0.034266172031961036, ,1.2203700542449951
0.012186490619151266,0.02196259507845005,-0.0852748997339836, ,0.012882209772906768,0.022057943587488485,-0.0862466316436833, ,0.0011989075791764626, ,0.01186891140079669,0.007566079887962543,-0.03352374466660078,0.025016123894596214,-0.00033696826642554974,0.003265207635388733, ,0.031076459426100198, ,0.035858936005887916, ,0.0004633152521754243, ,0.20265995608539958,-0.23868650494365692,0.09728137934000002,1.7622342850439427,0.6181435249388526,-1.2625233772678714, ,0.06202414480945802,0.011096706209306632,0.03603803511312218,-0.0008917534172796464,0.06531577814675214,-0.029785374496560928, ,1.2226920127868652
0.01230594227076757,0.022040303734232127,-0.0856093673652283, ,0.012909806718144727,0.02206117274901899,-0.08630679508799007, ,0.000922763899955432, ,0.01186891140079669,0.007566079887962543,-0.03352374466660078,0.025016123894596214,-0.00033696826642554974,0.003265207635388733, ,0.036358741441123034, ,0.02501754706551263, ,0.0004669908413576644, ,0.20265995608539958,-0.23868650494365692,0.09728137934000002,1.7622342850439427,0.6181435249388526,-1.2625233772678714, ,0.06202414480945802,0.011096706209306632,0.03603803511312218,-0.0008917534172796464,0.06531577814675214,-0.029785374496560928, ,1.2250759601593018
0.01230594227076757,0.022040303734232127,-0.0856093673652283, ,0.012937488637204645,0.022064199796412252,-0.08636708882058022, ,0.0009866932849919622, ,0.01186891140079669,0.007566079887962543,-0.03352374466660078,0.025016123894596214,-0.00033696826642554974,0.003265207635388733, ,0.036358741441123034, ,0.02501754706551263, ,0.0004711154639261906, ,0.20265995608539958,-0.23868650494365692,0.09728137934000002,1.7622342850439427,0.6181435249388526,-1.2625233772678714, ,0.06202414480945802,0.011096706209306632,0.03603803511312218,-0.0008917534172796464,0.06531577814675214,-0.029785374496560928, ,1.227112054824829
0.01230594227076757,0.022040303734232127,-0.0856093673652283, ,0.012965255163033962,0.022067026166045174,-0.08642751175701271, ,0.0010510793614561039, ,0.01186891140079669,0.007566079887962543,-0.03352374466660078,0.025016123894596214,-0.00033696826642554974,0.003265207635388733, ,0.036358741441123034, ,0.02501754706551263, ,0.00047568210878863083, ,0.20319282465372107,-0.23857838668341777,0.09758471120000001,1.7622342850439427,0.6186900709379144,-1.262805691402376, ,0.06490898875408398,0.013548963671968986,0.03713009678321679,-0.0008917534172796464,0.07310162202841873,-0.028265457757505896, ,1.2334508895874023
0.01240701989562733,0.022102722035839097,-0.08589168738003664, ,0.012993105929511493,0.02206965329059902,-0.08648806281547279, ,0.0008368118313082619, ,0.012313927335177052,0.007605574267529125,-0.03454165436256178,0.022319130211641943,0.004230562136449383,0.00547936072345764, ,0.03745134780562116, ,0.022715458561163415, ,0.0004785034347458155, ,0.20319282465372107,-0.23857838668341777,0.09758471120000001,1.7622342850439427,0.6186900709379144,-1.262805691402376, ,0.06490898875408398,0.013548963671968986,0.03713009678321679,-0.0008917534172796464,0.07310162202841873,-0.028265457757505896, ,1.2355430126190186
0.01240701989562733,0.022102722035839097,-0.08589168738003664, ,0.013021040571445886,0.022072082599062737,-0.08654874091677031, ,0.0008998219354699476, ,0.012313927335177052,0.007605574267529125,-0.03454165436256178,0.022319130211641943,0.004230562136449383,0.00547936072345764, ,0.03745134780562116, ,0.022715458561163415, ,0.00048176946963514984, ,0.20319282465372107,-0.23857838668341777,0.09758471120000001,1.7622342850439427,0.6186900709379144,-1.262805691402376, ,0.06490898875408398,0.013548963671968986,0.03713009678321679,-0.0008917534172796464,0.07310162202841873,-0.028265457757505896, ,1.237617015838623
0.01240701989562733,0.022102722035839097,-0.08589168738003664, ,0.013049058724575052,0.022074315516737254,-0.08660954498433662, ,0.0009635041921317017, ,0.012313927335177052,0.007605574267529125,-0.03454165436256178,0.022319130211641943,0.004230562136449383,0.00547936072345764, ,0.03745134780562116, ,0.022715458561163415, ,0.00048547512134666175, ,0.20319282465372107,-0.23857838668341777,0.09758471120000001,1.7622342850439427,0.6186900709379144,-1.262805691402376, ,0.06490898875408398,0.013548963671968986,0.03713009678321679,-0.0008917534172796464,0.07310162202841873,-0.028265457757505896, ,1.2394979000091553
0.01240701989562733,0.022102722035839097,-0.08589168738003664, ,0.01307716002556539,0.022076353465238566,-0.08667047394422295, ,0.0010277604817398051, ,0.012313927335177052,0.007605574267529125,-0.03454165436256178,0.022319130211641943,0.004230562136449383,0.00547936072345764, ,0.03745134780562116, ,0.022715458561163415, ,0.0004896147042504262, ,0.20319282465372107,-0.23857838668341777,0.09758471120000001,1.7622342850439427,0.6186900709379144,-1.262805691402376, ,0.06490898875408398,0.013548963671968986,0.03713009678321679,-0.0008917534172796464,0.07310162202841873,-0.028265457757505896, ,1.2413890361785889
0.012546839294181626,0.022186492455734386,-0.08627345911884664, ,0.013105344112009755,0.022078197862502206,-0.08673152672509742, ,0.000730398030088303, ,0.012408620634088279,0.007001456877232906,-0.03233266293004483,0.056980411777980876,-0.006185219219888491,-0.012940831505324888, ,0.035332638687088865, ,0.057314822934394494, ,0.0004914388203552585, ,0.20394965247539507,-0.2384239320259333,0.09799563513000001,1.7622342850439427,0.6195098899365069,-1.2633108413442733, ,0.07008636747302126,0.014182774108275412,0.034855167439824954,-0.0008917534172796464,0.06816176004114223,-0.06805014765207101, ,1.2432498931884766
0.012546839294181626,0.022186492455734386,-0.08627345911884664, ,0.013133610622427641,0.02207985012278643,-0.08679270225824329, ,0.0007907506665432945, ,0.012408620634088279,0.007001456877232906,-0.03233266293004483,0.056980411777980876,-0.006185219219888491,-0.012940831505324888, ,0.035332638687088865, ,0.057314822934394494, ,0.0004936892853641912, ,0.20394965247539507,-0.2384239320259333,0.09799563513000001,1.7622342850439427,0.6195098899365069,-1.2633108413442733, ,0.07008636747302126,0.014182774108275412,0.034855167439824954,-0.0008917534172796464,0.06816176004114223,-0.06805014765207101, ,1.245128870010376
0.012546839294181626,0.022186492455734386,-0.08627345911884664, ,0.013161959196263041,0.02208131165667633,-0.08685399947755565, ,0.000852327755336601, ,0.012408620634088279,0.007001456877232906,-0.03233266293004483,0.056980411777980876,-0.006185219219888491,-0.012940831505324888, ,0.035332638687088865, ,0.057314822934394494, ,0.0004963656918565226, ,0.20394965247539507,-0.2384239320259333,0.09799563513000001,1.7622342850439427,0.6195098899365069,-1.2633108413442733, ,0.07008636747302126,0.014182774108275412,0.034855167439824954,-0.0008917534172796464,0.06816176004114223,-0.06805014765207101, ,1.2470729351043701
0.012546839294181626,0.022186492455734386,-0.08627345911884664, ,0.013190389473884038,0.022082583871087698,-0.08691541731954018, ,0.0009149121046286231, ,0.012408620634088279,0.007001456877232906,-0.03233266293004483,0.056980411777980876,-0.006185219219888491,-0.012940831505324888, ,0.035332638687088865, ,0.057314822934394494, ,0.0004994660356548345, ,0.20394965247539507,-0.2384239320259333,0.09799563513000001,1.7622342850439427,0.6195098899365069,-1.2633108413442733, ,0.07008636747302126,0.014182774108275412,0.034855167439824954,-0.0008917534172796464,0.06816176004114223,-0.06805014765207101, ,1.2489650249481201
0.012546839294181626,0.022186492455734386,-0.08627345911884664, ,0.01321890109658181,0.0220836681692702,-0.08697695472330985, ,0.0009783383697020763, ,0.012408620634088279,0.007001456877232906,-0.03233266293004483,0.056980411777980876,-0.006185219219888491,-0.012940831505324888, ,0.035332638687088865, ,0.057314822934394494, ,0.000502987155758123, ,0.20394965247539507,-0.2384239320259333,0.09799563513000001,1.7622342850439427,0.6195098899365069,-1.2633108413442733, ,0.07008636747302126,0.014182774108275412,0.034855167439824954,-0.0008917534172796464,0.06816176004114223,-0.06805014765207101, ,1.2508819103240967
0.012546839294181626,0.022186492455734386,-0.08627345911884664, ,0.013247493706569184,0.022084565950811878,-0.08703861063058317, ,0.0010424789944725869, ,0.012198817308993363,0.0046960467603421666,-0.027368152668787765,0.019173857661520376,-0.03555713670757485,-0.0024947743910056592, ,0.03032951993381351, ,0.04039717111701545, ,0.0005069250523910753, ,0.2046833120984464,-0.23821541823832923,0.09831711505000001,1.762024595100458,0.6200564359355687,-1.2636748342189186, ,0.07702673827797953,0.02516492748832426,0.029388951143911442,-0.009232018105626814,0.046349911265108464,-0.04333090983559145, ,1.2531108856201172
0.012669916695238568,0.022243215144305974,-0.08657281384640482, ,0.01327616694697961,0.02208527861164263,-0.08710038398568176, ,0.0008190320921322246, ,0.012198817308993363,0.0046960467603421666,-0.027368152668787765,0.019173857661520376,-0.03555713670757485,-0.0024947743910056592, ,0.03032951993381351, ,0.04039717111701545, ,0.0005091866976065909, ,0.2046833120984464,-0.23821541823832923,0.09831711505000001,1.762024595100458,0.6200564359355687,-1.2636748342189186, ,0.07702673827797953,0.02516492748832426,0.029388951143911442,-0.009232018105626814,0.046349911265108464,-0.04333090983559145, ,1.2550990581512451
0.012669916695238568,0.022243215144305974,-0.08657281384640482, ,0.013304920461866532,0.0220858075440378,-0.08716227373552697, ,0.0008806076862813467, ,0.012198817308993363,0.0046960467603421666,-0.027368152668787765,0.019173857661520376,-0.03555713670757485,-0.0024947743910056592, ,0.03032951993381351, ,0.04039717111701545, ,0.0005118587910502942, ,0.2046833120984464,-0.23821541823832923,0.09831711505000001,1.762024595100458,0.6200564359355687,-1.2636748342189186, ,0.07702673827797953,0.02516492748832426,0.029388951143911442,-0.009232018105626814,0.046349911265108464,-0.04333090983559145, ,1.2569880485534668
0.012669916695238568,0.022243215144305974,-0.08657281384640482, ,0.013333753896202064,0.022086154136622092,-0.08722427882963948, ,0.0009432680498663503, ,0.012198817308993363,0.0046960467603421666,-0.027368152668787765,0.019173857661520376,-0.03555713670757485,-0.0024947743910056592, ,0.03032951993381351, ,0.04039717111701545, ,0.0005149402857561231, ,0.2046833120984464,-0.23821541823832923,0.09831711505000001,1.762024595100458,0.6200564359355687,-1.2636748342189186, ,0.07702673827797953,0.02516492748832426,0.029388951143911442,-0.009232018105626814,0.046349911265108464,-0.04333090983559145, ,1.258903980255127
0.012669916695238568,0.022243215144305974,-0.08657281384640482, ,0.013362666895876138,0.02208631977437335,-0.08728639822013487, ,0.001006837452631454, ,0.012198817308993363,0.0046960467603421666,-0.027368152668787765,0.019173857661520376,-0.03555713670757485,-0.0024947743910056592, ,0.03032951993381351, ,0.04039717111701545, ,0.0005184289181453098, ,0.2046833120984464,-0.23821541823832923,0.09831711505000001,1.762024595100458,0.6200564359355687,-1.2636748342189186, ,0.07702673827797953,0.02516492748832426,0.029388951143911442,-0.009232018105626814,0.046349911265108464,-0.04333090983559145, ,1.2608649730682373
0.012791038589003576,0.02228385400635702,-0.08682453397927914, ,0.013391659107694638,0.02208630583862661,-0.08734863086172301, ,0.0008212477264709757, ,0.012242043791753957,0.003634674283274024,-0.02424922354322837,0.04693987859881488,-0.010404913927805402,-0.005664272657389629, ,0.027406264535579747, ,0.04807916442685463, ,0.0005205614449645047, ,0.20550964451598844,-0.23794512258773137,0.09858933595000001,1.762024595100458,0.620739618434396,-1.2642319237374007, ,0.08738208246636352,0.028931994377582555,0.02632861408264463,-0.009232018105626814,0.08395781199137389,-0.07233797496174195, ,1.2630670070648193
0.012791038589003576,0.02228385400635702,-0.08682453397927914, ,0.013420730179379777,0.02208611370707724,-0.08741097571170388, ,0.0008829080532417265, ,0.012242043791753957,0.003634674283274024,-0.02424922354322837,0.04693987859881488,-0.010404913927805402,-0.005664272657389629, ,0.027406264535579747, ,0.04807916442685463, ,0.0005230953373300797, ,0.20550964451598844,-0.23794512258773137,0.09858933595000001,1.762024595100458,0.620739618434396,-1.2642319237374007, ,0.08738208246636352,0.028931994377582555,0.02632861408264463,-0.009232018105626814,0.08395781199137389,-0.07233797496174195, ,1.2649989128112793
0.012791038589003576,0.02228385400635702,-0.08682453397927914, ,0.013449879759568044,0.02208574475378504,-0.08747343172996676, ,0.0009457204950897691, ,0.012242043791753957,0.003634674283274024,-0.02424922354322837,0.04693987859881488,-0.010404913927805402,-0.005664272657389629, ,0.027406264535579747, ,0.04807916442685463, ,0.0005260302342589664, ,0.20550964451598844,-0.23794512258773137,0.09858933595000001,1.762024595100458,0.620739618434396,-1.2642319237374007, ,0.08738208246636352,0.028931994377582555,0.02632861408264463,-0.009232018105626814,0.08395781199137389,-0.07233797496174195, ,1.26692795753479
0.012791038589003576,0.02228385400635702,-0.08682453397927914, ,0.013479107497809043,0.02208520034917837,-0.08753599787898758, ,0.0010094963988858717, ,0.012242043791753957,0.003634674283274024,-0.02424922354322837,0.04693987859881488,-0.010404913927805402,-0.005664272657389629, ,0.027406264535579747, ,0.04807916442685463, ,0.0005293644836701864, ,0.20550964451598844,-0.23794512258773137,0.09858933595000001,1.762024595100458,0.620739618434396,-1.2642319237374007, ,0.08738208246636352,0.028931994377582555,0.02632861408264463,-0.009232018105626814,0.08395781199137389,-0.07233797496174195, ,1.268862009048462
0.012791038589003576,0.02228385400635702,-0.08682453397927914, ,0.013508413044565269,0.02208448186005727,-0.08759867312382542, ,0.0010740888125902145, ,0.012242043791753957,0.003634674283274024,-0.02424922354322837,0.04693987859881488,-0.010404913927805402,-0.005664272657389629, ,0.027406264535579747, ,0.04807916442685463, ,0.0005330954722244332, ,0.20550964451598844,-0.23794512258773137,0.09858933595000001,1.762024595100458,0.620739618434396,-1.2642319237374007, ,0.08738208246636352,0.028931994377582555,0.02632861408264463,-0.009232018105626814,0.08395781199137389,-0.07233797496174195, ,1.2708690166473389
0.012791038589003576,0.02228385400635702,-0.08682453397927914, ,0.01353779605121039,0.02208359064959768,-0.08766145643212171, ,0.0011393819866463168, ,0.012242043791753957,0.003634674283274024,-0.02424922354322837,0.04693987859881488,-0.010404913927805402,-0.005664272657389629, ,0.027406264535579747, ,0.04807916442685463, ,0.000537219870281725, ,0.20550964451598844,-0.23794512258773137,0.09858933595000001,1.762024595100458,0.620739618434396,-1.2642319237374007, ,0.08738208246636352,0.028931994377582555,0.02632861408264463,-0.009232018105626814,0.08395781199137389,-0.07233797496174195, ,1.2741820812225342
0.012911524001425402,0.022315002022145675,-0.08705906906600791, ,0.013567256170028357,0.022082528077354932,-0.08772434677409659, ,0.0012052837543490345, ,0.012580264625702752,0.0029038065229898473,-0.023947214399099043,0.05887561770752784,0.005348007189190747,-0.008863437509098262, ,0.027051225591432942, ,0.0591179470710481, ,0.0005417338154443419, ,0.20639775879652425,-0.23761304507413972,0.09884470508000001,1.762024595100458,0.6218327104325195,-1.265123266966972, ,0.09321899956627777,0.03630334413101407,0.026027469803921573,-0.009067721528746473,0.1067654052210331,-0.0900008390687011, ,1.2769858837127686
0.012911524001425402,0.022315002022145675,-0.08705906906600791, ,0.013596793054212446,0.02208129549926788,-0.08778734312254757, ,0.0010269350101014267, ,0.012580264625702752,0.0029038065229898473,-0.023947214399099043,0.05887561770752784,0.005348007189190747,-0.008863437509098262, ,0.027205959417967288, ,0.0591179470710481, ,0.0005449901993011009, ,0.20639775879652425,-0.23761304507413972,0.09884470508000001,1.762024595100458,0.6218327104325195,-1.265123266966972, ,0.09321899956627777,0.03630334413101407,0.026027469803921573,-0.009067721528746473,0.1067654052210331,-0.0900008390687011, ,1.2789878845214844
0.012911524001425402,0.022315002022145675,-0.08705906906600791, ,0.01362640635786436,0.022079894267662183,-0.08785044445284614, ,0.001092065676898298, ,0.012580264625702752,0.0029038065229898473,-0.023947214399099043,0.05887561770752784,0.005348007189190747,-0.008863437509098262, ,0.027205959417967288, ,0.0591179470710481, ,0.0005486373691517488, ,0.20639775879652425,-0.23761304507413972,0.09884470508000001,1.762024595100458,0.6218327104325195,-1.265123266966972, ,0.09321899956627777,0.03630334413101407,0.026027469803921573,-0.009067721528746473,0.1067654052210331,-0.0900008390687011, ,1.2810180187225342
0.01305059936951911,0.022342074210078364,-0.08732080527728459, ,0.013656095735992553,0.022078325731254553,-0.08791364974293614, ,0.000887498546673793, ,0.0134843627279044,0.002486134104771693,-0.025094267278074196,0.030497419906530765,-0.02467510151205787,-0.004072480722700395, ,0.028595998866765112, ,0.039229367882380024, ,0.0005508814829101729, ,0.20639775879652425,-0.23761304507413972,0.09884470508000001,1.762024595100458,0.6218327104325195,-1.265123266966972, ,0.09321899956627777,0.03630334413101407,0.026027469803921573,-0.009067721528746473,0.1067654052210331,-0.0900008390687011, ,1.2832129001617432
0.01305059936951911,0.022342074210078364,-0.08732080527728459, ,0.013685860844511986,0.02207659123515625,-0.08797695797333153, ,0.0009510913269046776, ,0.0134843627279044,0.002486134104771693,-0.025094267278074196,0.030497419906530765,-0.02467510151205787,-0.004072480722700395, ,0.028595998866765112, ,0.039229367882380024, ,0.0005535144424101368, ,0.20741715953592188,-0.23718829476605738,0.09912729630000001,1.761605215213489,0.6227891659308775,-1.2658215135527062, ,0.09793286022546002,0.04317422272905859,0.02704382261460102,-0.01433144796066207,0.08123496547422714,-0.07118709600858981, ,1.2855958938598633
0.01305059936951911,0.022342074210078364,-0.08732080527728459, ,0.013715701340242694,0.022074692120876743,-0.08804036812711297, ,0.0010156891788039102, ,0.0134843627279044,0.002486134104771693,-0.025094267278074196,0.030497419906530765,-0.02467510151205787,-0.004072480722700395, ,0.028595998866765112, ,0.039229367882380024, ,0.0005565351923212073, ,0.20741715953592188,-0.23718829476605738,0.09912729630000001,1.761605215213489,0.6227891659308775,-1.2658215135527062, ,0.09793286022546002,0.04317422272905859,0.02704382261460102,-0.01433144796066207,0.08123496547422714,-0.07118709600858981, ,1.2875008583068848
0.01305059936951911,0.022342074210078364,-0.08732080527728459, ,0.013745616880908623,0.02207262972632787,-0.08810387918992654, ,0.001081135710085476, ,0.0134843627279044,0.002486134104771693,-0.025094267278074196,0.030497419906530765,-0.02467510151205787,-0.004072480722700395, ,0.028595998866765112, ,0.039229367882380024, ,0.0005599416891898064, ,0.20741715953592188,-0.23718829476605738,0.09912729630000001,1.761605215213489,0.6227891659308775,-1.2658215135527062, ,0.09793286022546002,0.04317422272905859,0.02704382261460102,-0.01433144796066207,0.08123496547422714,-0.07118709600858981, ,1.2894248962402344
0.01305059936951911,0.022342074210078364,-0.08732080527728459, ,0.013775607125136768,0.022070405385827302,-0.0881674901499809, ,0.0011473079226731113, ,0.0134843627279044,0.002486134104771693,-0.025094267278074196,0.030497419906530765,-0.02467510151205787,-0.004072480722700395, ,0.028595998866765112, ,0.039229367882380024, ,0.0005637311487606664, ,0.20741715953592188,-0.23718829476605738,0.09912729630000001,1.761605215213489,0.6227891659308775,-1.2658215135527062, ,0.09793286022546002,0.04317422272905859,0.02704382261460102,-0.01433144796066207,0.08123496547422714,-0.07118709600858981, ,1.2913169860839844
0.013186875032440235,0.02236609866833175,-0.08758630213280151, ,0.013805671732456067,0.02206802043010239,-0.08823119999804524, ,0.0009421535164994721, ,0.0134843627279044,0.002486134104771693,-0.025094267278074196,0.030497419906530765,-0.02467510151205787,0.00577938683721541, ,0.028595998866765112, ,0.039229367882380024, ,0.0005661569331692484, ,0.20839022387807418,-0.2367249307936039,0.0994124801,1.7611858353265202,0.6237456214292356,-1.2666014388785811, ,0.09442481747111521,0.05121259663166258,0.028242573617021278,-0.028586136264623748,0.10875329805662703,-0.09292780963471887, ,1.2934060096740723
0.013186875032440235,0.02236609866833175,-0.08758630213280151, ,0.01383581036329636,0.022065476186293925,-0.08829500772744614, ,0.0010068537928718982, ,0.013271165905612779,0.001962543014273911,-0.026355109297699384,0.043172809777653025,0.001533948485589701,0.00577938683721541, ,0.029573082451290988, ,0.043199904940024354, ,0.0005689639195367812, ,0.20839022387807418,-0.2367249307936039,0.0994124801,1.7611858353265202,0.6237456214292356,-1.2666014388785811, ,0.09442481747111521,0.05121259663166258,0.028242573617021278,-0.028586136264623748,0.10875329805662703,-0.09292780963471887, ,1.295440912246704
0.013186875032440235,0.02236609866833175,-0.08758630213280151, ,0.01386602267898736,0.022062773977959985,-0.08835891233406602, ,0.0010724616154891577, ,0.013271165905612779,0.001962543014273911,-0.026355109297699384,0.043172809777653025,0.001533948485589701,0.00577938683721541, ,0.029573082451290988, ,0.043199904940024354, ,0.0005721506138149608, ,0.20839022387807418,-0.2367249307936039,0.0994124801,1.7611858353265202,0.6237456214292356,-1.2666014388785811, ,0.09442481747111521,0.05121259663166258,0.028242573617021278,-0.028586136264623748,0.10875329805662703,-0.09292780963471887, ,1.2973299026489258
0.013186875032440235,0.02236609866833175,-0.08758630213280151, ,0.013896308341757743,0.02205991512507941,-0.08842291281634061, ,0.001138842139341318, ,0.013271165905612779,0.001962543014273911,-0.026355109297699384,0.043172809777653025,0.001533948485589701,0.00577938683721541, ,0.029573082451290988, ,0.043199904940024354, ,0.0005757147114597807, ,0.20839022387807418,-0.2367249307936039,0.0994124801,1.7611858353265202,0.6237456214292356,-1.2666014388785811, ,0.09442481747111521,0.05121259663166258,0.028242573617021278,-0.028586136264623748,0.10875329805662703,-0.09292780963471887, ,1.299272060394287
0.013186875032440235,0.02236609866833175,-0.08758630213280151, ,0.0139266670147336,0.022056900944056258,-0.08848700817525612, ,0.0012058883798581588, ,0.013271165905612779,0.001962543014273911,-0.026355109297699384,0.043172809777653025,0.001533948485589701,0.00577938683721541, ,0.029573082451290988, ,0.043199904940024354, ,0.0005796532968872705, ,0.20839022387807418,-0.2367249307936039,0.0994124801,1.7611858353265202,0.6237456214292356,-1.2666014388785811, ,0.09442481747111521,0.05121259663166258,0.028242573617021278,-0.028586136264623748,0.10875329805662703,-0.09292780963471887, ,1.3012008666992188
0.013326551457913307,0.022383553403240948,-0.08787032776506784, ,0.013957098361938074,0.022053732747722554,-0.0885511974143474, ,0.0009848627022544187, ,0.01423276169657459,0.0014703990340890045,-0.029423491263489185,0.0491578302176222,0.016618446491919927,0.02359634453934966, ,0.03271812062089684, ,0.05189068300128563, ,0.0005821701254920354, ,0.20937101095310068,-0.2361302803622886,0.09971581196000001,1.7609761453830355,0.6249753499271247,-1.2675225212717085, ,0.09968166130091469,0.06330683226048751,0.03135592818897638,-0.05185546377978308,0.13597319574999425,-0.113757653729811, ,1.3035190105438232
0.013326551457913307,0.022383553403240948,-0.08787032776506784, ,0.013987602048289796,0.022050411845343128,-0.08861547953969519, ,0.0010503439188503817, ,0.01423276169657459,0.0014703990340890045,-0.029423491263489185,0.0491578302176222,0.016618446491919927,0.02359634453934966, ,0.03271812062089684, ,0.05189068300128563, ,0.0005850600871794326, ,0.20937101095310068,-0.2361302803622886,0.09971581196000001,1.7609761453830355,0.6249753499271247,-1.2675225212717085, ,0.09968166130091469,0.06330683226048751,0.03135592818897638,-0.05185546377978308,0.13597319574999425,-0.113757653729811, ,1.3055338859558105
