NicholasDascanio/dvrk_moveit_final/test/execution/third_experiment_notsharpbends/thirdexp_600vel4.0/thirdexp_600vel4.0_6.csv
Current Position (x),Current Position (y),Current Position (z), ,Planned Position (x),Planned Position (y),Planned Position (z), ,Position Error,,Cartesian linear Velocity(x),Cartesian linear Velocity(y),Cartesian linear Velocity(z),Cartesian Angular Velocity(x),Cartesian Angular Velocity(y),Cartesian Angular Velocity(z), ,Total Linear Velocity, ,Total Angular Velocity, ,MSE, ,Joint 1 Position,Joint 2 Position,Joint 3 Position,Joint 4 Position,Joint 5 Position,Joint 6 Position, ,Joint 1 Velocity,Joint 2 Velocity,Joint 3 Velocity,Joint 4 Velocity,Joint 5 Velocity,Joint 6 Velocity, ,Time Stamp
0.009918980465308615,0.020197178023806252,-0.07914741007342807, ,0.009967430782264582,0.020092457950944533,-0.0791518069568583, ,0.00011546886791337535, ,-1.3769848958121806e-05,3.1628048847843863e-06,-7.76174394302686e-06,0.020651149410289237,-0.021762489931804314,-0.047022702928832656, ,1.6120072707832876e-05, ,0.030001265639935486, ,9.622405659447946e-06, ,0.16191481744099107,-0.16387639159104408,0.09243195845,2.7362440725295585,0.9750380623261831,-0.5907179529459764, ,-1.321485336895428e-05,-9.937832478065027e-05,6.61007869871626e-06,-0.0019918922003475587,0.0,-0.0573981912078394, ,0.020244121551513672
0.009921536502993291,0.020199421906814986,-0.07916864507596101, ,0.009996068294146464,0.020112902414504138,-0.07923262220615424, ,0.00013089569752282911, ,0.00016432989259419328,0.00019891654517867162,-0.0009451363518346669,0.13363964554500393,-0.1363681641194453,-0.313362190548608, ,0.0009797218121003436, ,0.19093410131954297, ,1.1198389338009295e-05, ,0.16191481744099107,-0.16388411432391833,0.09245140280000001,2.7360343825860736,0.9747647893266522,-0.5948240903660335, ,-2.008125711604504e-05,-0.00042498174879707226,0.0009818659631387538,0.0016494746346058275,0.0,-0.36549640561920116, ,0.03882908821105957
0.009936781492105681,0.02019899192740223,-0.07919994967420277, ,0.010024767087660398,0.020133110567409723,-0.07931344535538856, ,0.0001579971147439345, ,0.0011406710507282565,-0.0003800803390901559,-0.0025085964356385605,-0.1519629127144139,-0.0981392172630471,-0.1399223905603456, ,0.00278184248062878, ,0.18089785185444518, ,1.2636302505629343e-05, ,0.1619225401738653,-0.16388411432391833,0.09247084715000001,2.736873142360012,0.9729885148297014,-0.5991748481679599, ,0.0003392398290503334,-0.00038872288815131566,0.0010274493178271049,0.040835861357420296,-0.20424355063550928,-0.0668765370486708, ,0.059509992599487305
0.009954219369517613,0.020202454360097072,-0.07925078838767573, ,0.010053526866339507,0.020153083593954794,-0.07939427575848707, ,0.00018135070183723128, ,0.0006869312522852625,0.0007764164574608507,-0.004303949786286593,0.086280865004946,-0.07048416640335065,-0.14507846504559888, ,0.004427039735947562, ,0.11141097512408771, ,1.3945532905175482e-05, ,0.16196115383823642,-0.16389183705679256,0.09251232843000001,2.737292522246981,0.9714855133322816,-0.5982759661878615, ,0.001805221031407817,-0.00016133071927635818,0.004571989529276694,-0.017374515932204015,0.01989190457224317,-0.19517049538922837, ,0.07855916023254395
0.009969120232823824,0.020211182398091117,-0.07931007037375454, ,0.010082347334571256,0.020172822675924715,-0.07947511277117421, ,0.00020379116222456604, ,0.00035431460704032165,0.0002360474833018423,-0.001331314717359398,0.10286457525975702,-0.11302926968879891,-0.23128482935245387, ,0.00139773249650747, ,0.15282910930104013, ,1.5182760466191083e-05, ,0.16198432203685909,-0.16389955978966678,0.09253955052000001,2.737292522246981,0.9716221498320471,-0.6013278187366181, ,0.0028326583156280003,-0.0006039272993897282,0.0013870822835022737,-0.013201883204405311,0.0,-0.2867362142380272, ,0.09901905059814453
0.009981621108749898,0.020218892935226156,-0.07937125394782467, ,0.010111228197597244,0.020192328992599477,-0.07955595575097034, ,0.0002271968235090874, ,0.0007871328906172508,0.001026805351817817,-0.004179115142257233,0.064532032021408,0.018122964698864603,0.0032707490772163044, ,0.00437480408592852, ,0.06702853873547879, ,1.639839302824232e-05, ,0.1620538266327271,-0.16389955978966678,0.09263029082,2.7370828323034964,0.9706656943336889,-0.5980975312065262, ,0.005365683403444827,-0.000490327231314793,0.006854049707401034,0.0,0.027206163685684157,0.35922875670982574, ,0.11774301528930664
0.010006603420391379,0.020241652902348244,-0.07946737614380767, ,0.01014016916151214,0.02021160372075578,-0.07963680405719041, ,0.00021782694587388772, ,0.0011224863956584767,0.0009551063600989442,-0.004587889788601436,0.04596629492928117,-0.007930131187252953,-0.051846898150806266, ,0.004818810701811511, ,0.04664533468783391, ,1.714621268923488e-05, ,0.16213105396146935,-0.16391500525541522,0.0927365866,2.7377119021339498,0.9713488768325161,-0.5975111183630405, ,0.003808195482414678,0.00014219598729559325,0.005005911854179762,0.01743383246892966,0.028792993450653857,-0.04807782567987509, ,0.13749313354492188
0.010029789147546243,0.020255839424100995,-0.07954305057541741, ,0.010169169933261626,0.020230648034668664,-0.07971765705094301, ,0.00022483111622646993, ,0.0007383711341332809,0.0004509947061803343,-0.0030595206929674213,0.001463796500944044,-0.01904825272089604,0.019814552070509906, ,0.003179505469002971, ,0.019104413931006044, ,1.779705402257782e-05, ,0.16223144948883428,-0.163907282522541,0.09281695658000001,2.738131282020919,0.9714855133322816,-0.5980309299674398, ,0.006077414836994759,-0.0005279743492056924,0.003156095010897563,-0.03652653560823469,0.0,-0.018590970578189907, ,0.1562330722808838
0.010059909787531527,0.020275263194512026,-0.07966145288828874, ,0.010198230220642217,0.0202494631061139,-0.07979851409512642, ,0.00019642800512422178, ,0.0010694294734028078,0.0007564481113003427,-0.0040853132457954995,0.003685021274116427,-0.00348808843060343,-0.014928580752023723, ,0.0042901838492009434, ,0.005074065584168246, ,1.7997678641039165e-05, ,0.16237818141344454,-0.16391500525541522,0.09293880784000001,2.7379215920774347,0.9713488768325161,-0.5976744758433217, ,0.0039004040235215824,-0.0003284302379709288,0.00426245959860851,0.011856727600633108,0.0,-0.004036891532139214, ,0.1795351505279541
0.010088457537159996,0.02029315599658907,-0.07975126110455355, ,0.010227349732300238,0.020268050104370494,-0.07987937455442996, ,0.0001906158538375075, ,0.001205821637184609,0.0007272374613396596,-0.0035555487435277983,0.0037340690122451155,-0.0019943535356065755,-0.02000014248154686, ,0.0038242394032644493, ,0.004233286766208244, ,1.8101983223657946e-05, ,0.16249402240655791,-0.16392272798828944,0.09303343701000001,2.738550661907888,0.9713488768325161,-0.5977561545834622, ,0.005810863899085901,-0.0006392959583471823,0.003760342662889519,0.021400251256028634,0.0,0.000859123794198373, ,0.20212721824645996
0.010099796440628153,0.020299079277247806,-0.07978589710888023, ,0.010256528177730824,0.02028641019622303,-0.07996023779533011, ,0.00023477652774723411, ,0.0012065199048502098,0.0006611739114419943,-0.003212675065086681,0.003198432313822584,-0.0034738448041681034,-0.016800606711287896, ,0.003494870855382353, ,0.004722029928675554, ,1.8749358707750856e-05, ,0.16256352700242593,-0.16392272798828944,0.09306973313000001,2.738550661907888,0.9713488768325161,-0.5977561545834622, ,0.006782611521652952,-0.0006392959583471823,0.0034130729633597605,0.018162150195969777,0.0,0.0009139695799817027, ,0.21930909156799316
0.010138059906493057,0.020321552883766192,-0.07989845819797146, ,0.010285765267276452,0.020304544545963036,-0.08004110318608894, ,0.00020604307752024385, ,0.0010426358339748728,0.0007024809789385306,-0.0033401042760556774,0.0017851469944160263,0.0010805942746579407,-0.013715653067697937, ,0.0035688745541114686, ,0.0020867279080840537, ,1.9060182450671576e-05, ,0.16274887259140733,-0.1639458961869121,0.09318769552,2.7391797317383415,0.9712122403327507,-0.5972363429790629, ,0.004382895082758644,-0.0008730902096638485,0.0035264138853221163,0.01951305218163374,0.0,0.006035885929583096, ,0.24255919456481934
0.010149187474620285,0.020328297108604447,-0.07993425197242471, ,0.010315060712126563,0.0203224543153922,-0.08012197009675369, ,0.00025057167308960987, ,0.0011398207903701558,0.0007420673293914897,-0.0036850784147428196,0.0013961720142805667,7.273482382266381e-05,-0.012113553948193658, ,0.003928060371011845, ,0.0013980650802046372, ,1.967281835015658e-05, ,0.16279520898865266,-0.1639458961869121,0.09322528793000001,2.739389421681826,0.9712122403327507,-0.5972363429790629, ,0.005031413771147142,-0.0007108431981333255,0.003881289356725147,0.01769497813421461,0.0,0.0058693497341968034, ,0.2592470645904541
0.010170012325625,0.020341390137531952,-0.08000343621031526, ,0.010344414224315802,0.020340140663823524,-0.080202837899154, ,0.00026491247038077606, ,0.0013087067519365208,0.0007506713256379227,-0.0034393188046478894,0.0026257052683030507,0.001191070085315135,-0.021643920680756667, ,0.003755680316760709, ,0.002883223130957175, ,2.0309464040224454e-05, ,0.16291104998176603,-0.16396134165266057,0.09329788017000001,2.739389421681826,0.9712122403327507,-0.5969913067586413, ,0.00658762323231491,-0.0008324507069969597,0.0036668534806629837,0.029308864791262563,0.0,0.007931620734372757, ,0.27657318115234375
0.010196880981080871,0.020357868009338836,-0.08009649014541924, ,0.010373825516723879,0.020357604748084627,-0.08028370596690028, ,0.00025760279853531925, ,0.0012902485161598314,0.0009223168651482923,-0.00511715971744529,-0.0037253120705483594,-0.0009489620094904009,0.010333899550487458, ,0.00535730652539449, ,0.0038442782690305435, ,2.081842745636935e-05, ,0.16303461370775363,-0.16396134165266057,0.09339510192000001,2.739599111625311,0.9712122403327507,-0.5967462705382196, ,0.005484440326751679,-0.0006534264459335549,0.005327361712374582,0.0,0.0,0.012011526157631926, ,0.2935020923614502
0.01022510933167785,0.020376099115620713,-0.0801845510729346, ,0.010403294303073836,0.02037484772251902,-0.0803645736753826, ,0.00025329742874383377, ,0.0019155139253579875,0.0011860780255516768,-0.00564995281859358,0.002860207964180553,0.010995598992549642,-0.04264166558229286, ,0.006082593323021889, ,0.01136151314948634, ,2.124106580019313e-05, ,0.1631272865022443,-0.16397678711840902,0.09348713851000001,2.7404378713992488,0.9710756038329852,-0.5962264589338204, ,0.00675952512682529,-0.0003812189367719259,0.00598377592787378,0.06166412058993993,0.0,0.020346987400729138, ,0.3135190010070801
0.010246194307742738,0.02039045037568821,-0.08026143012751771, ,0.010432820297931127,0.020391870738988564,-0.08044544040176793, ,0.00026208979124594324, ,0.001196872584698715,0.0008771545342422973,-0.005411344387301491,-0.011026945509436843,-0.0038695058818234585,0.04497021629533307, ,0.005611109706548657, ,0.01168617124628385, ,2.1670885188339827e-05, ,0.16321223656386077,-0.16398450985128324,0.09356750849,2.7406475613427332,0.9710756038329852,-0.5962264589338204, ,0.006249982842886069,-0.0006172686117064218,0.005589056673684211,-0.029453526814051816,0.0,0.019022442117935783, ,0.33002805709838867
0.010270262165876782,0.020405070943926067,-0.08034725371236105, ,0.010462403216703256,0.02040867494687614,-0.08052630552499986, ,0.00026266085330556424, ,0.0013639237438163106,0.0007773776782338221,-0.00428333095364379,-0.001922902270972329,-0.005472542526561524,0.005826421101250617, ,0.004561965376019981, ,0.00580054078573063, ,2.205952246771055e-05, ,0.16335124575559684,-0.16399223258415746,0.09365695250000002,2.7404378713992488,0.9710756038329852,-0.5960631014535392, ,0.008019616033313462,-0.0005358568593754085,0.004495854225232854,0.0,0.0,0.006740721656915533, ,0.35013508796691895
0.010305239356687023,0.020423976708609952,-0.08044635221920259, ,0.01049204277563756,0.020425261493087037,-0.08060716842579575, ,0.0002464934488090476, ,0.0013794401022808672,0.0008001758345404838,-0.004074776075135614,-0.002548191781736474,0.0010994255797715903,-0.009886802219576264, ,0.004375721246201683, ,0.0027752507704000315, ,2.232158665677969e-05, ,0.16352114587882977,-0.16399995531703168,0.09376065570000001,2.741066941229702,0.9709389673332198,-0.59554328984914, ,0.0067267172070432715,-0.0005466648552096436,0.004288856090468499,0.021497674519588134,-0.0018848645660413524,0.013332901034483337, ,0.3678250312805176
0.010320365458327617,0.020432201631308423,-0.08049064646438693, ,0.010521738691821747,0.020441631522051914,-0.08068802848664508, ,0.00028213430262559734, ,0.0016349380199227395,0.0009045153536185564,-0.004480266703997803,-0.0051898559233752774,0.006901554485429393,-0.011598606282843003, ,0.004854272354624525, ,0.00863516398313135, ,2.2744711775084792e-05, ,0.163598373207572,-0.16399995531703168,0.09380732214000001,2.741276631173187,0.9709389673332198,-0.5952982536287184, ,0.007906293639488934,-0.00046635736687338116,0.00473789753718025,0.034475432859037584,-0.0018659766111397416,0.026170546562138634, ,0.385587215423584
0.010351344031930755,0.020449133191640146,-0.08058975459456393, ,0.01055149068318127,0.020457786175728285,-0.08076888509180866, ,0.00026874019272071976, ,0.0018286076833904557,0.0010060418424060152,-0.005400343524125387,-0.006630375745278154,0.001713275363303836,0.0009348022043096729, ,0.005789614531813782, ,0.00684815233482476, ,2.3178624267684998e-05, ,0.16386866885816986,-0.16399995531703168,0.09396028436000001,2.741276631173187,0.9709389673332198,-0.5948081811878749, ,0.008957003339947086,-0.00032645701130140463,0.004695993962264151,0.015141775041600776,-0.0016401219239721532,0.022992918698228573, ,0.4060242176055908
0.010382494632917624,0.020466028113692542,-0.08068079224101972, ,0.01058129846847953,0.020473726593603407,-0.08084973762731604, ,0.00026100723204132843, ,0.0013788264636192048,0.0006804654404884288,-0.004011126888752537,-0.012034060094121956,0.001802323231686399,0.024531076715599943, ,0.004295734459920604, ,0.012168277213397678, ,2.354198118066504e-05, ,0.1639458961869121,-0.1640076780499059,0.09400435822000001,2.741486321116671,0.9709389673332198,-0.5947265024477344, ,0.008307883604675341,0.0,0.004237513040702316,0.0,-0.0015741985919982908,0.029937563445851266, ,0.421673059463501
0.0103993137067783,0.020473540566732933,-0.08072067222623472, ,0.010611161767316257,0.020489453912695983,-0.0809305854809641, ,0.0002986576800360511, ,0.0017355691041936552,0.0008660404748874523,-0.004465697134443817,-0.010708118229229185,0.009254548753776985,-0.006317726574287435, ,0.004868744922067141, ,0.014153108028668888, ,2.4052730396362867e-05, ,0.16403856898140282,-0.1640076780499059,0.09404843208000001,2.7419057010036405,0.9708023308334544,-0.5943700483236163, ,0.009170912485567154,0.0,0.004721046686425608,0.02720166949478481,-0.0008080374419781075,0.023883942805592362, ,0.438366174697876
0.01043623115422683,0.020492696543377938,-0.08081306995211568, ,0.010641080300126449,0.020504969267558334,-0.08101142804231509, ,0.00028541149991226686, ,0.001530193006465657,0.0008116977016246578,-0.005104433407731478,-0.013722348682223053,-0.006069120386115706,0.04726346457139733, ,0.005390323200868789, ,0.015004568376077965, ,2.446786279252967e-05, ,0.16424708276900687,-0.16402312351565437,0.09414695012,2.742534770834094,0.9708023308334544,-0.5940433333630541, ,0.010584856565329662,-0.00031128051878028814,0.005313145937291528,-0.027252877717396123,-0.0008080374419781075,0.024505039484408773, ,0.4536900520324707
0.010469048066837123,0.02051029665795029,-0.08091980971215429, ,0.010671053788179544,0.02052027379027883,-0.08109226470269572, ,0.0002657942406961025, ,0.0017862335356258318,0.0009458668093503943,-0.005223029717773688,-0.005106715058505242,-0.002663025436576141,0.005282794144865191, ,0.005600476202750276, ,0.0057593610129626485, ,2.4769808216477365e-05, ,0.1644478738237367,-0.16402312351565437,0.09425843106000001,2.7423250808906094,0.9708023308334544,-0.5935532609222107, ,0.010313059524011181,-0.00030517412170559625,0.005492693627586208,0.009321622898300706,-0.0008080374419781075,0.01700978885041468, ,0.4700460433959961
0.010481767912322654,0.020518123640501453,-0.08096182069971405, ,0.010701081953578818,0.020535368610484266,-0.08117309485519444, ,0.000305012797200003, ,0.0016534979674168145,0.0009689551839199943,-0.005431112175966696,0.0019480188866314422,-0.00850320148690296,-0.010687791138418114, ,0.005759332352333096, ,0.008723486022461664, ,2.52150345975948e-05, ,0.16451737841960473,-0.1640308462485286,0.09430250492000002,2.7423250808906094,0.9708023308334544,-0.5932265459616485, ,0.008376858218973887,-0.00024725562405835067,0.005682772572244025,0.008182482349535196,-0.0008080374419781075,-0.0030455340912055456, ,0.48812198638916016
0.01053110497108554,0.020543183501732353,-0.08108868427901753, ,0.01073116451925947,0.020550254855341513,-0.08125391789466023, ,0.00025956882439111197, ,0.001969780324792166,0.0009100620730204895,-0.004360996935478085,-0.0031391652725963792,0.003779608052686468,-0.016160785251737295, ,0.0048709898148053985, ,0.004913226441276084, ,2.5448294870217193e-05, ,0.1647876740702026,-0.16403856898140282,0.09443731908000001,2.7431638406645473,0.9708023308334544,-0.5930631884813673, ,0.011742024712820286,-0.0004707053610100846,0.00467531890813032,0.03851717601071643,-0.0007677107073714053,0.025156513652636395, ,0.5035262107849121
0.010548682815941358,0.020550804481658604,-0.08113279769559316, ,0.01076130120898825,0.02056493364956012,-0.081334733217701, ,0.0002935714044936921, ,0.001913172541452912,0.0008994776548138046,-0.004406509815572785,-0.0018738979512747155,0.0009116148646575234,-0.015705078351014826, ,0.0048873937819269315, ,0.00208387464398846, ,2.579979895432639e-05, ,0.16491123779619019,-0.16403856898140282,0.09448398552000001,2.7431638406645473,0.9708023308334544,-0.5928181522609456, ,0.011434877908025387,-0.0004707053610100846,0.004709879219396807,0.032843449305334865,-0.0007501341149550468,0.019200230068809405, ,0.5187520980834961
0.010586351982353873,0.02057024789599533,-0.08124245043790342, ,0.010791491747362098,0.020579406115394314,-0.08141554022268159, ,0.00026856334404520745, ,0.0017457636879860232,0.0009612647670422154,-0.005371727659497066,-0.015309948214967934,0.006945424502405771,0.032538010083899005, ,0.005729500750890353, ,0.016811705189864492, ,2.6035272258911983e-05, ,0.16512747431666847,-0.16403856898140282,0.09459935533000001,2.7433735306080322,0.9708023308334544,-0.5924097585602428, ,0.009865925605872997,-0.00037712731914355614,0.005636522123142251,0.004301953297507524,-0.0007140818522044245,0.043259834012283366, ,0.5350711345672607
0.010626249207155542,0.020589754964027783,-0.08134473260336308, ,0.010821735859807695,0.02059367337264535,-0.08149633830972232, ,0.0002474159968391695, ,0.002037485818611645,0.0011382392113622993,-0.005174654728148742,-0.009241244792878214,0.017686238004914808,-0.00964845299066653, ,0.005676617700609965, ,0.01995503987412979, ,2.61791465926174e-05, ,0.1653282653713983,-0.16403856898140282,0.0947069474,2.74421229038197,0.9706656943336889,-0.5918899469558435, ,0.00958571025787142,-0.001046556727090798,0.0055250820395421445,0.053480745189675334,-0.0009268460994423786,0.04984904630338485, ,0.5516490936279297
0.010647142979923262,0.020600271395398634,-0.08139841142719477, ,0.01085203327257957,0.02060773653866354,-0.08157712688069696, ,0.0002719834070476481, ,0.0016201095046962126,0.0008662901061549,-0.005094936975568859,-0.01759059591493518,-0.003649310364665058,0.059557410381305166, ,0.0054160498650074876, ,0.017965147573761418, ,2.6497173047453697e-05, ,0.16543638363163746,-0.16403856898140282,0.09476398416000001,2.744631670268939,0.9706656943336889,-0.5917265894755623, ,0.0117822016564784,-0.001046556727090798,0.0053291440347942465,-0.030254102349682805,-0.0009268460994423786,0.03542079904748157, ,0.5659830570220947
0.01066542416470673,0.020609162538645934,-0.08145015635684608, ,0.010882383712759605,0.020621596728350414,-0.08165790533923162, ,0.00030064213651306897, ,0.0017506798520962926,0.0009555678833984712,-0.00556550276801418,-0.010957930721130195,-0.0081761166427195,0.039123024918943726, ,0.0059120902382399435, ,0.01367205630856896, ,2.6899837121512766e-05, ,0.1655522246247508,-0.16403856898140282,0.09481842834000001,2.744631670268939,0.9706656943336889,-0.5915632319952813, ,0.011750488058255421,-0.0008881216620907005,0.00582193403508772,-0.02266041897609967,-0.0009268460994423786,0.02012402095601089, ,0.5788891315460205
0.01068374836645693,0.020618934103127387,-0.08150704167522499, ,0.010912786908256141,0.020635255054161125,-0.08173867309070211, ,0.00032615661837235346, ,0.0019477689395945887,0.0009033403315093932,-0.00554175349726423,-0.01507481445953185,0.0017161202549502291,0.03183387168333443, ,0.005943135487351878, ,0.015172181599623679, ,2.7370341416808887e-05, ,0.16582252027534866,-0.16404629171427704,0.0949532425,2.744631670268939,0.9706656943336889,-0.591236517034719, ,0.010839378614593982,0.0004056302717639723,0.005961381556886228,0.005226918928744999,-0.0009268460994423786,0.018324622374211594, ,0.5949921607971191
0.010714843753026004,0.02063477757328676,-0.08159562105952768, ,0.010943242587802665,0.020648712626106628,-0.08181942954223298, ,0.000320078818973197, ,0.0018859871318612949,0.0009850732830160513,-0.005884751287914479,-0.007487540048734684,-0.0024191127648964814,0.011310296731685222, ,0.006257604538085604, ,0.00786863110670202, ,2.779862951366067e-05, ,0.16585341120684557,-0.16404629171427704,0.09497139056000001,2.744631670268939,0.9706656943336889,-0.5911548382945785, ,0.010341121272763196,0.00038769240974958,0.0061548730757341585,0.005226918928744999,-0.0009268460994423786,0.01957932969098705, ,0.6097161769866943
0.010751068411609603,0.020653902362699726,-0.08169209006262437, ,0.010973750480956695,0.020661970551755417,-0.08190017410269582, ,0.00030487926694971524, ,0.0021215937729391946,0.0010536563280161872,-0.0053555174777629565,0.0006412358582658043,0.005443189358212391,-0.035957892206553016, ,0.0058560156462877915, ,0.00548082926295472, ,2.8157876615791256e-05, ,0.1660233113300785,-0.16404629171427704,0.09507379747000001,2.7454704300428774,0.9706656943336889,-0.5908281233340162, ,0.010149429542420747,0.00030517434814262016,0.005690893719185424,0.0533675384452127,-0.0009232682118128044,0.019059658945081687, ,0.6227631568908691
0.010790489005124764,0.020673553258496923,-0.08180679591478786, ,0.011004310318099324,0.020675029936236496,-0.08198090618270716, ,0.0002757464775010608, ,0.0020012578965536362,0.0010159373234967445,-0.005940601045850099,-0.011239884430277665,-0.0012455109057567578,0.023998597046604814, ,0.006350425387306531, ,0.011308682152387013, ,2.8408326746971263e-05, ,0.16613142959031765,-0.16404629171427704,0.09513342681,2.745680119986362,0.9706656943336889,-0.5905830871135945, ,0.011585723620770424,0.0002713796294998293,0.00605428031927024,-0.03449800951797442,-0.0009007209060160858,-0.002170653345173256, ,0.6361851692199707
0.010809585260557437,0.02068268962459663,-0.08186775812406481, ,0.011034921830433378,0.020687891882240784,-0.08206162519462697, ,0.00029730131896176, ,0.002066803105579054,0.0010923876396441688,-0.006131662520975635,-0.008570158602984154,-0.003200152291153488,0.01786451793322696, ,0.006562184933664691, ,0.009148146506229048, ,2.8715002858288898e-05, ,0.16637083430941862,-0.1640308462485286,0.09525787065,2.7454704300428774,0.9706656943336889,-0.5904197296333135, ,0.012189716320933948,-0.00044658901609736135,0.006443693980582525,0.002182781418958392,-0.0008584367348369312,0.023624521035876263, ,0.652642011642456
0.010856881947054425,0.020707738512100962,-0.08199481791801863, ,0.011065584749983093,0.020700557490023707,-0.08214233055255636, ,0.0002556724552559747, ,0.0024063269690720005,0.0012184055078517798,-0.006409655839254972,0.00019597587114633707,0.0009331491633716455,-0.028378429028799005, ,0.006954035478867084, ,0.0009535004376038312, ,2.8881671868191196e-05, ,0.16661023902851957,-0.16403856898140282,0.09539268481,2.7463091898168153,0.9706656943336889,-0.5900930146727511, ,0.012179331558775725,0.00013645695877878152,0.006786881772475501,0.04352135588240023,-0.0008196465045440417,0.016647096077567928, ,0.6659040451049805
0.010877838291504571,0.02071853490032982,-0.0820577944922231, ,0.01109629880959293,0.020713027857407678,-0.08222302167233743, ,0.0002739623086004967, ,0.002345525988834563,0.0011667515641346164,-0.006154149034589391,-0.0003995436525749559,0.0006191778068165982,-0.025248412637556616, ,0.006688523881743001, ,0.0007368903983768453, ,2.90959721831857e-05, ,0.16673380275450717,-0.16403856898140282,0.09545879560000001,2.7463091898168153,0.9706656943336889,-0.5900113359326106, ,0.012187431758728592,0.00013645695877878152,0.006520184821940238,0.040662976437010515,-0.0008012483736005705,0.01705278866982465, ,0.6810541152954102
0.01089690178032952,0.020728061125237646,-0.08211328454430704, ,0.011127063742926,0.0207253040797834,-0.08230369797154956, ,0.0002987296496836936, ,0.0022149904197518683,0.0010432606827387588,-0.005584453088694799,-0.0017095054217847968,-0.0014835406703110157,-0.016572060193220925, ,0.006097597208046296, ,0.00226346996363668, ,2.9373919096640065e-05, ,0.16684964374762054,-0.16403856898140282,0.09551712865,2.7463091898168153,0.9706656943336889,-0.5898479784523295, ,0.01254586747203474,0.0001278743039054118,0.0059236933878765346,0.031256042307722165,-0.000785033986680737,0.016488214146429862, ,0.6977071762084961
0.010945983341556486,0.020749997792091364,-0.08223684533260363, ,0.011157879284464085,0.02073738725011307,-0.08238435886950926, ,0.0002584940230645507, ,0.001954003574248348,0.0008897299857282593,-0.004986356356608594,-0.002406990699746727,-0.0057745469278431775,-0.004928236611785296, ,0.005428950094702498, ,0.006256116476531959, ,2.9610271132515666e-05, ,0.16715083032971528,-0.1640308462485286,0.09564805394,2.7467285697037847,0.9706656943336889,-0.5896846209720484, ,0.012006704438526278,0.00012646349745835348,0.005276187982775754,0.014452032218705254,-0.0007458133079118038,0.010948187520080942, ,0.7093040943145752
0.010968909749613074,0.02075962168148493,-0.08228104732395318, ,0.011188745169505649,0.02074927845893191,-0.08246500378726807, ,0.0002868354484498857, ,0.0022599050783123457,0.0009244836851989128,-0.004159859482827528,0.006028281124446098,0.0032750812115646885,-0.05712271419985597, ,0.00482351240944304, ,0.006860490435242584, ,2.9918671758659146e-05, ,0.1672821167885771,-0.1640308462485286,0.09569601667000001,2.747357639534238,0.9706656943336889,-0.5894395847516266, ,0.012669818632639624,0.00012646349745835348,0.004526516487638534,0.06968747828021939,-0.0007304249543317821,0.012752574490127074, ,0.7214372158050537
0.010989653631196621,0.020768685634033078,-0.08232970722231704, ,0.011219661134164735,0.020760978794350193,-0.08254563214760977, ,0.0003155731613464507, ,0.0024163656253945254,0.0010688922955546646,-0.005190703179080339,0.0013007048367319534,0.004475392904831834,-0.04039570972536906, ,0.005824495949728108, ,0.004660576247283461, ,3.0296619344199413e-05, ,0.16741340324743892,-0.1640308462485286,0.09574786827000001,2.747567329477723,0.9706656943336889,-0.5892762272713455, ,0.013240817853839931,0.00012646349745835348,0.005577314957983194,0.0601484455157733,-0.0007151243511503674,0.021502697098457323, ,0.7336940765380859
0.011013038498503889,0.020779904886580415,-0.08239492558947836, ,0.011250626915372042,0.02077248934205685,-0.08262624337505038, ,0.0003316793090508343, ,0.002605544072055887,0.0012316082223010152,-0.006558322639398838,-0.0055831916818351625,0.0028742645236341153,-0.0111393309132665, ,0.007163610442166462, ,0.006279602995019297, ,3.070618107366837e-05, ,0.16756013517204918,-0.1640308462485286,0.09581657164000001,2.747567329477723,0.9706656943336889,-0.5890311910509238, ,0.014581582906956173,0.00012646349745835348,0.006961893146853148,0.03784940971900262,-0.0007005447357676087,0.030392445370669624, ,0.7451341152191162
0.01103751013721244,0.02079218255917937,-0.08246644359413063, ,0.011281642250870045,0.020783811185319186,-0.08270683689583518, ,0.00034272366175046575, ,0.002588058629739187,0.0013384767023003536,-0.007394267621580366,-0.009858191784201713,0.005015431258855563,0.004856909451569486, ,0.007947626124392117, ,0.011060672396475521, ,3.113222025460508e-05, ,0.16770686709665944,-0.1640308462485286,0.09589175646,2.747567329477723,0.9706656943336889,-0.5889495123107833, ,0.013518082843087005,0.00012646349745835348,0.007792960626223093,0.027694898577709768,-0.0006866214884027995,0.03758374638509663, ,0.7562592029571533
0.011062813151117252,0.020805048813349908,-0.08254172797460427, ,0.011312706879216016,0.020794945404987757,-0.0827874121379378, ,0.0003505847434166693, ,0.0024382428570678223,0.0013090616599316695,-0.00781490258700957,-0.010306993528057777,-0.0035997372104438694,0.021839053993767833, ,0.008290438655704183, ,0.010917517777547672, ,3.1565530894523174e-05, ,0.16783815355552126,-0.16402312351565437,0.09597083015,2.747777019421207,0.9706656943336889,-0.5887861548305021, ,0.01318196160000983,0.00027835477854429546,0.008172812478193948,0.0,-0.0006736341163383904,0.025903567392231864, ,0.7673571109771729
0.011111587300965937,0.02082922462434162,-0.08267143994096268, ,0.01134382053977799,0.020805893079496294,-0.08286796853105793, ,0.0003051231307502486, ,0.00309384140665055,0.0015145737617039724,-0.007709260083511415,0.002962230834745494,0.0016584749509692548,-0.04606567167589107, ,0.008443842689461356, ,0.0033948966774138938, ,3.1866910960625024e-05, ,0.16808528100749645,-0.16401540078278012,0.09610823689,2.7486157791951453,0.9706656943336889,-0.5883777611297993, ,0.015784587750909976,5.3636958088592016e-05,0.00820649743431221,0.06390269442210748,-0.0006526467905870442,0.01909542144132418, ,0.7806961536407471
0.01115321207636406,0.020850269534000224,-0.08278274792671049, ,0.011374982972734936,0.020816655284865256,-0.08294850550661982, ,0.0002789046853666106, ,0.002399304507436123,0.0011459242655326302,-0.007111542454502967,-0.012366480674921024,-0.011483180735836686,0.04056446447589916, ,0.007592354089736455, ,0.01687581896992434, ,3.209179101088877e-05, ,0.16830151752797473,-0.16401540078278012,0.09622619928000001,2.7492448490255987,0.9706656943336889,-0.5879693674290966, ,0.015927650479770187,5.271680293191931e-05,0.007450332797006549,-0.022592445533498044,-0.0006352357685118785,0.022029594521880105, ,0.7925810813903809
0.011177814998392273,0.020860630857176102,-0.08284665779060602, ,0.01140619391907711,0.020827233094704134,-0.08302902249777085, ,0.0002941585089209891, ,0.0023167412803244214,0.0010603405273804144,-0.0065629570886808096,-0.012048670178918114,-0.009491120860666287,0.03592454752575343, ,0.00704017172672871, ,0.015337920853111628, ,3.2348376270625276e-05, ,0.16846369491833346,-0.1640076780499059,0.09629360636,2.7492448490255987,0.9706656943336889,-0.5879693674290964, ,0.015521253117185278,0.0001877121038141513,0.006889624359861593,-0.016496825368585058,-0.0006243652435820981,0.023571231292535803, ,0.8044331073760986
0.011199955111759082,0.020870608608501942,-0.08291233690240374, ,0.011437453120601968,0.02083762758021233,-0.08310951893937901, ,0.0003104413119046722, ,0.002358891299445465,0.0010649111743656087,-0.006416551432479057,-0.003365321204288276,-0.012654126211373882,0.005379742521981423, ,0.00691885368088799, ,0.013093979001985228, ,3.2637806753911145e-05, ,0.16861042684294372,-0.16399995531703168,0.09636230973000001,2.7490351590821143,0.9706656943336889,-0.5877243312086748, ,0.014918557075691051,0.00042920510943913776,0.006755221170483461,0.0,-0.0006133829352888456,0.0065673254983482756, ,0.8168342113494873
0.011226232059906846,0.02088177368756262,-0.08297715543665014, ,0.011468760319915556,0.020847839810182647,-0.0831899942680322, ,0.00032445621134595266, ,0.0025872260779402356,0.001113458101564544,-0.006692724711270795,-0.010797633322697776,-0.004287096455880148,0.01797994603081241, ,0.007261273427104124, ,0.011617575821372808, ,3.295307481965253e-05, ,0.16877260423330243,-0.16399223258415746,0.0964310131,2.7492448490255987,0.9706656943336889,-0.5875609737283937, ,0.016535448955997695,0.0006901821547159271,0.007029484342453663,0.007079614979080648,-0.000602727882313073,0.029548212350291245, ,0.8282251358032227
0.01125644184926352,0.020895182416424,-0.08304758830144213, ,0.011500115260430167,0.020857870851002602,-0.0832704479220358, ,0.00033231806257701986, ,0.0028950128736804468,0.0012959668522464917,-0.006958487640586905,0.0015666024482511366,-0.0003924895434866179,-0.038919155503241855, ,0.007647298860715325, ,0.0016150154668277256, ,3.3358771401925554e-05, ,0.16893478162366116,-0.16398450985128324,0.09650619792000001,2.7498739188560526,0.9706656943336889,-0.5874792949882531, ,0.015561977953176579,0.0007817138957783362,0.007405305216178523,0.05463543351243937,-0.0005921416265673976,0.017023357711146356, ,0.8381462097167969
0.011283009150294314,0.020906543205453116,-0.08311768291596747, ,0.01153151768636474,0.020867721766657462,-0.08335087934141147, ,0.0003429929583094846, ,0.0030152042406965097,0.001242774392533376,-0.006663424759416443,0.00016447277861804735,0.0022537682125450924,-0.041403026270990705, ,0.007418704356439539, ,0.0022597586849149344, ,3.378030035240368e-05, ,0.16908923628114564,-0.1639690643855348,0.09658008645,2.7500836087995366,0.9706656943336889,-0.5873159375079721, ,0.016846607768235537,0.0011480364731628204,0.007123797638640431,0.06301310460700549,-0.0005826814185413061,0.023753465031783754, ,0.8472280502319336
0.01131093822683186,0.020918168317111564,-0.08318886557374147, ,0.011562967342742632,0.020877393618731876,-0.08343128796789501, ,0.00035206514806474605, ,0.002970300048923842,0.0012226754392280592,-0.006947948957652087,-0.0022763054795166987,-0.0033053914455868816,-0.022807321018024025, ,0.007654515812804049, ,0.004013373026929511, ,3.421331133657088e-05, ,0.16944448199335996,-0.16395361891978635,0.09673175238000001,2.7500836087995366,0.9706656943336889,-0.5871525800276909, ,0.017554003247959818,0.0011328251281225795,0.008379174918463968,0.0313085162618848,-0.0005637906095297724,0.011466740203532907, ,0.8621971607208252
0.0113695946977324,0.020943911965802354,-0.08334229924926947, ,0.011594463975390436,0.020886887466411905,-0.08351167324493472, ,0.00028723776905690646, ,0.0026530670541047735,0.0010748543445498497,-0.006678301172702677,-0.006245588392159969,-0.012794667131482489,0.01111871627762706, ,0.00726593305838251, ,0.01423765669222597, ,3.4484739402865396e-05, ,0.16963755031521557,-0.1639458961869121,0.09681730752,2.7502932987430215,0.9706656943336889,-0.5869892225474097, ,0.0176815616840825,0.0008815616770995119,0.0070512667197875165,0.0,-0.0005537842627890803,0.013395574913321126, ,0.872556209564209
0.011398532961874954,0.02095543356707731,-0.08340932835105294, ,0.011626007330938213,0.020896204366487706,-0.08359203461768984, ,0.00029771507629208955, ,0.0026530670541047735,0.0010748543445498497,-0.006678301172702677,-0.006245588392159969,-0.012794667131482489,0.01111871627762706, ,0.00726593305838251, ,0.01423765669222597, ,3.477409593699418e-05, ,0.16980745043844853,-0.16393045072116366,0.09688860347000001,2.7507126786299905,0.9706656943336889,-0.5869075438072692, ,0.01779095267312913,0.000876734265338998,0.008032683570347959,0.01623570674224546,-0.0005454430165230361,0.012302739752930229, ,0.8817710876464844
0.011398532961874954,0.02095543356707731,-0.08340932835105294, ,0.011657597156817332,0.020905345373355512,-0.08367237153302895, ,0.00037257858209446, ,0.003394386050742922,0.0015079233035441546,-0.008077562623890066,0.004238568654758487,0.006292269999158755,-0.06602800471495025, ,0.008890596565681936, ,0.007586704923471728, ,3.522776740368251e-05, ,0.16997735056168145,-0.16391500525541522,0.09697415861000001,2.751551438403929,0.9706656943336889,-0.5866625075868476, ,0.016296915946843685,0.0016632728634417345,0.008605516758508914,0.08716835769444171,-0.000536997331813732,0.022502785622235472, ,0.8917191028594971
0.011456682907681577,0.020981232746435992,-0.08355607595298055, ,0.011689233201259669,0.02091431153901958,-0.08375268343952774, ,0.00031178933723225984, ,0.003187337248327298,0.0012683215457319152,-0.007493093691624846,-0.008447730863344122,0.0059436685606006,-0.01739118007660707, ,0.008241007908588033, ,0.010329149484655503, ,3.5533976207776975e-05, ,0.1701240824862917,-0.163907282522541,0.09704415827000001,2.751551438403929,0.9706656943336889,-0.5864174713664259, ,0.01785791147129672,0.0020972058467318856,0.007956449310689312,0.052752444166325616,-0.0005300994691717862,0.04043487935705937, ,0.9031410217285156
0.011490655691767668,0.02099510890163252,-0.0836483318119029, ,0.011720915213296662,0.020923103913094567,-0.08383296978746813, ,0.0003038014938244006, ,0.0030515922564424438,0.0013507760514335663,-0.007888283127075953,-0.0036850026473376376,-0.004088641906126092,-0.012334496331282797, ,0.008565151600153795, ,0.005504198997525664, ,3.581551998631607e-05, ,0.1703325962738958,-0.16389183705679256,0.09714008373000001,2.751551438403929,0.9705290578339235,-0.5861426959824483, ,0.017238318175925665,0.0011625937701883367,0.00834406051335778,0.031041843137648965,0.0,0.02123106414340335, ,0.912520170211792
0.011519083050354643,0.021006247479419943,-0.08372894212122428, ,0.011752642942758565,0.02093172354280798,-0.08391323002883531, ,0.000306701929174774, ,0.003100565750798843,0.0011364407329760807,-0.008044994607351572,-0.016022766102769963,0.0027046365610393164,0.014963128505242632, ,0.00869637532233458, ,0.016249432568907485, ,3.609725139744895e-05, ,0.17050249639712872,-0.16386094612529564,0.09722175000000001,2.751551438403929,0.9705290578339235,-0.5858976597620267, ,0.018113560137138916,0.0036364103551987637,0.008472772085106385,0.023319522260011202,0.0,0.025893657820684653, ,0.922133207321167
0.011519083050354643,0.021006247479419943,-0.08372894212122428, ,0.01178441614027353,0.020940171473002117,-0.08399346361731778, ,0.00038044619741242993, ,0.003100565750798843,0.0011364407329760807,-0.008044994607351572,-0.016022766102769963,0.0027046365610393164,0.014963128505242632, ,0.00869637532233458, ,0.016249432568907485, ,3.6533845153835815e-05, ,0.17050249639712872,-0.16386094612529564,0.09722175000000001,2.751551438403929,0.9705290578339235,-0.5858976597620267, ,0.018113560137138916,0.0036364103551987637,0.008472772085106385,0.023319522260011202,0.0,0.025893657820684653, ,0.9313361644744873
0.011552026659198198,0.02102055264969929,-0.08380847487350765, ,0.011816234557265942,0.020948448746136154,-0.08407367000830364, ,0.00038122597738071364, ,0.0029969280650168403,0.001353779323198624,-0.00794934140774356,-0.0061562747839702435,-0.00786645567958141,0.01069055323321745, ,0.008602692898137889, ,0.009989034609560524, ,3.704269925938857e-05, ,0.17069556471898434,-0.1638455006595472,0.09730989772000001,2.7519708182908977,0.9706656943336889,-0.5857640414453014, ,0.018266976238396685,0.000544966243006055,0.008405705287598946,0.008751771188257188,0.0011870693349496585,0.022394302399951087, ,0.9404940605163574
0.011586059824276162,0.021032817052026552,-0.08388399029348058, ,0.011848097945955122,0.020956556402288266,-0.08415384865888073, ,0.000383800991775666, ,0.003227223519516399,0.0009644215914580059,-0.006646777045747228,-0.0003673759693070969,0.000728234510897827,-0.04563512376319246, ,0.007451491511560786, ,0.0008156455309965839, ,3.754834345410554e-05, ,0.17088863304083995,-0.1638146097280503,0.0973902677,2.752599888121351,0.9706656943336889,-0.5855190052248797, ,0.0188512001506696,0.004489884953110845,0.007085770249110321,0.0657295394643148,0.0011870693349496585,0.02208969338904345, ,0.9487400054931641
0.011608800270554769,0.021040745977339355,-0.08393796743909028, ,0.011880006059355751,0.020964495479158338,-0.08423399902783367, ,0.0004086580720920021, ,0.003323781279327298,0.0012441512329776482,-0.007367498576771386,-0.00508573536555348,0.009984949732620053,-0.03369250977084856, ,0.00817774232670942, ,0.01120553004834514, ,3.809826834405359e-05, ,0.171027642232576,-0.16379144152942762,0.09744730446000001,2.7528095780648356,0.9706656943336889,-0.5853556477445985, ,0.018058409430727073,0.002854905327653165,0.0078621971964462,0.07112976709804276,0.0011870693349496585,0.041992064892688405, ,0.9569351673126221
0.011651954039650225,0.02105744035491336,-0.084051399826291, ,0.011911958651275326,0.020972267012069296,-0.08431412057564218, ,0.0003793139709227612, ,0.0031848085762965278,0.001249327192393929,-0.009771369881607917,-0.014216162939032703,-0.012150504637306388,0.03453509025452661, ,0.01035294612487195, ,0.018701175432868773, ,3.857700441482689e-05, ,0.17126704695167694,-0.16374510513218227,0.09756656314,2.7532289579518046,0.9706656943336889,-0.5851106115241769, ,0.018706276672278886,0.004327089369318426,0.010165163701340142,-0.01601172903733252,0.0011870693349496585,0.02288330473657758, ,0.9650001525878906
0.011684985418906214,0.021071768231293385,-0.08415473074060889, ,0.011943955476314792,0.02097987203397081,-0.08439421276448061, ,0.00045694900592758634, ,0.0036213914625100093,0.0016256187423529375,-0.01065769558707202,-0.012377678376419553,-0.00312974714000005,0.016596027221493947, ,0.01035294612487195, ,0.018701175432868773, ,3.9210144557647556e-05, ,0.17146011527353255,-0.16371421420068538,0.09767415521000002,2.7530192680083205,0.9706656943336889,-0.5847838965636146, ,0.01949002701960788,0.0028069728076085664,0.011170274558204768,0.013977893113857224,0.0011870693349496585,0.03578154484275692, ,0.973365068435669
0.011684985418906214,0.021071768231293385,-0.08415473074060889, ,0.011975996289865455,0.020987311575439357,-0.08447427505821488, ,0.0004403735058433678, ,0.0036213914625100093,0.0016256187423529375,-0.01065769558707202,-0.012377678376419553,-0.00312974714000005,0.016596027221493947, ,0.01137293223610006, ,0.012767227641349344, ,3.979838714605581e-05, ,0.17146011527353255,-0.16371421420068538,0.09767415521000002,2.7530192680083205,0.9706656943336889,-0.5847838965636146, ,0.01949002701960788,0.0028069728076085664,0.011170274558204768,0.013977893113857224,0.0011870693349496585,0.03578154484275692, ,0.981281042098999
0.011720828190880129,0.021087620570167345,-0.0842599712242995, ,0.012008080848108612,0.0209945866646819,-0.08455430692240073, ,0.0004216668113943065, ,0.003969076004510481,0.001689419897021119,-0.011984154335483471,-0.007858133986625448,-0.002801269761979984,-0.012472203676002049, ,0.012736862213854675, ,0.008342489726555666, ,4.033845558805187e-05, ,0.17183852918436957,-0.16362926413906892,0.09791396886,2.7542774076692274,0.9706656943336889,-0.58413046664249, ,0.019671836973149,0.003741234095894878,0.012058146495079488,0.07420524691752961,0.0011870693349496585,0.048885270786621374, ,0.9928901195526123
0.011768975952993144,0.021107968187217788,-0.08439192214015387, ,0.01204020890801695,0.021001698327538173,-0.08463430782428354, ,0.000378960972711278, ,0.004163198065637606,0.0018366746617049464,-0.011216073281390222,-0.007606578235287674,0.011464821981268521,-0.031178904226579825, ,0.012103961822485782, ,0.013758706262194345, ,4.078255181327446e-05, ,0.17183852918436957,-0.16362926413906892,0.09791396886,2.7542774076692274,0.9706656943336889,-0.58413046664249, ,0.019671836973149,0.003741234095894878,0.012058146495079488,0.07420524691752961,0.0011870693349496585,0.048885270786621374, ,1.0009150505065918
0.011799873757390507,0.021120513115105894,-0.08448523226558954, ,0.012072380227349008,0.021008647587481652,-0.08471427723279451, ,0.0003731424251432929, ,0.0036871744340037857,0.0012696787059794075,-0.009496070522757184,-0.003863835062114425,-0.00513843130331181,-0.027814813828185497, ,0.010265607371040769, ,0.006429045063450917, ,4.12076777604206e-05, ,0.17202387477335096,-0.16358292774182356,0.09802026464000001,2.7542774076692274,0.9706656943336889,-0.583967109162209, ,0.019957295806197848,0.00566258620397622,0.00997420884157796,0.04429273838125142,0.0011870693349496585,0.018774150589737117, ,1.0089991092681885
0.011836126582224146,0.021131310355152012,-0.08457991126411632, ,0.012104594564652574,0.02101543546562307,-0.08479421461855123, ,0.00036252996474028245, ,0.003636431154109947,0.0010036756141213283,-0.00841522393242794,-0.01291263378692044,-0.004526761675028107,0.0004995703325182412, ,0.009222092501697822, ,0.013683115156135833, ,4.160466421363064e-05, ,0.17225555675957768,-0.16351342314595554,0.09812007897000001,2.7542774076692274,0.9708023308334544,-0.5836701333652027, ,0.02274615090087986,0.006119867370739588,0.008859183270300336,0.028819766637271226,0.000922728365289918,0.0345595428833469, ,1.0173192024230957
0.011836126582224146,0.021131310355152012,-0.08457991126411632, ,0.012136851679260683,0.02102206298071182,-0.08487411945385356, ,0.0004346596734436915, ,0.0034709195150374565,0.0008241442372114481,-0.008243688372813616,-0.01490058521244783,-0.013700051225168776,0.02003275979108871, ,0.008982477052108683, ,0.02024151192904028, ,4.2223118666330836e-05, ,0.17225555675957768,-0.16351342314595554,0.09812007897000001,2.7542774076692274,0.9708023308334544,-0.5836701333652027, ,0.02274615090087986,0.006119867370739588,0.008859183270300336,0.028819766637271226,0.000922728365289918,0.0345595428833469, ,1.0236530303955078
0.011871854682604837,0.021140545819912895,-0.08466126921666511, ,0.012169151331291119,0.021028531149137917,-0.0849539912126838, ,0.00043199392442727896, ,0.0034709195150374565,0.0008241442372114481,-0.008243688372813616,-0.01490058521244783,-0.013700051225168776,0.02003275979108871, ,0.008982477052108683, ,0.02024151192904028, ,4.2828921381466326e-05, ,0.17248723874580443,-0.16345164128296175,0.09820563411000001,2.754487097612712,0.9708023308334544,-0.583425097144781, ,0.023408224360747604,0.006825302941446625,0.008481795271565496,0.0,0.000922728365289918,0.02598809767248904, ,1.0299921035766602
0.011911995853145951,0.02115178596884183,-0.08474687288858657, ,0.012201493281647716,0.021034840984935608,-0.08503382937070456, ,0.0004240623928144215, ,0.0036985395435839155,0.0010206499667133936,-0.008663237402628489,-0.007332543476166739,-0.012585018829253815,-0.009988796769059359, ,0.009474840547698265, ,0.014565330204449693, ,4.341191078712712e-05, ,0.17272664346490538,-0.16338985941996795,0.09829637441000001,2.7551161674431657,0.9708023308334544,-0.5831800609243593, ,0.023253354951842872,0.006220821714923146,0.009112592402745997,0.024061094825148573,0.000922728365289918,0.016793248562792608, ,1.035595178604126
0.011911995853145951,0.02115178596884183,-0.08474687288858657, ,0.012233877292015602,0.021040993499783563,-0.08511363340525578, ,0.0005003957518567607, ,0.0036985395435839155,0.0010206499667133936,-0.008663237402628489,-0.007332543476166739,-0.012585018829253815,-0.009988796769059359, ,0.009474840547698265, ,0.014565330204449693, ,4.413771474692199e-05, ,0.17272664346490538,-0.16338985941996795,0.09829637441000001,2.7551161674431657,0.9708023308334544,-0.5831800609243593, ,0.023253354951842872,0.006220821714923146,0.009112592402745997,0.024061094825148573,0.000922728365289918,0.016793248562792608, ,1.041227102279663
0.011956448208434108,0.02116432951785055,-0.0848453116631363, ,0.01226630312486278,0.021046989703008535,-0.08519340279535487, ,0.0004805685567235749, ,0.004520370174799783,0.0012157438424900881,-0.011250175278010218,-0.007352217371187433,0.003061711115878399,-0.05204600042735069, ,0.012185164069216478, ,0.007964232229976598, ,4.481638026833097e-05, ,0.17295832545113213,-0.16329718662547726,0.0984013739,2.7561646171605885,0.9709389673332198,-0.5831281213477746, ,0.02290536846692512,0.010828418198417808,0.011772957516629714,0.0802125709784285,0.0015990587769448904,0.03228935039232203, ,1.047159194946289
0.011956448208434108,0.02116432951785055,-0.0848453116631363, ,0.012298770543438801,0.02105283060158714,-0.085273137021694, ,0.0005591521499520578, ,0.004520370174799783,0.0012157438424900881,-0.011250175278010218,-0.007352217371187433,0.003061711115878399,-0.05204600042735069, ,0.012185164069216478, ,0.007964232229976598, ,4.56394481155152e-05, ,0.17295832545113213,-0.16329718662547726,0.0984013739,2.7561646171605885,0.9709389673332198,-0.5831281213477746, ,0.02290536846692512,0.010828418198417808,0.011772957516629714,0.0802125709784285,0.0015990587769448904,0.03228935039232203, ,1.0528061389923096
0.011999830624676154,0.021177425410683834,-0.08497431198178772, ,0.012331279311772995,0.021058517200147907,-0.08535283556663839, ,0.0005169888770556682, ,0.004702936970011834,0.001574199388060936,-0.013580889991040904,-0.015010099599086111,-0.001989124021956885,-0.008685210442754648, ,0.014458087453257105, ,0.015141309135939408, ,4.637176128065802e-05, ,0.17319773017023307,-0.16319679109811233,0.09853489177000001,2.7561646171605885,0.9709389673332198,-0.582883085127353, ,0.023483529215162283,0.009796559467815503,0.014133816787932567,0.04036791920599928,0.0015990587769448904,0.03754044148975641, ,1.0594520568847656
0.011999830624676154,0.021177425410683834,-0.08497431198178772, ,0.012363829194673187,0.021064050500973264,-0.08543249791422482, ,0.0005960563545462956, ,0.004702936970011834,0.001574199388060936,-0.013580889991040904,-0.015010099599086111,-0.001989124021956885,-0.008685210442754648, ,0.014458087453257105, ,0.015141309135939408, ,4.724712731649006e-05, ,0.17330584843047223,-0.163150454700867,0.09860359514000001,2.7561646171605885,0.9709389673332198,-0.5826380489069313, ,0.024073298213716583,0.009633833735346297,0.014970687518796997,0.031898873622916414,0.0015990587769448904,0.05780211730974071, ,1.0654981136322021
0.012020877125059387,0.021184610645594674,-0.08504075601326185, ,0.012396419957725778,0.02106943150400233,-0.08551212355015972, ,0.0006135845570630134, ,0.004840590159742598,0.0016991850275346583,-0.01439717536073764,-0.023668173755769878,0.003787029347861728,0.01678088140115537, ,0.015283886980092002, ,0.023969218211036238, ,4.814587622146823e-05, ,0.17330584843047223,-0.163150454700867,0.09860359514000001,2.7561646171605885,0.9709389673332198,-0.5826380489069313, ,0.024073298213716583,0.009633833735346297,0.014970687518796997,0.031898873622916414,0.0015990587769448904,0.05780211730974071, ,1.071343183517456
0.012098871398939245,0.021210595819101456,-0.0852788575759689, ,0.012429051367294547,0.021074661206832684,-0.08559171196181767, ,0.00047473666075054815, ,0.005315472356241134,0.001624533452890783,-0.01629991352611809,-0.03401472142333229,-0.0005252486458263705,0.056667774926882956, ,0.01722151376239767, ,0.03401875966347382, ,4.8771442570116234e-05, ,0.1737074305399319,-0.16297283184475983,0.09885118653000001,2.7563743071040725,0.9710756038329852,-0.5820143581493626, ,0.028184419827285645,0.013101883412739304,0.016873741016949155,0.0,0.004187735612061749,0.0683091515150773, ,1.0773310661315918
0.012098871398939245,0.021210595819101456,-0.0852788575759689, ,0.012461723190518408,0.021079740604722567,-0.0856712626382396, ,0.0005502419855645564, ,0.005315472356241134,0.001624533452890783,-0.01629991352611809,-0.03401472142333229,-0.0005252486458263705,0.056667774926882956, ,0.01722151376239767, ,0.03401875966347382, ,4.962559181619986e-05, ,0.1737074305399319,-0.16297283184475983,0.09885118653000001,2.7563743071040725,0.9710756038329852,-0.5820143581493626, ,0.028184419827285645,0.013101883412739304,0.016873741016949155,0.0,0.004187735612061749,0.0683091515150773, ,1.08109712600708
0.012158484259754018,0.021229641647332702,-0.08543293527896995, ,0.012494435195312063,0.021084670690593287,-0.08575077507013104, ,0.0004846666300103568, ,0.006235765004778113,0.0019744968725901443,-0.015886785710688738,0.009275696123579076,0.004641673850506588,-0.10216957591090128, ,0.01718061009720049, ,0.01037220626058954, ,5.0350056940970464e-05, ,0.17400089438915242,-0.162841545385898,0.09901451907000001,2.7574227568214953,0.9713488768325161,-0.5816654427757715, ,0.029307270401010124,0.013071204071414707,0.016731944873949585,0.12686911867770234,0.010532471088643858,0.02481089842916925, ,1.0857021808624268
0.012158484259754018,0.021229641647332702,-0.08543293527896995, ,0.012527187150363321,0.02108945245503102,-0.08583024874986023, ,0.0005598685786260345, ,0.006235765004778113,0.0019744968725901443,-0.015886785710688738,0.009275696123579076,0.004641673850506588,-0.10216957591090128, ,0.01718061009720049, ,0.01037220626058954, ,5.120992297981708e-05, ,0.17400089438915242,-0.162841545385898,0.09901451907000001,2.7574227568214953,0.9713488768325161,-0.5816654427757715, ,0.029307270401010124,0.013071204071414707,0.016731944873949585,0.12686911867770234,0.010532471088643858,0.02481089842916925, ,1.0894641876220703
0.012158484259754018,0.021229641647332702,-0.08543293527896995, ,0.012559978825133253,0.02109408688628937,-0.08590968317145697, ,0.0006378569841754489, ,0.006235765004778113,0.0019744968725901443,-0.015886785710688738,0.009275696123579076,0.004641673850506588,-0.10216957591090128, ,0.01718061009720049, ,0.01037220626058954, ,5.2208872864548075e-05, ,0.17400089438915242,-0.162841545385898,0.09901451907000001,2.7574227568214953,0.9713488768325161,-0.5816654427757715, ,0.029307270401010124,0.013071204071414707,0.016731944873949585,0.12686911867770234,0.010532471088643858,0.02481089842916925, ,1.093210220336914
0.012218367083674554,0.02124643860093388,-0.08558951824737863, ,0.012592809989855253,0.02109857497029153,-0.0859890778306104, ,0.0005672027889636336, ,0.006019399789397865,0.0015952355390340565,-0.015919175881513176,-0.014722109901706665,0.001056613441877392,-0.010840223088590284, ,0.017093803292308918, ,0.014759943413364025, ,5.306906811219591e-05, ,0.1743020809712472,-0.16270253619416197,0.09917785161,2.758261516595433,0.9713488768325161,-0.5810936915947875, ,0.03228885388175256,0.01499635612491637,0.016644526144200627,0.05704711962467307,0.010532471088643858,0.052843513395659306, ,1.0991010665893555
0.012218367083674554,0.02124643860093388,-0.08558951824737863, ,0.012625680415532683,0.02110291769063224,-0.08606843222466726, ,0.0006448728554107299, ,0.006019399789397865,0.0015952355390340565,-0.015919175881513176,-0.014722109901706665,0.001056613441877392,-0.010840223088590284, ,0.017093803292308918, ,0.014759943413364025, ,5.406672499957802e-05, ,0.1743020809712472,-0.16270253619416197,0.09917785161,2.758261516595433,0.9713488768325161,-0.5810936915947875, ,0.03228885388175256,0.01499635612491637,0.016644526144200627,0.05704711962467307,0.010532471088643858,0.052843513395659306, ,1.1030831336975098
0.012274939781043664,0.021259332113259966,-0.08574652044851412, ,0.012658589873939145,0.021107116028579957,-0.08614774585263044, ,0.000575620495745524, ,0.006215293370046066,0.0013731516564022299,-0.016322454274222947,-0.024004179652163386,-0.002815795790269483,0.02315351393818684, ,0.017519644136834447, ,0.024168744032788094, ,5.4929247224202314e-05, ,0.17463415848483885,-0.16254035880380324,0.09934118415000001,2.758261516595433,0.9714855133322816,-0.5806333583175, ,0.03578316046699501,0.017383576031960207,0.01701796102564103,0.03003340361953357,0.011729672339860813,0.06214544951751552, ,1.1069140434265137
0.012274939781043664,0.021259332113259966,-0.08574652044851412, ,0.012691538137616991,0.021111170963079403,-0.08622701821515727, ,0.0006529808732815055, ,0.006215293370046066,0.0013731516564022299,-0.016322454274222947,-0.024004179652163386,-0.002815795790269483,0.02315351393818684, ,0.017519644136834447, ,0.024168744032788094, ,5.5927633949998455e-05, ,0.17463415848483885,-0.16254035880380324,0.09934118415000001,2.758261516595433,0.9714855133322816,-0.5806333583175, ,0.03578316046699501,0.017383576031960207,0.01701796102564103,0.03003340361953357,0.011729672339860813,0.06214544951751552, ,1.1108930110931396
0.01233671536767061,0.02127537312567001,-0.08591844015579665, ,0.012724524979876308,0.02111508347075342,-0.08630624881455777, ,0.0005713883308245893, ,0.0062986538701349775,0.0015800830569885392,-0.017037945338706548,-0.0019114754595879256,-0.02036279042603581,-0.004674690801494646, ,0.01823352089991126, ,0.020452274606830446, ,5.6769269596380496e-05, ,0.1749971269299274,-0.16237818141344454,0.09952136846000001,2.758261516595433,0.9717587863318125,-0.5802027642037684, ,0.03613744918449001,0.016344633406557143,0.01781746255033557,0.019496348391447774,0.018221973518053318,0.01541606066904202, ,1.1146371364593506
0.01233671536767061,0.02127537312567001,-0.08591844015579665, ,0.012757550174794368,0.021118854525905444,-0.08638543715479252, ,0.0006478319257572122, ,0.0062986538701349775,0.0015800830569885392,-0.017037945338706548,-0.0019114754595879256,-0.02036279042603581,-0.004674690801494646, ,0.01823352089991126, ,0.020452274606830446, ,5.774425752806745e-05, ,0.1749971269299274,-0.16237818141344454,0.09952136846000001,2.758261516595433,0.9717587863318125,-0.5802027642037684, ,0.03613744918449001,0.016344633406557143,0.01781746255033557,0.019496348391447774,0.018221973518053318,0.01541606066904202, ,1.1184241771697998
0.01233671536767061,0.02127537312567001,-0.08591844015579665, ,0.012790613497213423,0.021122485100521334,-0.08646458274147156, ,0.0007264089647877443, ,0.0062986538701349775,0.0015800830569885392,-0.017037945338706548,-0.0019114754595879256,-0.02036279042603581,-0.004674690801494646, ,0.01823352089991126, ,0.020452274606830446, ,5.8855021982124926e-05, ,0.1749971269299274,-0.16237818141344454,0.09952136846000001,2.758261516595433,0.9717587863318125,-0.5802027642037684, ,0.03613744918449001,0.016344633406557143,0.01781746255033557,0.019496348391447774,0.018221973518053318,0.01541606066904202, ,1.122129201889038
0.012412672870258242,0.021293952693186565,-0.0861078199262464, ,0.01282371472274023,0.021125976164271518,-0.0865436850818524, ,0.0006222137515593897, ,0.007788137992430444,0.0020340608557808965,-0.019766338939181248,0.01799487987946154,0.022240039006560776,-0.11090230983277491, ,0.02134246124543164, ,0.0286082508990217, ,5.97689779741451e-05, ,0.17538326357363862,-0.16216966762584048,0.09972099712000002,2.7595196562563404,0.9720320593313434,-0.579690491349896, ,0.03619257877897437,0.021900978896485294,0.020876555072083886,0.1629785763983616,0.03354448410668257,0.051665183416346204, ,1.1259450912475586
0.012412672870258242,0.021293952693186565,-0.0861078199262464, ,0.012856853627745744,0.021129328684513764,-0.08662274368483824, ,0.0006996742718694348, ,0.007788137992430444,0.0020340608557808965,-0.019766338939181248,0.01799487987946154,0.022240039006560776,-0.11090230983277491, ,0.02134246124543164, ,0.0286082508990217, ,6.0816155439706735e-05, ,0.17538326357363862,-0.16216966762584048,0.09972099712000002,2.7595196562563404,0.9720320593313434,-0.579690491349896, ,0.03619257877897437,0.021900978896485294,0.020876555072083886,0.1629785763983616,0.03354448410668257,0.051665183416346204, ,1.1296470165252686
0.012412672870258242,0.021293952693186565,-0.0861078199262464, ,0.012890029989363559,0.021132543626294957,-0.08670175806097631, ,0.0007789000025175197, ,0.007788137992430444,0.0020340608557808965,-0.019766338939181248,0.01799487987946154,0.022240039006560776,-0.11090230983277491, ,0.02134246124543164, ,0.0286082508990217, ,6.19982915757465e-05, ,0.17538326357363862,-0.16216966762584048,0.09972099712000002,2.7595196562563404,0.9720320593313434,-0.579690491349896, ,0.03619257877897437,0.021900978896485294,0.020876555072083886,0.1629785763983616,0.03354448410668257,0.051665183416346204, ,1.1334280967712402
0.012491287277716045,0.02131379919090763,-0.0863135947979141, ,0.012923243585488357,0.021135621952353148,-0.08678072772245644, ,0.0006607166937157479, ,0.007921324572269389,0.0020507076708037066,-0.021603128082983956,-0.010566691090664281,0.010835822396200855,-0.012965732394013912, ,0.02310082093563218, ,0.015134903447069694, ,6.296015557317348e-05, ,0.1757616774844756,-0.1619534311053622,0.09993618126,2.7607777959172477,0.9721686958311089,-0.578985121852187, ,0.04029594121378802,0.02193641737366407,0.02262615272727273,0.08025427617308632,0.026703009052971457,0.0741233898010247, ,1.1380081176757812
0.012491287277716045,0.02131379919090763,-0.0863135947979141, ,0.012956494194775806,0.021138564623120068,-0.08685965218310865, ,0.000738446543328253, ,0.007921324572269389,0.0020507076708037066,-0.021603128082983956,-0.010566691090664281,0.010835822396200855,-0.012965732394013912, ,0.02310082093563218, ,0.015134903447069694, ,6.41685390933078e-05, ,0.1757616774844756,-0.1619534311053622,0.09993618126,2.7607777959172477,0.9721686958311089,-0.578985121852187, ,0.04029594121378802,0.02193641737366407,0.02262615272727273,0.08025427617308632,0.026703009052971457,0.0741233898010247, ,1.1399281024932861
0.012491287277716045,0.02131379919090763,-0.0863135947979141, ,0.012989781596640456,0.021141372596723027,-0.0869385309584022, ,0.0008177852536379128, ,0.007921324572269389,0.0020507076708037066,-0.021603128082983956,-0.010566691090664281,0.010835822396200855,-0.012965732394013912, ,0.02310082093563218, ,0.015134903447069694, ,6.551428322642316e-05, ,0.1757616774844756,-0.1619534311053622,0.09993618126,2.7607777959172477,0.9721686958311089,-0.578985121852187, ,0.04029594121378802,0.02193641737366407,0.02262615272727273,0.08025427617308632,0.026703009052971457,0.0741233898010247, ,1.1418750286102295
0.012491287277716045,0.02131379919090763,-0.0863135947979141, ,0.013023105571255486,0.021144046828987118,-0.08701736356544326, ,0.0008982967437714037, ,0.007921324572269389,0.0020507076708037066,-0.021603128082983956,-0.010566691090664281,0.010835822396200855,-0.012965732394013912, ,0.02310082093563218, ,0.015134903447069694, ,6.699874394040708e-05, ,0.1757616774844756,-0.1619534311053622,0.09993618126,2.7607777959172477,0.9721686958311089,-0.578985121852187, ,0.04029594121378802,0.02193641737366407,0.02262615272727273,0.08025427617308632,0.026703009052971457,0.0741233898010247, ,1.144261121749878
0.012491287277716045,0.02131379919090763,-0.0863135947979141, ,0.013056465899552854,0.021146588273438186,-0.0870961495229738, ,0.0009796827359995618, ,0.007921324572269389,0.0020507076708037066,-0.021603128082983956,-0.010566691090664281,0.010835822396200855,-0.012965732394013912, ,0.02310082093563218, ,0.015134903447069694, ,6.862273680883974e-05, ,0.1757616774844756,-0.1619534311053622,0.09993618126,2.7607777959172477,0.9721686958311089,-0.578985121852187, ,0.04029594121378802,0.02193641737366407,0.02262615272727273,0.08025427617308632,0.026703009052971457,0.0741233898010247, ,1.1464149951934814
0.012598270230916715,0.021338184491136093,-0.08661991140053099, ,0.01308986236321897,0.021148997881303606,-0.08717488835136958, ,0.0007651495369164665, ,0.008046517807584332,0.0016770621303661363,-0.0235596153039601,-0.008170869100110927,-0.011080272272747108,0.04473689186619726, ,0.024952243576229192, ,0.013766926929714138, ,6.985990696888881e-05, ,0.17628682331992288,-0.16165224452326743,0.10022136506000001,2.760987485860732,0.9725786053304051,-0.5780941944611677, ,0.04355068451513115,0.026761686846720468,0.023703588571428576,0.0,0.029847405065250437,0.04576819297183086, ,1.1486170291900635
0.012598270230916715,0.021338184491136093,-0.08661991140053099, ,0.013123294744696434,0.0211512766015155,-0.08725357957263799, ,0.000843872414298204, ,0.008046517807584332,0.0016770621303661363,-0.0235596153039601,-0.008170869100110927,-0.011080272272747108,0.04473689186619726, ,0.024952243576229192, ,0.013766926929714138, ,0.0003900485440561418, ,0.17628682331992288,-0.16165224452326743,0.10022136506000001,2.760987485860732,0.9725786053304051,-0.5780941944611677, ,0.04355068451513115,0.026761686846720468,0.023703588571428576,0.0,0.029847405065250437,0.04576819297183086, ,1.1505231857299805
0.012598270230916715,0.021338184491136093,-0.08661991140053099, ,0.01315676282718322,0.02115342538071282,-0.08733222271041698, ,0.0009238167086388888, ,0.008046517807584332,0.0016770621303661363,-0.0235596153039601,-0.008170869100110927,-0.011080272272747108,0.04473689186619726, ,0.024952243576229192, ,0.013766926929714138, ,0.00039518093025405285, ,0.17628682331992288,-0.16165224452326743,0.10022136506000001,2.760987485860732,0.9725786053304051,-0.5780941944611677, ,0.04355068451513115,0.026761686846720468,0.023703588571428576,0.0,0.029847405065250437,0.04576819297183086, ,1.152435064315796
0.012598270230916715,0.021338184491136093,-0.08661991140053099, ,0.01319026639462823,0.02115544516324287,-0.0874108172899732, ,0.0010046816638927926, ,0.008046517807584332,0.0016770621303661363,-0.0235596153039601,-0.008170869100110927,-0.011080272272747108,0.04473689186619726, ,0.024952243576229192, ,0.013766926929714138, ,0.0004009856991458504, ,0.17628682331992288,-0.16165224452326743,0.10022136506000001,2.760987485860732,0.9725786053304051,-0.5780941944611677, ,0.04355068451513115,0.026761686846720468,0.023703588571428576,0.0,0.029847405065250437,0.04576819297183086, ,1.1543362140655518
0.012598270230916715,0.021338184491136093,-0.08661991140053099, ,0.013223805231735011,0.02115733689116452,-0.08748936283820034, ,0.001086253052529441, ,0.008046517807584332,0.0016770621303661363,-0.0235596153039601,-0.008170869100110927,-0.011080272272747108,0.04473689186619726, ,0.024952243576229192, ,0.013766926929714138, ,0.0004074504854985258, ,0.17628682331992288,-0.16165224452326743,0.10022136506000001,2.760987485860732,0.9725786053304051,-0.5780941944611677, ,0.04355068451513115,0.026761686846720468,0.023703588571428576,0.0,0.029847405065250437,0.04576819297183086, ,1.1562371253967285
0.012687151172442361,0.02135846235529901,-0.08686632560142059, ,0.013257379123956681,0.021159101504249392,-0.0875678588836167, ,0.0009257719004421683, ,0.010036326431775048,0.0025773466223731716,-0.028769372524247532,0.00613795414214603,-0.0038119508399599824,0.01647079086234512, ,0.030578544100331752, ,0.007223969949480626, ,0.0004122946108718309, ,0.17681196915537015,-0.16133561247542424,0.10051432660000001,2.761616555691186,0.9731251513294669,-0.5774780424541262, ,0.05280853731690082,0.02931632423802001,0.030168203636363643,0.0413806513424901,0.05436553870926818,0.05860745026670407, ,1.1581900119781494
0.012687151172442361,0.02135846235529901,-0.08686632560142059, ,0.0132909878574983,0.02116073993998494,-0.08764630495636491, ,0.0010060222114229584, ,0.010036326431775048,0.0025773466223731716,-0.028769372524247532,0.00613795414214603,-0.0038119508399599824,0.01647079086234512, ,0.030578544100331752, ,0.007223969949480626, ,0.0004177920886547117, ,0.17681196915537015,-0.16133561247542424,0.10051432660000001,2.761616555691186,0.9731251513294669,-0.5774780424541262, ,0.05280853731690082,0.02931632423802001,0.030168203636363643,0.0413806513424901,0.05436553870926818,0.05860745026670407, ,1.1600630283355713
0.012687151172442361,0.02135846235529901,-0.08686632560142059, ,0.013324631219312424,0.021162253133575833,-0.08772470058820855, ,0.0010870540404183744, ,0.010036326431775048,0.0025773466223731716,-0.028769372524247532,0.00613795414214603,-0.0038119508399599824,0.01647079086234512, ,0.030578544100331752, ,0.007223969949480626, ,0.00042393210656080035, ,0.17681196915537015,-0.16133561247542424,0.10051432660000001,2.761616555691186,0.9731251513294669,-0.5774780424541262, ,0.05280853731690082,0.02931632423802001,0.030168203636363643,0.0413806513424901,0.05436553870926818,0.05860745026670407, ,1.1619560718536377
0.012687151172442361,0.02135846235529901,-0.08686632560142059, ,0.01335830899710069,0.021163642017946634,-0.08780304531253152, ,0.001168696541720711, ,0.010036326431775048,0.0025773466223731716,-0.028769372524247532,0.00613795414214603,-0.0038119508399599824,0.01647079086234512, ,0.030578544100331752, ,0.007223969949480626, ,0.0004307026923349814, ,0.17681196915537015,-0.16133561247542424,0.10051432660000001,2.761616555691186,0.9731251513294669,-0.5774780424541262, ,0.05280853731690082,0.02931632423802001,0.030168203636363643,0.0413806513424901,0.05436553870926818,0.05860745026670407, ,1.1638660430908203
0.012687151172442361,0.02135846235529901,-0.08686632560142059, ,0.0133920209793115,0.021164907523743833,-0.08788133866433631, ,0.0012508223036641322, ,0.010036326431775048,0.0025773466223731716,-0.028769372524247532,0.00613795414214603,-0.0038119508399599824,0.01647079086234512, ,0.030578544100331752, ,0.007223969949480626, ,0.0004380911573019107, ,0.17681196915537015,-0.16133561247542424,0.10051432660000001,2.761616555691186,0.9731251513294669,-0.5774780424541262, ,0.05280853731690082,0.02931632423802001,0.030168203636363643,0.0413806513424901,0.05436553870926818,0.05860745026670407, ,1.1658310890197754
0.012687151172442361,0.02135846235529901,-0.08686632560142059, ,0.0134257669551395,0.02116605057933809,-0.0879595801802421, ,0.0013333345942005445, ,0.013179243214315916,0.0035279544050641123,-0.03598646432112404,-0.010851624077238034,0.022143180914222498,-0.09260695386187408, ,0.03848590038341103, ,0.024658018037262145, ,0.00044608440227421987, ,0.177391174120937,-0.1610035349618326,0.10085913974,2.7635037651825463,0.9735350608287632,-0.5762604001025446, ,0.06087039227611981,0.035675541939274726,0.03765676482269504,0.1891157377691106,0.033007841473775355,0.10608968306355135, ,1.167968988418579
0.012810252463104108,0.021391217013118545,-0.08719462770649743, ,0.013459546714524874,0.02116707211082653,-0.0880377693984821, ,0.001087525574372539, ,0.013179243214315916,0.0035279544050641123,-0.03598646432112404,-0.010851624077238034,0.022143180914222498,-0.09260695386187408, ,0.03848590038341103, ,0.024658018037262145, ,0.00045176087282376254, ,0.177391174120937,-0.1610035349618326,0.10085913974,2.7635037651825463,0.9735350608287632,-0.5762604001025446, ,0.06087039227611981,0.035675541939274726,0.03765676482269504,0.1891157377691106,0.033007841473775355,0.10608968306355135, ,1.1701011657714844
0.012810252463104108,0.021391217013118545,-0.08719462770649743, ,0.013493360048150996,0.021167973042034473,-0.08811590585890382, ,0.001168429406286623, ,0.013179243214315916,0.0035279544050641123,-0.03598646432112404,-0.010851624077238034,0.022143180914222498,-0.09260695386187408, ,0.03848590038341103, ,0.024658018037262145, ,0.0004580474389067701, ,0.177391174120937,-0.1610035349618326,0.10085913974,2.7635037651825463,0.9735350608287632,-0.5762604001025446, ,0.06087039227611981,0.035675541939274726,0.03765676482269504,0.1891157377691106,0.033007841473775355,0.10608968306355135, ,1.172032117843628
0.012810252463104108,0.021391217013118545,-0.08719462770649743, ,0.013527206747444785,0.021168754294518165,-0.08819398910296534, ,0.0012498945186502064, ,0.013179243214315916,0.0035279544050641123,-0.03598646432112404,-0.010851624077238034,0.022143180914222498,-0.09260695386187408, ,0.03848590038341103, ,0.024658018037262145, ,0.0004649330656871478, ,0.177391174120937,-0.1610035349618326,0.10085913974,2.7635037651825463,0.9735350608287632,-0.5762604001025446, ,0.06087039227611981,0.035675541939274726,0.03765676482269504,0.1891157377691106,0.033007841473775355,0.10608968306355135, ,1.1739931106567383
0.012810252463104108,0.021391217013118545,-0.08719462770649743, ,0.013561086604574623,0.0211694167875666,-0.08827201867373503, ,0.001331810250875794, ,0.013179243214315916,0.0035279544050641123,-0.03598646432112404,-0.010851624077238034,0.022143180914222498,-0.09260695386187408, ,0.03848590038341103, ,0.024658018037262145, ,0.00047240614486980856, ,0.177391174120937,-0.1610035349618326,0.10085913974,2.7635037651825463,0.9735350608287632,-0.5762604001025446, ,0.06087039227611981,0.035675541939274726,0.03765676482269504,0.1891157377691106,0.033007841473775355,0.10608968306355135, ,1.1759111881256104
0.012945940664679832,0.021429910917966352,-0.08758503853529986, ,0.01359499941245089,0.02116996143820404,-0.08834999411588922, ,0.0010363435870219988, ,0.013179243214315916,0.0035279544050641123,-0.03598646432112404,-0.010851624077238034,0.022143180914222498,-0.09260695386187408, ,0.03848590038341103, ,0.024658018037262145, ,0.0004772261230078614, ,0.17803988368237184,-0.16062512105099558,0.10127006367000001,2.764761904843454,0.9743548798273558,-0.5758670839028959, ,0.06687592780723804,0.03865455867962149,0.042819385806451615,0.07043489804902625,0.0963404857698229,0.005056108438404955, ,1.1780760288238525
0.012945940664679832,0.021429910917966352,-0.08758503853529986, ,0.013628944964722948,0.021170389161191728,-0.08842791497571052, ,0.0011154761807928115, ,0.013651556628599876,0.003956430695722869,-0.04068679549130312,0.05959611816212057,-0.01867834122631632,-0.04953488673897874, ,0.0430979543549929, ,0.062453712722860634, ,0.0004826350218026491, ,0.17803988368237184,-0.16062512105099558,0.10127006367000001,2.764761904843454,0.9743548798273558,-0.5758670839028959, ,0.06687592780723804,0.03865455867962149,0.042819385806451615,0.07043489804902625,0.0963404857698229,0.005056108438404955, ,1.180373191833496
0.012945940664679832,0.021429910917966352,-0.08758503853529986, ,0.013662923055778623,0.021170700869030473,-0.08850578080108609, ,0.0011954162114595232, ,0.013651556628599876,0.003956430695722869,-0.04068679549130312,0.05959611816212057,-0.01867834122631632,-0.04953488673897874, ,0.0430979543549929, ,0.062453712722860634, ,0.0004886247796989253, ,0.17803988368237184,-0.16062512105099558,0.10127006367000001,2.764761904843454,0.9743548798273558,-0.5758670839028959, ,0.06687592780723804,0.03865455867962149,0.042819385806451615,0.07043489804902625,0.0963404857698229,0.005056108438404955, ,1.182521104812622
0.012945940664679832,0.021429910917966352,-0.08758503853529986, ,0.013696933480744924,0.02117089747196278,-0.08858359114150599, ,0.0012760037156501827, ,0.013651556628599876,0.003956430695722869,-0.04068679549130312,0.05959611816212057,-0.01867834122631632,-0.04953488673897874, ,0.0430979543549929, ,0.062453712722860634, ,0.0004951862708318525, ,0.17803988368237184,-0.16062512105099558,0.10127006367000001,2.764761904843454,0.9743548798273558,-0.5758670839028959, ,0.06687592780723804,0.03865455867962149,0.042819385806451615,0.07043489804902625,0.0963404857698229,0.005056108438404955, ,1.1849420070648193
0.012945940664679832,0.021429910917966352,-0.08758503853529986, ,0.013730976035485103,0.02117097987797494,-0.08866134554806143, ,0.0013571155450462337, ,0.013651556628599876,0.003956430695722869,-0.04068679549130312,0.05959611816212057,-0.01867834122631632,-0.04953488673897874, ,0.0430979543549929, ,0.062453712722860634, ,0.0005023096532633764, ,0.17803988368237184,-0.16062512105099558,0.10127006367000001,2.764761904843454,0.9743548798273558,-0.5758670839028959, ,0.06687592780723804,0.03865455867962149,0.042819385806451615,0.07043489804902625,0.0963404857698229,0.005056108438404955, ,1.1869971752166748
0.013092387006707935,0.021468939027906253,-0.0880243873357128, ,0.013765050516598107,0.021170948992799175,-0.08873904357344342, ,0.0010256743131658165, ,0.014766449391879283,0.003740885152649453,-0.04459912581467953,-0.022816112784461696,-0.0011427673665599415,0.04949168597457526, ,0.047128805128094, ,0.02284085081069923, ,0.0005065995275248717, ,0.1787503751068005,-0.16019264801003902,0.10172895033000001,2.7653909746739074,0.9750380623261831,-0.575117313579129, ,0.07156632093399003,0.04499617902250867,0.04643968373177843,0.0490871171022999,0.05778503299378615,0.10865741963435507, ,1.1889350414276123
0.013092387006707935,0.021468939027906253,-0.0880243873357128, ,0.013799156721417079,0.02117080571991581,-0.08881668477194013, ,0.00110278834162126, ,0.014766449391879283,0.003740885152649453,-0.04459912581467953,-0.022816112784461696,-0.0011427673665599415,0.04949168597457526, ,0.047128805128094, ,0.02284085081069923, ,0.0005114465910541106, ,0.1787503751068005,-0.16019264801003902,0.10172895033000001,2.7653909746739074,0.9750380623261831,-0.575117313579129, ,0.07156632093399003,0.04499617902250867,0.04643968373177843,0.0490871171022999,0.05778503299378615,0.10865741963435507, ,1.190887212753296
0.013092387006707935,0.021468939027906253,-0.0880243873357128, ,0.013833294448010042,0.021170550960555756,-0.0888942686994362, ,0.0011809626845363421, ,0.014766449391879283,0.003740885152649453,-0.04459912581467953,-0.022816112784461696,-0.0011427673665599415,0.04949168597457526, ,0.047128805128094, ,0.02284085081069923, ,0.0005168459143886447, ,0.1787503751068005,-0.16019264801003902,0.10172895033000001,2.7653909746739074,0.9750380623261831,-0.575117313579129, ,0.07156632093399003,0.04499617902250867,0.04643968373177843,0.0490871171022999,0.05778503299378615,0.10865741963435507, ,1.1929500102996826
0.013092387006707935,0.021468939027906253,-0.0880243873357128, ,0.01386746349517684,0.021170185613702344,-0.08897179491341052, ,0.001259991382412929, ,0.014766449391879283,0.003740885152649453,-0.04459912581467953,-0.022816112784461696,-0.0011427673665599415,0.04949168597457526, ,0.047128805128094, ,0.02284085081069923, ,0.000522791078132839, ,0.1787503751068005,-0.16019264801003902,0.10172895033000001,2.7653909746739074,0.9750380623261831,-0.575117313579129, ,0.07156632093399003,0.04499617902250867,0.04643968373177843,0.0490871171022999,0.05778503299378615,0.10865741963435507, ,1.195000171661377
0.013092387006707935,0.021468939027906253,-0.0880243873357128, ,0.013901663662449527,0.021169710576093646,-0.08904926297293453, ,0.0013397150606278595, ,0.014766449391879283,0.003740885152649453,-0.04459912581467953,-0.022816112784461696,-0.0011427673665599415,0.04949168597457526, ,0.047128805128094, ,0.02284085081069923, ,0.0005292746018034344, ,0.1787503751068005,-0.16019264801003902,0.10172895033000001,2.7653909746739074,0.9750380623261831,-0.575117313579129, ,0.07156632093399003,0.04499617902250867,0.04643968373177843,0.0490871171022999,0.05778503299378615,0.10865741963435507, ,1.1970031261444092
0.013092387006707935,0.021468939027906253,-0.0880243873357128, ,0.01393589475008948,0.021169126742224546,-0.08912667243867045, ,0.0014200088619415994, ,0.015403542299095041,0.0037407699354333763,-0.04438500335351104,-0.022071418252896834,0.012549606664248938,-0.0014413416263205738, ,0.047130573917161654, ,0.025386371784368044, ,0.0005362882573950735, ,0.17921373907925398,-0.15989918416081847,0.10202839332000001,2.766020044504361,0.9754479718254793,-0.5743897436683909, ,0.0732794915509427,0.046313783093445964,0.046304684651162796,0.11493115218604284,0.053870350085969264,0.1253085200202216, ,1.1989071369171143
0.013092387006707935,0.021468939027906253,-0.0880243873357128, ,0.013970156559090029,0.021168435004349333,-0.08920402287286998, ,0.0015007738189970745, ,0.015403542299095041,0.0037407699354333763,-0.04438500335351104,-0.022071418252896834,0.012549606664248938,-0.0014413416263205738, ,0.047130573917161654, ,0.025386371784368044, ,0.0005438233008450891, ,0.17921373907925398,-0.15989918416081847,0.10202839332000001,2.766020044504361,0.9754479718254793,-0.5743897436683909, ,0.0732794915509427,0.046313783093445964,0.046304684651162796,0.11493115218604284,0.053870350085969264,0.1253085200202216, ,1.200991153717041
0.013189926556713917,0.021493659982947784,-0.0883111689842564, ,0.014004448891171492,0.02116763625248344,-0.08928131383937173, ,0.0013080210801293883, ,0.015403542299095041,0.0037407699354333763,-0.04438500335351104,-0.022071418252896834,0.012549606664248938,-0.0014413416263205738, ,0.047130573917161654, ,0.025386371784368044, ,0.0005497473146379906, ,0.17921373907925398,-0.15989918416081847,0.10202839332000001,2.766020044504361,0.9754479718254793,-0.5743897436683909, ,0.0732794915509427,0.046313783093445964,0.046304684651162796,0.11493115218604284,0.053870350085969264,0.1253085200202216, ,1.2029411792755127
0.013189926556713917,0.021493659982947784,-0.0883111689842564, ,0.014038771548781205,0.021166731374405563,-0.08935854490360082, ,0.001387233380532505, ,0.015403542299095041,0.0037407699354333763,-0.04438500335351104,-0.022071418252896834,0.012549606664248938,-0.0014413416263205738, ,0.047130573917161654, ,0.025386371784368044, ,0.0005561895151448715, ,0.17921373907925398,-0.15989918416081847,0.10202839332000001,2.766020044504361,0.9754479718254793,-0.5743897436683909, ,0.0732794915509427,0.046313783093445964,0.046304684651162796,0.11493115218604284,0.053870350085969264,0.1253085200202216, ,1.2048640251159668
0.013189926556713917,0.021493659982947784,-0.0883111689842564, ,0.01407312433509481,0.021165721255660467,-0.0894357156325656, ,0.0014670334995545366, ,0.015403542299095041,0.0037407699354333763,-0.04438500335351104,-0.022071418252896834,0.012549606664248938,-0.0014413416263205738, ,0.047130573917161654, ,0.025386371784368044, ,0.0005631425226594491, ,0.17921373907925398,-0.15989918416081847,0.10202839332000001,2.766020044504361,0.9754479718254793,-0.5743897436683909, ,0.0732794915509427,0.046313783093445964,0.046304684651162796,0.11493115218604284,0.053870350085969264,0.1253085200202216, ,1.2067630290985107
0.013401262780114826,0.02153584058301477,-0.08888354719212935, ,0.014107507054011939,0.02116460677956057,-0.08951282559485751, ,0.0010161627917709072, ,0.015594454255983395,0.002127713386990037,-0.040329674706592426,0.03371333896177483,0.007684250937554735,-0.02769127679835682, ,0.04329199498450835, ,0.034576440627286494, ,0.000566574494395142, ,0.18028719894877118,-0.15920413820213827,0.10262987188000001,2.767697564052237,0.9766777003233683,-0.5730238213375825, ,0.08346256953251607,0.05916268176962019,0.042476830720000004,0.11682339459202865,0.11227058052479108,0.08388024960322177, ,1.2086601257324219
0.013401262780114826,0.02153584058301477,-0.08888354719212935, ,0.014141919510156534,0.021163388827188163,-0.08958987436064786, ,0.0010891238548309257, ,0.015594454255983395,0.002127713386990037,-0.040329674706592426,0.03371333896177483,0.007684250937554735,-0.02769127679835682, ,0.04329199498450835, ,0.034576440627286494, ,0.0005705034369548097, ,0.18028719894877118,-0.15920413820213827,0.10262987188000001,2.767697564052237,0.9766777003233683,-0.5730238213375825, ,0.08346256953251607,0.05916268176962019,0.042476830720000004,0.11682339459202865,0.11227058052479108,0.08388024960322177, ,1.2105450630187988
0.013401262780114826,0.02153584058301477,-0.08888354719212935, ,0.01417636150887764,0.0211620682773981,-0.08966686150168719, ,0.0011636430222941286, ,0.015594454255983395,0.002127713386990037,-0.040329674706592426,0.03371333896177483,0.007684250937554735,-0.02769127679835682, ,0.04329199498450835, ,0.034576440627286494, ,0.0005749298517707747, ,0.18028719894877118,-0.15920413820213827,0.10262987188000001,2.767697564052237,0.9766777003233683,-0.5730238213375825, ,0.08346256953251607,0.05916268176962019,0.042476830720000004,0.11682339459202865,0.11227058052479108,0.08388024960322177, ,1.2123680114746094
0.013401262780114826,0.02153584058301477,-0.08888354719212935, ,0.014210832856244969,0.021160646006819404,-0.08974378659130344, ,0.001239429910105123, ,0.015594454255983395,0.002127713386990037,-0.040329674706592426,0.03371333896177483,0.007684250937554735,-0.02769127679835682, ,0.04329199498450835, ,0.034576440627286494, ,0.0005798520744251032, ,0.18028719894877118,-0.15920413820213827,0.10262987188000001,2.767697564052237,0.9766777003233683,-0.5730238213375825, ,0.08346256953251607,0.05916268176962019,0.042476830720000004,0.11682339459202865,0.11227058052479108,0.08388024960322177, ,1.2143030166625977
0.013401262780114826,0.02153584058301477,-0.08888354719212935, ,0.014245333359049706,0.02115912288985763,-0.08982064920439932, ,0.001316256640614409, ,0.015594454255983395,0.002127713386990037,-0.040329674706592426,0.03371333896177483,0.007684250937554735,-0.02769127679835682, ,0.04329199498450835, ,0.034576440627286494, ,0.0005852668138823775, ,0.18028719894877118,-0.15920413820213827,0.10262987188000001,2.767697564052237,0.9766777003233683,-0.5730238213375825, ,0.08346256953251607,0.05916268176962019,0.042476830720000004,0.11682339459202865,0.11227058052479108,0.08388024960322177, ,1.2164011001586914
0.013401262780114826,0.02153584058301477,-0.08888354719212935, ,0.014279862824804335,0.021157499798697386,-0.08989744891745202, ,0.0013939427880004962, ,0.016487238374973883,0.001817795627028768,-0.03948933470987515,0.032429775590201465,-0.0022546840712712596,-0.055193419560380874, ,0.04283154171873115, ,0.03250658266915128, ,0.0005911695582190061, ,0.18119075869505544,-0.15857087410645185,0.10305635129000001,2.768955703713144,0.9779074288212573,-0.5723113289278984, ,0.09222248936683264,0.0610662429591189,0.0416984594764398,0.1384067331843445,0.10620816066169553,0.07816024487679243, ,1.2183701992034912
0.013564445487347176,0.02155399292322671,-0.08928739879048633, ,0.01431442106174033,0.02115577760330417,-0.0899741853085103, ,0.001092114703017424, ,0.016487238374973883,0.001817795627028768,-0.03948933470987515,0.032429775590201465,-0.0022546840712712596,-0.055193419560380874, ,0.04283154171873115, ,0.03250658266915128, ,0.0005947995955001541, ,0.18119075869505544,-0.15857087410645185,0.10305635129000001,2.768955703713144,0.9779074288212573,-0.5723113289278984, ,0.09222248936683264,0.0610662429591189,0.0416984594764398,0.1384067331843445,0.10620816066169553,0.07816024487679243, ,1.2203311920166016
0.013564445487347176,0.02155399292322671,-0.08928739879048633, ,0.014349007878806911,0.021153957171426437,-0.0900508579571935, ,0.0011655199046093705, ,0.016487238374973883,0.001817795627028768,-0.03948933470987515,0.032429775590201465,-0.0022546840712712596,-0.055193419560380874, ,0.04283154171873115, ,0.03250658266915128, ,0.000598905497004537, ,0.18119075869505544,-0.15857087410645185,0.10305635129000001,2.768955703713144,0.9779074288212573,-0.5723113289278984, ,0.09222248936683264,0.0610662429591189,0.0416984594764398,0.1384067331843445,0.10620816066169553,0.07816024487679243, ,1.2221741676330566
0.013564445487347176,0.02155399292322671,-0.08928739879048633, ,0.014383623085670314,0.021152039368598115,-0.09012746644468922, ,0.001240295231511824, ,0.016487238374973883,0.001817795627028768,-0.03948933470987515,0.032429775590201465,-0.0022546840712712596,-0.055193419560380874, ,0.04283154171873115, ,0.03250658266915128, ,0.0006034868522510176, ,0.18119075869505544,-0.15857087410645185,0.10305635129000001,2.768955703713144,0.9779074288212573,-0.5723113289278984, ,0.09222248936683264,0.0610662429591189,0.0416984594764398,0.1384067331843445,0.10620816066169553,0.07816024487679243, ,1.2240641117095947
0.013564445487347176,0.02155399292322671,-0.08928739879048633, ,0.01441826649271443,0.021150025058140724,-0.09020401035375213, ,0.0013161979726245745, ,0.016487238374973883,0.001817795627028768,-0.03948933470987515,0.032429775590201465,-0.0022546840712712596,-0.055193419560380874, ,0.04283154171873115, ,0.03250658266915128, ,0.0006085415410479931, ,0.18119075869505544,-0.15857087410645185,0.10305635129000001,2.768955703713144,0.9779074288212573,-0.5723113289278984, ,0.09222248936683264,0.0610662429591189,0.0416984594764398,0.1384067331843445,0.10620816066169553,0.07816024487679243, ,1.225966215133667
0.013564445487347176,0.02155399292322671,-0.08928739879048633, ,0.014452937911035985,0.02114791510116534,-0.09028048926870191, ,0.0013930350614557306, ,0.016487238374973883,0.001817795627028768,-0.03948933470987515,0.032429775590201465,-0.0022546840712712596,-0.055193419560380874, ,0.04283154171873115, ,0.03250658266915128, ,0.0006140661433043856, ,0.18210976390708816,-0.15797622367513656,0.10343486797000001,2.7702138433740515,0.9787272478198499,-0.5712645828071252, ,0.10281358782066174,0.06856715430525345,0.039330398814814815,0.12578520024636425,0.09095898494992659,0.12076558618891714, ,1.2285621166229248
0.013722409229013185,0.021566127958146615,-0.08964663277478849, ,0.014487637152447856,0.021145710356575042,-0.09035690277542219, ,0.0011255257475133696, ,0.01707969672246462,0.0006294543782549011,-0.037324816031160495,-0.006286413801544459,-0.004171484370426362,-0.01151263783755489, ,0.04105184703159711, ,0.007539750571429813, ,0.0006176427838932597, ,0.18210976390708816,-0.15797622367513656,0.10343486797000001,2.7702138433740515,0.9787272478198499,-0.5712645828071252, ,0.10281358782066174,0.06856715430525345,0.039330398814814815,0.12578520024636425,0.09095898494992659,0.12076558618891714, ,1.23073410987854
0.013722409229013185,0.021566127958146615,-0.08964663277478849, ,0.014522364029475916,0.021143411681067023,-0.0904332504613573, ,0.0011989095539340236, ,0.01707969672246462,0.0006294543782549011,-0.037324816031160495,-0.006286413801544459,-0.004171484370426362,-0.01151263783755489, ,0.04105184703159711, ,0.007539750571429813, ,0.0006216793586852094, ,0.18210976390708816,-0.15797622367513656,0.10343486797000001,2.7702138433740515,0.9787272478198499,-0.5712645828071252, ,0.10281358782066174,0.06856715430525345,0.039330398814814815,0.12578520024636425,0.09095898494992659,0.12076558618891714, ,1.2327630519866943
0.013722409229013185,0.021566127958146615,-0.08964663277478849, ,0.014557118355356067,0.021141019929134523,-0.09050953191551273, ,0.0012735976951114786, ,0.01707969672246462,0.0006294543782549011,-0.037324816031160495,-0.006286413801544459,-0.004171484370426362,-0.01151263783755489, ,0.04105184703159711, ,0.007539750571429813, ,0.0006261753472122872, ,0.18210976390708816,-0.15797622367513656,0.10343486797000001,2.7702138433740515,0.9787272478198499,-0.5712645828071252, ,0.10281358782066174,0.06856715430525345,0.039330398814814815,0.12578520024636425,0.09095898494992659,0.12076558618891714, ,1.234868049621582
0.013722409229013185,0.021566127958146615,-0.08964663277478849, ,0.014591899944038002,0.02113853595306952,-0.09058574672845157, ,0.0013493643111795013, ,0.01707969672246462,0.0006294543782549011,-0.037324816031160495,-0.006286413801544459,-0.004171484370426362,-0.01151263783755489, ,0.04105184703159711, ,0.007539750571429813, ,0.0006311286962805558, ,0.18210976390708816,-0.15797622367513656,0.10343486797000001,2.7702138433740515,0.9787272478198499,-0.5712645828071252, ,0.10281358782066174,0.06856715430525345,0.039330398814814815,0.12578520024636425,0.09095898494992659,0.12076558618891714, ,1.237030029296875
0.013871196867870686,0.021566116924073057,-0.08996433756626399, ,0.014626708610178882,0.021135960602964483,-0.09066189449229352, ,0.0011146381109611318, ,0.01697242937959998,-0.0003274361471314012,-0.03572735669981907,-0.008889798617821233,-0.00011589201617050182,0.012722288445928473, ,0.03955520939436503, ,0.008887279646173833, ,0.0006344178759722604, ,0.18302104638624667,-0.15733523684657594,0.10376931079000001,2.771262293091474,0.9795470668184426,-0.5701361579462113, ,0.10532401948775891,0.07573578735711954,0.03765676482269504,0.11252022612079687,0.10301944073559821,0.1324773418806138, ,1.238962173461914
0.013871196867870686,0.021566116924073057,-0.08996433756626399, ,0.014661544169146511,0.02113329472671463,-0.09073797480071352, ,0.001187644088810653, ,0.01697242937959998,-0.0003274361471314012,-0.03572735669981907,-0.008889798617821233,-0.00011589201617050182,0.012722288445928473, ,0.03955520939436503, ,0.008887279646173833, ,0.0006381558909238711, ,0.18302104638624667,-0.15733523684657594,0.10376931079000001,2.771262293091474,0.9795470668184426,-0.5701361579462113, ,0.10532401948775891,0.07573578735711954,0.03765676482269504,0.11252022612079687,0.10301944073559821,0.1324773418806138, ,1.2408981323242188
0.013871196867870686,0.021566116924073057,-0.08996433756626399, ,0.014696406437016129,0.021130539170020377,-0.09081398724893922, ,0.0012619839127757946, ,0.01697242937959998,-0.0003274361471314012,-0.03572735669981907,-0.008889798617821233,-0.00011589201617050182,0.012722288445928473, ,0.03955520939436503, ,0.008887279646173833, ,0.0006423426561711995, ,0.18302104638624667,-0.15733523684657594,0.10376931079000001,2.771262293091474,0.9795470668184426,-0.5701361579462113, ,0.10532401948775891,0.07573578735711954,0.03765676482269504,0.11252022612079687,0.10301944073559821,0.1324773418806138, ,1.242786169052124
0.013871196867870686,0.021566116924073057,-0.08996433756626399, ,0.014731295230569196,0.0211276947763891,-0.09088993143375028, ,0.0013374255794715102, ,0.01697242937959998,-0.0003274361471314012,-0.03572735669981907,-0.008889798617821233,-0.00011589201617050182,0.012722288445928473, ,0.03955520939436503, ,0.008887279646173833, ,0.0006469765423265349, ,0.18302104638624667,-0.15733523684657594,0.10376931079000001,2.771262293091474,0.9795470668184426,-0.5701361579462113, ,0.10532401948775891,0.07573578735711954,0.03765676482269504,0.11252022612079687,0.10301944073559821,0.1324773418806138, ,1.2446861267089844
0.013871196867870686,0.021566116924073057,-0.08996433756626399, ,0.0147662103672945,0.02112476238713777,-0.09096580695347514, ,0.0014137835495383704, ,0.01697242937959998,-0.0003274361471314012,-0.03572735669981907,-0.008889798617821233,-0.00011589201617050182,0.012722288445928473, ,0.03955520939436503, ,0.008887279646173833, ,0.0006520547344272756, ,0.18302104638624667,-0.15733523684657594,0.10376931079000001,2.771262293091474,0.9795470668184426,-0.5701361579462113, ,0.10532401948775891,0.07573578735711954,0.03765676482269504,0.11252022612079687,0.10301944073559821,0.1324773418806138, ,1.2466120719909668
0.01407181553501484,0.021557872670517716,-0.09038222025099767, ,0.014801151665383915,0.02112174284139477,-0.09104161340799109, ,0.001075611339844605, ,0.01706372259241309,-0.0014126551119639248,-0.03549146498160277,0.02112181339967143,-0.0020241264683808764,0.004047740040984861, ,0.03940571417594817, ,0.021217251820832075, ,0.0006548412910418632, ,0.18427985184474524,-0.15639306343592055,0.10421134568000001,2.772520432752381,0.9810500683158624,-0.5688297139425146, ,0.10722818255194438,0.08762413809646424,0.03747955651764706,0.10230718198747622,0.13927677485834222,0.10351361338876948, ,1.248575210571289
0.01407181553501484,0.021557872670517716,-0.09038222025099767, ,0.014836118943734905,0.021118636976102393,-0.09111735039872143, ,0.001147825783785147, ,0.01706372259241309,-0.0014126551119639248,-0.03549146498160277,0.02112181339967143,-0.0020241264683808764,0.004047740040984861, ,0.03940571417594817, ,0.021217251820832075, ,0.0006580634119094665, ,0.18427985184474524,-0.15639306343592055,0.10421134568000001,2.772520432752381,0.9810500683158624,-0.5688297139425146, ,0.10722818255194438,0.08762413809646424,0.03747955651764706,0.10230718198747622,0.13927677485834222,0.10351361338876948, ,1.2504591941833496
0.01407181553501484,0.021557872670517716,-0.09038222025099767, ,0.014871112021946171,0.021115445626018654,-0.0911930175286339, ,0.001221478116524105, ,0.01706372259241309,-0.0014126551119639248,-0.03549146498160277,0.02112181339967143,-0.0020241264683808764,0.004047740040984861, ,0.03940571417594817, ,0.021217251820832075, ,0.0006617219489524187, ,0.18427985184474524,-0.15639306343592055,0.10421134568000001,2.772520432752381,0.9810500683158624,-0.5688297139425146, ,0.10722818255194438,0.08762413809646424,0.03747955651764706,0.10230718198747622,0.13927677485834222,0.10351361338876948, ,1.2523391246795654
0.01407181553501484,0.021557872670517716,-0.09038222025099767, ,0.014906130720318461,0.021112169623719815,-0.09126861440223924, ,0.0012963130893840493, ,0.01706372259241309,-0.0014126551119639248,-0.03549146498160277,0.02112181339967143,-0.0020241264683808764,0.004047740040984861, ,0.03940571417594817, ,0.021217251820832075, ,0.0006658160853423001, ,0.18427985184474524,-0.15639306343592055,0.10421134568000001,2.772520432752381,0.9810500683158624,-0.5688297139425146, ,0.10722818255194438,0.08762413809646424,0.03747955651764706,0.10230718198747622,0.13927677485834222,0.10351361338876948, ,1.254281997680664
0.01407181553501484,0.021557872670517716,-0.09038222025099767, ,0.01494117485985442,0.021108809799602467,-0.0913441406255891, ,0.0013721275103919094, ,0.01706372259241309,-0.0014126551119639248,-0.03549146498160277,0.02112181339967143,-0.0020241264683808764,0.004047740040984861, ,0.03940571417594817, ,0.021217251820832075, ,0.0006703437226823618, ,0.18427985184474524,-0.15639306343592055,0.10421134568000001,2.772520432752381,0.9810500683158624,-0.5688297139425146, ,0.10722818255194438,0.08762413809646424,0.03747955651764706,0.10230718198747622,0.13927677485834222,0.10351361338876948, ,1.2561781406402588
0.014246088475183443,0.021543441869030063,-0.09074055891724517, ,0.014976244262254827,0.021105366981885643,-0.0914195958062751, ,0.0010890951183454406, ,0.01781540445088432,-0.0012484184506194353,-0.036148597982098005,0.02559182556746239,-0.005683675900904848,-0.012280871985689128, ,0.040319577384290324, ,0.02621419430696497, ,0.0006730109290241648, ,0.18536103444713667,-0.15550494915538474,0.10458986236000001,2.773778572413288,0.9824164333135168,-0.5677385669956836, ,0.11190677070574384,0.08690196113413075,0.03829041230769231,0.11699380419933059,0.13924809294796048,0.10092948908024187, ,1.2586591243743896
0.014246088475183443,0.021543441869030063,-0.09074055891724517, ,0.015011338749919442,0.02110184199661299,-0.09149497955342586, ,0.0011617955614468425, ,0.01781540445088432,-0.0012484184506194353,-0.036148597982098005,0.02559182556746239,-0.005683675900904848,-0.012280871985689128, ,0.040319577384290324, ,0.02621419430696497, ,0.0006761045026470932, ,0.18536103444713667,-0.15550494915538474,0.10458986236000001,2.773778572413288,0.9824164333135168,-0.5677385669956836, ,0.11190677070574384,0.08690196113413075,0.03829041230769231,0.11699380419933059,0.13924809294796048,0.10092948908024187, ,1.2605931758880615
0.014246088475183443,0.021543441869030063,-0.09074055891724517, ,0.015046458145946757,0.021098235667655202,-0.09157029147770637, ,0.001235822112405307, ,0.01781540445088432,-0.0012484184506194353,-0.036148597982098005,0.02559182556746239,-0.005683675900904848,-0.012280871985689128, ,0.040319577384290324, ,0.02621419430696497, ,0.0006796247391864529, ,0.18536103444713667,-0.15550494915538474,0.10458986236000001,2.773778572413288,0.9824164333135168,-0.5677385669956836, ,0.11190677070574384,0.08690196113413075,0.03829041230769231,0.11699380419933059,0.13924809294796048,0.10092948908024187, ,1.2624800205230713
0.014246088475183443,0.021543441869030063,-0.09074055891724517, ,0.015081602274130424,0.021094548816711793,-0.09164553119131602, ,0.0013109397764532896, ,0.01781540445088432,-0.0012484184506194353,-0.036148597982098005,0.02559182556746239,-0.005683675900904848,-0.012280871985689128, ,0.040319577384290324, ,0.02621419430696497, ,0.0006835704581693707, ,0.18536103444713667,-0.15550494915538474,0.10458986236000001,2.773778572413288,0.9824164333135168,-0.5677385669956836, ,0.11190677070574384,0.08690196113413075,0.03829041230769231,0.11699380419933059,0.13924809294796048,0.10092948908024187, ,1.264343023300171
0.014246088475183443,0.021543441869030063,-0.09074055891724517, ,0.015116770958959826,0.021090782263313675,-0.09172069830798642, ,0.0013869614023053977, ,0.01781540445088432,-0.0012484184506194353,-0.036148597982098005,0.02559182556746239,-0.005683675900904848,-0.012280871985689128, ,0.040319577384290324, ,0.02621419430696497, ,0.0006879393460211473, ,0.18536103444713667,-0.15550494915538474,0.10458986236000001,2.773778572413288,0.9824164333135168,-0.5677385669956836, ,0.11190677070574384,0.08690196113413075,0.03829041230769231,0.11699380419933059,0.13924809294796048,0.10092948908024187, ,1.2662780284881592
0.014440840588091171,0.021526086211966115,-0.09113369252101174, ,0.01515196402561951,0.02108693682482511,-0.09179579244298039, ,0.0010662668682367175, ,0.019029198291046715,-0.002103477993102636,-0.038001755291684175,-0.013516641504603792,-0.015505003102668547,-0.0029016452604048015, ,0.04255194957362692, ,0.02056758287470696, ,0.0006902747010965521, ,0.18649627617964767,-0.15460138940910045,0.10497615678000001,2.7748270221307108,0.9837827983111712,-0.5667290987889932, ,0.11847308559109959,0.0962443626353659,0.03972272199501248,0.12156203528431057,0.11464459070358289,0.12222002770717952, ,1.269200086593628
