NicholasDascanio/dvrk_moveit_final/test/execution/third_experiment_notsharpbends/thirdexp_600vel4.0/thirdexp_600vel4.0_18.csv
Current Position (x),Current Position (y),Current Position (z), ,Planned Position (x),Planned Position (y),Planned Position (z), ,Position Error,,Cartesian linear Velocity(x),Cartesian linear Velocity(y),Cartesian linear Velocity(z),Cartesian Angular Velocity(x),Cartesian Angular Velocity(y),Cartesian Angular Velocity(z), ,Total Linear Velocity, ,Total Angular Velocity, ,MSE, ,Joint 1 Position,Joint 2 Position,Joint 3 Position,Joint 4 Position,Joint 5 Position,Joint 6 Position, ,Joint 1 Velocity,Joint 2 Velocity,Joint 3 Velocity,Joint 4 Velocity,Joint 5 Velocity,Joint 6 Velocity, ,Time Stamp
0.010104983619632194,0.020063720608704483,-0.08017169888912928, ,0.010238755700911593,0.0200154441612648,-0.08019716094336155, ,0.0001444780305546319, ,-1.7210003195952735e-05,-1.4933408549135334e-05,-5.9064051755876805e-06,0.015185831711886878,-0.00022521713349469224,-0.006380490913790017, ,2.35388301110803e-05, ,0.015187501688525624, ,1.2039835879552658e-05, ,0.18960081479508595,-0.2324388140484093,0.09127566777000001,1.751540097926232,0.6181435249388526,-1.2621149835671686, ,0.0003296113388600411,0.0,0.0,-0.0011892729572666148,0.0,-0.16138845704864258, ,0.019140958786010742
0.01010507352084355,0.020062960851005646,-0.08017322120298155, ,0.010254326446585492,0.02004114005538996,-0.08022164786193069, ,0.00015842261284553785, ,2.1770652924697226e-05,1.2068041074761743e-05,5.763953064354612e-06,0.13305426227467693,-0.0013175131466358733,-0.06535849706021468, ,2.555038354071906e-05, ,0.13306078517110168, ,1.376821106364408e-05, ,0.18960853752796017,-0.23244653678128352,0.09127696406000001,1.7513304079827472,0.6180068884390871,-1.263718819206424, ,0.0002650767661366747,-7.753376785331799e-05,0.0,0.0011522007641799148,0.0,-0.14751151658542394, ,0.04158902168273926
0.010126503134159616,0.020069882057116673,-0.08018301350634653, ,0.010270027011390702,0.020066545280150085,-0.08024659817924738, ,0.0001570135282193126, ,0.0010871184236514743,0.00041247398427678584,-0.00035412425589930146,0.16202690542812678,-0.09809842931484349,-0.1884263839193875, ,0.0012154691453771529, ,0.1894096616243598, ,1.4372317863108824e-05, ,0.1896239829937086,-0.23246198224703196,0.09127955664000001,1.75237885770017,0.6156840679430747,-1.2676239053935647, ,0.000572738817758377,-8.429072255575704e-05,0.0,0.08291123638553151,-0.11988634567892097,-0.18079501882526228, ,0.06069803237915039
0.010147933282321737,0.02007348610884287,-0.0802029896256404, ,0.010285856933194665,0.020091661271451833,-0.08027200939445456, ,0.00015529648577201948, ,0.0013200796402693324,8.223868357318323e-05,-0.0005258237090873309,0.17200393245773776,-0.14082823852205542,-0.13273443648027336, ,0.0014233285041647336, ,0.22230147445788773, ,1.4647872795035759e-05, ,0.1896548739252055,-0.23248515044565465,0.09129251954,1.7521691677566855,0.6136345204465931,-1.2716701486479578, ,0.0016932601281681998,-0.0008667015641295915,0.0,0.00529027299757984,-0.14426080080170076,-0.21022287374023563, ,0.08127117156982422
0.010176462817784199,0.020076227689904365,-0.08021956965705208, ,0.010301815750848793,0.020116489462085312,-0.0802978790124722, ,0.0001531885220026695, ,0.0012512806046893132,0.00031315911253163676,-0.0012792934578560232,-0.08128366794063152,-0.11031121813406732,-0.002415878365511746, ,0.0018166902687983101, ,0.13702408372290326, ,1.4776907296041755e-05, ,0.1896780421238282,-0.23250831864427732,0.09129770470000001,1.7521691677566855,0.6104918809519879,-1.274334976231936, ,0.0016572636120765216,-0.0010924087286313523,0.0009132527410332758,0.005391245327746252,-0.11573829752075715,0.0750647827039474, ,0.10082101821899414
0.010182823504238367,0.02008307563180616,-0.08022779958079404, ,0.010317903004186875,0.020141031281727236,-0.0803242045439923, ,0.00017578181246469236, ,0.00020650036696922126,0.0003374627242480893,-0.0006564030934596381,-0.14745232471139916,0.008298075506016656,0.07402597652686475, ,0.0007664127562343593, ,0.14768563274705948, ,1.5228725675142963e-05, ,0.18970893305532507,-0.23255465504152267,0.09130677873000001,1.75237885770017,0.610218607952457,-1.2715800994801858, ,0.001743566501694461,-0.001942766896593148,0.0007799372462267924,0.0,0.008412704571400519,0.16662616819580633, ,0.1205141544342041
0.010176345861597696,0.020091457524230673,-0.08023927459961779, ,0.010334118234024662,0.020165288156943517,-0.0803509835054739, ,0.00020693468408070832, ,-0.00045567501828301573,0.0005423702976852639,-0.0009614514822880125,0.0019231838216719798,0.0975490839887876,0.03378553251543582, ,0.0011942337354522543, ,0.09756803996731028, ,1.5987717721382944e-05, ,0.189739823986822,-0.232600991438768,0.09132622308,1.75237885770017,0.6117216094498769,-1.2692935105948022, ,0.0015960877278898482,-0.0023168368128342136,0.001494737807131665,0.0,0.10340263901235518,0.01580853524991216, ,0.14229297637939453
0.010182932475864354,0.020101953771751287,-0.0802599936813283, ,0.010350460982158636,0.02018926151119222,-0.08037821341913665, ,0.00022285499365047516, ,0.00033727935264522173,0.000537635755481105,-0.0012498427662885566,0.041376523962671066,0.012706200790705835,-0.012791045094770885, ,0.0014017547958670767, ,0.04328353351754194, ,1.6755739873049357e-05, ,0.18979388311694156,-0.23264732783601336,0.09135085259,1.7525885476436547,0.6119948824494077,-1.2688629164810705, ,0.0026856421179328703,-0.0024803075941019575,0.001455755849407838,0.0,0.016573398363096587,-0.04067449293619892, ,0.16144895553588867
0.010193015448408055,0.020115180316459275,-0.08028697721554763, ,0.010366930791365277,0.020212952764826268,-0.08040589181295638, ,0.00023226424531659672, ,0.0006960589766096788,0.0007428266712793923,-0.0017417742883803018,0.006424285920264002,-0.0028859214864666856,-0.006422246993529644, ,0.0020174407634787304, ,0.007042726204767685, ,1.7459075162028738e-05, ,0.18986338771280958,-0.23270910969900716,0.09138196355000001,1.7527982375871392,0.6121315189491732,-1.2694644068256105, ,0.004319012802515956,-0.0032514020086326337,0.001944965803014711,0.006329709719995304,0.0,-0.002292649268720578, ,0.18327116966247559
0.010206354682628347,0.020129192920455213,-0.0803167110484411, ,0.010383527205399557,0.020236363335096545,-0.08043401622065953, ,0.00023798341124688888, ,0.0006282107680813625,0.000768588823362065,-0.0013058480264904197,0.0022742127988444353,-0.003257892108242742,-0.0024919317024108658, ,0.00164030991486956, ,0.003973147976048838, ,1.8080571825034636e-05, ,0.18995606050730027,-0.2327863370277494,0.09141566709000001,1.7527982375871392,0.6121315189491732,-1.2694644068256102, ,0.004521562413032022,-0.004838172719090118,0.0015224492692011567,0.005285919880711549,0.0,0.0038207945080354997, ,0.2060699462890625
0.010210563070705649,0.020134207642631113,-0.0803243262794617, ,0.010400249768995095,0.020259494636154108,-0.08046258418171717, ,0.0002660697686511286, ,0.0007450885628730154,0.0007007364593579677,-0.0014776749829580006,-0.025048345152210792,-0.004762661438162086,0.012762652936041285, ,0.0017971399242289522, ,0.02549710844060151, ,1.9011604457699654e-05, ,0.18998695143879715,-0.23280950522637206,0.09142474112000001,1.7530079275306234,0.6121315189491732,-1.2695460855657508, ,0.005578984775438294,-0.0037398407748130396,0.0016861498704756302,0.001900411756330434,0.0,0.03221262093521974, ,0.2234971523284912
0.01023255696212384,0.020159446081964485,-0.08036291088437984, ,0.01041709802786218,0.02028234807905362,-0.08049159324134048, ,0.000256358059801684, ,0.0007287993941548324,0.0009061532806193285,-0.0013124458723323975,0.003954813630992191,-0.0038020785980267795,-0.004716630037930767, ,0.0017535040612157047, ,0.005486014265161988, ,1.9722051288386212e-05, ,0.19014912882915588,-0.232979405349605,0.09147011127000002,1.753217617474108,0.6119948824494077,-1.2692713101817732, ,0.005690130288442883,-0.006218038413343846,0.0015746440416141412,0.007972179520886712,0.0,0.004007822014873232, ,0.24076509475708008
0.010247715527674596,0.02017889490319738,-0.08039104337350743, ,0.010434071528687226,0.020304925071755894,-0.08052104095047442, ,0.00025982981452788725, ,0.0007866021459653671,0.0011340400821670145,-0.0016542823508808606,0.006258735221612737,-0.0025092513519495295,-0.009154461638976421, ,0.0021544001347091023, ,0.006743004442318502, ,2.0360278830497928e-05, ,0.19026496982226926,-0.23311069180846683,0.09150381481000001,1.7534273074175926,0.6119948824494077,-1.2690262739613518, ,0.00553077351941324,-0.007607733387251772,0.0019667627509569086,0.012874976216011203,0.0,0.003967312134956674, ,0.2624211311340332
0.010262176106817775,0.02019882680123638,-0.08042317265397604, ,0.010451169819131781,0.020327227019130777,-0.08055092486579365, ,0.0002617744580241754, ,0.0006838409805109146,0.0011771163294509144,-0.001447752716787993,0.006571482963959232,-0.0022365233523064893,-0.006693793246275308, ,0.001987266783462436, ,0.006941644260883617, ,2.0929350921437737e-05, ,0.19036536534963416,-0.23324970100020287,0.09154140722000001,1.7534273074175926,0.6119948824494077,-1.2688629164810705, ,0.004786517163121656,-0.008836840567552547,0.0017655266732089362,0.010831014079910722,0.0,0.004550573524028529, ,0.2794220447540283
0.010268829277299999,0.0202106455749385,-0.08043682818702894, ,0.010468392447831711,0.020349255322959933,-0.08058124254969556, ,0.0002826546115379034, ,0.0006454156484433683,0.0010599636328517713,-0.0013832328035221302,0.006206580000286555,-0.004425542138884325,0.001977426310221925, ,0.0018583372274599652, ,0.007622798601428094, ,2.157078257616538e-05, ,0.19041170174687952,-0.23333465106181933,0.09155825899000002,1.7536369973610773,0.6119948824494077,-1.2687812377409298, ,0.0045892053557968415,-0.008288916152623057,0.0016702871259480993,0.0005909125530985937,0.0,0.002261573120987713, ,0.29787206649780273
0.010288199127770143,0.020243843233626477,-0.0804757433680505, ,0.010485738964396195,0.020371011381939568,-0.08061199157029628, ,0.0002715829479456227, ,0.0007824441775354187,0.0013401709183563275,-0.0017173319701085448,0.00170194373918332,-0.0013450697271127092,-0.008699262851731938, ,0.002314628712542039, ,0.0021692913698263512, ,2.206723068360214e-05, ,0.19055071093861556,-0.23358177851379452,0.09160622172,1.7540563772480462,0.6119948824494077,-1.268372844040227, ,0.005278846566351276,-0.009601490739793102,0.0020775807382287727,0.016371146101835737,0.0,0.011901125773678113, ,0.3157341480255127
0.010296016714007808,0.020256149295185988,-0.08049315617577187, ,0.010503208919406558,0.020392496591683337,-0.08064316950142437, ,0.00028986754408429354, ,0.0007409228578325336,0.0013212535972238705,-0.0016989991768228475,0.000691611910992628,-0.0013106894610486683,-0.006688567782497796, ,0.0022762416287117806, ,0.0014819695963730493, ,2.2620336549855923e-05, ,0.19060477006873514,-0.2336744513082852,0.09162696236000001,1.7540563772480462,0.6119948824494077,-1.268209486559946, ,0.004837072154026208,-0.009552540594584942,0.0020503039670485266,0.014571767685671347,0.0,0.012600211473263932, ,0.33253002166748047
0.010317066696848528,0.020288442370688616,-0.0805408137582472, ,0.010520801864415721,0.020413712344725256,-0.08067477392261588, ,0.00027412754428633176, ,0.0008490659834376223,0.0013970141529356804,-0.0021085869432294667,-0.015597741525218324,-0.00221783518316343,0.003743908431824719, ,0.002668089294774686, ,0.015754628956135868, ,2.3025764798922757e-05, ,0.19073605652759695,-0.23391385602738618,0.09168270283,1.7540563772480462,0.6118582459496423,-1.2676896749555469, ,0.005220417814334089,-0.009449692626194932,0.002477264622083982,0.011409777488881032,0.0,0.029886271275028, ,0.3542211055755615
0.010334352680216215,0.020316082724811266,-0.08057868910607842, ,0.01053851735194698,0.02043466003052235,-0.08070680241910878, ,0.0002686201995164301, ,0.000750550288187149,0.0012849138123360872,-0.0015848220384922045,0.010817815445081602,-0.001732066655533131,-0.011901185417782428, ,0.0021739342524373768, ,0.010955600663270728, ,2.3361220079393385e-05, ,0.1908518975207103,-0.23409920161636757,0.09172807298,1.7544757571350151,0.6118582459496423,-1.2673629599949845, ,0.005205631842066623,-0.0093982771297137,0.0019331081941747574,0.01490660114458066,0.0,0.0012854288046630653, ,0.37109994888305664
0.010347589418927335,0.02033469480527774,-0.08060322153974499, ,0.010556354935493117,0.020455341035457524,-0.0807392525818376, ,0.0002897361363539955, ,0.0008868685663685641,0.0011194179420020436,-0.001707165242548815,0.0005091203934406153,-0.004374407467861901,-0.003362738197824287, ,0.0022257685298016677, ,0.004403935087555534, ,2.3775205265015548e-05, ,0.19095229304807523,-0.2342304880752294,0.09175788765000001,1.7546854470785,0.6118582459496423,-1.267444638735125, ,0.006632497914575141,-0.007430307687052154,0.0020278563360916616,0.009231435331094301,0.0,0.009404625172107838, ,0.39023303985595703
0.010359908829218509,0.020350085362181206,-0.08062733744145296, ,0.010574314169515344,0.020475756742842507,-0.08077212200742838, ,0.0002876204380947372, ,0.0009079481214944788,0.001064450081191859,-0.0015973612957837298,0.002218216021907797,-0.005226926062985339,-0.0032336562173817147, ,0.002123437514018857, ,0.005678136875539748, ,2.414159128844638e-05, ,0.19104496584256592,-0.23433860633546852,0.09178640603,1.7546854470785,0.6118582459496423,-1.267444638735125, ,0.007155628319950178,-0.00716075032879895,0.0019113756207439624,0.007940215389947648,0.0,0.006954581182315834, ,0.407210111618042
0.01037889857843423,0.020370373529362676,-0.08066280377216148, ,0.010592394609443065,0.020495908532920146,-0.08080540829819252, ,0.0002857895085884674, ,0.0009111701611841194,0.0009445661560919799,-0.001602612576066216,-0.0007738092864292939,-0.005546696505023144,-0.0015523802762611527, ,0.002071425440326604, ,0.005600412745506221, ,2.4584925155819087e-05, ,0.19119169776717618,-0.23446989279433034,0.09182788731000001,1.7546854470785,0.6118582459496423,-1.267281281254844, ,0.007191245943689176,-0.005825321566836526,0.0018878464268725754,0.006631834224004456,0.0,0.008548931264715679, ,0.42446398735046387
0.010387710225301166,0.020380773324784315,-0.08067652456560895, ,0.010610595811671453,0.020515797782868193,-0.0808391090621224, ,0.00030715355670902264, ,0.0009668982316300345,0.0009913350916709856,-0.0016523741614059223,0.005712570511105221,-0.0038512931563341505,-0.012987912921230806, ,0.002155916933369543, ,0.006889551567994623, ,2.509402264642955e-05, ,0.1912612023630442,-0.2345239519244499,0.09184473908000002,1.7551048269654688,0.6118582459496423,-1.2671996025147034, ,0.00763383027084222,-0.00562558187397786,0.0019542156201693044,0.016111814004207754,0.0,0.003089516770782671, ,0.44510412216186523
0.010409159785336667,0.020401447598996272,-0.08071694961872643, ,0.010628917333562244,0.02053542586680107,-0.08087322191288485, ,0.00030110560633709005, ,0.0009818938226483981,0.0011198046842685943,-0.0019711934005705993,0.0027959364657339815,-0.004171864254388974,-0.007718859187448686, ,0.0024705629788204253, ,0.005022122265308621, ,2.554003786938801e-05, ,0.19142337975340293,-0.23463207018468904,0.09189140552000001,1.7553145169089535,0.6118582459496423,-1.2669545662942818, ,0.008596553276851854,-0.004274860567362957,0.002576226996603591,0.010947616422388716,0.0,0.0035934245030918672, ,0.46091508865356445
0.010432980324421267,0.02042133574922489,-0.08076398754302648, ,0.010647358733441479,0.020554794155773302,-0.08090774446981674, ,0.00029057753273895726, ,0.0011643433476467837,0.0010635899907254726,-0.0022535293202090023,-0.002759134967019701,-0.00625788034425622,-0.0038156637518724995, ,0.00275051149727144, ,0.006839144106621854, ,2.5910240572323002e-05, ,0.19160100260951007,-0.23472474297917975,0.09194455341,1.7553145169089535,0.6118582459496423,-1.2667912088140008, ,0.008668262226177387,-0.0051120633666409945,0.002576226996603591,0.009793785015456065,0.0,0.01062192325387276, ,0.47844409942626953
0.010454541278507215,0.02043849409415292,-0.08080258910036708, ,0.01066591957059932,0.02057390401778224,-0.08094267435791921, ,0.0002874726233374598, ,0.0008831513675127899,0.0007238615762933015,-0.0013333755811063494,-0.00018429724878090128,-0.0054776419338668225,-0.004373817349164183, ,0.0017555119936543382, ,0.0054807414304407585, ,2.6242982060949045e-05, ,0.19177090273274303,-0.2348096930407962,0.09198862727000001,1.7553145169089535,0.6118582459496423,-1.26670953007386, ,0.0074407855262776604,-0.003906526186818443,0.0015717000113763776,0.008111072701982094,0.0,0.00611553373072137, ,0.4942290782928467
0.010464349978680815,0.02044618338379174,-0.08081685935980294, ,0.010684599405288592,0.020592756817770674,-0.08097800920785223, ,0.0003097787194042521, ,0.001042343299758612,0.0009087786766687469,-0.0016030172516703191,-0.003942290800084778,-0.006839001781485765,-0.0011711793611687827, ,0.002117078776728002, ,0.007893896509900137, ,2.6643925285513945e-05, ,0.1918558527943595,-0.23485602943804157,0.09200547904,1.7553145169089535,0.6118582459496423,-1.2666278513337197, ,0.008734028939146704,-0.0052851204406776835,0.0018966082910402738,0.007522317479161866,0.0,0.011654697613511664, ,0.509274959564209
0.010480107217404482,0.020461801808729457,-0.08084314673164991, ,0.01070339779872432,0.020611353917629947,-0.08101374665592916, ,0.0003183219300438135, ,0.0011744829948477004,0.0010613340563991036,-0.0020306591296944537,0.0031516040665152526,-0.0058530641882880595,-0.010297502415208715, ,0.002574765384548743, ,0.00664762879151405, ,2.705314912893691e-05, ,0.19197941652034708,-0.2349332567667838,0.09203659000000002,1.7557338967959226,0.6118582459496423,-1.266546172593579, ,0.009239925426987467,-0.005409555313356137,0.002362624075941857,0.014259640192172214,0.0,0.005320087234740032, ,0.5285861492156982
0.010499864697490861,0.020481389609592927,-0.08088202823871843, ,0.010722314313082437,0.02062969667620248,-0.08104988434411152, ,0.0003156809934109213, ,0.0011414909070657099,0.0009024897095242923,-0.002206364450837123,-0.00649373161679156,-0.009523960241515849,0.009679169590124286, ,0.0026430159395336114, ,0.011527114510605282, ,2.7427699319047952e-05, ,0.19213387117783157,-0.23501820682840027,0.09208196015,1.7561532766828913,0.6119948824494077,-1.2665759117571347, ,0.008641387206892465,-0.004235794077138401,0.00248926574777309,-0.00439440895048604,0.0,0.010891089593108753, ,0.544201135635376
0.010523415227685406,0.02050289900319978,-0.08092732771522093, ,0.010741348511498626,0.020647786449284656,-0.08108641992000352, ,0.0003062639675985375, ,0.0011774903936920247,0.0010330879477771125,-0.002431734048058618,0.0007490130199748309,-0.009510800993429158,0.006808905468045557, ,0.0028925913668485697, ,0.00954024926066784, ,2.7745803249619945e-05, ,0.19231149403393874,-0.23513404782151365,0.09213381175,1.7561532766828913,0.6119948824494077,-1.266330875536713, ,0.008536064950885497,-0.0051074188080824055,0.002743036252798347,-0.00439440895048604,0.0,0.003817118861707175, ,0.5603151321411133
0.01054668825448262,0.020523976298093955,-0.08097545875244076, ,0.01076049995806843,0.020665624589629766,-0.08112335103684698, ,0.0002960604851583035, ,0.0011758842817682252,0.0012313360529366683,-0.0023746403566415374,-0.00414222596560032,-0.004308876446486278,-0.008391670408676551, ,0.002921952967239869, ,0.005976993567477747, ,2.8009483175461025e-05, ,0.1924813941571717,-0.23524988881462702,0.09218825593,1.7559435867394069,0.6119948824494077,-1.2660858393162913, ,0.008390696879823238,-0.006257915696675785,0.002736439017350971,0.016709033695715865,0.0,0.014827482417182049, ,0.5787689685821533
0.010571739789251213,0.020548093282035024,-0.08102392812800409, ,0.010779768217844985,0.02068321244695061,-0.08116067535351507, ,0.00028325398411254544, ,0.001228881315200864,0.0011719617951105818,-0.002240813543385029,-0.009953180883670925,-0.005732744432012712,-0.0038214464067940347, ,0.002811563456916168, ,0.011486085859392993, ,2.821425175230828e-05, ,0.19266673974615306,-0.23537345254061462,0.09224399640000001,1.7561532766828913,0.6119948824494077,-1.2657591243557291, ,0.008422147732054124,-0.005674560765204448,0.0024799644278374593,0.001233603295357068,0.0,-0.014210288320821123, ,0.5943930149078369
0.010582280801791827,0.020558992202886237,-0.08104400507699343, ,0.010799152856838615,0.020700551367922662,-0.08119839053450807, ,0.00030150846581486387, ,0.0012144810856610667,0.0011591798197334634,-0.002345220878843245,0.010551163686553162,-0.0067649088805453615,-0.009543606973436139, ,0.002884219674793872, ,0.012533596739626464, ,2.8565632507540394e-05, ,0.1927439670748953,-0.23542751167073417,0.09226732962,1.756362966626376,0.6119948824494077,-1.2656774456155886, ,0.008990673581562577,-0.005906635403944082,0.0026956864985615164,0.009721273060215188,0.0,-0.0032581113616094795, ,0.6085221767425537
0.010595880597958799,0.02057203582545299,-0.08106986429679136, ,0.010818653442016438,0.02071764269618631,-0.08123649424994708, ,0.00031399783779981324, ,0.0012083253728009554,0.001054414080121915,-0.0021590192461746114,0.009178442984302142,-0.00549345490225964,-0.015289198892490346, ,0.0026894615379786154, ,0.01069681552296448, ,2.8941996897794623e-05, ,0.19284436260226023,-0.23548929353372797,0.09229714429000001,1.7565726565698605,0.6119948824494077,-1.2656774456155886, ,0.009270151811477653,-0.004805532746132858,0.0024900440081288104,0.016274537050213568,0.0,-0.0015818985955096893, ,0.6257390975952148
0.010621758774057733,0.020593289434227464,-0.08111355913625613, ,0.010838269541300473,0.020734487772350315,-0.08127498417556926, ,0.0003047489562540616, ,0.0013056182962953703,0.001073503951596283,-0.0023213949104147194,0.0021216450978475436,-0.006516652676957432,-0.010847455846355356, ,0.002871571729874325, ,0.006853330574684381, ,2.9271529084793004e-05, ,0.1930528763898643,-0.23560513452684134,0.09234769960000001,1.7565726565698605,0.6119948824494077,-1.2657591243557291, ,0.010063333043514214,-0.0046223159457315635,0.002663680856187291,0.014875946790552734,0.0,0.005744839357804498, ,0.6389560699462891
0.01063525341510981,0.020604664392641674,-0.0811398511328617, ,0.01085800072356746,0.02075108793399396,-0.08131385799272176, ,0.00031833096639445374, ,0.0013108736200563194,0.0011796444320836999,-0.002763730473723544,0.002403435963132408,-0.005952304988650855,-0.009456568606266905, ,0.0032784381594432735, ,0.006419224170065567, ,2.9629353257666517e-05, ,0.19315327191722922,-0.23565919365696092,0.09237751427,1.7565726565698605,0.6119948824494077,-1.2657591243557291, ,0.009100170503735145,-0.004726682764073096,0.0031165743533555085,0.013195324727084541,0.0,0.005200266848132024, ,0.6527681350708008
0.0106648919571375,0.020630236603549318,-0.0812048227292427, ,0.010877846558646966,0.020767444515670606,-0.081353113388357, ,0.00029354010464209464, ,0.0014886768550008492,0.0012044662560365992,-0.0032867278022602094,-0.0001725507974775233,-0.009265300055811629,-8.32652588131238e-05, ,0.0038403091381727416, ,0.00926690663157809, ,2.9895200886797473e-05, ,0.19335406297195906,-0.2357518664514516,0.09245010651,1.756782346513345,0.6119948824494077,-1.265432409395167, ,0.010107246944133643,-0.004105230050030197,0.0036492122611683857,0.0033082116407845137,0.0,0.005333935970331611, ,0.6677839756011963
0.010679969684394653,0.020642314070861447,-0.08123476095137783, ,0.010897806617321945,0.020783558848909763,-0.08139274805502666, ,0.00030391272035312365, ,0.001569348929359039,0.0012500343006370568,-0.003077901593703423,-0.0005142054319302087,-0.008081072557393846,-0.008792379532311625, ,0.0036740876466643535, ,0.008097415675872065, ,3.0181141412916934e-05, ,0.1934621812321982,-0.23579048011582274,0.09248381005,1.7569920364568297,0.6119948824494077,-1.2653507306550262, ,0.01143267266612214,-0.004526772144147874,0.00346957340884339,0.013877389088497637,0.0,0.008356746096350978, ,0.6808061599731445
0.010694903238712224,0.02065334652000976,-0.08126498210057634, ,0.010917880471326398,0.020799432262220356,-0.08143275969087738, ,0.0003149749357468288, ,0.001540603795263606,0.0011673417720957718,-0.002990046809594474,0.00011502389933915199,-0.008140572299123837,-0.008865632486766894, ,0.003560411042341378, ,0.008141384870873378, ,3.048796669651578e-05, ,0.19357029949243734,-0.23582909378019384,0.09251751359,1.7569920364568297,0.6119948824494077,-1.2652690519148857, ,0.011294565765111972,-0.0038684172530740663,0.003361217877189281,0.013118106758791754,0.0,0.006789262528880947, ,0.6947050094604492
0.010727149539139032,0.020676647035890453,-0.08132949902697062, ,0.010938067693345007,0.020815066081093413,-0.08147314599964366, ,0.0002903114751550183, ,0.001624219177960071,0.0010871767129908285,-0.002974240105929271,-0.004350211171067278,-0.009703584514747014,-0.0052074612772493615, ,0.003558952844734107, ,0.010634090907781994, ,3.071085280747058e-05, ,0.1938174269444125,-0.23590632110893608,0.09259010583,1.7569920364568297,0.6121315189491732,-1.2652987910784415, ,0.012341909423653373,-0.003095869969525911,0.0033372745694531746,0.010747312903202948,-9.361760144992951e-06,0.010401711281670181, ,0.7091989517211914
0.01074264020698853,0.02068843175539232,-0.08135810468740248, ,0.010958367857012116,0.020830461628004802,-0.08151390469064385, ,0.00030163644459684576, ,0.0014893761516692897,0.001048453945654359,-0.0027319312886983026,-0.001568736256447948,-0.011319936155503188,0.0032963363079085363, ,0.0032834350250139236, ,0.011428118298949555, ,3.095704733856306e-05, ,0.19393326793752588,-0.23594493477330722,0.09262251308000001,1.757201726400314,0.6121315189491732,-1.2652171123383011, ,0.011413319297310244,-0.004011894889133715,0.0030774365378670792,9.399468764181012e-05,-9.361760144992951e-06,0.0061103008759851515, ,0.722905158996582
0.01076640719035537,0.020704818373343814,-0.08139924890699515, ,0.010978780536910863,0.02084562022241821,-0.08155503347877471, ,0.00029865771685072805, ,0.0015575264930915056,0.0010641779665334285,-0.0027267007033846334,-0.004931726943379622,-0.011075679188461711,0.0013139572606121472, ,0.003315608578673816, ,0.012124050477421095, ,3.118534367694965e-05, ,0.19411861352650728,-0.2359989939034268,0.09266917952,1.7574114163437988,0.6121315189491732,-1.26505375485802, ,0.012180639098155336,-0.0039295027231652105,0.0030851852643811743,0.004162619725381859,-9.361760144992951e-06,0.010585932129071739, ,0.7402629852294922
0.010788426045773151,0.02071983220091877,-0.081442315703007, ,0.010999305308572066,0.020860543180787828,-0.08159653008450478, ,0.0002967350986908457, ,0.0015557425362124414,0.0010493915443830356,-0.00310619386853916,-0.008711114460062926,-0.010110268730638139,0.002302113098174633, ,0.00362904915940162, ,0.013345450485198081, ,3.1399654313431075e-05, ,0.19428079091686598,-0.23604533030067215,0.09271714225000001,1.7574114163437988,0.6121315189491732,-1.2648903973777388, ,0.011253046550275203,-0.002713164751611166,0.003447048586885956,0.004162619725381859,-9.361760144992951e-06,0.013446853418665358, ,0.7531850337982178
0.010804059208240138,0.020730870872968904,-0.08147444677698812, ,0.011019941748473507,0.020875231816561066,-0.08163839223387057, ,0.00030712125625691563, ,0.001656596047922103,0.0011712364384226864,-0.0032132472926301777,-0.002698778109037235,-0.010205817407652399,0.0004951276982628101, ,0.003800139921670695, ,0.010556614604010695, ,3.171880305100185e-05, ,0.19440435464285358,-0.23607622123216904,0.09275343837000001,1.7574114163437988,0.6122681554489386,-1.2649201365412948, ,0.012292349942807096,-0.003763879366595237,0.003598105154732325,0.004162619725381859,0.00105305178657458,0.008097520713093798, ,0.7648811340332031
0.010820824238487861,0.020741895249282605,-0.08150710628636804, ,0.011040689434038633,0.020889687440181624,-0.08168061765846998, ,0.0003166850677787188, ,0.0016124096371224741,0.0010451826409081405,-0.0031348854265243987,-0.004636290397396262,-0.009840930008929919,0.0006092029493941037, ,0.0036769251050539774, ,0.010878377258896628, ,3.205312117130002e-05, ,0.19452791836884117,-0.23610711216366592,0.09278973449000001,1.7574114163437988,0.6122681554489386,-1.264838457801154, ,0.011938223871992802,-0.002543655709708658,0.0034862796060407095,0.004162619725381859,0.00105305178657458,0.008916491990397138, ,0.7769269943237305
0.010834146298444562,0.020752469676335733,-0.08153292864523366, ,0.011061547943636259,0.020903911359091896,-0.08172320409545769, ,0.0003329426954745599, ,0.0016446637973633973,0.00112715273015936,-0.0030318846244813302,-0.001524379327754215,-0.008409244678876587,-0.0043369836964089765, ,0.0036287348566173567, ,0.008546293240224552, ,3.241932942246345e-05, ,0.19463603662908033,-0.23613800309516284,0.09281954916000001,1.757621106287283,0.6124047919487041,-1.2647865182245694, ,0.012583024411635479,-0.0034313315961391317,0.0034160007548788337,0.00921537016536094,0.0020060133435244177,0.007634469043442862, ,0.7886011600494385
0.010854665584478042,0.020765014698384567,-0.08157142883204167, ,0.011082516856578547,0.02091790487773644,-0.08176614928753921, ,0.0003364634674511257, ,0.0017663588199752843,0.0013547165905110977,-0.0039493160996509555,-0.003541921485612312,-0.00798613695409315,-0.0021107018728447158, ,0.004533473081035413, ,0.008736337350344615, ,3.278329734788998e-05, ,0.1949140550125524,-0.23620750769103085,0.09290510430000001,1.757621106287283,0.6124047919487041,-1.2646231607442884, ,0.01186608586651189,-0.003557618081708363,0.004371243556531285,0.007840700879636661,0.0020060133435244177,0.009718374513628003, ,0.8006300926208496
0.010890517699532073,0.02079197729738831,-0.08165334358724324, ,0.011103595753121287,0.02093166929756395,-0.08180945098296613, ,0.0002988070126918378, ,0.0018318687952708897,0.0013402286279389985,-0.004290627851410457,-0.0013717837298162236,-0.0074984081454511535,-0.0031101399137598725, ,0.004854013124985714, ,0.007622854705621993, ,3.304114388477002e-05, ,0.19503761873854,-0.23623839862252774,0.09295306703,1.757621106287283,0.6125414284484696,-1.2646528999078441, ,0.011903492250628474,-0.002452435400720957,0.004708486999704405,0.007251619508464313,0.0027502094732773817,0.006109552350861836, ,0.8121731281280518
0.010908099097997406,0.0208049432091657,-0.08169212149108886, ,0.011124784214462165,0.02094520591703082,-0.08185310693552951, ,0.0003042077912163933, ,0.0018756284284661743,0.0013163078274804141,-0.004140768500597342,0.002732220009261624,-0.009881886418234247,0.00036767799973084255, ,0.0047325058979251, ,0.01025264376366272, ,3.330472828255055e-05, ,0.19515345973165335,-0.23626156682115043,0.09299584460000002,1.7578307962307675,0.6125414284484696,-1.2645712211677038, ,0.012836053233933557,-0.0029285800273418016,0.0045641293753581665,0.0013481943832588626,0.0027502094732773817,0.0008561959146025232, ,0.8265080451965332
0.010918511097450678,0.020813027172929547,-0.08171425106514832, ,0.011146081822739956,0.020958516031603307,-0.08189711490455613, ,0.0003261818921550483, ,0.0018137179691693965,0.0012954737947849138,-0.004001743445816021,-0.0021088839934187737,-0.006783034156918241,-0.0067479668839563215, ,0.004580586843494386, ,0.007103305079002584, ,3.361441828857934e-05, ,0.19522296432752137,-0.23627701228689887,0.09302047411000001,1.7580404861742522,0.6125414284484696,-1.264489542427563, ,0.012293794861626932,-0.0024526230233467587,0.0044173076871880206,0.011864257711713098,0.0027502094732773817,0.007889674363868213, ,0.839508056640625
0.010958673623250804,0.0208384343318645,-0.08179462464672291, ,0.01116748816103341,0.020971600933760968,-0.08194147265490186, ,0.00028792567192964985, ,0.001454493161995433,0.0009370645473010163,-0.0026883103050912268,0.000582626006431242,-0.0035969158358606173,-0.006282394768256992, ,0.0031969755426902494, ,0.0036437969829870107, ,3.382272544364739e-05, ,0.19552415090961614,-0.23633107141701845,0.09310991812000001,1.7580404861742522,0.612678064948235,-1.2644376028509783, ,0.011338859797157005,-0.0021065910288126186,0.003031749432813095,0.010609816840844883,0.005438455855916726,0.004687677136614958, ,0.8512871265411377
0.01097508562974817,0.020848222090594535,-0.08182695211638315, ,0.01118900281336116,0.020984461912998856,-0.08198617795694668, ,0.00029945737419011573, ,0.0016573749529930912,0.0009053662081276068,-0.0028249357441066936,0.00032121119982995484,-0.004141986105976814,-0.005303340319652757, ,0.0033980643996192675, ,0.004154422385494321, ,3.405253739966699e-05, ,0.19565543736847796,-0.2363465168827669,0.09314621424000001,1.7580404861742522,0.6128147014480004,-1.2643856632743935, ,0.01361115053908072,-0.0013136914536375681,0.003191507016629934,0.00978119641094666,0.007455989969071218,0.004252136210020756, ,0.8633489608764648
0.01099154636229376,0.020855869405254773,-0.08185106933466803, ,0.011210625364679653,0.020997100255830816,-0.08203122858658934, ,0.0003168581993474031, ,0.001580576446179848,0.0008371821231755458,-0.002440476136652948,0.00410010570391815,-0.00440176591682944,-0.006348346281689822, ,0.0030257262901914527, ,0.006015514099666993, ,3.431672278687216e-05, ,0.195794446560214,-0.23636196234851534,0.09317343633000001,1.7580404861742522,0.6128147014480004,-1.264303984534253, ,0.01359555036654309,-0.0016515374169320837,0.0027945283368421055,0.009152695458695657,0.007377005189589366,0.0002962226406145159, ,0.8805010318756104
0.011014647827075758,0.02086687340465545,-0.08188756943539258, ,0.01123235540088272,0.021009517245792045,-0.08207662232524186, ,0.0003216906095419683, ,0.0014738531227510207,0.0008047458338765463,-0.0024794488069659597,-0.0040473583346988164,-0.0061257386849290305,-0.0031097321445545003, ,0.0029945826538850975, ,0.007342055831426523, ,3.4584755825809044e-05, ,0.19599523761494383,-0.23637740781426378,0.09321491761,1.7580404861742522,0.6129513379477659,-1.2642520449576684, ,0.011924716598134322,-0.00131522627580247,0.0027940381547097003,0.008296483073237585,0.003922146119328495,0.008238343118898227, ,0.891664981842041
0.011030115885298515,0.02087648185815005,-0.0819153551470595, ,0.01125419250880089,0.02102171416344184,-0.0821223569598242, ,0.0003378646270157106, ,0.0015671866366320402,0.0008358596187992086,-0.0030267124584061277,-0.002565038327631216,-0.008000461080153483,0.002810247963280476, ,0.0035093765204446317, ,0.008401595018998169, ,3.4962194836991344e-05, ,0.1961110786080572,-0.23639285328001225,0.09324602857000001,1.7582501761177367,0.6129513379477659,-1.2641703662175279, ,0.011830220162646747,-0.0006349111568539527,0.0033407742281879203,0.00011802599949987509,0.003922146119328495,0.004148814401123633, ,0.9016900062561035
0.011046217912408358,0.020887596004381535,-0.08195141771045739, ,0.011276136276199831,0.02103369228636665,-0.08216843028275887, ,0.00034828297999662606, ,0.0017500194817320679,0.0011843152218353919,-0.00415406810800394,-0.002347990100360791,-0.0017231241251549016,-0.0035042322906660654, ,0.004660627916606112, ,0.002912423908892348, ,3.5354665438375213e-05, ,0.19622691960117056,-0.23640057601288647,0.09328621356000001,1.7584598660612214,0.6130879744475313,-1.2642001053810836, ,0.011586928151217432,-0.0008641833369294341,0.004554993285673435,0.009034792604828755,0.008017257241444102,0.006653340522673627, ,0.9157190322875977
0.0110851057041264,0.020912570077806347,-0.0820441593619429, ,0.011298186291779868,0.021045452889182675,-0.08221484009196567, ,0.00030363315035603447, ,0.0018414501669505364,0.0011576761588407932,-0.004043508576268111,0.002454427346159385,-0.00309898083971198,-0.0057906119265313995, ,0.0045914174731192, ,0.0039532132198455, ,3.563846817476035e-05, ,0.19648176978601997,-0.2364160214786349,0.09338732418000001,1.7584598660612214,0.6132246109472966,-1.2642298445446394, ,0.012907636229389386,-0.0008251008049259334,0.004454365637583893,0.009034792604828755,0.008035537053806371,0.0013037750969813215, ,0.9279129505157471
0.01110238250802499,0.020921375100786854,-0.08207863162724252, ,0.011320342145175065,0.02105699724353874,-0.08226158419085534, ,0.0003152323104691358, ,0.0017564115575340788,0.0009814880956902758,-0.0033743793531813776,0.006144195959894281,-0.003918535832029465,-0.007706351668804219, ,0.003928706716032362, ,0.007287390933865745, ,3.5941653948201356e-05, ,0.19660533351200757,-0.2364160214786349,0.09342491659,1.7584598660612214,0.6132246109472966,-1.2641481658044988, ,0.01344720724932277,-0.0006752525746274827,0.003755023932107497,0.009034792604828755,0.007802997653246593,-0.0029739846268708914, ,0.9371099472045898
0.011121428976548749,0.020930787366731537,-0.08211540095240039, ,0.011342603426951753,0.02106832661811906,-0.08230866038832621, ,0.000324321434317375, ,0.001823715712775488,0.001057766758054517,-0.0037380975723399195,0.00561539101299988,-0.004579832550176022,-0.00780617774289366, ,0.0042916410585932, ,0.007246204640130498, ,3.625809413327e-05, ,0.1967443427037436,-0.2364160214786349,0.09346510158000002,1.7584598660612214,0.6132246109472966,-1.2641481658044988, ,0.013298338222879872,-0.0005410856110092985,0.004128774370139969,0.009017186226820918,0.00695472173714983,-0.00266666885849399, ,0.9467191696166992
0.011140594063162968,0.020941734539278275,-0.08215781552438349, ,0.011364969728608204,0.021079442278646204,-0.08235606649875675, ,0.00032956229997644563, ,0.002022065187465284,0.0012493407327407214,-0.00457650124210491,0.0028463601629327125,-0.00787018356467611,-0.0070898356296900285, ,0.005156933537271149, ,0.00836908319418986, ,3.6579028828746393e-05, ,0.19688335189547965,-0.2364160214786349,0.09351176802000001,1.7584598660612214,0.6133612474470621,-1.2642595837081954, ,0.013373300670584946,-0.0004506451048869329,0.0049933578432601895,0.008401692733898078,0.0037059980491297175,-0.00032665542071122445, ,0.9571859836578369
0.011160863212227198,0.020954807011923066,-0.08220896334652848, ,0.011387440642573294,0.021090345487883553,-0.08240380034200083, ,0.00032813025647236954, ,0.0021744585276173406,0.0014831778180390094,-0.00553863362922254,0.007535269573435995,-0.0029909774918922723,-0.007161768899139099, ,0.006132254789798412, ,0.008107171435787642, ,3.689002478662357e-05, ,0.19701463835434146,-0.2364160214786349,0.09356750849,1.7584598660612214,0.6134978839468276,-1.2643710016118919, ,0.013360121295012076,-0.0003876689136761979,0.006022234979206051,0.007879429446755593,0.008992925868407825,-0.004882674039498769, ,0.9676501750946045
0.01118425990773773,0.020971070034821827,-0.08226628341877593, ,0.011410015762205784,0.021101037505638593,-0.08245185974338338, ,0.0003198371797523241, ,0.0022119575251017052,0.0014779739903619759,-0.005739831067150575,0.005867344605333553,-0.0038875271338183106,-0.0032751530922450933, ,0.006326359449831117, ,0.007038365840435028, ,3.7176861769291375e-05, ,0.1971536475460775,-0.23642374421150913,0.09362973041000001,1.7586695560047059,0.6134978839468276,-1.2642076441316106, ,0.01335448093983546,0.0,0.006219762405310426,0.00399690490970581,0.008992925868407825,-0.00427327565320226, ,0.9769179821014404
0.011205171659792127,0.020986440116596568,-0.08231944709420916, ,0.011432694681793153,0.021111519588765316,-0.08250024253369267, ,0.00031638361341341647, ,0.0021736576685270894,0.001302548424871863,-0.005085094207939287,-0.002356030272154998,-0.008125229815578614,-0.0010939610754958737, ,0.005681514161093017, ,0.008459919313985945, ,3.745044521702085e-05, ,0.19728493400493932,-0.23643146694438336,0.09368806346000001,1.7588792459481901,0.6136345204465931,-1.2642373832951666, ,0.014083844101880495,0.0001649773300227071,0.005523166269070736,0.004366476523970665,0.005108879201509736,0.004127546401547697, ,0.9867069721221924
0.011217848501756847,0.020993423858375333,-0.08234691737055998, ,0.011455476996550928,0.0211217929911671,-0.08254894654917795, ,0.00033728582064009754, ,0.0021736576685270894,0.001302548424871863,-0.005085094207939287,-0.002356030272154998,-0.008125229815578614,-0.0010939610754958737, ,0.005681514161093017, ,0.008459919313985945, ,3.77617182347698e-05, ,0.19736988406655578,-0.23643146694438336,0.09371787813000002,1.7588792459481901,0.6136345204465931,-1.264155704555026, ,0.013579985912774869,0.00016332250320662657,0.005074485989168526,0.004366476523970665,0.005108879201509736,0.0028634157607815595, ,0.9976620674133301
0.011245237809065653,0.021008926590737848,-0.08240724104126065, ,0.011478362302621265,0.02113185896379984,-0.08259796963154142, ,0.00032532567220049346, ,0.0020603833315392148,0.0010982882925244307,-0.0042262358827150695,0.003430928540098525,-0.006950557898048733,-0.0030853987111839447, ,0.004828300568805684, ,0.0077512272830272295, ,3.8120316587159545e-05, ,0.1975629523884114,-0.23643146694438336,0.09378398892,1.7588792459481901,0.6137711569463585,-1.2641854437185818, ,0.014937343232877502,0.00014405912538937736,0.004642614841154183,0.004366476523970665,0.0073192512967000896,-0.0019103110024245333, ,1.0067861080169678
0.011245237809065653,0.021008926590737848,-0.08240724104126065, ,0.011501350197072543,0.021141718754674164,-0.08264730962793415, ,0.00037531352280578906, ,0.0020603833315392148,0.0010982882925244307,-0.0042262358827150695,0.003430928540098525,-0.006950557898048733,-0.0030853987111839447, ,0.004828300568805684, ,0.0077512272830272295, ,3.857507629421495e-05, ,0.1975629523884114,-0.23643146694438336,0.09378398892,1.7588792459481901,0.6137711569463585,-1.2641854437185818, ,0.014937343232877502,0.00014405912538937736,0.004642614841154183,0.004366476523970665,0.0073192512967000896,-0.0019103110024245333, ,1.0142199993133545
0.011270776065080023,0.021022911068047174,-0.08246146578306822, ,0.011524440277898026,0.021151373608858767,-0.08269696439095015, ,0.0003691987968163935, ,0.002446701525399295,0.0013404125735663225,-0.0051484998334584645,0.003950045187994065,-0.004256396736563537,-0.0014144694660967515, ,0.00585577533353934, ,0.005806872355129364, ,3.901009348376866e-05, ,0.19774057524451857,-0.23643146694438336,0.09383843310000001,1.7588792459481901,0.6139077934461239,-1.2641335041419972, ,0.0176782678015035,0.00013181025232650813,0.005536604629822733,0.004366476523970665,0.01314091260110667,-0.0015576268938181028, ,1.0216591358184814
0.01129434892206711,0.021035342641644347,-0.08251231061913297, ,0.011547632144015375,0.021160824768483008,-0.08274693177862157, ,0.0003673489392338297, ,0.0027795003966449195,0.001614147870318762,-0.0062430762715140024,0.00024059460267392661,-0.011846500373317529,-0.001971923142060785, ,0.007021901247820638, ,0.01184894288001305, ,3.943440787191877e-05, ,0.19791819810062575,-0.23642374421150913,0.09389935873000001,1.7588792459481901,0.6140444299458894,-1.264163243305553, ,0.018480417051308817,1.02690230923341e-05,0.006798468425096031,0.004366476523970665,0.005853390943026285,0.001539421016902891, ,1.0290279388427734
0.011321025320410223,0.021051451994849455,-0.08257525890656384, ,0.011570925395264832,0.02117007347273966,-0.08279720965441266, ,0.00035465932512743524, ,0.0026758562403493323,0.001607159732022579,-0.006173781188469074,0.002420052890852455,-0.002254715023083495,0.00021671822802387893, ,0.006918001386697315, ,0.0033076255623318337, ,3.9826682162037816e-05, ,0.19791819810062575,-0.23642374421150913,0.09389935873000001,1.7588792459481901,0.6140444299458894,-1.264163243305553, ,0.018480417051308817,1.02690230923341e-05,0.006798468425096031,0.004366476523970665,0.005853390943026285,0.001539421016902891, ,1.0366830825805664
0.011321025320410223,0.021051451994849455,-0.08257525890656384, ,0.011594319632409507,0.021179120957887772,-0.0828477958872149, ,0.0004065286594040324, ,0.0026758562403493323,0.001607159732022579,-0.006173781188469074,0.002420052890852455,-0.002254715023083495,0.00021671822802387893, ,0.006918001386697315, ,0.0033076255623318337, ,4.031526305285972e-05, ,0.1980958209567329,-0.23642374421150913,0.09396806210000001,1.7588792459481901,0.6141810664456548,-1.2641929824691087, ,0.018256433543376447,1.1330181642579158e-05,0.006763826547770702,0.004366476523970665,0.015675252946091785,0.0006280136534537002, ,1.0453040599822998
0.011328085999787438,0.021056023311584775,-0.08259265012327006, ,0.011617814457133287,0.021187968457255492,-0.08289868835134133, ,0.0004416010614831797, ,0.0026542079758690384,0.00162490834848554,-0.006241295883196142,0.004135643265642477,-0.00023779598905125963,1.67395206837778e-05, ,0.0069741609833546235, ,0.0041424730153064495, ,4.0864949345549405e-05, ,0.19814988008685247,-0.23642374421150913,0.09398750645000001,1.7588792459481901,0.6143177029454203,-1.2643044003728052, ,0.017996764945661062,1.3318679695516616e-05,0.006839335130957493,0.004366476523970665,0.017538139546644686,-0.0009867475385405928, ,1.0527620315551758
0.011377708560796382,0.02108697416748116,-0.08271735547488032, ,0.01164140947204025,0.021196617201242957,-0.08294988492652096, ,0.00036827939302061546, ,0.002977902065151058,0.0020195704829967594,-0.007919652418419257,0.008582164803746066,0.0001326272067871678,-0.0019486897035037476, ,0.008698704505499465, ,0.008583187725981142, ,4.126343104912609e-05, ,0.1984510666689472,-0.2364160214786349,0.09412232061,1.7588792459481901,0.6144543394451857,-1.2642524607962204, ,0.017810987529743014,0.0002044969174119465,0.008596228559093363,0.004187906827627614,0.017847496496189108,-0.006100769300027798, ,1.0607421398162842
0.011412052816168744,0.021108026778964777,-0.08279886249227779, ,0.011665104280654336,0.02120506841732481,-0.08300138349789417, ,0.0003383295449259076, ,0.0031914093279874606,0.0019011698118598114,-0.007493825415349553,0.004136322674511055,-0.004878754954816859,-0.0009083783601681354, ,0.008364027708468651, ,0.006396201337034251, ,4.159794035555351e-05, ,0.1986595804565513,-0.2364082987457607,0.09421046833,1.7590889358916748,0.6144543394451857,-1.26417078205608, ,0.021116364387732706,0.0004613156347385412,0.008177007967145792,0.004488567533203028,0.01592604427513112,-0.0016893290885570803, ,1.0687639713287354
0.01143530843930892,0.021121402658726175,-0.08285083870265209, ,0.011688898487417228,0.021213323330053317,-0.08305318195600606, ,0.00033719447577722114, ,0.0031642498733568977,0.0017298541783204082,-0.006824676322099631,0.0010689895796940415,-0.01288714567247336,-0.002009057146020414, ,0.00771887813355795, ,0.01293140547272334, ,4.192514862060142e-05, ,0.19882175784691,-0.2364082987457607,0.09426750509000001,1.7590889358916748,0.6145909759449512,-1.2642005212196359, ,0.021665968392344925,0.0004613156347385412,0.007450332797006549,0.004464887104035637,0.008090304583368381,0.0005008139180303157, ,1.0786261558532715
0.01143530843930892,0.021121402658726175,-0.08285083870265209, ,0.011712791697688664,0.021221383161061022,-0.08310527819680213, ,0.0003895285813794678, ,0.0031642498733568977,0.0017298541783204082,-0.006824676322099631,0.0010689895796940415,-0.01288714567247336,-0.002009057146020414, ,0.00771887813355795, ,0.01293140547272334, ,4.234687483143234e-05, ,0.19882175784691,-0.2364082987457607,0.09426750509000001,1.7590889358916748,0.6145909759449512,-1.2642005212196359, ,0.021665968392344925,0.0004613156347385412,0.007450332797006549,0.004464887104035637,0.008090304583368381,0.0005008139180303157, ,1.0866129398345947
0.011472590326221211,0.021141453525906975,-0.08293014133797048, ,0.011736783517744624,0.02122924912906348,-0.08315767012162237, ,0.00035954896435819026, ,0.002834577845590169,0.0013974969864382382,-0.005384319099473666,0.009356130521692306,-0.0054068876138563555,-0.0028369312418477055, ,0.006243294126882976, ,0.010806091221271782, ,4.278639910338677e-05, ,0.1991074989632563,-0.23640057601288647,0.09435565281000001,1.7590889358916748,0.6150008854442475,-1.2645347749307252, ,0.021885826005182372,0.0003077147599451621,0.005979283603603605,0.004148963747559216,0.01634113615132488,-0.007302512077091773, ,1.092479944229126
0.011501549859032584,0.021154790224529013,-0.08298402314031429, ,0.01176087355477639,0.021236922449862354,-0.08321035563719618, ,0.0003538656252834177, ,0.0027469055425287,0.0014160259773329299,-0.005456082407323691,0.028290963551545468,0.014701668383772898,-0.004511156593290867, ,0.006270522694605583, ,0.0318828741976976, ,4.3210283366494394e-05, ,0.19933145821660883,-0.23639285328001225,0.09441528215000002,1.7590889358916748,0.6151375219440128,-1.2644828353541404, ,0.022589131530223943,0.0005767524991401427,0.006147746630644541,0.003934934723709112,0.03843822774952784,-0.025202860023163846, ,1.098073959350586
0.011501549859032584,0.021154790224529013,-0.08298402314031429, ,0.01178506141688998,0.02124440433634787,-0.08326333265563683, ,0.0004079501168347945, ,0.0027469055425287,0.0014160259773329299,-0.005456082407323691,0.028290963551545468,0.014701668383772898,-0.004511156593290867, ,0.006270522694605583, ,0.0318828741976976, ,4.3730506294971615e-05, ,0.19933145821660883,-0.23639285328001225,0.09441528215000002,1.7590889358916748,0.6151375219440128,-1.2644828353541404, ,0.022589131530223943,0.0005767524991401427,0.006147746630644541,0.003934934723709112,0.03843822774952784,-0.025202860023163846, ,1.1036810874938965
0.011531690294544497,0.021168334650429686,-0.08304510061566295, ,0.011809346713105568,0.021251695998501637,-0.08331659909443562, ,0.0003971821057102231, ,0.0031265177780986524,0.0016465572529698875,-0.006806773342502696,0.016739062000037386,0.0035225418341856283,-0.0033621093046569874, ,0.007669317279933071, ,0.017105685692271787, ,4.4224912590185944e-05, ,0.1995399720042129,-0.23636968508138956,0.09448139294,1.7590889358916748,0.6151375219440128,-1.2643194778738591, ,0.022795325860790482,0.00157460856601608,0.007499440451977402,0.003753434978830519,0.026853553573843603,-0.015317421520414206, ,1.1092171669006348
0.011531690294544497,0.021168334650429686,-0.08304510061566295, ,0.011833729053355311,0.021258798643399843,-0.08337015287645716, ,0.00045284668276968727, ,0.0031265177780986524,0.0016465572529698875,-0.006806773342502696,0.016739062000037386,0.0035225418341856283,-0.0033621093046569874, ,0.007669317279933071, ,0.017105685692271787, ,4.4816727645637204e-05, ,0.1995399720042129,-0.23636968508138956,0.09448139294,1.7590889358916748,0.6151375219440128,-1.2643194778738591, ,0.022795325860790482,0.00157460856601608,0.007499440451977402,0.003753434978830519,0.026853553573843603,-0.015317421520414206, ,1.114901065826416
0.011566887555523818,0.021188487893693726,-0.08312196578109311, ,0.011858208048483315,0.021265713475215775,-0.08342399192993394, ,0.0004266746004195746, ,0.003684010880489643,0.0019093539505867477,-0.008255140693722861,-0.01205007269654522,-0.023088996938734986,0.0031793573744086463, ,0.009239313640598336, ,0.02604430827055234, ,4.5353904883656806e-05, ,0.19977937672331383,-0.23636196234851534,0.09456565179000001,1.7592986258351593,0.6152741584437783,-1.2643492170374153, ,0.02345450854139169,0.002234105529485987,0.008839518046614873,0.001230952472768849,0.0,0.011253279220967518, ,1.120596170425415
0.011566887555523818,0.021188487893693726,-0.08312196578109311, ,0.011882783310244541,0.021272441695222438,-0.08347811418846013, ,0.0004834046511068752, ,0.003684010880489643,0.0019093539505867477,-0.008255140693722861,-0.01205007269654522,-0.023088996938734986,0.0031793573744086463, ,0.009239313640598336, ,0.02604430827055234, ,4.598890111118131e-05, ,0.19977937672331383,-0.23636196234851534,0.09456565179000001,1.7592986258351593,0.6152741584437783,-1.2643492170374153, ,0.02345450854139169,0.002234105529485987,0.008839518046614873,0.001230952472768849,0.0,0.011253279220967518, ,1.1264541149139404
0.011566887555523818,0.021188487893693726,-0.08312196578109311, ,0.011907454451304126,0.021278984501795623,-0.08353251759098722, ,0.0005410436536793581, ,0.003684010880489643,0.0019093539505867477,-0.008255140693722861,-0.01205007269654522,-0.023088996938734986,0.0031793573744086463, ,0.009239313640598336, ,0.02604430827055234, ,4.672176829362825e-05, ,0.19977937672331383,-0.23636196234851534,0.09456565179000001,1.7592986258351593,0.6152741584437783,-1.2643492170374153, ,0.02345450854139169,0.002234105529485987,0.008839518046614873,0.001230952472768849,0.0,0.011253279220967518, ,1.1349420547485352
0.011600362907321828,0.021208492065590202,-0.08320447478352398, ,0.011932221085235326,0.021285343090416887,-0.08358720008181812, ,0.0005123617708409913, ,0.003855352031022273,0.002318667510185604,-0.00926698926523613,0.007408132472310498,-0.006047075620645795,0.0013816702612255256, ,0.010301312942916526, ,0.009562817678185979, ,4.7394817960825544e-05, ,0.20001105870954058,-0.2363465168827669,0.09465639209000001,1.7592986258351593,0.6156840679430747,-1.264601792008364, ,0.024777269336415348,0.0006384300635207064,0.010094303878326997,0.001230952472768849,0.019391424507317973,-0.005661003249948372, ,1.1436951160430908
0.011667542394148762,0.021248297160431563,-0.08336546783863, ,0.011957082826520277,0.021291518653675696,-0.08364215961060147, ,0.0004028152133830691, ,0.0033403202106212396,0.0017461053930492804,-0.007880443530601302,0.020897515593359516,0.008350527748939773,0.0059803381271594696, ,0.00873544580385663, ,0.02250416497604244, ,4.786357831963956e-05, ,0.2004589772162456,-0.23631562595127,0.09483268753000001,1.759508315778644,0.6162306139421364,-1.2648841061428686, ,0.023437130540496613,0.002887907322341627,0.008628825308775734,-0.007134823111333966,0.03535320852345222,-0.022363059534066063, ,1.1492879390716553
0.011667542394148762,0.021248297160431563,-0.08336546783863, ,0.011982039290547265,0.021297512381273132,-0.08369739413232699, ,0.0004598972714141693, ,0.0034671781934673333,0.001548243878830809,-0.006638284361002644,0.0015590312527418652,-0.0075836060220723315,0.011078348954221834, ,0.007647561898482728, ,0.007742199032203687, ,4.8429421855337683e-05, ,0.20070610466822078,-0.23629245775264732,0.09490657606000001,1.759508315778644,0.6162306139421364,-1.2647207486625873, ,0.026619057940665016,0.0016427980918485826,0.007337084993090743,-0.006751145723917001,0.021611861590602376,-0.0016528826040972562, ,1.1550040245056152
0.0117025635103719,0.021263648127028936,-0.08343345752816723, ,0.012007090093611138,0.021303325460023843,-0.08375290160731932, ,0.00044311990517046247, ,0.0034671781934673333,0.001548243878830809,-0.006638284361002644,0.0015590312527418652,-0.0075836060220723315,0.011078348954221834, ,0.007647561898482728, ,0.007742199032203687, ,4.9046642998759764e-05, ,0.20070610466822078,-0.23629245775264732,0.09490657606000001,1.759508315778644,0.6162306139421364,-1.2647207486625873, ,0.026619057940665016,0.0016427980918485826,0.007337084993090743,-0.006751145723917001,0.021611861590602376,-0.0016528826040972562, ,1.1588740348815918
0.0117025635103719,0.021263648127028936,-0.08343345752816723, ,0.012032234852911775,0.02130895907385926,-0.08380868000123301, ,0.0005015258520637804, ,0.0034671781934673333,0.001548243878830809,-0.006638284361002644,0.0015590312527418652,-0.0075836060220723315,0.011078348954221834, ,0.007647561898482728, ,0.007742199032203687, ,4.976321949266076e-05, ,0.20070610466822078,-0.23629245775264732,0.09490657606000001,1.759508315778644,0.6162306139421364,-1.2647207486625873, ,0.026619057940665016,0.0016427980918485826,0.007337084993090743,-0.006751145723917001,0.021611861590602376,-0.0016528826040972562, ,1.1625440120697021
0.011739391757257852,0.02127888309987796,-0.08350861760592813, ,0.012057473186552915,0.021314414403830598,-0.08386472728504753, ,0.0004788030626316855, ,0.003989719419471737,0.001809015015373968,-0.00852241185817267,-0.017708475297180302,-0.027614500173210006,0.011431303930129338, ,0.009582374457945199, ,0.03280473551499051, ,5.043450555221184e-05, ,0.20096867758594442,-0.236246121355402,0.09498824233000001,1.759508315778644,0.6163672504419018,-1.2646688090860025, ,0.026309104951059266,0.0036555678621157965,0.009180871193083574,-0.006399832572916547,0.0,0.014241488407193668, ,1.1669809818267822
0.011739391757257852,0.02127888309987796,-0.08350861760592813, ,0.012082804713541947,0.02131969262811117,-0.08392104143506068, ,0.0005382297752584421, ,0.003989719419471737,0.001809015015373968,-0.00852241185817267,-0.017708475297180302,-0.027614500173210006,0.011431303930129338, ,0.009582374457945199, ,0.03280473551499051, ,5.120586492461752e-05, ,0.20096867758594442,-0.236246121355402,0.09498824233000001,1.759508315778644,0.6163672504419018,-1.2646688090860025, ,0.026309104951059266,0.0036555678621157965,0.009180871193083574,-0.006399832572916547,0.0,0.014241488407193668, ,1.1712181568145752
0.011782967460381483,0.021302422918334812,-0.08361033118406641, ,0.012108229053788205,0.021324794921999513,-0.0839776204328844, ,0.0004911181151115624, ,0.004894982480311915,0.002544614296878312,-0.011149158102643294,-0.002045393480336199,-0.018571448237699663,0.009237716378295761, ,0.012439438966455631, ,0.018683740307140737, ,5.188900444177451e-05, ,0.20126986416803916,-0.23621523042390508,0.09509972327,1.759508315778644,0.6167771599411982,-1.2650030627970918, ,0.03186599783696131,0.003027126067754217,0.012085592959028833,-0.006071110760931737,0.015408882160015607,2.5970721722715605e-05, ,1.1755650043487549
0.011782967460381483,0.021302422918334812,-0.08361033118406641, ,0.012133745828102133,0.02132972245792223,-0.0840344622654391, ,0.0005510697798907321, ,0.004894982480311915,0.002544614296878312,-0.011149158102643294,-0.002045393480336199,-0.018571448237699663,0.009237716378295761, ,0.012439438966455631, ,0.018683740307140737, ,5.267235255211984e-05, ,0.20126986416803916,-0.23621523042390508,0.09509972327,1.759508315778644,0.6167771599411982,-1.2650030627970918, ,0.03186599783696131,0.003027126067754217,0.012085592959028833,-0.006071110760931737,0.015408882160015607,2.5970721722715605e-05, ,1.1798241138458252
0.011822424092549109,0.021324713917119938,-0.08370955356126873, ,0.012159354658195079,0.021334476405436408,-0.08409156492494757, ,0.0005094606895771337, ,0.004759232081228532,0.0027858643701964515,-0.012713064363477957,0.050200769188667234,0.03885664836916775,0.002749357853390501, ,0.013857609310485635, ,0.06348193457616491, ,5.3377616050327336e-05, ,0.20154015981863702,-0.23617661675953394,0.09520861163000001,1.759508315778644,0.61732370594026,-1.2654487344118777, ,0.03173810754463906,0.005356828548388418,0.013923786293706296,-0.0058331456172394675,0.07606077478115846,-0.05096821930287441, ,1.1849851608276367
0.011822424092549109,0.021324713917119938,-0.08370955356126873, ,0.012185055166677287,0.02133905793123301,-0.08414892640893043, ,0.0005698732718127618, ,0.004759232081228532,0.0027858643701964515,-0.012713064363477957,0.050200769188667234,0.03885664836916775,0.002749357853390501, ,0.013857609310485635, ,0.06348193457616491, ,5.418303872808752e-05, ,0.20154015981863702,-0.23617661675953394,0.09520861163000001,1.759508315778644,0.61732370594026,-1.2654487344118777, ,0.03173810754463906,0.005356828548388418,0.013923786293706296,-0.0058331456172394675,0.07606077478115846,-0.05096821930287441, ,1.1887781620025635
0.011822424092549109,0.021324713917119938,-0.08370955356126873, ,0.012210846977057642,0.021343468199139078,-0.08420654472020041, ,0.0006310501345853853, ,0.004759232081228532,0.0027858643701964515,-0.012713064363477957,0.050200769188667234,0.03885664836916775,0.002749357853390501, ,0.013857609310485635, ,0.06348193457616491, ,5.508890364512254e-05, ,0.20154015981863702,-0.23617661675953394,0.09520861163000001,1.759508315778644,0.61732370594026,-1.2654487344118777, ,0.03173810754463906,0.005356828548388418,0.013923786293706296,-0.0058331456172394675,0.07606077478115846,-0.05096821930287441, ,1.1925110816955566
0.01188443641188946,0.02135986479458545,-0.08386970604930412, ,0.01223672971374255,0.021347708370121038,-0.08426441786685657, ,0.0005292029554923784, ,0.0057021448064382505,0.00318955710457205,-0.015033306631425747,0.0034452080576861254,-0.015970019168292517,0.004820887838058348, ,0.01639170638436969, ,0.016337386662288175, ,5.5812608564297215e-05, ,0.20190312826372558,-0.23611483489654017,0.09538101820000001,1.759508315778644,0.6175969789397908,-1.2655898914791297, ,0.03205977755353743,0.006534418857792916,0.01610597726996967,-0.005534399867950239,0.018332425383896872,-0.00928740472632205, ,1.1961920261383057
0.01188443641188946,0.02135986479458545,-0.08386970604930412, ,0.01226270300203501,0.02135177960228704,-0.08432254386227961, ,0.0005900958129111487, ,0.0057021448064382505,0.00318955710457205,-0.015033306631425747,0.0034452080576861254,-0.015970019168292517,0.004820887838058348, ,0.01639170638436969, ,0.016337386662288175, ,5.6636137989052033e-05, ,0.20190312826372558,-0.23611483489654017,0.09538101820000001,1.759508315778644,0.6175969789397908,-1.2655898914791297, ,0.03205977755353743,0.006534418857792916,0.01610597726996967,-0.005534399867950239,0.018332425383896872,-0.00928740472632205, ,1.1999340057373047
0.01188443641188946,0.02135986479458545,-0.08386970604930412, ,0.012288766468133367,0.021355683050890226,-0.08438092072512605, ,0.0006517980715975312, ,0.0057021448064382505,0.00318955710457205,-0.015033306631425747,0.0034452080576861254,-0.015970019168292517,0.004820887838058348, ,0.01639170638436969, ,0.016337386662288175, ,5.755985290435122e-05, ,0.20190312826372558,-0.23611483489654017,0.09538101820000001,1.759508315778644,0.6175969789397908,-1.2655898914791297, ,0.03205977755353743,0.006534418857792916,0.01610597726996967,-0.005534399867950239,0.018332425383896872,-0.00928740472632205, ,1.2037911415100098
0.011947333969677476,0.02139421172610838,-0.0840366807024432, ,0.012314919739130882,0.021359419868331182,-0.08443954647932295, ,0.0005464710472231445, ,0.006123687288299952,0.00344017393104782,-0.016721188207409515,-0.006070701326425861,-0.022392227286000856,0.005733035815909915, ,0.018136495740587774, ,0.02320051616326118, ,5.829720562471778e-05, ,0.20223520577731724,-0.23602988483492368,0.09555860993000001,1.759508315778644,0.6175969789397908,-1.2654265339988486, ,0.03222307013869975,0.008276205691678988,0.01781746255033557,-0.00528899055224456,0.011611654270530167,-0.0016265084575884216, ,1.2075321674346924
0.011947333969677476,0.02139421172610838,-0.0840366807024432, ,0.01234116244301437,0.02136299120416083,-0.08449841915406224, ,0.000607682470625154, ,0.006123687288299952,0.00344017393104782,-0.016721188207409515,-0.006070701326425861,-0.022392227286000856,0.005733035815909915, ,0.018136495740587774, ,0.02320051616326118, ,5.913381219946347e-05, ,0.20223520577731724,-0.23602988483492368,0.09555860993000001,1.759508315778644,0.6175969789397908,-1.2654265339988486, ,0.03222307013869975,0.008276205691678988,0.01781746255033557,-0.00528899055224456,0.011611654270530167,-0.0016265084575884216, ,1.211306095123291
0.012001513386395967,0.021426556419696728,-0.08418850753023045, ,0.012367494208663421,0.021366398205083334,-0.084557536783796, ,0.0005232050869785004, ,0.006304808687500987,0.00339356521869801,-0.01670684924856881,0.0007406036039263346,-0.0174284171079196,0.004562957436122876, ,0.01817651532318417, ,0.01744410831771206, ,5.9821312135931335e-05, ,0.20253639235941198,-0.23596038023905566,0.09572194247000002,1.759508315778644,0.6180068884390871,-1.265760787709938, ,0.03491425370068829,0.008928483198000513,0.01785741201793722,-0.0050931986812414115,0.019674838152078104,-0.008595083959359155, ,1.2156741619110107
0.012001513386395967,0.021426556419696728,-0.08418850753023045, ,0.012393914665849357,0.021369642014958844,-0.08461689740823015, ,0.0005837258784360382, ,0.006304808687500987,0.00339356521869801,-0.01670684924856881,0.0007406036039263346,-0.0174284171079196,0.004562957436122876, ,0.01817651532318417, ,0.01744410831771206, ,6.060656298900101e-05, ,0.20253639235941198,-0.23596038023905566,0.09572194247000002,1.759508315778644,0.6180068884390871,-1.265760787709938, ,0.03491425370068829,0.008928483198000513,0.01785741201793722,-0.0050931986812414115,0.019674838152078104,-0.008595083959359155, ,1.2195401191711426
0.012001513386395967,0.021426556419696728,-0.08418850753023045, ,0.012420423445234335,0.021372723774806302,-0.08467649907231975, ,0.0006453830925911787, ,0.006304808687500987,0.00339356521869801,-0.01670684924856881,0.0007406036039263346,-0.0174284171079196,0.004562957436122876, ,0.01817651532318417, ,0.01744410831771206, ,6.159436118089657e-05, ,0.20253639235941198,-0.23596038023905566,0.09572194247000002,1.759508315778644,0.6180068884390871,-1.265760787709938, ,0.03491425370068829,0.008928483198000513,0.01785741201793722,-0.0050931986812414115,0.019674838152078104,-0.008595083959359155, ,1.221632957458496
0.012001513386395967,0.021426556419696728,-0.08418850753023045, ,0.012447020178370847,0.021375644622805934,-0.08473633982626334, ,0.0007079467051516429, ,0.006304808687500987,0.00339356521869801,-0.01670684924856881,0.0007406036039263346,-0.0174284171079196,0.004562957436122876, ,0.01817651532318417, ,0.01744410831771206, ,6.268433140681689e-05, ,0.20253639235941198,-0.23596038023905566,0.09572194247000002,1.759508315778644,0.6180068884390871,-1.265760787709938, ,0.03491425370068829,0.008928483198000513,0.01785741201793722,-0.0050931986812414115,0.019674838152078104,-0.008595083959359155, ,1.223680019378662
0.01206395185126102,0.021459884647198287,-0.08435570127471125, ,0.012473704497699347,0.02137840569430285,-0.08479641772549769, ,0.0006072619212678738, ,0.006031223521509713,0.0030046230832444566,-0.015465540086358533,0.045430203265420084,0.030971310833801082,0.000452086391401465, ,0.016869687228918625, ,0.05498294807248299, ,6.360112869614527e-05, ,0.20293025173599744,-0.23585226197881654,0.09590342307000001,1.759508315778644,0.6188267074376798,-1.2663476163919758, ,0.03932736906691702,0.01065241172004228,0.016802543797468355,-0.00488238022978218,0.07550196825504854,-0.051340757908929245, ,1.2256579399108887
0.01206395185126102,0.021459884647198287,-0.08435570127471125, ,0.012500476036549241,0.021381008121808934,-0.08485673083069233, ,0.00066918270043811, ,0.006031223521509713,0.0030046230832444566,-0.015465540086358533,0.045430203265420084,0.030971310833801082,0.000452086391401465, ,0.016869687228918625, ,0.05498294807248299, ,6.461891285033343e-05, ,0.20293025173599744,-0.23585226197881654,0.09590342307000001,1.759508315778644,0.6188267074376798,-1.2663476163919758, ,0.03932736906691702,0.01065241172004228,0.016802543797468355,-0.00488238022978218,0.07550196825504854,-0.051340757908929245, ,1.227560043334961
0.01206395185126102,0.021459884647198287,-0.08435570127471125, ,0.012527334429136498,0.021383453035006144,-0.08491727720774346, ,0.0007320742676681222, ,0.006031223521509713,0.0030046230832444566,-0.015465540086358533,0.045430203265420084,0.030971310833801082,0.000452086391401465, ,0.016869687228918625, ,0.05498294807248299, ,6.573880438526261e-05, ,0.20293025173599744,-0.23585226197881654,0.09590342307000001,1.759508315778644,0.6188267074376798,-1.2663476163919758, ,0.03932736906691702,0.01065241172004228,0.016802543797468355,-0.00488238022978218,0.07550196825504854,-0.051340757908929245, ,1.2295541763305664
0.01206395185126102,0.021459884647198287,-0.08435570127471125, ,0.012554279310563323,0.02138574156074931,-0.08497805492777019, ,0.0007957652192008942, ,0.006031223521509713,0.0030046230832444566,-0.015465540086358533,0.045430203265420084,0.030971310833801082,0.000452086391401465, ,0.016869687228918625, ,0.05498294807248299, ,0.00036675314342034325, ,0.20293025173599744,-0.23585226197881654,0.09590342307000001,1.759508315778644,0.6188267074376798,-1.2663476163919758, ,0.03932736906691702,0.01065241172004228,0.016802543797468355,-0.00488238022978218,0.07550196825504854,-0.051340757908929245, ,1.2314250469207764
0.01206395185126102,0.021459884647198287,-0.08435570127471125, ,0.012581310316816993,0.02138787482306873,-0.08503906206710764, ,0.000860132064998292, ,0.006031223521509713,0.0030046230832444566,-0.015465540086358533,0.045430203265420084,0.030971310833801082,0.000452086391401465, ,0.016869687228918625, ,0.05498294807248299, ,0.0003712384063437791, ,0.20293025173599744,-0.23585226197881654,0.09590342307000001,1.759508315778644,0.6188267074376798,-1.2663476163919758, ,0.03932736906691702,0.01065241172004228,0.016802543797468355,-0.00488238022978218,0.07550196825504854,-0.051340757908929245, ,1.2332470417022705
0.012133984368607699,0.021489774262982757,-0.08452405716274626, ,0.012608427084768897,0.021389853943173245,-0.08510029670730178, ,0.0007530816515749147, ,0.007707577241162227,0.003195630226034647,-0.01838353127043637,-0.0035250938670305996,-0.024083614400728634,-0.0012698766742957842, ,0.020188437815768213, ,0.024340186312661438, ,0.0003746784355800957, ,0.20336272477695402,-0.23572097551995472,0.09608360738,1.7592986258351593,0.6190999804372107,-1.2664887734592283, ,0.04707189561432083,0.016358721178843436,0.01964095131935882,0.0,0.024205024911486097,-0.010142878726604534, ,1.2353570461273193
0.012133984368607699,0.021489774262982757,-0.08452405716274626, ,0.012635629252173746,0.021391680039452663,-0.08516175693510501, ,0.0008172704971821565, ,0.007707577241162227,0.003195630226034647,-0.01838353127043637,-0.0035250938670305996,-0.024083614400728634,-0.0012698766742957842, ,0.020188437815768213, ,0.024340186312661438, ,0.00037863015041582836, ,0.20336272477695402,-0.23572097551995472,0.09608360738,1.7592986258351593,0.6190999804372107,-1.2664887734592283, ,0.04707189561432083,0.016358721178843436,0.01964095131935882,0.0,0.024205024911486097,-0.010142878726604534, ,1.237382173538208
0.012133984368607699,0.021489774262982757,-0.08452405716274626, ,0.012662916457668606,0.021393354227480968,-0.08522344084246958, ,0.00088215843789414, ,0.007707577241162227,0.003195630226034647,-0.01838353127043637,-0.0035250938670305996,-0.024083614400728634,-0.0012698766742957842, ,0.020188437815768213, ,0.024340186312661438, ,0.0003830861529598842, ,0.20336272477695402,-0.23572097551995472,0.09608360738,1.7592986258351593,0.6190999804372107,-1.2664887734592283, ,0.04707189561432083,0.016358721178843436,0.01964095131935882,0.0,0.024205024911486097,-0.010142878726604534, ,1.2392690181732178
0.012133984368607699,0.021489774262982757,-0.08452405716274626, ,0.012690288340771981,0.021394877620018776,-0.08528534652654263, ,0.0009476502401841453, ,0.007707577241162227,0.003195630226034647,-0.01838353127043637,-0.0035250938670305996,-0.024083614400728634,-0.0012698766742957842, ,0.020188437815768213, ,0.024340186312661438, ,0.000388038469514483, ,0.20336272477695402,-0.23572097551995472,0.09608360738,1.7592986258351593,0.6190999804372107,-1.2664887734592283, ,0.04707189561432083,0.016358721178843436,0.01964095131935882,0.0,0.024205024911486097,-0.010142878726604534, ,1.241142988204956
0.012133984368607699,0.021489774262982757,-0.08452405716274626, ,0.012717744541882152,0.021396251327016485,-0.0853474720896612, ,0.00101367382392933, ,0.007707577241162227,0.003195630226034647,-0.01838353127043637,-0.0035250938670305996,-0.024083614400728634,-0.0012698766742957842, ,0.020188437815768213, ,0.024340186312661438, ,0.0003934787769441773, ,0.20336272477695402,-0.23572097551995472,0.09608360738,1.7592986258351593,0.6190999804372107,-1.2664887734592283, ,0.04707189561432083,0.016358721178843436,0.01964095131935882,0.0,0.024205024911486097,-0.010142878726604534, ,1.2430729866027832
0.012220026496811311,0.021525566092066836,-0.08474043768575507, ,0.012745284702277425,0.021397476455616682,-0.08540981563934619, ,0.0008604475475758254, ,0.007707577241162227,0.003195630226034647,-0.01838353127043637,-0.0035250938670305996,-0.024083614400728634,-0.0012698766742957842, ,0.020188437815768213, ,0.024340186312661438, ,0.00039750436979445013, ,0.20389559334527552,-0.2355047389994764,0.09631564329000002,1.7592986258351593,0.6197831629360379,-1.2670458629777104, ,0.055658030239572304,0.022916431190164403,0.025816550275526744,0.0,0.07817911298308841,-0.054988859560388716, ,1.2452821731567383
0.012220026496811311,0.021525566092066836,-0.08474043768575507, ,0.012772908464114548,0.02139855411015722,-0.08547237528829738, ,0.0009260362667482796, ,0.009256085238001244,0.004074640166100331,-0.0240836754148131,0.038019201928925085,0.01831312027327938,-0.007555123511466797, ,0.0261208963839761, ,0.04219978657592035, ,0.0004020217364350812, ,0.20389559334527552,-0.2355047389994764,0.09631564329000002,1.7592986258351593,0.6197831629360379,-1.2670458629777104, ,0.055658030239572304,0.022916431190164403,0.025816550275526744,0.0,0.07817911298308841,-0.054988859560388716, ,1.2473280429840088
0.012220026496811311,0.021525566092066836,-0.08474043768575507, ,0.012800615470427521,0.021399485392173966,-0.08553514915438779, ,0.0009922430234305375, ,0.009256085238001244,0.004074640166100331,-0.0240836754148131,0.038019201928925085,0.01831312027327938,-0.007555123511466797, ,0.0261208963839761, ,0.04219978657592035, ,0.000407023611748602, ,0.20389559334527552,-0.2355047389994764,0.09631564329000002,1.7592986258351593,0.6197831629360379,-1.2670458629777104, ,0.055658030239572304,0.022916431190164403,0.025816550275526744,0.0,0.07817911298308841,-0.054988859560388716, ,1.2491950988769531
0.012220026496811311,0.021525566092066836,-0.08474043768575507, ,0.012828405365127048,0.021400271400403688,-0.0855981353606585, ,0.001058994291158762, ,0.009256085238001244,0.004074640166100331,-0.0240836754148131,0.038019201928925085,0.01831312027327938,-0.007555123511466797, ,0.0261208963839761, ,0.04219978657592035, ,0.0004125023569537294, ,0.20389559334527552,-0.2355047389994764,0.09631564329000002,1.7592986258351593,0.6197831629360379,-1.2670458629777104, ,0.055658030239572304,0.022916431190164403,0.025816550275526744,0.0,0.07817911298308841,-0.054988859560388716, ,1.251147985458374
0.012220026496811311,0.021525566092066836,-0.08474043768575507, ,0.012856277792999523,0.021400913230786467,-0.08566133203531286, ,0.0011262328581488066, ,0.009256085238001244,0.004074640166100331,-0.0240836754148131,0.038019201928925085,0.01831312027327938,-0.007555123511466797, ,0.0261208963839761, ,0.04219978657592035, ,0.00041845011113035503, ,0.20389559334527552,-0.2355047389994764,0.09631564329000002,1.7592986258351593,0.6197831629360379,-1.2670458629777104, ,0.055658030239572304,0.022916431190164403,0.025816550275526744,0.0,0.07817911298308841,-0.054988859560388716, ,1.2531931400299072
0.012220026496811311,0.021525566092066836,-0.08474043768575507, ,0.012884232399705792,0.021401411976469116,-0.08572473731171187, ,0.0011939135142540421, ,0.009256085238001244,0.004074640166100331,-0.0240836754148131,0.038019201928925085,0.01831312027327938,-0.007555123511466797, ,0.0261208963839761, ,0.04219978657592035, ,0.0004248588995859227, ,0.20444390737934545,-0.23525761154750124,0.09659693822000001,1.7592986258351593,0.620739618434396,-1.2677441095634447, ,0.05601944602034875,0.02480317343399655,0.030750601389961392,0.0,0.10107951448621584,-0.07905840589757417, ,1.2552931308746338
0.012220026496811311,0.021525566092066836,-0.08474043768575507, ,0.012912268831780753,0.021401768727807274,-0.0857883493283678, ,0.0012620000191936962, ,0.009256085238001244,0.004074640166100331,-0.0240836754148131,0.038019201928925085,0.01831312027327938,-0.007555123511466797, ,0.0261208963839761, ,0.04219978657592035, ,0.0004317207120417241, ,0.20444390737934545,-0.23525761154750124,0.09659693822000001,1.7592986258351593,0.620739618434396,-1.2677441095634447, ,0.05601944602034875,0.02480317343399655,0.030750601389961392,0.0,0.10107951448621584,-0.07905840589757417, ,1.257385015487671
0.01231523181999487,0.02157012646719382,-0.0850030722655652, ,0.012940386736631797,0.02140198457236889,-0.08585216622893987, ,0.001067731672860726, ,0.010109715529931253,0.00505306372027141,-0.028722499565381063,0.06106534758582876,0.03953401622388378,-0.012238462629991183, ,0.03086619157493473, ,0.07274541611793184, ,0.0004368915328613908, ,0.20444390737934545,-0.23525761154750124,0.09659693822000001,1.7592986258351593,0.620739618434396,-1.2677441095634447, ,0.05601944602034875,0.02480317343399655,0.030750601389961392,0.0,0.10107951448621584,-0.07905840589757417, ,1.2598071098327637
0.01231523181999487,0.02157012646719382,-0.0850030722655652, ,0.012968585762538187,0.02140206059493666,-0.08591618616222732, ,0.0011352948955808569, ,0.010109715529931253,0.00505306372027141,-0.028722499565381063,0.06106534758582876,0.03953401622388378,-0.012238462629991183, ,0.03086619157493473, ,0.07274541611793184, ,0.00044252381804461225, ,0.20444390737934545,-0.23525761154750124,0.09659693822000001,1.7592986258351593,0.620739618434396,-1.2677441095634447, ,0.05601944602034875,0.02480317343399655,0.030750601389961392,0.0,0.10107951448621584,-0.07905840589757417, ,1.2619471549987793
0.01231523181999487,0.02157012646719382,-0.0850030722655652, ,0.012996865558650315,0.021401997877510705,-0.08598040728216602, ,0.0012033600919992206, ,0.010109715529931253,0.00505306372027141,-0.028722499565381063,0.06106534758582876,0.03953401622388378,-0.012238462629991183, ,0.03086619157493473, ,0.07274541611793184, ,0.00044861050823624915, ,0.20444390737934545,-0.23525761154750124,0.09659693822000001,1.7592986258351593,0.620739618434396,-1.2677441095634447, ,0.05601944602034875,0.02480317343399655,0.030750601389961392,0.0,0.10107951448621584,-0.07905840589757417, ,1.2638850212097168
0.012366016583343627,0.021594914723561807,-0.08514507616448043, ,0.013025225774987976,0.02140179749931172,-0.08604482774782105, ,0.0011319911361730708, ,0.0103305828537735,0.0049824073084670266,-0.029021002239863744,0.04561030577661263,0.026635827775222453,-0.010187650840802738, ,0.031205190204392618, ,0.052818053057437975, ,0.0004540341640135255, ,0.20472192576281753,-0.23513404782151365,0.09674860415000001,1.7592986258351593,0.6211495279336923,-1.2679966845343935, ,0.056519917545247635,0.026171246982479534,0.030989905680933853,0.0,0.08791463803351514,-0.06545234892785126, ,1.2657909393310547
0.012366016583343627,0.021594914723561807,-0.08514507616448043, ,0.01305366606244043,0.021401460536783556,-0.08610944572338308, ,0.0012001228997991146, ,0.0103305828537735,0.0049824073084670266,-0.029021002239863744,0.04561030577661263,0.026635827775222453,-0.010187650840802738, ,0.031205190204392618, ,0.052818053057437975, ,0.00045990887846853015, ,0.20472192576281753,-0.23513404782151365,0.09674860415000001,1.7592986258351593,0.6211495279336923,-1.2679966845343935, ,0.056519917545247635,0.026171246982479534,0.030989905680933853,0.0,0.08791463803351514,-0.06545234892785126, ,1.2679450511932373
0.012366016583343627,0.021594914723561807,-0.08514507616448043, ,0.0130821860727646,0.021400988063596,-0.08617425937816145, ,0.0012687491376729225, ,0.0103305828537735,0.0049824073084670266,-0.029021002239863744,0.04561030577661263,0.026635827775222453,-0.010187650840802738, ,0.031205190204392618, ,0.052818053057437975, ,0.00046622794299356447, ,0.20472192576281753,-0.23513404782151365,0.09674860415000001,1.7592986258351593,0.6211495279336923,-1.2679966845343935, ,0.056519917545247635,0.026171246982479534,0.030989905680933853,0.0,0.08791463803351514,-0.06545234892785126, ,1.2703070640563965
0.012366016583343627,0.021594914723561807,-0.08514507616448043, ,0.013110785458584783,0.021400381150647668,-0.08623926688657997, ,0.0013378255958260902, ,0.0103305828537735,0.0049824073084670266,-0.029021002239863744,0.04561030577661263,0.026635827775222453,-0.010187650840802738, ,0.031205190204392618, ,0.052818053057437975, ,0.0004729845139457546, ,0.20472192576281753,-0.23513404782151365,0.09674860415000001,1.7592986258351593,0.6211495279336923,-1.2679966845343935, ,0.056519917545247635,0.026171246982479534,0.030989905680933853,0.0,0.08791463803351514,-0.06545234892785126, ,1.2723090648651123
0.012366016583343627,0.021594914723561807,-0.08514507616448043, ,0.013139463873391025,0.021399640866068933,-0.08630446642817073, ,0.0014073160176171088, ,0.0103305828537735,0.0049824073084670266,-0.029021002239863744,0.04561030577661263,0.026635827775222453,-0.010187650840802738, ,0.031205190204392618, ,0.052818053057437975, ,0.00048017167935861114, ,0.20472192576281753,-0.23513404782151365,0.09674860415000001,1.7592986258351593,0.6211495279336923,-1.2679966845343935, ,0.056519917545247635,0.026171246982479534,0.030989905680933853,0.0,0.08791463803351514,-0.06545234892785126, ,1.2742180824279785
0.012528829701785954,0.02166212437558803,-0.08559158076389373, ,0.013168220971538821,0.02139876827522433,-0.08636985618756916, ,0.001041100507411335, ,0.01164382856312677,0.003908995449408383,-0.030552602045894137,-0.031940000755974446,-0.046879564478287936,0.000189949601035553, ,0.0329290218622685, ,0.05672592521894126, ,0.0004844535788093953, ,0.20557914911185646,-0.23466296111618595,0.09722045371000002,1.7588792459481901,0.6218327104325195,-1.2683087378324538, ,0.06130293382330153,0.04060630789836148,0.03204992257545272,-0.007682093997891241,0.017065856673977822,-0.007748178034724728, ,1.2760930061340332
0.012528829701785954,0.02166212437558803,-0.08559158076389373, ,0.013197056408247839,0.02139776444071571,-0.08643543435450841, ,0.0011083780892763516, ,0.01164382856312677,0.003908995449408383,-0.030552602045894137,-0.031940000755974446,-0.046879564478287936,0.000189949601035553, ,0.0329290218622685, ,0.05672592521894126, ,0.0004891802796462662, ,0.20557914911185646,-0.23466296111618595,0.09722045371000002,1.7588792459481901,0.6218327104325195,-1.2683087378324538, ,0.06130293382330153,0.04060630789836148,0.03204992257545272,-0.007682093997891241,0.017065856673977822,-0.007748178034724728, ,1.277968168258667
0.012528829701785954,0.02166212437558803,-0.08559158076389373, ,0.013225969839600588,0.021396630422385057,-0.08650119912381385, ,0.001176391504408002, ,0.01164382856312677,0.003908995449408383,-0.030552602045894137,-0.031940000755974446,-0.046879564478287936,0.000189949601035553, ,0.0329290218622685, ,0.05672592521894126, ,0.000494347281336204, ,0.20557914911185646,-0.23466296111618595,0.09722045371000002,1.7588792459481901,0.6218327104325195,-1.2683087378324538, ,0.06130293382330153,0.04060630789836148,0.03204992257545272,-0.007682093997891241,0.017065856673977822,-0.007748178034724728, ,1.279839038848877
0.012528829701785954,0.02166212437558803,-0.08559158076389373, ,0.013254960922542572,0.021395367277316914,-0.08656714869539804, ,0.0012450536888886073, ,0.01164382856312677,0.003908995449408383,-0.030552602045894137,-0.031940000755974446,-0.046879564478287936,0.000189949601035553, ,0.0329290218622685, ,0.05672592521894126, ,0.0004999495679597295, ,0.20557914911185646,-0.23466296111618595,0.09722045371000002,1.7588792459481901,0.6218327104325195,-1.2683087378324538, ,0.06130293382330153,0.04060630789836148,0.03204992257545272,-0.007682093997891241,0.017065856673977822,-0.007748178034724728, ,1.2817590236663818
0.012528829701785954,0.02166212437558803,-0.08559158076389373, ,0.013284029314880192,0.021393976059841644,-0.08663328127425524, ,0.0013142944602115392, ,0.01164382856312677,0.003908995449408383,-0.030552602045894137,-0.031940000755974446,-0.046879564478287936,0.000189949601035553, ,0.0329290218622685, ,0.05672592521894126, ,0.0005059817523467799, ,0.20557914911185646,-0.23466296111618595,0.09722045371000002,1.7588792459481901,0.6218327104325195,-1.2683087378324538, ,0.06130293382330153,0.04060630789836148,0.03204992257545272,-0.007682093997891241,0.017065856673977822,-0.007748178034724728, ,1.2836649417877197
0.012648809358145413,0.02169879547017361,-0.08593053110036489, ,0.01331317467528017,0.021392457821537904,-0.08669959507045555, ,0.001061453446777026, ,0.01279242264794205,0.0042820163167897,-0.03702638818638011,0.13468727371202155,0.10999199760319807,-0.016149403197438156, ,0.03940729834775968, ,0.1738931615824223, ,0.0005100661030411199, ,0.20622013594041708,-0.23418415167798404,0.09755360024000001,1.7584598660612214,0.6231990754301738,-1.269259559389137, ,0.07367774965719781,0.05533349362009957,0.039330398814814815,-0.02214300751601879,0.19432588393038092,-0.1785991788068317, ,1.2857580184936523
0.012648809358145413,0.02169879547017361,-0.08593053110036489, ,0.013342396663269016,0.02139081361123555,-0.08676608829913987, ,0.0011287479823628745, ,0.01279242264794205,0.0042820163167897,-0.03702638818638011,0.13468727371202155,0.10999199760319807,-0.016149403197438156, ,0.03940729834775968, ,0.1738931615824223, ,0.000514582029167556, ,0.20622013594041708,-0.23418415167798404,0.09755360024000001,1.7584598660612214,0.6231990754301738,-1.269259559389137, ,0.07367774965719781,0.05533349362009957,0.039330398814814815,-0.02214300751601879,0.19432588393038092,-0.1785991788068317, ,1.2876760959625244
0.012648809358145413,0.02169879547017361,-0.08593053110036489, ,0.013371694939231639,0.021389044475018458,-0.08683275918051492, ,0.0011968812601729486, ,0.01279242264794205,0.0042820163167897,-0.03702638818638011,0.13468727371202155,0.10999199760319807,-0.016149403197438156, ,0.03940729834775968, ,0.1738931615824223, ,0.0005195262264936822, ,0.20622013594041708,-0.23418415167798404,0.09755360024000001,1.7584598660612214,0.6231990754301738,-1.269259559389137, ,0.07367774965719781,0.05533349362009957,0.039330398814814815,-0.02214300751601879,0.19432588393038092,-0.1785991788068317, ,1.289581060409546
0.012648809358145413,0.02169879547017361,-0.08593053110036489, ,0.013401069164410197,0.021387151456227455,-0.086899605939847, ,0.0012657499168742916, ,0.01279242264794205,0.0042820163167897,-0.03702638818638011,0.13468727371202155,0.10999199760319807,-0.016149403197438156, ,0.03940729834775968, ,0.1738931615824223, ,0.000524894742251816, ,0.20622013594041708,-0.23418415167798404,0.09755360024000001,1.7584598660612214,0.6231990754301738,-1.269259559389137, ,0.07367774965719781,0.05533349362009957,0.039330398814814815,-0.02214300751601879,0.19432588393038092,-0.1785991788068317, ,1.2915420532226562
0.012648809358145413,0.02169879547017361,-0.08593053110036489, ,0.013430519000903815,0.021385135595462734,-0.08696662680745688, ,0.0013352703085291664, ,0.01279242264794205,0.0042820163167897,-0.03702638818638011,0.13468727371202155,0.10999199760319807,-0.016149403197438156, ,0.03940729834775968, ,0.1738931615824223, ,0.0005306831391537971, ,0.20622013594041708,-0.23418415167798404,0.09755360024000001,1.7584598660612214,0.6231990754301738,-1.269259559389137, ,0.07367774965719781,0.05533349362009957,0.039330398814814815,-0.02214300751601879,0.19432588393038092,-0.1785991788068317, ,1.293497085571289
0.012648809358145413,0.02169879547017361,-0.08593053110036489, ,0.013460044111666913,0.021382997930587178,-0.08703382001871517, ,0.0014053740956359126, ,0.01279242264794205,0.0042820163167897,-0.03702638818638011,0.13468727371202155,0.10999199760319807,-0.016149403197438156, ,0.03940729834775968, ,0.1738931615824223, ,0.0005368866211146632, ,0.20698468649496532,-0.2336744513082852,0.09793989466000001,1.7580404861742522,0.6249753499271247,-1.2707079921371904, ,0.0846538283304824,0.051998324141627826,0.03942775128712872,-0.0716402022377522,0.16412618587500086,-0.15198955228274394, ,1.2957520484924316
0.012770874420405576,0.021739440211996326,-0.0862687233989343, ,0.013489644160508884,0.021380739496728602,-0.0871011838140355, ,0.001156843327824573, ,0.014016249317084051,0.004255661500871708,-0.037023652834477526,0.09440646244945106,0.053901734062077586,0.03536877990554425, ,0.03981603657995829, ,0.10871019971112134, ,0.0005412525134154372, ,0.20698468649496532,-0.2336744513082852,0.09793989466000001,1.7580404861742522,0.6249753499271247,-1.2707079921371904, ,0.0846538283304824,0.051998324141627826,0.03942775128712872,-0.0716402022377522,0.16412618587500086,-0.15198955228274394, ,1.2983839511871338
0.012770874420405576,0.021739440211996326,-0.0862687233989343, ,0.013519318812093008,0.021378361326282888,-0.08716871643887053, ,0.0012249630366219608, ,0.014016249317084051,0.004255661500871708,-0.037023652834477526,0.09440646244945106,0.053901734062077586,0.03536877990554425, ,0.03981603657995829, ,0.10871019971112134, ,0.000546033705885413, ,0.20698468649496532,-0.2336744513082852,0.09793989466000001,1.7580404861742522,0.6249753499271247,-1.2707079921371904, ,0.0846538283304824,0.051998324141627826,0.03942775128712872,-0.0716402022377522,0.16412618587500086,-0.15198955228274394, ,1.300551176071167
0.012770874420405576,0.021739440211996326,-0.0862687233989343, ,0.013549067731934605,0.02137586444891698,-0.08723641614370536, ,0.001293909353042094, ,0.014016249317084051,0.004255661500871708,-0.037023652834477526,0.09440646244945106,0.053901734062077586,0.03536877990554425, ,0.03981603657995829, ,0.10871019971112134, ,0.0005512272867684454, ,0.20698468649496532,-0.2336744513082852,0.09793989466000001,1.7580404861742522,0.6249753499271247,-1.2707079921371904, ,0.0846538283304824,0.051998324141627826,0.03942775128712872,-0.0716402022377522,0.16412618587500086,-0.15198955228274394, ,1.3026151657104492
0.012770874420405576,0.021739440211996326,-0.0862687233989343, ,0.013578890586401594,0.021373249891571206,-0.08730428118405324, ,0.0013635854947910003, ,0.014016249317084051,0.004255661500871708,-0.037023652834477526,0.09440646244945106,0.053901734062077586,0.03536877990554425, ,0.03981603657995829, ,0.10871019971112134, ,0.0005568297571686009, ,0.20698468649496532,-0.2336744513082852,0.09793989466000001,1.7580404861742522,0.6249753499271247,-1.2707079921371904, ,0.0846538283304824,0.051998324141627826,0.03942775128712872,-0.0716402022377522,0.16412618587500086,-0.15198955228274394, ,1.3046691417694092
0.012917721932858294,0.021774727442123307,-0.08662747273723213, ,0.013608787042712504,0.02137051867846233,-0.08737230982044912, ,0.0010934980526792614, ,0.015161134265889725,0.0031234877364389744,-0.03487646003947942,-0.005823692637532664,-0.024891162003859255,-0.03633888794712035, ,0.03815735358687005, ,0.02556235005587332, ,0.0005605055674118247, ,0.20788052350837535,-0.2330952463427184,0.09831970763,1.757621106287283,0.6260684419252481,-1.271762692847043, ,0.09258238200826417,0.0628040645655002,0.036787093579676675,0.02159555011650445,0.06613065706329223,-0.04687370860843321, ,1.3067991733551025
0.012917721932858294,0.021774727442123307,-0.08662747273723213, ,0.013638756768935707,0.021367671831086375,-0.08744050031844507, ,0.0011604306757091456, ,0.015161134265889725,0.0031234877364389744,-0.03487646003947942,-0.005823692637532664,-0.024891162003859255,-0.03633888794712035, ,0.03815735358687005, ,0.02556235005587332, ,0.0005645866905975207, ,0.20788052350837535,-0.2330952463427184,0.09831970763,1.757621106287283,0.6260684419252481,-1.271762692847043, ,0.09258238200826417,0.0628040645655002,0.036787093579676675,0.02159555011650445,0.06613065706329223,-0.04687370860843321, ,1.3087551593780518
0.012917721932858294,0.021774727442123307,-0.08662747273723213, ,0.01366879943398859,0.02136471036822127,-0.0875088509486045, ,0.0012284376113898782, ,0.015161134265889725,0.0031234877364389744,-0.03487646003947942,-0.005823692637532664,-0.024891162003859255,-0.03633888794712035, ,0.03815735358687005, ,0.02556235005587332, ,0.0005690721697920638, ,0.20788052350837535,-0.2330952463427184,0.09831970763,1.757621106287283,0.6260684419252481,-1.271762692847043, ,0.09258238200826417,0.0628040645655002,0.036787093579676675,0.02159555011650445,0.06613065706329223,-0.04687370860843321, ,1.3107590675354004
0.012917721932858294,0.021774727442123307,-0.08662747273723213, ,0.0136989147076364,0.02136163530593003,-0.08757735998649699, ,0.0012973793010011352, ,0.015161134265889725,0.0031234877364389744,-0.03487646003947942,-0.005823692637532664,-0.024891162003859255,-0.03633888794712035, ,0.03815735358687005, ,0.02556235005587332, ,0.0005739601371156145, ,0.20788052350837535,-0.2330952463427184,0.09831970763,1.757621106287283,0.6260684419252481,-1.271762692847043, ,0.09258238200826417,0.0628040645655002,0.036787093579676675,0.02159555011650445,0.06613065706329223,-0.04687370860843321, ,1.3126590251922607
0.012917721932858294,0.021774727442123307,-0.08662747273723213, ,0.013729102260492104,0.021358447657562847,-0.08764602571269198, ,0.0013671419307895404, ,0.015161134265889725,0.0031234877364389744,-0.03487646003947942,-0.005823692637532664,-0.024891162003859255,-0.03633888794712035, ,0.03815735358687005, ,0.02556235005587332, ,0.0005792480157401074, ,0.20788052350837535,-0.2330952463427184,0.09831970763,1.757621106287283,0.6260684419252481,-1.271762692847043, ,0.09258238200826417,0.0628040645655002,0.036787093579676675,0.02159555011650445,0.06613065706329223,-0.04687370860843321, ,1.3145179748535156
0.01307959249041433,0.021801623909233188,-0.08699749791971212, ,0.013759361764013982,0.021355148433760796,-0.08771484641275519, ,0.0010844424724251915, ,0.015161134265889725,0.0031234877364389744,-0.03487646003947942,-0.005823692637532664,-0.024891162003859255,-0.03633888794712035, ,0.03815735358687005, ,0.02556235005587332, ,0.000582593674393651, ,0.2088458651176534,-0.23236930945254128,0.09870729834000001,1.7578307962307675,0.6264783514245444,-1.2720969465581322, ,0.08811229485466182,0.07555488977585254,0.03440348060475163,-0.010905890003390999,0.019076273071865425,-0.009117731647071872, ,1.316404104232788
0.01307959249041433,0.021801623909233188,-0.08699749791971212, ,0.013789692890505916,0.021351738642457766,-0.08778382037724135, ,0.0011510613965756255, ,0.014783577696409405,0.0012339138096798888,-0.03315125919139344,-0.06529447208439434,-0.07248947290700167,-0.004218559833597828, ,0.03631917811254049, ,0.09756050290232467, ,0.0005863335936185324, ,0.2088458651176534,-0.23236930945254128,0.09870729834000001,1.7578307962307675,0.6264783514245444,-1.2720969465581322, ,0.08811229485466182,0.07555488977585254,0.03440348060475163,-0.010905890003390999,0.019076273071865425,-0.009117731647071872, ,1.3184139728546143
0.01307959249041433,0.021801623909233188,-0.08699749791971212, ,0.013820095313115809,0.021348219288884057,-0.08785294590169017, ,0.001218897629029245, ,0.014783577696409405,0.0012339138096798888,-0.03315125919139344,-0.06529447208439434,-0.07248947290700167,-0.004218559833597828, ,0.03631917811254049, ,0.09756050290232467, ,0.0005904679990787332, ,0.2088458651176534,-0.23236930945254128,0.09870729834000001,1.7578307962307675,0.6264783514245444,-1.2720969465581322, ,0.08811229485466182,0.07555488977585254,0.03440348060475163,-0.010905890003390999,0.019076273071865425,-0.009117731647071872, ,1.3203201293945312
0.01307959249041433,0.021801623909233188,-0.08699749791971212, ,0.01385056870583516,0.021344591375568375,-0.08792222128661968, ,0.001287787391954729, ,0.014783577696409405,0.0012339138096798888,-0.03315125919139344,-0.06529447208439434,-0.07248947290700167,-0.004218559833597828, ,0.03631917811254049, ,0.09756050290232467, ,0.0005949960470844214, ,0.2088458651176534,-0.23236930945254128,0.09870729834000001,1.7578307962307675,0.6264783514245444,-1.2720969465581322, ,0.08811229485466182,0.07555488977585254,0.03440348060475163,-0.010905890003390999,0.019076273071865425,-0.009117731647071872, ,1.3221781253814697
0.01307959249041433,0.021801623909233188,-0.08699749791971212, ,0.013881112743497211,0.02134085590234135,-0.08799164483752234, ,0.001357597129662802, ,0.014783577696409405,0.0012339138096798888,-0.03315125919139344,-0.06529447208439434,-0.07248947290700167,-0.004218559833597828, ,0.03631917811254049, ,0.09756050290232467, ,0.0005999160540687981, ,0.2088458651176534,-0.23236930945254128,0.09870729834000001,1.7578307962307675,0.6264783514245444,-1.2720969465581322, ,0.08811229485466182,0.07555488977585254,0.03440348060475163,-0.010905890003390999,0.019076273071865425,-0.009117731647071872, ,1.3241260051727295
0.013234768274377116,0.021807334944403737,-0.08735263936330742, ,0.013911727101777084,0.0213370138663379,-0.08806121486485827, ,0.0010869932897059594, ,0.014622404162592395,0.0005844726291875401,-0.03436244121796546,0.05662364920198162,0.05271714538895299,-0.0008617067527407294, ,0.037348810934306864, ,0.07736463764268757, ,0.0006030383440408312, ,0.20982665219267993,-0.2314889179048797,0.09907803728,1.7574114163437988,0.6275714434226679,-1.2728249323074223, ,0.09489694155847078,0.08549274014276646,0.03611975401360545,-0.03517376657518772,0.16443661237716298,-0.13852879803723578, ,1.3260300159454346
0.013234768274377116,0.021807334944403737,-0.08735263936330742, ,0.013942411457190121,0.021333066262000103,-0.08813092968405024, ,0.001153874118200319, ,0.014622404162592395,0.0005844726291875401,-0.03436244121796546,0.05662364920198162,0.05271714538895299,-0.0008617067527407294, ,0.037348810934306864, ,0.07736463764268757, ,0.0006065468521564968, ,0.20982665219267993,-0.2314889179048797,0.09907803728,1.7574114163437988,0.6275714434226679,-1.2728249323074223, ,0.09489694155847078,0.08549274014276646,0.03611975401360545,-0.03517376657518772,0.16443661237716298,-0.13852879803723578, ,1.3279590606689453
0.013234768274377116,0.021807334944403737,-0.08735263936330742, ,0.013973165487090867,0.021329014081080174,-0.08820078761547924, ,0.0012220379493682449, ,0.014622404162592395,0.0005844726291875401,-0.03436244121796546,0.05662364920198162,0.05271714538895299,-0.0008617067527407294, ,0.037348810934306864, ,0.07736463764268757, ,0.0006104423654299888, ,0.20982665219267993,-0.2314889179048797,0.09907803728,1.7574114163437988,0.6275714434226679,-1.2728249323074223, ,0.09489694155847078,0.08549274014276646,0.03611975401360545,-0.03517376657518772,0.16443661237716298,-0.13852879803723578, ,1.3298449516296387
0.013234768274377116,0.021807334944403737,-0.08735263936330742, ,0.014003988869673035,0.021324858312643014,-0.08827078698447775, ,0.0012913090562229165, ,0.014622404162592395,0.0005844726291875401,-0.03436244121796546,0.05662364920198162,0.05271714538895299,-0.0008617067527407294, ,0.037348810934306864, ,0.07736463764268757, ,0.0006147245458752274, ,0.20982665219267993,-0.2314889179048797,0.09907803728,1.7574114163437988,0.6275714434226679,-1.2728249323074223, ,0.09489694155847078,0.08549274014276646,0.03611975401360545,-0.03517376657518772,0.16443661237716298,-0.13852879803723578, ,1.3317279815673828
0.013234768274377116,0.021807334944403737,-0.08735263936330742, ,0.0140348812839671,0.021320599943069306,-0.08834092612132453, ,0.001361544162233141, ,0.014622404162592395,0.0005844726291875401,-0.03436244121796546,0.05662364920198162,0.05271714538895299,-0.0008617067527407294, ,0.037348810934306864, ,0.07736463764268757, ,0.0006193921684774643, ,0.20982665219267993,-0.2314889179048797,0.09907803728,1.7574114163437988,0.6275714434226679,-1.2728249323074223, ,0.09489694155847078,0.08549274014276646,0.03611975401360545,-0.03517376657518772,0.16443661237716298,-0.13852879803723578, ,1.333683967590332
0.013379333497213514,0.02180608493008149,-0.08768920692507766, ,0.014065842409840427,0.02131623995605808,-0.08841120336124032, ,0.001110189821392617, ,0.014729332268137885,-0.0007819575339707994,-0.032955070384720696,0.062036505892816556,0.05924188008094153,0.06197189414986759, ,0.036105419963103, ,0.08577930723205643, ,0.0006224406011042666, ,0.21072248920608996,-0.23068575368596034,0.09940729494000002,1.756362966626376,0.6293477179196186,-1.2742733650554758, ,0.10116944729048058,0.09124705919083728,0.03462785113043479,-0.1057548373531725,0.19903001212680382,-0.1663491305575097, ,1.336785078048706
0.013379333497213514,0.02180608493008149,-0.08768920692507766, ,0.014096871927996335,0.021311779332629444,-0.08848161704438111, ,0.0011777577087403015, ,0.014729332268137885,-0.0007819575339707994,-0.032955070384720696,0.062036505892816556,0.05924188008094153,0.06197189414986759, ,0.036105419963103, ,0.08577930723205643, ,0.0006258684844847359, ,0.21072248920608996,-0.23068575368596034,0.09940729494000002,1.756362966626376,0.6293477179196186,-1.2742733650554758, ,0.10116944729048058,0.09124705919083728,0.03462785113043479,-0.1057548373531725,0.19903001212680382,-0.1663491305575097, ,1.33896803855896
0.013379333497213514,0.02180608493008149,-0.08768920692507766, ,0.014127969519972241,0.02130721905112775,-0.08855216551583381, ,0.0012466036214916648, ,0.014729332268137885,-0.0007819575339707994,-0.032955070384720696,0.062036505892816556,0.05924188008094153,0.06197189414986759, ,0.036105419963103, ,0.08577930723205643, ,0.0006296766755093182, ,0.21072248920608996,-0.23068575368596034,0.09940729494000002,1.756362966626376,0.6293477179196186,-1.2742733650554758, ,0.10116944729048058,0.09124705919083728,0.03462785113043479,-0.1057548373531725,0.19903001212680382,-0.1663491305575097, ,1.341130018234253
