NicholasDascanio/dvrk_moveit_final/test/execution/third_experiment_notsharpbends/thirdexp_600vel4.0/thirdexp_600vel4.0_30.csv
Current Position (x),Current Position (y),Current Position (z), ,Planned Position (x),Planned Position (y),Planned Position (z), ,Position Error,,Cartesian linear Velocity(x),Cartesian linear Velocity(y),Cartesian linear Velocity(z),Cartesian Angular Velocity(x),Cartesian Angular Velocity(y),Cartesian Angular Velocity(z), ,Total Linear Velocity, ,Total Angular Velocity, ,MSE, ,Joint 1 Position,Joint 2 Position,Joint 3 Position,Joint 4 Position,Joint 5 Position,Joint 6 Position, ,Joint 1 Velocity,Joint 2 Velocity,Joint 3 Velocity,Joint 4 Velocity,Joint 5 Velocity,Joint 6 Velocity, ,Time Stamp
0.009303131688353602,0.02023859216346617,-0.08048685384685653, ,0.009440018262830165,0.020140387304459068,-0.08057983241229208, ,0.00019242438056282237, ,3.1436603349612596e-05,-3.618067278524673e-05,-5.464085113094785e-06,0.07092595711685146,-0.0004014562391459946,-0.06848511046383973, ,4.824061918629477e-05, ,0.0709270932722708, ,1.6035365046901864e-05, ,0.20242827409917286,-0.21890086331989372,0.09350269399000001,1.8760959243560393,0.9518098573660582,-1.170482074547906, ,0.0004472577699497798,0.00020251906889052015,0.0,-0.0028744954091543193,0.0,-0.10103528533248274, ,0.01971888542175293
0.009305138109029724,0.020239436672156705,-0.0804904286863228, ,0.009477558086769306,0.020151343151521506,-0.08063791163412785, ,0.00024339337911062506, ,5.8783240212763434e-05,-3.517608911045361e-05,-2.0494121095066714e-06,0.11918610784736744,-0.00029088678998577663,-0.1163934634768313, ,6.853485729913365e-05, ,0.11918646281742272, ,1.9809898166974883e-05, ,0.2024437195649213,-0.21890086331989372,0.09350658286,1.8760959243560393,0.9518098573660582,-1.1724423643112796, ,0.0007876155198511937,0.00019006388099357096,0.0,-0.0028744954091543193,0.0,-0.16903176436313938, ,0.03838706016540527
0.009320421275434518,0.02024227809237847,-0.0805147986923465, ,0.00951511035321782,0.0201621952183543,-0.0806959196488849, ,0.0002777083085135683, ,0.0011246871774813695,8.386825431053364e-05,-0.0012910000298927233,0.077314022326238,-0.12956042903569986,-0.14497766960670688, ,0.0017142450841274473, ,0.15087532210462073, ,2.2297689630844242e-05, ,0.20247461049641818,-0.2188931405870195,0.09352213834,1.8760959243560393,0.9503068558686383,-1.1762808492593337, ,0.0019168185456147975,0.0,0.0004424531521195323,-0.0028744954091543193,-0.13746817352818935,-0.1585071068623013, ,0.057086944580078125
0.00933844564589803,0.02024594219316777,-0.0805406927630958, ,0.009552674903325361,0.020172943944819558,-0.08075385701546355, ,0.00031090499752701013, ,0.00046745381907484907,0.00011430264049466973,-0.0005849348020827561,0.20873984017035108,-0.0037945542490349293,-0.20439597802776052, ,0.0007574476148746581, ,0.20877432676527186, ,2.4391215850333952e-05, ,0.20255183782516045,-0.21888541785414528,0.09354158269000001,1.8760959243560393,0.9490771273707493,-1.1791169889126722, ,0.00425270239663147,6.592972934943184e-05,0.0006419314969675484,-0.0028744954091543193,-0.0006157456958996767,-0.2945156781509981, ,0.07621097564697266
0.009371046782958192,0.02025364011191588,-0.08058580671036877, ,0.00959025157867224,0.020183589770036734,-0.08081172429098996, ,0.0003224849548353391, ,0.0021044850197832286,0.0005473426784110567,-0.0031881729263509868,-0.013095756775934875,-0.15142827628207348,-0.0727393798729001, ,0.003859130447966176, ,0.1519934923046544, ,2.5902231164410866e-05, ,0.20270629248264493,-0.21888541785414528,0.09357658252,1.8760959243560393,0.9470275798742677,-1.1830815534269248, ,0.007569216479900872,0.00027781207414275655,0.002373537702279839,0.006901798784663424,-0.15631680647027055,-0.03552655457161091, ,0.09488105773925781
0.00940718086697165,0.020271987831181507,-0.08066116845152073, ,0.00962784022126868,0.020194133132383458,-0.08086952203081947, ,0.0003133099404269115, ,0.001270501727991159,0.0007516193250313093,-0.00304816046807291,-0.11048709306356973,0.012792078916233641,0.11325597675944725, ,0.003386796198431713, ,0.11122515460260743, ,2.677783808026252e-05, ,0.20287619260587786,-0.21887769512127106,0.09365047105,1.8765153042430085,0.9459344878761442,-1.180965029095245, ,0.008976049905188528,0.0005658996200792674,0.003429238217438106,0.00780826711707243,0.022310559912926436,0.1641086325143929, ,0.11503005027770996
0.009430492740427262,0.02028561128881934,-0.08071822789390577, ,0.00966544067355473,0.02020457446949614,-0.08092725078853785, ,0.00032474307975269295, ,0.0010017754105601175,0.0007298973891859765,-0.002597193372182,0.0025236383246980145,0.07768794325166656,0.038689896151831216, ,0.002877797349440976, ,0.07772892175342376, ,2.7569014454569018e-05, ,0.20308470639348195,-0.21886224965552262,0.09371917442000001,1.8765153042430085,0.9470275798742677,-1.1786709014593344, ,0.011316231381793544,0.0008592511971109079,0.003453026559722524,0.00780826711707243,0.09394450068254089,0.03077234794799552, ,0.1350100040435791
0.009459990261268904,0.02029665768143058,-0.0807697301955806, ,0.009703052778399356,0.02021491421827027,-0.08098491111596347, ,0.00033475992815755007, ,0.0014779454302792478,0.0005400378508917491,-0.002388438133885545,0.01949122435707797,0.0057493052392695015,-0.017418140816750038, ,0.002860174871345764, ,0.020321474788865954, ,2.8289377669347794e-05, ,0.20334727931120555,-0.21883908145689993,0.09377880376000002,1.8765153042430085,0.9475741258733295,-1.1784631431529955, ,0.012825644216579375,0.0013139911744803998,0.0027340905458290428,0.00780826711707243,0.01802670432926494,-0.020590081945335154, ,0.1546459197998047
0.009494671719267406,0.020309793297782798,-0.08082400029156615, ,0.009740676379100602,0.02022515281486129,-0.08104250356314936, ,0.00033974399730002353, ,0.0016335525756640415,0.0006863005736811693,-0.002691659416783848,0.02812225707078903,-0.002191350172518739,-0.03265982283069786, ,0.0032225041366699425, ,0.02820750535217276, ,2.8907314849853725e-05, ,0.20362529769467766,-0.21882363599115148,0.09383843310000001,1.876724994186493,0.9475741258733295,-1.1786265006332768, ,0.013259318367817631,0.0006051317050326789,0.0030185354405912455,0.011698795103296052,0.008991971984094056,-0.033839383426663344, ,0.17470908164978027
0.00952012127649261,0.02031992388411865,-0.08086670276266056, ,0.009778311319384917,0.020235290694684462,-0.08110002867838496, ,0.00035814223145444224, ,0.0019977740688550726,0.0008235357498329657,-0.003308278038663546,0.007093537738137833,-0.007508696995206488,-0.011911605027579486, ,0.00395145744536699, ,0.01032951149919111, ,2.9584462721970437e-05, ,0.2038260887494075,-0.21882363599115148,0.09388509954,1.876724994186493,0.9475741258733295,-1.1787898581135579, ,0.016002856923856792,0.000540833942530092,0.0036744663252595154,0.010180569392879256,0.006723536404552035,-0.005482593105852072, ,0.1940929889678955
0.009566942380547913,0.02033671492154846,-0.08093602540874466, ,0.009815957443406515,0.02024532829241617,-0.08115748700819746, ,0.00034555065843784507, ,0.00147579822147388,0.0004509507613770233,-0.001858506802473219,0.0032275113535414806,-0.008943534194134154,-0.0016629532458016301, ,0.0024156540552262885, ,0.009508082529969604, ,3.0028266572132408e-05, ,0.2042122253931187,-0.21880819052540304,0.09396158065000002,1.8769346841299777,0.9475741258733295,-1.1787898581135579, ,0.013418685175123131,0.0001530455320098499,0.0021078220881302107,0.0008756614828278537,0.004589794033967818,-0.0028623898385103336, ,0.21376395225524902
0.009605235238004946,0.020351563809331518,-0.08098977014338896, ,0.009853614595747526,0.02025526604199391,-0.08121487909735531, ,0.0003487687005776896, ,0.00207082873157388,0.0007395009296418979,-0.00324371671211307,-0.0003940863835341312,-0.015846044209784537,-0.003600238301744144, ,0.003918786976718018, ,0.015850943846251988, ,3.042569308734852e-05, ,0.20453658017383614,-0.2187927450596546,0.09402250628000001,1.8773540640169468,0.9477107623730949,-1.1789012760172544, ,0.01673372272235422,0.0007420484355470714,0.003554744815889311,0.004103200029454053,0.0,0.0006742141669915784, ,0.2330930233001709
0.009626482640827841,0.020359371559795017,-0.08102451453324595, ,0.009891282621417,0.02026510437661695,-0.08127220548886856, ,0.00037464134988223814, ,0.0022781920308987975,0.0009043556104820264,-0.003913186690211211,0.0014474619740515718,-0.016290415684165106,-0.005058041195834697, ,0.004617472043478691, ,0.016354595330108874, ,3.1195235927776774e-05, ,0.2047142030299433,-0.21878502232678035,0.09406139498,1.8773540640169468,0.9478473988728604,-1.1789310151808101, ,0.01756700139919859,0.0006211584177933195,0.004269314264272313,0.004103200029454053,0.0004072088717926965,-0.001595107385159004, ,0.250748872756958
0.009671377259530618,0.020378372249600582,-0.08111089547611078, ,0.009928961365850975,0.020274843728746723,-0.08132946672399126, ,0.0003533286244547353, ,0.0021428737903209536,0.000866034111353027,-0.0038093712718366437,0.00043614364790694874,-0.014866694951859735,-0.004209570915326876, ,0.004455696651475036, ,0.014873091113520791, ,3.1713603792810664e-05, ,0.20503855781066074,-0.2187695768610319,0.09415472786000001,1.8773540640169468,0.9478473988728604,-1.1790126939209506, ,0.016163675959541948,0.0007587243101170722,0.0041448898048399695,0.004103200029454053,0.0004350658572345642,-0.00035476703418322117, ,0.2679128646850586
0.00969269674836908,0.020385549319239773,-0.08114577907892108, ,0.009966650674911837,0.02028448453010771,-0.08138666334222383, ,0.000378536753535786, ,0.002244713362020019,0.0007822292028807266,-0.0034931090671388096,0.00018278081426978382,-0.01662416851594977,-0.006520489404500513, ,0.004225213788484318, ,0.01662517329692211, ,3.2338532110934756e-05, ,0.20538608079000084,-0.21874640866240924,0.09423120897000001,1.8773540640169468,0.9479840353726259,-1.1791241118246472, ,0.01816904873798024,0.0011509561181420414,0.003834571863264324,0.004103200029454053,0.0,0.0, ,0.28552699089050293
0.00975982053939695,0.02040954626099233,-0.08124430139471742, ,0.010004350394887755,0.020294027211687507,-0.08144379588131469, ,0.00033606182639709715, ,0.002172197733655038,0.0007225868177071718,-0.002914926222410363,0.0018594851648095442,-0.015338285642362125,-0.013658800023453195, ,0.0037063957674964786, ,0.015450588704460238, ,3.262343741092643e-05, ,0.20576449470083782,-0.21872324046378655,0.09430250492000002,1.8777734439039155,0.9479840353726259,-1.1790424330845066, ,0.01839088014699046,0.0009669178131271927,0.003246802185079495,0.0140884826587615,-4.736586369642961e-06,3.862368582981978e-06, ,0.30347704887390137
0.009779961300729147,0.020414053666500738,-0.08127328022522104, ,0.010042060372492702,0.02030347220373769,-0.08150086487726188, ,0.0003643061311187109, ,0.0021704585359300604,0.0005580358726114637,-0.0031017339215993443,-0.0006197457058767053,-0.015137530068887059,-0.012930279941501244, ,0.003826623526258227, ,0.015150211253950203, ,3.3046761928413694e-05, ,0.205942117556945,-0.21869234953228966,0.09433491217000001,1.8777734439039155,0.9481206718723914,-1.1791538509882031, ,0.017921990851458125,0.0032520556675040713,0.0033876672735006384,0.012834122524591155,0.0,-2.255537340964058e-06, ,0.32088208198547363
0.009800566278012053,0.02042038168517614,-0.08130442325424014, ,0.010079780454865557,0.020312819935774083,-0.0815578708643156, ,0.0003921297968063243, ,0.0020068267183858657,0.0006796340770599688,-0.002950967884433679,0.007779020289275044,-0.006652513679166621,-0.014010377413347054, ,0.0036328318721470616, ,0.010235677539306874, ,3.358488090256484e-05, ,0.20611974041305217,-0.21867690406654122,0.09436991200000001,1.8777734439039155,0.9482573083721567,-1.1791835901517589, ,0.01686157454841343,0.0014541347616221605,0.0033095390650322047,0.011718332842571505,0.008208586933598744,-0.006693552235467423, ,0.3394758701324463
0.00986261625025653,0.020439062156527025,-0.08139545342660438, ,0.010117510489570285,0.020322070836577333,-0.08161481437497939, ,0.000356057955747222, ,0.002198300902898548,0.0005871195697134113,-0.002896573012084004,-0.0006377878363348315,-0.012725577273818612,0.002589024702574412, ,0.003683391299218484, ,0.012741549751588421, ,3.387565943026288e-05, ,0.20662944078275097,-0.21862284493642165,0.09446972633,1.8779831338474002,0.9482573083721567,-1.1788568751911965, ,0.019704514443204067,0.0015173043420369096,0.003315049223725287,0.00010074640005690702,0.007315492303844984,0.0014913665205555935, ,0.35629987716674805
0.00988760614144036,0.020445280157250417,-0.0814237582854063, ,0.010155250324594875,0.02033122533419356,-0.08167169594001283, ,0.0003822499077969415, ,0.0019425802418121675,0.0003482393708633758,-0.002140564958421822,0.0009095986047355856,-0.008722736546292251,-0.005037224489808455, ,0.0029115128363999625, ,0.008770034346159567, ,3.427446856904935e-05, ,0.20686884550185194,-0.21859195400492476,0.09450342987,1.8781928237908847,0.9485305813716876,-1.1789980322584488, ,0.018224878348083496,0.0028017143426574713,0.002441945656906332,0.006969463845952458,0.008587655100268527,-0.00010590228005627196, ,0.3734750747680664
0.009933603743480282,0.020458914508215735,-0.08148517477678718, ,0.010192999808351269,0.020340283855934848,-0.08172851608843316, ,0.0003749327194107346, ,0.0020878331150007597,0.0006078112015733306,-0.0031284702341467297,-0.0018558033667326274,-0.008914061708083232,0.012374658134168225, ,0.0038099616243203664, ,0.009105190935494448, ,3.4601870058159155e-05, ,0.20727042761131162,-0.21853789487480518,0.09457342953,1.8786122036778536,0.9488038543712184,-1.17897583184542, ,0.018044674188718537,0.0011797394643349932,0.003499299543057997,-0.007842891063990495,0.01165423751836942,0.0029187453541567633, ,0.39412903785705566
0.009977800423679361,0.02047135174751656,-0.08155709753251379, ,0.01023075878967519,0.02034924682837944,-0.08178527534751673, ,0.0003618876365175754, ,0.0020484134807072984,0.0005291090364612473,-0.003452849655209579,-0.0011937060439356445,-0.007580982066791013,0.009711718560480816, ,0.004049459828407888, ,0.007674387449533269, ,3.483993989775417e-05, ,0.20761795059065172,-0.2184838357446856,0.09465120693000001,1.8786122036778536,0.9488038543712184,-1.1786491168848579, ,0.016724875142486918,0.0029071790539008575,0.0037898671234832264,-0.007842891063990495,0.01165423751836942,-0.0003782653129309568, ,0.4122200012207031
0.009998286085200831,0.020477031093419258,-0.08158740468308003, ,0.010268527117825166,0.02035811467737266,-0.08184197424280179, ,0.0003898422635581824, ,0.0019484958143049897,0.0004375530163112545,-0.0028989351407038835,-0.006047002981583708,-0.008617145009777845,0.014447321516645942, ,0.0035202149835564, ,0.010527175925863797, ,3.518511095874239e-05, ,0.2078032961796331,-0.21846066754606294,0.09468620676000002,1.8786122036778536,0.9490771273707493,-1.1787902739521101, ,0.01685259129079573,0.0024992377150555444,0.003214045907990315,-0.007842891063990495,0.010706909741759382,0.006631587342168171, ,0.430419921875
0.010043928407325438,0.02048505218441195,-0.08165023057615083, ,0.010306304642482564,0.020366887828027452,-0.08189861329808962, ,0.0003801290313205684, ,0.0019799918248826764,0.000530919191959407,-0.002547615758851507,0.0019320859619494735,-0.004673370075782359,-0.006497580719721917, ,0.0032699524262199287, ,0.005057009385225912, ,3.5461037187837545e-05, ,0.208212601021967,-0.21839116295019492,0.09475620642,1.878402513734369,0.9493504003702803,-1.1788497522792218, ,0.01762573208738313,0.00209262307555077,0.0029067174306569347,0.010616478631095664,0.011455255563736345,0.0014932248293079847, ,0.4486079216003418
0.010086945107652002,0.020498109152503448,-0.08171137779076323, ,0.010344091213751055,0.020375566704724294,-0.08195519303544697, ,0.0003749488564188508, ,0.0019800584212888907,0.0005821535171658368,-0.003127420693509889,0.00013093012391321977,-0.003588271275247862,-0.006388899783632447, ,0.003747038065387044, ,0.003590659151595645, ,3.569450799004806e-05, ,0.2085601240013071,-0.21833710382007535,0.09482361350000001,1.8788218936213381,0.9493504003702803,-1.1784413585785192, ,0.0160896815121178,0.0030032212685898517,0.003476388371890005,0.011021291361804386,0.010882684690946635,0.00268726660498397, ,0.4671909809112549
0.010128643090282505,0.020512862197209596,-0.08178137525905245, ,0.01038188668215616,0.020384151731112504,-0.08201171397520801, ,0.00036572479416658823, ,0.002107880795928575,0.0007358673300298464,-0.003680687312776781,-0.005279706331082533,-0.006998356951748406,-0.00438491856113033, ,0.004304895036082262, ,0.008766544261624888, ,3.6019077748129856e-05, ,0.20889992424777298,-0.21829076742283,0.09490268719000002,1.8790315835648228,0.9497603098695766,-1.1785305760691867, ,0.015871707904076063,0.002753670852883228,0.004034653373860182,0.01284269514450275,0.006587854306517474,0.009593585627031309, ,0.48557090759277344
0.010150316960310091,0.020520466401403332,-0.08181737012891552, ,0.010419690898644779,0.02039264333011015,-0.08206817663597561, ,0.0003896215602253644, ,0.0018833485270440414,0.00043281194886627674,-0.003153853134515341,-0.009570224974220831,-0.012625430768844502,0.023523016209489423, ,0.003698799460837614, ,0.015842686257199177, ,3.6416995152993876e-05, ,0.20906982437100594,-0.2182598764913331,0.09494287218000001,1.8792412735083073,0.9498969463693421,-1.1785603152327424, ,0.015370414894472106,0.0023013348890851865,0.0034285001119242365,-0.017473439287170812,0.0070494328860491616,0.007790246684520686, ,0.5007309913635254
0.010170986908567763,0.020525332073282235,-0.08184978976035999, ,0.010457503714585049,0.020401041923904913,-0.08212458153462437, ,0.0004159933179342587, ,0.002083993109796596,0.0007821778606357076,-0.003156074743486022,0.00014689143938720572,-0.005074675497773716,-0.016108273626951206, ,0.003862076808378971, ,0.005076800979901783, ,3.6890977497899987e-05, ,0.20923972449423886,-0.21824443102558463,0.09497787201,1.8790315835648228,0.9498969463693421,-1.1784786364926019, ,0.01662816568397946,0.0017480049965459376,0.0035397358933333335,0.02318613330126199,0.0070494328860491616,0.00648136875236661, ,0.5189309120178223
0.010190869720126325,0.020530646538416845,-0.08188255158803794, ,0.010495324981765699,0.02040934793395446,-0.0821809291863008, ,0.0004432105018267656, ,0.001822533492159843,0.0004424252550247326,-0.0023318153723525924,-0.002586685714429801,-0.008248081571791624,-0.009081508487294627, ,0.002992445716645151, ,0.00864417679893371, ,3.743740805820835e-05, ,0.2097494248639377,-0.21815948096396817,0.09507120489000001,1.8790315835648228,0.9501702193688728,-1.1783747573394325, ,0.015659561313279006,0.002697218569252627,0.002613422726825267,0.014352193357961602,0.004651040799740131,0.005656935767169163, ,0.5360300540924072
0.010250545046681173,0.020543570392237278,-0.08196511873002062, ,0.010533154552395521,0.020417561780987043,-0.08223722010442777, ,0.00041205031341279654, ,0.002196205107219717,0.0007299133212229126,-0.0036682509009315347,3.142690383323213e-05,-0.006974943857716805,-0.009010596205989254, ,0.004337298122294759, ,0.006975014609618505, ,3.7840816835796624e-05, ,0.2099193249871706,-0.2181285900324713,0.09510620472,1.8790315835648228,0.9503068558686383,-1.1784861752431288, ,0.016936809130549846,0.0028251742503379845,0.0040418197208830255,0.012780333702479595,0.00774559416557985,0.002475657487181662, ,0.5513169765472412
0.01029821248531337,0.020564198672127908,-0.08205125653237814, ,0.010570992279103446,0.02042568388500177,-0.08229345480070391, ,0.00039019887664209677, ,0.0025882873457319265,0.0011483845824752346,-0.005274565692442426,0.003924799266230019,-0.002345714068709168,-0.014193259906503388, ,0.005986573458768671, ,0.004572353845643496, ,3.8145598515084866e-05, ,0.21026684796651074,-0.2180745309023517,0.09520213018000001,1.8796606533952764,0.9505801288681692,-1.1784639748301002, ,0.017622458970932363,0.0027159929972534733,0.005775493662073967,0.01786006522752255,0.012271107098923546,0.00024971020014599287, ,0.5676920413970947
0.010326772359093109,0.020575674354673328,-0.08211185117232032, ,0.010608838014937515,0.020433714665269578,-0.08234963378510687, ,0.00039528996770237207, ,0.0027009331382478905,0.0010706129938330984,-0.0053785360589814315,0.00346965867680155,-0.0038560395262153178,-0.013491432727783534, ,0.006113092681909328, ,0.005187250491360609, ,3.845110759841264e-05, ,0.21044447082261789,-0.2180436399708548,0.0952643521,1.8796606533952764,0.9505801288681692,-1.178300617349819, ,0.01865112845095731,0.0037660085019116285,0.005921491271375466,0.01600905682914428,0.012271107098923546,-0.0010659567012746415, ,0.5824718475341797
0.010349861754352804,0.020582936020662627,-0.0821530856823117, ,0.010646691613365039,0.020441654540333202,-0.08240575756589547, ,0.00041462212029638273, ,0.0023524172971992234,0.0007753184364190431,-0.003837047122759074,-0.0009985639634078575,-0.005282025085244187,-0.007718292108885719, ,0.004567046796375865, ,0.0053755853782103905, ,3.880428667270003e-05, ,0.21062981641159928,-0.2180127490393579,0.09531231483000001,1.8796606533952764,0.9507167653679346,-1.1782486777732342, ,0.018430169267521997,0.002955853228315285,0.004257902036888533,0.014310365732855983,0.010828350371247656,0.00528526092279431, ,0.6010959148406982
0.010412632148600382,0.02059584783670886,-0.08224064793369859, ,0.010684552928271796,0.020449503928008136,-0.08246182664961046, ,0.0003798387478961838, ,0.0024005315304761327,0.00041575399928827007,-0.002427383647435944,-0.028396962054705807,-0.04060974749468618,0.004142259147023377, ,0.003439126980582965, ,0.04955339590214074, ,3.902745212129998e-05, ,0.21119357591141766,-0.21790463077911876,0.09541212916000001,1.8796606533952764,0.9515365843665273,-1.1786721489749912, ,0.020251161237403066,0.0026198104192477817,0.002587946632006499,0.010927351830869651,-0.024028337010764903,0.030695589013387297, ,0.6170539855957031
0.010436354543225137,0.02059874501506023,-0.08226910722097831, ,0.010722421813961713,0.0204572632453829,-0.08251784154107764, ,0.0004046236974436549, ,0.0026936233943445423,0.0003939340358933503,-0.0034146035808469317,-0.025384344812723735,-0.035749880469125576,0.0019139064744690642, ,0.004366956449236485, ,0.04384539787325261, ,3.931712008516598e-05, ,0.21140981243189597,-0.21785829438187343,0.09544453641,1.8796606533952764,0.9515365843665273,-1.17850879149471, ,0.021880779699901032,0.0055174713221391725,0.003606251193117501,0.010123800754422268,-0.01716349419206761,0.02474419962165715, ,0.6328680515289307
0.010470077974929676,0.020607257125649776,-0.08231196308852402, ,0.010760298125156503,0.02046493290881976,-0.08257380274340893, ,0.0004159854843191138, ,0.0025300733116947185,0.0006078364106828247,-0.0032667688928561867,-0.0063604963913902884,-0.016750828036597207,-0.006571743312181466, ,0.004176423717013695, ,0.017917760850187106, ,3.962736021861487e-05, ,0.21168010808249382,-0.21780423525175385,0.09549120285000001,1.8800800332822456,0.9513999478667619,-1.1781523373705918, ,0.021373185035691616,0.0032356693707551957,0.0036284308701594534,0.013254166608240211,0.001923388597661382,0.008949444446874347, ,0.6487648487091064
0.010521409780194061,0.02061890678344802,-0.08239309548712646, ,0.01079818171699536,0.02047251333395493,-0.08262971075800507, ,0.00039245449859593183, ,0.002753376697306877,0.000674799486246912,-0.0042842417865430445,-0.0040425445104099005,-0.010294556501447413,-0.0057075910421641035, ,0.005137233230978827, ,0.011059839882963694, ,3.9852541164426846e-05, ,0.21209713565770194,-0.21771156245726314,0.09558064686000001,1.8800800332822456,0.9516732208662927,-1.178293494437844, ,0.02190603452411606,0.005104521890293529,0.004711272262644188,0.011596937240448767,0.009811603859387775,0.005491031905367384, ,0.6642248630523682
0.010547872104294928,0.02062486549594067,-0.08243418906448431, ,0.010836072445034449,0.020480004935699254,-0.08268556608455652, ,0.0004089430578163839, ,0.0026382212200058586,0.0006864505588482106,-0.003924955013501167,-0.001219680220219157,-0.009584924775447975,-0.006146950880481442, ,0.0047787757253757125, ,0.00966221516315542, ,4.011528964402151e-05, ,0.21231337217818022,-0.2176652260600178,0.09562601701000001,1.8800800332822456,0.9518098573660582,-1.1784049123415405, ,0.021494210998521127,0.003956358843527104,0.004356895929978119,0.010661746013856695,0.010340370879211153,0.0030372169015865412, ,0.6809220314025879
0.010606865864500145,0.02063850027579714,-0.08251747477077565, ,0.01087397016524617,0.020487408128238876,-0.08274136922104632, ,0.00037987138533034575, ,0.002601298102268673,0.0005138032787334802,-0.003898338778713706,0.001857964820374083,-0.007632053117188126,-0.0004523909521123698, ,0.004714635814114059, ,0.007854951760323333, ,4.039833066637064e-05, ,0.21279990434925636,-0.2175725532655271,0.0957180536,1.8802897232257298,0.9519464938658235,-1.1782712940248152, ,0.021631397665482284,0.0050825598098055294,0.00431792125779344,0.0005071224211154826,0.014920288187751903,-0.004087858056593615, ,0.6940460205078125
0.010634023875486526,0.020644446751267455,-0.08255846360949809, ,0.010911874734019413,0.020494723325035682,-0.08279712066375218, ,0.00039569608728831694, ,0.002656449525601909,0.0005805935020255728,-0.0039716750801337105,-0.0051669942619276535,-0.01574898716581992,0.002621839377150635, ,0.0048133165113900455, ,0.016574933648847583, ,4.0714598937025325e-05, ,0.2130238636026089,-0.21752621686828177,0.09576342375,1.8802897232257298,0.952083130365589,-1.1783010331883712, ,0.021533229307572222,0.004369276693347745,0.00435094551215515,0.0006024634012148736,0.0060923548121743065,0.0035881146144057983, ,0.7072679996490479
0.010658860620977071,0.020651912309862214,-0.0825956993357511, ,0.010949786008158624,0.02050195093882746,-0.0828528209072467, ,0.00041621808735052134, ,0.0025561294091163305,0.0006886679915421423,-0.003993164423602894,-0.0004169786855000297,-0.008687491894837111,0.002000191832798615, ,0.004790973102893808, ,0.008697493065920863, ,4.107508216447407e-05, ,0.21323237739021295,-0.21748760320391064,0.09580620132,1.8804994131692143,0.95235640336512,-1.1784421902556235, ,0.02064772444701279,0.0033264345513712565,0.004430823788595272,0.0013032254790321142,0.012561369965348599,0.0008805283052604864, ,0.7239730358123779
0.01072475044421976,0.0206687843276915,-0.08269502819250002, ,0.010987703844883508,0.020509091381628982,-0.08290847044440146, ,0.0003744381428747794, ,0.0024206006797389368,0.0005471682371607875,-0.003206663496085982,0.007185416944141833,0.0019481565992883277,-0.009720393305600311, ,0.004054798577937086, ,0.007444832466715334, ,4.130934784566938e-05, ,0.21376524595853444,-0.21738720767654574,0.09591638597,1.880709103112699,0.9526296763646508,-1.178338311102454, ,0.021277341156607798,0.004012830193800306,0.003687224888888889,0.012463631881799659,0.02207054049112193,-0.004061326732611324, ,0.7383489608764648
0.010748882438258327,0.020672564441880793,-0.08272449305003726, ,0.011025628101828767,0.020516145064732105,-0.08296406976638762, ,0.00039806053166553375, ,0.002341413643695982,0.0003866309527947547,-0.002697700035887556,0.00095983713817837,-0.0028022706876136747,-0.005776861604490785, ,0.003592949600004486, ,0.0029620952374301364, ,4.15974301121928e-05, ,0.2139737597461385,-0.2173485940121746,0.09594879322000001,1.880709103112699,0.9526296763646508,-1.1781749536221728, ,0.02136837233921882,0.004374105408550154,0.0031141371495601177,0.011477786013846969,0.017310325244232136,0.0021630791489695104, ,0.7519168853759766
0.010784047629663743,0.02067786993332995,-0.08277199120914275, ,0.0110635586370436,0.020523112398706328,-0.08301961936267815, ,0.0004042227111291974, ,0.002505169277499796,0.0006379607132943409,-0.0036855770442263927,0.00021139362448991826,-0.005193953453989992,-0.0051496411070526965, ,0.004501815759175894, ,0.0051982534631028225, ,4.1891042320878114e-05, ,0.21429039179398168,-0.21727136668343236,0.09600323740000001,1.880709103112699,0.9530395858639472,-1.1784275285931216, ,0.020585019860839646,0.0038761159969728713,0.004128774370139969,0.010252022003438383,0.014182077120809678,0.0024249114835010518, ,0.7685189247131348
0.010825442160375058,0.020689649203537712,-0.08283583199213652, ,0.011101495308991077,0.02052999379339967,-0.08307511972105006, ,0.0003986901153223645, ,0.002776824026386758,0.0008968498424998712,-0.004379587985259336,0.015682129203789242,0.008421581605804775,-0.009413041107413254, ,0.005262687738612157, ,0.017800343016254105, ,4.2160054614439886e-05, ,0.2146379147733218,-0.217225030286187,0.09607582964000001,1.880709103112699,0.9534494953632434,-1.1785984248239296, ,0.023044424856355213,0.0029717035865253704,0.005018529149338374,0.009211559139728903,0.03165709205597479,-0.012034083472696168, ,0.7821838855743408
0.010855423781348059,0.020697768766866936,-0.08288355422937425, ,0.011139437976548205,0.020536789657938575,-0.08313057132758556, ,0.0004093846399112802, ,0.0027113776675006325,0.0006664639520751044,-0.004523454202253033,0.007938897856363338,-0.0007314099832063172,-0.0020693999224283737, ,0.005315767204752043, ,0.007972518914585947, ,4.244643119992911e-05, ,0.2148618740266743,-0.21717097115606743,0.09612768124000001,1.8809187930561835,0.9534494953632434,-1.178516746083789, ,0.021572389533637368,0.005001988573188577,0.005029621572466057,0.0,0.022377271051739502,-0.009955541597898233, ,0.7958550453186035
0.010909356258421377,0.020709970824977338,-0.08295429822607195, ,0.011177386499005085,0.020543500400728956,-0.08318597466667495, ,0.00039144167528160735, ,0.0025177161171342,0.0004042334929371383,-0.0030416126861088507,-0.008855420484776146,-0.018755087436359827,-0.006237495478300335, ,0.003969093964066329, ,0.02074058283769692, ,4.267873823658454e-05, ,0.21530979253337934,-0.21707829836157674,0.09620675493000001,1.8813381729431526,0.9535861318630089,-1.1783014490269232, ,0.021373185035691616,0.00483682017621038,0.003355553301032231,0.01228300125920173,0.0,0.009339424194111816, ,0.8095228672027588
0.010911178477000499,0.020710529217454247,-0.0829566029810794, ,0.011215340736064663,0.02055012642945652,-0.08324133022101775, ,0.00044644522105110235, ,0.0025099867766075167,0.0004140982996256985,-0.0030876012781648958,-0.009681837341550011,-0.01854874643348448,-0.005433289996475852, ,0.00400059903932186, ,0.02092352666930992, ,4.303635095666931e-05, ,0.21532523799912778,-0.21707829836157674,0.09620934751000002,1.8813381729431526,0.9535861318630089,-1.1782197702867827, ,0.0211634570826206,0.00483682017621038,0.0034014118129404233,0.01228300125920173,0.0,0.010492724677934603, ,0.8232059478759766
0.01095944677295018,0.020721817488832187,-0.08302802523725011, ,0.011253300547842291,0.020556668151087202,-0.08329663847162516, ,0.0004310190418732968, ,0.0025299408078286677,0.0004812785216843027,-0.0037287714510946847,0.016669142810267414,0.009614014326530144,0.0025417855135516565, ,0.004531662613329699, ,0.01924291019516002, ,4.334531425470886e-05, ,0.21573454284146168,-0.21698562556708606,0.09629101378,1.881547862886637,0.9541326778620707,-1.1786654419015685, ,0.022423662939147163,0.00467247477966068,0.00429232323362975,-0.007523783532273748,0.03613934238710978,-0.01897648579402042, ,0.8361799716949463
0.011016822615287199,0.02073195110474745,-0.08311220332042676, ,0.011291265794865302,0.020563125971867876,-0.08335189989782173, ,0.0004015911272969111, ,0.002856307893314947,0.00035643818285914513,-0.004140076568519717,-0.01362764863151035,-0.021954054501086992,0.012748955305459742, ,0.0050423979367776196, ,0.025839762286915504, ,4.357522977581882e-05, ,0.21619790681391515,-0.21686978457397268,0.09638305037000001,1.881547862886637,0.9542693143618362,-1.1784501448447025, ,0.02315124214649202,0.006628957936593684,0.0044718729702414375,-0.007523783532273748,0.003056417742494677,0.0088664061089425, ,0.8499419689178467
0.011074474123603035,0.02074172363622595,-0.0831998038415189, ,0.011329236338072788,0.020569500297326505,-0.08340711497724702, ,0.00037086732314952053, ,0.003013131160647511,0.000687950150538974,-0.0048829181340246325,-0.007199225387661167,-0.007703266366447374,-0.002069100532079633, ,0.00577885146932141, ,0.01054367849087436, ,4.372693649176073e-05, ,0.21667671625211707,-0.2167539435808593,0.09648027212000002,1.8813381729431526,0.9546792238611325,-1.1784576835952296, ,0.023156891546722982,0.006522907231835623,0.005366850242587601,0.011535918117995503,0.013982123343481175,0.009496690175659007, ,0.8684549331665039
0.011101582614283841,0.020747418421631234,-0.08324514105236018, ,0.011367212038814878,0.020575791532273097,-0.08346228418585801, ,0.00038362210670488616, ,0.0027083057750139222,0.0006869956358662645,-0.004321524157518818,0.016010138821083146,0.018765972246390653,-0.00885949331809287, ,0.005146110591377898, ,0.02466751422246291, ,4.400252850938418e-05, ,0.21689295277259535,-0.2166921617178655,0.09653082743000001,1.8813381729431526,0.9549524968606633,-1.1785171619223416, ,0.022697187648522073,0.005499527103958004,0.004980866641651032,0.011219891994338827,0.041955617583619924,-0.011649410650062898, ,0.8795740604400635
0.011133736693851527,0.020754841809106098,-0.08329268315952837, ,0.011405192758852442,0.02058200008080008,-0.08351740799793117, ,0.00039250975945160553, ,0.0025930662663853784,0.0005141834549545656,-0.0040115771402716585,0.0011180959472706187,0.005467593593038284,0.002387032555874787, ,0.004804282302234638, ,0.00558074521968451, ,4.429063296766961e-05, ,0.21714008022457054,-0.2166303798548717,0.09658267903000001,1.881547862886637,0.9549524968606633,-1.1783538044420603, ,0.02143594794634533,0.005898115223694057,0.004526516487638534,0.005192346234974689,0.02773859038636948,0.0017773752276899445, ,0.8909909725189209
0.01115188857890001,0.020759185543897697,-0.08331870041816113, ,0.011443178360356862,0.020588126346282504,-0.08357248688606336, ,0.0004225145644356268, ,0.0027373650282078634,0.0004874852121441128,-0.004110968751204922,0.003367640543278191,0.0010154577410876233,-0.007735286414679451, ,0.00496295005043351, ,0.0035174075792439976, ,4.463747094693865e-05, ,0.21727908941630658,-0.2165917661905006,0.09661119741000002,1.8817575528301216,0.9549524968606633,-1.1782721257019197, ,0.022391916365849644,0.00686605789279384,0.004599714559630379,0.010813458903119749,0.022666900344291908,-0.0028211553931172554, ,0.9026539325714111
0.011153755917475382,0.02075909579964816,-0.08332115717130123, ,0.011481168705909237,0.02059417073137906,-0.08362752132117493, ,0.0004777639631674144, ,0.0027471463267052646,0.0004719540574733049,-0.004092222282373332,-0.0015487687631190203,0.0004311498115545931,-0.0033399674367388583, ,0.004951346966336387, ,0.0016076609387560995, ,4.5095853343195817e-05, ,0.21729453488205502,-0.21658404345762639,0.09661378999,1.8817575528301216,0.9549524968606633,-1.1781904469617792, ,0.022524790305832133,0.00698997389485442,0.004575929767308246,0.010813458903119749,0.02220110204717574,0.003701091678218281, ,0.9145169258117676
0.011211864548462324,0.02076920204441236,-0.08340290223674234, ,0.011519163658500423,0.02060013363803219,-0.0836825117725107, ,0.00044855140347426853, ,0.002681620053976085,0.0004891166232764017,-0.0037554656917327314,0.01929948013171033,0.023584546365015693,-0.009317373387566998, ,0.0046404572777726995, ,0.03047459203748033, ,4.5479422919521455e-05, ,0.21780423525175385,-0.21644503426589035,0.09670841916,1.881967242773606,0.9557723158592559,-1.1785322394233955, ,0.024159099174763436,0.006402541959706591,0.004433290153075425,0.010878351793204746,0.04879092313852909,-0.015100284093010789, ,0.9260499477386475
0.01124474966004222,0.02077613847763588,-0.08345347841736082, ,0.011557163081530413,0.020606015467468684,-0.08373745870764315, ,0.0004551799531868054, ,0.0031671738157390537,0.000598891869265678,-0.005552816746676845,-0.0016909663767616207,-0.0017634073634329732,0.028561010764979487, ,0.006420547895028152, ,0.00244314705606623, ,4.586730252732927e-05, ,0.21831393562145265,-0.21630602507415428,0.09683027042,1.8821769327170905,0.9559089523590214,-1.178235263626389, ,0.025339637265279248,0.0060047093961393995,0.006565874492992582,-0.019989498109142266,0.018426057371165643,0.008470251660991619, ,0.9390990734100342
0.011280280489905512,0.02078514347839782,-0.08351490041001859, ,0.011595166838807621,0.020611816620200566,-0.08379236259247236, ,0.0004540714428252882, ,0.003374106202041076,0.000766366084374753,-0.006019283048679591,-0.011468911130489557,-0.012521530646500788,0.028561010764979487, ,0.006942886867726812, ,0.01698012498035765, ,4.624307485434883e-05, ,0.21831393562145265,-0.21630602507415428,0.09683027042,1.8821769327170905,0.9559089523590214,-1.178235263626389, ,0.025339637265279248,0.0060047093961393995,0.006565874492992582,-0.019989498109142266,0.018426057371165643,0.008470251660991619, ,0.9516899585723877
0.011344928582897285,0.02080054806616782,-0.08363832159185522, ,0.01163317479454887,0.02061753749602496,-0.08384722389123003, ,0.00040027355395977636, ,0.0028612407049574207,0.000702082122584121,-0.0049403041760880465,0.010792150180682483,0.02590294513317644,-0.0022496319931250073, ,0.0057520625023403955, ,0.028061237840692307, ,4.649787797641042e-05, ,0.2187927450596546,-0.21615929314954402,0.09696638087000001,1.881967242773606,0.9565921348578486,-1.1783022807040278, ,0.02308928018454277,0.007078069157736433,0.005662570750088874,0.012176795999233832,0.049870426068314114,-0.0033822705304249953, ,0.9637689590454102
0.011373141489072975,0.02080469719638992,-0.08367881841854459, ,0.011671186813379116,0.020623178494025143,-0.08390204306647979, ,0.0004142575262982422, ,0.0027119801624882773,0.0003734937358288554,-0.0034582032232937016,0.007167229049793075,0.008711756970699742,-0.005687094481625966, ,0.004410612599858696, ,0.011281129432558384, ,4.6775071128950954e-05, ,0.21903987251162976,-0.216089788553676,0.09701304731,1.881967242773606,0.9570020443571449,-1.1784731769348358, ,0.024196058530971645,0.006648145204675539,0.004015329347113688,0.010539151581535403,0.032946948117256326,-0.004232694027743558, ,0.9749350547790527
0.011402389147060257,0.020809562426437396,-0.08371524405879645, ,0.011709202760330419,0.02062874001257084,-0.08395682057912016, ,0.0004303377206522005, ,0.00301130250577575,0.00035418617570889794,-0.0041125756176537695,-0.020094246109890607,-0.006163894226673642,0.02151979924672168, ,0.005109468547635349, ,0.021018380470103668, ,4.707808184530418e-05, ,0.21927927723073073,-0.2160280066906822,0.09705323230000001,1.8821769327170905,0.9570020443571449,-1.1782281407144142, ,0.025523652920513923,0.007494358057189211,0.004598386697459584,0.0,0.020899577489520323,0.02524369856994123, ,0.9883918762207031
0.011444372493206179,0.0208162613081346,-0.08376995823688058, ,0.011747222500842147,0.020634222449318673,-0.0840115568883861, ,0.00042804927479602123, ,0.003429084811731649,0.0005919813894141882,-0.0043293682082930825,-0.01786105294275375,-0.0261209649022628,0.00280000315232439, ,0.0055545021104002005, ,0.03164367263969403, ,4.7369243412752573e-05, ,0.21962680021007083,-0.21593533389619152,0.09711415793000001,1.8823866226605752,0.9571386808569103,-1.17825787987797, ,0.028251545566677815,0.005953878231726832,0.004774823597122303,0.010196014232915253,0.0,0.01982737913119072, ,1.0022320747375488
0.011503368891415233,0.020826025271284094,-0.08384247634309144, ,0.011785245900760098,0.020639626201212864,-0.08406625245185068, ,0.0004053085350347911, ,0.002759227937614378,-7.272803256772583e-05,-0.003337152823055075,0.011022590479510782,0.022182647205135474,0.021076774441900342, ,0.004330729400788893, ,0.024770291429303384, ,4.7608557789349955e-05, ,0.22016739151126655,-0.21579632470445548,0.09720100936,1.8828060025475444,0.9580951363552683,-1.1787110902432827, ,0.027152200732037418,0.009447869261636344,0.003970292003988036,-0.018019493187106786,0.05718000978272805,-0.013255242572292335, ,1.0145509243011475
0.011540098642352403,0.02082754345585779,-0.08388439530536641, ,0.011823272826336363,0.020644951664485645,-0.08412090772542734, ,0.0004116618826106517, ,0.0027734701296988256,0.00013335119716184016,-0.0033989035605976594,-0.008840388870834343,-0.009221621384863364,0.02512358184324219, ,0.00438890242729997, ,0.012774614510806926, ,4.785467211722994e-05, ,0.22049174629198398,-0.21569592917709055,0.09724767580000002,1.8828060025475444,0.9582317728550338,-1.1784957931864168, ,0.024999194298859533,0.006650271480234794,0.0038299618946862233,-0.018019493187106786,0.021135561467184354,0.005426163848708424, ,1.025743007659912
0.011540098642352403,0.02082754345585779,-0.08388439530536641, ,0.011861303144229023,0.020650199234657707,-0.08417552316337197, ,0.0004683788365476984, ,0.0027734701296988256,0.00013335119716184016,-0.0033989035605976594,-0.008840388870834343,-0.009221621384863364,0.02512358184324219, ,0.00438890242729997, ,0.012774614510806926, ,4.829781617131417e-05, ,0.22049174629198398,-0.21569592917709055,0.09724767580000002,1.8828060025475444,0.9582317728550338,-1.1784957931864168, ,0.024999194298859533,0.006650271480234794,0.0038299618946862233,-0.018019493187106786,0.021135561467184354,0.005426163848708424, ,1.0353879928588867
0.011566522972640582,0.02083102600453553,-0.08391882735245068, ,0.01189933672150129,0.02065536930653886,-0.08423009921828395, ,0.0004883753079764942, ,0.0032109718829164127,0.0003211914779848675,-0.00448437787523272,-0.026771006381292324,-0.01680858097314522,0.038726934978307676, ,0.005524775952587272, ,0.03161036499606579, ,4.877077829223357e-05, ,0.22070798281246226,-0.215641870046971,0.09728526821000001,1.8828060025475444,0.9582317728550338,-1.1782507569659952, ,0.02686015894663764,0.007233175208238744,0.004939166362790698,-0.018019493187106786,0.01503792073326598,0.02745997401860744, ,1.0456609725952148
0.011626459204484341,0.020841549093064415,-0.08400771111354399, ,0.011937373425621536,0.02066046227422832,-0.08428463634110936, ,0.0004540348780916002, ,0.0026656733077971206,0.0003905881505194339,-0.003770913737942613,0.04198039941063749,0.025894016925097917,-0.00539562365749138, ,0.004634453981455913, ,0.049323970302799246, ,4.916960369380934e-05, ,0.22120996044928687,-0.21551058358810918,0.09738637883000001,1.8828060025475444,0.9589149553538611,-1.1785628102640557, ,0.024835629824253018,0.0054297610615118225,0.00449712352343309,-0.015993823102573662,0.05809353241075032,-0.050066428426364905, ,1.0551860332489014
0.011659048844786166,0.02084591814861045,-0.0840488180793274, ,0.011975413124462538,0.02066547853111566,-0.08433913498114178, ,0.0004657560697359843, ,0.0036451985191852864,0.00024395646598810884,-0.00488756680152484,0.019369403046045383,0.006369267390132577,0.0030122735727620828, ,0.006102073110094287, ,0.02038973611055479, ,4.958296469243141e-05, ,0.2215034242985074,-0.21544107899224116,0.09743434156000001,1.8828060025475444,0.9593248648531574,-1.1788153852350043, ,0.03237698449623704,0.010046131787408012,0.005579268483362522,-0.014167018498464216,0.0448427273906432,-0.02898943462217215, ,1.0649850368499756
0.011701360845186849,0.0208508344443529,-0.08411691390075224, ,0.012013455686301371,0.020670418469880738,-0.08439359558602479, ,0.00045442916792421697, ,0.003881207124067511,0.0008884885245138086,-0.006579026818894611,-0.0034265090755987502,-0.006349737062833991,0.0002618387743067168, ,0.007690043854350876, ,0.007215269425785994, ,4.996753516628999e-05, ,0.2218200563463506,-0.215332960732002,0.09750693380000001,1.8825963126040595,0.9593248648531574,-1.1786520277547232, ,0.028782815152705726,0.008327398922400416,0.00724366144611187,0.00664540644112588,0.02261044661587075,0.003465996956530989, ,1.0751869678497314
0.011701360845186849,0.0208508344443529,-0.08411691390075224, ,0.012051500979818714,0.020675282482494697,-0.08444801860175405, ,0.0005128810078544373, ,0.003881207124067511,0.0008884885245138086,-0.006579026818894611,-0.0034265090755987502,-0.006349737062833991,0.0002618387743067168, ,0.007690043854350876, ,0.007215269425785994, ,5.0452854967070405e-05, ,0.2218200563463506,-0.215332960732002,0.09750693380000001,1.8825963126040595,0.9593248648531574,-1.1786520277547232, ,0.028782815152705726,0.008327398922400416,0.00724366144611187,0.00664540644112588,0.02261044661587075,0.003465996956530989, ,1.0863580703735352
0.011776406226301522,0.020872788884255068,-0.08424340523297434, ,0.012089548874098672,0.02068007096022015,-0.08450240447267818, ,0.0004497545133524541, ,0.0036316947521509743,0.0009594983827225939,-0.006441835086852727,-0.006607317896083234,-0.008145205534550415,-0.0027271703430424856, ,0.007457015703715199, ,0.010488136721410435, ,5.081389745064829e-05, ,0.22237609311329476,-0.2152016742731402,0.09764822941000001,1.8830156924910286,0.9598714108522192,-1.1787709844089467, ,0.02565475576060308,0.007405770981243325,0.0070512667197875165,0.011815720367010174,0.01614471520519796,0.008425639138444609, ,1.095728874206543
0.011812967850992994,0.02088235534887517,-0.08430510545223167, ,0.012127599238628344,0.02068478429361201,-0.08455675364150232, ,0.00044872490807435693, ,0.003425130347175271,0.0006926482640165403,-0.005583311065778798,0.02128382389880819,0.022144589024285868,-0.012114037498487776, ,0.006586701903838832, ,0.03071455644127486, ,5.11665340825706e-05, ,0.22264638876389262,-0.21512444694439795,0.09771693278000002,1.883225382434513,0.96014468385175,-1.178912141476199, ,0.027562283345475103,0.008693028249883045,0.006376625908726983,0.010117513376326078,0.05108576324987319,-0.020295641309244487, ,1.1052470207214355
0.011846642606961685,0.0208870398693539,-0.08435597350836817, ,0.012165651943297096,0.020689422872517602,-0.08461106654928863, ,0.00045375311969594694, ,0.0035721901937862343,0.0005450275234945592,-0.005164373210102728,-0.007599045238571462,-0.008493116292910882,-0.0005967379344244306, ,0.0063030427917931744, ,0.01139642528292077, ,5.152186702562822e-05, ,0.22290896168161625,-0.21503949688278148,0.09777267325000001,1.883225382434513,0.9602813203515155,-1.178696844419333, ,0.028437800886566007,0.00881391505267562,0.0057339134341252715,0.010117513376326078,0.01915562256016251,0.008463032513381298, ,1.1163380146026611
0.011884196582919905,0.020890682869683506,-0.08440887974264792, ,0.012203706858396408,0.02069398708607768,-0.08466534363545886, ,0.0004544774755024934, ,0.0037895464569168637,0.0004938929450737568,-0.0051430506596997555,-0.015301689590275926,-0.01634699154091456,0.003182855520886836, ,0.0064074614847506395, ,0.022391199904371713, ,5.187216620778899e-05, ,0.22320242553083677,-0.21493910135541655,0.09782971001000001,1.883225382434513,0.9602813203515155,-1.178533486939052, ,0.030592179741608886,0.009292034543771782,0.005688861257142857,0.010117513376326078,0.013047142524329097,0.016379805550194897, ,1.1266448497772217
0.011884196582919905,0.020890682869683506,-0.08440887974264792, ,0.012241763854619586,0.02069847732272647,-0.08471958533779594, ,0.0005112096369671586, ,0.0037895464569168637,0.0004938929450737568,-0.0051430506596997555,-0.015301689590275926,-0.01634699154091456,0.003182855520886836, ,0.0064074614847506395, ,0.022391199904371713, ,5.2316343996022163e-05, ,0.22320242553083677,-0.21493910135541655,0.09782971001000001,1.883225382434513,0.9602813203515155,-1.178533486939052, ,0.030592179741608886,0.009292034543771782,0.005688861257142857,0.010117513376326078,0.013047142524329097,0.016379805550194897, ,1.1359119415283203
0.011963595223320087,0.020904295599203513,-0.08452503642468923, ,0.012279822803061101,0.02070289397019243,-0.08477379209244669, ,0.0004499354182531525, ,0.00354063503083525,0.0006577689383571754,-0.005479046334439095,0.05935493205040002,0.054381341893932914,-0.030292157707438525, ,0.006556577242187858, ,0.08050054844505548, ,5.264563367831769e-05, ,0.22388202602376853,-0.21476147849930938,0.09796452417000001,1.883225382434513,0.9615110488494044,-1.1789644968913358, ,0.031226371029440866,0.009493605416514476,0.006557765137916839,0.010117513376326078,0.0895689604331155,-0.060800603261886695, ,1.1475319862365723
0.011963595223320087,0.020904295599203513,-0.08452503642468923, ,0.012317883575216237,0.02070723741549864,-0.08482796433392223, ,0.0005060805096490409, ,0.00354063503083525,0.0006577689383571754,-0.005479046334439095,0.05935493205040002,0.054381341893932914,-0.030292157707438525, ,0.006556577242187858, ,0.08050054844505548, ,5.315865099591452e-05, ,0.22388202602376853,-0.21476147849930938,0.09796452417000001,1.883225382434513,0.9615110488494044,-1.1789644968913358, ,0.031226371029440866,0.009493605416514476,0.006557765137916839,0.010117513376326078,0.0895689604331155,-0.060800603261886695, ,1.1552019119262695
0.012030450278718807,0.020908172393344943,-0.08461169622006934, ,0.012355946042980594,0.020711508044963613,-0.08488210249510175, ,0.00046663038055137833, ,0.003321282926555506,8.205423825938628e-05,-0.0039030101551786834,-0.05035205290196656,-0.02624180498430529,0.029649900518920816, ,0.005125538161761491, ,0.05677993976195307, ,5.359657474861748e-05, ,0.22446123098933538,-0.21456068744457954,0.09806304221,1.883225382434513,0.9621942313482317,-1.1791131927091152, ,0.027538288322249208,0.010387160407343726,0.004238640638637574,0.00924593870770555,-0.0005342271247275894,0.05870433609261431, ,1.1628508567810059
0.012030450278718807,0.020908172393344943,-0.08461169622006934, ,0.012394010078650021,0.020715706244201368,-0.08493620700723302, ,0.0005239524765451287, ,0.003321282926555506,8.205423825938628e-05,-0.0039030101551786834,-0.05035205290196656,-0.02624180498430529,0.029649900518920816, ,0.005125538161761491, ,0.05677993976195307, ,5.4126653819765875e-05, ,0.22446123098933538,-0.21456068744457954,0.09806304221,1.883225382434513,0.9621942313482317,-1.1791131927091152, ,0.027538288322249208,0.010387160407343726,0.004238640638637574,0.00924593870770555,-0.0005342271247275894,0.05870433609261431, ,1.1703438758850098
0.01207514827709561,0.020913558542510178,-0.08467215008770042, ,0.012432075554919694,0.020719832398122254,-0.08499027829993476, ,0.0005158802768993409, ,0.00468472711665184,0.0007512227005190897,-0.007288619365004478,-0.01976862790077107,-0.03291073154647029,0.0008144277976148118, ,0.008696837123413691, ,0.038391599073669166, ,5.463579270007247e-05, ,0.22480103123580125,-0.2144448464514662,0.09812785671000002,1.8834350723779978,0.9620575948484662,-1.1786750598448563, ,0.034333191591342536,0.011365887952382274,0.007858318460779478,0.006866328021316016,0.0,0.01419505618801208, ,1.1792449951171875
0.0121026829828992,0.020920224551600055,-0.08471661881400211, ,0.012470142344884307,0.020723886890933248,-0.08504431680119894, ,0.0005300573841759661, ,0.005025108748731827,0.0011572749901389982,-0.008527865341252779,-0.0038708670214044087,-0.030004792771963367,-0.015411873866375074, ,0.009965715760442034, ,0.030253448657686147, ,5.5161999141585435e-05, ,0.2250018222905311,-0.2143830645884724,0.09817711573000001,1.8836447623214823,0.9621942313482317,-1.1786231202682718, ,0.03497859991097338,0.010354487334490795,0.009218062222222224,0.011418836935214813,0.0027250105348415317,-0.004235407060189222, ,1.1880249977111816
0.0121026829828992,0.020920224551600055,-0.08487091327406833, ,0.012508210322036955,0.020727870106138732,-0.08509832293739167, ,0.0005891949535505823, ,0.005025108748731827,0.0011572749901389982,-0.008527865341252779,-0.0038708670214044087,-0.030004792771963367,-0.015411873866375074, ,0.009965715760442034, ,0.030253448657686147, ,5.578036651907577e-05, ,0.2256350863862175,-0.21418999626661678,0.09834563343000001,1.8836447623214823,0.9630140503468242,-1.1790465914700285, ,0.03598670517954902,0.012509483464074713,0.009538210491017966,0.010217977174537455,0.07844897095712756,-0.0499885729358984, ,1.196213960647583
0.012189332317853992,0.020940382792588454,-0.08487091327406833, ,0.012546279360269162,0.02073178242654087,-0.0851522971332567, ,0.000500102169577241, ,0.004731200118033113,0.001024989393581053,-0.00840474015100898,0.041612087890343395,0.034611296043533725,-0.024911274124426636, ,0.009699201761991173, ,0.05412492614745511, ,5.6242001024910674e-05, ,0.2256350863862175,-0.21418999626661678,0.09834563343000001,1.8836447623214823,0.9630140503468242,-1.1790465914700285, ,0.03598670517954902,0.012509483464074713,0.009538210491017966,0.010217977174537455,0.07844897095712756,-0.0499885729358984, ,1.203711986541748
0.01223610312368628,0.020947219078686075,-0.08495085524851953, ,0.012584349333870514,0.020735624234240056,-0.08520623981191576, ,0.00048090443575090887, ,0.004391728715026503,0.0006376005833002746,-0.007243785073209951,0.0001708049240086712,-0.004030128451584212,-0.007738166315374449, ,0.00849507138269435, ,0.004033743882997737, ,5.666573683890284e-05, ,0.22599033209843183,-0.21405098707488074,0.09843767002,1.8836447623214823,0.9635605963458861,-1.1794922630848144, ,0.03245449437704199,0.013044253135184987,0.00795247704443335,0.009318814664948535,0.028427706953903814,-0.005024050024703593, ,1.2112069129943848
0.012281752497973664,0.02095233695949594,-0.08501957681922508, ,0.012622420117527983,0.020739395910635457,-0.0852601513948715, ,0.00046826749166482487, ,0.0045362115584735106,0.00045153080102567006,-0.006554210667411732,-0.024004920288261802,-0.017938762878282145,0.00999690912716353, ,0.007983656608366701, ,0.029967238770933585, ,5.706311273414826e-05, ,0.2263301323448977,-0.21392742334889314,0.09851155855,1.8836447623214823,0.9635605963458861,-1.1792472268643928, ,0.03518611107099398,0.013229742305656041,0.0071816102434625806,0.00861083528119516,0.016654665170554674,0.0240288131240362, ,1.2192089557647705
0.012281752497973664,0.02095233695949594,-0.08501957681922508, ,0.012660491586325696,0.02074309783642573,-0.0853140323020087, ,0.0005233816380140328, ,0.0045362115584735106,0.00045153080102567006,-0.006554210667411732,-0.024004920288261802,-0.017938762878282145,0.00999690912716353, ,0.007983656608366701, ,0.029967238770933585, ,5.754534996793493e-05, ,0.2263301323448977,-0.21392742334889314,0.09851155855,1.8836447623214823,0.9635605963458861,-1.1792472268643928, ,0.03518611107099398,0.013229742305656041,0.0071816102434625806,0.00861083528119516,0.016654665170554674,0.0240288131240362, ,1.2273309230804443
0.012329510815848571,0.02095701383661712,-0.08508340661652822, ,0.012698563615744519,0.020746730391609014,-0.08536788295159703, ,0.0005112199933196064, ,0.0045444657462358935,0.0002548326229586401,-0.00572671444528567,-0.024463556941397752,-0.031496423413582816,0.011972276476597727, ,0.00731521475571831, ,0.03988095159237616, ,5.8001581450804845e-05, ,0.22671626898860894,-0.2137884141571571,0.09858285450000001,1.883854452264967,0.9638338693454169,-1.1793067051915043, ,0.03699685830739601,0.012549185606780056,0.00626378746362564,0.0001706902191708664,0.005931105233554828,0.019208800868767403, ,1.2349309921264648
0.012376020338670166,0.020959379803044347,-0.08514094799243159, ,0.012736636081661359,0.020750293955484247,-0.0854217037602921, ,0.0005025777620726538, ,0.0044305547875181945,0.0002913671354485393,-0.0054648068419048184,0.04457016870450872,0.030860881378374314,-0.01914766922782173, ,0.0070412232141972035, ,0.05421156641275538, ,5.8437986993174896e-05, ,0.22713329656381706,-0.21364940496542106,0.09865026158000001,1.883854452264967,0.9645170518442441,-1.1795370797494242, ,0.040381677258923734,0.01268167066129504,0.00650155572244898,0.0002994564273691946,0.07640209756250844,-0.05213903400906025, ,1.2423949241638184
0.012422072791183451,0.020962279844357178,-0.0852020873220897, ,0.012774708860349208,0.02075378890665093,-0.08547549514313792, ,0.0004925165022541292, ,0.004656510690297256,0.0002596682905617459,-0.006153173137001151,-0.003850224009714858,-0.0018285938701941122,0.0073676091190114385, ,0.007720884605010522, ,0.004262390367686426, ,5.885267377888232e-05, ,0.22752715594040251,-0.21351039577368502,0.09872026124000001,1.883854452264967,0.9650635978433059,-1.1797377151437882, ,0.03897204992134323,0.01411736708694894,0.006934615376578147,0.000383411430935924,0.03986214064631448,0.00045785458366289986, ,1.2499160766601562
0.012422072791183451,0.020962279844357178,-0.0852020873220897, ,0.012812781828476463,0.02075721562300993,-0.0855292575135688, ,0.0005493134086217582, ,0.004656510690297256,0.0002596682905617459,-0.006153173137001151,-0.003850224009714858,-0.0018285938701941122,0.0073676091190114385, ,0.007720884605010522, ,0.004262390367686426, ,5.944717997869908e-05, ,0.22752715594040251,-0.21351039577368502,0.09872026124000001,1.883854452264967,0.9650635978433059,-1.1797377151437882, ,0.03897204992134323,0.01411736708694894,0.006934615376578147,0.000383411430935924,0.03986214064631448,0.00045785458366289986, ,1.255614995956421
0.012472806932214048,0.02096679015229984,-0.08526914953128135, ,0.012850854863106312,0.02076057448176418,-0.08558299128341076, ,0.0005328618828608876, ,0.005062680318757219,0.00024393840400645337,-0.006794286721132162,-0.03964131749553175,-0.025551137157316998,0.027648558822228442, ,0.008476589526680747, ,0.047162428354943914, ,6.00099106817543e-05, ,0.2279287380498622,-0.21336366384907476,0.09879414977,1.8840641422084514,0.9652002343430713,-1.1795224180869224, ,0.04043329423028154,0.015579862347475092,0.007439893283512378,0.0009976625989088785,0.015893197552267733,0.04004496915195818, ,1.2616710662841797
0.012472806932214048,0.02096679015229984,-0.08526914953128135, ,0.012888927841696983,0.02076386585941883,-0.08563669686288417, ,0.0005911225938149443, ,0.005062680318757219,0.00024393840400645337,-0.006794286721132162,-0.03964131749553175,-0.025551137157316998,0.027648558822228442, ,0.008476589526680747, ,0.047162428354943914, ,6.0659346482338314e-05, ,0.2279287380498622,-0.21336366384907476,0.09879414977,1.8840641422084514,0.9652002343430713,-1.1795224180869224, ,0.04043329423028154,0.015579862347475092,0.007439893283512378,0.0009976625989088785,0.015893197552267733,0.04004496915195818, ,1.2678260803222656
0.012472806932214048,0.02096679015229984,-0.08526914953128135, ,0.012927000642100275,0.020767090131782216,-0.08569037466060545, ,0.0006508476272285621, ,0.005062680318757219,0.00024393840400645337,-0.006794286721132162,-0.03964131749553175,-0.025551137157316998,0.027648558822228442, ,0.008476589526680747, ,0.047162428354943914, ,6.139656281532816e-05, ,0.2279287380498622,-0.21336366384907476,0.09879414977,1.8840641422084514,0.9652002343430713,-1.1795224180869224, ,0.04043329423028154,0.015579862347475092,0.007439893283512378,0.0009976625989088785,0.015893197552267733,0.04004496915195818, ,1.2736048698425293
0.012480851345570124,0.020966878404683385,-0.0852803883657649, ,0.012965073142562405,0.020770247673965733,-0.08574402508358828, ,0.0006986368148466144, ,0.005167452521275124,0.00024414649868950364,-0.007083257212846218,-0.047443642512002934,-0.03309162837068239,0.03036952854983229, ,0.008771243116901558, ,0.05784423104510527, ,6.220164439029004e-05, ,0.2279982426457302,-0.21333277291757785,0.09880711267000002,1.8840641422084514,0.9653368708428368,-1.1795521572504781, ,0.040381677258923734,0.0161581715577168,0.0076765356722891575,0.0009976625989088785,0.00774922868897021,0.04724633179610028, ,1.2791850566864014
0.012480851345570124,0.020966878404683385,-0.0852803883657649, ,0.013003145221722485,0.020773338860384963,-0.08579764853724664, ,0.0007601358650102061, ,0.005167452521275124,0.00024414649868950364,-0.007083257212846218,-0.047443642512002934,-0.03309162837068239,0.03036952854983229, ,0.008771243116901558, ,0.05784423104510527, ,6.309499475141049e-05, ,0.2279982426457302,-0.21333277291757785,0.09880711267000002,1.8840641422084514,0.9653368708428368,-1.1795521572504781, ,0.040381677258923734,0.0161581715577168,0.0076765356722891575,0.0009976625989088785,0.00774922868897021,0.04724633179610028, ,1.2847740650177002
0.012625769457711523,0.020985963465060653,-0.08549566062836747, ,0.01304121675861281,0.020776364064759884,-0.08585124542539621, ,0.0005856354807476888, ,0.00570821888263827,0.0005838034046315255,-0.008781571036935634,-0.0315570084068877,-0.03250034492437331,0.03203945325838633, ,0.010490022836205565, ,0.04530029964109185, ,6.370949164519879e-05, ,0.22913348437824121,-0.2129080226094955,0.09904951890000001,1.8846932120389048,0.9667032358404912,-1.179849548886037, ,0.042650310812795855,0.015293624747537595,0.009526801148325359,-0.016045851432846675,0.014627738350343155,0.023465899166781705, ,1.2905478477478027
0.012625769457711523,0.020985963465060653,-0.08549566062836747, ,0.01307928763265813,0.02077932366011537,-0.08590481615025539, ,0.0006448154659172634, ,0.00570821888263827,0.0005838034046315255,-0.008781571036935634,-0.0315570084068877,-0.03250034492437331,0.03203945325838633, ,0.010490022836205565, ,0.04530029964109185, ,6.440962589054086e-05, ,0.22913348437824121,-0.2129080226094955,0.09904951890000001,1.8846932120389048,0.9667032358404912,-1.179849548886037, ,0.042650310812795855,0.015293624747537595,0.009526801148325359,-0.016045851432846675,0.014627738350343155,0.023465899166781705, ,1.296241044998169
0.01269002951530157,0.02099298271276183,-0.08559529991822458, ,0.013117357723675066,0.02078221801878212,-0.08595836111244937, ,0.0005990363800738566, ,0.006496560757827797,0.0006698413156531352,-0.010328797398357634,-0.04367166579473505,-0.03149968929890266,0.043565696308310274, ,0.01222039462393189, ,0.05384649200883334, ,6.50329861092847e-05, ,0.22961229381644313,-0.21272267702051412,0.09915840726000001,1.8846932120389048,0.9669765088400221,-1.1797456697328674, ,0.04773488005959295,0.01835530784496533,0.011201695864978904,-0.016045851432846675,0.021207320960103686,0.03851969197598303, ,1.301826000213623
0.01269002951530157,0.02099298271276183,-0.08559529991822458, ,0.013155426911872397,0.02078504751239629,-0.0860118807110099, ,0.0006583094570212462, ,0.006496560757827797,0.0006698413156531352,-0.010328797398357634,-0.04367166579473505,-0.03149968929890266,0.043565696308310274, ,0.01222039462393189, ,0.05384649200883334, ,6.574125904306664e-05, ,0.22961229381644313,-0.21272267702051412,0.09915840726000001,1.8846932120389048,0.9669765088400221,-1.1797456697328674, ,0.04773488005959295,0.01835530784496533,0.011201695864978904,-0.016045851432846675,0.021207320960103686,0.03851969197598303, ,1.3075380325317383
0.012756946730911923,0.021004018233244586,-0.08570296627271655, ,0.013193495077849783,0.02078781251190094,-0.08606537534337828, ,0.0006071735399816157, ,0.0063243872688683745,0.0010273473942006013,-0.010327400947091683,0.055370993554841506,0.05016292998939206,-0.00307266457846271, ,0.012153539703188753, ,0.07471456588171622, ,6.636523128485114e-05, ,0.23012971691901615,-0.2125527768972812,0.09928025852000001,1.8846932120389048,0.9677963278386147,-1.1801691409346242, ,0.05082857073297846,0.015861096700396253,0.01190494134529148,-0.016045851432846675,0.11208741321918778,-0.06388936941876268, ,1.3148858547210693
0.012756946730911923,0.021004018233244586,-0.08570296627271655, ,0.01323156210259799,0.02079051338754603,-0.08611884540540735, ,0.0006661828001270499, ,0.0063243872688683745,0.0010273473942006013,-0.010327400947091683,0.055370993554841506,0.05016292998939206,-0.00307266457846271, ,0.012153539703188753, ,0.07471456588171622, ,6.707293902162765e-05, ,0.23012971691901615,-0.2125527768972812,0.09928025852000001,1.8846932120389048,0.9677963278386147,-1.1801691409346242, ,0.05082857073297846,0.015861096700396253,0.01190494134529148,-0.016045851432846675,0.11208741321918778,-0.06388936941876268, ,1.320734977722168
0.012775166908917116,0.021007662485493253,-0.08573398472122516, ,0.013269627867498038,0.020793150508889063,-0.08617229129136289, ,0.0006947083395881323, ,0.0064993858931868586,0.001071398882003039,-0.010972496622466818,0.05074389691226565,0.046060140608510894,-0.002070615210130333, ,0.012797874615847719, ,0.06853086507312438, ,6.781726710989801e-05, ,0.23027644884362644,-0.21250644050003584,0.09931655464000001,1.8846932120389048,0.968206237337911,-1.180421715905573, ,0.05080136057733982,0.01687056738817258,0.012532503162863888,-0.016045851432846675,0.10764583217610799,-0.06040732962212984, ,1.3272819519042969
0.01289138722300801,0.02102955104401919,-0.08594175749527395, ,0.013307692254321116,0.020795724244795557,-0.08622571339392547, ,0.0005555320004381081, ,0.007055399229927272,0.0016626791807029951,-0.012981091289884446,-0.0244042979534307,-0.018891383522618835,0.00862510250439972, ,0.014867813942470338, ,0.030861849610772048, ,6.844869187112855e-05, ,0.23108733579542,-0.21222069938368954,0.09954470168000001,1.8844835220954204,0.9690260563365036,-1.1801100784460647, ,0.04611124468341632,0.01619125431811479,0.014121286808510639,0.013082503673432217,0.02638824061512722,0.025500215854387234, ,1.3312468528747559
0.01289138722300801,0.02102955104401919,-0.08594175749527395, ,0.013345755145227919,0.020798234963439615,-0.08627911210419326, ,0.0006113636152374701, ,0.007055399229927272,0.0016626791807029951,-0.012981091289884446,-0.0244042979534307,-0.018891383522618835,0.00862510250439972, ,0.014867813942470338, ,0.030861849610772048, ,6.916003554653368e-05, ,0.23108733579542,-0.21222069938368954,0.09954470168000001,1.8844835220954204,0.9690260563365036,-1.1801100784460647, ,0.04611124468341632,0.01619125431811479,0.014121286808510639,0.013082503673432217,0.02638824061512722,0.025500215854387234, ,1.3350498676300049
0.012957410522494047,0.021038986451131343,-0.08604981915955329, ,0.013383816422768292,0.02080068303230459,-0.08633248781168316, ,0.0005643687430307692, ,0.006559989835506437,0.0006132862842743829,-0.009571763756012095,-0.04657866066146919,-0.023015922330716494,0.02756048405174213, ,0.011620165580116904, ,0.05195482874001883, ,6.979687960025221e-05, ,0.2315584225007477,-0.21204307652758236,0.09966266407,1.8844835220954204,0.9692993293360345,-1.1797611630724736, ,0.04922040537265082,0.01917884833437162,0.010612132924716857,0.01142190044278781,0.010065243185048067,0.06504795728663468, ,1.3394429683685303
0.012957410522494047,0.021038986451131343,-0.08604981915955329, ,0.0134218759698811,0.020803068818183116,-0.08638584090433278, ,0.0006199160381188774, ,0.006559989835506437,0.0006132862842743829,-0.009571763756012095,-0.04657866066146919,-0.023015922330716494,0.02756048405174213, ,0.011620165580116904, ,0.05195482874001883, ,7.051271012024979e-05, ,0.2315584225007477,-0.21204307652758236,0.09966266407,1.8844835220954204,0.9692993293360345,-1.1797611630724736, ,0.04922040537265082,0.01917884833437162,0.010612132924716857,0.01142190044278781,0.010065243185048067,0.06504795728663468, ,1.3435909748077393
0.012957410522494047,0.021038986451131343,-0.08604981915955329, ,0.01345993366989333,0.02080539268717807,-0.0864391717685026, ,0.0006772673137879747, ,0.006559989835506437,0.0006132862842743829,-0.009571763756012095,-0.04657866066146919,-0.023015922330716494,0.02756048405174213, ,0.011620165580116904, ,0.05195482874001883, ,7.130950342418362e-05, ,0.2315584225007477,-0.21204307652758236,0.09966266407,1.8844835220954204,0.9692993293360345,-1.1797611630724736, ,0.04922040537265082,0.01917884833437162,0.010612132924716857,0.01142190044278781,0.010065243185048067,0.06504795728663468, ,1.3475310802459717
0.013022886738365734,0.021043499740426144,-0.08614337204584668, ,0.013497989406519896,0.020807655004703225,-0.08649248078897795, ,0.0006349977946309021, ,0.006553300962153305,0.0006513023212360535,-0.009326493087261646,0.07032280374440426,0.06077013018318222,-0.036333466169859926, ,0.011417242290542239, ,0.09294248424907472, ,7.203895348015775e-05, ,0.23209901380194342,-0.2118345627399783,0.09977025614000001,1.8844835220954204,0.9702557848343927,-1.1802143734377863, ,0.05536577687191993,0.01983631721539941,0.010970255867768596,0.01008763605216377,0.1223519062467364,-0.07843843389904162, ,1.351309061050415
0.013022886738365734,0.021043499740426144,-0.08614337204584668, ,0.013536043063863539,0.02080985613548291,-0.0865457683489706, ,0.0006927059500950396, ,0.006553300962153305,0.0006513023212360535,-0.009326493087261646,0.07032280374440426,0.06077013018318222,-0.036333466169859926, ,0.011417242290542239, ,0.09294248424907472, ,7.284933463692987e-05, ,0.23209901380194342,-0.2118345627399783,0.09977025614000001,1.8844835220954204,0.9702557848343927,-1.1802143734377863, ,0.05536577687191993,0.01983631721539941,0.010970255867768596,0.01008763605216377,0.1223519062467364,-0.07843843389904162, ,1.3550548553466797
0.013097215946313814,0.021052566084424764,-0.08625123991064802, ,0.013574094526413748,0.02081199644355367,-0.08659903483012081, ,0.0007516996574696967, ,0.00757166429711347,0.000765723717665536,-0.01097067793494788,0.012583620298230293,0.021457819378305217,0.0071842864719133545, ,0.01335186157029538, ,0.024875396546911826, ,7.374182504664392e-05, ,0.2326627733017618,-0.21162604895237425,0.09988692224000001,1.8846932120389048,0.9713488768325161,-1.1806973229666549, ,0.059236542795549796,0.02136837233921882,0.012405616448598132,0.000708554469248361,0.09350288976071647,-0.01677376258805778, ,1.359442949295044
0.013097215946313814,0.021052566084424764,-0.08625123991064802, ,0.013612143679046854,0.020814076292263832,-0.08665228061249922, ,0.0006948824328214455, ,0.00757166429711347,0.000765723717665536,-0.01097067793494788,0.012583620298230293,0.021457819378305217,0.0071842864719133545, ,0.01335186157029538, ,0.024875396546911826, ,7.454564117399804e-05, ,0.2326627733017618,-0.21162604895237425,0.09988692224000001,1.8846932120389048,0.9713488768325161,-1.1806973229666549, ,0.059236542795549796,0.02136837233921882,0.012405616448598132,0.000708554469248361,0.09350288976071647,-0.01677376258805778, ,1.3639109134674072
0.013097215946313814,0.021052566084424764,-0.08625123991064802, ,0.013650190407025475,0.02081609604427462,-0.08670550607460906, ,0.0007536952844537609, ,0.00757166429711347,0.000765723717665536,-0.01097067793494788,0.012583620298230293,0.021457819378305217,0.0071842864719133545, ,0.01335186157029538, ,0.024875396546911826, ,7.54308593322788e-05, ,0.2326627733017618,-0.21162604895237425,0.09988692224000001,1.8846932120389048,0.9713488768325161,-1.1806973229666549, ,0.059236542795549796,0.02136837233921882,0.012405616448598132,0.000708554469248361,0.09350288976071647,-0.01677376258805778, ,1.368027925491333
0.013129676883700505,0.021056580433524437,-0.08629573776829058, ,0.013688234595998118,0.020818056061560227,-0.08675871159338773, ,0.0007636919252638126, ,0.008050288538502343,0.0009309176615884529,-0.01132860863605324,0.020312069461102082,0.010343864581534684,-0.01183509685704222, ,0.01392878770297902, ,0.02279419912359557, ,7.632550196964998e-05, ,0.23296395988385657,-0.2115256534250093,0.09994655158000001,1.8849029019823895,0.9717587863318125,-1.1807865404573223, ,0.06407626033657716,0.02113047017556686,0.01287696970088925,0.009696027095335366,0.07775619163822843,-0.026362818708200224, ,1.3737049102783203
0.013129676883700505,0.021056580433524437,-0.08629573776829058, ,0.013726276131998616,0.020819956705408864,-0.08681189754420891, ,0.0008236154236372982, ,0.008050288538502343,0.0009309176615884529,-0.01132860863605324,0.020312069461102082,0.010343864581534684,-0.01183509685704222, ,0.01392878770297902, ,0.02279419912359557, ,7.730216051360631e-05, ,0.23296395988385657,-0.2115256534250093,0.09994655158000001,1.8849029019823895,0.9717587863318125,-1.1807865404573223, ,0.06407626033657716,0.02113047017556686,0.01287696970088925,0.009696027095335366,0.07775619163822843,-0.026362818708200224, ,1.3775889873504639
0.013262582849223483,0.02107235311793945,-0.0864860072767687, ,0.013764314901445975,0.020821798336422566,-0.08686506430088412, ,0.0006769024880288178, ,0.008507766528210671,0.000817891939376695,-0.012322943666827096,-0.021569950071880627,-0.028466010808803108,-0.0005831328560227225, ,0.014996865643821487, ,0.03571521011143833, ,7.806021300562606e-05, ,0.2339833606232542,-0.21117813044566922,0.10015914314,1.885112591925874,0.9725786053304051,-1.1803932242576738, ,0.06368922252246362,0.024413928880491584,0.013579549462915603,0.014493052833523841,0.034656440031573005,0.013850413992549198, ,1.3818628787994385
0.013262582849223483,0.02107235311793945,-0.0864860072767687, ,0.013802350791143744,0.020823581314518416,-0.08691821223566518, ,0.0007348727561944967, ,0.008507766528210671,0.000817891939376695,-0.012322943666827096,-0.021569950071880627,-0.028466010808803108,-0.0005831328560227225, ,0.014996865643821487, ,0.03571521011143833, ,7.88977706469911e-05, ,0.2339833606232542,-0.21117813044566922,0.10015914314,1.885112591925874,0.9725786053304051,-1.1803932242576738, ,0.06368922252246362,0.024413928880491584,0.013579549462915603,0.014493052833523841,0.034656440031573005,0.013850413992549198, ,1.3856139183044434
0.013262582849223483,0.02107235311793945,-0.0864860072767687, ,0.013840383688279525,0.020825305998928643,-0.08697134171924584, ,0.0007939997542065129, ,0.008507766528210671,0.000817891939376695,-0.012322943666827096,-0.021569950071880627,-0.028466010808803108,-0.0005831328560227225, ,0.014996865643821487, ,0.03571521011143833, ,7.981581424426748e-05, ,0.23460117925319215,-0.21093100299369402,0.10029395730000001,1.885112591925874,0.9732617878292323,-1.1803785625951717, ,0.0663614975933362,0.02638958330324549,0.01495663053521127,0.014493052833523841,0.09536085912125224,-0.032171425862941354, ,1.3893909454345703
0.013343409489230792,0.021079010547836702,-0.0866067404294672, ,0.013878413480424998,0.02082697274820114,-0.0870244531207635, ,0.0007240415841019511, ,0.008682134077012906,0.0009255487776245691,-0.013245972550968974,0.024948159624547973,0.025448677290908866,-0.01703001499229683, ,0.01586480007727846, ,0.035637696849473974, ,8.062791489982635e-05, ,0.23460117925319215,-0.21093100299369402,0.10029395730000001,1.885112591925874,0.9732617878292323,-1.1803785625951717, ,0.0663614975933362,0.02638958330324549,0.01495663053521127,0.014493052833523841,0.09536085912125224,-0.032171425862941354, ,1.3937089443206787
0.013343409489230792,0.021079010547836702,-0.0866067404294672, ,0.013916440055534907,0.02082858192020011,-0.08707754680780147, ,0.0007827753019474967, ,0.008682134077012906,0.0009255487776245691,-0.013245972550968974,0.024948159624547973,0.025448677290908866,-0.01703001499229683, ,0.01586480007727846, ,0.035637696849473974, ,8.151962145957934e-05, ,0.23460117925319215,-0.21093100299369402,0.10029395730000001,1.885112591925874,0.9732617878292323,-1.1803785625951717, ,0.0663614975933362,0.02638958330324549,0.01495663053521127,0.014493052833523841,0.09536085912125224,-0.032171425862941354, ,1.3976068496704102
0.013430463904530933,0.021090737714878564,-0.08674674260269426, ,0.013954463301947167,0.020830133872106648,-0.08713062314639096, ,0.0006998957087944902, ,0.008698810626614772,0.0013611466657039736,-0.013927191418266765,0.06046454817599739,0.04866092678784018,-0.03555894004700519, ,0.01647691376940192, ,0.07761344508521327, ,8.228765646083161e-05, ,0.23526533428037547,-0.21068387554171886,0.10045340097000001,1.885112591925874,0.9744915163271213,-1.1810546087678775, ,0.06585492127582983,0.023535947807160416,0.015897017485029943,0.01416931387950033,0.11970919546723652,-0.06934524647557969, ,1.4018840789794922
0.013430463904530933,0.021090737714878564,-0.08674674260269426, ,0.01399248310838199,0.020831628960419093,-0.08718368250101247, ,0.0007575746873261015, ,0.008698810626614772,0.0013611466657039736,-0.013927191418266765,0.06046454817599739,0.04866092678784018,-0.03555894004700519, ,0.01647691376940192, ,0.07761344508521327, ,8.313358994785648e-05, ,0.23526533428037547,-0.21068387554171886,0.10045340097000001,1.885112591925874,0.9744915163271213,-1.1810546087678775, ,0.06585492127582983,0.023535947807160416,0.015897017485029943,0.01416931387950033,0.11970919546723652,-0.06934524647557969, ,1.4059760570526123
0.013430463904530933,0.021090737714878564,-0.08674674260269426, ,0.014030499363941917,0.0208330675409534,-0.08723672523459827, ,0.000816406424918839, ,0.008698810626614772,0.0013611466657039736,-0.013927191418266765,0.06046454817599739,0.04866092678784018,-0.03555894004700519, ,0.01647691376940192, ,0.07761344508521327, ,8.417813814582085e-05, ,0.23526533428037547,-0.21068387554171886,0.10045340097000001,1.885112591925874,0.9744915163271213,-1.1810546087678775, ,0.06585492127582983,0.023535947807160416,0.015897017485029943,0.01416931387950033,0.11970919546723652,-0.06934524647557969, ,1.4084279537200928
0.013430463904530933,0.021090737714878564,-0.08674674260269426, ,0.014068511958110992,0.02083444996884414,-0.08728975170853377, ,0.0008761550185151815, ,0.009574242193694316,0.001075319687539809,-0.014132416584182505,0.010622407753588243,0.006188009596785525,-0.008964185576189797, ,0.01710402363547256, ,0.012293349645605725, ,8.530470554321681e-05, ,0.23596810297192988,-0.21042902535686944,0.10061154835000001,1.885112591925874,0.9754479718254793,-1.1814261403930495, ,0.07271796288005423,0.02660413276099545,0.015897017485029943,0.01267631900448556,0.0819304196910144,-0.017824619592424477, ,1.410451889038086
0.013522599504541209,0.02110144711162292,-0.08688680822279067, ,0.014106520780754642,0.020835776598544575,-0.08734276228266022, ,0.0007870444606536281, ,0.009574242193694316,0.001075319687539809,-0.014132416584182505,0.010622407753588243,0.006188009596785525,-0.008964185576189797, ,0.01710402363547256, ,0.012293349645605725, ,8.630149496808954e-05, ,0.23596810297192988,-0.21042902535686944,0.10061154835000001,1.885112591925874,0.9754479718254793,-1.1814261403930495, ,0.07271796288005423,0.02660413276099545,0.015897017485029943,0.01267631900448556,0.0819304196910144,-0.017824619592424477, ,1.4125089645385742
0.013522599504541209,0.02110144711162292,-0.08688680822279067, ,0.014144525722119078,0.020837047783827355,-0.08739575731527573, ,0.0008460073305774746, ,0.009574242193694316,0.001075319687539809,-0.014132416584182505,0.010622407753588243,0.006188009596785525,-0.008964185576189797, ,0.01710402363547256, ,0.012293349645605725, ,8.737909189803194e-05, ,0.23596810297192988,-0.21042902535686944,0.10061154835000001,1.885112591925874,0.9754479718254793,-1.1814261403930495, ,0.07271796288005423,0.02660413276099545,0.015897017485029943,0.01267631900448556,0.0819304196910144,-0.017824619592424477, ,1.4150259494781494
0.013522599504541209,0.02110144711162292,-0.08688680822279067, ,0.014182526672831089,0.020838263877784858,-0.08744873716313771, ,0.0009058329956565431, ,0.009574242193694316,0.001075319687539809,-0.014132416584182505,0.010622407753588243,0.006188009596785525,-0.008964185576189797, ,0.01710402363547256, ,0.012293349645605725, ,8.853837504783153e-05, ,0.23596810297192988,-0.21042902535686944,0.10061154835000001,1.885112591925874,0.9754479718254793,-1.1814261403930495, ,0.07271796288005423,0.02660413276099545,0.015897017485029943,0.01267631900448556,0.0819304196910144,-0.017824619592424477, ,1.4172658920288086
0.013522599504541209,0.02110144711162292,-0.08688680822279067, ,0.014220523523897282,0.020839425232830083,-0.0875017021814649, ,0.0009663581024518442, ,0.009574242193694316,0.001075319687539809,-0.014132416584182505,-0.013516091265814465,-0.022987234111477677,-0.0013700599897337965, ,0.01710402363547256, ,0.012293349645605725, ,8.977998710922335e-05, ,0.2367249307936039,-0.21013556150764892,0.10078265863000001,1.885112591925874,0.9761311543243065,-1.181329799990407, ,0.07616126930856403,0.02894964660111982,0.017917673250843646,0.011462119356332168,0.05460986527744146,0.0026170437965718496, ,1.4200539588928223
0.013624596872921382,0.021111399543681176,-0.08704090805829469, ,0.014258516166703972,0.0208405322006967,-0.08755465272393873, ,0.0008597420368942014, ,0.010548096456007818,0.001274200192028903,-0.01622160697669288,-0.013516091265814465,-0.022987234111477677,-0.0013700599897337965, ,0.019391401648176498, ,0.026666393306368778, ,0.0004987146738225978, ,0.2367249307936039,-0.21013556150764892,0.10078265863000001,1.885112591925874,0.9761311543243065,-1.181329799990407, ,0.07616126930856403,0.02894964660111982,0.017917673250843646,0.011462119356332168,0.05460986527744146,0.0026170437965718496, ,1.422940969467163
0.013624596872921382,0.021111399543681176,-0.08704090805829469, ,0.014296504493016789,0.02084158513243979,-0.0876075891427059, ,0.0009194493558023071, ,0.010548096456007818,0.001274200192028903,-0.01622160697669288,-0.013516091265814465,-0.022987234111477677,-0.0013700599897337965, ,0.019391401648176498, ,0.026666393306368778, ,0.0005019510944532109, ,0.2367249307936039,-0.21013556150764892,0.10078265863000001,1.885112591925874,0.9761311543243065,-1.181329799990407, ,0.07616126930856403,0.02894964660111982,0.017917673250843646,0.011462119356332168,0.05460986527744146,0.0026170437965718496, ,1.4250190258026123
0.013624596872921382,0.021111399543681176,-0.08704090805829469, ,0.01433448839497983,0.020842584378436623,-0.08766051178837994, ,0.000979855269155335, ,0.010548096456007818,0.001274200192028903,-0.01622160697669288,-0.013516091265814465,-0.022987234111477677,-0.0013700599897337965, ,0.019391401648176498, ,0.026666393306368778, ,0.0005055992179242195, ,0.2367249307936039,-0.21013556150764892,0.10078265863000001,1.885112591925874,0.9761311543243065,-1.181329799990407, ,0.07616126930856403,0.02894964660111982,0.017917673250843646,0.011462119356332168,0.05460986527744146,0.0026170437965718496, ,1.4270069599151611
0.013624596872921382,0.021111399543681176,-0.08704090805829469, ,0.014372467765115748,0.02084353028838665,-0.08771342101004281, ,0.0010408354719131248, ,0.010548096456007818,0.001274200192028903,-0.01622160697669288,-0.013516091265814465,-0.022987234111477677,-0.0013700599897337965, ,0.019391401648176498, ,0.026666393306368778, ,0.0005096540380301961, ,0.2367249307936039,-0.21013556150764892,0.10078265863000001,1.885112591925874,0.9761311543243065,-1.181329799990407, ,0.07616126930856403,0.02894964660111982,0.017917673250843646,0.011462119356332168,0.05460986527744146,0.0026170437965718496, ,1.4289979934692383
0.01373494287850137,0.021127072543473027,-0.0872110530527428, ,0.014410442496325216,0.020844423211312146,-0.08776631715524755, ,0.0009189714914955461, ,0.012116163648290497,0.0018421914463161945,-0.01906921429240559,0.007833059567890951,-0.004847480505843906,-0.006777379624150728, ,0.022667819140947863, ,0.009211534504060547, ,0.0005127316128682814, ,0.23752809501252325,-0.20986526585705106,0.10097191697,1.885112591925874,0.9768143368231338,-1.1813968170680458, ,0.08730169416602647,0.030221955910341013,0.021266771054739654,0.010504603967940566,0.08622810740185753,-0.018001914332414583, ,1.4309320449829102
0.01373494287850137,0.021127072543473027,-0.0872110530527428, ,0.014448412481886112,0.020845263495559218,-0.08781920057001981, ,0.0009789272788160769, ,0.012116163648290497,0.0018421914463161945,-0.01906921429240559,0.007833059567890951,-0.004847480505843906,-0.006777379624150728, ,0.022667819140947863, ,0.009211534504060547, ,0.0005162106850022201, ,0.23752809501252325,-0.20986526585705106,0.10097191697,1.885112591925874,0.9768143368231338,-1.1813968170680458, ,0.08730169416602647,0.030221955910341013,0.021266771054739654,0.010504603967940566,0.08622810740185753,-0.018001914332414583, ,1.4329378604888916
0.01373494287850137,0.021127072543473027,-0.0872110530527428, ,0.014486377615453665,0.020846051488797708,-0.08787207159885943, ,0.001039505899636711, ,0.012116163648290497,0.0018421914463161945,-0.01906921429240559,0.007833059567890951,-0.004847480505843906,-0.006777379624150728, ,0.022667819140947863, ,0.009211534504060547, ,0.0005200869458513645, ,0.23752809501252325,-0.20986526585705106,0.10097191697,1.885112591925874,0.9768143368231338,-1.1813968170680458, ,0.08730169416602647,0.030221955910341013,0.021266771054739654,0.010504603967940566,0.08622810740185753,-0.018001914332414583, ,1.4348969459533691
0.01373494287850137,0.021127072543473027,-0.0872110530527428, ,0.014524337791059837,0.02084678753802192,-0.08792493058474313, ,0.0011006021728802759, ,0.012116163648290497,0.0018421914463161945,-0.01906921429240559,0.007833059567890951,-0.004847480505843906,-0.006777379624150728, ,0.022667819140947863, ,0.009211534504060547, ,0.0005243554401677535, ,0.23752809501252325,-0.20986526585705106,0.10097191697,1.885112591925874,0.9768143368231338,-1.1813968170680458, ,0.08730169416602647,0.030221955910341013,0.021266771054739654,0.010504603967940566,0.08622810740185753,-0.018001914332414583, ,1.4368460178375244
0.01373494287850137,0.021127072543473027,-0.0872110530527428, ,0.014562292903112655,0.020847471989551156,-0.0879777778691255, ,0.0011621322975611625, ,0.012116163648290497,0.0018421914463161945,-0.01906921429240559,0.007833059567890951,-0.004847480505843906,-0.006777379624150728, ,0.022667819140947863, ,0.009211534504060547, ,0.0005290107456961726, ,0.23752809501252325,-0.20986526585705106,0.10097191697,1.885112591925874,0.9768143368231338,-1.1813968170680458, ,0.08730169416602647,0.030221955910341013,0.021266771054739654,0.010504603967940566,0.08622810740185753,-0.018001914332414583, ,1.4388079643249512
0.01386249718703694,0.021144961419404244,-0.08742423355473299, ,0.01460024284639597,0.020848105189030432,-0.08803061379194208, ,0.0010000446347501655, ,0.01287106480213887,0.002196180524244998,-0.022643616068202074,0.09218349946876953,0.06642401467412816,-0.05448133666966699, ,0.026138493963502762, ,0.11362192282668408, ,0.0005324240347472885, ,0.23844710022455595,-0.2095022974119625,0.10121173062000001,1.885112591925874,0.9783173383205537,-1.1822140203080036, ,0.08994970763836094,0.03589143024147911,0.025486098432000007,0.009639728685368446,0.16549510179411178,-0.11567859076059905, ,1.4407379627227783
0.01386249718703694,0.021144961419404244,-0.08742423355473299, ,0.014638187516069328,0.02084868748143057,-0.08808343869161, ,0.0010602005212986148, ,0.01287106480213887,0.002196180524244998,-0.022643616068202074,0.09218349946876953,0.06642401467412816,-0.05448133666966699, ,0.026138493963502762, ,0.11362192282668408, ,0.0005362209878879454, ,0.23844710022455595,-0.2095022974119625,0.10121173062000001,1.885112591925874,0.9783173383205537,-1.1822140203080036, ,0.08994970763836094,0.03589143024147911,0.025486098432000007,0.009639728685368446,0.16549510179411178,-0.11567859076059905, ,1.4427008628845215
0.01386249718703694,0.021144961419404244,-0.08742423355473299, ,0.014676126807667007,0.020849219211048917,-0.0881362529050307, ,0.0011209050667063182, ,0.01287106480213887,0.002196180524244998,-0.022643616068202074,0.09218349946876953,0.06642401467412816,-0.05448133666966699, ,0.026138493963502762, ,0.11362192282668408, ,0.000540397302736648, ,0.23844710022455595,-0.2095022974119625,0.10121173062000001,1.885112591925874,0.9783173383205537,-1.1822140203080036, ,0.08994970763836094,0.03589143024147911,0.025486098432000007,0.009639728685368446,0.16549510179411178,-0.11567859076059905, ,1.4446189403533936
0.01386249718703694,0.021144961419404244,-0.08742423355473299, ,0.014714060617097992,0.020849700721510184,-0.08818905676759192, ,0.0011820717838042234, ,0.01287106480213887,0.002196180524244998,-0.022643616068202074,0.09218349946876953,0.06642401467412816,-0.05448133666966699, ,0.026138493963502762, ,0.11362192282668408, ,0.000544948185581099, ,0.23844710022455595,-0.2095022974119625,0.10121173062000001,1.885112591925874,0.9783173383205537,-1.1822140203080036, ,0.08994970763836094,0.03589143024147911,0.025486098432000007,0.009639728685368446,0.16549510179411178,-0.11567859076059905, ,1.4467048645019531
0.01386249718703694,0.021144961419404244,-0.08742423355473299, ,0.014751988840645536,0.02085013235576617,-0.08824185061316894, ,0.0012436306657728118, ,0.01287106480213887,0.002196180524244998,-0.022643616068202074,0.09218349946876953,0.06642401467412816,-0.05448133666966699, ,0.026138493963502762, ,0.11362192282668408, ,0.0005498684847373786, ,0.23844710022455595,-0.2095022974119625,0.10121173062000001,1.885112591925874,0.9783173383205537,-1.1822140203080036, ,0.08994970763836094,0.03589143024147911,0.025486098432000007,0.009639728685368446,0.16549510179411178,-0.11567859076059905, ,1.4486439228057861
0.013996613253106137,0.021167641791091533,-0.08766231534141498, ,0.014789911374966519,0.02085051445609708,-0.08829463477412716, ,0.0010628826472068044, ,0.014513297159853389,0.0026057346095541447,-0.026031312303834462,0.052531178632718084,0.04572966625403442,-0.02646631386928779, ,0.029917467599471052, ,0.06964707568271995, ,0.0005534559963630388, ,0.2393738281694629,-0.20913160623399973,0.10147876636000001,1.885112591925874,0.9799569763177389,-1.1828976052312363, ,0.09763059831118392,0.03927853541327433,0.029014228633879785,0.008937806307712542,0.15181168012523108,-0.07003355917970289, ,1.4505460262298584
0.013996613253106137,0.021167641791091533,-0.08766231534141498, ,0.014827828117091137,0.020850847364111684,-0.08834740958132353, ,0.0011227782401841272, ,0.014513297159853389,0.0026057346095541447,-0.026031312303834462,0.052531178632718084,0.04572966625403442,-0.02646631386928779, ,0.029917467599471052, ,0.06964707568271995, ,0.0005574096230562409, ,0.2393738281694629,-0.20913160623399973,0.10147876636000001,1.885112591925874,0.9799569763177389,-1.1828976052312363, ,0.09763059831118392,0.03927853541327433,0.029014228633879785,0.008937806307712542,0.15181168012523108,-0.07003355917970289, ,1.4524259567260742
0.013996613253106137,0.021167641791091533,-0.08766231534141498, ,0.014865738964422556,0.02085113142074778,-0.08840017536410916, ,0.0011832141520860277, ,0.014513297159853389,0.0026057346095541447,-0.026031312303834462,0.052531178632718084,0.04572966625403442,-0.02646631386928779, ,0.029917467599471052, ,0.06964707568271995, ,0.0005617255163598946, ,0.2393738281694629,-0.20913160623399973,0.10147876636000001,1.885112591925874,0.9799569763177389,-1.1828976052312363, ,0.09763059831118392,0.03927853541327433,0.029014228633879785,0.008937806307712542,0.15181168012523108,-0.07003355917970289, ,1.454352855682373
0.013996613253106137,0.021167641791091533,-0.08766231534141498, ,0.014903643814736469,0.020851366966272815,-0.08845293245033023, ,0.0012441099700006618, ,0.014513297159853389,0.0026057346095541447,-0.026031312303834462,0.052531178632718084,0.04572966625403442,-0.02646631386928779, ,0.029917467599471052, ,0.06964707568271995, ,0.0005663993824807217, ,0.2393738281694629,-0.20913160623399973,0.10147876636000001,1.885112591925874,0.9799569763177389,-1.1828976052312363, ,0.09763059831118392,0.03927853541327433,0.029014228633879785,0.008937806307712542,0.15181168012523108,-0.07003355917970289, ,1.4565269947052002
0.013996613253106137,0.021167641791091533,-0.08766231534141498, ,0.014941542566180788,0.0208515543402843,-0.08850568116633077, ,0.0013053997847025393, ,0.014513297159853389,0.0026057346095541447,-0.026031312303834462,0.052531178632718084,0.04572966625403442,-0.02646631386928779, ,0.029917467599471052, ,0.06964707568271995, ,0.0005714265961012782, ,0.2393738281694629,-0.20913160623399973,0.10147876636000001,1.885112591925874,0.9799569763177389,-1.1828976052312363, ,0.09763059831118392,0.03927853541327433,0.029014228633879785,0.008937806307712542,0.15181168012523108,-0.07003355917970289, ,1.4586188793182373
0.014128842731055188,0.021192450282247755,-0.08790040349073432, ,0.014979435117274797,0.020851693881710473,-0.08855842183695417, ,0.0011281003838151129, ,0.015800837650642212,0.003022564378394629,-0.029207470244496114,0.01022795704122649,0.029638958172396368,0.012309083146375601, ,0.03334484493841017, ,0.03135375083400829, ,0.0005751879054777231, ,0.24024649698425027,-0.2087763605217854,0.10174320952000002,1.8853222818693585,0.9811867048156279,-1.183165257703239, ,0.10225963530007626,0.04145781632086971,0.03230996251521299,0.0013910963674098522,0.14138609923944406,-0.020010684520230724, ,1.4610140323638916
0.014128842731055188,0.021192450282247755,-0.08790040349073432, ,0.015017321366909173,0.0208517859288108,-0.08861115478554518, ,0.0011876926753781466, ,0.015800837650642212,0.003022564378394629,-0.029207470244496114,0.01022795704122649,0.029638958172396368,0.012309083146375601, ,0.03334484493841017, ,0.03135375083400829, ,0.0005792986757455112, ,0.24024649698425027,-0.2087763605217854,0.10174320952000002,1.8853222818693585,0.9811867048156279,-1.183165257703239, ,0.10225963530007626,0.04145781632086971,0.03230996251521299,0.0013910963674098522,0.14138609923944406,-0.020010684520230724, ,1.463036060333252
0.014128842731055188,0.021192450282247755,-0.08790040349073432, ,0.015055201214345507,0.020851830819176177,-0.08866388033395176, ,0.0012478215210182816, ,0.015800837650642212,0.003022564378394629,-0.029207470244496114,0.01022795704122649,0.029638958172396368,0.012309083146375601, ,0.03334484493841017, ,0.03135375083400829, ,0.0005837554947139963, ,0.24024649698425027,-0.2087763605217854,0.10174320952000002,1.8853222818693585,0.9811867048156279,-1.183165257703239, ,0.10225963530007626,0.04145781632086971,0.03230996251521299,0.0013910963674098522,0.14138609923944406,-0.020010684520230724, ,1.4652960300445557
0.014128842731055188,0.021192450282247755,-0.08790040349073432, ,0.015093074559215757,0.020851828889729897,-0.08871659880252747, ,0.0013084115325354632, ,0.015800837650642212,0.003022564378394629,-0.029207470244496114,0.01022795704122649,0.029638958172396368,0.012309083146375601, ,0.03334484493841017, ,0.03135375083400829, ,0.0005885545413220855, ,0.24024649698425027,-0.2087763605217854,0.10174320952000002,1.8853222818693585,0.9811867048156279,-1.183165257703239, ,0.10225963530007626,0.04145781632086971,0.03230996251521299,0.0013910963674098522,0.14138609923944406,-0.020010684520230724, ,1.467602014541626
0.014128842731055188,0.021192450282247755,-0.08790040349073432, ,0.0151309413015217,0.02085178047672795,-0.08876931051013214, ,0.001369400186097085, ,0.015800837650642212,0.003022564378394629,-0.029207470244496114,0.01022795704122649,0.029638958172396368,0.012309083146375601, ,0.03334484493841017, ,0.03135375083400829, ,0.0005936916837219211, ,0.24024649698425027,-0.2087763605217854,0.10174320952000002,1.8853222818693585,0.9811867048156279,-1.183165257703239, ,0.10225963530007626,0.04145781632086971,0.03230996251521299,0.0013910963674098522,0.14138609923944406,-0.020010684520230724, ,1.4695558547973633
0.014314986732185703,0.021228866202149956,-0.08824217489012127, ,0.015168801341634973,0.020851685915759414,-0.08882201577413568, ,0.0010988538604042226, ,0.017035808725785053,0.0032007243525371655,-0.030873575937307697,0.02859778941576691,0.041227950735918985,0.002936612402542828, ,0.035406794637176116, ,0.05017518740607918, ,0.000596993397295008, ,0.2414512433126293,-0.2083052738164577,0.10212172620000001,1.8853222818693585,0.9828263428128131,-1.1834404489257686, ,0.11151226975143451,0.04343109453476923,0.034477947012987016,0.0013910963674098522,0.1618668667903013,-0.03825530384029166, ,1.4719560146331787
0.014314986732185703,0.021228866202149956,-0.08824217489012127, ,0.015206654580296353,0.020851545541747087,-0.08887471491041792, ,0.0011565246687373373, ,0.017035808725785053,0.0032007243525371655,-0.030873575937307697,0.02859778941576691,0.041227950735918985,0.002936612402542828, ,0.035406794637176116, ,0.05017518740607918, ,0.0006006267172394387, ,0.2414512433126293,-0.2083052738164577,0.10212172620000001,1.8853222818693585,0.9828263428128131,-1.1834404489257686, ,0.11151226975143451,0.04343109453476923,0.034477947012987016,0.0013910963674098522,0.1618668667903013,-0.03825530384029166, ,1.4738759994506836
0.014314986732185703,0.021228866202149956,-0.08824217489012127, ,0.015244500918614933,0.02085135968894821,-0.0889274082333725, ,0.0012149290205547758, ,0.017035808725785053,0.0032007243525371655,-0.030873575937307697,0.02859778941576691,0.041227950735918985,0.002936612402542828, ,0.035406794637176116, ,0.05017518740607918, ,0.0006045899579059892, ,0.2414512433126293,-0.2083052738164577,0.10212172620000001,1.8853222818693585,0.9828263428128131,-1.1834404489257686, ,0.11151226975143451,0.04343109453476923,0.034477947012987016,0.0013910963674098522,0.1618668667903013,-0.03825530384029166, ,1.4757568836212158
0.014314986732185703,0.021228866202149956,-0.08824217489012127, ,0.01528234025806862,0.020851128690954634,-0.08898009605590709, ,0.00127396472412577, ,0.017035808725785053,0.0032007243525371655,-0.030873575937307697,0.02859778941576691,0.041227950735918985,0.002936612402542828, ,0.035406794637176116, ,0.05017518740607918, ,0.0006088808217920135, ,0.2414512433126293,-0.2083052738164577,0.10212172620000001,1.8853222818693585,0.9828263428128131,-1.1834404489257686, ,0.11151226975143451,0.04343109453476923,0.034477947012987016,0.0013910963674098522,0.1618668667903013,-0.03825530384029166, ,1.4776430130004883
0.014314986732185703,0.021228866202149956,-0.08824217489012127, ,0.015320172500503222,0.020850852880693285,-0.08903277868944637, ,0.0013335467249159505, ,0.017035808725785053,0.0032007243525371655,-0.030873575937307697,0.02859778941576691,0.041227950735918985,0.002936612402542828, ,0.035406794637176116, ,0.05017518740607918, ,0.0006134965281813379, ,0.2414512433126293,-0.2083052738164577,0.10212172620000001,1.8853222818693585,0.9828263428128131,-1.1834404489257686, ,0.11151226975143451,0.04343109453476923,0.034477947012987016,0.0013910963674098522,0.1618668667903013,-0.03825530384029166, ,1.4797239303588867
0.01449883296081908,0.021257096850354998,-0.08856253107913427, ,0.015357997548131603,0.02085053259042729,-0.08908545644393365, ,0.0010848544707438995, ,0.017844931317336627,0.0019419088726744965,-0.028841676372140808,-0.02052077378770736,-0.02528819568926442,0.010482626226830159, ,0.03397138324745607, ,0.03256647111266595, ,0.0006164798062988225, ,0.24261737597663718,-0.20781874164538156,0.10246394676000001,1.8853222818693585,0.9841927078104675,-1.1836561618211867, ,0.12135158767067875,0.051630544917557544,0.03204992257545272,0.0013910963674098522,0.10435413764847755,0.0012223571307060019, ,1.4823989868164062
0.01449883296081908,0.021257096850354998,-0.08856253107913427, ,0.015395815303534167,0.020850168151755687,-0.08913812962783267, ,0.0011408251303990815, ,0.017844931317336627,0.0019419088726744965,-0.028841676372140808,-0.02052077378770736,-0.02528819568926442,0.010482626226830159, ,0.03397138324745607, ,0.03256647111266595, ,0.0006197775756327864, ,0.24261737597663718,-0.20781874164538156,0.10246394676000001,1.8853222818693585,0.9841927078104675,-1.1836561618211867, ,0.12135158767067875,0.051630544917557544,0.03204992257545272,0.0013910963674098522,0.10435413764847755,0.0012223571307060019, ,1.4842910766601562
0.01449883296081908,0.021257096850354998,-0.08856253107913427, ,0.015433625669657574,0.02084975989561459,-0.08919079854812965, ,0.0011976981321654746, ,0.017844931317336627,0.0019419088726744965,-0.028841676372140808,-0.02052077378770736,-0.02528819568926442,0.010482626226830159, ,0.03397138324745607, ,0.03256647111266595, ,0.0006233895791111156, ,0.24261737597663718,-0.20781874164538156,0.10246394676000001,1.8853222818693585,0.9841927078104675,-1.1836561618211867, ,0.12135158767067875,0.051630544917557544,0.03204992257545272,0.0013910963674098522,0.10435413764847755,0.0012223571307060019, ,1.4861910343170166
0.01449883296081908,0.021257096850354998,-0.08856253107913427, ,0.015471428549815012,0.02084930815227725,-0.08924346351033532, ,0.0012553496635900568, ,0.017844931317336627,0.0019419088726744965,-0.028841676372140808,-0.02052077378770736,-0.02528819568926442,0.010482626226830159, ,0.03397138324745607, ,0.03256647111266595, ,0.0006273147970271339, ,0.24261737597663718,-0.20781874164538156,0.10246394676000001,1.8853222818693585,0.9841927078104675,-1.1836561618211867, ,0.12135158767067875,0.051630544917557544,0.03204992257545272,0.0013910963674098522,0.10435413764847755,0.0012223571307060019, ,1.4880790710449219
0.01466896507607151,0.021271500180642052,-0.0888277216458036, ,0.015509223847685457,0.020848813251354754,-0.08929612481848634, ,0.0010507619024516252, ,0.017844931317336627,0.0019419088726744965,-0.028841676372140808,-0.02052077378770736,-0.02528819568926442,0.010482626226830159, ,0.03397138324745607, ,0.03256647111266595, ,0.0006299286680482727, ,0.24383756777076468,-0.20729359580993428,0.10276727862000001,1.8853222818693585,0.9850125268090602,-1.1834262031018192, ,0.12619274143413667,0.055076576644498415,0.02933482784530387,0.0014102739718153921,0.07859549263815105,0.01854285127132545, ,1.4901139736175537
