NicholasDascanio/dvrk_moveit_final/test/execution/third_experiment_notsharpbends/thirdexp_600vel4.0/thirdexp_600vel4.0_11.csv
Current Position (x),Current Position (y),Current Position (z), ,Planned Position (x),Planned Position (y),Planned Position (z), ,Position Error,,Cartesian linear Velocity(x),Cartesian linear Velocity(y),Cartesian linear Velocity(z),Cartesian Angular Velocity(x),Cartesian Angular Velocity(y),Cartesian Angular Velocity(z), ,Total Linear Velocity, ,Total Angular Velocity, ,MSE, ,Joint 1 Position,Joint 2 Position,Joint 3 Position,Joint 4 Position,Joint 5 Position,Joint 6 Position, ,Joint 1 Velocity,Joint 2 Velocity,Joint 3 Velocity,Joint 4 Velocity,Joint 5 Velocity,Joint 6 Velocity, ,Time Stamp
0.007857818271453593,0.020690629665923208,-0.07754461461502116, ,0.008052309098899896,0.0206292241147967,-0.0776601579366332, ,0.00023440900758938502, ,4.0169531092883993e-05,-4.0615746451368805e-05,-6.766691609184618e-06,0.09684986717017545,-0.001778471865769324,-0.046166217561421495, ,5.752406629714089e-05, ,0.09686619499628321, ,1.9534083965782084e-05, ,0.1650193560564293,-0.24852526662541893,0.08852623668000001,1.7536369973610773,0.5912261344850608,-1.247761779372046, ,0.0005082346843079453,0.00045348087273741844,0.0,-0.001105240623191791,0.0,-0.10828200430387169, ,0.020133018493652344
0.007866003139632788,0.020690814310938454,-0.07755718945052074, ,0.008131835895941924,0.02063018450629599,-0.07779307811727187, ,0.00036053639294739896, ,0.000580853181236887,-7.054627139062103e-05,-0.00045001660779460536,0.21198279254564054,-0.008893503987955796,-0.10306716793176479, ,0.0007381613250848995, ,0.21216926909576664, ,2.7042972751672e-05, ,0.16509658338517158,-0.24848665296104783,0.08853919958,1.7536369973610773,0.5912261344850608,-1.2516006801586523, ,0.006426948717562986,0.0023327981676601463,0.0004722226461530401,-0.0010765202839229488,0.0,-0.23822750463175701, ,0.03909707069396973
0.007899880799087808,0.02070009464769553,-0.07762579208722468, ,0.008211196318240613,0.020631059298045304,-0.07792566146377636, ,0.0004377269410947868, ,0.0027647351226168355,0.0007673355440653274,-0.005411654082346507,0.12706788856475174,-0.12928207163859506,-0.10491735524108406, ,0.006125239917129351, ,0.1812735566673462, ,3.227101067598659e-05, ,0.16528965170702717,-0.24839398016655714,0.08860660666,1.7536369973610773,0.5902696789867028,-1.2563749091623355, ,0.012041231006023447,0.006131635183317769,0.005126749765046669,-0.001049521534171068,-0.12105605163891552,-0.16673741189029395, ,0.057528018951416016
0.007957797637384767,0.02072575513455857,-0.07777092659273353, ,0.008290390328553086,0.020631849133641637,-0.07805790854386652, ,0.0004492158451155634, ,0.0025589173673517614,0.0013013831984579876,-0.007409162084052456,0.2866198706736846,-0.020233837982737278,-0.14164505774329325, ,0.007945900773979232, ,0.28733318367738797, ,3.5283052065407955e-05, ,0.16559856102199616,-0.24826269370769533,0.08875308743,1.7536369973610773,0.5890399504888139,-1.2599461574769393, ,0.01670720802085753,0.007586509259896752,0.007724932841901067,-0.0010224042241740532,0.0,-0.3264800345505452, ,0.08142304420471191
0.008034077187339297,0.020745228888960646,-0.07792096830671409, ,0.008369417890862223,0.020632554655175894,-0.07818981992463972, ,0.0004443310284680324, ,0.004565104074775875,0.0006905570990500732,-0.0073820625659974165,-0.19870421934087967,-0.1893057617727864,0.02947974196977855, ,0.008707002472084415, ,0.27444496388587813, ,3.704267721567628e-05, ,0.1660233113300785,-0.24805417992009124,0.08889956820000001,1.7536369973610773,0.5867171299928012,-1.2637695649239393, ,0.02544153929181522,0.01271224937152991,0.0069497432460732984,-0.0009977567526010525,-0.17368811259739259,0.17927708101476436, ,0.09999799728393555
0.008091846771135218,0.020754053871497702,-0.0780229250070051, ,0.008448278970374038,0.020633176503234055,-0.07832139617257186, ,0.0004803543353477197, ,0.0029046305437872245,0.00013960771292916094,-0.004458467196100072,-0.18518943633172827,0.009564697331572584,0.09418306359990923, ,0.005322997148985843, ,0.18543627143076985, ,3.881570242843365e-05, ,0.16650984350115466,-0.24783794339961296,0.08900456769000001,1.7536369973610773,0.5864438569932704,-1.2610963669123296, ,0.031022210381978024,0.013270443512581566,0.0048065212794206405,-0.0009780149665572905,0.040545051047308225,0.1967190461670864, ,0.12732195854187012
0.008174056346495859,0.0207497159351914,-0.07815262490551604, ,0.00852697353351714,0.020633715316898397,-0.07845263785351818, ,0.00047750858977436847, ,0.0030354240815143986,-0.00010529989778929748,-0.004914975006076788,0.059491788836224205,0.04922890189527788,-0.009022957239475353, ,0.005777704278817971, ,0.07721889482426307, ,4.0056696393572986e-05, ,0.1675678579049234,-0.24732052029703994,0.08915104846,1.7536369973610773,0.5895864964878755,-1.2573697157065242, ,0.036331141484866304,0.018348209891428997,0.005430893801568361,-0.000942938292080792,0.09077142720231933,-0.07218410009257584, ,0.14649486541748047
0.0082739202495213,0.020752363984933225,-0.07830161531645069, ,0.008605501547940302,0.020634171733748704,-0.07858354553271521, ,0.0004509991269883515, ,0.004450707127174323,0.00033912455365007604,-0.0073957577453909115,0.015582512369125709,-0.0406888571549277,-0.01908280485046997, ,0.008638346602404787, ,0.043570606676767, ,4.067172277226349e-05, ,0.16855636771282415,-0.24686487905746068,0.08930789955000001,1.7536369973610773,0.5901330424869373,-1.2592039259036993, ,0.04005780563886483,0.01946603929404529,0.007665453089509144,-0.000917852432435554,0.0,-0.03870939993525527, ,0.1699988842010498
0.008366003868562493,0.02075841740506849,-0.07844765028202866, ,0.008683862982511973,0.020634546389863447,-0.0787141197747819, ,0.00043287923869925784, ,0.004602524560716987,0.0003157135465290487,-0.007347254659282723,0.007775381816688698,-0.04244012814902685,-0.015431906960581589, ,0.008675543694997838, ,0.04314650644363551, ,4.0956092456792004e-05, ,0.16939814559611463,-0.24647101968087523,0.08945956548,1.7536369973610773,0.5901330424869373,-1.2605107857459483, ,0.04189710444082595,0.01958657204509201,0.00763239651173934,-0.0008982233110691616,0.0,-0.030169366026975057, ,0.18888497352600098
0.008450704324348185,0.020762322090803143,-0.07857074274216135, ,0.008762057807317682,0.020634839919821134,-0.07884436114372005, ,0.00043365853496393195, ,0.004656819809375785,0.00022072979613439465,-0.0065302401806099745,-0.002445979675745701,-0.04458382576878642,-0.009715304985743136, ,0.008023635659496837, ,0.04465087149071485, ,4.119234353910584e-05, ,0.17019358708215973,-0.24612349670153513,0.08958789819000001,1.7536369973610773,0.5901330424869373,-1.26075582196637, ,0.04417920929165306,0.01824941183816746,0.00683053667238422,-0.0008809672348373145,0.0,-0.017371964340748062, ,0.2111959457397461
0.008505424067850511,0.020764797749957292,-0.07864556448444862, ,0.008840085993659251,0.020635052956701608,-0.07897427020291689, ,0.0004867029538812318, ,0.004493778335677987,7.24808824217204e-05,-0.005963068110457388,-0.046495096698855064,-0.043135868964513484,0.01121523305166994, ,0.007467093042039807, ,0.0634231598142189, ,4.223713508891917e-05, ,0.17070328745185856,-0.24591498291393107,0.08966567559000001,1.7536369973610773,0.5899964059871718,-1.2603993678422518, ,0.04327265916938932,0.018245903010665403,0.006231929389671363,-0.0008699994487191142,0.0,0.03141395627958418, ,0.22780609130859375
0.008580130529316457,0.020763620336386533,-0.07874821564467949, ,0.008917947514052605,0.020635186132087164,-0.07910384751514485, ,0.0005070401239556162, ,0.0037265275430094663,-7.370573846857387e-05,-0.005065821962309821,0.039705979303670216,0.023883455837359572,-0.0064270899645792875, ,0.0062892759693395466, ,0.04633556141736508, ,4.3294684323547037e-05, ,0.17149100620502947,-0.24555973720171673,0.08977586024,1.7536369973610773,0.5908162249857646,-1.26098619652429, ,0.042101571232684466,0.018113560137138916,0.005575362800140008,-0.0008535788886880512,0.07001256156664203,-0.05315691239083471, ,0.2468259334564209
0.008673405883296584,0.020767136844527214,-0.0788864629838412, ,0.008995642342226752,0.020635240076063845,-0.0792330936425629, ,0.0004913103973668531, ,0.004611338745874946,0.0005834065248564601,-0.008100599449502009,-0.010942792835391317,-0.027426701246905084,-0.0011211387634843628, ,0.009339406814339165, ,0.02952911480970143, ,4.408273268366277e-05, ,0.17237912048556528,-0.24515815509225705,0.08992104472000001,1.7536369973610773,0.5910894979852953,-1.2613723898119638, ,0.04120579312135075,0.018676823766674035,0.008508980512820515,-0.0008351396475899758,0.01472937926144659,-0.006155279958339403, ,0.2641470432281494
0.008765146505755304,0.020779061249226877,-0.07905694612598169, ,0.009073170453121384,0.020635215417222696,-0.07936200914671829, ,0.00045676451499311664, ,0.004057201089002336,0.00034277016925919645,-0.00780560752694043,0.03136189370113753,0.021671702806955326,-0.00619121909395778, ,0.008803742438881592, ,0.03812126768745723, ,4.451765964627256e-05, ,0.17321317563598151,-0.24475657298279738,0.09010122903000001,1.7536369973610773,0.5917726804841226,-1.2619294793304459, ,0.03947460131383976,0.021172900838570007,0.00833969189528796,-0.0008183979925937331,0.06486653188277257,-0.04803717997290512, ,0.2831239700317383
0.008852126525888165,0.02078581044580735,-0.07921170796742007, ,0.009150531822886235,0.020635112782661124,-0.07949059458854715, ,0.00043535417121916167, ,0.0040395327860154725,0.00025678352449558847,-0.0069977575057340565,-0.003160244029436034,-0.01616081396763525,-0.0027059842834060463, ,0.008084081457828319, ,0.016466907227588444, ,4.475368164901208e-05, ,0.1739931716562782,-0.24434726814046348,0.09026326528,1.7536369973610773,0.5921825899834189,-1.2622637330415352, ,0.03685318118775564,0.01908627143171174,0.007343850401106501,-0.000802504304083049,0.022058381317550235,-0.01408825556882154, ,0.3045799732208252
0.008932081002141101,0.02078302172310856,-0.07932997563949183, ,0.009227726428878286,0.020634932797984087,-0.07961885052837558, ,0.0004390731710350049, ,0.003968273245740078,-0.00030851002519979815,-0.005660283085368274,-0.016444604184009996,-0.02923700261262474,-0.0023668367294765224, ,0.0069196225037939365, ,0.0335444082184973, ,4.498631008615244e-05, ,0.1747499994779522,-0.24393796329812958,0.09038641283000001,1.7536369973610773,0.5924558629829498,-1.262486568848928, ,0.03753834713547103,0.021562586130077433,0.005847581321585905,-0.0007871360443178598,0.008948068788336849,-0.004082106593119876, ,0.32248687744140625
0.008983881860794718,0.020781625372513733,-0.07941743318746264, ,0.009304754249661503,0.02063467608730544,-0.07974677752592041, ,0.00048272235874723417, ,0.0036194309961138796,5.4517961186133175e-05,-0.006618098782202547,0.03375943796170812,0.025087595761511487,-0.007103232602276115, ,0.007543373544688916, ,0.04206051711388542, ,4.545810140719403e-05, ,0.17527514531339947,-0.24363677671603484,0.09047974571,1.7536369973610773,0.5932756819815425,-1.2631550762711066, ,0.036275589280761,0.020783386237072005,0.007085770249110321,-0.0007768157034429222,0.06510046603127155,-0.0502272873424764, ,0.34100794792175293
0.00904792125903031,0.020779531914853575,-0.07952307039258673, ,0.00938161526500415,0.020634343273249034,-0.07987437614029066, ,0.0005058133644375791, ,0.003884396156622039,-0.00032534755903910307,-0.006194304461462687,-0.008488576218518127,-0.01742308066525647,-0.003680545592599127, ,0.007318728871672274, ,0.01938090960110746, ,4.601379365876204e-05, ,0.1758466275460921,-0.2432815310038205,0.09058863407000001,1.7536369973610773,0.5934123184813078,-1.2629397792142407, ,0.036178780617030414,0.02336787529142349,0.0064048297225572995,-0.0007654487183712617,0.020005465009102365,-0.013160673509655791, ,0.35810208320617676
0.009116403444742262,0.020776861795647132,-0.07964654881399189, ,0.009458309455877608,0.020633934976950482,-0.08000164692998793, ,0.0005132469853171748, ,0.0035036063806215454,8.074265145591933e-05,-0.007316653698846653,0.06869080756978514,0.04938016528305743,-0.01670792481373624, ,0.00811265667922306, ,0.08459803630701516, ,4.655544853520093e-05, ,0.17649533710752693,-0.24285678069573816,0.09071826307000001,1.7536369973610773,0.5942321374799004,-1.2633632504159977, ,0.035409306551668206,0.022729806361310365,0.007873856411270391,-0.0007527530253036156,0.09008271155061892,-0.08719113524759475, ,0.38167309761047363
0.009209150049976545,0.020780616972389476,-0.07981928010360569, ,0.00953483680445424,0.020633451818057764,-0.08012859045290825, ,0.0004726545640077614, ,0.004077978905401821,0.00011149368136673922,-0.007022126903026293,-0.040139371739856135,-0.024156549914037286,0.010461439508262777, ,0.008121121168662154, ,0.04684771126048121, ,4.683490440598714e-05, ,0.1773062240593205,-0.2423625257917878,0.09089844738000001,1.7536369973610773,0.5947786834789622,-1.2631554921096586, ,0.03572927016508689,0.020438712375289853,0.007303444071526824,-0.0007379731456464311,0.012016137414440001,0.023832666069489097, ,0.3984260559082031
0.009293065755297956,0.020776493494924633,-0.07996411279049438, ,0.009611197294106252,0.02063289441473303,-0.08025520726634162, ,0.0004544935265602678, ,0.0033486818285940008,-0.0002757217119114934,-0.005851290783284815,0.039893437248825964,0.03541507960868445,-0.007979510196830514, ,0.00674739181329563, ,0.05334523589184427, ,4.699898095776019e-05, ,0.1781171110111141,-0.24185282542208897,0.09105140960000001,1.7536369973610773,0.5958717754770858,-1.2636384416385273, ,0.035004404853733226,0.02223973319861045,0.006290999810426541,-0.0007238750651126621,0.07464149554607254,-0.05715513802546939, ,0.4215209484100342
0.009364272902938679,0.020767813257221684,-0.08005898365705487, ,0.00968739090940369,0.02063226338365382,-0.08038149792697456, ,0.00047622942856150827, ,0.0037020718414943862,-0.0003860879381719026,-0.004928847517840914,-0.03734690720914488,-0.02568337202095136,0.008713228809730186, ,0.00617640167651959, ,0.045325788173468946, ,4.747858660799669e-05, ,0.17880443423692008,-0.2414512433126293,0.09114992764,1.7536369973610773,0.5961450484766166,-1.2636162412254985, ,0.035317060498128314,0.01997830348599385,0.0051168684612913585,-0.0007121273467646516,0.010008220810590948,0.020944914213899657, ,0.43715405464172363
0.009449542372162324,0.02076681734895444,-0.08019525255947622, ,0.009763417636113405,0.02063155934001422,-0.08050746299088932, ,0.0004629122635942842, ,0.004145716818037305,0.00028784283960824004,-0.007670516686656099,0.046671130236001945,0.019101569770825545,-0.014428203602560672, ,0.00872391240648029, ,0.050428804652321385, ,4.7861460205832225e-05, ,0.17960759845583943,-0.2410110475387985,0.09129381583000001,1.7536369973610773,0.5968282309754439,-1.2640099732636996, ,0.03932736906691702,0.020824433082833174,0.008223444254001034,-0.0006996131949099531,0.06217256082870823,-0.06499490652195518, ,0.4521219730377197
0.0094918570831555,0.020771407334152,-0.0802765579770179, ,0.009839277461195879,0.020630782897526328,-0.08063310301356569, ,0.0005173011833940403, ,0.004567127195132632,0.000592404909854801,-0.008827854842157335,0.02279456029782957,0.010689789697036316,-0.005383599417530653, ,0.009956938058858297, ,0.02517664650672394, ,4.8458835769153926e-05, ,0.17999373509955063,-0.24081025648406867,0.09138066726,1.7536369973610773,0.5973747769745056,-1.2646190023587662, ,0.04115218627860832,0.020567174156582307,0.009430912682060394,-0.0006939388427637571,0.054949626240681365,-0.039406073098183544, ,0.46790599822998047
0.00956563985945856,0.020783286627748695,-0.08042217166365924, ,0.0099149703728048,0.020629934668421245,-0.08075841854988244, ,0.0005085377070376544, ,0.00487022051255251,0.0006811959187798843,-0.009201628434079697,-0.006045754496630131,-0.02170563151168382,-0.002887395058899121, ,0.01043326610220949, ,0.02253187787975122, ,4.897757834805703e-05, ,0.18061927646236284,-0.24050134716909968,0.09153492577000001,1.7536369973610773,0.5979213229735674,-1.265064673973552, ,0.0406759286577243,0.0201095447252534,0.009689058102189783,-0.0006851278095862569,0.020186970869195266,-0.012270918193307398, ,0.48413991928100586
0.009659094672850654,0.02079251625487234,-0.08059367245004002, ,0.009990496360285822,0.0206290152634511,-0.08088341015411661, ,0.0004695823567748019, ,0.00440666656818044,0.000244805921382917,-0.007248847976380582,0.022779270958764263,0.0067295868731913,-0.006061675075824055, ,0.008486721225947048, ,0.02375252628421069, ,4.9300241128099955e-05, ,0.1814610543456533,-0.24007659686101734,0.09171770266000001,1.7536369973610773,0.5988777784719255,-1.265844599299427, ,0.04208290091284735,0.019890367126068075,0.007796775095447872,-0.0006736357873714895,0.051758345397039184,-0.0391414151007937, ,0.5004029273986816
0.009732271655795733,0.020795536889234065,-0.08070721299942453, ,0.01006585541417276,0.020628025291889462,-0.08100807837994542, ,0.00047943533066917765, ,0.004753498093723092,0.0001952600225723744,-0.007187594607720683,-0.012490232350463452,-0.02704629862648802,-0.0007443380749055828, ,0.008619477179526578, ,0.0297910750792695, ,4.964174073309746e-05, ,0.18213293210571083,-0.23975996481317413,0.09183825763,1.7536369973610773,0.5992876879712218,-1.2657704593098134, ,0.043134973435668536,0.019840464469678187,0.0076068822922636115,-0.0006650983722785459,0.017074791246929573,-0.005317168202218893, ,0.5169260501861572
0.00979461672859127,0.020795474948390485,-0.08079995733993757, ,0.010141047526187594,0.020626965361533283,-0.08113242378044681, ,0.0005088651220617274, ,0.004332598794083509,-0.00020620489835934788,-0.00642793081971077,0.016169315116613788,0.00910593032510372,-0.0036985725744645556, ,0.007754497236674266, ,0.01855706624044398, ,5.007649246927236e-05, ,0.18274302800277456,-0.2394665009639536,0.09193807196,1.7536369973610773,0.599970870470049,-1.266245870088155, ,0.043095795439814163,0.022740700109865987,0.006907550529054641,-0.0006577575089659766,0.055236745015052165,-0.034407835099737494, ,0.5320730209350586
0.00984123457292763,0.020794820340081878,-0.08086981339740279, ,0.010216072689238615,0.0206258360787041,-0.08125644690810041, ,0.0005643977016495798, ,0.004618977394187576,1.9903378484335428e-05,-0.00728779127303098,-0.0029775214402055694,-0.007676330756199216,-0.0002928244101872824, ,0.00862828198146986, ,0.008233569532560726, ,5.069455194812293e-05, ,0.18317550104373115,-0.23924254171060108,0.09201196049,1.7536369973610773,0.6002441434695799,-1.2663053484152667, ,0.042920371577779635,0.022333947177799667,0.007743710024307245,-0.0006525484816191576,0.037247542840819575,-0.015503728265398701, ,0.5499999523162842
0.009965396634200017,0.02079683753904845,-0.0810734591123686, ,0.01029093089741818,0.020624638048249214,-0.08138014831478767, ,0.0004792530521978463, ,0.004354422369821277,-4.45836115053394e-05,-0.007152034401996824,0.014657884469946838,0.009848992647435042,-0.003445638928602385, ,0.00837344480847404, ,0.017659451140687864, ,5.096450299798689e-05, ,0.18434163370773904,-0.23863244581353735,0.09222973721000001,1.7536369973610773,0.6016105084672343,-1.2672561699719498, ,0.041331420539403654,0.022762518963413476,0.007650725994236313,-0.0006387918675383573,0.054133154166319385,-0.032932352876062575, ,0.5666079521179199
0.010015045097476747,0.020794743220576017,-0.08115129740557231, ,0.010365622146000836,0.020623371873543066,-0.08150352855179338, ,0.0005256797370110049, ,0.005205041282266388,-0.0002121388219982999,-0.007840345160160259,-0.039227811729456066,-0.031766031547679936,0.007019033345776424, ,0.009413207203729478, ,0.050476746564568235, ,5.1384302688474825e-05, ,0.18478955221444407,-0.2383698728958137,0.09231140348000001,1.7536369973610773,0.6018837814667652,-1.2673156482990615, ,0.046381691866310255,0.026309104951059266,0.008181207765793529,-0.0006338517199866844,0.015464659802809231,0.00022529093481162867, ,0.5822339057922363
0.01010503018509327,0.020793681631881483,-0.08129582592339378, ,0.0104401464314424,0.0206220381564888,-0.08162658816980599, ,0.0005011666837127743, ,0.004641490259211829,-6.823645184197359e-05,-0.007901925783618657,0.009703418370421105,0.016132444633812828,0.00013870160539740077, ,0.009164525035676186, ,0.018825835097715456, ,5.1696040619979935e-05, ,0.186094694070188,-0.23763621327276238,0.09255769858000001,1.7536369973610773,0.603386782964185,-1.267969494058738, ,0.03968922691696812,0.022971905484984453,0.007464297806935334,-0.0006197319433662244,0.06355388828810735,-0.02169074716602293, ,0.6047940254211426
0.01019879455725475,0.02078960015062395,-0.08144798125825295, ,0.010514503751377463,0.020620637497519183,-0.08174932771891855, ,0.0004680067977641959, ,0.004298045569009053,-0.0005200553022563244,-0.0063333126793188995,-0.007593041767379076,-0.017327020212513675,-0.004707353421285094, ,0.007671668835703534, ,0.018917713988124436, ,5.2054603165332425e-05, ,0.18648855344677345,-0.23739680855366144,0.09262640195,1.7536369973610773,0.6036600559637159,-1.2678656149055687, ,0.03932736906691702,0.02529910465435105,0.006603984875621892,-0.0006150681197112244,0.023367327483498047,-0.01570786138586299, ,0.6188359260559082
0.010244633105643355,0.020785180464786494,-0.08151532884958111, ,0.010588694104617023,0.02061917049559824,-0.08187174774862926, ,0.0005224669486994762, ,0.0047948497019736054,-0.0002912701606253117,-0.007102839681066566,-0.046354781557270804,-0.04121538127871742,0.00642837863345849, ,0.00857471594316225, ,0.062028005038804374, ,5.25763349360986e-05, ,0.18689785828910735,-0.23714195836881202,0.09269640161,1.7536369973610773,0.6037966924634813,-1.2678136753289841, ,0.04136745490779023,0.02458469988561419,0.007354021939058173,-0.000610562075337151,0.0,0.024421406602691768, ,0.6325290203094482
0.010330893532804692,0.020783451241636396,-0.08166365943562119, ,0.01066271749114898,0.02061763774822261,-0.08199384880784231, ,0.0004966148159863287, ,0.004403359166777555,0.00012847834537407625,-0.008664603298765335,0.03516676678056027,0.039199426128531646,-0.005675767685975998, ,0.00972015580954591, ,0.05266209686072282, ,5.299111065040066e-05, ,0.18771646797377517,-0.2366631489306101,0.09285584528000002,1.7536369973610773,0.6051630574611357,-1.2689278543659483, ,0.04050232247480613,0.025131605285611962,0.009315094456140352,0.0,0.08404861770280006,-0.05359118108386049, ,0.6468949317932129
0.010381421453631492,0.02078684681579094,-0.08176199284422661, ,0.010736573912133668,0.020616039851422702,-0.0821156314448686, ,0.0005294983925573834, ,0.005170430744283756,0.0003620801171589581,-0.009881843732778487,-0.028819517778382497,-0.018580398389348336,0.004965895340988543, ,0.011158642016470014, ,0.03428987773462086, ,5.3491301874389865e-05, ,0.1881334955489833,-0.2364082987457607,0.09295954848000001,1.7536369973610773,0.6055729669604321,-1.2690170718566158, ,0.041403552163381666,0.02511830110070693,0.01035683453836151,0.0,0.023771757939296482,0.00814643581711834, ,0.6609890460968018
0.010433159520682293,0.020790175327260026,-0.0818608345034357, ,0.01081026336990414,0.020614377399764156,-0.08223709620742597, ,0.0005609679975715548, ,0.0052630182024734195,0.0003172156712918572,-0.009839913479849822,-0.037404037298770586,-0.028597306659155677,0.005484833611130189, ,0.011163506782038066, ,0.047083626263890614, ,5.406700830788007e-05, ,0.1885505231241914,-0.23615344856091128,0.09306325168000001,1.7536369973610773,0.6058462399599629,-1.2690765501837276, ,0.04156677247414401,0.025339637265279248,0.01027002676982592,0.0,0.01336569773894076,0.015839744536771776, ,0.6749351024627686
0.010534063679963894,0.020790385991955793,-0.08204965485246296, ,0.01088378586796343,0.020612650986349165,-0.08235824364264091, ,0.0004991216108531683, ,0.004552146563704301,-0.00033513964694355627,-0.006972743560186793,-0.010152752609893994,0.0021687333721355983,0.00353684165411344, ,0.008333877229508766, ,0.010381800109557072, ,5.4431517530532665e-05, ,0.18944636013760144,-0.23559741179396712,0.09326417663000001,1.7534273074175926,0.6072126049576173,-1.2697006567798483, ,0.0424025654863587,0.025105010994304438,0.007422558956197579,0.0,0.04672497498455772,-0.009056493594327013, ,0.688852071762085
0.010581935870088434,0.020786482361824975,-0.0821231749611712, ,0.010957141410982451,0.020610861202817802,-0.08247907429704804, ,0.0005461559545461035, ,0.004857572026253744,-0.00022844984417924266,-0.007920909574568855,-0.007776281620766051,-0.00597954374054011,-0.0009671633736637746, ,0.009294568511235203, ,0.009809458089545831, ,5.492008360104265e-05, ,0.18988655591143225,-0.2353425616091177,0.09334195403000001,1.753217617474108,0.6076225144569137,-1.269789874270516, ,0.043095795439814163,0.026418970367057565,0.008365972436974792,0.0,0.03898722853044471,-0.014277160111957638, ,0.7019500732421875
0.01062915708109986,0.020786080727360774,-0.08220057599927723, ,0.011030330004799102,0.020609008639349405,-0.08259958871659166, ,0.0005928788979553519, ,0.00503155451865261,-2.1147476863755154e-05,-0.008211219189462477,-0.003224729874788247,0.009135676662516808,0.003817071992256452, ,0.009630218516074701, ,0.00968810783998118, ,5.552425262350077e-05, ,0.1903190289523888,-0.23510315689001676,0.09342491659,1.753217617474108,0.6081690604559755,-1.270153867145161, ,0.04608884971271043,0.02513826266449557,0.00881018336283186,0.0,0.05792945756841397,-0.015097393297862707, ,0.714979887008667
0.010739376059887428,0.020784029407397445,-0.08238853666088468, ,0.011103351656415949,0.020607093884663846,-0.08271978744662585, ,0.0005229832665845511, ,0.005377428594948744,0.00016098564803097685,-0.009509350560091018,-0.012947591386580921,-0.01432226122418798,-0.0007493695068347804, ,0.010925676306176553, ,0.01930718031013577, ,5.59058250616259e-05, ,0.1912920932945411,-0.2345162291915757,0.09362454525000001,1.753217617474108,0.609262152454099,-1.2707184954141701, ,0.04467840939664349,0.026207385130756915,0.010030737732997482,0.0,0.03185218723058436,-0.009393028191887967, ,0.7301678657531738
0.010798373901889166,0.020786236727838397,-0.08249459932299738, ,0.011176206373998082,0.020605117526023103,-0.08283967103191553, ,0.0005428038564176158, ,0.005578698463574217,0.0001360908534422606,-0.009899403943040591,-0.03181830925257209,-0.026163410728281152,0.0034141667990517464, ,0.011363916388963955, ,0.041193795279855824, ,5.6327727794178085e-05, ,0.19177090273274303,-0.2342304880752294,0.09373602619000002,1.753217617474108,0.6095354254536298,-1.2707779737412819, ,0.04495354881973983,0.02737148588360853,0.01037032,0.0,0.019540142813896513,0.008380845032731371, ,0.7431750297546387
0.010853114689857859,0.02078724957467384,-0.08259207013230416, ,0.011248894166872844,0.020603080149232268,-0.08295924001663664, ,0.0005704151958481321, ,0.005516530886822099,6.037369349771009e-05,-0.009345992965299112,0.0146146444413673,0.00676267684527719,-0.0058694064503319356, ,0.010852803440381165, ,0.01610346419113116, ,5.696457390125497e-05, ,0.19221109850657384,-0.23396791515750576,0.09383195165000001,1.753217617474108,0.6100819714526916,-1.2708969303955053, ,0.04871506240167905,0.02724574836591179,0.010049723356466879,0.0,0.05855555959694866,-0.037186617890230964, ,0.7546219825744629
0.010904920239258273,0.020788005103105623,-0.08268256174186196, ,0.011321415045525678,0.020600982338641206,-0.08307849494437722, ,0.0006043248620813335, ,0.005771583730796298,0.0001529650953636336,-0.01026954137413621,0.003993332825225228,0.013116124007143888,0.0006680122750514754, ,0.011781258723798893, ,0.013710554394347265, ,5.767222193002533e-05, ,0.1927053534105242,-0.23368989677403365,0.09393695114000002,1.753217617474108,0.6107651539515188,-1.2714540199139874, ,0.0502898471428038,0.028809029009857556,0.010985387255172415,0.0,0.06659463329011611,-0.02578808798639733, ,0.7699019908905029
0.011036590054769056,0.02079143807733101,-0.08290767534780978, ,0.011393769021600114,0.02059882467714578,-0.08319743635813764, ,0.0004986363197598438, ,0.005803871036157849,-2.290844568516315e-05,-0.008908772056777488,-0.02964943654792321,-0.0242001365673358,0.005279097102935096, ,0.010632575575130188, ,0.038271864879708975, ,5.807700439204043e-05, ,0.19383287241016098,-0.23306435541122147,0.09417676479,1.753217617474108,0.6118582459496423,-1.2718552907027156, ,0.05002474515470257,0.02646317388691321,0.009453300605341247,0.0,0.02689043137864533,0.008065003006204125, ,0.7821300029754639
0.011092633409010424,0.02078885932458429,-0.08299431296745385, ,0.011465956107895532,0.02059660774618912,-0.08331606480033156, ,0.0005290129949807082, ,0.0055476323505819665,-0.00038785070761917237,-0.008589300278951943,-0.0006325553590862576,-0.009552303741716377,-0.005957329019440945, ,0.010232435299117616, ,0.009573222357468261, ,5.8548416842767486e-05, ,0.19432712731411134,-0.23277861429487517,0.09426880138,1.753217617474108,0.6122681554489386,-1.2718628294532426, ,0.0489159492569437,0.029804315816102635,0.009096979737292977,0.0,0.041453638401147165,-0.025489382459785784, ,0.7932240962982178
0.011149268906218292,0.020785215612063177,-0.08308378451663297, ,0.011537976318364857,0.02059433212576329,-0.08343438081278647, ,0.0005571783560730188, ,0.00542481344877026,-0.00023887176563858702,-0.008679541237314842,0.03257578316216278,0.03865497136325157,-0.003912658927771751, ,0.010238168623568711, ,0.05055084975015993, ,5.9077691534326395e-05, ,0.1948445504166844,-0.23246970497990618,0.09436472684000001,1.753217617474108,0.6129513379477659,-1.272338240231584, ,0.05185625221774359,0.02903823181103757,0.0094645344741533,0.0,0.09524455190441357,-0.05340932726795558, ,0.8054029941558838
0.011201150994500829,0.020784827362248647,-0.083168998922598, ,0.011609829668113428,0.020591998394410217,-0.08355238493674369, ,0.0005926095721011449, ,0.005943989853990334,7.89470173992573e-05,-0.009433654041019387,0.017705378970907622,0.013807662098981224,-0.003430553255501569, ,0.011150384593436126, ,0.022452881829054583, ,5.96805862758332e-05, ,0.19533880532063475,-0.23220713206218255,0.09445805972000001,1.753217617474108,0.6139077934461239,-1.2730364868173183, ,0.05398005776932354,0.027237928116667847,0.010223884159178435,0.0,0.07130568145495468,-0.03857105254622108, ,0.8172810077667236
0.011266745358773783,0.020787193747035054,-0.0832738685693129, ,0.011681516173395998,0.02058960712922344,-0.0836700777128601, ,0.0006066770027213919, ,0.006335466610627794,0.00019131852597019017,-0.010123216101618067,-0.04826654667489071,-0.02851856000900661,0.012909819473865257, ,0.011943795217300837, ,0.05606217696979137, ,6.0300520153804254e-05, ,0.19588711935470468,-0.23192911367871047,0.09456954066,1.753217617474108,0.6141810664456548,-1.2729326076641492, ,0.05277916660649098,0.027206691960570746,0.010748185910931175,0.0,0.02500804323245568,0.027573789699417203, ,0.8288378715515137
0.01133249035336252,0.02078601165436052,-0.08337552837563363, ,0.01175303585161703,0.02058715890584936,-0.08378745968120734, ,0.0006213600664705115, ,0.005561801247993801,-0.00015254348863519843,-0.009308817254557877,0.029425131287044503,0.040812772373044835,-0.0022713101486098726, ,0.010844859672529877, ,0.05031421936326277, ,6.0938252206746974e-05, ,0.19694513375847345,-0.23132674051452096,0.09477305819000001,1.7534273074175926,0.6151375219440128,-1.2730591030688994, ,0.051658650821159925,0.02957212264209124,0.010132831755725191,0.0,0.0972418339602925,-0.0502085111643344, ,0.8412139415740967
0.011448462103553443,0.020782306448961375,-0.08356228571861958, ,0.011824388721326544,0.020584654298488336,-0.08390453138127375, ,0.0005454532868564765, ,0.005666107078401376,-0.0003338921113162505,-0.008936341978322661,0.03638402445910791,0.041011713588236354,-0.005505682590244729, ,0.010586522626407652, ,0.05482479211355444, ,6.13736608595702e-05, ,0.1975011705254176,-0.23101010846667777,0.09487935397000001,1.7534273074175926,0.616093977442371,-1.273757349654634, ,0.05382696628387452,0.030641569763794244,0.00976030117647059,0.0,0.0998092510874728,-0.058699889259821766, ,0.8550920486450195
0.011505765405129794,0.020779669594543117,-0.08364850909631755, ,0.011895574802219854,0.02058209387989649,-0.08402129335196397, ,0.0005744176445198193, ,0.005810102282476912,-0.00021567198583941045,-0.008473511993963552,-0.03389452012575304,-0.00925751530366119,0.012084044645798247, ,0.010276390828017564, ,0.03513602197843571, ,6.1865726920101e-05, ,0.19802631636086487,-0.23072436735033144,0.09497268685000002,1.7534273074175926,0.6167771599411982,-1.2739877242125537, ,0.051630544917557544,0.027300616098524386,0.009096979737292977,0.0,0.04408263379412292,0.014411001992105467, ,0.8662459850311279
0.011567665982856051,0.0207767069926615,-0.08374291729345756, ,0.011966594115134874,0.020579478221386716,-0.08413774613159983, ,0.0005949223935697842, ,0.006524443962092834,-0.00018414917487840433,-0.00997308602038367,-0.0503433542309146,-0.04057131762050213,0.007822687294383795, ,0.011919090766626042, ,0.06465667042170892, ,6.239214581904024e-05, ,0.19855146219631215,-0.23043090350111092,0.09507250118,1.753217617474108,0.617050432940729,-1.2738838450593841, ,0.05364439884594165,0.030621794630032523,0.010500205352669746,0.0,0.013351000941905172,0.024451368787606245, ,0.8772330284118652
0.011567665982856051,0.0207767069926615,-0.08374291729345756, ,0.01203744668205042,0.02057680789283039,-0.08425389025792111, ,0.0007223205146342627, ,0.006524443962092834,-0.00018414917487840433,-0.00997308602038367,-0.0503433542309146,-0.04057131762050213,0.007822687294383795, ,0.011919090766626042, ,0.06465667042170892, ,6.334647090168922e-05, ,0.19855146219631215,-0.23043090350111092,0.09507250118,1.753217617474108,0.617050432940729,-1.2738838450593841, ,0.05364439884594165,0.030621794630032523,0.010500205352669746,0.0,0.013351000941905172,0.024451368787606245, ,0.8908390998840332
0.011630425356684845,0.020775241821732147,-0.08384350202672965, ,0.012108132526084902,0.02057408346265824,-0.08436972626808574, ,0.0007386344003039106, ,0.006108486648786808,-0.00014369649494349048,-0.009940171939900641,-0.019144011077834686,0.003988826538167301,0.007767031158310789, ,0.01166795937667996, ,0.019555147666424497, ,6.431636066213857e-05, ,0.19909205349750786,-0.23012199418614193,0.09518009325000001,1.753217617474108,0.6175969789397908,-1.2739211229734673, ,0.052720523088039324,0.030523300597771235,0.01064760128342246,0.0,0.059267009357776415,-0.003170514313174097, ,0.9006109237670898
0.011760168649039395,0.020776218023632866,-0.08407583781529439, ,0.012178651671493823,0.02057130549786235,-0.08448525469867046, ,0.0006202736232451168, ,0.005509915735675542,0.00011479854181074207,-0.00973964103372532,0.014471148732795269,0.011951488939416239,-0.005168248750915908, ,0.011190753217959586, ,0.018768381546451243, ,6.499520570744408e-05, ,0.20025046342864153,-0.2294501164260844,0.09543286980000001,1.753217617474108,0.6199197994358033,-1.2754068336356035, ,0.04611124468341632,0.026776789378801007,0.010451976062992127,0.0,0.06106991705227164,-0.0360458872797253, ,0.9107010364532471
0.011826778547208221,0.02077411978086981,-0.08418000460367443, ,0.012249004143668397,0.020568474563996915,-0.08460047608567142, ,0.0006303655103997971, ,0.006500765006199464,-0.00012128586260687601,-0.011161096730333735,-0.050553031252349036,-0.028128664498612364,0.009600909612628036, ,0.012916839247670547, ,0.05785179826143582, ,6.568147420601165e-05, ,0.2007756092640888,-0.22913348437824121,0.09554175816,1.753217617474108,0.6199197994358033,-1.2750801186750411, ,0.050855810052771046,0.032836311957948366,0.01172097977924945,0.0,0.023436894526707573,0.023785154450496723, ,0.9200949668884277
0.011895115254186505,0.020776671809711836,-0.08430357623929989, ,0.012319189969133176,0.02056559122518007,-0.08471539096450481, ,0.0006276828378400803, ,0.007031100824222064,0.000510678896824401,-0.012725023250620474,-0.04724481511228443,-0.05088791923799667,0.0027047329675365115, ,0.014547281136517216, ,0.06943812026340741, ,6.634653079892282e-05, ,0.20128530963378763,-0.228816852330398,0.09567138716000001,1.753217617474108,0.6200564359355687,-1.274783142878035, ,0.05112981765003813,0.02959979462210567,0.013340713165829148,0.0,0.0,0.020179286694197482, ,0.9295830726623535
0.011929006700541464,0.020778156234485968,-0.08436565044194355, ,0.01238920917554468,0.020562656044095018,-0.08482999987000703, ,0.0006883654853350059, ,0.007120634221286621,0.0004760274450342999,-0.012419031121991934,-0.03617119349609338,-0.041279196944793685,0.006175149526214573, ,0.01432349007228295, ,0.054884670390918704, ,6.713033921945114e-05, ,0.2015556052843855,-0.22867012040578774,0.09573749795000001,1.7530079275306234,0.6203297089350996,-1.2748426212051467, ,0.05407233137234802,0.029127360822121175,0.013120932059308074,-0.004476648313503992,0.014297276969421485,0.009579955256380949, ,0.939629077911377
0.01201806368760299,0.0207846241638597,-0.08454222559866013, ,0.012459061791689086,0.020559669581991496,-0.08494430333643589, ,0.0006377698636074791, ,0.00565406450949392,0.0005602348984871987,-0.012236738737260226,0.10621795176925916,0.09261047262766828,-0.018098613796241284, ,0.013491481888323708, ,0.1409217961992109, ,6.778711784447338e-05, ,0.20228926490743682,-0.2282530928305796,0.09592027484000001,1.7530079275306234,0.6221059834320504,-1.2762910539532, ,0.0496063468679931,0.02917213082031072,0.013430701112984824,-0.004417974833018443,0.15432869061587678,-0.13109830221451083, ,0.9495549201965332
0.012086002116432907,0.020788447714476306,-0.08467008789003763, ,0.012528747847481602,0.02055663239868718,-0.08505830189747002, ,0.0006328287592729717, ,0.00690910945136752,0.00013291102307184594,-0.012480747781149625,-0.013969445596362028,-0.01934715771647451,-0.0002663436731343849, ,0.014266132059100716, ,0.023863311152121633, ,6.841914616716284e-05, ,0.2028530244072552,-0.22791329258411372,0.09606675561000001,1.7530079275306234,0.6227891659308775,-1.276684785991401, ,0.05295588256611093,0.033134406968739795,0.01318610225165563,-0.004257586483165692,0.03627996416776626,-0.016053417248370977, ,0.9592599868774414
0.0121607828057948,0.020789562160691055,-0.08479766144658432, ,0.012598267373962267,0.020553545052568928,-0.08517199608621094, ,0.0006222726453375542, ,0.006883182187596096,2.7461073313526664e-05,-0.011581285746400249,-0.05333489604435015,-0.04817307028988964,0.00928279996543158, ,0.013472384001280592, ,0.07186971287594587, ,6.90152672618474e-05, ,0.20337044750982824,-0.22759666053627053,0.09619249574000001,1.7530079275306234,0.6227891659308775,-1.2764397497709794, ,0.05196984751285365,0.031611239693028245,0.012168687181054242,-0.004124309041895393,0.004540179414843545,0.034496752956945965, ,0.968501091003418
0.012218904160711776,0.020788413175783726,-0.08489716848651359, ,0.01266762040329652,0.020550408100594213,-0.08528538643518188, ,0.0006393010697969731, ,0.007123258383702218,-0.0001129666583099916,-0.011359223416729439,-0.024678172710160828,-0.04265449538147779,-0.004862653033772084, ,0.013408412586807139, ,0.04927898127435807, ,6.963468775340053e-05, ,0.2038647024137786,-0.22729547395417576,0.09630527297000001,1.7527982375871392,0.6230624389304085,-1.2762541918776693, ,0.05582173032851222,0.03280226116780877,0.011976550015037595,-0.0009923569257098278,0.014053373418087182,-0.006394296445647443, ,0.9782619476318359
0.012296822186241712,0.020788830575578038,-0.08503033858438246, ,0.012736806968771577,0.02054722209829266,-0.08539847347632937, ,0.0006224825811400475, ,0.006707036639974962,0.0002228527683883735,-0.011982028697697706,0.03859761439197697,0.029225009348479453,-0.010009204735711218, ,0.013733281310699069, ,0.04841360099389583, ,7.020616513334437e-05, ,0.20449796650946503,-0.226924782776213,0.09644786487000001,1.7527982375871392,0.6237456214292356,-1.2768112813961514, ,0.05582173032851222,0.03148538206983105,0.012971344885993488,-0.0009923569257098278,0.08976611221031888,-0.06388451032110455, ,0.9878780841827393
0.0123671409056477,0.020788851152222232,-0.0851498567049764, ,0.01280582710479566,0.02054398759976712,-0.08551125774102376, ,0.0006188816118612057, ,0.007192543965420379,-0.00014377855554625633,-0.011696244383926906,0.005252369808676643,-0.010187831941088295,-0.0015842115599254576, ,0.013731551028783375, ,0.011462071774937002, ,7.09046299088151e-05, ,0.20449796650946503,-0.226924782776213,0.09644786487000001,1.7527982375871392,0.6237456214292356,-1.2768112813961514, ,0.05582173032851222,0.03148538206983105,0.012971344885993488,-0.0009923569257098278,0.08976611221031888,-0.06388451032110455, ,0.9955520629882812
0.0123671409056477,0.020788851152222232,-0.0851498567049764, ,0.012874680846895427,0.0205407051576954,-0.08562373976005945, ,0.0007373861786447417, ,0.007192543965420379,-0.00014377855554625633,-0.011696244383926906,0.005252369808676643,-0.010187831941088295,-0.0015842115599254576, ,0.013731551028783375, ,0.011462071774937002, ,7.183448166908044e-05, ,0.20503855781066074,-0.22663131892699245,0.09656841984,1.7525885476436547,0.6244288039280628,-1.2773683709146335, ,0.05872335492479627,0.03327382242583127,0.012743049216000004,-0.007914989377981345,0.05472481680472975,-0.03783338350834896, ,1.0034639835357666
0.012437602167876106,0.020786464602151944,-0.08526186208019441, ,0.012943368231714466,0.020537375323331306,-0.08573592006365488, ,0.0007365974150351982, ,0.007552031405849592,-0.0004372426779514773,-0.011940713462952033,-0.02905029636162342,-0.040520905479297445,0.0024361143537545748, ,0.014135239563540642, ,0.04985843215359563, ,7.274761071046027e-05, ,0.20564865370772448,-0.2262606277490297,0.09669545626,1.7525885476436547,0.6248387134273592,-1.2777843033658636, ,0.05953384037545218,0.03743469095008709,0.012572069076558801,-0.007914989377981345,0.02177452413518451,-0.006966753111825343, ,1.0116279125213623
0.012486040922492912,0.02078419049651983,-0.08533939294830617, ,0.013011889297011327,0.020533998646506298,-0.085847799181454, ,0.0007730390499194799, ,0.007836457896017593,-0.00019867460627634716,-0.012972728976405128,-0.024634953234697252,-0.037898210785173234,0.001497023969332716, ,0.015157217457386326, ,0.04520127137789683, ,7.371948290214906e-05, ,0.20602706761856146,-0.22602122302992872,0.09677712253000001,1.7525885476436547,0.6249753499271247,-1.2778957212695599, ,0.06052100864698392,0.03749385284807221,0.013684545979381443,-0.007914989377981345,0.025592231204996017,-0.0113579549272987, ,1.0196740627288818
0.012600531357723162,0.02078644285775146,-0.0855431785897928, ,0.013080244081657687,0.0205305756756306,-0.08595937764252601, ,0.000684699907906504, ,0.008510820026306815,0.0004947052047439995,-0.015783747189812364,0.012127197063025879,-0.0037178961637420334,-0.003384425277585495, ,0.017938937151116163, ,0.012684269032378704, ,7.449912685474487e-05, ,0.20692290463197152,-0.225480631728733,0.09699489925000002,1.7525885476436547,0.6259318054254827,-1.2786756465954348, ,0.06455574255678284,0.03755320204134183,0.016855885206349206,-0.007804461865391006,0.06585378068158715,-0.046195072022372254, ,1.0279569625854492
0.012688500952814293,0.0207925984517197,-0.08570686942035069, ,0.01314843262563661,0.020527106957694878,-0.08607065597536609, ,0.0006437107538907819, ,0.008510820026306815,0.0004947052047439995,-0.015783747189812364,0.012127197063025879,-0.0037178961637420334,-0.003384425277585495, ,0.017938937151116163, ,0.012684269032378704, ,7.51850678199667e-05, ,0.20756389146053214,-0.22510221781789602,0.09716860211000002,1.7525885476436547,0.626341714924779,-1.279009900306524, ,0.06567262391589673,0.040710828639412604,0.01765943627494457,-0.007405503549055156,0.040024516940739996,-0.0260893933938142, ,1.035593032836914
0.012688500952814293,0.0207925984517197,-0.08570686942035069, ,0.013216454970040153,0.020523593038271292,-0.08618163470789632, ,0.0007592769159060186, ,0.009015946033209786,0.00038747660386704284,-0.016693896668042416,-0.012464109443274514,-0.029265242502878396,-0.0023745435279805944, ,0.018976923010740526, ,0.03180891614654906, ,7.608769901017566e-05, ,0.20756389146053214,-0.22510221781789602,0.09716860211000002,1.7525885476436547,0.626341714924779,-1.279009900306524, ,0.06567262391589673,0.040710828639412604,0.01765943627494457,-0.007405503549055156,0.040024516940739996,-0.0260893933938142, ,1.0434730052947998
0.012775155599533662,0.0207962218250431,-0.08586323657404804, ,0.013284311157067543,0.02052003446151533,-0.08629231436746547, ,0.0007208512983577321, ,0.009063530556871209,0.0002655459727593462,-0.015575485012819714,-0.008661962676375035,-0.030536420104336718,-0.002906608463369735, ,0.018022592327508226, ,0.03174116622835817, ,7.690117655376361e-05, ,0.2082048782890928,-0.2247160811741848,0.09733452723000001,1.7525885476436547,0.6267516244240754,-1.2792624752774728, ,0.0687658996800513,0.039197414935345225,0.016575246118626433,-0.007058971860257744,0.041869054992140116,-0.028310709752074767, ,1.0533599853515625
0.012839705290606403,0.020795150803198756,-0.08597017110297953, ,0.013352001230024287,0.02051643177016667,-0.08640269548084947, ,0.0007260914311367242, ,0.008529930091473655,-0.00034972219963878934,-0.013684584405886416,0.0038285023157396615,-0.014518447123686454,-0.008863909839951474, ,0.016129161892180808, ,0.015014734661552369, ,7.771219733849552e-05, ,0.2087145786587916,-0.22442261732496424,0.09744860075,1.75237885770017,0.6271615339233717,-1.279596728988562, ,0.06832033229551533,0.041403552163381666,0.014613588550458717,-0.0030849633111280166,0.0573401429146995,-0.041383753820107526, ,1.062777042388916
0.012977134269918162,0.020779098589383083,-0.08617457240677273, ,0.013419525233319005,0.020512785505550905,-0.08651277857425294, ,0.0006172648012324841, ,0.008029387564255705,-0.0011100277622903571,-0.010684629832571693,-0.007950866410472587,-0.03142514224263413,0.0018428723946338277, ,0.013411358654109603, ,0.03241536213581863, ,7.830145889980033e-05, ,0.20985754312417682,-0.22370440316766138,0.09766637747000001,1.751959477813201,0.6281179894217297,-1.2802132968341557, ,0.06836955443693861,0.04106315082582033,0.011410323438395417,-0.014415049109907234,0.04225561034195343,-0.03273959248305725, ,1.0702829360961914
0.012977134269918162,0.020779098589383083,-0.08617457240677273, ,0.01348688321246223,0.020509096207580832,-0.08662256417330802, ,0.000730371065614659, ,0.008029387564255705,-0.0011100277622903571,-0.010684629832571693,-0.007950866410472587,-0.03142514224263413,0.0018428723946338277, ,0.013411358654109603, ,0.03241536213581863, ,7.92488139455274e-05, ,0.20985754312417682,-0.22370440316766138,0.09766637747000001,1.751959477813201,0.6281179894217297,-1.2802132968341557, ,0.06836955443693861,0.04106315082582033,0.011410323438395417,-0.014415049109907234,0.04225561034195343,-0.03273959248305725, ,1.0758869647979736
0.013061339011044094,0.0207666818029267,-0.08628383539380616, ,0.013554075214063942,0.02050536441475789,-0.0867320528030765, ,0.0007155239961725962, ,0.008679921411242538,-0.0012806536237177253,-0.011612076168505582,-0.015444038252736693,-0.03934747608306298,0.0008949987562461167, ,0.014554086105024365, ,0.042269870836441924, ,8.015713629217382e-05, ,0.2105757572814797,-0.22326420739383057,0.09778304357,1.751959477813201,0.6285278989210261,-1.280384193064964, ,0.07294153847691835,0.0453185012218103,0.012347915906976746,-0.013890756499713478,0.03859557492942358,-0.02947092807111018, ,1.082679033279419
0.013061339011044094,0.0207666818029267,-0.08628383539380616, ,0.013621101285833125,0.020501590664173352,-0.08684124498804899, ,0.0008332542060358849, ,0.008679921411242538,-0.0012806536237177253,-0.011612076168505582,-0.015444038252736693,-0.03934747608306298,0.0008949987562461167, ,0.014554086105024365, ,0.042269870836441924, ,8.127770868756015e-05, ,0.2105757572814797,-0.22326420739383057,0.09778304357,1.751959477813201,0.6285278989210261,-1.280384193064964, ,0.07294153847691835,0.0453185012218103,0.012347915906976746,-0.013890756499713478,0.03859557492942358,-0.02947092807111018, ,1.088305950164795
0.013149971929508805,0.02075887537704703,-0.08641740536461513, ,0.01368796147657372,0.020497775491510002,-0.08695014125214612, ,0.0008008829058245579, ,0.00887050581335023,-0.00042245175933838965,-0.014381446503628829,0.02778863845097384,0.011537881709269698,-0.0028821363467600083, ,0.01690237682725084, ,0.03008871094116473, ,8.232479473974413e-05, ,0.21131713963740525,-0.22280856615425132,0.09792693176000002,1.751959477813201,0.6293477179196186,-1.2808893430068613, ,0.072551178561522,0.043490807313689636,0.01551004042843233,-0.012651877616729179,0.09141121545292591,-0.06738924001502591, ,1.094208002090454
0.013149971929508805,0.02075887537704703,-0.08641740536461513, ,0.013754655836184324,0.02049391943104326,-0.08705874211871874, ,0.0009204113821978022, ,0.00887050581335023,-0.00042245175933838965,-0.014381446503628829,0.02778863845097384,0.011537881709269698,-0.0028821363467600083, ,0.01690237682725084, ,0.03008871094116473, ,8.358355548362931e-05, ,0.21131713963740525,-0.22280856615425132,0.09792693176000002,1.751959477813201,0.6293477179196186,-1.2808893430068613, ,0.072551178561522,0.043490807313689636,0.01551004042843233,-0.012651877616729179,0.09141121545292591,-0.06738924001502591, ,1.1006388664245605
0.013254392872744825,0.020758154686413854,-0.08659586112650304, ,0.013821184415655994,0.02049002301564271,-0.08716704811054816, ,0.0008481755813089146, ,0.010320603757216858,8.694795418614067e-05,-0.01858335885380651,0.010254470849769763,-0.004870208028393598,-0.002885028382729152, ,0.021257084657816196, ,0.01135213118259192, ,8.469401071570743e-05, ,0.21213574932207305,-0.22231431125030096,0.09811878268000002,1.751959477813201,0.6303041734179768,-1.2815059108524554, ,0.0772776397055951,0.04844152197982173,0.01983662704856787,-0.01155991900977639,0.07881427015212622,-0.054941810977588816, ,1.1084890365600586
0.013364082067176021,0.020764183141225186,-0.08680209043926783, ,0.013887547267069781,0.02048608677677349,-0.08727505974984769, ,0.0007583227361562164, ,0.010025175005037516,0.0008302740420115623,-0.019180282727643806,-0.000141761109437231,-0.007843123898070088,0.0028482963674738727, ,0.02165817938744664, ,0.007844239470461372, ,8.562606377302554e-05, ,0.21293119080811818,-0.22182777907922482,0.09833915198000001,1.751959477813201,0.6311239924165695,-1.282011060794353, ,0.07135108387854945,0.04143971247094794,0.02050040092664093,-0.01065598158789507,0.06909673206729817,-0.03708808534312782, ,1.1142749786376953
0.013364082067176021,0.020764183141225186,-0.08680209043926783, ,0.01395374444359523,0.02048211124449764,-0.08738277755826121, ,0.0008743362072181714, ,0.010025175005037516,0.0008302740420115623,-0.019180282727643806,-0.000141761109437231,-0.007843123898070088,0.0028482963674738727, ,0.02165817938744664, ,0.007844239470461372, ,8.676109689048711e-05, ,0.21293119080811818,-0.22182777907922482,0.09833915198000001,1.751959477813201,0.6311239924165695,-1.282011060794353, ,0.07135108387854945,0.04143971247094794,0.02050040092664093,-0.01065598158789507,0.06909673206729817,-0.03708808534312782, ,1.1198530197143555
0.013464482633526963,0.020768064658318694,-0.08698332170824423, ,0.014019775999488976,0.02047809694747532,-0.08749020205686533, ,0.0008058285695055869, ,0.010604470972753197,-0.00013036476556801588,-0.018703942812943596,-0.028473143733835783,-0.024117824284560357,0.0060433839169392834, ,0.02150137847520319, ,0.03731470317720604, ,8.775843743680178e-05, ,0.21365712769829528,-0.22138758330539401,0.09853229919,1.751959477813201,0.6316705384156313,-1.2822116961887167, ,0.07772067285706043,0.05061170216451775,0.01986136099750624,-0.00996302017071741,0.05835476059492896,-0.017073324705706952, ,1.125972032546997
0.013572269316183511,0.02076813241011726,-0.08717762986192593, ,0.01408564199009137,0.020474044412966647,-0.0875973337661691, ,0.000725389977612268, ,0.010604470972753197,-0.00013036476556801588,-0.018703942812943596,-0.028473143733835783,-0.024117824284560357,0.0060433839169392834, ,0.02150137847520319, ,0.03731470317720604, ,8.85986459191688e-05, ,0.21365712769829528,-0.22138758330539401,0.09853229919,1.751959477813201,0.6316705384156313,-1.2822116961887167, ,0.07772067285706043,0.05061170216451775,0.01986136099750624,-0.00996302017071741,0.05835476059492896,-0.017073324705706952, ,1.1317739486694336
0.013572269316183511,0.02076813241011726,-0.08717762986192593, ,0.014151342471826476,0.020469954166832564,-0.08770417320611454, ,0.0008375463435917904, ,0.010526907192664066,0.0001578055122580943,-0.019172377824749245,0.002202241823640282,6.284295248089e-05,4.158320546348031e-06, ,0.021872831299984876, ,0.0022025502964855845, ,8.963255262049662e-05, ,0.2144525691843404,-0.22087016020282096,0.09873970559,1.751959477813201,0.6324903574142238,-1.2827985248707545, ,0.07740370437069395,0.04876512926951222,0.02050040092664093,-0.009315722240922896,0.0834215799668341,-0.04523470106296551, ,1.1378920078277588
0.013572269316183511,0.02076813241011726,-0.08717762986192593, ,0.014216877502198957,0.020465826733536537,-0.08781072089607683, ,0.0009527395725450463, ,0.010526907192664066,0.0001578055122580943,-0.019172377824749245,0.002202241823640282,6.284295248089e-05,4.158320546348031e-06, ,0.021872831299984876, ,0.0022025502964855845, ,9.102620030933275e-05, ,0.2144525691843404,-0.22087016020282096,0.09873970559,1.751959477813201,0.6324903574142238,-1.2827985248707545, ,0.07740370437069395,0.04876512926951222,0.02050040092664093,-0.009315722240922896,0.0834215799668341,-0.04523470106296551, ,1.1428329944610596
0.013572269316183511,0.02076813241011726,-0.08717762986192593, ,0.014282247139791657,0.020461662636146027,-0.08791697735486556, ,0.0010698723978538106, ,0.010526907192664066,0.0001578055122580943,-0.019172377824749245,0.002202241823640282,6.284295248089e-05,4.158320546348031e-06, ,0.021872831299984876, ,0.0022025502964855845, ,9.262013208174774e-05, ,0.2144525691843404,-0.22087016020282096,0.09873970559,1.751959477813201,0.6324903574142238,-1.2827985248707545, ,0.07740370437069395,0.04876512926951222,0.02050040092664093,-0.009315722240922896,0.0834215799668341,-0.04523470106296551, ,1.14689302444458
0.013572269316183511,0.02076813241011726,-0.08717762986192593, ,0.014347451444265438,0.02045746239633348,-0.08802294310072424, ,0.0011882666623488753, ,0.010526907192664066,0.0001578055122580943,-0.019172377824749245,0.002202241823640282,6.284295248089e-05,4.158320546348031e-06, ,0.021872831299984876, ,0.0022025502964855845, ,9.441445479764287e-05, ,0.2144525691843404,-0.22087016020282096,0.09873970559,1.751959477813201,0.6324903574142238,-1.2827985248707545, ,0.07740370437069395,0.04876512926951222,0.02050040092664093,-0.009315722240922896,0.0834215799668341,-0.04523470106296551, ,1.1507809162139893
0.01378436729825359,0.02076527098081983,-0.08753895559150592, ,0.014412490476355866,0.020453226534378106,-0.08812861865133097, ,0.0009163039820641772, ,0.010451194440175554,-0.00022903863397922614,-0.01671020869194891,-0.012016111548777996,-0.016411692168922992,0.0047698106867630026, ,0.019710682343609932, ,0.02034033612567181, ,9.571120180739135e-05, ,0.21606662035505333,-0.21991254132641713,0.09912729630000001,1.7513304079827472,0.6341299954114091,-1.28389050349469, ,0.08069467819597856,0.04640437240023021,0.01797834257336343,-0.01036675325017599,0.06967623998566186,-0.029248764358916553, ,1.15606689453125
0.01378436729825359,0.02076527098081983,-0.08753895559150592, ,0.014477364297871807,0.020448955569167024,-0.0882340045237997, ,0.0010312096292275728, ,0.010451194440175554,-0.00022903863397922614,-0.01671020869194891,-0.012016111548777996,-0.016411692168922992,0.0047698106867630026, ,0.019710682343609932, ,0.02034033612567181, ,9.720283098254728e-05, ,0.21606662035505333,-0.21991254132641713,0.09912729630000001,1.7513304079827472,0.6341299954114091,-1.28389050349469, ,0.08069467819597856,0.04640437240023021,0.01797834257336343,-0.01036675325017599,0.06967623998566186,-0.029248764358916553, ,1.159822940826416
0.013894789049520392,0.020758950700199848,-0.08771055139082501, ,0.014542072971693118,0.02044465001819685,-0.08833910123467942, ,0.0009554246704059192, ,0.01159250732499899,-0.0009334840799863002,-0.018185880631799912,0.005121110399736163,-0.02482398206646575,-0.011688318227014324, ,0.021586659606382324, ,0.025346673710637195, ,9.854976728067264e-05, ,0.21692384370409226,-0.21938739549096986,0.09931136948000001,1.7513304079827472,0.6348131779102364,-1.2841208780526099, ,0.08935681879328698,0.05775833326748069,0.019425379902439026,-0.009418379332549786,0.07009962460081225,-0.06016548336486123, ,1.1641669273376465
0.013894789049520392,0.020758950700199848,-0.08771055139082501, ,0.014606616561769476,0.02044031039757492,-0.08844390929995537, ,0.0010705343864330912, ,0.01159250732499899,-0.0009334840799863002,-0.018185880631799912,0.005121110399736163,-0.02482398206646575,-0.011688318227014324, ,0.021586659606382324, ,0.025346673710637195, ,0.00010009021675487324, ,0.21692384370409226,-0.21938739549096986,0.09931136948000001,1.7513304079827472,0.6348131779102364,-1.2841208780526099, ,0.08935681879328698,0.05775833326748069,0.019425379902439026,-0.009418379332549786,0.07009962460081225,-0.06016548336486123, ,1.1678640842437744
0.013894789049520392,0.020758950700199848,-0.08771055139082501, ,0.014670995133117825,0.020435937222020806,-0.0885484292350494, ,0.0011869595077933749, ,0.01159250732499899,-0.0009334840799863002,-0.018185880631799912,0.005121110399736163,-0.02482398206646575,-0.011688318227014324, ,0.021586659606382324, ,0.025346673710637195, ,0.00010182445062883394, ,0.21785057164899918,-0.21881591325827726,0.09953562765000001,1.7513304079827472,0.6359062699083599,-1.2850122212821813, ,0.09098460360351944,0.05625189185445807,0.0251243083911672,-0.008545768873547124,0.139747786172942,-0.10273439446041127, ,1.172327995300293
0.014016939405244757,0.020757091178715794,-0.08791871346623961, ,0.014735208751820331,0.02043153100486761,-0.0886526615548203, ,0.0010773022221073343, ,0.012427089329689205,0.0005235774418274789,-0.023653303012634293,0.057187703052427964,0.04342596593926118,-0.013561050210663618, ,0.026724247902479136, ,0.0718069668924769, ,0.00010335449147095245, ,0.21785057164899918,-0.21881591325827726,0.09953562765000001,1.7513304079827472,0.6359062699083599,-1.2850122212821813, ,0.09098460360351944,0.05625189185445807,0.0251243083911672,-0.008545768873547124,0.139747786172942,-0.10273439446041127, ,1.176400899887085
0.014016939405244757,0.020757091178715794,-0.08791871346623961, ,0.014799257485023504,0.02042709225806327,-0.08875660677356392, ,0.001192889793752721, ,0.012427089329689205,0.0005235774418274789,-0.023653303012634293,0.057187703052427964,0.04342596593926118,-0.013561050210663618, ,0.026724247902479136, ,0.0718069668924769, ,0.00010507557491041285, ,0.21785057164899918,-0.21881591325827726,0.09953562765000001,1.7513304079827472,0.6359062699083599,-1.2850122212821813, ,0.09098460360351944,0.05625189185445807,0.0251243083911672,-0.008545768873547124,0.139747786172942,-0.10273439446041127, ,1.1803979873657227
0.01414559300034433,0.02076471082434228,-0.08817049768278856, ,0.014863141400935077,0.02042262149217227,-0.08886026540501418, ,0.0010524639323982476, ,0.013490298855510474,0.0012228073582729565,-0.026827191751432593,0.050019803974602546,0.030661769411979872,-0.020484564668266494, ,0.03005298052297919, ,0.058669506539348514, ,0.00010654046670619967, ,0.21876185412815768,-0.21825215375845886,0.09980655226000001,1.751120718039263,0.6372726349060143,-1.286044721579005, ,0.09294509457244934,0.05645267195625864,0.028856542608695655,-0.0014186781136458677,0.13023043333822484,-0.097987598746171, ,1.185365915298462
0.01414559300034433,0.02076471082434228,-0.08817049768278856, ,0.014926860568822505,0.020418119216376745,-0.08896363796234336, ,0.0011660086874977352, ,0.013490298855510474,0.0012228073582729565,-0.026827191751432593,0.050019803974602546,0.030661769411979872,-0.020484564668266494, ,0.03005298052297919, ,0.058669506539348514, ,0.00010819198794378258, ,0.21876185412815768,-0.21825215375845886,0.09980655226000001,1.751120718039263,0.6372726349060143,-1.286044721579005, ,0.09294509457244934,0.05645267195625864,0.028856542608695655,-0.0014186781136458677,0.13023043333822484,-0.097987598746171, ,1.1894910335540771
0.014182708246805079,0.020768657797206214,-0.08824625771452778, ,0.014990415059011265,0.020413585938478033,-0.08906672495816215, ,0.0012048372575671545, ,0.01410028809478599,0.0014294518926825897,-0.02798248258595346,0.03909662962836596,0.016480317856083365,-0.019414124753266412, ,0.03136687406712129, ,0.04242794089200844, ,0.00010989916114184749, ,0.2190167043130071,-0.21809769910097437,0.09988821853,1.751120718039263,0.6376825444053106,-1.286378975290094, ,0.0956622394742649,0.056926779579166635,0.03005436135849057,-0.0014186781136458677,0.11816613190651756,-0.08814996987401699, ,1.1954240798950195
0.014182708246805079,0.020768657797206214,-0.08824625771452778, ,0.015053804942883244,0.02040902216489768,-0.08916952690452026, ,0.0013193078636670186, ,0.01410028809478599,0.0014294518926825897,-0.02798248258595346,0.03909662962836596,0.016480317856083365,-0.019414124753266412, ,0.03136687406712129, ,0.04242794089200844, ,0.00011179160441445218, ,0.2190167043130071,-0.21809769910097437,0.09988821853,1.751120718039263,0.6376825444053106,-1.286378975290094, ,0.0956622394742649,0.056926779579166635,0.03005436135849057,-0.0014186781136458677,0.11816613190651756,-0.08814996987401699, ,1.1992321014404297
0.014442587250288482,0.020788087117991093,-0.08875703120794809, ,0.015117030292873656,0.020404428400679544,-0.08927204431290711, ,0.0009312926110198782, ,0.014901960180968583,0.0006198057648350705,-0.02769402352368557,-0.03546056487117034,-0.037568458200698124,0.007922982716400788, ,0.03145491242002981, ,0.051660666103090586, ,0.00011300551419522571, ,0.22073115101108493,-0.21702423923145717,0.10043266033,1.7507013381522938,0.6391855459027305,-1.2871144997899113, ,0.10010225902792276,0.063054446218253,0.02949779911111111,-0.015176917985982214,0.06876579020748594,-0.022648928606524142, ,1.2032198905944824
0.014442587250288482,0.020788087117991093,-0.08875703120794809, ,0.015180091182469524,0.020399805149490753,-0.08937427769425224, ,0.0010371442338941183, ,0.014901960180968583,0.0006198057648350705,-0.02769402352368557,-0.03546056487117034,-0.037568458200698124,0.007922982716400788, ,0.03145491242002981, ,0.051660666103090586, ,0.00011439206668326615, ,0.22073115101108493,-0.21702423923145717,0.10043266033,1.7507013381522938,0.6391855459027305,-1.2871144997899113, ,0.10010225902792276,0.063054446218253,0.02949779911111111,-0.015176917985982214,0.06876579020748594,-0.022648928606524142, ,1.2070109844207764
0.014442587250288482,0.020788087117991093,-0.08875703120794809, ,0.015242987686209183,0.02039515291362282,-0.08947622755892498, ,0.0011455485751564844, ,0.014901960180968583,0.0006198057648350705,-0.02769402352368557,-0.03546056487117034,-0.037568458200698124,0.007922982716400788, ,0.03145491242002981, ,0.051660666103090586, ,0.000116151719428101, ,0.22073115101108493,-0.21702423923145717,0.10043266033,1.7507013381522938,0.6391855459027305,-1.2871144997899113, ,0.10010225902792276,0.063054446218253,0.02949779911111111,-0.015176917985982214,0.06876579020748594,-0.022648928606524142, ,1.2090249061584473
0.014442587250288482,0.020788087117991093,-0.08875703120794809, ,0.015305719879679231,0.020390472193993352,-0.08957789441673547, ,0.001255751556338049, ,0.014901960180968583,0.0006198057648350705,-0.02769402352368557,-0.03546056487117034,-0.037568458200698124,0.007922982716400788, ,0.03145491242002981, ,0.051660666103090586, ,0.00011809311608382493, ,0.22073115101108493,-0.21702423923145717,0.10043266033,1.7507013381522938,0.6391855459027305,-1.2871144997899113, ,0.10010225902792276,0.063054446218253,0.02949779911111111,-0.015176917985982214,0.06876579020748594,-0.022648928606524142, ,1.2110459804534912
0.014593721758470977,0.020790103183374063,-0.0890289745675169, ,0.015368287839511274,0.02038576349014781,-0.08967927877693573, ,0.0010891917949581982, ,0.015122902991908905,-9.741111735853234e-05,-0.02679362256270988,0.001546914738770568,0.017929598125818513,0.004189956971900575, ,0.03076702608087802, ,0.017995822440862744, ,0.00011974464444925755, ,0.2217968881477279,-0.21636008420427386,0.10072432558000001,1.7504916482088093,0.6402786379008539,-1.2876791280589206, ,0.10932827368487416,0.06931843795359444,0.028856542608695655,-0.012274165140911366,0.13590466313860647,-0.06014934822455134, ,1.2131969928741455
0.014593721758470977,0.020790103183374063,-0.0890289745675169, ,0.015430691643382023,0.020381027300260385,-0.08978038114821886, ,0.0011968598564223998, ,0.015122902991908905,-9.741111735853234e-05,-0.02679362256270988,0.001546914738770568,0.017929598125818513,0.004189956971900575, ,0.03076702608087802, ,0.017995822440862744, ,0.00012157336297552774, ,0.2217968881477279,-0.21636008420427386,0.10072432558000001,1.7504916482088093,0.6402786379008539,-1.2876791280589206, ,0.10932827368487416,0.06931843795359444,0.028856542608695655,-0.012274165140911366,0.13590466313860647,-0.06014934822455134, ,1.215230941772461
0.014593721758470977,0.020790103183374063,-0.0890289745675169, ,0.01549293137001134,0.020376264121135294,-0.08988120203872005, ,0.0013061900158838065, ,0.015122902991908905,-9.741111735853234e-05,-0.02679362256270988,0.001546914738770568,0.017929598125818513,0.004189956971900575, ,0.03076702608087802, ,0.017995822440862744, ,0.0001235811878109655, ,0.2217968881477279,-0.21636008420427386,0.10072432558000001,1.7504916482088093,0.6402786379008539,-1.2876791280589206, ,0.10932827368487416,0.06931843795359444,0.028856542608695655,-0.012274165140911366,0.13590466313860647,-0.06014934822455134, ,1.2171440124511719
0.014593721758470977,0.020790103183374063,-0.0890289745675169, ,0.015555007099158587,0.020371474448208655,-0.08998174195601698, ,0.0014167163515384196, ,0.015122902991908905,-9.741111735853234e-05,-0.02679362256270988,0.001546914738770568,0.017929598125818513,0.004189956971900575, ,0.03076702608087802, ,0.017995822440862744, ,0.0006882371959260005, ,0.2217968881477279,-0.21636008420427386,0.10072432558000001,1.7504916482088093,0.6402786379008539,-1.2876791280589206, ,0.10932827368487416,0.06931843795359444,0.028856542608695655,-0.012274165140911366,0.13590466313860647,-0.06014934822455134, ,1.2190070152282715
0.014593721758470977,0.020790103183374063,-0.0890289745675169, ,0.015616918911622486,0.020366658775549516,-0.09008200140712996, ,0.0015281044158305082, ,0.015122902991908905,-9.741111735853234e-05,-0.02679362256270988,0.001546914738770568,0.017929598125818513,0.004189956971900575, ,0.03076702608087802, ,0.017995822440862744, ,0.0006959423997783355, ,0.2217968881477279,-0.21636008420427386,0.10072432558000001,1.7504916482088093,0.6402786379008539,-1.2876791280589206, ,0.10932827368487416,0.06931843795359444,0.028856542608695655,-0.012274165140911366,0.13590466313860647,-0.06014934822455134, ,1.2209579944610596
0.014593721758470977,0.020790103183374063,-0.0890289745675169, ,0.015678666889238437,0.02036181759586135,-0.09018198089852313, ,0.0016401091672774578, ,0.015122902991908905,-9.741111735853234e-05,-0.02679362256270988,0.001546914738770568,0.017929598125818513,0.004189956971900575, ,0.03076702608087802, ,0.017995822440862744, ,0.0007045257340283276, ,0.22294757534598736,-0.2156187018483483,0.10101728712000001,1.7502819582653246,0.6419182758980392,-1.288934464163137, ,0.12340304493949386,0.07855707082654866,0.031542201029702975,-0.022227112072503028,0.19682584383276794,-0.12908815642430738, ,1.2228710651397705
0.014749186828527678,0.02078509087076329,-0.08930015892105637, ,0.01574025111487598,0.020356951400483634,-0.09028168093610385, ,0.0014590741213897503, ,0.01655789831929318,-0.0004447555329849879,-0.029088157947681603,0.06047418845434977,0.05952640465435172,-0.0030035262379855127, ,0.03347361254817659, ,0.08485575699664336, ,0.0007113234672477998, ,0.22294757534598736,-0.2156187018483483,0.10101728712000001,1.7502819582653246,0.6419182758980392,-1.288934464163137, ,0.12340304493949386,0.07855707082654866,0.031542201029702975,-0.022227112072503028,0.19682584383276794,-0.12908815642430738, ,1.2251739501953125
0.014749186828527678,0.02078509087076329,-0.08930015892105637, ,0.01580167167243825,0.02035206067939281,-0.09038110202522358, ,0.00156961061660096, ,0.01655789831929318,-0.0004447555329849879,-0.029088157947681603,0.06047418845434977,0.05952640465435172,-0.0030035262379855127, ,0.03347361254817659, ,0.08485575699664336, ,0.0007189867453670245, ,0.22294757534598736,-0.2156187018483483,0.10101728712000001,1.7502819582653246,0.6419182758980392,-1.288934464163137, ,0.12340304493949386,0.07855707082654866,0.031542201029702975,-0.022227112072503028,0.19682584383276794,-0.12908815642430738, ,1.2273900508880615
0.014749186828527678,0.02078509087076329,-0.08930015892105637, ,0.015862928646858263,0.020347145921204384,-0.09048024467067882, ,0.0016807197842604337, ,0.01655789831929318,-0.0004447555329849879,-0.029088157947681603,0.06047418845434977,0.05952640465435172,-0.0030035262379855127, ,0.03347361254817659, ,0.08485575699664336, ,0.0007274976572156387, ,0.22294757534598736,-0.2156187018483483,0.10101728712000001,1.7502819582653246,0.6419182758980392,-1.288934464163137, ,0.12340304493949386,0.07855707082654866,0.031542201029702975,-0.022227112072503028,0.19682584383276794,-0.12908815642430738, ,1.2293870449066162
0.014749186828527678,0.02078509087076329,-0.08930015892105637, ,0.015924022124099733,0.020342207613173204,-0.09057910937670988, ,0.0017922326354555052, ,0.01655789831929318,-0.0004447555329849879,-0.029088157947681603,0.06047418845434977,0.05952640465435172,-0.0030035262379855127, ,0.03347361254817659, ,0.08485575699664336, ,0.0007368374377265147, ,0.22294757534598736,-0.2156187018483483,0.10101728712000001,1.7502819582653246,0.6419182758980392,-1.288934464163137, ,0.12340304493949386,0.07855707082654866,0.031542201029702975,-0.022227112072503028,0.19682584383276794,-0.12908815642430738, ,1.2317860126495361
0.014932121038277067,0.02078914744126492,-0.08963292540341487, ,0.01598495219115179,0.02033724624119607,-0.09067769664700408, ,0.0015505531537222828, ,0.019726983120335866,0.0011524462710881236,-0.03710280969904077,0.1152847653037232,0.07590659319537055,-0.020414092102721805, ,0.04203689430727483, ,0.13803013326417726, ,0.0007439132265612604, ,0.22427588540035398,-0.21480781489655473,0.10137895203000001,1.7502819582653246,0.6441044598942863,-1.2903904356617177, ,0.13955432582128055,0.08103923275702031,0.04032610511392406,-0.022227112072503028,0.2312976042316755,-0.18760227669557503, ,1.2341439723968506
0.014932121038277067,0.02078914744126492,-0.08963292540341487, ,0.01604571893602955,0.020332262289812435,-0.09077600698469285, ,0.0016599638010973204, ,0.019726983120335866,0.0011524462710881236,-0.03710280969904077,0.1152847653037232,0.07590659319537055,-0.020414092102721805, ,0.04203689430727483, ,0.13803013326417726, ,0.0007518102142727782, ,0.22427588540035398,-0.21480781489655473,0.10137895203000001,1.7502819582653246,0.6441044598942863,-1.2903904356617177, ,0.13955432582128055,0.08103923275702031,0.04032610511392406,-0.022227112072503028,0.2312976042316755,-0.18760227669557503, ,1.23614501953125
0.014932121038277067,0.02078914744126492,-0.08963292540341487, ,0.01610632244777097,0.020327256242205848,-0.09087404089235467, ,0.0017698757263468967, ,0.019726983120335866,0.0011524462710881236,-0.03710280969904077,0.1152847653037232,0.07590659319537055,-0.020414092102721805, ,0.04203689430727483, ,0.13803013326417726, ,0.0007605116289058903, ,0.22427588540035398,-0.21480781489655473,0.10137895203000001,1.7502819582653246,0.6441044598942863,-1.2903904356617177, ,0.13955432582128055,0.08103923275702031,0.04032610511392406,-0.022227112072503028,0.2312976042316755,-0.18760227669557503, ,1.238110065460205
0.014932121038277067,0.02078914744126492,-0.08963292540341487, ,0.016166762816435275,0.02032222858020566,-0.09097179887201458, ,0.0018801424701619675, ,0.019726983120335866,0.0011524462710881236,-0.03710280969904077,0.1152847653037232,0.07590659319537055,-0.020414092102721805, ,0.04203689430727483, ,0.13803013326417726, ,0.0007700000258656876, ,0.22427588540035398,-0.21480781489655473,0.10137895203000001,1.7502819582653246,0.6441044598942863,-1.2903904356617177, ,0.13955432582128055,0.08103923275702031,0.04032610511392406,-0.022227112072503028,0.2312976042316755,-0.18760227669557503, ,1.2400388717651367
0.014932121038277067,0.02078914744126492,-0.08963292540341487, ,0.016227040133101295,0.02031717978428791,-0.09106928142514396, ,0.0019906500326602335, ,0.019726983120335866,0.0011524462710881236,-0.03710280969904077,0.1152847653037232,0.07590659319537055,-0.020414092102721805, ,0.04203689430727483, ,0.13803013326417726, ,0.0007802575889479947, ,0.22427588540035398,-0.21480781489655473,0.10137895203000001,1.7502819582653246,0.6441044598942863,-1.2903904356617177, ,0.13955432582128055,0.08103923275702031,0.04032610511392406,-0.022227112072503028,0.2312976042316755,-0.18760227669557503, ,1.242027997970581
0.015155814624467773,0.020810136343062783,-0.09007703364955154, ,0.016287154489865487,0.02031211033357709,-0.09116648905266213, ,0.0016476871282282985, ,0.022950736417908728,0.002540081193130257,-0.04674326344224696,0.06054869640957582,0.05670635235477603,-0.00886563770918037, ,0.052135601960880025, ,0.08295499915724046, ,0.0007874861684419972, ,0.22578181831082778,-0.21393514608176736,0.10185987562000001,1.749862578378356,0.6465639168900642,-1.2920692429676908, ,0.14781455071412894,0.08877169462906527,0.05040763139240506,-0.016941578387111016,0.21799393782364737,-0.13620057023718735, ,1.2439589500427246
0.015155814624467773,0.020810136343062783,-0.09007703364955154, ,0.01634710597983869,0.020307020705847768,-0.09126342225493637, ,0.0017549411274395286, ,0.022950736417908728,0.002540081193130257,-0.04674326344224696,0.06054869640957582,0.05670635235477603,-0.00886563770918037, ,0.052135601960880025, ,0.08295499915724046, ,0.0007954816639709025, ,0.22578181831082778,-0.21393514608176736,0.10185987562000001,1.749862578378356,0.6465639168900642,-1.2920692429676908, ,0.14781455071412894,0.08877169462906527,0.05040763139240506,-0.016941578387111016,0.21799393782364737,-0.13620057023718735, ,1.2458419799804688
0.015155814624467773,0.020810136343062783,-0.09007703364955154, ,0.016406894697146013,0.020301911377525395,-0.09136008153178167, ,0.0018627146405027517, ,0.022950736417908728,0.002540081193130257,-0.04674326344224696,0.06054869640957582,0.05670635235477603,-0.00886563770918037, ,0.052135601960880025, ,0.08295499915724046, ,0.0008042294752539504, ,0.22578181831082778,-0.21393514608176736,0.10185987562000001,1.749862578378356,0.6465639168900642,-1.2920692429676908, ,0.14781455071412894,0.08877169462906527,0.05040763139240506,-0.016941578387111016,0.21799393782364737,-0.13620057023718735, ,1.2477688789367676
0.015155814624467773,0.020810136343062783,-0.09007703364955154, ,0.01646652073692443,0.020296782823687964,-0.09145646738246166, ,0.0019708677714590866, ,0.022950736417908728,0.002540081193130257,-0.04674326344224696,0.06054869640957582,0.05670635235477603,-0.00886563770918037, ,0.052135601960880025, ,0.08295499915724046, ,0.0008137143394507402, ,0.22578181831082778,-0.21393514608176736,0.10185987562000001,1.749862578378356,0.6465639168900642,-1.2920692429676908, ,0.14781455071412894,0.08877169462906527,0.05040763139240506,-0.016941578387111016,0.21799393782364737,-0.13620057023718735, ,1.249669075012207
0.015155814624467773,0.020810136343062783,-0.09007703364955154, ,0.016525984195320018,0.020291635518067456,-0.0915525803056891, ,0.002079289708734447, ,0.022950736417908728,0.002540081193130257,-0.04674326344224696,0.06054869640957582,0.05670635235477603,-0.00886563770918037, ,0.052135601960880025, ,0.08295499915724046, ,0.0008239205924288345, ,0.22578181831082778,-0.21393514608176736,0.10185987562000001,1.749862578378356,0.6465639168900642,-1.2920692429676908, ,0.14781455071412894,0.08877169462906527,0.05040763139240506,-0.016941578387111016,0.21799393782364737,-0.13620057023718735, ,1.251594066619873
0.015399936881672861,0.02083824844090672,-0.09059113340933074, ,0.016585285169486638,0.020286469933051367,-0.09164842079962618, ,0.0016814775380099118, ,0.025697909766303498,0.003365458064749175,-0.05559939111663554,0.02393018570247932,0.05515034680266098,0.02507266844674864, ,0.061343305803349665, ,0.060113918750423836, ,0.0008307810479934832, ,0.22729547395417576,-0.21298524993823775,0.10241209516000001,1.7494431984913867,0.6487501008863112,-1.2933618569859902, ,0.1545552794111902,0.09864546939549977,0.05965847011235956,-0.04133623399376623,0.22834071931425706,-0.11099068042004154, ,1.2535059452056885
0.015399936881672861,0.02083824844090672,-0.09059113340933074, ,0.016644423757583772,0.020281286539683877,-0.09174398936188524, ,0.001785505808186748, ,0.025697909766303498,0.003365458064749175,-0.05559939111663554,0.02393018570247932,0.05515034680266098,0.02507266844674864, ,0.061343305803349665, ,0.060113918750423836, ,0.0008383582286299377, ,0.22729547395417576,-0.21298524993823775,0.10241209516000001,1.7494431984913867,0.6487501008863112,-1.2933618569859902, ,0.1545552794111902,0.09864546939549977,0.05965847011235956,-0.04133623399376623,0.22834071931425706,-0.11099068042004154, ,1.25537109375
0.015399936881672861,0.02083824844090672,-0.09059113340933074, ,0.01670340005877552,0.020276085807667044,-0.0918392864895282, ,0.0018902193502024931, ,0.025697909766303498,0.003365458064749175,-0.05559939111663554,0.02393018570247932,0.05515034680266098,0.02507266844674864, ,0.061343305803349665, ,0.060113918750423836, ,0.000846640599665942, ,0.22729547395417576,-0.21298524993823775,0.10241209516000001,1.7494431984913867,0.6487501008863112,-1.2933618569859902, ,0.1545552794111902,0.09864546939549977,0.05965847011235956,-0.04133623399376623,0.22834071931425706,-0.11099068042004154, ,1.2572779655456543
0.015399936881672861,0.02083824844090672,-0.09059113340933074, ,0.01676221417322753,0.020270868205362634,-0.09193431267906747, ,0.001995457416589513, ,0.025697909766303498,0.003365458064749175,-0.05559939111663554,0.02393018570247932,0.05515034680266098,0.02507266844674864, ,0.061343305803349665, ,0.060113918750423836, ,0.0008556157310481574, ,0.22729547395417576,-0.21298524993823775,0.10241209516000001,1.7494431984913867,0.6487501008863112,-1.2933618569859902, ,0.1545552794111902,0.09864546939549977,0.05965847011235956,-0.04133623399376623,0.22834071931425706,-0.11099068042004154, ,1.2592389583587646
0.015399936881672861,0.02083824844090672,-0.09059113340933074, ,0.01682086620210465,0.020265634199793485,-0.0920290684264671, ,0.0021010912203651188, ,0.025697909766303498,0.003365458064749175,-0.05559939111663554,0.02393018570247932,0.05515034680266098,0.02507266844674864, ,0.061343305803349665, ,0.060113918750423836, ,0.0008652705798025524, ,0.22729547395417576,-0.21298524993823775,0.10241209516000001,1.7494431984913867,0.6487501008863112,-1.2933618569859902, ,0.1545552794111902,0.09864546939549977,0.05965847011235956,-0.04133623399376623,0.22834071931425706,-0.11099068042004154, ,1.2611548900604248
0.015399936881672861,0.02083824844090672,-0.09059113340933074, ,0.016879356247570542,0.020260384256644635,-0.0921235542271426, ,0.0022070165922595986, ,0.027427815614769837,0.002820039362925777,-0.059027671559144096,0.035207235638341654,0.04576905877267832,0.04762970445866516, ,0.0651498557258606, ,0.057737679030481326, ,0.000875591702975299, ,0.2288786341933918,-0.2119581264659659,0.10302912920000001,1.7488141286609333,0.6512095578820891,-1.294795628071542, ,0.16333380646896864,0.10907694432008136,0.06320956952380954,-0.08051103764293924,0.23644406550031435,-0.14346657944969304, ,1.2631080150604248
0.015664379645357274,0.020870735983153615,-0.09116620361794404, ,0.01693768441278496,0.02025511884026473,-0.09221777057596063, ,0.001762408171952516, ,0.027427815614769837,0.002820039362925777,-0.059027671559144096,0.035207235638341654,0.04576905877267832,0.04762970445866516, ,0.0651498557258606, ,0.057737679030481326, ,0.0008823612943415373, ,0.2288786341933918,-0.2119581264659659,0.10302912920000001,1.7488141286609333,0.6512095578820891,-1.294795628071542, ,0.16333380646896864,0.10907694432008136,0.06320956952380954,-0.08051103764293924,0.23644406550031435,-0.14346657944969304, ,1.265246868133545
0.015664379645357274,0.020870735983153615,-0.09116620361794404, ,0.016995850801901104,0.020249838413667866,-0.09231171796724073, ,0.0018629364876307764, ,0.027427815614769837,0.002820039362925777,-0.059027671559144096,0.035207235638341654,0.04576905877267832,0.04762970445866516, ,0.0651498557258606, ,0.057737679030481326, ,0.0008897898942906981, ,0.2288786341933918,-0.2119581264659659,0.10302912920000001,1.7488141286609333,0.6512095578820891,-1.294795628071542, ,0.16333380646896864,0.10907694432008136,0.06320956952380954,-0.08051103764293924,0.23644406550031435,-0.14346657944969304, ,1.2676010131835938
0.015664379645357274,0.020870735983153615,-0.09116620361794404, ,0.017053855520065487,0.02024454343853418,-0.09240539689475454, ,0.0019642709300464224, ,0.027427815614769837,0.002820039362925777,-0.059027671559144096,0.035207235638341654,0.04576905877267832,0.04762970445866516, ,0.0651498557258606, ,0.057737679030481326, ,0.0008978686990708163, ,0.2288786341933918,-0.2119581264659659,0.10302912920000001,1.7488141286609333,0.6512095578820891,-1.294795628071542, ,0.16333380646896864,0.10907694432008136,0.06320956952380954,-0.08051103764293924,0.23644406550031435,-0.14346657944969304, ,1.2695870399475098
0.015664379645357274,0.020870735983153615,-0.09116620361794404, ,0.017111698673414246,0.020239234375211867,-0.0924988078517266, ,0.0020662431351861693, ,0.027427815614769837,0.002820039362925777,-0.059027671559144096,0.035207235638341654,0.04576905877267832,0.04762970445866516, ,0.0651498557258606, ,0.057737679030481326, ,0.0009065879112806324, ,0.2288786341933918,-0.2119581264659659,0.10302912920000001,1.7488141286609333,0.6512095578820891,-1.294795628071542, ,0.16333380646896864,0.10907694432008136,0.06320956952380954,-0.08051103764293924,0.23644406550031435,-0.14346657944969304, ,1.2715649604797363
0.015664379645357274,0.020870735983153615,-0.09116620361794404, ,0.017169380369071265,0.02023391168271884,-0.09259195133083571, ,0.0021687159585385305, ,0.027427815614769837,0.002820039362925777,-0.059027671559144096,0.035207235638341654,0.04576905877267832,0.04762970445866516, ,0.0651498557258606, ,0.057737679030481326, ,0.0009159370079269871, ,0.2288786341933918,-0.2119581264659659,0.10302912920000001,1.7488141286609333,0.6512095578820891,-1.294795628071542, ,0.16333380646896864,0.10907694432008136,0.06320956952380954,-0.08051103764293924,0.23644406550031435,-0.14346657944969304, ,1.2737560272216797
0.015813178128496436,0.02088541815463259,-0.09147736101100049, ,0.017226900715148128,0.020228575818743044,-0.09268482782421372, ,0.0019718086903240174, ,0.02802825970488696,0.0024694397610747904,-0.05813476366945435,0.004812495881410866,0.014945515100942943,0.024411789101531106, ,0.06458585155993127, ,0.015680067624002078, ,0.0009237007702975536, ,0.2297667484739276,-0.21137119876752483,0.10336227573000001,1.7486044387174484,0.6523026498802127,-1.2954419350806916, ,0.1676624409160261,0.11151226975143451,0.06222192000000001,-0.050630457605000886,0.20194658073306676,-0.11000206883305083, ,1.2766928672790527
0.015813178128496436,0.02088541815463259,-0.09147736101100049, ,0.01728425982073949,0.020223227239645127,-0.09277743782344694, ,0.0020719019936776824, ,0.02802825970488696,0.0024694397610747904,-0.05813476366945435,0.004812495881410866,0.014945515100942943,0.024411789101531106, ,0.06458585155993127, ,0.015680067624002078, ,0.0009320818011251458, ,0.2297667484739276,-0.21137119876752483,0.10336227573000001,1.7486044387174484,0.6523026498802127,-1.2954419350806916, ,0.1676624409160261,0.11151226975143451,0.06222192000000001,-0.050630457605000886,0.20194658073306676,-0.11000206883305083, ,1.278752088546753
0.015813178128496436,0.02088541815463259,-0.09147736101100049, ,0.017341457795923925,0.020217866400458615,-0.09286978181957606, ,0.0021725790651958513, ,0.02802825970488696,0.0024694397610747904,-0.05813476366945435,0.004812495881410866,0.014945515100942943,0.024411789101531106, ,0.06458585155993127, ,0.015680067624002078, ,0.0009410709117343538, ,0.2297667484739276,-0.21137119876752483,0.10336227573000001,1.7486044387174484,0.6523026498802127,-1.2954419350806916, ,0.1676624409160261,0.11151226975143451,0.06222192000000001,-0.050630457605000886,0.20194658073306676,-0.11000206883305083, ,1.2808160781860352
0.01620777900039832,0.020906044492995282,-0.09222267792211329, ,0.017398494751759485,0.020212493754892362,-0.09296186030309728, ,0.0022737181426016237, ,0.027287847740362105,-0.0003590116515667331,-0.04592491549117162,-0.031084687823793998,-0.05454923577805643,0.00026981434010880164, ,0.06458585155993127, ,0.06278274168556272, ,0.0009506583018844782, ,0.23226891392517635,-0.2097880385283088,0.10416467924000002,1.7486044387174484,0.6550353798755215,-1.296935184493355, ,0.1817949072001356,0.11270420612644985,0.04946835875776398,-0.0260236296885872,0.13860889062738535,-0.07430923878241709, ,1.2834949493408203
0.01620777900039832,0.020906044492995282,-0.09222267792211329, ,0.01745537080028307,0.0202071097553314,-0.09305367376396169, ,0.0016539495626597207, ,0.027287847740362105,-0.0003590116515667331,-0.04592491549117162,-0.031084687823793998,-0.05454923577805643,0.00026981434010880164, ,0.05342146934087831, ,0.06278274168556272, ,0.0009556818108900155, ,0.23226891392517635,-0.2097880385283088,0.10416467924000002,1.7486044387174484,0.6550353798755215,-1.296935184493355, ,0.1817949072001356,0.11270420612644985,0.04946835875776398,-0.0260236296885872,0.13860889062738535,-0.07430923878241709, ,1.2854719161987305
0.01620777900039832,0.020906044492995282,-0.09222267792211329, ,0.017512086054508214,0.020201714852838525,-0.09314522269157642, ,0.0017459627673773453, ,0.027287847740362105,-0.0003590116515667331,-0.04592491549117162,-0.031084687823793998,-0.05454923577805643,0.00026981434010880164, ,0.05342146934087831, ,0.06278274168556272, ,0.0009612866403686491, ,0.23226891392517635,-0.2097880385283088,0.10416467924000002,1.7486044387174484,0.6550353798755215,-1.296935184493355, ,0.1817949072001356,0.11270420612644985,0.04946835875776398,-0.0260236296885872,0.13860889062738535,-0.07430923878241709, ,1.2873520851135254
0.01620777900039832,0.020906044492995282,-0.09222267792211329, ,0.017568640628423712,0.020196309497155274,-0.09323650757480464, ,0.0018394343422987976, ,0.027287847740362105,-0.0003590116515667331,-0.04592491549117162,-0.031084687823793998,-0.05454923577805643,0.00026981434010880164, ,0.05342146934087831, ,0.06278274168556272, ,0.0009674707791146361, ,0.23226891392517635,-0.2097880385283088,0.10416467924000002,1.7486044387174484,0.6550353798755215,-1.296935184493355, ,0.1817949072001356,0.11270420612644985,0.04946835875776398,-0.0260236296885872,0.13860889062738535,-0.07430923878241709, ,1.2892529964447021
0.01620777900039832,0.020906044492995282,-0.09222267792211329, ,0.017625034636991263,0.020190894136703583,-0.09332752890196597, ,0.0019341016672450371, ,0.027287847740362105,-0.0003590116515667331,-0.04592491549117162,-0.031084687823793998,-0.05454923577805643,0.00026981434010880164, ,0.05342146934087831, ,0.06278274168556272, ,0.0009742304356749885, ,0.23226891392517635,-0.2097880385283088,0.10416467924000002,1.7486044387174484,0.6550353798755215,-1.296935184493355, ,0.1817949072001356,0.11270420612644985,0.04946835875776398,-0.0260236296885872,0.13860889062738535,-0.07430923878241709, ,1.291167974472046
0.016496538373290605,0.020881064802614396,-0.09266470065008607, ,0.01768126819614151,0.020185469218588208,-0.09341828716083794, ,0.0015669494563821296, ,0.029304978922908724,-0.0030061142958643728,-0.04315530415769824,-0.008988861348934897,-0.037086933793810666,-0.03550573213518942, ,0.05225130419210005, ,0.038158755274744494, ,0.0009783465399854547, ,0.23429226993822316,-0.20847517393969064,0.10464171396000001,1.7483947487739642,0.6565383813729414,-1.2976707089931723, ,0.21041450456423677,0.1353736684143663,0.046849445647058834,0.0,0.18121193498997754,-0.11078445512853054, ,1.293583869934082
0.016496538373290605,0.020881064802614396,-0.09266470065008607, ,0.017737341422776245,0.020180035188596054,-0.09350878283865406, ,0.001656354270197441, ,0.029304978922908724,-0.0030061142958643728,-0.04315530415769824,-0.008988861348934897,-0.037086933793810666,-0.03550573213518942, ,0.05225130419210005, ,0.038158755274744494, ,0.0009830224553662272, ,0.23429226993822316,-0.20847517393969064,0.10464171396000001,1.7483947487739642,0.6565383813729414,-1.2976707089931723, ,0.21041450456423677,0.1353736684143663,0.046849445647058834,0.0,0.18121193498997754,-0.11078445512853054, ,1.2954859733581543
0.016496538373290605,0.020881064802614396,-0.09266470065008607, ,0.01779325443476355,0.02017459249119902,-0.0935990164221066, ,0.0017474328693042314, ,0.029304978922908724,-0.0030061142958643728,-0.04315530415769824,-0.008988861348934897,-0.037086933793810666,-0.03550573213518942, ,0.05225130419210005, ,0.038158755274744494, ,0.0009882581431329258, ,0.23429226993822316,-0.20847517393969064,0.10464171396000001,1.7483947487739642,0.6565383813729414,-1.2976707089931723, ,0.21041450456423677,0.1353736684143663,0.046849445647058834,0.0,0.18121193498997754,-0.11078445512853054, ,1.297374963760376
0.016496538373290605,0.020881064802614396,-0.09266470065008607, ,0.01784900735093648,0.020169141569555012,-0.09368898839734535, ,0.0018398838046055248, ,0.029304978922908724,-0.0030061142958643728,-0.04315530415769824,-0.008988861348934897,-0.037086933793810666,-0.03550573213518942, ,0.05225130419210005, ,0.038158755274744494, ,0.0009940515149796782, ,0.23429226993822316,-0.20847517393969064,0.10464171396000001,1.7483947487739642,0.6565383813729414,-1.2976707089931723, ,0.21041450456423677,0.1353736684143663,0.046849445647058834,0.0,0.18121193498997754,-0.11078445512853054, ,1.2992329597473145
0.016496538373290605,0.020881064802614396,-0.09266470065008607, ,0.01790460029109037,0.020163682865509857,-0.09377869924997934, ,0.0019334601336996762, ,0.029304978922908724,-0.0030061142958643728,-0.04315530415769824,-0.008988861348934897,-0.037086933793810666,-0.03550573213518942, ,0.05225130419210005, ,0.038158755274744494, ,0.0010003988705115702, ,0.23429226993822316,-0.20847517393969064,0.10464171396000001,1.7483947487739642,0.6565383813729414,-1.2976707089931723, ,0.21041450456423677,0.1353736684143663,0.046849445647058834,0.0,0.18121193498997754,-0.11078445512853054, ,1.3011300563812256
0.01680180463988655,0.020837422006730118,-0.09310557103789391, ,0.017960033375983165,0.02015821681959734,-0.09386814946507573, ,0.0015441306126591516, ,0.028404872564939756,-0.004850370411550716,-0.04015837393801815,0.02631822063236418,-0.016415233018626643,0.08060845839182693, ,0.04942729889348001, ,0.03101619204555654, ,0.0010040480768347083, ,0.2365395852046225,-0.20703102289221065,0.10512134126000001,1.7471366091130571,0.6588612018689539,-1.2993197771355898, ,0.21182353026444373,0.13873821865273506,0.04376047120879121,-0.14215348400515937,0.23502089993249334,-0.18239839883840614, ,1.3042089939117432
0.01680180463988655,0.020837422006730118,-0.09310557103789391, ,0.018015306727330496,0.02015274387104253,-0.09395733952716206, ,0.001633058794112938, ,0.028404872564939756,-0.004850370411550716,-0.04015837393801815,0.02631822063236418,-0.016415233018626643,0.08060845839182693, ,0.04942729889348001, ,0.03101619204555654, ,0.0010082414816165633, ,0.2365395852046225,-0.20703102289221065,0.10512134126000001,1.7471366091130571,0.6588612018689539,-1.2993197771355898, ,0.21182353026444373,0.13873821865273506,0.04376047120879121,-0.14215348400515937,0.23502089993249334,-0.18239839883840614, ,1.3061959743499756
0.01680180463988655,0.020837422006730118,-0.09310557103789391, ,0.018070420467806544,0.02014726445776103,-0.09404626992022444, ,0.0017235480696708356, ,0.028404872564939756,-0.004850370411550716,-0.04015837393801815,0.02631822063236418,-0.016415233018626643,0.08060845839182693, ,0.04942729889348001, ,0.03101619204555654, ,0.001012978611338777, ,0.2365395852046225,-0.20703102289221065,0.10512134126000001,1.7471366091130571,0.6588612018689539,-1.2993197771355898, ,0.21182353026444373,0.13873821865273506,0.04376047120879121,-0.14215348400515937,0.23502089993249334,-0.18239839883840614, ,1.3081738948822021
0.01680180463988655,0.020837422006730118,-0.09310557103789391, ,0.018125374721039714,0.020141779016362372,-0.09413494112771016, ,0.0018153125658078538, ,0.028404872564939756,-0.004850370411550716,-0.04015837393801815,0.02631822063236418,-0.016415233018626643,0.08060845839182693, ,0.04942729889348001, ,0.03101619204555654, ,0.0010182571241971262, ,0.2365395852046225,-0.20703102289221065,0.10512134126000001,1.7471366091130571,0.6588612018689539,-1.2993197771355898, ,0.21182353026444373,0.13873821865273506,0.04376047120879121,-0.14215348400515937,0.23502089993249334,-0.18239839883840614, ,1.310128927230835
0.01680180463988655,0.020837422006730118,-0.09310557103789391, ,0.018180169611612274,0.020136287982150117,-0.09422335363252632, ,0.0019081186662698337, ,0.028404872564939756,-0.004850370411550716,-0.04015837393801815,0.02631822063236418,-0.016415233018626643,0.08060845839182693, ,0.04942729889348001, ,0.03101619204555654, ,0.0010240732127074054, ,0.2365395852046225,-0.20703102289221065,0.10512134126000001,1.7471366091130571,0.6588612018689539,-1.2993197771355898, ,0.21182353026444373,0.13873821865273506,0.04376047120879121,-0.14215348400515937,0.23502089993249334,-0.18239839883840614, ,1.31215500831604
0.01680180463988655,0.020837422006730118,-0.09310557103789391, ,0.018234805265058284,0.02013079178912336,-0.09431150791704104, ,0.0020017744160281117, ,0.028404872564939756,-0.004850370411550716,-0.04015837393801815,0.02631822063236418,-0.016415233018626643,0.08060845839182693, ,0.04942729889348001, ,0.03101619204555654, ,0.0010304219218198775, ,0.2365395852046225,-0.20703102289221065,0.10512134126000001,1.7471366091130571,0.6588612018689539,-1.2993197771355898, ,0.21182353026444373,0.13873821865273506,0.04376047120879121,-0.14215348400515937,0.23502089993249334,-0.18239839883840614, ,1.3143820762634277
0.01680180463988655,0.020837422006730118,-0.09310557103789391, ,0.018289281807860252,0.02012529086997911,-0.09439940446308408, ,0.002096121182878669, ,0.028404872564939756,-0.004850370411550716,-0.04015837393801815,0.02631822063236418,-0.016415233018626643,0.08060845839182693, ,0.04942729889348001, ,0.03101619204555654, ,0.0010372974009234825, ,0.2365395852046225,-0.20703102289221065,0.10512134126000001,1.7471366091130571,0.6588612018689539,-1.2993197771355898, ,0.21182353026444373,0.13873821865273506,0.04376047120879121,-0.14215348400515937,0.23502089993249334,-0.18239839883840614, ,1.3168880939483643
0.017056209033900427,0.020793664074863463,-0.093443301351124, ,0.01834359936744905,0.020119785656112405,-0.09448704375194655, ,0.0017891015045121647, ,0.028773800441910875,-0.005293656667110732,-0.036701336630644774,-0.027084848128921393,-0.05108440787939086,0.027090435796515523, ,0.04693551430693036, ,0.05781988530336916, ,0.001042116657997769, ,0.23847026842317864,-0.20578766289946052,0.1054920802,1.746717229226088,0.6609107493654354,-1.3007460094706143, ,0.21815388864016272,0.13894134928033788,0.04022427151515152,-0.06584479617651637,0.18843397123274908,-0.11070235404686926, ,1.3196179866790771
0.017056209033900427,0.020793664074863463,-0.093443301351124, ,0.01839775807220054,0.02011427657761857,-0.09457442626438195, ,0.0018816919947136537, ,0.028773800441910875,-0.005293656667110732,-0.036701336630644774,-0.027084848128921393,-0.05108440787939086,0.027090435796515523, ,0.04693551430693036, ,0.05781988530336916, ,0.0010474642716074244, ,0.23847026842317864,-0.20578766289946052,0.1054920802,1.746717229226088,0.6609107493654354,-1.3007460094706143, ,0.21815388864016272,0.13894134928033788,0.04022427151515152,-0.06584479617651637,0.18843397123274908,-0.11070235404686926, ,1.321655035018921
0.017253507859333328,0.020756378889227257,-0.09369368889164591, ,0.018451758051435292,0.02010876406329384,-0.09466155248060554, ,0.0016709184338186528, ,0.02844284270772155,-0.0062184641761612505,-0.03615235814249889,-0.0459163983174344,-0.06925350287592151,-0.0006805527107668794, ,0.04641828946945262, ,0.08309212681393166, ,0.0010514101840264827, ,0.23994531040215553,-0.204806875824434,0.10576559739000001,1.746717229226088,0.662003841363559,-1.301392316479764, ,0.21229740840821204,0.14735549931439562,0.039330398814814815,-0.04027590477095197,0.15790058523934125,-0.09652181466483543, ,1.3239190578460693
0.017253507859333328,0.020756378889227257,-0.09369368889164591, ,0.01850559943541389,0.020103248540638177,-0.09474842288029652, ,0.0017626049909026183, ,0.02844284270772155,-0.0062184641761612505,-0.03615235814249889,-0.0459163983174344,-0.06925350287592151,-0.0006805527107668794, ,0.04641828946945262, ,0.08309212681393166, ,0.001055883107340169, ,0.23994531040215553,-0.204806875824434,0.10576559739000001,1.746717229226088,0.662003841363559,-1.301392316479764, ,0.21229740840821204,0.14735549931439562,0.039330398814814815,-0.04027590477095197,0.15790058523934125,-0.09652181466483543, ,1.325901985168457
0.017253507859333328,0.020756378889227257,-0.09369368889164591, ,0.018559282355337714,0.020097730435854978,-0.09483503794259655, ,0.0018551394760640354, ,0.02844284270772155,-0.0062184641761612505,-0.03615235814249889,-0.0459163983174344,-0.06925350287592151,-0.0006805527107668794, ,0.04641828946945262, ,0.08309212681393166, ,0.001060878459644693, ,0.23994531040215553,-0.204806875824434,0.10576559739000001,1.746717229226088,0.662003841363559,-1.301392316479764, ,0.21229740840821204,0.14735549931439562,0.039330398814814815,-0.04027590477095197,0.15790058523934125,-0.09652181466483543, ,1.3280229568481445
0.017253507859333328,0.020756378889227257,-0.09369368889164591, ,0.018612806943345796,0.020092210173853514,-0.09492139814611147, ,0.001948354201827466, ,0.02844284270772155,-0.0062184641761612505,-0.03615235814249889,-0.0459163983174344,-0.06925350287592151,-0.0006805527107668794, ,0.04641828946945262, ,0.08309212681393166, ,0.0010663907313352692, ,0.23994531040215553,-0.204806875824434,0.10576559739000001,1.746717229226088,0.662003841363559,-1.301392316479764, ,0.21229740840821204,0.14735549931439562,0.039330398814814815,-0.04027590477095197,0.15790058523934125,-0.09652181466483543, ,1.3299930095672607
0.017253507859333328,0.020756378889227257,-0.09369368889164591, ,0.018666173332512897,0.02008668817824995,-0.09500750396891045, ,0.002042111516232786, ,0.02844284270772155,-0.0062184641761612505,-0.03615235814249889,-0.0459163983174344,-0.06925350287592151,-0.0006805527107668794, ,0.04641828946945262, ,0.08309212681393166, ,0.0010724136991432788, ,0.23994531040215553,-0.204806875824434,0.10576559739000001,1.746717229226088,0.662003841363559,-1.301392316479764, ,0.21229740840821204,0.14735549931439562,0.039330398814814815,-0.04027590477095197,0.15790058523934125,-0.09652181466483543, ,1.3319010734558105
0.017621809332735827,0.020668799870779263,-0.09413963963703752, ,0.018719381656847982,0.020081164871368615,-0.09509335588852777, ,0.0015682967154036665, ,0.027002470506626578,-0.007058008856094127,-0.030995648548138275,-0.16263351689349348,-0.1631540915228156,-0.01325260855276654, ,0.04170946093386545, ,0.23036685913715577, ,0.0010754559262369009, ,0.24267915783963098,-0.20286074714012942,0.10624911356000001,1.746717229226088,0.6633702063612134,-1.3017713868554632, ,0.19894537014354458,0.14422027592472764,0.033393734842767295,0.0,0.03677107645787298,0.02999337678652241, ,1.3338088989257812
