NicholasDascanio/dvrk_moveit_final/test/execution/third_experiment_notsharpbends/thirdexp_600vel4.0/thirdexp_600vel4.0_25.csv
Current Position (x),Current Position (y),Current Position (z), ,Planned Position (x),Planned Position (y),Planned Position (z), ,Position Error,,Cartesian linear Velocity(x),Cartesian linear Velocity(y),Cartesian linear Velocity(z),Cartesian Angular Velocity(x),Cartesian Angular Velocity(y),Cartesian Angular Velocity(z), ,Total Linear Velocity, ,Total Angular Velocity, ,MSE, ,Joint 1 Position,Joint 2 Position,Joint 3 Position,Joint 4 Position,Joint 5 Position,Joint 6 Position, ,Joint 1 Velocity,Joint 2 Velocity,Joint 3 Velocity,Joint 4 Velocity,Joint 5 Velocity,Joint 6 Velocity, ,Time Stamp
0.010089056529214073,0.01988935743478037,-0.079933557874977, ,0.010188589823206673,0.019798095837308807,-0.07989404449068474, ,0.00014070132666150166, ,1.1190342973401837e-05,3.268371363179669e-05,9.544903115060694e-06,-0.10903901909977332,-0.0004927926650403352,0.10661838473372665, ,3.584067644595386e-05, ,0.10904013266156387, ,1.1725110555125139e-05, ,0.21301614086973464,-0.2157731565058328,0.09294269671000001,1.8794509634517917,0.9471642163740331,-1.1820494689686534, ,0.00019067181499191413,-0.0004968479221919765,0.0,-0.0010463230732508427,0.0,0.1519264739480164, ,0.019861936569213867
0.010085020955065041,0.019889151793190667,-0.07993021098009212, ,0.01020912502502657,0.019833916467168193,-0.07995220977382457, ,0.00013761071305500906, ,-0.0006473349034484846,0.00011092030222789782,0.0006833515836796474,-0.3752952994719353,0.09561136883875708,0.41482889206945506, ,0.0009477949027012486, ,0.3872829658750183, ,1.2650547259841397e-05, ,0.21301614086973464,-0.21578860197158126,0.09294269671000001,1.8792412735083073,0.9477107623730949,-1.1738371941285395, ,0.0003580375520410278,-0.0012078856882544683,0.0,0.002147419647067246,0.10312662303411643,0.560473469324164, ,0.038632869720458984
0.010061344302535857,0.01990026703235101,-0.07991421236366049, ,0.010229752029166126,0.019869369161361044,-0.08001044104574886, ,0.00019640723020539132, ,-0.0004810425877849915,0.0008731888389507287,0.00014411925753106595,-0.053696227533044684,0.14956377052485334,0.05890346227972576, ,0.0010072889754793846, ,0.15891068656604407, ,1.483497718505944e-05, ,0.2130238636026089,-0.21579632470445548,0.09295825219000001,1.8802897232257298,0.9522197668653545,-1.1672224636928106, ,0.0009024166833224184,-0.0006459094924163762,0.0009955237200137117,0.08853349097356848,0.14166191909145417,0.15176099693501144, ,0.05761909484863281
0.010060758220264664,0.019909656438605365,-0.07993260732448773, ,0.010250470499722773,0.019904455652636648,-0.0800687378987317, ,0.00023355798080107904, ,0.00018680042465304172,0.00045013550535924593,-0.001648816033960166,0.25610603845354957,0.031233371792804103,-0.22449614707649837, ,0.0017193343728547138, ,0.25800353959956895, ,1.6863744064832884e-05, ,0.21303930906835733,-0.21581949290307814,0.09298677057000002,1.8804994131692143,0.9534494953632434,-1.1678168311253754, ,0.00036629963462836835,-0.0011003453597888868,0.0017142500559621182,-0.008577215367193558,0.037091058897026366,-0.3199209695908225, ,0.0775139331817627
0.010065787169520628,0.019914235607183053,-0.07995192178904388, ,0.010271280101576371,0.01993917767003193,-0.08012709992555869, ,0.00027117675257445206, ,0.0005953501863317591,0.0005924857457634032,-0.002005387558674264,0.48663451108999756,-0.019987772730632607,-0.4867731792646256, ,0.0021741804119675997, ,0.48704482180031433, ,1.883565390956602e-05, ,0.21304703180123155,-0.21584266110170083,0.09300621492000001,1.8802897232257298,0.9533128588634779,-1.1730145313308156, ,0.0004470112893709465,-0.0018606766873554622,0.0019928451795320906,0.00228977406793394,-0.023275652141329126,-0.6853128737404259, ,0.10425901412963867
0.010120444626211627,0.01994802432668261,-0.0800829967315184, ,0.010292180500388036,0.019973536938874773,-0.08018552671952617, ,0.00020163457615417855, ,0.00017435274734350266,0.0007313261748464652,-0.001405694082026902,-0.08396399580563288,0.0655800533869998,0.09934887435015977, ,0.0015941181596002363, ,0.10653964517438845, ,1.904981579760664e-05, ,0.21310109093135113,-0.2159044429646946,0.09312028844,1.8809187930561835,0.9493504003702803,-1.1737039916503664, ,0.001952647117452533,-0.0016388430110364364,0.002021541636683095,0.02424310426117829,0.06711906520451145,0.1500156100793339, ,0.12722992897033691
0.010121641892773637,0.019961171630506654,-0.08011035681454047, ,0.01031317136259928,0.02000753518078755,-0.08024401787444253, ,0.0002381142489236711, ,0.0002556431745444052,0.0005733851295352183,-0.0014437831861226103,-0.03448610600007146,0.031233303175003342,0.0497570983296825, ,0.0015743677550031367, ,0.04652752662955087, ,1.9711150394101152e-05, ,0.213131981862848,-0.21594305662906574,0.09316047343000002,1.8811284829996682,0.9508534018677001,-1.1713357240248423, ,0.001309115076018582,-0.0019416809863733264,0.0018012703701475183,0.00458365510461793,0.03400736715109802,0.06418120735769237, ,0.14873504638671875
0.010137789337316787,0.01998007766478342,-0.08015990950983397, ,0.010334252355431683,0.020041174113690153,-0.08030257298462762, ,0.00025036645261700927, ,0.0007738750558768159,0.0009413138462654173,-0.0026974570921619897,0.07756414009207689,0.01051927375693182,-0.07790408722510779, ,0.002959937351251603, ,0.07827420359514231, ,2.0360600987710882e-05, ,0.2131860409929676,-0.21599711575918532,0.09321491761,1.881547862886637,0.9508534018677001,-1.1710906878044207, ,0.0025698597564283504,-0.002469561774679639,0.0030037359079766175,0.014351369602215709,0.010671657600330623,-0.09688375647276178, ,0.16752099990844727
0.010154514335840113,0.020002178340541524,-0.08021797597479176, ,0.010355423146885529,0.020074455451803835,-0.08036119164491265, ,0.0002570973732582331, ,0.0009577941355079038,0.001209768718710883,-0.003317878856012057,0.021823313596536064,0.0025921489092948636,-0.034239235665703346, ,0.0036591296864085837, ,0.02197672068118088, ,2.0942028850549188e-05, ,0.21322465465733872,-0.21606662035505333,0.09327843582,1.881967242773606,0.9508534018677001,-1.1716624389854047, ,0.0022684719819938614,-0.003459411561143462,0.003616896348773843,0.022604494496540832,0.0,-0.019208607751332086, ,0.19133996963500977
0.010176666529412666,0.020026603059744935,-0.08029086262030086, ,0.01037668340573949,0.02010738090565388,-0.08041987345064074, ,0.0002513475791612371, ,0.0009980441099680065,0.001104820622615307,-0.002679361600717623,0.005139433029433108,-0.0006384613056304789,-0.014822058872931091, ,0.0030652404866499477, ,0.005178938555797619, ,2.135308071972316e-05, ,0.21329415925320674,-0.21615929314954402,0.09335621322000001,1.881967242773606,0.9508534018677001,-1.1716624389854045, ,0.004001901435269763,-0.004139655213760708,0.003010548387828388,0.019478717529030794,-0.00026039444919802475,0.00391539182396112, ,0.21038293838500977
0.010195483866975935,0.02005133488878413,-0.08033861846739355, ,0.010398032801549556,0.020139952182073678,-0.08047861799766623, ,0.000261684856351001, ,0.0010140570119678242,0.0011971167482867976,-0.0024340040541025875,0.0036211974143532054,-0.0018317025234330245,-0.010853228081683836, ,0.0028958204136198947, ,0.004058103591905956, ,2.197927107894381e-05, ,0.21338683204769743,-0.21626741140978317,0.09341195369000001,1.8825963126040595,0.9508534018677001,-1.171580760245264, ,0.005343163087375237,-0.005909315728092929,0.0027630202116218565,0.01851249806183982,-0.0004909729748396778,0.008170442590233801, ,0.22789788246154785
0.01020676561919668,0.020066507635354235,-0.08036557902566094, ,0.010419471004648389,0.02017217098420759,-0.08053742488235555, ,0.0002931540938724372, ,0.0011461521466608043,0.0017423756307449177,-0.0027878153669533994,0.015003815056582888,0.007520506275433773,-0.050870191557029557, ,0.003481587583578853, ,0.016783101046069844, ,2.2773776530293335e-05, ,0.213440891177817,-0.2163369160056512,0.09344306465,1.8830156924910286,0.9508534018677001,-1.171580760245264, ,0.004841484722383016,-0.00783006041109527,0.0032527693526648977,0.05988027563156851,-0.0005260428458828989,0.006838174725638778, ,0.2453460693359375
0.01022935275895687,0.020096025039600972,-0.08043445043817957, ,0.010440997686144381,0.02020403901151457,-0.08059629370158712, ,0.0002874958003922243, ,0.0012337283314945765,0.0017395272432211531,-0.0038017322260914736,0.004687395328439684,-0.0017281566871691985,-0.005879888231266022, ,0.004359037570925882, ,0.004995818221905847, ,2.341355801571647e-05, ,0.2135335639723077,-0.2164990933960099,0.09351954576,1.8830156924910286,0.9508534018677001,-1.1712540452847016, ,0.004490929214579331,-0.008955056613676638,0.00424315703782632,0.01520658540146734,-0.0005363274385551922,0.009866889234234986, ,0.26436805725097656
0.010244360589857353,0.02011499943720683,-0.08048009813014814, ,0.010462612517921157,0.02023555795977125,-0.08065522405275077, ,0.000304692222142125, ,0.001309241594290879,0.0016346203877125069,-0.0036657647907680883,-0.014187602948901241,-0.003734020283922664,0.013991861424993443, ,0.004221839512035212, ,0.014670752681933892, ,2.4094501493982243e-05, ,0.2135953458353015,-0.21659948892337483,0.09357010107000001,1.8830156924910286,0.9508534018677001,-1.1707639728438584, ,0.005840750970167655,-0.008296148418709046,0.004095863080483415,0.012179939452051371,-0.0005265093494119966,0.034424880995329823, ,0.28726696968078613
0.010276451788698397,0.020161008394484564,-0.08054899048161353, ,0.010484315172636493,0.020266729521075444,-0.08071421553374845, ,0.00028580318550154425, ,0.0010179252323276543,0.0016884393403882212,-0.0017777995553897373,0.00012643129441336913,0.008316473238629532,-0.040401687690117455, ,0.002654726058169443, ,0.008317434218753366, ,2.456356729027955e-05, ,0.21377296869140866,-0.21686206184109846,0.09365176734000001,1.8840641422084514,0.9508534018677001,-1.1701922216628744, ,0.00570477523735157,-0.00916437154381905,0.0022488792206692087,0.06731366591103419,-0.0004884681032618304,0.031592349049307605, ,0.3044278621673584
0.010295166673290146,0.020187234738447263,-0.08059100127255221, ,0.01050610532372179,0.02029755538384943,-0.08077326774299368, ,0.00029981131615578377, ,0.0011706722451345548,0.0016099666344387624,-0.002944579227757835,-0.005862810811925482,-0.005890384403094312,0.014879257765428195, ,0.0035542949931143, ,0.008310786894830016, ,2.5068305819403063e-05, ,0.213888809684522,-0.21705513016295408,0.09370102636000001,1.8840641422084514,0.9508534018677001,-1.169865506702312, ,0.006275154929876048,-0.01058068815454835,0.0033768945346618617,0.003825646653451809,-0.00046152711021150777,0.023537087760885807, ,0.3262948989868164
0.010324077247125758,0.020226733368393656,-0.08067398267392298, ,0.010527982645380785,0.02032803723284369,-0.08083238027941266, ,0.0002773620122059167, ,0.0011137477376967036,0.0016623631205830876,-0.003456199618142143,0.0029054985921680107,-0.0036076444738642913,0.0048173686140570385, ,0.0039936450729058486, ,0.004632172300954139, ,2.538192557595633e-05, ,0.21402009614338383,-0.21729453488205502,0.09379435924000001,1.8840641422084514,0.9508534018677001,-1.169865506702312, ,0.004213567930975981,-0.009801152136290568,0.0038775101071080826,0.004687312494732755,-0.0004283369373772331,0.010505881735624082, ,0.3449430465698242
0.010346377614639201,0.020261439267609132,-0.08073217673037669, ,0.010549946812589474,0.02035817674913945,-0.0808915527424431, ,0.0002760421560362429, ,0.0012052514145525154,0.0017663357504215352,-0.003167879891315704,0.010777373318432109,0.0010327645829485287,-0.023151562956809892, ,0.003822046043848824, ,0.010826743647542707, ,2.5655516529132398e-05, ,0.21411276893787454,-0.2174721577381622,0.09386176632000001,1.8849029019823895,0.9508534018677001,-1.1697838279621715, ,0.005317827799623989,-0.009463134080288715,0.003635884848208172,0.03118487172848116,-0.0004046353950660392,0.00674343356704405, ,0.3629610538482666
0.010372428974589374,0.020293397555744528,-0.08079593925904333, ,0.010571997501094735,0.020387975610152702,-0.08095078473203472, ,0.0002697215706114099, ,0.0011957484913245572,0.0016152386239200493,-0.0026615142440464413,0.014774408190167534,-0.00045468337487439,-0.026465673334685517, ,0.0033350364822547574, ,0.014781402985086588, ,2.586765817858168e-05, ,0.2142595008624848,-0.21767294879289203,0.09393435856000001,1.8849029019823895,0.9508534018677001,-1.169702149222031, ,0.006557948289725736,-0.00909624318528096,0.0031092741596720676,0.0298864012460583,-0.00037786569242601585,0.0003081241352140671, ,0.38081789016723633
0.010385804854681914,0.020308480701464144,-0.08082763786990257, ,0.010594134387413887,0.020417435489637252,-0.08101007584864964, ,0.00029758352804461983, ,0.0010758208249334622,0.0015837692294200514,-0.0034411619824650332,0.005009899975736654,-0.0015808006772479758,-0.0022795121190640174, ,0.0039379323520066945, ,0.005253382535618588, ,2.620502591002639e-05, ,0.21437534185559817,-0.21785057164899918,0.09400824709000001,1.885112591925874,0.9507167653679346,-1.1691006588774913, ,0.0036575841448337845,-0.008458132348315592,0.0038428978335343796,0.009625208636074523,0.0,0.0073246745446782675, ,0.39866209030151367
0.010410964915146693,0.02034488540218697,-0.08090076161060772, ,0.010616357148833544,0.02044655805768826,-0.0810694256932621, ,0.00028455381092721703, ,0.0011705406774178955,0.0016405461992613983,-0.0038052307795646612,-0.0019442513384300096,-0.0005624063208371333,0.0006801479361281415, ,0.004305965466088557, ,0.0020239598165191636, ,2.6447357142548675e-05, ,0.21441395551996928,-0.2179432444434899,0.09405102466000001,1.8855319718128432,0.9505801288681692,-1.1689075622336544, ,0.0037352711853471904,-0.007788685120546438,0.0042217894301616755,0.013782633678036034,0.0002129380042057802,0.01738780557848663, ,0.41591906547546387
0.010437777684368994,0.02038030131886771,-0.08098098537868993, ,0.01063866546340927,0.020475344980745366,-0.08112883386735877, ,0.00026692390869404516, ,0.0015105694124574695,0.001881366764077993,-0.003919524021043433,0.013977005322126689,0.0020200577655629156,-0.03409273221953549, ,0.004602611150462951, ,0.014122227523514686, ,2.6712166001657076e-05, ,0.2145143510473342,-0.2181054218338486,0.09414046867,1.8859513516998119,0.9505801288681692,-1.168580847273092, ,0.006778405016957257,-0.007976272199949157,0.004433290153075425,0.03975059812471368,0.0002129380042057802,0.0029736019123133544, ,0.43336987495422363
0.010464518775329026,0.02040901075042052,-0.08105350835875107, ,0.010661059009964408,0.02050379792159597,-0.08118829997293757, ,0.0002564789482686219, ,0.0012144742543554136,0.001489841725907691,-0.0030381690471854026,0.0019405562555321525,-0.0003837181328104673,-0.012238454916421278, ,0.003595142172713508, ,0.001978129906622834, ,2.6909316325414517e-05, ,0.21464563750619603,-0.21824443102558463,0.09421824607000001,1.8859513516998119,0.9505801288681692,-1.1686625260132326, ,0.005939940968854847,-0.007031606753752022,0.003447048586885956,0.025101701458114817,0.00021087530289866892,0.01432845379798298, ,0.4522130489349365
0.010476740380097795,0.02042316028387014,-0.08108594236584421, ,0.01068353746808939,0.020531918539379024,-0.08124782361251016, ,0.0002842515290464818, ,0.0011798595168004762,0.0015928008490680736,-0.0033928494043720114,0.007046880524769709,3.966424884560087e-05,-0.013639706026879904, ,0.003929441449484155, ,0.007046992119579714, ,2.72158807629397e-05, ,0.21470741936918983,-0.21832165835432688,0.09425713477000001,1.8859513516998119,0.9505801288681692,-1.168580847273092, ,0.00469865484506098,-0.0076425817844091555,0.003813457390471631,0.020992787914602042,0.0002089252651029074,0.006747187802357051, ,0.4669780731201172
0.010502341242635143,0.020457385025612743,-0.08115587447759331, ,0.010706100518141045,0.02055970848958783,-0.08130740438909931, ,0.0002737686025013929, ,0.0013180137782643317,0.0016919958154485361,-0.00394971666139179,0.005413005908385371,-0.0013952310433261578,-0.008116953615404128, ,0.004494471255271958, ,0.005589928592320356, ,2.7456402464218137e-05, ,0.21480781489655473,-0.21846066754606294,0.09433620846000002,1.8867901114737502,0.9505801288681692,-1.16825413231253, ,0.005031573281934083,-0.007735127851104563,0.004392943055708771,0.01590265668144288,0.00020481555963956102,0.007675836262182366, ,0.4830920696258545
0.010535091320385666,0.020497420921333324,-0.08124891047078951, ,0.010728747841241552,0.020587169424073782,-0.08136704190624085, ,0.00024395220403995802, ,0.0010180958093029355,0.0011074367110596147,-0.003163378812429145,-0.018879002045265797,-0.010336751487433155,0.046383420709253324, ,0.0035028417972909312, ,0.02152359517416463, ,2.755723642407794e-05, ,0.21493910135541655,-0.21861512220354742,0.09443731908000001,1.8874191813042036,0.9505801288681692,-1.167845738611827, ,0.004691694563468311,-0.006559247322131617,0.0035397358933333335,-0.02763800457913792,0.0001990613301532285,0.028502440165689594, ,0.503978967666626
0.010546016516355988,0.020509562773237813,-0.08127530178352196, ,0.010751479119278094,0.020614302991049358,-0.08142673576798284, ,0.00027589426611735753, ,0.001078549824094393,0.000984790990189233,-0.0024349186204745627,-0.002097150315810337,-0.011158052640123048,0.02430687792130787, ,0.0028393505781684806, ,0.011353421426216438, ,2.7779872467149165e-05, ,0.21500088321841035,-0.21869234953228966,0.09446972633,1.8874191813042036,0.9505801288681692,-1.1675190236512647, ,0.007105779740576143,-0.006454347533609596,0.0027280033430381917,-0.019520048031609154,0.00019628059138742008,0.006116720912247849, ,0.5201389789581299
0.010568477152394732,0.02053118929879178,-0.08132196144621172, ,0.010774294034901481,0.02064111083509175,-0.08148648557888552, ,0.00028550223028797703, ,0.0013464056541857125,0.0010611076167071532,-0.002734570780182853,0.010882119123941363,-0.011893042952659685,0.005896297951283752, ,0.003227481202375476, ,0.016120328382156022, ,2.8026032975128866e-05, ,0.2151476151430206,-0.21881591325827726,0.09452287422000001,1.8874191813042036,0.9505801288681692,-1.167273987430843, ,0.009322617968300695,-0.005895537463705574,0.0030697266371169786,-0.012657308009989524,0.00019106223599589094,-0.010745567288079365, ,0.5360360145568848
0.01059682747936286,0.0205623214250213,-0.08139095563926527, ,0.010797192271525716,0.02066759459714602,-0.08154629094402224, ,0.0002745132922311924, ,0.0015213988835824119,0.001571867280801388,-0.004037214847352103,0.01323169744622896,-0.003360365785889338,-0.018424955465256753, ,0.0045917888709194835, ,0.013651735217582709, ,2.821586327109174e-05, ,0.21521711973888863,-0.21888541785414528,0.09455528147000002,1.8872094913607194,0.9505801288681692,-1.167273987430843, ,0.0060598923713286006,-0.007169755703704964,0.0036259529979512867,0.0,0.00018860195259547127,-0.007479523667326209, ,0.5523369312286377
0.010608741344738966,0.02057750813453716,-0.08142315602131486, ,0.010820173513327244,0.02069375591452867,-0.08160615146897815, ,0.0003028274131124574, ,0.0015369512655354239,0.0019966329388280903,-0.004292831742278191,0.021130948025128122,0.007725545454842419,-0.057789162735599385, ,0.0049776667880198095, ,0.02249891143050327, ,2.8498282710446037e-05, ,0.21534068346487623,-0.21900898158013288,0.09463694774,1.888257941078142,0.9505801288681692,-1.167110629950562, ,0.005458953691379044,-0.006558453868342348,0.004826912581818183,0.05990419807559014,0.0001835934444008799,-0.003039834881845352, ,0.5696840286254883
0.010639650310345885,0.020610579999213754,-0.08151414142511246, ,0.010843237445243802,0.020719596420930596,-0.08166606675985134, ,0.0002764301160065774, ,0.0013445366499138754,0.0013296076586817773,-0.00362078606862475,0.0027407989233752443,-0.010186405868651688,0.016959718484112433, ,0.0040848166524011745, ,0.010548689143062073, ,2.8670680768535038e-05, ,0.21547196992373804,-0.21914799077186892,0.09473676207000001,1.888257941078142,0.9505801288681692,-1.1671923086907026, ,0.007026770871154624,-0.006921922489742113,0.003991183041844149,-0.015293142911222954,0.00017782731544256785,0.001220313249347797, ,0.5863869190216064
0.01065245257212469,0.020623007921739718,-0.08154826282579367, ,0.010866383752973918,0.020745117746420728,-0.08172603642325273, ,0.000303777568916318, ,0.0013668559299151047,0.0013598990004389658,-0.0029459402995249385,0.008300333738452901,-0.00550810635103169,-0.009182997223462481, ,0.0035208215906097923, ,0.009961665298638294, ,2.9028607169703696e-05, ,0.21554147451960606,-0.21921749536773694,0.09477435448,1.8880482511346572,0.9505801288681692,-1.1671923086907026, ,0.008278392898636397,-0.006700640062608313,0.003349907785488959,0.011991574041985883,0.0001752028222199971,0.0011066303215288963, ,0.6001949310302734
0.010669421378495431,0.020639868857202284,-0.08158205984555265, ,0.010889612122976046,0.020770321517449276,-0.0817860600663055, ,0.0003272887877512044, ,0.0013795334765104343,0.0013461846250345203,-0.0029866950763355027,0.0061976879247349825,-0.0053989865791969505,-0.007968854777610505, ,0.003554669202119802, ,0.008219512847918392, ,2.9449246280087692e-05, ,0.21564959277984522,-0.2193024454293534,0.09481324318,1.888257941078142,0.9505801288681692,-1.1670289512104213, ,0.008297979175199212,-0.006376719739615398,0.0033876672735006384,0.012590623021859907,0.00017220489485470972,0.0037697811738552356, ,0.6157379150390625
0.010695160796273086,0.020669173926837293,-0.08165085630790773, ,0.010912922242467614,0.02079520935685115,-0.08184613729664539, ,0.00031849590520109644, ,0.0016437323706460214,0.0017705765702285933,-0.004559678047628187,0.004510872364869516,-0.0023599728877484283,-0.01315553409508065, ,0.005160180364616573, ,0.005090917358602724, ,2.9821270059029685e-05, ,0.2157731565058328,-0.21941828642246677,0.09489102058000001,1.888677320965111,0.9507167653679346,-1.166895332893696, ,0.007061458502537835,-0.006395804115027814,0.005042358822412157,0.02159444054493106,0.0,0.008707085070055708, ,0.6287250518798828
0.010710781563389601,0.02068788829828111,-0.08169912611944895, ,0.010936313799424509,0.020819782883848982,-0.08190626772242122, ,0.00033341957782192475, ,0.0016576571424981698,0.0020189970373750486,-0.00524776812699944,0.0014544888149851409,-0.0008587373810716155,-0.008443143215070082, ,0.005862017276821661, ,0.001689071822823767, ,3.022473506682489e-05, ,0.21582721563595236,-0.2194877910183348,0.09494416847,1.8888870109085953,0.9507167653679346,-1.166731975413415, ,0.0054402542779078515,-0.007533303457807318,0.005769218225280696,0.021029759659977394,0.0,0.014350422312816094, ,0.6420400142669678
0.010741372011419493,0.020720299757732985,-0.08178896124525917, ,0.01095978648257985,0.020844043714056893,-0.0819664509522943, ,0.0003074411228875658, ,0.001706219956483988,0.0017577864792540686,-0.004741011135155013,-0.008745788500969926,-0.0059172669876345,0.01037776408740467, ,0.005336495706942568, ,0.010559491593413703, ,3.0528114742203975e-05, ,0.21595077936193996,-0.21960363201144817,0.09504268651000002,1.8890967008520798,0.9507167653679346,-1.1664052604528525, ,0.007688152094264138,-0.0068671372875772465,0.005222561154098361,0.00810710323313421,0.0,0.023891497236499894, ,0.6579110622406006
0.01075314584380343,0.02073265178666545,-0.08182188699273965, ,0.01098333998142366,0.020867993459483525,-0.08202668659543877, ,0.00033652575928394074, ,0.001452849689867055,0.0015701193672734354,-0.0037687968913349503,0.01061194662943075,-0.005439937298678013,-0.00792833309439504, ,0.004333575551085952, ,0.011925029489233336, ,3.0908390148050764e-05, ,0.21600483849205954,-0.21965769114156772,0.09507898263,1.8890967008520798,0.9507167653679346,-1.166160224232431, ,0.00720607640269335,-0.00727200815585458,0.0042061820755215215,0.00810710323313421,0.0,-0.0025258028324632517, ,0.6716330051422119
0.010793251337811685,0.020774471867378956,-0.08191479257933587, ,0.011006973986201714,0.020891633728535437,-0.0820869742615418, ,0.00029841381307131224, ,0.0016467445867131621,0.0017260744646290316,-0.004021910396248714,0.010707386064387413,-0.0037087358208390906,-0.018305225103993593, ,0.004676201880454584, ,0.011331497547467349, ,3.115704191179305e-05, ,0.21622107501253782,-0.2198353139976749,0.09518398212000001,1.8897257706825337,0.9507167653679346,-1.1658335092718688, ,0.008443673808426462,-0.007200407387858177,0.004513689861150468,0.021710755166650587,0.0,0.0012135264818207408, ,0.6853458881378174
0.010809313255729674,0.02079065624789478,-0.08195826527378479, ,0.011030688187914833,0.020914966126020503,-0.08214731356080285, ,0.0003165423529704653, ,0.0018645340025131997,0.0019162878664053793,-0.0050126457440929145,0.006901105693094615,-0.003698324591801805,-0.01510908880785271, ,0.005681132245356834, ,0.007829614384429832, ,3.144915781561476e-05, ,0.21629830234128006,-0.2199048185935429,0.09523194485000001,1.8897257706825337,0.9507167653679346,-1.165751830531728, ,0.008436023752763344,-0.006772602615344787,0.005544313094326489,0.021710755166650587,0.0,0.00593515059890675, ,0.6992800235748291
0.01084657193927171,0.020828727475998017,-0.08206322922150475, ,0.01105448227831801,0.020937992253151193,-0.08220770410393491, ,0.0002757507792588989, ,0.0016599150753040792,0.0016667142478143868,-0.004646166903018862,0.01568407042661339,-0.005385106232021626,-0.01489203371857371, ,0.0052076982758025745, ,0.016582805314905146, ,3.161080512535195e-05, ,0.21645275699876457,-0.22003610505240473,0.09534342579,1.8899354606260181,0.9507167653679346,-1.1656701517915875, ,0.007338896776969595,-0.005975040401967157,0.005050352415979709,0.008825699697185161,0.0,-0.01141564341417774, ,0.7138869762420654
0.010862224787874169,0.020844813640901686,-0.0821054333785001, ,0.011078355949919778,0.02096071370754802,-0.08226814550216319, ,0.00029431401570900793, ,0.0017717794822074313,0.0017273714682984507,-0.004548912305455385,0.015322903618402144,-0.0057201341187086115,-0.017730398991355527, ,0.0051783798514386924, ,0.01635577291622396, ,3.1818891677578575e-05, ,0.2165299843275068,-0.22009788691539853,0.09539398110000001,1.8901451505695024,0.9507167653679346,-1.165588473051447, ,0.00873634328056861,-0.006450248853751543,0.00503916846567542,0.013828763176554706,0.0,-0.00852881516680702, ,0.7272310256958008
0.010879208334598359,0.020860975976859226,-0.0821447539956378, ,0.011102308895981237,0.020983132083242557,-0.08232863736722631, ,0.0003138615445747577, ,0.0017458644805917317,0.001624347862153786,-0.0041687844229242495,0.009099886269237733,-0.006189425297665533,-0.012625163398532535, ,0.004802635976908023, ,0.011005313006424728, ,3.207344280280681e-05, ,0.2166226571219975,-0.22015966877839233,0.09543805496,1.890354840512987,0.9507167653679346,-1.1656701517915875, ,0.009386498864490866,-0.00617360237908192,0.004643968373177843,0.014639350873908115,0.0,0.0, ,0.7412478923797607
0.010897921950017934,0.020878276102705432,-0.08218892789162073, ,0.011126340810515301,0.021005248970681078,-0.08238917931137595, ,0.00032923838802128744, ,0.0019012619788276446,0.001658241894848443,-0.004536670679613475,0.007235995325154215,-0.007243451725162527,-0.010534533331789097, ,0.005190948289978504, ,0.01023851646083116, ,3.244926074567616e-05, ,0.21672305264936242,-0.22022145064138612,0.09548731398000002,1.8905645304564715,0.9507167653679346,-1.165588473051447, ,0.010292459456379369,-0.005653807921212047,0.00502803393939394,0.013528135059686057,0.00010042765436501652,0.0016023692556806682, ,0.7527298927307129
0.010937997600316132,0.020913932926237756,-0.0822914272615338, ,0.011150451388285833,0.021027065956727865,-0.08244977094737613, ,0.0002881118141567365, ,0.001933129700384914,0.001813241706039772,-0.005176146951066769,0.0031652928429428953,-0.0035320833882428256,-0.015002710651088961, ,0.005815267249410822, ,0.004742856536671959, ,3.270173709616989e-05, ,0.21692384370409226,-0.2203372916344995,0.09560009121000002,1.890774220399956,0.9507167653679346,-1.1653434368310251, ,0.008690259857618675,-0.004939224264054425,0.005686830246340593,0.023579778359529367,0.0,0.00920428252446575, ,0.7656610012054443
0.010954765615572674,0.020928817484197018,-0.08233781138098073, ,0.011174640324807143,0.021048584624668198,-0.08251041188850473, ,0.0003041052299700367, ,0.001873668727172535,0.0016401631575941945,-0.004773468477664167,-0.0063215557272670855,-0.004790563605775749,-0.0037195959276498072, ,0.005383936384279365, ,0.007931681032135164, ,3.2988691371151325e-05, ,0.2170010710328345,-0.22038362803174483,0.09565064652000001,1.890774220399956,0.9507167653679346,-1.1650984006106035, ,0.00913193578631206,-0.00431203978585847,0.00524837282372323,0.019816812213436657,0.0,0.020460534308726495, ,0.7778730392456055
0.010974811637104825,0.020945123756118882,-0.08239011416125734, ,0.011198907316342436,0.02106980655421233,-0.08257110174855192, ,0.00031388083781602727, ,0.0019273646131183842,0.0017017758336843453,-0.004997825712214239,-0.008974420138354502,-0.005638144352942871,0.001755889731465561, ,0.0056204125462178305, ,0.010598532230743706, ,3.329222197216996e-05, ,0.2171014665601994,-0.22042996442899018,0.09570768328000001,1.890774220399956,0.9507167653679346,-1.1649350431303225, ,0.009261870795350687,-0.004692636804492925,0.005487017402686876,0.016528051095212916,0.0,0.023709174423715236, ,0.7892670631408691
0.010997087143394152,0.02096551804548789,-0.08244474944671164, ,0.011223252059903903,0.021090733321498085,-0.08263184014182151, ,0.00031911183463304455, ,0.002098771396462874,0.0018124322715223039,-0.005356151645660745,-0.007135040663904544,-0.007570686764382702,0.0032590872804054614, ,0.006031427075309834, ,0.01040308122393265, ,3.3599846979386516e-05, ,0.21720186208756434,-0.22048402355910976,0.09576731262,1.8911936002869252,0.9505801288681692,-1.1648236252266262, ,0.010434696470603732,-0.005267922948636273,0.005882131285081241,0.013033482450771905,0.0,0.02090684684970506, ,0.8011159896850586
0.011033067466405803,0.02099750237324867,-0.08253258620829342, ,0.011247674253251218,0.021111366499094737,-0.08269262668312999, ,0.00029091934569690973, ,0.002048902901417197,0.0018844676915885069,-0.004834435086505262,0.004325383764267851,0.0022041788062004326,-0.04132433936555791, ,0.005578618483613113, ,0.004854621126013513, ,3.382654815659614e-05, ,0.21737948494367149,-0.220561250887852,0.09586453437,1.8918226701173786,0.9505801288681692,-1.1646602677463451, ,0.009980008278072576,-0.0039018460569243785,0.005390460751269035,0.055625730731203915,0.0,0.015576722913535124, ,0.8164138793945312
0.011057749977978029,0.021016967667322372,-0.08259151973199227, ,0.011272173594891195,0.0211317076560059,-0.08275346098780732, ,0.0002921775536008458, ,0.0018233705524065542,0.001176804841114507,-0.004409202515918005,-0.011220344702574124,-0.01616840849700644,0.03390027556448315, ,0.00491432768869065, ,0.019680283709951257, ,3.404959381824931e-05, ,0.2175107714025333,-0.22060758728509736,0.09592934887000001,1.8920323600608633,0.9505801288681692,-1.1644969102660638, ,0.010689494383531584,-0.0036539535166429968,0.004777687918416317,-0.02509788035950549,0.0,0.013226383135431886, ,0.8285269737243652
0.011075424503707486,0.021030103692826853,-0.08263284277070683, ,0.011296749784076545,0.021151758357673415,-0.08281434267169659, ,0.00031100956780887544, ,0.0016755798315566674,0.001133322110972665,-0.004088010865592246,-0.009114744060417955,-0.013557523201227004,0.026471011785293826, ,0.004561120434316471, ,0.01633661511749026, ,3.431243126874039e-05, ,0.21761116692989824,-0.22064620094946846,0.09597471902000002,1.8920323600608633,0.9505801288681692,-1.1644969102660638, ,0.009582236329457091,-0.0034528259823123726,0.004438231128448036,-0.01821622554932194,0.0,0.012035690302970973, ,0.8399059772491455
0.011093072142814932,0.021043885008106614,-0.08267400354542856, ,0.011321402520805539,0.02117152016598007,-0.08287527135115384, ,0.0003300518514721365, ,0.0019521075812226985,0.0014262408762494988,-0.004899821006427646,-0.004281872149870375,-0.013782122519292481,0.020044675502433957, ,0.005463802059077699, ,0.014431955079627566, ,3.461383239461344e-05, ,0.21771156245726314,-0.22069253734671382,0.09602008917,1.8920323600608633,0.9505801288681692,-1.1644152315259233, ,0.010607176903237472,-0.0043227088854375,0.0053291440347942465,-0.014535438266925802,0.0,0.0075684418323322695, ,0.8517119884490967
0.01115565368354493,0.021093865266229805,-0.08283026714184902, ,0.011346131505820695,0.02119099463925333,-0.08293624664304848, ,0.00023863690108059024, ,0.002018380143455256,0.001436356363359412,-0.004858329333981736,0.001194235570260102,-0.006571756086082828,-0.012566411026527459, ,0.005453470631028002, ,0.00667938424898393, ,3.468788480301753e-05, ,0.21802047177223213,-0.22080065560695294,0.09618990316,1.8924517399478324,0.9505801288681692,-1.1641701953055017, ,0.010715943791826733,-0.0020693324996339884,0.005352423225806452,0.01806700736345912,0.0,0.0061410646290986776, ,0.8743669986724854
0.011172630513588837,0.021107245760803205,-0.08286892509320873, ,0.011370936440608397,0.021210183332268536,-0.08299726816476327, ,0.00029625310062553797, ,0.0015626270306249939,0.0013765155993476679,-0.0032206843426619545,0.007500838546015201,-0.00012119867312100115,-0.03272610226846729, ,0.0040632235529349595, ,0.00750181762409776, ,3.4978224464035144e-05, ,0.21812086729959707,-0.22083926927132408,0.09623397702000001,1.892661429891317,0.9505801288681692,-1.1640885165653612, ,0.008828403092284564,-0.0036638435080809,0.0036475409938172662,0.03971715011224575,0.0,0.006207539125070428, ,0.8844649791717529
0.011172630513588837,0.021107245760803205,-0.08286892509320873, ,0.011395817027397687,0.021229087796252214,-0.08305833553419409, ,0.0003170709963127724, ,0.0017045458122263379,0.0009864165065183,-0.004103986369157822,-0.00830091180100546,-0.018173854998951883,0.03856649490126401, ,0.004602097625031498, ,0.019979843369926472, ,3.5310420431307565e-05, ,0.21822126282696197,-0.22087016020282096,0.09627416201000001,1.8928711198348012,0.9505801288681692,-1.1640068378252206, ,0.01031392608181529,-0.00316308628643717,0.004422213081621322,-0.03590624061533454,0.0,0.005291940053796622, ,0.8942430019378662
0.011189707371744136,0.02112006070507299,-0.08290502381466223, ,0.011420772969159903,0.02124770957888538,-0.0831194483697502, ,0.0003400932741460047, ,0.0017045458122263379,0.0009864165065183,-0.004103986369157822,-0.00830091180100546,-0.018173854998951883,0.03856649490126401, ,0.004552054269068342, ,0.019979843369926472, ,3.5688113669158526e-05, ,0.21822126282696197,-0.22087016020282096,0.09627416201000001,1.8928711198348012,0.9505801288681692,-1.1640068378252206, ,0.01031392608181529,-0.00316308628643717,0.004422213081621322,-0.03590624061533454,0.0,0.005291940053796622, ,0.9066140651702881
0.01121770234371055,0.02113990649451083,-0.08296876934984546, ,0.01144580396960734,0.021266050224306946,-0.08318060629035422, ,0.0003358831369207853, ,0.001884356526462642,0.0012292252632154122,-0.004190640339424119,-0.00737269637455182,-0.016957449544646327,0.03003014246133499, ,0.004756391565142429, ,0.01849085572920141, ,3.604757158827952e-05, ,0.21838344021732067,-0.22092421933294054,0.09634416167000001,1.8928711198348012,0.9505801288681692,-1.1638434803449393, ,0.011826637781464453,-0.0046077246088594434,0.00458911308556612,-0.023465764981192166,0.0,0.00961153955580272, ,0.9169049263000488
0.011240641898875664,0.021155045276110396,-0.0830240004394103, ,0.011470909733192954,0.02128411127311707,-0.08324180891544178, ,0.0003422306814645003, ,0.0019389756446826386,0.00137085756545061,-0.004918496277636273,-0.0074274581329725285,-0.008830360968854633,0.01060293590691558, ,0.005461728906541179, ,0.01153873503807332, ,3.641324387614205e-05, ,0.2185224494090567,-0.22096283299731168,0.09640508730000001,1.892661429891317,0.9507167653679346,-1.1639548982486358, ,0.009974091790485378,-0.002396818892931525,0.0053416537625754525,0.0,0.0012207534609391148,0.014031786966150879, ,0.9261550903320312
0.011263869733709991,0.021171186536010533,-0.08308395203423806, ,0.01149608996510905,0.02130189426238034,-0.0833030558649626, ,0.00034498874509462766, ,0.0023256209756196094,0.0016526710065846277,-0.006316840808894163,-0.006845196272227842,-0.009704630696835425,0.009478153784152066, ,0.006931256176419829, ,0.01187588139506115, ,3.677691022818205e-05, ,0.2186382904021701,-0.22098600119593434,0.09646990180000001,1.892661429891317,0.9507167653679346,-1.1639548982486358, ,0.010846667760293447,-0.0019140743402060254,0.006810094707139805,0.0,0.0012207534609391148,0.012565041887262068, ,0.9364199638366699
0.011287376933205907,0.02119162606685665,-0.08314948947635978, ,0.011521344371287025,0.021319400725629104,-0.08336434675937902, ,0.0003423898035471722, ,0.002475492614124698,0.0020515788424290316,-0.007354734087466387,0.0035715069081830855,-0.005915650065418844,-0.008158249745267881, ,0.008026777244114129, ,0.006910177694680194, ,3.712681144762192e-05, ,0.2187309631966608,-0.22100916939455703,0.09654119775000002,1.893080809778286,0.9507167653679346,-1.1637915407683546, ,0.009563509330914984,-0.0028057794132143763,0.00792872649079144,0.011502462504532497,0.001213666415666706,0.0026743811194667485, ,0.9457509517669678
0.011301544460756797,0.021204017116763233,-0.083190114180566, ,0.01154667265839585,0.021336632192867144,-0.08342568121966748, ,0.00036491974679215866, ,0.002631108788248029,0.002218164894669949,-0.007676730828562564,0.003345363626395374,-0.0051599424639049655,-0.012672547013827553, ,0.008412798890366096, ,0.006149507082872894, ,3.751826491826395e-05, ,0.21878502232678035,-0.22102461486030547,0.09658527161000001,1.8932904997217703,0.9507167653679346,-1.163709862028214, ,0.010336590606777565,-0.0032459247715588696,0.008300579218342888,0.01850761793175083,0.0012016606162117709,0.0056458740896919955, ,0.9586949348449707
0.011342697629093946,0.02123538711836727,-0.08330961370100347, ,0.011572074533842045,0.021353590190572366,-0.08348705886731744, ,0.0003131653201724867, ,0.002809416217226922,0.002135172326747579,-0.00782873462466632,-0.001469105969388989,-0.006831989842490051,-0.009649053873538893, ,0.00858725021004836, ,0.0069881562768514495, ,3.778948305126863e-05, ,0.2189549224500133,-0.22106322852467658,0.09671360432000001,1.8932904997217703,0.9507167653679346,-1.163546504547933, ,0.011986314637982188,-0.0018550180921423469,0.008450297888594166,0.01850761793175083,0.0011705628295457856,0.010443588275955696, ,0.9681699275970459
0.011370295680109032,0.02125466857386762,-0.08338294835456932, ,0.01159754970576798,0.021370276241700795,-0.08354847932433196, ,0.00030399017581261346, ,0.002566681357537623,0.0018430191775713255,-0.006367296233553902,-0.003858397465805227,-0.007783785429950413,-0.006809057316220661, ,0.007108237067364634, ,0.008687608195457016, ,3.8035300915705105e-05, ,0.21908620890887512,-0.22108639672329927,0.09679267801000001,1.8932904997217703,0.9507167653679346,-1.1634648258077924, ,0.012923456565228213,-0.0023228330060808544,0.00693763567944251,0.01850761793175083,0.0011492896650327062,0.014393896284636875, ,0.9783470630645752
0.011421243779667713,0.02128639811025675,-0.08350504055624709, ,0.011623097883052025,0.021386691865689436,-0.08360994221322755, ,0.0002486126989297246, ,0.002401389515758782,0.0014580206980402222,-0.005653701206542012,0.0008685583963801381,-0.009860616921257998,-0.006978799375601981, ,0.006313226852819761, ,0.009898795582252864, ,3.815884466697614e-05, ,0.21935650455947298,-0.22110184218904771,0.09692489959000002,1.893500189665255,0.9507167653679346,-1.1633014683275111, ,0.013049634427732505,-0.0005410881347769872,0.0061335431343858314,0.009839266383152332,0.0011103903607005445,0.002838116348794837, ,0.9949960708618164
0.011421243779667713,0.02128639811025675,-0.08350504055624709, ,0.011648718775306878,0.021402838578459638,-0.08367144715703431, ,0.0003049498533560937, ,0.002401389515758782,0.0014580206980402222,-0.005653701206542012,0.0008685583963801381,-0.009860616921257998,-0.006978799375601981, ,0.006313226852819761, ,0.009898795582252864, ,3.847816222397444e-05, ,0.21948006828546057,-0.22112501038767038,0.09697934377,1.893500189665255,0.9507167653679346,-1.1632197895873706, ,0.012009225365082504,-0.0015347936895991838,0.0049330478538247135,0.009839266383152332,0.0010930857610097764,0.009520498308423707, ,1.0032670497894287
0.011444491162811068,0.021301138229858768,-0.0835586062630101, ,0.011674412092879179,0.021418717892420894,-0.08373299377929609, ,0.00031160811441297205, ,0.0019920087972981598,0.0012996178085834037,-0.004295069780662939,-0.002222342178650894,-0.008627732679252789,-0.0019091931908213008, ,0.004909656802431752, ,0.008909353202224126, ,3.880601142463364e-05, ,0.21948006828546057,-0.22112501038767038,0.09697934377,1.893500189665255,0.9507167653679346,-1.1632197895873706, ,0.012009225365082504,-0.0015347936895991838,0.0049330478538247135,0.009839266383152332,0.0010930857610097764,0.009520498308423707, ,1.0107309818267822
0.01146441395942638,0.021312674020698596,-0.08360035488295356, ,0.011700177546848798,0.021434331316473477,-0.08379458170406999, ,0.0003287993686285588, ,0.002174863304289505,0.001350866982240577,-0.0044358538055247945,-0.0020797062892181314,-0.011315974584217497,-0.0013302208703813733, ,0.0051216863414349795, ,0.01150549683075928, ,3.9163898688406886e-05, ,0.2196113547443224,-0.22114045585341882,0.09702601021000001,1.893500189665255,0.9508534018677001,-1.163331207491067, ,0.013477764743427179,-0.0026903948946297184,0.004747782867362146,0.00876942952668299,0.0003153036496678591,0.009163624998529612, ,1.0189878940582275
0.011488065522174101,0.021327774363586707,-0.08365107877549394, ,0.011726014849027635,0.02144968035601213,-0.08385621055592685, ,0.00033698664733614156, ,0.002536126241667714,0.0016103699520268603,-0.005882686250442416,-0.00013719907937848316,-0.011455987068471183,-0.00516591220002073, ,0.006605393645893547, ,0.01145680829268793, ,3.953267384706233e-05, ,0.21975036393605843,-0.22114045585341882,0.09708304697,1.8937098796087395,0.9508534018677001,-1.1632495287509266, ,0.013918589257622587,-0.0016611242181207805,0.00633352346719682,0.007259416792412066,0.0003153036496678591,0.005468216673116352, ,1.0268869400024414
0.011488065522174101,0.021327774363586707,-0.08365107877549394, ,0.011751923711959048,0.02146476651292947,-0.08391787995995124, ,0.00039946322149349517, ,0.002536126241667714,0.0016103699520268603,-0.005882686250442416,-0.00013719907937848316,-0.011455987068471183,-0.00516591220002073, ,0.006605393645893547, ,0.01145680829268793, ,4.0022192155592244e-05, ,0.21975036393605843,-0.22114045585341882,0.09708304697,1.8937098796087395,0.9508534018677001,-1.1632495287509266, ,0.013918589257622587,-0.0016611242181207805,0.00633352346719682,0.007259416792412066,0.0003153036496678591,0.005468216673116352, ,1.0407140254974365
0.0115126638885018,0.02134350957409546,-0.08370823109696146, ,0.011777903848916978,0.021479591285619118,-0.08397958954174096, ,0.00040312017360261815, ,0.0027485456522066236,0.00162593699400176,-0.006571957169881397,-0.0009632908711284948,-0.012091354975088925,-0.006335716374575314, ,0.007306763671659493, ,0.01212966537776219, ,4.0511188946296975e-05, ,0.21988165039492025,-0.22114817858629307,0.09714786147000001,1.8941292594957087,0.9508534018677001,-1.163167850010786, ,0.01457262616069883,0.0,0.007101565546143559,0.009950570914237145,0.0003153036496678591,0.004396937679444605, ,1.0484519004821777
0.011572571882024417,0.021381291687360544,-0.08385978376086556, ,0.011803954973905123,0.021494156168979144,-0.0840413389274081, ,0.0003150219118055144, ,0.00275331369367929,0.001799151792054973,-0.007069506087278573,-0.0019111808940441373,-0.010802265169584623,-0.0046202539691493055, ,0.007797153312890885, ,0.010970028602771456, ,4.081653257108804e-05, ,0.220182836977015,-0.22117134678491573,0.09731119401,1.8941292594957087,0.9508534018677001,-1.1630861712706455, ,0.013287166278139287,-0.0006899499309907562,0.007625089286740067,0.009950570914237145,0.0003153036496678591,0.006651628132376642, ,1.055898904800415
0.011601856056799236,0.021398805202538375,-0.08392792895698087, ,0.011830076801656235,0.021508462654415243,-0.08410312774357814, ,0.000307902711843154, ,0.002965755752406777,0.0018021932996818454,-0.0069306829731691595,0.00010060439926767213,-0.01359474270000346,-0.006205023764150389, ,0.0077509982806686865, ,0.013595114355285211, ,4.110294164348171e-05, ,0.22034501436737372,-0.22118679225066418,0.09738508254000001,1.8941292594957087,0.9508534018677001,-1.163004492530505, ,0.016076053118494117,-0.000995307213933295,0.007520685325779038,0.009950570914237145,0.0003153036496678591,0.004272297546781527, ,1.0633900165557861
0.011601856056799236,0.021398805202538375,-0.08392792895698087, ,0.01185626904763094,0.021522512229844318,-0.08416495561739011, ,0.0003690677935739778, ,0.002965755752406777,0.0018021932996818454,-0.0069306829731691595,0.00010060439926767213,-0.01359474270000346,-0.006205023764150389, ,0.0077509982806686865, ,0.013595114355285211, ,4.15050163527156e-05, ,0.22034501436737372,-0.22118679225066418,0.09738508254000001,1.8941292594957087,0.9508534018677001,-1.163004492530505, ,0.016076053118494117,-0.000995307213933295,0.007520685325779038,0.009950570914237145,0.0003153036496678591,0.004272297546781527, ,1.0709378719329834
0.011630378555321319,0.02141673878949879,-0.08399642695263122, ,0.01188253142801749,0.021536306379697355,-0.08422682217649693, ,0.0003618831842113623, ,0.003199912897662943,0.0019389211025370254,-0.007547173970879364,-0.002787977995012803,-0.013383179612183967,-0.003194717333376682, ,0.008423698269834457, ,0.013670489872218512, ,4.188681580456843e-05, ,0.2204994690248582,-0.22118679225066418,0.09746026736,1.894338949439193,0.9509900383674655,-1.1630342316940607, ,0.01722580169876035,-0.0008410986803687993,0.008189620318766069,0.010374901062757328,0.0016784175223461331,0.008704515379355572, ,1.0791468620300293
0.011665729322895446,0.021436648369221996,-0.08407960936517817, ,0.011908863659730429,0.021549846584923336,-0.08428872704906536, ,0.0003400857943232816, ,0.003358307362703988,0.0019726491124762847,-0.007745019642341592,-0.001412008371276017,-0.013578141617012792,-0.0040862122535595445, ,0.008669192703106926, ,0.013651361453854005, ,4.2302368802455205e-05, ,0.2206848146138396,-0.22118679225066418,0.0975458225,1.894338949439193,0.951126674867231,-1.163145649597757, ,0.018618195322438844,-0.0006535778443584461,0.008379174918463968,0.010374901062757328,0.0029329244088489425,0.007051214552633385, ,1.0854759216308594
0.011665729322895446,0.021436648369221996,-0.08407960936517817, ,0.011935265460409891,0.02156313432299218,-0.08435066986377585, ,0.00040264403612543675, ,0.003358307362703988,0.0019726491124762847,-0.007745019642341592,-0.001412008371276017,-0.013578141617012792,-0.0040862122535595445, ,0.008669192703106926, ,0.013651361453854005, ,4.283365383081372e-05, ,0.2206848146138396,-0.22118679225066418,0.0975458225,1.894338949439193,0.951126674867231,-1.163145649597757, ,0.018618195322438844,-0.0006535778443584461,0.008379174918463968,0.010374901062757328,0.0029329244088489425,0.007051214552633385, ,1.0910589694976807
0.011697615018431551,0.021456072358051234,-0.08415899776141718, ,0.011961736548421087,0.02157617106789798,-0.08441265024982281, ,0.0003853874253076165, ,0.0035149634447034944,0.0021713527262012633,-0.008869008311070887,0.0010468663281956259,-0.012447688375485724,-0.007200985019997923, ,0.009784122295894915, ,0.012491630002814452, ,4.3325773493294896e-05, ,0.22086243746994674,-0.2211945149835384,0.0976365628,1.894338949439193,0.951126674867231,-1.1630639708576165, ,0.01744108464592369,0.0,0.009572603076923078,0.010374901062757328,0.0029329244088489425,0.0027033738184452827, ,1.0972559452056885
0.011737194454674624,0.02148168359069035,-0.08426128892426728, ,0.011988276642852931,0.02158895829016264,-0.08447466783691411, ,0.0004492109164174789, ,0.003833994770315185,0.0024861283601880996,-0.010233305700929098,0.0015032158528192792,-0.01257435590421475,-0.007554571399529199, ,0.011207180541545842, ,0.012663884557416771, ,4.3933837485556986e-05, ,0.22104778305892814,-0.2211945149835384,0.09774674745,1.8945486393826774,0.951126674867231,-1.1629006133773354, ,0.01754426725059545,-6.144224966213089e-06,0.011008162764340015,0.010272253828922448,0.0029329244088489425,0.0020503688113358842, ,1.1034190654754639
0.011737194454674624,0.02148168359069035,-0.08426128892426728, ,0.012014885463517823,0.021601497456839015,-0.08453672225527176, ,0.00040906133860592, ,0.003833994770315185,0.0024861283601880996,-0.010233305700929098,0.0015032158528192792,-0.01257435590421475,-0.007554571399529199, ,0.011207180541545842, ,0.012663884557416771, ,4.4458950792657836e-05, ,0.22104778305892814,-0.2211945149835384,0.09774674745,1.8945486393826774,0.951126674867231,-1.1629006133773354, ,0.01754426725059545,-6.144224966213089e-06,0.011008162764340015,0.010272253828922448,0.0029329244088489425,0.0020503688113358842, ,1.1123409271240234
0.0117496497032985,0.021490799264828442,-0.08429354643828718, ,0.012041562730950384,0.021613790031514233,-0.08459881313563167, ,0.00043991783427187664, ,0.0037965738120749252,0.0024602345857038313,-0.010127739184107093,-0.0005651280755418213,-0.012466299532630287,-0.005343661845194694, ,0.011092241789130123, ,0.012479098013349916, ,4.503624077739211e-05, ,0.22110184218904771,-0.2211945149835384,0.09778174728000001,1.894758329326162,0.951126674867231,-1.1628189346371949, ,0.01738039222682615,-1.5414273019339296e-05,0.010895219917920657,0.009995122633564993,0.0029329244088489425,0.004853829138824789, ,1.11891508102417
0.011810365915513774,0.021531860209699688,-0.08445691052272218, ,0.012068308166406833,0.021625837474312945,-0.08466094010924358, ,0.0003420438615675763, ,0.003757705698592961,0.002400840187810307,-0.009880863223140765,-0.0012107428919083713,-0.008871613305060857,-0.002199287775188678, ,0.0108404724878143, ,0.00895384424710546, ,4.542375976472432e-05, ,0.22138758330539401,-0.22120223771641262,0.09795933901000001,1.8949680192696465,0.9513999478667619,-1.1628784129643066, ,0.01777096283866494,6.956674605074334e-05,0.010668996329537843,0.009600965457409929,0.00733142279921908,0.007141066876312528, ,1.124474048614502
0.011810365915513774,0.021531860209699688,-0.08445691052272218, ,0.012095121491864104,0.021637641241901012,-0.08472310280787107, ,0.0004038981278849575, ,0.003757705698592961,0.002400840187810307,-0.009880863223140765,-0.0012107428919083713,-0.008871613305060857,-0.002199287775188678, ,0.0108404724878143, ,0.00895384424710546, ,4.592213378444645e-05, ,0.22138758330539401,-0.22120223771641262,0.09795933901000001,1.8949680192696465,0.9513999478667619,-1.1628784129643066, ,0.01777096283866494,6.956674605074334e-05,0.010668996329537843,0.009600965457409929,0.00733142279921908,0.007141066876312528, ,1.1303300857543945
0.01184897961380274,0.021554242792507672,-0.08455377354700981, ,0.012122002430018968,0.021649202787488366,-0.08478530086379156, ,0.00037035625718695475, ,0.0040733831128563665,0.0023844438464708634,-0.00983381550473783,0.005991224671867603,-0.007359863213591665,-0.006280639330773281, ,0.010907884754722078, ,0.009490114205275842, ,4.635285573969389e-05, ,0.22158837436012385,-0.2211945149835384,0.09806433850000001,1.8949680192696465,0.9515365843665273,-1.1629081521278626, ,0.021820405049085025,0.00035481840589826776,0.010704846451612904,0.009600965457409929,0.013360301990675538,-0.0010243469092261065, ,1.135972023010254
0.01184897961380274,0.021554242792507672,-0.08455377354700981, ,0.012148950704287386,0.021660523560832517,-0.08484753390979674, ,0.0004330974573776382, ,0.0040733831128563665,0.0023844438464708634,-0.00983381550473783,0.005991224671867603,-0.007359863213591665,-0.006280639330773281, ,0.010907884754722078, ,0.009490114205275842, ,4.689436382470044e-05, ,0.22158837436012385,-0.2211945149835384,0.09806433850000001,1.8949680192696465,0.9515365843665273,-1.1629081521278626, ,0.021820405049085025,0.00035481840589826776,0.010704846451612904,0.009600965457409929,0.013360301990675538,-0.0010243469092261065, ,1.1415538787841797
0.011892256153425405,0.02157870368060132,-0.08465617163688974, ,0.012175966038803483,0.021671605008241914,-0.08490980157919222, ,0.0003917270776586492, ,0.004472757812588031,0.0024863271732336943,-0.01023072169237958,0.0074690630831051276,-0.012415571073681774,-0.008608141495230877, ,0.011439189289864628, ,0.014489071617747413, ,4.735415134518496e-05, ,0.22182777907922482,-0.2211945149835384,0.09817581944,1.8949680192696465,0.9516732208662927,-1.1629378912914183, ,0.025205030958425176,0.0003164739900140154,0.011154629915966389,0.009600965457409929,0.011558115000031344,-0.00368488627541568, ,1.1474509239196777
0.011919847503659965,0.021592834239432653,-0.08471864747820315, ,0.012203048158418774,0.02168244857257938,-0.08497210350579729, ,0.0004551566969415635, ,0.004625194599254695,0.002596911977343883,-0.010635458642359106,0.0025399825702800923,-0.013063296910138961,-0.0036639541101123074, ,0.011884837290950932, ,0.013307933781917615, ,4.801190388943896e-05, ,0.2219822337367093,-0.22118679225066418,0.09824322652,1.8949680192696465,0.9516732208662927,-1.1628562125512778, ,0.02586452481833491,0.00014630111955372878,0.01159302148471616,0.009600965457409929,0.011558115000031344,0.00338895727615238, ,1.15413498878479
0.011919847503659965,0.021592834239432653,-0.08471864747820315, ,0.012230196788701615,0.02169305569326491,-0.08503443932394525, ,0.00045396641766909916, ,0.004625194599254695,0.002596911977343883,-0.010635458642359106,0.0025399825702800923,-0.013063296910138961,-0.0036639541101123074, ,0.011884837290950932, ,0.013307933781917615, ,4.8662708634693916e-05, ,0.2219822337367093,-0.22118679225066418,0.09824322652,1.8949680192696465,0.9516732208662927,-1.1628562125512778, ,0.02586452481833491,0.00014630111955372878,0.01159302148471616,0.009600965457409929,0.011558115000031344,0.00338895727615238, ,1.1594550609588623
0.011919847503659965,0.021592834239432653,-0.08471864747820315, ,0.012257411655935815,0.02170342780627984,-0.08509680866848415, ,0.0005188317451394431, ,0.004625194599254695,0.002596911977343883,-0.010635458642359106,0.0025399825702800923,-0.013063296910138961,-0.0036639541101123074, ,0.011884837290950932, ,0.013307933781917615, ,4.9426307054748365e-05, ,0.2219822337367093,-0.22118679225066418,0.09824322652,1.8949680192696465,0.9516732208662927,-1.1628562125512778, ,0.02586452481833491,0.00014630111955372878,0.01159302148471616,0.009600965457409929,0.011558115000031344,0.00338895727615238, ,1.1637749671936035
0.011981043648937886,0.02162744155213157,-0.08486704214503439, ,0.012284692487120597,0.021713566344169294,-0.08515921117477522, ,0.0004300963132519844, ,0.004438332526541622,0.00259290408199404,-0.010841992910389965,0.006648982985604862,-0.00663121825794742,-0.004749425827992123, ,0.011998781499115856, ,0.009390520779794142, ,5.002421986908498e-05, ,0.22230658851742674,-0.22117906951778996,0.09840396648000001,1.8949680192696465,0.9518098573660582,-1.1628859517148338, ,0.023413999891061132,0.0006174415228464269,0.011799119644444446,0.008297037115283986,0.016181719351587583,-0.0016388684218373462, ,1.1687898635864258
0.011981043648937886,0.02162744155213157,-0.08486704214503439, ,0.012312039009968835,0.021723472736046148,-0.0852216464786944, ,0.0004944938328821744, ,0.004438332526541622,0.00259290408199404,-0.010841992910389965,0.006648982985604862,-0.00663121825794742,-0.004749425827992123, ,0.011998781499115856, ,0.009390520779794142, ,5.073365402941593e-05, ,0.22230658851742674,-0.22117906951778996,0.09840396648000001,1.8949680192696465,0.9518098573660582,-1.1628859517148338, ,0.023413999891061132,0.0006174415228464269,0.011799119644444446,0.008297037115283986,0.016181719351587583,-0.0016388684218373462, ,1.1726789474487305
0.012025622218309568,0.021654759968239304,-0.08497522810345093, ,0.012339450952906844,0.021733148407594122,-0.0852841142166312, ,0.00044726262195607505, ,0.0037071004646902586,0.0021064836942505313,-0.008869414729611608,0.0010914916190281692,-0.01057792250713186,-0.0026243948083236384, ,0.00984105609451046, ,0.010634084052405415, ,5.135335889303106e-05, ,0.22253827050365346,-0.22117906951778996,0.09852192887000001,1.8951777092131312,0.9519464938658235,-1.1629156908783895, ,0.019671836973149,0.0006174415228464269,0.009624659528700907,0.00695539655726257,0.008178787096262453,0.002735256515972087, ,1.1765780448913574
0.012025622218309568,0.021654759968239304,-0.08497522810345093, ,0.012366928045073703,0.0217425947810708,-0.08534661402548965, ,0.0005119884030101142, ,0.0037071004646902586,0.0021064836942505313,-0.008869414729611608,0.0010914916190281692,-0.01057792250713186,-0.0026243948083236384, ,0.00984105609451046, ,0.010634084052405415, ,5.2084219045216866e-05, ,0.22253827050365346,-0.22117906951778996,0.09852192887000001,1.8951777092131312,0.9519464938658235,-1.1629156908783895, ,0.019671836973149,0.0006174415228464269,0.009624659528700907,0.00695539655726257,0.008178787096262453,0.002735256515972087, ,1.1804568767547607
0.012069211022711503,0.02167723497102882,-0.08507805178494089, ,0.0123944700163199,0.021751813275311643,-0.08540914554268786, ,0.0005777130659632717, ,0.005155876006017528,0.0027981251590655782,-0.012070088138866394,-0.0045829448085994515,-0.022605837386308458,-0.00030068082087912395, ,0.012801050546320537, ,0.023065710716792774, ,5.292682514463472e-05, ,0.22277767522275443,-0.2211559013191673,0.09863340981,1.8951777092131312,0.952083130365589,-1.1629454300419455, ,0.027602368108921114,0.001299991314150861,0.013045709680589684,0.00695539655726257,0.003738737159832471,0.008054215792406673, ,1.1846818923950195
0.012069211022711503,0.02167723497102882,-0.08507805178494089, ,0.012422076597206731,0.021760805305732534,-0.08547170840615799, ,0.0005352229908499819, ,0.005155876006017528,0.0027981251590655782,-0.012070088138866394,-0.0045829448085994515,-0.022605837386308458,-0.00030068082087912395, ,0.013420118832380964, ,0.023065710716792774, ,5.368811830165726e-05, ,0.22277767522275443,-0.2211559013191673,0.09863340981,1.8951777092131312,0.952083130365589,-1.1629454300419455, ,0.027602368108921114,0.001299991314150861,0.013045709680589684,0.00695539655726257,0.003738737159832471,0.008054215792406673, ,1.1885230541229248
0.012069211022711503,0.02167723497102882,-0.08507805178494089, ,0.012449747519005606,0.02176957228433378,-0.08553430225434637, ,0.0006012476156068229, ,0.005155876006017528,0.0027981251590655782,-0.012070088138866394,-0.0045829448085994515,-0.022605837386308458,-0.00030068082087912395, ,0.013420118832380964, ,0.023065710716792774, ,5.4560682575515044e-05, ,0.22277767522275443,-0.2211559013191673,0.09863340981,1.8951777092131312,0.952083130365589,-1.1629454300419455, ,0.027602368108921114,0.001299991314150861,0.013045709680589684,0.00695539655726257,0.003738737159832471,0.008054215792406673, ,1.1923620700836182
0.012124994260748857,0.021708522931088683,-0.08521662297846119, ,0.012477482513697135,0.02177811561970294,-0.08559692672621357, ,0.0005231845289470919, ,0.005727505517945252,0.0032434829650649895,-0.014485917584559884,0.01448464323123217,-0.002620860233505616,-0.00825528447388541, ,0.01591120075511026, ,0.014719822010906759, ,5.528966701881797e-05, ,0.22306341633910073,-0.2211327331205446,0.09877470542000001,1.8951777092131312,0.9524930398648853,-1.1632796837530346, ,0.02914525232139766,0.0031575084738473076,0.015662548200589974,0.00695539655726257,0.027042728175336678,-0.0119932693795161, ,1.1966869831085205
0.012124994260748857,0.021708522931088683,-0.08521662297846119, ,0.01250528131397031,0.02178643671701822,-0.08565958146123431, ,0.0005889830374012435, ,0.005727505517945252,0.0032434829650649895,-0.014485917584559884,0.01448464323123217,-0.002620860233505616,-0.00825528447388541, ,0.01591120075511026, ,0.014719822010906759, ,5.612897176156115e-05, ,0.22306341633910073,-0.2211327331205446,0.09877470542000001,1.8951777092131312,0.9524930398648853,-1.1632796837530346, ,0.02914525232139766,0.0031575084738473076,0.015662548200589974,0.00695539655726257,0.027042728175336678,-0.0119932693795161, ,1.2004880905151367
0.012124994260748857,0.021708522931088683,-0.08521662297846119, ,0.012533143653221494,0.02179453697805217,-0.08572226609939766, ,0.0006554840261983454, ,0.005727505517945252,0.0032434829650649895,-0.014485917584559884,0.01448464323123217,-0.002620860233505616,-0.00825528447388541, ,0.01591120075511026, ,0.014719822010906759, ,5.7078667710294056e-05, ,0.22306341633910073,-0.2211327331205446,0.09877470542000001,1.8951777092131312,0.9524930398648853,-1.1632796837530346, ,0.02914525232139766,0.0031575084738473076,0.015662548200589974,0.00695539655726257,0.027042728175336678,-0.0119932693795161, ,1.2064778804779053
0.012124994260748857,0.021708522931088683,-0.08521662297846119, ,0.012561069265553945,0.021802417801174638,-0.0857849802812072, ,0.0007225009896387164, ,0.005727505517945252,0.0032434829650649895,-0.014485917584559884,0.01448464323123217,-0.002620860233505616,-0.00825528447388541, ,0.01591120075511026, ,0.014719822010906759, ,5.813849986049986e-05, ,0.22306341633910073,-0.2211327331205446,0.09877470542000001,1.8951777092131312,0.9524930398648853,-1.1632796837530346, ,0.02914525232139766,0.0031575084738473076,0.015662548200589974,0.00695539655726257,0.027042728175336678,-0.0119932693795161, ,1.2105278968811035
0.01225736629027862,0.02178596565263084,-0.08555147485475963, ,0.01258905788577672,0.021810080581355997,-0.08584772364768004, ,0.0004453809511174613, ,0.006748281295745343,0.003899083056295123,-0.017901993177549005,0.01585103299523965,-0.00655463999581983,-0.012468380729274696, ,0.019524945809282167, ,0.017152746538314396, ,5.870986088722983e-05, ,0.22372757136628404,-0.2210941194561735,0.09914674065000001,1.8953873991566157,0.9527663128644163,-1.1631758045998652, ,0.03154818535853417,0.004474730398192777,0.019307650327272732,0.00728862502956614,0.02532791854157765,-0.016546114112110814, ,1.2151319980621338
0.01225736629027862,0.02178596565263084,-0.08555147485475963, ,0.012617109249403891,0.021817526710170974,-0.08591049584034843, ,0.000509222117632784, ,0.006748281295745343,0.003899083056295123,-0.017901993177549005,0.01585103299523965,-0.00655463999581983,-0.012468380729274696, ,0.019524945809282167, ,0.017152746538314396, ,5.94906446944145e-05, ,0.22372757136628404,-0.2210941194561735,0.09914674065000001,1.8953873991566157,0.9527663128644163,-1.1631758045998652, ,0.03154818535853417,0.004474730398192777,0.019307650327272732,0.00728862502956614,0.02532791854157765,-0.016546114112110814, ,1.2171080112457275
0.01225736629027862,0.02178596565263084,-0.08555147485475963, ,0.012645223092653977,0.021824757575801268,-0.08597329650125816, ,0.0005743441598091125, ,0.006748281295745343,0.003899083056295123,-0.017901993177549005,0.01585103299523965,-0.00655463999581983,-0.012468380729274696, ,0.019524945809282167, ,0.017152746538314396, ,6.03813947205645e-05, ,0.22372757136628404,-0.2210941194561735,0.09914674065000001,1.8953873991566157,0.9527663128644163,-1.1631758045998652, ,0.03154818535853417,0.004474730398192777,0.019307650327272732,0.00728862502956614,0.02532791854157765,-0.016546114112110814, ,1.2190749645233154
0.01225736629027862,0.02178596565263084,-0.08555147485475963, ,0.01267339915244848,0.02183177456303957,-0.0860361252729701, ,0.000640365385190099, ,0.006748281295745343,0.003899083056295123,-0.017901993177549005,0.01585103299523965,-0.00655463999581983,-0.012468380729274696, ,0.019524945809282167, ,0.017152746538314396, ,6.138309418596956e-05, ,0.22372757136628404,-0.2210941194561735,0.09914674065000001,1.8953873991566157,0.9527663128644163,-1.1631758045998652, ,0.03154818535853417,0.004474730398192777,0.019307650327272732,0.00728862502956614,0.02532791854157765,-0.016546114112110814, ,1.221039056777954
0.01225736629027862,0.02178596565263084,-0.08555147485475963, ,0.012701637166411955,0.021838579053292378,-0.0860989817985587, ,0.0007070421732949539, ,0.006748281295745343,0.003899083056295123,-0.017901993177549005,0.01585103299523965,-0.00655463999581983,-0.012468380729274696, ,0.019524945809282167, ,0.017152746538314396, ,6.249629949477816e-05, ,0.22372757136628404,-0.2210941194561735,0.09914674065000001,1.8953873991566157,0.9527663128644163,-1.1631758045998652, ,0.03154818535853417,0.004474730398192777,0.019307650327272732,0.00728862502956614,0.02532791854157765,-0.016546114112110814, ,1.2229630947113037
0.01225736629027862,0.02178596565263084,-0.08555147485475963, ,0.012729936872870502,0.021845172424583593,-0.08616186572161347, ,0.0007742127664375477, ,0.00712449078405302,0.004106433111096518,-0.01788011112274351,-0.005239508481897068,-0.032789505067369516,-0.0020029770829855624, ,0.0196804353506121, ,0.033205455338264946, ,6.372128480793267e-05, ,0.22403648068125304,-0.2210709512575508,0.09932822125000002,1.8953873991566157,0.9529029493641817,-1.163205543763421, ,0.03427119594022057,0.0017714539371112583,0.0192144891676719,0.006709120041415149,0.0,0.006888201263383002, ,1.225100040435791
0.012322347275432473,0.021823766642455448,-0.08571995355381697, ,0.01275829801085108,0.02185155605155769,-0.08622477668623808, ,0.0006675864663081068, ,0.00712449078405302,0.004106433111096518,-0.01788011112274351,-0.005239508481897068,-0.032789505067369516,-0.0020029770829855624, ,0.0196804353506121, ,0.033205455338264946, ,0.00035556276358223577, ,0.22403648068125304,-0.2210709512575508,0.09932822125000002,1.8953873991566157,0.9529029493641817,-1.163205543763421, ,0.03427119594022057,0.0017714539371112583,0.0192144891676719,0.006709120041415149,0.0,0.006888201263383002, ,1.227142095565796
0.012322347275432473,0.021823766642455448,-0.08571995355381697, ,0.012786720320080871,0.021857731305483092,-0.08628771433705022, ,0.000734267137973807, ,0.00712449078405302,0.004106433111096518,-0.01788011112274351,-0.005239508481897068,-0.032789505067369516,-0.0020029770829855624, ,0.0196804353506121, ,0.033205455338264946, ,0.00035910205680084856, ,0.22403648068125304,-0.2210709512575508,0.09932822125000002,1.8953873991566157,0.9529029493641817,-1.163205543763421, ,0.03427119594022057,0.0017714539371112583,0.0192144891676719,0.006709120041415149,0.0,0.006888201263383002, ,1.229079008102417
0.012322347275432473,0.021823766642455448,-0.08571995355381697, ,0.012815203540986255,0.02186369955425547,-0.08635067831918249, ,0.0008014459841972127, ,0.00712449078405302,0.004106433111096518,-0.01788011112274351,-0.005239508481897068,-0.032789505067369516,-0.0020029770829855624, ,0.0196804353506121, ,0.033205455338264946, ,0.0003631978339063705, ,0.22403648068125304,-0.2210709512575508,0.09932822125000002,1.8953873991566157,0.9529029493641817,-1.163205543763421, ,0.03427119594022057,0.0017714539371112583,0.0192144891676719,0.006709120041415149,0.0,0.006888201263383002, ,1.2310218811035156
0.012322347275432473,0.021823766642455448,-0.08571995355381697, ,0.012843747414691985,0.02186946216240123,-0.08641366827828195, ,0.0008690145595457451, ,0.00712449078405302,0.004106433111096518,-0.01788011112274351,-0.005239508481897068,-0.032789505067369516,-0.0020029770829855624, ,0.0196804353506121, ,0.033205455338264946, ,0.00036783835432508034, ,0.22403648068125304,-0.2210709512575508,0.09932822125000002,1.8953873991566157,0.9529029493641817,-1.163205543763421, ,0.03427119594022057,0.0017714539371112583,0.0192144891676719,0.006709120041415149,0.0,0.006888201263383002, ,1.23294997215271
0.012397030821975425,0.021864376935404932,-0.08591563256198372, ,0.012872351683020629,0.0218750204910805,-0.08647668386051, ,0.0007354058510782992, ,0.008402314372130267,0.004529061713194467,-0.022571614089286433,0.046491330518193826,0.025650701404731597,-0.024137835194363935, ,0.02450691839880536, ,0.053097989011328436, ,0.00037117987702283686, ,0.2244071718592158,-0.22100144666168278,0.09954081281,1.8953873991566157,0.9534494953632434,-1.1636512153782068, ,0.04050232247480613,0.010243724026275368,0.024505863876923082,0.006198018571776925,0.07014408335138123,-0.050719945617443994, ,1.235023021697998
0.012397030821975425,0.021864376935404932,-0.08591563256198372, ,0.012901016088491533,0.02188037589809055,-0.08653972471254218, ,0.0008023391602439789, ,0.008402314372130267,0.004529061713194467,-0.022571614089286433,0.046491330518193826,0.025650701404731597,-0.024137835194363935, ,0.02450691839880536, ,0.053097989011328436, ,0.000375064194889694, ,0.2244071718592158,-0.22100144666168278,0.09954081281,1.8953873991566157,0.9534494953632434,-1.1636512153782068, ,0.04050232247480613,0.010243724026275368,0.024505863876923082,0.006198018571776925,0.07014408335138123,-0.050719945617443994, ,1.2371349334716797
0.012397030821975425,0.021864376935404932,-0.08591563256198372, ,0.012929740374319883,0.021885529737869534,-0.08660279048156899, ,0.0008697200208457344, ,0.008402314372130267,0.004529061713194467,-0.022571614089286433,0.046491330518193826,0.025650701404731597,-0.024137835194363935, ,0.02450691839880536, ,0.053097989011328436, ,0.0003794807647643015, ,0.2244071718592158,-0.22100144666168278,0.09954081281,1.8953873991566157,0.9534494953632434,-1.1636512153782068, ,0.04050232247480613,0.010243724026275368,0.024505863876923082,0.006198018571776925,0.07014408335138123,-0.050719945617443994, ,1.239098072052002
0.012397030821975425,0.021864376935404932,-0.08591563256198372, ,0.012958524284415946,0.021890483361499145,-0.08666588081529539, ,0.0009374587433290454, ,0.008402314372130267,0.004529061713194467,-0.022571614089286433,0.046491330518193826,0.025650701404731597,-0.024137835194363935, ,0.02450691839880536, ,0.053097989011328436, ,0.0003844186229816886, ,0.2244071718592158,-0.22100144666168278,0.09954081281,1.8953873991566157,0.9534494953632434,-1.1636512153782068, ,0.04050232247480613,0.010243724026275368,0.024505863876923082,0.006198018571776925,0.07014408335138123,-0.050719945617443994, ,1.2414469718933105
0.012397030821975425,0.021864376935404932,-0.08591563256198372, ,0.012987367563384448,0.02189523811670842,-0.0867289953619406, ,0.0010054893958280132, ,0.008402314372130267,0.004529061713194467,-0.022571614089286433,0.046491330518193826,0.025650701404731597,-0.024137835194363935, ,0.02450691839880536, ,0.053097989011328436, ,0.0003898666122171827, ,0.2244071718592158,-0.22100144666168278,0.09954081281,1.8953873991566157,0.9534494953632434,-1.1636512153782068, ,0.04050232247480613,0.010243724026275368,0.024505863876923082,0.006198018571776925,0.07014408335138123,-0.050719945617443994, ,1.2433478832244873
0.012441547573340803,0.02188992098623132,-0.08603872260598056, ,0.01301626995652367,0.021899795347876786,-0.0867921337702385, ,0.0009476453467293656, ,0.009111399254297652,0.005208447305849395,-0.025113296388390688,0.07658971327743616,0.05439973872987477,-0.03410102762960781, ,0.027218067073181047, ,0.09394309854841261, ,0.000394716862082506, ,0.22462340837969408,-0.22095511026443745,0.09967562697000001,1.8953873991566157,0.9539960413623052,-1.1640968869929924, ,0.04383230556973246,0.009840362469883302,0.02746346813793104,0.005959491094239148,0.10491803863758101,-0.07925486354169273, ,1.245258092880249
0.012441547573340803,0.02188992098623132,-0.08603872260598056, ,0.013045231209824447,0.021904156396037502,-0.08685529568943784, ,0.001015592526792809, ,0.009111399254297652,0.005208447305849395,-0.025113296388390688,0.07658971327743616,0.05439973872987477,-0.03410102762960781, ,0.027218067073181047, ,0.09394309854841261, ,0.0004000692385024224, ,0.22462340837969408,-0.22095511026443745,0.09967562697000001,1.8953873991566157,0.9539960413623052,-1.1640968869929924, ,0.04383230556973246,0.009840362469883302,0.02746346813793104,0.005959491094239148,0.10491803863758101,-0.07925486354169273, ,1.2472059726715088
0.012441547573340803,0.02188992098623132,-0.08603872260598056, ,0.013074251069969274,0.02190832259888112,-0.08691848076930166, ,0.001083801992950799, ,0.009111399254297652,0.005208447305849395,-0.025113296388390688,0.07658971327743616,0.05439973872987477,-0.03410102762960781, ,0.027218067073181047, ,0.09394309854841261, ,0.0004059131081985624, ,0.22462340837969408,-0.22095511026443745,0.09967562697000001,1.8953873991566157,0.9539960413623052,-1.1640968869929924, ,0.04383230556973246,0.009840362469883302,0.02746346813793104,0.005959491094239148,0.10491803863758101,-0.07925486354169273, ,1.2493350505828857
0.012441547573340803,0.02188992098623132,-0.08603872260598056, ,0.01310332928433191,0.021912295290758506,-0.08698168866010761, ,0.0011522328852021796, ,0.009111399254297652,0.005208447305849395,-0.025113296388390688,0.07658971327743616,0.05439973872987477,-0.03410102762960781, ,0.027218067073181047, ,0.09394309854841261, ,0.0004122378520714744, ,0.22462340837969408,-0.22095511026443745,0.09967562697000001,1.8953873991566157,0.9539960413623052,-1.1640968869929924, ,0.04383230556973246,0.009840362469883302,0.02746346813793104,0.005959491094239148,0.10491803863758101,-0.07925486354169273, ,1.251565933227539
0.012441547573340803,0.02188992098623132,-0.08603872260598056, ,0.013132465600976225,0.021916075802684308,-0.0870449190126483, ,0.001220853391741362, ,0.009111399254297652,0.005208447305849395,-0.025113296388390688,0.07658971327743616,0.05439973872987477,-0.03410102762960781, ,0.027218067073181047, ,0.09394309854841261, ,0.0004190329406401289, ,0.22462340837969408,-0.22095511026443745,0.09967562697000001,1.8953873991566157,0.9539960413623052,-1.1640968869929924, ,0.04383230556973246,0.009840362469883302,0.02746346813793104,0.005959491094239148,0.10491803863758101,-0.07925486354169273, ,1.2537450790405273
0.01259848310979354,0.021979172822099394,-0.08646013075536099, ,0.013161659768655319,0.021919665462340168,-0.08710817147823038, ,0.0008606194591393547, ,0.011464261142031125,0.006285449573163433,-0.03016174379946737,0.010271774666893219,-0.0266918229031757,-0.011144983778118631, ,0.0328734991884675, ,0.02859961192984733, ,0.0004227128282942891, ,0.2253570680027454,-0.22083154653844986,0.10013192105000002,1.8953873991566157,0.9549524968606633,-1.1647134548385865, ,0.05228481628565883,0.009683055416510203,0.032375633170731714,0.0053573386889306275,0.026422630918374265,-0.016033130152298958, ,1.2558529376983643
0.01259848310979354,0.021979172822099394,-0.08646013075536099, ,0.013190911536810995,0.021923065594078354,-0.08717144570867567, ,0.0009274095238801728, ,0.011464261142031125,0.006285449573163433,-0.03016174379946737,0.010271774666893219,-0.0266918229031757,-0.011144983778118631, ,0.0328734991884675, ,0.02859961192984733, ,0.0004268838753652468, ,0.2253570680027454,-0.22083154653844986,0.10013192105000002,1.8953873991566157,0.9549524968606633,-1.1647134548385865, ,0.05228481628565883,0.009683055416510203,0.032375633170731714,0.0053573386889306275,0.026422630918374265,-0.016033130152298958, ,1.2582380771636963
0.01259848310979354,0.021979172822099394,-0.08646013075536099, ,0.013220220655572617,0.021926277518924668,-0.0872347413563207, ,0.0009946743547757204, ,0.011464261142031125,0.006285449573163433,-0.03016174379946737,0.010271774666893219,-0.0266918229031757,-0.011144983778118631, ,0.0328734991884675, ,0.02859961192984733, ,0.0004315378956882835, ,0.2253570680027454,-0.22083154653844986,0.10013192105000002,1.8953873991566157,0.9549524968606633,-1.1647134548385865, ,0.05228481628565883,0.009683055416510203,0.032375633170731714,0.0053573386889306275,0.026422630918374265,-0.016033130152298958, ,1.2601890563964844
0.01259848310979354,0.021979172822099394,-0.08646013075536099, ,0.013249586875756387,0.021929302554582076,-0.08729805807401621, ,0.0010623301506509028, ,0.011464261142031125,0.006285449573163433,-0.03016174379946737,0.010271774666893219,-0.0266918229031757,-0.011144983778118631, ,0.0328734991884675, ,0.02859961192984733, ,0.00043666628800505275, ,0.2253570680027454,-0.22083154653844986,0.10013192105000002,1.8953873991566157,0.9549524968606633,-1.1647134548385865, ,0.05228481628565883,0.009683055416510203,0.032375633170731714,0.0053573386889306275,0.026422630918374265,-0.016033130152298958, ,1.262221097946167
0.01259848310979354,0.021979172822099394,-0.08646013075536099, ,0.013279009948864632,0.021932142015433868,-0.08736139551512824, ,0.0011303127189720632, ,0.011464261142031125,0.006285449573163433,-0.03016174379946737,0.010271774666893219,-0.0266918229031757,-0.011144983778118631, ,0.0328734991884675, ,0.02859961192984733, ,0.0004422602108354319, ,0.2253570680027454,-0.22083154653844986,0.10013192105000002,1.8953873991566157,0.9549524968606633,-1.1647134548385865, ,0.05228481628565883,0.009683055416510203,0.032375633170731714,0.0053573386889306275,0.026422630918374265,-0.016033130152298958, ,1.2642159461975098
0.012713296486653999,0.02203936250503853,-0.08676164363493502, ,0.013308489627084964,0.02193479721254692,-0.08742475333353711, ,0.0008971640023931422, ,0.012257842340086473,0.006485791248201237,-0.03281432782595714,0.008839707396369828,-0.020107952596215322,-0.00978433690367168, ,0.03562443399717454, ,0.021964337861981223, ,0.00044589944116789354, ,0.2258899365710669,-0.22070798281246226,0.10045599355000001,1.8953873991566157,0.9553624063599596,-1.1648843510693945, ,0.054507146213940705,0.014268071201093186,0.03516293933774835,0.005032824275046905,0.036021649775992405,-0.016820504119114267, ,1.2661890983581543
0.012713296486653999,0.02203936250503853,-0.08676164363493502, ,0.013338025663289083,0.021937269453675332,-0.08748813118363807, ,0.0009635837761691352, ,0.012257842340086473,0.006485791248201237,-0.03281432782595714,0.008839707396369828,-0.020107952596215322,-0.00978433690367168, ,0.03562443399717454, ,0.021964337861981223, ,0.00045000804700123673, ,0.2258899365710669,-0.22070798281246226,0.10045599355000001,1.8953873991566157,0.9553624063599596,-1.1648843510693945, ,0.054507146213940705,0.014268071201093186,0.03516293933774835,0.005032824275046905,0.036021649775992405,-0.016820504119114267, ,1.2680878639221191
0.012713296486653999,0.02203936250503853,-0.08676164363493502, ,0.013367617811032496,0.021939560043263317,-0.08755152872034123, ,0.0010305413019670807, ,0.012257842340086473,0.006485791248201237,-0.03281432782595714,0.008839707396369828,-0.020107952596215322,-0.00978433690367168, ,0.03562443399717454, ,0.021964337861981223, ,0.00045457917499309373, ,0.2258899365710669,-0.22070798281246226,0.10045599355000001,1.8953873991566157,0.9553624063599596,-1.1648843510693945, ,0.054507146213940705,0.014268071201093186,0.03516293933774835,0.005032824275046905,0.036021649775992405,-0.016820504119114267, ,1.270029067993164
0.012713296486653999,0.02203936250503853,-0.08676164363493502, ,0.013397265824553395,0.02194167028244875,-0.0876149455990713, ,0.0010979444737963355, ,0.012257842340086473,0.006485791248201237,-0.03281432782595714,0.008839707396369828,-0.020107952596215322,-0.00978433690367168, ,0.03562443399717454, ,0.021964337861981223, ,0.0004596054663899941, ,0.2258899365710669,-0.22070798281246226,0.10045599355000001,1.8953873991566157,0.9553624063599596,-1.1648843510693945, ,0.054507146213940705,0.014268071201093186,0.03516293933774835,0.005032824275046905,0.036021649775992405,-0.016820504119114267, ,1.2719500064849854
0.012713296486653999,0.02203936250503853,-0.08676164363493502, ,0.013426969458771813,0.02194360146906648,-0.08767838147576809, ,0.0011657219033531087, ,0.012257842340086473,0.006485791248201237,-0.03281432782595714,0.008839707396369828,-0.020107952596215322,-0.00978433690367168, ,0.03562443399717454, ,0.021964337861981223, ,0.0004650792372191655, ,0.2258899365710669,-0.22070798281246226,0.10045599355000001,1.8953873991566157,0.9553624063599596,-1.1648843510693945, ,0.054507146213940705,0.014268071201093186,0.03516293933774835,0.005032824275046905,0.036021649775992405,-0.016820504119114267, ,1.2738499641418457
0.012840932180374512,0.022104746758420335,-0.08710304357544976, ,0.013456728469288812,0.021945354897651755,-0.08774183600688598, ,0.0009014802300550423, ,0.01295462336029859,0.006171472475735733,-0.03448498893387725,0.07447049118862742,0.04894772915900789,-0.03462018827597054, ,0.037351356075724935, ,0.0891161347790477, ,0.00046843616793328764, ,0.2264845870023822,-0.22051491449060664,0.10082543620000001,1.8955970891001,0.9563188618583177,-1.1655825976551288, ,0.062432198393730785,0.0228832750321849,0.03739157633802818,0.0,0.12051983617026792,-0.09007734844318188, ,1.2757210731506348
0.012840932180374512,0.022104746758420335,-0.08710304357544976, ,0.013486542612385874,0.021946931859443176,-0.08780530884939393, ,0.0009668996262533892, ,0.01295462336029859,0.006171472475735733,-0.03448498893387725,0.07447049118862742,0.04894772915900789,-0.03462018827597054, ,0.037351356075724935, ,0.0891161347790477, ,0.00047224123250061667, ,0.2264845870023822,-0.22051491449060664,0.10082543620000001,1.8955970891001,0.9563188618583177,-1.1655825976551288, ,0.062432198393730785,0.0228832750321849,0.03739157633802818,0.0,0.12051983617026792,-0.09007734844318188, ,1.2776100635528564
0.012840932180374512,0.022104746758420335,-0.08710304357544976, ,0.013516411645023577,0.021948333642386426,-0.08786879966077658, ,0.0010330149816169577, ,0.01295462336029859,0.006171472475735733,-0.03448498893387725,0.07447049118862742,0.04894772915900789,-0.03462018827597054, ,0.037351356075724935, ,0.0891161347790477, ,0.00047648951847877074, ,0.2264845870023822,-0.22051491449060664,0.10082543620000001,1.8955970891001,0.9563188618583177,-1.1655825976551288, ,0.062432198393730785,0.0228832750321849,0.03739157633802818,0.0,0.12051983617026792,-0.09007734844318188, ,1.2795069217681885
0.012840932180374512,0.022104746758420335,-0.08710304357544976, ,0.013546335324841348,0.021949561531137328,-0.08793230809903248, ,0.0010997070978508079, ,0.01295462336029859,0.006171472475735733,-0.03448498893387725,0.07447049118862742,0.04894772915900789,-0.03462018827597054, ,0.037351356075724935, ,0.0891161347790477, ,0.0004811753649402146, ,0.2264845870023822,-0.22051491449060664,0.10082543620000001,1.8955970891001,0.9563188618583177,-1.1655825976551288, ,0.062432198393730785,0.0228832750321849,0.03739157633802818,0.0,0.12051983617026792,-0.09007734844318188, ,1.281393051147461
0.012840932180374512,0.022104746758420335,-0.08710304357544976, ,0.013576313410156285,0.021950616807065414,-0.08799583382267591, ,0.0011668830363674625, ,0.01295462336029859,0.006171472475735733,-0.03448498893387725,0.07447049118862742,0.04894772915900789,-0.03462018827597054, ,0.037351356075724935, ,0.0891161347790477, ,0.0004862925863687761, ,0.2264845870023822,-0.22051491449060664,0.10082543620000001,1.8955970891001,0.9563188618583177,-1.1655825976551288, ,0.062432198393730785,0.0228832750321849,0.03739157633802818,0.0,0.12051983617026792,-0.09007734844318188, ,1.2833008766174316
0.012973181807210535,0.022161951455654944,-0.08745015143235194, ,0.013606345659962384,0.02195150074825676,-0.08805937649073522, ,0.000903515985712529, ,0.013563930081058734,0.006059699865900595,-0.03427472966692902,0.05335915638953049,0.022765506392424403,-0.011538540227953373, ,0.03735581956602893, ,0.05801224483607107, ,0.0004893831300676187, ,0.22714101929669128,-0.22028323250437992,0.10120006401000001,1.8949680192696465,0.9574119538564413,-1.1663922621445597, ,0.06856715430525345,0.02208960464582653,0.03713009678321679,-0.015568664268689093,0.10243396692009715,-0.07120210224484208, ,1.2851989269256592
0.012973181807210535,0.022161951455654944,-0.08745015143235194, ,0.013636431833929817,0.02195221462951786,-0.08812293576275489, ,0.0009677442272713036, ,0.013563930081058734,0.006059699865900595,-0.03427472966692902,0.05335915638953049,0.022765506392424403,-0.011538540227953373, ,0.03735581956602893, ,0.05801224483607107, ,0.0004929004910764694, ,0.22714101929669128,-0.22028323250437992,0.10120006401000001,1.8949680192696465,0.9574119538564413,-1.1663922621445597, ,0.06856715430525345,0.02208960464582653,0.03713009678321679,-0.015568664268689093,0.10243396692009715,-0.07120210224484208, ,1.2872390747070312
0.012973181807210535,0.022161951455654944,-0.08745015143235194, ,0.013666571692403847,0.02195275972237861,-0.08818651129879289, ,0.001032848762919571, ,0.013563930081058734,0.006059699865900595,-0.03427472966692902,0.05335915638953049,0.022765506392424403,-0.011538540227953373, ,0.03735581956602893, ,0.05801224483607107, ,0.0004968417193380979, ,0.22714101929669128,-0.22028323250437992,0.10120006401000001,1.8949680192696465,0.9574119538564413,-1.1663922621445597, ,0.06856715430525345,0.02208960464582653,0.03713009678321679,-0.015568664268689093,0.10243396692009715,-0.07120210224484208, ,1.2891268730163574
0.012973181807210535,0.022161951455654944,-0.08745015143235194, ,0.013696764996404317,0.021953137295095893,-0.08825010275942312, ,0.0010986801677543706, ,0.013563930081058734,0.006059699865900595,-0.03427472966692902,0.05335915638953049,0.022765506392424403,-0.011538540227953373, ,0.03735581956602893, ,0.05801224483607107, ,0.0005012028675150274, ,0.22714101929669128,-0.22028323250437992,0.10120006401000001,1.8949680192696465,0.9574119538564413,-1.1663922621445597, ,0.06856715430525345,0.02208960464582653,0.03713009678321679,-0.015568664268689093,0.10243396692009715,-0.07120210224484208, ,1.292288064956665
0.012973181807210535,0.022161951455654944,-0.08745015143235194, ,0.013727011507624632,0.02195334861265635,-0.08831370980573439, ,0.001165121207245172, ,0.013563930081058734,0.006059699865900595,-0.03427472966692902,0.05335915638953049,0.022765506392424403,-0.011538540227953373, ,0.03735581956602893, ,0.05801224483607107, ,0.0005059792584483378, ,0.22714101929669128,-0.22028323250437992,0.10120006401000001,1.8949680192696465,0.9574119538564413,-1.1663922621445597, ,0.06856715430525345,0.02208960464582653,0.03713009678321679,-0.015568664268689093,0.10243396692009715,-0.07120210224484208, ,1.2942380905151367
0.012973181807210535,0.022161951455654944,-0.08745015143235194, ,0.013757310988431097,0.02195339493678043,-0.08837733209932999, ,0.0012320788869323903, ,0.013563930081058734,0.006059699865900595,-0.03427472966692902,0.05335915638953049,0.022765506392424403,-0.011538540227953373, ,0.03735581956602893, ,0.05801224483607107, ,0.000511165684366081, ,0.22714101929669128,-0.22028323250437992,0.10120006401000001,1.8949680192696465,0.9574119538564413,-1.1663922621445597, ,0.06856715430525345,0.02208960464582653,0.03713009678321679,-0.015568664268689093,0.10243396692009715,-0.07120210224484208, ,1.2963168621063232
0.013113307472886502,0.022217210396261018,-0.08779883286365311, ,0.01378766320186166,0.021953277525925248,-0.08844096930232889, ,0.0009678612581979433, ,0.014047360570970403,0.00465159035944371,-0.033932044172048245,0.019278505682288945,-0.012795596029147833,0.06421199629403256, ,0.03701822866611471, ,0.023137482056327024, ,0.0005144046600670162, ,0.2278669561868684,-0.2200283823195305,0.10157598811000002,1.894338949439193,0.9583684093547993,-1.1669271512500128, ,0.07561509287527553,0.029945390204629465,0.03645036961098399,-0.09492533957286163,0.09027017702782666,-0.06335754438078421, ,1.2988860607147217
0.013113307472886502,0.022217210396261018,-0.08779883286365311, ,0.01381806791162572,0.021952997635287855,-0.08850462107736443, ,0.001031810380683757, ,0.014047360570970403,0.00465159035944371,-0.033932044172048245,0.019278505682288945,-0.012795596029147833,0.06421199629403256, ,0.03701822866611471, ,0.023137482056327024, ,0.0005180483623248806, ,0.2278669561868684,-0.2200283823195305,0.10157598811000002,1.894338949439193,0.9583684093547993,-1.1669271512500128, ,0.07561509287527553,0.029945390204629465,0.03645036961098399,-0.09492533957286163,0.09027017702782666,-0.06335754438078421, ,1.3008580207824707
0.013113307472886502,0.022217210396261018,-0.08779883286365311, ,0.013848524882102696,0.021952556516808972,-0.08856828708758561, ,0.0010966522317722954, ,0.014047360570970403,0.00465159035944371,-0.033932044172048245,0.019278505682288945,-0.012795596029147833,0.06421199629403256, ,0.03701822866611471, ,0.023137482056327024, ,0.0005220945432301073, ,0.2278669561868684,-0.2200283823195305,0.10157598811000002,1.894338949439193,0.9583684093547993,-1.1669271512500128, ,0.07561509287527553,0.029945390204629465,0.03645036961098399,-0.09492533957286163,0.09027017702782666,-0.06335754438078421, ,1.302772045135498
0.013261010699864337,0.02226394509236098,-0.08813092204333166, ,0.01387903387834164,0.02195195541917578,-0.08863196699665592, ,0.0008545971276344809, ,0.014047360570970403,0.00465159035944371,-0.033932044172048245,0.019278505682288945,-0.012795596029147833,0.06421199629403256, ,0.03701822866611471, ,0.023137482056327024, ,0.0005244035889551377, ,0.22870101133728463,-0.21968858207306463,0.10193506044000002,1.8941292594957087,0.9593248648531574,-1.1675437190956066, ,0.08650587197672815,0.03543575114207273,0.03462785113043479,-0.04318608810415224,0.09466744033295464,-0.06133963956636947, ,1.305190086364746
0.013261010699864337,0.02226394509236098,-0.08813092204333166, ,0.013909594666060307,0.021951195587825545,-0.0886956604687545, ,0.0009150972095590333, ,0.014759648044457752,0.004100078204342948,-0.03202719446109971,0.024977092106898042,-0.008286864808306964,0.01634196960019741, ,0.035502099046775946, ,0.026315272394862088, ,0.0005270980277179232, ,0.22870101133728463,-0.21968858207306463,0.10193506044000002,1.8941292594957087,0.9593248648531574,-1.1675437190956066, ,0.08650587197672815,0.03543575114207273,0.03462785113043479,-0.04318608810415224,0.09466744033295464,-0.06133963956636947, ,1.3074109554290771
0.013261010699864337,0.02226394509236098,-0.08813092204333166, ,0.01394020701164398,0.021950278264949056,-0.08875936716857505, ,0.00097705567087854, ,0.014759648044457752,0.004100078204342948,-0.03202719446109971,0.024977092106898042,-0.008286864808306964,0.01634196960019741, ,0.035502099046775946, ,0.026315272394862088, ,0.0005301799293834068, ,0.22870101133728463,-0.21968858207306463,0.10193506044000002,1.8941292594957087,0.9593248648531574,-1.1675437190956066, ,0.08650587197672815,0.03543575114207273,0.03462785113043479,-0.04318608810415224,0.09466744033295464,-0.06133963956636947, ,1.3093528747558594
0.013261010699864337,0.02226394509236098,-0.08813092204333166, ,0.0139708706821452,0.021949204689493504,-0.08882308676132686, ,0.0010402185887967697, ,0.014759648044457752,0.004100078204342948,-0.03202719446109971,0.024977092106898042,-0.008286864808306964,0.01634196960019741, ,0.035502099046775946, ,0.026315272394862088, ,0.0005336495801277154, ,0.22870101133728463,-0.21968858207306463,0.10193506044000002,1.8941292594957087,0.9593248648531574,-1.1675437190956066, ,0.08650587197672815,0.03543575114207273,0.03462785113043479,-0.04318608810415224,0.09466744033295464,-0.06133963956636947, ,1.311249017715454
0.013261010699864337,0.02226394509236098,-0.08813092204333166, ,0.01400158544528236,0.02194797609716644,-0.08888681891273409, ,0.0011043855471019228, ,0.014759648044457752,0.004100078204342948,-0.03202719446109971,0.024977092106898042,-0.008286864808306964,0.01634196960019741, ,0.035502099046775946, ,0.026315272394862088, ,0.0005375059042288925, ,0.22870101133728463,-0.21968858207306463,0.10193506044000002,1.8941292594957087,0.9593248648531574,-1.1675437190956066, ,0.08650587197672815,0.03543575114207273,0.03462785113043479,-0.04318608810415224,0.09466744033295464,-0.06133963956636947, ,1.3131968975067139
0.013261010699864337,0.02226394509236098,-0.08813092204333166, ,0.014032351069439373,0.02194659372043831,-0.08895056328903594, ,0.001169397122733346, ,0.014759648044457752,0.004100078204342948,-0.03202719446109971,0.024977092106898042,-0.008286864808306964,0.01634196960019741, ,0.035502099046775946, ,0.026315272394862088, ,0.0005417467848899962, ,0.22956595741919777,-0.2193024454293534,0.10225783665000002,1.8941292594957087,0.9602813203515155,-1.1682419656813412, ,0.09012055228724672,0.04293979256039402,0.03173070023904383,-0.02801433579577691,0.10026651195219306,-0.06641954190972382, ,1.315337896347046
0.013404608034805787,0.02229985635670581,-0.08842852938428261, ,0.014063167323664728,0.02194505878854641,-0.08901431955698696, ,0.000950121980458939, ,0.01452270912906891,0.0028808935873220224,-0.02930673949318652,0.02612344855868598,-0.003390581935321666,-0.001826543344332748, ,0.03283433580918781, ,0.02634215236769699, ,0.000544469286193789, ,0.22956595741919777,-0.2193024454293534,0.10225783665000002,1.8941292594957087,0.9602813203515155,-1.1682419656813412, ,0.09012055228724672,0.04293979256039402,0.03173070023904383,-0.02801433579577691,0.10026651195219306,-0.06641954190972382, ,1.3174200057983398
0.013404608034805787,0.02229985635670581,-0.08842852938428261, ,0.014094033977670287,0.021943372527498013,-0.089078087383857, ,0.0010120842089432792, ,0.01452270912906891,0.0028808935873220224,-0.02930673949318652,0.02612344855868598,-0.003390581935321666,-0.001826543344332748, ,0.03283433580918781, ,0.02634215236769699, ,0.0005475660737616665, ,0.22956595741919777,-0.2193024454293534,0.10225783665000002,1.8941292594957087,0.9602813203515155,-1.1682419656813412, ,0.09012055228724672,0.04293979256039402,0.03173070023904383,-0.02801433579577691,0.10026651195219306,-0.06641954190972382, ,1.3193190097808838
0.013404608034805787,0.02229985635670581,-0.08842852938428261, ,0.01412495080183086,0.02194153616007359,-0.0891418664374309, ,0.0010752380279334295, ,0.01452270912906891,0.0028808935873220224,-0.02930673949318652,0.02612344855868598,-0.003390581935321666,-0.001826543344332748, ,0.03283433580918781, ,0.02634215236769699, ,0.0005510375997759544, ,0.22956595741919777,-0.2193024454293534,0.10225783665000002,1.8941292594957087,0.9602813203515155,-1.1682419656813412, ,0.09012055228724672,0.04293979256039402,0.03173070023904383,-0.02801433579577691,0.10026651195219306,-0.06641954190972382, ,1.3212180137634277
0.013404608034805787,0.02229985635670581,-0.08842852938428261, ,0.014155917567183398,0.021939550905830014,-0.08920565638600866, ,0.0011393912445617613, ,0.01452270912906891,0.0028808935873220224,-0.02930673949318652,0.02612344855868598,-0.003390581935321666,-0.001826543344332748, ,0.03283433580918781, ,0.02634215236769699, ,0.0005548830484346851, ,0.22956595741919777,-0.2193024454293534,0.10225783665000002,1.8941292594957087,0.9602813203515155,-1.1682419656813412, ,0.09012055228724672,0.04293979256039402,0.03173070023904383,-0.02801433579577691,0.10026651195219306,-0.06641954190972382, ,1.3231079578399658
0.013404608034805787,0.02229985635670581,-0.08842852938428261, ,0.014186934045425823,0.021937417981104258,-0.08926945689840575, ,0.00120438974049544, ,0.014423109468351104,0.0016276730135583958,-0.027020793369945,0.02663439901072391,0.0006142431697713602,-0.011841888845101692, ,0.03067244171102733, ,0.026641210578531284, ,0.0005591006243571575, ,0.22956595741919777,-0.2193024454293534,0.10225783665000002,1.8941292594957087,0.9602813203515155,-1.1682419656813412, ,0.09012055228724672,0.04293979256039402,0.03173070023904383,-0.02801433579577691,0.10026651195219306,-0.06641954190972382, ,1.325524091720581
0.01354922519871702,0.02232067602665263,-0.0887111426755829, ,0.014218000008916463,0.021935138599016486,-0.08933326764395264, ,0.000991432464232757, ,0.014423109468351104,0.0016276730135583958,-0.027020793369945,0.02663439901072391,0.0006142431697713602,-0.011841888845101692, ,0.03067244171102733, ,0.026641210578531284, ,0.0005618898620337744, ,0.23049268536410472,-0.21882363599115148,0.10256376109000001,1.8937098796087395,0.9613744123496389,-1.1691333089109126, ,0.09451886609409439,0.051102284091799025,0.029280903529411772,-0.022650157251444987,0.10802491638412964,-0.07377734111250113, ,1.327430009841919
0.01354922519871702,0.02232067602665263,-0.0887111426755829, ,0.014249115230673076,0.021932713969473418,-0.08939708829249544, ,0.00105398387274365, ,0.014423109468351104,0.0016276730135583958,-0.027020793369945,0.02663439901072391,0.0006142431697713602,-0.011841888845101692, ,0.03067244171102733, ,0.026641210578531284, ,0.0005650443108203762, ,0.23049268536410472,-0.21882363599115148,0.10256376109000001,1.8937098796087395,0.9613744123496389,-1.1691333089109126, ,0.09451886609409439,0.051102284091799025,0.029280903529411772,-0.022650157251444987,0.10802491638412964,-0.07377734111250113, ,1.3293778896331787
0.01354922519871702,0.02232067602665263,-0.0887111426755829, ,0.014280279484372198,0.021930145299171432,-0.08946091851439501, ,0.0011176396674009925, ,0.014423109468351104,0.0016276730135583958,-0.027020793369945,0.02663439901072391,0.0006142431697713602,-0.011841888845101692, ,0.03067244171102733, ,0.026641210578531284, ,0.0005685640264673865, ,0.23049268536410472,-0.21882363599115148,0.10256376109000001,1.8937098796087395,0.9613744123496389,-1.1691333089109126, ,0.09451886609409439,0.051102284091799025,0.029280903529411772,-0.022650157251444987,0.10802491638412964,-0.07377734111250113, ,1.331686019897461
0.01354922519871702,0.02232067602665263,-0.0887111426755829, ,0.014311492544348277,0.021927433791600254,-0.08952475798052797, ,0.001182227061983261, ,0.014423109468351104,0.0016276730135583958,-0.027020793369945,0.02663439901072391,0.0006142431697713602,-0.011841888845101692, ,0.03067244171102733, ,0.026641210578531284, ,0.0005724479697301452, ,0.23049268536410472,-0.21882363599115148,0.10256376109000001,1.8937098796087395,0.9613744123496389,-1.1691333089109126, ,0.09451886609409439,0.051102284091799025,0.029280903529411772,-0.022650157251444987,0.10802491638412964,-0.07377734111250113, ,1.3338239192962646
0.01354922519871702,0.02232067602665263,-0.0887111426755829, ,0.014342754185592681,0.021924580647045937,-0.08958860636228605, ,0.0012476066384242922, ,0.014423109468351104,0.0016276730135583958,-0.027020793369945,0.02663439901072391,0.0006142431697713602,-0.011841888845101692, ,0.03067244171102733, ,0.026641210578531284, ,0.0005766942506653285, ,0.23049268536410472,-0.21882363599115148,0.10256376109000001,1.8937098796087395,0.9613744123496389,-1.1691333089109126, ,0.09451886609409439,0.051102284091799025,0.029280903529411772,-0.022650157251444987,0.10802491638412964,-0.07377734111250113, ,1.335874080657959
0.01354922519871702,0.02232067602665263,-0.0887111426755829, ,0.014374064183752764,0.02192158706259452,-0.08965246333157628, ,0.001313665075225637, ,0.014423109468351104,0.0016276730135583958,-0.027020793369945,0.02663439901072391,0.0006142431697713602,-0.011841888845101692, ,0.03067244171102733, ,0.026641210578531284, ,0.0005813003183188305, ,0.23049268536410472,-0.21882363599115148,0.10256376109000001,1.8937098796087395,0.9613744123496389,-1.1691333089109126, ,0.09451886609409439,0.051102284091799025,0.029280903529411772,-0.022650157251444987,0.10802491638412964,-0.07377734111250113, ,1.3378660678863525
0.01354922519871702,0.02232067602665263,-0.0887111426755829, ,0.014405422315131625,0.021918454232134954,-0.08971632856082107, ,0.0013803095805013234, ,0.014423109468351104,0.0016276730135583958,-0.027020793369945,0.02663439901072391,0.0006142431697713602,-0.011841888845101692, ,0.03067244171102733, ,0.026641210578531284, ,0.0005862631087671689, ,0.23049268536410472,-0.21882363599115148,0.10256376109000001,1.8937098796087395,0.9613744123496389,-1.1691333089109126, ,0.09451886609409439,0.051102284091799025,0.029280903529411772,-0.022650157251444987,0.10802491638412964,-0.07377734111250113, ,1.3399829864501953
0.01354922519871702,0.02232067602665263,-0.0887111426755829, ,0.014436828356686639,0.021915183346362763,-0.08978020172295852, ,0.0014474636183966615, ,0.014423109468351104,0.0016276730135583958,-0.027020793369945,0.02663439901072391,0.0006142431697713602,-0.011841888845101692, ,0.03067244171102733, ,0.026641210578531284, ,0.000591579161295746, ,0.23049268536410472,-0.21882363599115148,0.10256376109000001,1.8937098796087395,0.9613744123496389,-1.1691333089109126, ,0.09451886609409439,0.051102284091799025,0.029280903529411772,-0.022650157251444987,0.10802491638412964,-0.07377734111250113, ,1.3420929908752441
