NicholasDascanio/dvrk_moveit_final/test/execution/third_experiment_notsharpbends/thirdexp_600vel4.0/thirdexp_600vel4.0_23.csv
Current Position (x),Current Position (y),Current Position (z), ,Planned Position (x),Planned Position (y),Planned Position (z), ,Position Error,,Cartesian linear Velocity(x),Cartesian linear Velocity(y),Cartesian linear Velocity(z),Cartesian Angular Velocity(x),Cartesian Angular Velocity(y),Cartesian Angular Velocity(z), ,Total Linear Velocity, ,Total Angular Velocity, ,MSE, ,Joint 1 Position,Joint 2 Position,Joint 3 Position,Joint 4 Position,Joint 5 Position,Joint 6 Position, ,Joint 1 Velocity,Joint 2 Velocity,Joint 3 Velocity,Joint 4 Velocity,Joint 5 Velocity,Joint 6 Velocity, ,Time Stamp
0.010354215639511883,0.020483277597727202,-0.0793692164341536, ,0.010391405376607613,0.02049196102372025,-0.07937801277020713, ,3.918997269956984e-05, ,-3.399831701874595e-05,-7.705854441964269e-05,0.0003126703042842484,-0.21943282965523367,-0.0014614755580104322,0.0034223146564344694, ,0.0003238157253892801, ,0.2194376964910757, ,3.265831058297487e-06, ,0.1489406262122939,-0.24991535854277935,0.08923789989000001,1.6060152771479719,0.16997580570820792,-1.3490828010814806, ,0.00015828017183158643,0.0,-0.00032378504090714404,0.002027258953616394,0.0,0.21979721007419029, ,0.021996021270751953
0.01032391785095514,0.02048426650920866,-0.07936933007001232, ,0.010393855397962472,0.020510161686229017,-0.07943389461894661, ,9.864279828455228e-05, ,-0.003701292618041063,0.00012597037040096496,-0.0005518232475337167,-0.22504824520711636,0.39883935033863094,0.10944801564008576, ,0.0037443216308301933, ,0.457951460363807, ,6.265125953823733e-06, ,0.14894834894516812,-0.24992308127565357,0.08923919618000001,1.6062249670914566,0.17339171820234395,-1.340269867573931, ,-0.0004825300313345871,0.00010310534402233083,0.000677508091864373,0.0,0.41344233172069256,0.2243582891213105, ,0.04092717170715332
0.010254552306982101,0.02048967079233633,-0.07939345078280483, ,0.010396597625302484,0.02052808957156964,-0.07948996573449177, ,0.00017597730238201115, ,-0.0018421866507470506,0.0005101718909625147,-0.0018958238983368388,-0.23575102975927986,0.22035092653114804,0.06572261529750438, ,0.0026922249660873425, ,0.3226965739757269, ,9.806564792691664e-06, ,0.14893290347941968,-0.24991535854277935,0.08926641827000001,1.6062249670914566,0.1813166351887395,-1.3370940146517376, ,-0.000620462226149884,-0.0003050476263363615,0.0020555957568718546,0.0,0.22955828672651526,0.23583651460464072, ,0.06325101852416992
0.01025651678151182,0.020497956611728287,-0.07942301647052549, ,0.010399630770299574,0.020545746155698992,-0.07954622485194089, ,0.00019479671339802304, ,0.00017066135542402315,0.00022661213596489847,-0.0007865620124576309,0.3964109614983059,-0.006034012471051661,-0.01694024862494906, ,0.00083615677826777, ,0.3964568825263497, ,1.210968539914658e-05, ,0.14893290347941968,-0.24992308127565357,0.08929752923,1.6062249670914566,0.18158990818827037,-1.3387870677816605, ,-0.0006159477248888388,-0.00029355577971309745,0.0008166451028154084,0.0,-0.011333229531848071,-0.3963783588647809, ,0.08216714859008789
0.010308815249789407,0.020507090784468933,-0.07945427309809872, ,0.01040295354736874,0.020563132911319344,-0.079602670709188, ,0.0001844575561750164, ,0.003860424616898078,0.0004804306617293506,-0.001740885344597796,0.012223963932403839,-0.3905411549883131,-0.10085004021343968, ,0.004261968280796768, ,0.3907324135950463, ,1.3328160441137936e-05, ,0.14892518074654545,-0.2499308040085278,0.08932864019,1.606434657034941,0.17626108469741816,-1.3438348246536644, ,-0.0007307417806119359,-0.00033027112017409825,0.0016983228060674961,-0.0003798170486822456,-0.4040888830608261,-0.011375721875498915, ,0.10479116439819336
0.010346345101482041,0.020520182523077184,-0.07950249025677064, ,0.010406564673667322,0.020580251307880583,-0.07965930204692051, ,0.00017839448789674472, ,-3.287691268123513e-05,0.0006305520136365627,-0.002671838488568562,0.0255726073508754,0.033109123640831434,0.00761159430807818, ,0.0027454321412639054, ,0.04183506083238973, ,1.40557875941277e-05, ,0.14890201254792276,-0.24993852674140205,0.08937789921000001,1.606434657034941,0.1727085357035167,-1.34420510876318, ,-0.00174519691581888,0.0006257938207172084,0.0027644587851440475,-0.0003798170486822456,0.03225656267579004,-0.02630306396869351, ,0.12337017059326172
0.01034324126645955,0.02053292204130886,-0.07955197880431242, ,0.010410462869091487,0.020597102811583175,-0.07971611760861665, ,0.00018862518975956536, ,-0.00023192685859535877,0.0004689827962174372,-0.001997934634618412,-0.032421720479828914,0.048566752370893126,0.013545725817781127, ,0.0020653033034142092, ,0.05839432673381872, ,1.472338917493726e-05, ,0.14889428981504854,-0.24993852674140205,0.08942975081000001,1.606434657034941,0.17380162770164026,-1.343299519709659, ,-0.0010290988263370155,0.0005000562397505741,0.0020764973953852173,-0.0003798170486822456,0.049478490375274804,0.031815590398807, ,0.1467890739440918
0.010337304342733854,0.020537996529951696,-0.07957432351752886, ,0.010414646856274372,0.020613688885381194,-0.0797731161405435, ,0.00022633979772959193, ,-0.000493906331150599,0.000498174930670496,-0.0019382163379549188,0.04266317294920429,0.08312547482377414,0.020440224167911004, ,0.00206126279212879, ,0.09343442026760947, ,1.568809534542774e-05, ,0.14887112161642588,-0.2499308040085278,0.08948419499000002,1.606434657034941,0.17516799269929464,-1.343515232605077, ,-0.00044845766833273625,0.0,0.0022774966428367174,-0.0003798170486822456,0.0,0.03851926933744054, ,0.16555500030517578
0.010338512875456628,0.020551749618257224,-0.0796280241486431, ,0.010419115360583793,0.020630010988984718,-0.07983029639175396, ,0.00023137774977278504, ,0.00022201147219508497,0.0006619357836004045,-0.0025898195976686443,0.0014629141336226642,0.0005379503775774718,-9.807021695001488e-05, ,0.0026822776932796293, ,0.0015586879914155014, ,1.6497843131498474e-05, ,0.14884795341780319,-0.2499308040085278,0.08950752821,1.606434657034941,0.17516799269929464,-1.343351875124796, ,-0.002235350162251701,0.0,0.002690677621621622,-0.0003798170486822456,-0.001513444554419758,-0.0014764635344754647, ,0.1852130889892578
0.010345713571760208,0.020569042607698124,-0.0796927771099008, ,0.010423867110119056,0.020646070578863487,-0.0798876571140856, ,0.00022365039667062434, ,0.00046535758291441564,0.0009492768763366374,-0.003642244163672862,0.0025013754310253358,-0.0011280771033699102,-0.0002820289923224839, ,0.00379257522215874, ,0.002743981843435457, ,1.7073058478122393e-05, ,0.1488170624863063,-0.24993852674140205,0.08957234271,1.606434657034941,0.17516799269929464,-1.3434335538649367, ,-0.0013268240856698854,-0.0001524156193730868,0.003831804551359154,-0.0003798170486822456,-0.002410746968002205,-0.0025277258735337737, ,0.20387601852416992
0.010356874617554076,0.020588913067521235,-0.07976734425216941, ,0.010428900835709631,0.02066186910824894,-0.07994519706215653, ,0.00020528512367136038, ,0.0005108082819373476,0.0008642351487750677,-0.0035738878062080886,0.009110378840658193,0.00030198301674129967,-2.4801572719521336e-05, ,0.003712209792648701, ,0.009115382371555476, ,1.7381581146784326e-05, ,0.14880161702055786,-0.24994624947427627,0.08965400898,1.606434657034941,0.1750313561995292,-1.3432404572210994, ,-0.0003067369789315915,0.0006640175089234504,0.003712144376602191,-0.0003798170486822456,0.0,-0.009826313049276326, ,0.22290706634521484
0.010363032409290544,0.020602700775915053,-0.0798209958396885, ,0.010434215270912,0.020677408027137408,-0.08000291499336475, ,0.00020914767904067045, ,0.0002731966617610028,0.0005490317214011952,-0.0024073717929540732,0.006275262206475307,0.0010475306316005306,3.40584234136135e-05, ,0.0024842526434751006, ,0.0063620936886611525, ,1.7671186618692742e-05, ,0.14877844882193517,-0.24994624947427627,0.08970974945000001,1.606434657034941,0.1750313561995292,-1.3432404572210994, ,-0.001076777327228854,0.0008037114090841138,0.0024834442656688498,-0.0003798170486822456,0.0,-0.007128056738995457, ,0.24146509170532227
0.010366419001936024,0.020611057057038175,-0.07985617313474004, ,0.010439809152007422,0.020692688782293245,-0.08006080966788501, ,0.0002322196447185564, ,0.00021785976791277605,0.0007329046461727353,-0.0024627893545345466,0.007118956675662177,0.0018177886547138095,0.00036425436765968156, ,0.002578748437452804, ,0.007347373656794625, ,1.8229804673275353e-05, ,0.1487552806233125,-0.24993852674140205,0.08974604557,1.606434657034941,0.1750313561995292,-1.3432404572210994, ,-0.001857358521929804,-0.0011982145209178557,0.00257539394017785,-0.0003798170486822456,0.0,-0.005991389686728269, ,0.2610599994659424
0.010374909401779413,0.020630596837083955,-0.0799296222642564, ,0.010445681217999762,0.02070771281725111,-0.08011887984866604, ,0.0002162728776912199, ,0.00043729421686758874,0.0008177096553291301,-0.003175017473338485,0.004543828027341651,0.00041920523625545495,0.00022767937743821816, ,0.003307659484972572, ,0.004563124570895507, ,1.8602694927787795e-05, ,0.14872438969181562,-0.24994624947427627,0.08982252668000001,1.606434657034941,0.1750313561995292,-1.3432404572210994, ,-0.0004713945590009518,0.0,0.003308164386292835,-0.0003798170486822456,0.0,-0.004600568798543238, ,0.28396010398864746
0.010382385540146153,0.02064600623731421,-0.0799921275958161, ,0.010451830210613118,0.02072248157231922,-0.08017712430142926, ,0.00021188397817700893, ,0.0003261076374339544,0.0007259647968315054,-0.0027411286733767764,0.004095984515920665,0.000977929393198107,0.0002858889128079445, ,0.0028543225958955116, ,0.004211108511780099, ,1.890108233602215e-05, ,0.14870122149319293,-0.24993852674140205,0.08988604489,1.606434657034941,0.1750313561995292,-1.3432404572210994, ,-0.0010364671480897897,-0.00025371830737195027,0.0028956210725322672,-0.0003798170486822456,0.0,-0.003922312838667715, ,0.3007700443267822
0.010390057651326806,0.02066201998644662,-0.08005175340511264, ,0.010458254874288843,0.020736996484582083,-0.08023554179466552, ,0.00020988213031802468, ,0.00038137912576256214,0.000815867663865005,-0.003056030692636611,0.003677692918247186,0.0008727009321973508,0.0003153913075782151, ,0.0031859713866958946, ,0.0037798190236342753, ,1.915280631889446e-05, ,0.14868577602744448,-0.24994624947427627,0.0899495631,1.606434657034941,0.1750313561995292,-1.3432404572210994, ,-0.0009359030168453226,-0.0003503656243807618,0.003186399583916784,-0.0003798170486822456,0.0,-0.0033873414398184086, ,0.31916213035583496
0.010394523275707696,0.02066971545159668,-0.08008156497748206, ,0.010464953956184122,0.020751258987903212,-0.08029413109963282, ,0.0002383153065834399, ,0.00036884013830905697,0.0007578776585445853,-0.0028423749588475686,0.002471888284253935,0.0006233292524213308,0.0003439734821206999, ,0.002964711958965421, ,0.0025492686914542996, ,1.954765691598063e-05, ,0.14868577602744448,-0.24994624947427627,0.08998067406000002,1.606434657034941,0.1750313561995292,-1.3433221359612402, ,-0.0006971177332745507,-0.00030980887742340765,0.0029651547877885334,-0.0003798170486822456,0.0,-0.002221084907601778, ,0.3359811305999756
0.010402439835535873,0.020685089055311735,-0.08013862618176162, ,0.010471926206168458,0.020765270512928407,-0.08035289099035473, ,0.0002390958595431161, ,0.0005044283901418416,0.0008669389942242346,-0.0033677804871122233,0.001920308730507497,-7.582597898421528e-05,0.0003015962679165827, ,0.0035139687861250935, ,0.001921805080210236, ,1.9906560025635687e-05, ,0.14867805329457026,-0.2499539722071505,0.09004030340000001,1.606434657034941,0.1750313561995292,-1.3433221359612402, ,0.0,2.108167963500999e-05,0.00351396680344143,-0.0003798170486822456,0.0,-0.00199663447890581, ,0.3534090518951416
0.010411126486102177,0.02070368479409878,-0.08021364265918596, ,0.01047917037682216,0.020779032487088157,-0.08041182024361705, ,0.00022266926342465415, ,0.00038948406097522416,0.00089525756234056,-0.003488504411449533,0.0018584116999277836,0.0018367513658813681,-0.0008065853792995307, ,0.00362254702735307, ,0.002612919652389948, ,2.014175042127857e-05, ,0.14864716236307338,-0.2499539722071505,0.09011808080000001,1.6060152771479719,0.1750313561995292,-1.3433221359612402, ,-0.0016262492654131034,2.5403565199871708e-05,0.0036226544280191044,0.0007830843429136148,0.0,-0.001772017270990895, ,0.37072205543518066
0.010416273319782659,0.020713625070611426,-0.08025222986476635, ,0.010486685223433708,0.02079254633460059,-0.08047091763896605, ,0.00024292127257576797, ,0.00045611462179352257,0.001046172145433462,-0.004077277120799211,0.00177103064192766,0.002098091711926435,-0.0008047612540365704, ,0.004233994027615934, ,0.0027456396776507127, ,2.0459510827383003e-05, ,0.14863943963019913,-0.2499539722071505,0.09015826579000001,1.6060152771479719,0.1750313561995292,-1.3433221359612402, ,-0.0018883785796305105,2.9627551292484356e-05,0.00423413384370016,0.0007830843429136148,0.0,-0.0016887796305261956, ,0.3873012065887451
0.010425883562072,0.020731261045069345,-0.08032062890958154, ,0.010494469503997137,0.020805813476474536,-0.08053018195870584, ,0.0002327543272540309, ,0.00053056655144864,0.0008633826015217272,-0.0033468469835155426,0.0016397219923847477,-0.00015014638050975162,-0.0008014476438267451, ,0.0034969007868673675, ,0.0016465818315401397, ,2.0699011959440067e-05, ,0.1486317168973249,-0.2499539722071505,0.09022956174,1.6060152771479719,0.1750313561995292,-1.3433221359612402, ,0.0003586440987677315,3.279844663036625e-05,0.0034962272870939426,0.0007830843429136148,0.0,-0.0015605511414019907, ,0.40761899948120117
0.010434400530771914,0.020746347240133505,-0.08038173361477087, ,0.010502521979209738,0.02081883533051213,-0.08058961198789606, ,0.00023045275654064813, ,0.0003007040386268533,0.0005740160265379375,-0.0022424289081492505,0.0014714320894991927,0.0006355041796570575,-0.0008008477540598122, ,0.002334181810757753, ,0.0016028031381514693, ,2.0907321624089535e-05, ,0.14862399416445068,-0.24994624947427627,0.09029307995000001,1.6060152771479719,0.1750313561995292,-1.3434038147013805, ,-0.00042837893628801347,5.744791449997608e-05,0.002334575922614686,0.0007830843429136148,0.0,-0.0014165752707247885, ,0.4258081912994385
0.010440720563096391,0.020760455592908577,-0.08043663058409271, ,0.010510841412470023,0.020831613311311798,-0.08064920651434998, ,0.00023488056652259248, ,0.0003949164378200629,0.0008504416559445396,-0.0033220583648799415,5.5025224517308556e-05,0.0014433015427120959,-0.0007589677593905725, ,0.00345185193522187, ,0.0014443499277940217, ,2.1118700229998073e-05, ,0.14860082596582802,-0.24994624947427627,0.09035011671000001,1.6060152771479719,0.1750313561995292,-1.3434854934415212, ,-0.001249601371761561,5.7952594742114196e-05,0.0034522781794538364,0.0007830843429136148,0.0,0.0, ,0.4469161033630371
0.010450536472734816,0.020777784852131883,-0.08050643120881126, ,0.010519426569874497,0.020844148830271195,-0.08070896432863109, ,0.0002239859096067016, ,0.000473084256106839,0.0009145601182407411,-0.003489038364695262,0.0003527121508535608,0.0007947563392869807,-0.0007282051812673832, ,0.003637803957550224, ,0.00086950732208023, ,2.1266168088853376e-05, ,0.1485931032329538,-0.24993852674140205,0.09042141266,1.6060152771479719,0.1750313561995292,-1.3435671721816618, ,-0.0006061869900850815,-0.0001656605928373384,0.0036152545438039043,0.0007830843429136148,0.0,-7.697697332191504e-05, ,0.46391916275024414
0.010460926059827043,0.02079636776360878,-0.08057583381431185, ,0.010528276220216452,0.020856443295589798,-0.08076888422405197, ,0.00021310460893211226, ,0.0005018689738723506,0.000910235525508331,-0.0035802107320060013,0.0001215784175987625,0.0007046570185812093,-0.0007523295496943614, ,0.0037280437315573515, ,0.0007150679948349619, ,2.1357001127064387e-05, ,0.1485931032329538,-0.24994624947427627,0.09049530119,1.6060152771479719,0.1750313561995292,-1.3435671721816618, ,-0.00040349557888655834,0.00016322172769101098,0.0037286543820224723,0.0007830843429136148,0.0001093035034457087,-0.0001709449194812271, ,0.48200011253356934
0.01046669058944537,0.02080630773942758,-0.08061434096300277, ,0.010537389134982448,0.020868498112271892,-0.0808289649966709, ,0.00023437022559095092, ,0.000481651748439947,0.0008646775704365525,-0.0034030636305769028,3.47805670511796e-05,0.0005331603520304403,-0.0007770411909155913, ,0.003544079257204411, ,0.0005342931708497427, ,2.1614143704288825e-05, ,0.1485931032329538,-0.24994624947427627,0.09053548618000001,1.6060152771479719,0.1750313561995292,-1.3435671721816618, ,-0.00033866494622551116,0.00016322172769101098,0.0035444618424566093,0.0007830843429136148,0.0,-8.391090893486318e-05, ,0.4968860149383545
0.010476755836561043,0.020822994342213724,-0.08068157697234887, ,0.01054676408835038,0.020880314682129496,-0.08088920544528995, ,0.00022648699623268014, ,0.0004623705291105259,0.0008200411358901545,-0.003236631008831609,8.084579060712231e-05,0.0005331138829865565,-0.0007623741876040683, ,0.0033707616732828027, ,0.0005392087711616187, ,2.182423722036086e-05, ,0.1485931032329538,-0.24993852674140205,0.09060548584000001,1.6060152771479719,0.1750313561995292,-1.3435671721816618, ,-0.00026115002209154553,0.0001844936600691469,0.0033711770412698412,0.0007830843429136148,7.935029128466591e-05,-0.00015118675932727498, ,0.51438307762146
0.010487216856672053,0.020839692406662242,-0.0807514567515406, ,0.010556399857187475,0.02089189440378524,-0.08094960437145304, ,0.00021627254874558081, ,0.000517137414896065,0.0009665329604741478,-0.003572053464316407,0.0007001021248638925,0.0004088451585752574,-0.0006781364028348032, ,0.0037364666493230137, ,0.000810738408721185, ,2.1982711178469966e-05, ,0.1485931032329538,-0.24992308127565357,0.09067807808000002,1.6060152771479719,0.1750313561995292,-1.3435671721816618, ,-0.00021433124532773862,-0.0005056260967117377,0.003736526277269529,0.0007830843429136148,0.0,-8.775667570849947e-05, ,0.5327301025390625
0.010492171556683689,0.020849310865114257,-0.08078880298518867, ,0.010566295221047286,0.02090323867267496,-0.08101016057944277, ,0.00023958654090109523, ,0.0005036349191557073,0.0009143862080425308,-0.0033677003523914966,0.000659825351436799,0.0002506214417457766,-0.0006623853591821496, ,0.003525784442184347, ,0.0007058187928091807, ,2.2217858231877107e-05, ,0.14858538050007958,-0.24992308127565357,0.09071696678,1.6060152771479719,0.1750313561995292,-1.3436488509218023, ,0.0,-0.0005056260967117377,0.0035256333598937583,0.0007830843429136148,5.833573977368839e-05,-4.75688842097247e-05, ,0.5475749969482422
0.010496820158562051,0.020857326247157585,-0.08081985735692335, ,0.010576448962167341,0.020914348881050843,-0.08107087287627834, ,0.0002694459465213628, ,0.00047049040538687446,0.0008554439593473312,-0.0031459512402404436,0.0006357262421887478,0.00024527164396537346,-0.0006665614461950261, ,0.0032939573153147154, ,0.0006813998284359118, ,2.2546543108817417e-05, ,0.14858538050007958,-0.24992308127565357,0.09074937403000001,1.6060152771479719,0.1750313561995292,-1.3436488509218023, ,0.0,-0.0004857657042225495,0.0032937989081885865,0.0007830843429136148,5.285469453436963e-05,-4.30994593365869e-05, ,0.5631802082061768
0.01050442000416387,0.020871101144372354,-0.08087062712310694, ,0.010586859865467221,0.020925226417984107,-0.08113174007171375, ,0.00027911619069019745, ,0.00043798627961591437,0.000738139898804969,-0.002928291045108463,-6.779333123139203e-05,0.00023687632284563644,-0.0007727640598002637, ,0.003051486676392675, ,0.00024638610506855083, ,2.2890598320732602e-05, ,0.14858538050007958,-0.2499308040085278,0.09080252192,1.6060152771479719,0.1750313561995292,-1.3437305296619428, ,0.0,0.00021851409344936565,0.003051496459770115,0.0007830843429136148,4.424744215120778e-05,-3.6080822158642436e-05, ,0.5822041034698486
0.010519157337294667,0.02089516964276684,-0.08096907793334988, ,0.01059752671854559,0.020935872669367982,-0.08119276097823447, ,0.00024048409689828717, ,0.0006450364059624233,0.0010413728737184939,-0.004190405370617119,0.0012492977224780343,2.2166865807033887e-05,-0.0008617840468494534, ,0.004365779036693272, ,0.0012494938484346083, ,2.308503666084252e-05, ,0.14858538050007958,-0.24991535854277935,0.09090492883000001,1.6060152771479719,0.1750313561995292,-1.3438122084020834, ,0.00021824165211372786,0.00048343205236174943,0.004365253910660455,0.0007830843429136148,3.245416514895138e-05,-0.0016159150949793715, ,0.5977940559387207
0.01052457362572897,0.020903836483898673,-0.08100526073386977, ,0.010608448311678524,0.020946289017920363,-0.08125393441105577, ,0.000265849164590016, ,0.0006926481575441914,0.00112382907924033,-0.0045129650427708145,0.0012148462174337966,2.287389657095927e-06,-0.0008703095353062306, ,0.004702085361493017, ,0.0012148476003793198, ,2.3352920724549706e-05, ,0.14858538050007958,-0.24990763580990513,0.09094252124,1.6060152771479719,0.1750313561995292,-1.3438122084020834, ,0.0002064360390370893,0.0004915795990392642,0.004701538229043684,0.0007830843429136148,0.0,-0.0015894508994436175, ,0.6173720359802246
0.010537961651921423,0.020926919387399705,-0.081094697677074, ,0.010619623437816363,0.02095647684318682,-0.08131525918812017, ,0.00023704360489818914, ,0.0004604842997810252,0.0006705100413097414,-0.00297853461870879,0.0008802227981062207,5.324691741032163e-05,-0.0009672214682352867, ,0.003087603922249214, ,0.0008818317152890379, ,2.351440059304421e-05, ,0.14858538050007958,-0.24990763580990513,0.09103585412000001,1.6060152771479719,0.1750313561995292,-1.3438938871422241, ,0.00017872933437957132,0.0011478899585329555,0.003085782936846184,0.0007788040632642949,2.2023201469893248e-05,-0.0019047116344659805, ,0.6321921348571777
0.010545654191542173,0.020939102030914154,-0.08114181906935905, ,0.010631050892581527,0.020966437521543535,-0.08137673413009525, ,0.00025144564294702856, ,0.00042703647165932677,0.0006557587548778786,-0.0028479978267216197,0.0013799390696334374,0.0002156201858338742,-0.000924131815549808, ,0.002953552321144371, ,0.0013966831111854267, ,2.3712928612488333e-05, ,0.1485931032329538,-0.24990763580990513,0.09108511314,1.6060152771479719,0.1750313561995292,-1.3439755658823644, ,9.760347165479457e-06,0.0009242700606215223,0.0029525137201112145,0.0007585376025904606,1.7634023751454292e-05,-0.00218630078697806, ,0.6493220329284668
0.010554115272668411,0.020951934861580545,-0.08119406908052977, ,0.010642729474266642,0.020976172426199848,-0.08143835806037092, ,0.000260992417390612, ,0.0006769251322499127,0.0010956212986797278,-0.0043187926555867725,0.002040796278047414,-0.00014997409027164512,-0.0008079442144098159, ,0.0045067264912286905, ,0.002046299140828232, ,2.393093775160364e-05, ,0.14860082596582802,-0.2498999130770309,0.09113955732000001,1.6060152771479719,0.1750313561995292,-1.3439755658823644, ,0.0003679204042950099,0.00024314656194364515,0.004506028718528997,0.0007419885641286821,1.4293941166929981e-05,-0.0021758971555534082, ,0.6646251678466797
0.010568600319613897,0.020973126569863342,-0.08128654951345413, ,0.010654657983831198,0.02098568292720151,-0.08150012980505705, ,0.00023060816256440916, ,0.000687832993760453,0.0010929650738395664,-0.00480576078215141,0.0005497205773417281,0.0005894596395275771,-0.0009999326555409568, ,0.004976245931945398, ,0.000806010431953684, ,2.4047835245787456e-05, ,0.14860854869870224,-0.249869022145534,0.09123548278000002,1.6060152771479719,0.1750313561995292,-1.3440572446225052, ,-0.0003815020724935527,0.0016871611919693963,0.004974644447220488,0.0007200146106108362,1.0210228804238767e-05,-0.002116028569114138, ,0.679995059967041
0.010575553394168727,0.020983086981275576,-0.08133299126198529, ,0.010666835224900273,0.02099497039143314,-0.0815620481929816, ,0.0002468616326935503, ,0.0006295563411153229,0.0009193092481751936,-0.0044038451544530155,-0.0007241123900340324,0.0005575210298005508,-0.0010941311830694495, ,0.004542611894584245, ,0.0009138746061084176, ,2.427744573108874e-05, ,0.14860854869870224,-0.24984585394691133,0.09128344551,1.6060152771479719,0.1750313561995292,-1.3441389233626455, ,-0.0003586066423588175,0.0024861031140267216,0.0045381229401709414,0.0007092953798956579,8.346425360614112e-06,-0.0016336316078028057, ,0.6933619976043701
0.010579830854120266,0.020990458901763796,-0.08136156174801351, ,0.010679260003761109,0.021004036182621328,-0.08162411205568824, ,0.00028107501207663856, ,0.0005965868529338739,0.0009254777193234026,-0.004172508243466255,1.9646788540084704e-05,0.0005345626839861226,-0.0009760323047615093, ,0.004315350498378023, ,0.0005349224193420566, ,2.459587808627217e-05, ,0.14860854869870224,-0.24984585394691133,0.09131326018000001,1.6060152771479719,0.1750313561995292,-1.3441389233626455, ,-0.00033852585480191496,0.001732073486688489,0.004313244386677499,0.0007022856800872534,7.17400751168698e-06,-0.0016326755796609257, ,0.7100880146026611
0.010591061514048452,0.02100778773037595,-0.08143657482030428, ,0.01069193112936135,0.021012881661337454,-0.08168632022743283, ,0.00026939449847355296, ,0.000567598677555437,0.0008276484431445158,-0.003417096970274963,0.003963425449806528,-0.00045931708414359226,-0.000882858899958239, ,0.0035614213326233325, ,0.003989951505227463, ,2.48689773892768e-05, ,0.14860854869870224,-0.24982268574828867,0.09139103758000001,1.6060152771479719,0.1750313561995292,-1.344302280842927, ,0.0006745464764939647,0.0006508130026741364,0.003559510954189944,0.0006822741544569039,4.0179899691161255e-06,-0.004511369800499977, ,0.723459005355835
0.010603689788520231,0.021025760179481427,-0.08151663627106076, ,0.010704847413306424,0.021021508185000516,-0.08174867154518277, ,0.0002531626215426072, ,0.0006630818299852024,0.0010140857523085593,-0.0040774952607666275,0.005618724201100688,-0.00040783332106812654,-0.0008903083282586327, ,0.004253706034491106, ,0.005633505883434876, ,2.5086828022383325e-05, ,0.14861627143157646,-0.24979179481679176,0.09147400014000001,1.6060152771479719,0.1750313561995292,-1.3443839595830673, ,0.00031632165280274144,0.0014247477275856142,0.004841584048632219,0.0006640183504205765,1.377940979585745e-06,-0.005984172987918047, ,0.7365682125091553
0.010612365364865643,0.02103826927486535,-0.08157029075244561, ,0.010718007669857331,0.021029917107879822,-0.08181116484861344, ,0.000263154679802541, ,0.0007223915371529321,0.001117807487786183,-0.00510504229778553,0.003405034001653283,0.0007197606725258086,-0.001127559463362399, ,0.00527568004857008, ,0.0034802742005174575, ,2.532344122142618e-05, ,0.14862399416445068,-0.24977634935104331,0.09152974061000001,1.6060152771479719,0.1750313561995292,-1.344465638323208, ,-0.0005054403677909856,0.0022683944161887297,0.005272694975173785,0.0006543661975716185,7.0155181998078e-08,-0.005557214192245683, ,0.7506539821624756
0.010619481471757281,0.02104917463888909,-0.08161781643178319, ,0.01073141071592762,0.021038109781098328,-0.08187379898010647, ,0.00027960266777080686, ,0.0006741867173609167,0.001118599506189271,-0.00478320226892657,0.005991823326266655,0.0007320855697171908,-0.001026415256381239, ,0.00495830782934834, ,0.006036380832155587, ,2.5594896338722794e-05, ,0.14862399416445068,-0.24976090388529487,0.09157899963,1.6060152771479719,0.1750313561995292,-1.3445473170633486, ,-0.0005054403677909856,0.0013099200111021576,0.004957613295985062,0.0006459228952886753,-1.0245353956905934e-06,-0.007198098324468874, ,0.7638840675354004
0.010632274020111562,0.021067145598748616,-0.0817032528312435, ,0.010745055371082233,0.021046087552634794,-0.08193657278474675, ,0.0002600024521724053, ,0.0006218036445176146,0.0007761121326249343,-0.003919936577419472,0.003781971608479121,-0.00020536879254922762,-0.001191717367707904, ,0.004044118270492852, ,0.003787543354571042, ,2.5805412426747133e-05, ,0.14862399416445068,-0.24971456748804952,0.09166714735,1.6060152771479719,0.1750313561995292,-1.3446289958034892, ,0.0004177992724033276,0.0027003439467044145,0.004036698307146478,0.0006287460363199725,-3.1148660045326126e-06,-0.006365398439293906, ,0.7788290977478027
0.010635274148765769,0.021071634921931065,-0.08172328951064743, ,0.010758940457533686,0.02105385176732719,-0.0819994851103205, ,0.00030313958136593257, ,0.0006386547288762264,0.0007942938845636096,-0.0040323936008408445,0.003660170212618056,-0.00020688615142737605,-0.0012059094176020458, ,0.004159204345770151, ,0.003666012383891806, ,2.6118715992933074e-05, ,0.14862399416445068,-0.2497068447551753,0.09168788799000001,1.6060152771479719,0.1750313561995292,-1.3446289958034892, ,0.0004177992724033276,0.0028225002380070823,0.004151371258795935,0.0006245644418633878,-3.5969613068089127e-06,-0.006365005322900748, ,0.795767068862915
0.010654278214898212,0.021092183957456236,-0.0818290384603828, ,0.010773064800140678,0.021061403766875413,-0.08206253480731326, ,0.00026377683180224917, ,0.0007595503936798447,0.0007693350704625226,-0.004473109524525153,0.0026006223828828738,-0.000860506677152732,-0.0014359234542288065, ,0.004601902005647276, ,0.0027392894569529275, ,2.6322097449846935e-05, ,0.14864716236307338,-0.24962961742643305,0.09179677635000001,1.6060152771479719,0.17489471969976378,-1.3445992566399332, ,0.001074545008894732,0.004412140012661336,0.004583830653237411,0.0006049446606939986,0.0,-0.0068805776869208645, ,0.8089590072631836
0.010660376131286528,0.021098607002125496,-0.08186975760397505, ,0.01078742722640548,0.021068744889843814,-0.08212572072890627, ,0.0002873166334297445, ,0.0007027496251021771,0.0007090274317336988,-0.004168720359045287,0.0031016053701981108,-0.0007247001623561797,-0.0014058048243108503, ,0.004286584463935221, ,0.0031851444141192987, ,2.6576571403626727e-05, ,0.14864716236307338,-0.2495832810291877,0.09183825763,1.6060152771479719,0.17489471969976378,-1.3447626141202143, ,0.0009396263304952662,0.004196776299134222,0.004269314264272313,0.0005978990069982128,0.0,-0.007169719995638043, ,0.8235831260681152
0.01066747883194269,0.02110566653695143,-0.08191287970314581, ,0.010802026566470939,0.02107587647166473,-0.08218904173097594, ,0.0003086357180750734, ,0.0005168951864508563,0.0005371272017609579,-0.0035953638622883157,0.0028705198474674202,0.0004713405991118475,-0.0014322496651911411, ,0.003671828913075387, ,0.0029089595312236966, ,2.687414353530072e-05, ,0.1486548850959476,-0.24953694463194237,0.09188233149000001,1.6060152771479719,0.17489471969976378,-1.3447626141202143, ,-0.0002585545447095237,0.004429244171677846,0.0036525593946342585,0.0005895801838075669,0.0,-0.007169719995638043, ,0.8381071090698242
0.01066747883194269,0.02110566653695143,-0.08191287970314581, ,0.01081686165311901,0.021082799844640645,-0.0822524966720898, ,0.00037172274409098273, ,0.0005168951864508563,0.0005371272017609579,-0.0035953638622883157,0.0028705198474674202,0.0004713405991118475,-0.0014322496651911411, ,0.003671828913075387, ,0.0029089595312236966, ,2.7312338617267017e-05, ,0.1486548850959476,-0.24953694463194237,0.09188233149000001,1.6060152771479719,0.17489471969976378,-1.3447626141202143, ,-0.0002585545447095237,0.004429244171677846,0.0036525593946342585,0.0005895801838075669,0.0,-0.007169719995638043, ,0.8512451648712158
0.01068965394398929,0.02112394960254294,-0.08205231996182666, ,0.010831931321767707,0.021089516337947437,-0.0823160844135048, ,0.00030166237403308316, ,0.0008075761770543787,0.0006583482146877797,-0.0047330806008614,-0.007647973097795678,-0.0010526708268593877,-0.0014491283548799085, ,0.004846406259052048, ,0.007720078108349786, ,2.757167195931447e-05, ,0.14867033056169604,-0.24933615357721253,0.0920236271,1.6060152771479719,0.17489471969976378,-1.3454977227814795, ,0.0011789991405885642,0.006406684188777204,0.004812329764350453,0.0005646615662522942,0.0,0.0013936851686455268, ,0.8642439842224121
0.010696201359992224,0.021130030557812957,-0.08209171843044367, ,0.010847234410469081,0.021096027277637045,-0.08237980381916549, ,0.00032704800350111295, ,0.000806284041671948,0.0007834996093091307,-0.0051728092964475865,-0.006469627597113304,-0.00024103072416683797,-0.0014495800784578058, ,0.005293573614398593, ,0.00647411564243735, ,2.7945787634650637e-05, ,0.14867805329457026,-0.24928981717996718,0.09206381209,1.6060152771479719,0.17489471969976378,-1.3455794015216198, ,0.00037556378342416314,0.006240318649381782,0.0052657228165289265,0.0005596027554609178,0.0,0.0003786715149656176, ,0.8777990341186523
0.010708157484585984,0.021140903057143386,-0.0821629015083155, ,0.010862769759906497,0.021102333986640586,-0.08244365375570058, ,0.0003228224795317222, ,0.0008158128493494985,0.0007626250005141254,-0.005035711188085487,0.001581831740362172,-0.0005273973803258098,-0.0016492844229410576, ,0.005158055318274734, ,0.0016674340806726799, ,2.8300006250458444e-05, ,0.1486934987603187,-0.24920486711835071,0.09213640433,1.6060152771479719,0.17489471969976378,-1.3454977227814795, ,0.0007331967722742475,0.006077548800324262,0.005130052019323672,0.0005506267368819463,0.0,-0.007516839617224909, ,0.889228105545044
0.01071682981289023,0.021149197949487206,-0.08221608899959618, ,0.010878536213392447,0.02110843778477076,-0.08250763309242129, ,0.0003358694821687641, ,0.0010363535900810164,0.0008581377377784804,-0.0056086659171270085,0.0009058766633941401,-0.0021891845921976883,-0.001751981852828522, ,0.005767803959100511, ,0.0023692058074248315, ,2.8674036531237752e-05, ,0.1487166669589414,-0.24914308525535692,0.09219084851,1.6060152771479719,0.1750313561995292,-1.3456091406851756, ,0.0023313559750864476,0.006707720357587415,0.005731850133141418,0.0005443865400459934,-6.37510365741376e-05,-0.007464854921585327, ,0.9018630981445312
0.010727965725556725,0.021157815879614073,-0.08227312005517398, ,0.0108945326168663,0.02111433998872515,-0.08257174070131935, ,0.00034468677472946523, ,0.001214613494920111,0.0009853162645982096,-0.005958382283684352,0.0004292729833795465,-0.0036947101017471375,-0.0016639327900741026, ,0.006160231612678809, ,0.0037195632163171243, ,2.9057686654664504e-05, ,0.14874755789043828,-0.2490735806594889,0.09224918156,1.6060152771479719,0.1750313561995292,-1.3456091406851756, ,0.003828058616065056,0.006323810909332471,0.006121756925441969,0.0005384488788448264,-6.29772075133881e-05,-0.006608970113321503, ,0.9132070541381836
0.010752484092689165,0.02117886033977806,-0.08240209443024402, ,0.010910757818891358,0.021120041912088987,-0.08263597545706308, ,0.000288462327779005, ,0.0011961486983436207,0.0009359693362561352,-0.005975800805797312,-0.0017477183451734771,-0.0034472722304290304,-0.001690126834116246, ,0.006165793183162138, ,0.0038649964585098953, ,2.9307941496443052e-05, ,0.14880933975343208,-0.24893457146775286,0.09238140314000001,1.6060152771479719,0.1750313561995292,-1.3456091406851756, ,0.0035671632117032794,0.006904588111473572,0.006124110542099193,0.0005263932598959073,-5.8183502714081174e-05,-0.0050072082964988576, ,0.9267539978027344
0.01076169089838167,0.021185218335545063,-0.08245051446652375, ,0.0109272106706531,0.021125544865337686,-0.08270033623699702, ,0.00030556281688349097, ,0.0008585983926550023,0.0004887724496212597,-0.004821735514874116,-0.0037900394867027803,-0.0014902111297520801,-0.0019138864776056127, ,0.004921912543186528, ,0.004072483998218795, ,2.9588710258141823e-05, ,0.14883250795205474,-0.24886506687188484,0.09243066216000001,1.6060152771479719,0.1750313561995292,-1.3456091406851756, ,0.001606693707276395,0.008536110512547964,0.00486227457875458,0.0005210578473941068,-5.613830468325135e-05,-0.00457889795286476, ,0.9380130767822266
0.010769124484579609,0.021189619228825313,-0.08249926431173905, ,0.01094389002595645,0.02113085015583993,-0.0827648219211379, ,0.0003232918840644379, ,0.000989536868900141,0.0004502900697825873,-0.004537952356946847,-0.005346683489577328,-0.0024483841528504828,-0.0014812119838847804, ,0.004666364318800767, ,0.005880612839936758, ,2.990016244300419e-05, ,0.14886339888355166,-0.24877239407739413,0.09247992118000001,1.6060152771479719,0.1753046291990601,-1.3459136552327091, ,0.0038067008124240635,0.008205911452993818,0.004598386697459584,0.0005150694209734873,0.001245396863152531,-0.002697814779036485, ,0.9491920471191406
0.010775392121908485,0.02119372197850711,-0.08253630492348146, ,0.010960794741223502,0.021135959087860798,-0.0828294313921735, ,0.00035161599712264124, ,0.0009766194349393104,0.000554504865859756,-0.005030287911816466,-0.002810424383391305,0.001496674110887459,-0.0007600347513362335, ,0.005154130153840722, ,0.003184103545451651, ,3.026348527520802e-05, ,0.14888656708217432,-0.24871061221440033,0.09251751359,1.6060152771479719,0.1754412656988255,-1.3460250731364054, ,0.0031332857351813294,0.008428277254318094,0.005100483996157542,0.0005108843065621494,0.00459730650673622,-0.005461490873618361, ,0.961014986038208
0.010790195511298851,0.021203194854293714,-0.08261246052689525, ,0.010977923675490768,0.021140872962564002,-0.08289416353545931, ,0.0003442128220355544, ,0.0011191564881740366,0.0008593755893033419,-0.006254128969474556,0.016575588526047156,0.023259277506014968,0.00471677979541608, ,0.006411331126633016, ,0.028561234488697327, ,3.060230175517532e-05, ,0.14895607167804234,-0.24859477122128698,0.09259529099000001,1.6060152771479719,0.17571453869835643,-1.3463295876839392, ,0.005269724099590428,0.008581042797243248,0.0064048297225572995,0.0005036786502354871,0.029080903096614836,-0.025050104238099242, ,0.972588062286377
0.010804038973241194,0.021211410567647283,-0.08267867770708504, ,0.010995275690407473,0.021145593078015362,-0.08295901723901698, ,0.0003456785748318901, ,0.0011210968153864507,0.0007790360875127957,-0.006443566074057088,0.009615364237315,0.01768646069350289,0.0029938077071010438, ,0.006586599960970482, ,0.020131222272161537, ,3.093576834838692e-05, ,0.1490024080752877,-0.24849437569392205,0.09266269807000001,1.6060152771479719,0.17571453869835643,-1.3463295876839392, ,0.00421912348846025,0.009988414924069614,0.006557765137916839,0.000498365375845796,0.022298571299719894,-0.01946815640533497, ,0.9837729930877686
0.010814676757275425,0.021218014682063895,-0.08273608249719014, ,0.01101284965023255,0.02115012072918517,-0.08302399139353134, ,0.0003560528288511441, ,0.00140275576309269,0.0006959249273516002,-0.006144997788440131,-0.014285445162047144,-0.011568387299110413,-0.003554209624124987, ,0.006341374697597768, ,0.018382097796986234, ,3.1282187492209736e-05, ,0.1490410217396588,-0.24840170289943136,0.09272103112,1.6060152771479719,0.17585117519812185,-1.3464410055876355, ,0.004947527167751453,0.010076209222328776,0.006244144068992553,0.0004936862974306987,-0.006917273118473014,0.0044056988222711995, ,0.9987280368804932
0.010833813432850578,0.021226807323184212,-0.08282054124394747, ,0.011030644421832544,0.02115445720795132,-0.08308908489234824, ,0.00034072374219333443, ,0.0009723531318963477,0.00043329091704119664,-0.00509459049084986,-0.0010303447191520273,0.005346841457091353,-1.4329523231793089e-05, ,0.005204619477095022, ,0.005445210774209037, ,3.1589477888274145e-05, ,0.1491028036026526,-0.24825497097482108,0.09280658626,1.6060152771479719,0.17571453869835643,-1.3464929451642202, ,0.0033968321309311373,0.0099301806544036,0.005138326296774195,0.0004862651364118486,0.008818164656147704,-0.008738524154231903, ,1.011207103729248
0.010846101137620311,0.02123051348799662,-0.0828719296800861, ,0.011048658874678994,0.02115860380310214,-0.08315429663147271, ,0.0003548686163347336, ,0.0009738538274771258,0.00025794360795904395,-0.004410797414880238,-0.002551739761827363,0.002630106006598808,-0.00039255508612532773, ,0.0045243850429967794, ,0.0036645370442309933, ,3.198097138110389e-05, ,0.14915686273277218,-0.24814685271458195,0.09285843786,1.6060152771479719,0.17571453869835643,-1.3465746239043608, ,0.004441952764182477,0.009952516183747396,0.004435759264828739,0.0004807255804780548,0.007108509865066738,-0.007236310374762785, ,1.0207362174987793
0.010855228280373021,0.0212313235296603,-0.08291482916701808, ,0.011066891880846369,0.021162561800339107,-0.08321962550956544, ,0.0003773996099823508, ,0.0010666032406127708,9.21229301628247e-05,-0.0043047200157348715,-0.00790064006390906,-0.004812667767961003,-0.0022703840516785463, ,0.004435847553852125, ,0.009251047669645051, ,3.240911065881419e-05, ,0.14920319913001753,-0.24803101172146858,0.09290121543,1.6060152771479719,0.17585117519812185,-1.3467677205481978, ,0.004961442287299266,0.011517437028874923,0.0042946377783769215,0.00047581226205103256,0.0,-0.0034219375899877964, ,1.031238079071045
0.01086449771947119,0.021233733825820104,-0.08295864749169994, ,0.011085342315009381,0.021166332482279834,-0.08328507042794144, ,0.0003998339777882556, ,0.0011703658533285838,0.00035434513038718585,-0.004942921885955772,-0.0027660971252803333,0.0006477168651546872,-0.0006410463313052036, ,0.0050919341583260105, ,0.0028409201842418733, ,3.287263585275997e-05, ,0.14924953552726286,-0.24793061619410367,0.09294528929000001,1.6060152771479719,0.1759878116978873,-1.3469608171920349, ,0.005732935440126389,0.010419393311838564,0.004994923650047038,0.000471389464624842,0.006394323896772986,-0.00748372779182583, ,1.044795036315918
0.010869158168947655,0.021234956593630783,-0.08297660412519561, ,0.011104009054440608,0.021169917128460992,-0.08335063029056722, ,0.0004464086052362609, ,0.001235024501603944,0.0003858187553691638,-0.005318922071378761,-0.003484093622209624,0.0005541275271224578,-0.0007477775197463263, ,0.005474036320025362, ,0.003527883420337841, ,3.341712509208904e-05, ,0.14927270372588555,-0.24789200252973254,0.09296084477000001,1.6060152771479719,0.1759878116978873,-1.3469608171920349, ,0.005826123860745893,0.011145283434007251,0.005304299540459542,0.0004699500116577346,0.006394323896772986,-0.00748372779182583, ,1.0541582107543945
0.010888944208371144,0.02124672368765618,-0.0830888598270795, ,0.011122890979008449,0.02117331701534073,-0.08341630400405868, ,0.00040907128971564666, ,0.0011948787098423742,0.0008865934205345468,-0.006899050954555876,0.023530660065219543,0.02734643625509003,0.0053116926322372415, ,0.0070576686730200126, ,0.036076578597880646, ,3.3879812786649656e-05, ,0.14936537652037624,-0.24769893420787692,0.09307751087,1.6060152771479719,0.17653435769694906,-1.3475698462871013, ,0.005414314517603515,0.010017386932502181,0.007048146690265488,0.0004619250536991351,0.03337003254084573,-0.033441613725380515, ,1.0636110305786133
0.01090218282397144,0.021255125901631054,-0.08315894012340114, ,0.011141986971174021,0.021176533416302344,-0.08348209047767838, ,0.0004100109257510183, ,0.0015482769816915687,0.0007137154527874215,-0.00664981560567854,-0.022104729457783464,-0.024813021663318887,-0.007037134837019078, ,0.006864881568469289, ,0.0332310862817182, ,3.4335517070395434e-05, ,0.1494117129176216,-0.2475908159476378,0.09314880682000001,1.6060152771479719,0.1766709941967145,-1.3476812641907978, ,0.0041783941499658715,0.01119487480468194,0.006732380185967879,0.00045743623783420776,-0.02130375350092243,0.011141192760278855, ,1.073307991027832
0.010931530516102019,0.021267158787205982,-0.08328032346964907, ,0.01116129591598965,0.02117956760165615,-0.0835479886233335, ,0.00036346800308755694, ,0.001606500488858002,0.0006682567386254528,-0.006254277840727157,-0.0027361215411169904,-0.0076385372305527634,-0.0022509740004441193, ,0.006491794990480682, ,0.008113790885947202, ,3.469534899860478e-05, ,0.14952755391073497,-0.24737457942715949,0.09327195437000001,1.6060152771479719,0.17653435769694906,-1.347651525027242, ,0.007821189230238659,0.010650967199933256,0.006379179623548259,0.0004492370446902477,0.0,-0.007734972227930516, ,1.0890300273895264
0.010948477976048258,0.021274909154189055,-0.08334488914274799, ,0.011180816701095645,0.02118242083864315,-0.08361399735557311, ,0.0003673616772053069, ,0.0015787604078355473,0.000678111323144153,-0.005848607551701024,-0.00016922571452927804,-0.008007950639943019,-0.0020969614019792, ,0.006095779661843071, ,0.008009738070060207, ,3.50557299134975e-05, ,0.14961250397235143,-0.24727418389979458,0.09333806516000001,1.6060152771479719,0.17653435769694906,-1.3478148825075231, ,0.008201636489365997,0.00937942496264443,0.005988275007518798,0.00044486421216671893,0.0,-0.009045620923207803, ,1.098264217376709
0.010964793242887346,0.021279776802475663,-0.08340083289935242, ,0.011200548216718694,0.021185094391437363,-0.08368011559158656, ,0.0003775499818935141, ,0.0015716757421469928,0.00035061802615635683,-0.005150433360201134,-0.002151446951736194,-0.008993021030449348,-0.0022897587071153834, ,0.005396300717768778, ,0.009246791206466341, ,3.5428236971188156e-05, ,0.1497051767668421,-0.24716606563955543,0.09339510192000001,1.6060152771479719,0.17653435769694906,-1.3478965612476639, ,0.009364202736859364,0.011071663607394349,0.00523629570019724,0.000440613181522666,0.00018745152511290655,-0.008737284176785102, ,1.1074299812316895
0.01097875097970262,0.02128271852237854,-0.08344928195558707, ,0.01122048935566854,0.021187589521149113,-0.08374634225119973, ,0.000394628671689007, ,0.0014972987792241915,0.0002660559812507228,-0.004965245224395219,2.4456440548621263e-05,-0.008574684312817361,-0.0024683883613218017, ,0.00519291339787263, ,0.008574719013709412, ,3.582511194716091e-05, ,0.14979784956133282,-0.2470579473793163,0.09344436094000001,1.6060152771479719,0.1766709941967145,-1.3480896578915007, ,0.008787342386847917,0.011458341299333687,0.00502803393939394,0.0004367551914047075,0.0,-0.011296870522210446, ,1.1172091960906982
0.01098955116258488,0.02128534928108898,-0.08349417895392802, ,0.011240639013336632,0.021189907485827383,-0.08381267625687466, ,0.0004166470653468898, ,0.0014027711505007045,0.00043386245700143076,-0.005486377401398106,0.002229998612456152,-0.0009791044955256274,-0.0008695928027222901, ,0.00519291339787263, ,0.008574719013709412, ,3.625462642385365e-05, ,0.14985963142432662,-0.24695755185195137,0.09348973109000001,1.6060152771479719,0.17680763069647995,-1.3483644332754783, ,0.007427011052360588,0.01101319097535792,0.005567567815449144,0.00043330590103346533,0.0064178541805390696,-0.013074174928586719, ,1.127864122390747
0.011007975935956564,0.021293304061215965,-0.08356772545532822, ,0.011260996087692814,0.021192049540463127,-0.08387911653370508, ,0.0004138068134410442, ,0.001784982150534445,0.0008364357810027081,-0.007039486547353415,0.013016559051394974,-0.0008388096149607354,-0.0006849155217390329, ,0.007310277487471859, ,0.013043557560044296, ,3.667135345131202e-05, ,0.14996002695169153,-0.24683398812596377,0.09356491591,1.6060152771479719,0.1769442671962454,-1.3487208873995964, ,0.009361084383365794,0.010980810975901926,0.007210869859665008,0.0004288502852053569,0.008454837700950612,-0.02383798038996221, ,1.1370790004730225
0.011026399969042653,0.021301605217906174,-0.08363734072844883, ,0.011281559479283602,0.021194016936991796,-0.08394566200941551, ,0.0004144196256856656, ,0.0019127253409911586,0.000824100637657849,-0.007307419762878986,0.013541349302069289,-0.001833308188312681,-0.0008606104785196087, ,0.00759842376299007, ,0.013664887083240108, ,3.708176705420564e-05, ,0.1500526997461822,-0.24672586986572465,0.09363621186000001,1.6060152771479719,0.1769442671962454,-1.348802566139737, ,0.010367832264318096,0.011893337706287853,0.007481827862846407,0.00042533307644711943,0.008454837700950612,-0.025266060405240036, ,1.1466681957244873
0.011048249374071593,0.021309201104680917,-0.08371207466194167, ,0.011302328091229162,0.021195810924296458,-0.08401231161435818, ,0.00047742216795347196, ,0.0019127253409911586,0.000824100637657849,-0.007307419762878986,0.013541349302069289,-0.001833308188312681,-0.0008606104785196087, ,0.00759842376299007, ,0.013664887083240108, ,3.766218169218915e-05, ,0.1501762634721698,-0.24659458340686283,0.09371269297000001,1.6060152771479719,0.1769442671962454,-1.3488842448798777, ,0.01205040527726613,0.013232934347674058,0.007654402460355599,0.00042147713756645504,0.00810139385997778,-0.02539442720279961, ,1.1547150611877441
0.011048249374071593,0.021309201104680917,-0.08371207466194167, ,0.011323300829221557,0.0211974327482104,-0.08407906428151096, ,0.0004720453890886458, ,0.002087842797292345,0.0007512927466837111,-0.007482593463286162,0.012345444234843374,-0.003858538335128665,-0.0011477335476830976, ,0.007804660996753023, ,0.012934383942921976, ,3.8225048000980544e-05, ,0.1501762634721698,-0.24659458340686283,0.09371269297000001,1.6060152771479719,0.1769442671962454,-1.3488842448798777, ,0.01205040527726613,0.013232934347674058,0.007654402460355599,0.00042147713756645504,0.00810139385997778,-0.02539442720279961, ,1.1626501083374023
0.011075024994833992,0.02131788912098919,-0.0838099411724173, ,0.01134447660152194,0.02119888365152026,-0.08414591894647495, ,0.00044681935362176576, ,0.0022141599308763767,0.0006434594175477584,-0.007697058418036059,0.001516264703300338,-0.007394724503332276,-0.0018245328025868657, ,0.008035001712021542, ,0.00754857483996012, ,3.8736211760315923e-05, ,0.15033071812965432,-0.24640923781788143,0.09381250730000001,1.6060152771479719,0.17708090369601082,-1.3492406990039956, ,0.01282737788030154,0.015034369701912352,0.00784670518226601,0.00041694148076213636,0.005342718383258236,-0.01633759642437402, ,1.1744461059570312
0.011096342915334944,0.02132505629290421,-0.08388848259509965, ,0.011365854318958184,0.021200164873968513,-0.08421287454747195, ,0.0004398458843397916, ,0.002077392285382352,0.0006969159789050799,-0.0073042719620921666,0.01735791875112221,-0.0005038124880153484,-0.00032809157695430744, ,0.007625853361114747, ,0.017365228175932362, ,3.922826881955345e-05, ,0.15046972732139036,-0.24626250589327117,0.09389287728000001,1.6060152771479719,0.1773541766955417,-1.3496268922916697, ,0.012614241866073479,0.013296474927626561,0.0074748059690286275,0.0004131605786242725,0.012095542319100722,-0.030479860145431432, ,1.1821930408477783
0.01111932826486294,0.02133218945098516,-0.08396970924394431, ,0.011387432894922632,0.021201277652256816,-0.08427993002534238, ,0.00043041250553040944, ,0.00238090722095002,0.0007212227350192294,-0.00843858074680678,0.010644997410751193,-0.002163892620234013,-0.0006900367666482115, ,0.008797643232631035, ,0.01086270492816284, ,3.9697393056692726e-05, ,0.1506087365131264,-0.24610805123578666,0.09397583984,1.6060152771479719,0.17749081319530713,-1.3499016676756472, ,0.014108971388413735,0.016249476294258696,0.00861016838918919,0.00040962160608529224,0.011962058600095492,-0.02668471843790496, ,1.1896741390228271
0.01111932826486294,0.02133218945098516,-0.08396970924394431, ,0.01140921124536964,0.021202223220048288,-0.08434708432354251, ,0.0004932902941201397, ,0.00238090722095002,0.0007212227350192294,-0.00843858074680678,0.010644997410751193,-0.002163892620234013,-0.0006900367666482115, ,0.008797643232631035, ,0.01086270492816284, ,4.026724096451788e-05, ,0.1506087365131264,-0.24610805123578666,0.09397583984,1.6060152771479719,0.17749081319530713,-1.3499016676756472, ,0.014108971388413735,0.016249476294258696,0.00861016838918919,0.00040962160608529224,0.011962058600095492,-0.02668471843790496, ,1.1971440315246582
0.01114605825526828,0.021340173654890077,-0.08406235291137547, ,0.011431188288813121,0.021203002807970908,-0.08441433638814262, ,0.0004732941423585309, ,0.0023896897842649806,0.0007076654276645118,-0.008391373182171329,0.0290791001735127,0.009391282142379128,0.0020328587677205757, ,0.008753659320820988, ,0.030557981045417133, ,4.07955407589349e-05, ,0.1507709139034851,-0.24593042837967952,0.09407046901,1.6060152771479719,0.17762744969507258,-1.350094764319484, ,0.01567249241262936,0.016280140943295725,0.008582333793103449,0.00040593009940669944,0.02531712027737203,-0.04518167593409776, ,1.2051291465759277
0.01114605825526828,0.021340173654890077,-0.08406235291137547, ,0.01145336294632436,0.021203617643619922,-0.08448168516782409, ,0.0005375158217740005, ,0.0023896897842649806,0.0007076654276645118,-0.008391373182171329,0.0290791001735127,0.009391282142379128,0.0020328587677205757, ,0.008753659320820988, ,0.030557981045417133, ,4.1424672958495e-05, ,0.1507709139034851,-0.24593042837967952,0.09407046901,1.6060152771479719,0.17762744969507258,-1.350094764319484, ,0.01567249241262936,0.016280140943295725,0.008582333793103449,0.00040593009940669944,0.02531712027737203,-0.04518167593409776, ,1.216135025024414
0.011200007088585514,0.0213515759691373,-0.08423834186139216, ,0.011475734141529218,0.021204068951561034,-0.08454912961387727, ,0.0004408772562221944, ,0.0023855746812018095,0.0003405793196541284,-0.008260160708490569,-0.010136359325232039,0.0003530837935555373,0.00011888874280304586, ,0.008604488117410507, ,0.010142505118628475, ,4.188406956014478e-05, ,0.1510798232184541,-0.24556745993459095,0.09424287558000001,1.6060152771479719,0.17762744969507258,-1.3503398005399059, ,0.014776851690823852,0.020033131002421527,0.008477281277275149,0.00039925336323276615,0.015589840831769087,-0.009496380544883071, ,1.2242929935455322
0.011222280259948286,0.021354763476822657,-0.08430985957584296, ,0.011498300800605965,0.021204357953333162,-0.08461666868019925, ,0.00043925048306975864, ,0.0024422589869233903,0.00012112334294357562,-0.007085955858160243,-0.009081760875134124,-0.015650753030770532,-0.0035333559573362166, ,0.007496003618409569, ,0.018094873118061218, ,4.2334673548252876e-05, ,0.15122655514306435,-0.2453898370784838,0.09431935669000001,1.6060152771479719,0.17776408619483802,-1.3505328971837427, ,0.01576885037528594,0.01884371357396163,0.007210869859665008,0.0003961007373659443,0.0,-0.009672938543149807, ,1.231693983078003
0.011243355285265764,0.021353919618486206,-0.08438463151132955, ,0.011521061852283413,0.02120448586745103,-0.08468430132329129, ,0.0004350326189084599, ,0.0019682408004583446,7.405132186677553e-07,-0.007112260119652627,0.05016604856757672,0.04223579369260056,0.009098104467102136, ,0.007379581045462535, ,0.06557815703059805, ,4.2772390063434836e-05, ,0.15140417799917152,-0.24515815509225705,0.09439713409000001,1.6060152771479719,0.17831063219389978,-1.3511419262788098, ,0.016549867729067105,0.02040794442117651,0.007178373826047769,0.00039254814749367265,0.05985188317917927,-0.07042439237587318, ,1.239243984222412
0.011243355285265764,0.021353919618486206,-0.08438463151132955, ,0.011544016227837284,0.021204453909408488,-0.08475202650225674, ,0.0004977108396815298, ,0.0019682408004583446,7.405132186677553e-07,-0.007112260119652627,0.05016604856757672,0.04223579369260056,0.009098104467102136, ,0.007379581045462535, ,0.06557815703059805, ,4.3306958442203724e-05, ,0.15140417799917152,-0.24515815509225705,0.09439713409000001,1.6060152771479719,0.17831063219389978,-1.3511419262788098, ,0.016549867729067105,0.02040794442117651,0.007178373826047769,0.00039254814749367265,0.05985188317917927,-0.07042439237587318, ,1.2471950054168701
0.01125492533082017,0.021354716729687525,-0.08442810196535151, ,0.011567162861088977,0.021204263291681076,-0.08481984317879804, ,0.0005230580184156248, ,0.002036244056657406,8.534259120515696e-05,-0.007567025310836233,0.038378208530597153,0.04967614265896888,0.01149336349556953, ,0.007836673099663046, ,0.06277424642862928, ,4.394724694886336e-05, ,0.15150457352653643,-0.2450423140991437,0.09444120795000001,1.6060152771479719,0.1787205416931961,-1.3517212162103205, ,0.01742827209521961,0.02075157261282982,0.007658082461538462,0.00039071654685007883,0.0685373192693594,-0.05898701993568081, ,1.25620698928833
0.011288864920856904,0.021351688780264732,-0.08451828382792255, ,0.011590500688402599,0.021203915223728755,-0.08488775031721504, ,0.0004993261929683773, ,0.0025120725408104027,-0.0002973561000763266,-0.005598669691651078,-0.0065873928839254555,-0.018984136453204015,-0.00370436530610604, ,0.006143617128106097, ,0.020094555889102944, ,4.4542845736743084e-05, ,0.15176714644426006,-0.24474885024992316,0.09453194825000001,1.6060152771479719,0.178993814692727,-1.352025730757854, ,0.0191982483428021,0.019510061998040867,0.005634528305624337,0.0003864570108734992,0.0,-0.012648117785362747, ,1.2619481086730957
0.011288864920856904,0.021351688780264732,-0.08451828382792255, ,0.01161402864868255,0.021203410911999187,-0.08495574688440242, ,0.0005648820247587636, ,0.0025120725408104027,-0.0002973561000763266,-0.005598669691651078,-0.0065873928839254555,-0.018984136453204015,-0.00370436530610604, ,0.006143617128106097, ,0.020094555889102944, ,4.523841587795039e-05, ,0.15176714644426006,-0.24474885024992316,0.09453194825000001,1.6060152771479719,0.178993814692727,-1.352025730757854, ,0.0191982483428021,0.019510061998040867,0.005634528305624337,0.0003864570108734992,0.0,-0.012648117785362747, ,1.2675631046295166
0.011316650215573236,0.02134922795050921,-0.08458663137134456, ,0.011637745683371552,0.021202751559930157,-0.08502383184984683, ,0.000561873554138559, ,0.003023093758647355,-0.00019371171024974595,-0.007994318872124706,-0.03549422460732127,-0.021708574607194928,-0.004079205964242142, ,0.008549020664934067, ,0.041606515827443465, ,4.592245810347962e-05, ,0.1519679374989899,-0.24452489099657065,0.09460065162,1.6060152771479719,0.178993814692727,-1.352025730757854, ,0.0207334370894627,0.02505860616806728,0.00802863483870968,0.00038327469221374706,-0.0009958395929174336,0.010787936607070912, ,1.2731621265411377
0.011316650215573236,0.02134922795050921,-0.08458663137134456, ,0.01166165073644778,0.021201938367952703,-0.08509200418562574, ,0.0006293816504696112, ,0.0034393753933073786,0.00047337447551437325,-0.01073285491498021,-0.03098696231810494,-0.020712187317643946,-0.004014036467007604, ,0.011280406070535388, ,0.03727179087142291, ,4.6707784423222705e-05, ,0.1521918967523424,-0.24424687261309858,0.09470176224000001,1.6060152771479719,0.17885717819296154,-1.351995991594298, ,0.020747035758301436,0.025265426400018845,0.010880335737704918,0.00038014931233387955,0.0,0.006072479785508593, ,1.2791171073913574
0.011352610300778441,0.021349968434933652,-0.08468697098888417, ,0.011685742754422685,0.02120097253349387,-0.08516026286640331, ,0.0005976472300968872, ,0.0034393753933073786,0.00047337447551437325,-0.01073285491498021,-0.03098696231810494,-0.020712187317643946,-0.004014036467007604, ,0.011280406070535388, ,0.03727179087142291, ,4.743516737525326e-05, ,0.1521918967523424,-0.24424687261309858,0.09470176224000001,1.6060152771479719,0.17885717819296154,-1.351995991594298, ,0.020747035758301436,0.025265426400018845,0.010880335737704918,0.00038014931233387955,0.0,0.006072479785508593, ,1.2852661609649658
0.011352610300778441,0.021349968434933652,-0.08468697098888417, ,0.011710020686338526,0.021199855250979508,-0.0852286068694296, ,0.0006660672479541979, ,0.0034393753933073786,0.00047337447551437325,-0.01073285491498021,-0.03098696231810494,-0.020712187317643946,-0.004014036467007604, ,0.011280406070535388, ,0.03727179087142291, ,4.826390431485522e-05, ,0.1521918967523424,-0.24424687261309858,0.09470176224000001,1.6060152771479719,0.17885717819296154,-1.351995991594298, ,0.020747035758301436,0.025265426400018845,0.010880335737704918,0.00038014931233387955,0.0,0.006072479785508593, ,1.294053077697754
0.011415660131291302,0.021367981965998994,-0.08493492902290874, ,0.011734483483766104,0.02119858771183721,-0.08529703517453736, ,0.0005113351234499677, ,0.003373020366739775,0.0010074493985121726,-0.012821096738963537,0.027016873485858673,0.023760837779622256,0.005327673598860524, ,0.013295591084072392, ,0.03597900107704671, ,4.884113803218656e-05, ,0.15260892432755055,-0.24374489497627397,0.09495453879000001,1.6060152771479719,0.1800869066908505,-1.3532437889479876, ,0.020907015104311696,0.025038770859754825,0.013077841970443352,0.00037416167885951106,0.04545047412121294,-0.05182078589232353, ,1.300159215927124
0.011415660131291302,0.021367981965998994,-0.08493492902290874, ,0.01175913010080227,0.021197171104499136,-0.08536554676414027, ,0.0005766971557286661, ,0.003373020366739775,0.0010074493985121726,-0.012821096738963537,0.027016873485858673,0.023760837779622256,0.005327673598860524, ,0.013295591084072392, ,0.03597900107704671, ,4.9515391545716506e-05, ,0.15260892432755055,-0.24374489497627397,0.09495453879000001,1.6060152771479719,0.1800869066908505,-1.3532437889479876, ,0.020907015104311696,0.025038770859754825,0.013077841970443352,0.00037416167885951106,0.04545047412121294,-0.05182078589232353, ,1.3058950901031494
0.011451983777141147,0.02137587272337482,-0.08505339835255846, ,0.011783959494067442,0.021195606614404987,-0.08543414062322949, ,0.0005363472973247676, ,0.0036107589596490386,0.0005502751067355273,-0.012096884949894443,-0.017787342927267014,0.0012843966221299146,0.0010435821797205437, ,0.012636257691609542, ,0.017833647525242448, ,5.012038549686724e-05, ,0.1528174381151546,-0.2434977675242988,0.09507509376,1.6060152771479719,0.1800869066908505,-1.3534071464282686, ,0.0226863355387212,0.028051120768096596,0.012271811648690295,0.0003714403027634988,0.024524414868877662,-0.009933085219612031, ,1.3115291595458984
0.011451983777141147,0.02137587272337482,-0.08505339835255846, ,0.011808970622703164,0.02119389542400462,-0.08550281573937261, ,0.0006021057489853888, ,0.0036107589596490386,0.0005502751067355273,-0.012096884949894443,-0.017787342927267014,0.0012843966221299146,0.0010435821797205437, ,0.012636257691609542, ,0.017833647525242448, ,5.082185225539951e-05, ,0.1528174381151546,-0.2434977675242988,0.09507509376,1.6060152771479719,0.1800869066908505,-1.3534071464282686, ,0.0226863355387212,0.028051120768096596,0.012271811648690295,0.0003714403027634988,0.024524414868877662,-0.009933085219612031, ,1.3172690868377686
0.011492698518799908,0.021378707681585916,-0.08517388176879062, ,0.011834162448370256,0.021192038712761187,-0.08557157110271048, ,0.0005564168630023094, ,0.003782398356217947,0.00021085514716927668,-0.011318410769423899,-0.005802572609273736,-0.009739739810295632,-0.001823576533848522, ,0.011935552754842102, ,0.011337204007550583, ,5.14461973964136e-05, ,0.153072288300004,-0.2431888582093298,0.09519694502,1.6060152771479719,0.1800869066908505,-1.3534071464282686, ,0.02502556475698069,0.02962751843848604,0.011451338260244429,0.00036851159739193754,0.015437545632925044,-0.023464930444391224, ,1.323173999786377
0.011492698518799908,0.021378707681585916,-0.08517388176879062, ,0.01185953393524555,0.0211900376571536,-0.08564040570595464, ,0.0006227432736089241, ,0.003782398356217947,0.00021085514716927668,-0.011318410769423899,-0.005802572609273736,-0.009739739810295632,-0.001823576533848522, ,0.011935552754842102, ,0.011337204007550583, ,5.216681998321311e-05, ,0.15328080208760808,-0.2429571762231031,0.09528898161,1.6060152771479719,0.18022354319061595,-1.3535185643319652, ,0.02641161746687191,0.029244049786893926,0.01099296861283644,0.00036624728711590694,0.0,-0.010613033182046167, ,1.3293061256408691
0.011523611199203412,0.0213809287510532,-0.08526462497140613, ,0.011885084050020282,0.021187893430679804,-0.08570931854438595, ,0.0006047128497385237, ,0.003976607992696853,0.00012954010686005188,-0.010858427670563425,-0.018239124398871195,-0.02622269797790732,-0.005135462424313013, ,0.01156441279286256, ,0.031942063131981446, ,5.2934272758937186e-05, ,0.15328080208760808,-0.2429571762231031,0.09528898161,1.6060152771479719,0.18022354319061595,-1.3535185643319652, ,0.02641161746687191,0.029244049786893926,0.01099296861283644,0.00036624728711590694,0.0,-0.010613033182046167, ,1.3361330032348633
0.011566095270730695,0.02138105302175119,-0.08539660461006167, ,0.011910811761897224,0.021185607203859383,-0.0857783086158513, ,0.0005502058478873261, ,0.003518282036176492,2.184702677254151e-05,-0.011209552202440133,0.05166073087923258,0.047963618476621186,0.011251915255318053, ,0.01174873807512498, ,0.07049354321752023, ,5.3613687594364485e-05, ,0.1536051568683255,-0.2425864850451403,0.09542249948,1.6060152771479719,0.18090672568944316,-1.3543206900708689, ,0.028540433551419782,0.03135016239130188,0.011361491811697575,0.00036297487243732536,0.07795187440708329,-0.08278073892022315, ,1.3401541709899902
0.011566095270730695,0.02138105302175119,-0.08539660461006167, ,0.01193671604258829,0.02118318014423649,-0.0858473749207613, ,0.0006162039477287647, ,0.003518282036176492,2.184702677254151e-05,-0.011209552202440133,0.05166073087923258,0.047963618476621186,0.011251915255318053, ,0.01174873807512498, ,0.07049354321752023, ,5.438956651591942e-05, ,0.1536051568683255,-0.2425864850451403,0.09542249948,1.6060152771479719,0.18090672568944316,-1.3543206900708689, ,0.028540433551419782,0.03135016239130188,0.011361491811697575,0.00036297487243732536,0.07795187440708329,-0.08278073892022315, ,1.3440730571746826
0.011566095270730695,0.02138105302175119,-0.08539660461006167, ,0.011962795866312383,0.021180613416382745,-0.08591651646208842, ,0.0006839998039568523, ,0.003518282036176492,2.184702677254151e-05,-0.011209552202440133,0.05166073087923258,0.047963618476621186,0.011251915255318053, ,0.01174873807512498, ,0.07049354321752023, ,5.526376206443767e-05, ,0.1536051568683255,-0.2425864850451403,0.09542249948,1.6060152771479719,0.18090672568944316,-1.3543206900708689, ,0.028540433551419782,0.03135016239130188,0.011361491811697575,0.00036297487243732536,0.07795187440708329,-0.08278073892022315, ,1.3479640483856201
0.011606765749497433,0.0213839456657192,-0.08551775408255345, ,0.011989050209792884,0.021177908181900032,-0.08598573224536446, ,0.0006384327796956272, ,0.00406416404040607,0.00037360232972125925,-0.01283740720302879,0.03885385530429136,0.021485915335606526,0.005048127477018617, ,0.013470561671455219, ,0.0443989445952056, ,5.6063618512266084e-05, ,0.15389862071754604,-0.2422775757301713,0.09554564703000001,1.6060152771479719,0.1813166351887395,-1.3548999800023798, ,0.029056013949317443,0.0318981316162927,0.013045709680589684,0.00036024270011064024,0.05130569301663223,-0.07045798454351528, ,1.3517570495605469
0.011606765749497433,0.0213839456657192,-0.08551775408255345, ,0.012015478052255248,0.021175065599423174,-0.08605502127867765, ,0.000706634749041244, ,0.00406416404040607,0.00037360232972125925,-0.01283740720302879,0.03885385530429136,0.021485915335606526,0.005048127477018617, ,0.013470561671455219, ,0.0443989445952056, ,5.6961666113499787e-05, ,0.15389862071754604,-0.2422775757301713,0.09554564703000001,1.6060152771479719,0.1813166351887395,-1.3548999800023798, ,0.029056013949317443,0.0318981316162927,0.013045709680589684,0.00036024270011064024,0.05130569301663223,-0.07045798454351528, ,1.3554770946502686
0.011606765749497433,0.0213839456657192,-0.08551775408255345, ,0.012042078375424741,0.02117208682462323,-0.08612438257267126, ,0.0007761310300876163, ,0.00406416404040607,0.00037360232972125925,-0.01283740720302879,0.03885385530429136,0.021485915335606526,0.005048127477018617, ,0.013470561671455219, ,0.0443989445952056, ,5.795896686328988e-05, ,0.15419980729964078,-0.24191460728508277,0.09568694264000001,1.6060152771479719,0.1813166351887395,-1.3552266949629423, ,0.03195183217456929,0.03845094876761376,0.015041370651558077,0.00035756778665532236,0.026031058605101968,-0.018157144331782518, ,1.3595271110534668
0.011654783362088191,0.02138647462956478,-0.08565747172904122, ,0.012068850163523484,0.02116897301021001,-0.08619381514053999, ,0.0007116337017953443, ,0.004869429011520509,0.0002783344605052594,-0.014862970903320888,-0.019844865222820748,-0.006434989297589755,-0.0004982553731079672, ,0.01564278469592629, ,0.020862095715784287, ,5.885343498351325e-05, ,0.15419980729964078,-0.24191460728508277,0.09568694264000001,1.6060152771479719,0.1813166351887395,-1.3552266949629423, ,0.03195183217456929,0.03845094876761376,0.015041370651558077,0.00035756778665532236,0.026031058605101968,-0.018157144331782518, ,1.3635501861572266
0.011654783362088191,0.02138647462956478,-0.08565747172904122, ,0.012095792403268975,0.021165725305934944,-0.08626331799802898, ,0.0007811971197672364, ,0.004869429011520509,0.0002783344605052594,-0.014862970903320888,-0.019844865222820748,-0.006434989297589755,-0.0004982553731079672, ,0.01564278469592629, ,0.020862095715784287, ,5.984668386045968e-05, ,0.15419980729964078,-0.24191460728508277,0.09568694264000001,1.6060152771479719,0.1813166351887395,-1.3552266949629423, ,0.03195183217456929,0.03845094876761376,0.015041370651558077,0.00035756778665532236,0.026031058605101968,-0.018157144331782518, ,1.3676061630249023
0.01171155484424686,0.02139234256943304,-0.08582592108768478, ,0.012122904083870602,0.021162344858594157,-0.08633289016343013, ,0.0006921884047658206, ,0.005432659959499749,0.0006894381157619533,-0.0161028933144912,0.0002159121976000945,-0.03288401089738946,-0.007354684413907288, ,0.017008594658257412, ,0.03288470325315674, ,6.0701154065004305e-05, ,0.15453960754610666,-0.24152847064137153,0.09584897889,1.6062249670914566,0.18145327168850492,-1.3555014703469197, ,0.03333225906514604,0.03705464332622834,0.016337242584615386,0.0005299044507354653,0.0,-0.03765317540564697, ,1.3716909885406494
0.01171155484424686,0.02139234256943304,-0.08582592108768478, ,0.012150184197028702,0.02115883281203093,-0.08640253065758073, ,0.0007611840198134798, ,0.005432659959499749,0.0006894381157619533,-0.0161028933144912,0.0002159121976000945,-0.03288401089738946,-0.007354684413907288, ,0.017008594658257412, ,0.03288470325315674, ,6.165321018358091e-05, ,0.15453960754610666,-0.24152847064137153,0.09584897889,1.6062249670914566,0.18145327168850492,-1.3555014703469197, ,0.03333225906514604,0.03705464332622834,0.016337242584615386,0.0005299044507354653,0.0,-0.03765317540564697, ,1.3760621547698975
0.01171155484424686,0.02139234256943304,-0.08582592108768478, ,0.012177631736930691,0.021155190307138888,-0.08647223850386042, ,0.0008313814214047659, ,0.005432659959499749,0.0006894381157619533,-0.0161028933144912,0.0002159121976000945,-0.03288401089738946,-0.007354684413907288, ,0.017008594658257412, ,0.03288470325315674, ,6.270376656494233e-05, ,0.15453960754610666,-0.24152847064137153,0.09584897889,1.6062249670914566,0.18145327168850492,-1.3555014703469197, ,0.03333225906514604,0.03705464332622834,0.016337242584615386,0.0005299044507354653,0.0,-0.03765317540564697, ,1.379885196685791
0.011762901238260081,0.021399017242567,-0.08599560009986575, ,0.012205245700248946,0.021151418481865063,-0.08654201272818933, ,0.0007453459128115214, ,0.005445784564929014,0.0006121024875802111,-0.01734911749825015,0.054862876421650414,0.007494192945591098,0.002301797836166083, ,0.018194040698839016, ,0.055372344770656626, ,6.362083517393884e-05, ,0.15490257599119522,-0.2411037203332892,0.09603045949000001,1.606434657034941,0.18199981768756668,-1.3564372144025487, ,0.035675541939274726,0.04136745490779023,0.01762036672566372,-0.0010582247741294445,0.04383520608838091,-0.09601232231637243, ,1.3839831352233887
0.011762901238260081,0.021399017242567,-0.08599560009986575, ,0.012233025086139635,0.02114751847121208,-0.08661185235902505, ,0.0008148833727945719, ,0.005445784564929014,0.0006121024875802111,-0.01734911749825015,0.054862876421650414,0.007494192945591098,0.002301797836166083, ,0.018194040698839016, ,0.055372344770656626, ,6.463505597400772e-05, ,0.15490257599119522,-0.2411037203332892,0.09603045949000001,1.606434657034941,0.18199981768756668,-1.3564372144025487, ,0.035675541939274726,0.04136745490779023,0.01762036672566372,-0.0010582247741294445,0.04383520608838091,-0.09601232231637243, ,1.3878099918365479
0.011821043025651016,0.021405379733899256,-0.08617404005793906, ,0.01226096889623884,0.021143491407241404,-0.08668175642736133, ,0.0007210382646097418, ,0.006028354095458383,0.0005899603055970171,-0.018422343985941923,0.020658397526855245,0.009848343767554469,0.00471770306250884, ,0.019392572397667632, ,0.022885741007095124, ,6.550530325733379e-05, ,0.15528871263490643,-0.24067897002520686,0.09621194009,1.606434657034941,0.182409727186863,-1.3570981830742002, ,0.04108092708158908,0.04451076058089624,0.01873977825882353,-0.0010582247741294445,0.05211817738327306,-0.06491062727502521, ,1.3915581703186035
0.011821043025651016,0.021405379733899256,-0.08617404005793906, ,0.012289076134660721,0.021139338419076448,-0.08675172396672438, ,0.000789652879936131, ,0.006028354095458383,0.0005899603055970171,-0.018422343985941923,0.020658397526855245,0.009848343767554469,0.00471770306250884, ,0.019392572397667632, ,0.022885741007095124, ,6.647105439138286e-05, ,0.15528871263490643,-0.24067897002520686,0.09621194009,1.606434657034941,0.182409727186863,-1.3570981830742002, ,0.04108092708158908,0.04451076058089624,0.01873977825882353,-0.0010582247741294445,0.05211817738327306,-0.06491062727502521, ,1.3953251838684082
0.011821043025651016,0.021405379733899256,-0.08617404005793906, ,0.01231734580799531,0.021135060632904882,-0.08682175401317196, ,0.0008596058608039749, ,0.006028354095458383,0.0005899603055970171,-0.018422343985941923,0.020658397526855245,0.009848343767554469,0.00471770306250884, ,0.019392572397667632, ,0.022885741007095124, ,6.753342829784662e-05, ,0.15528871263490643,-0.24067897002520686,0.09621194009,1.606434657034941,0.182409727186863,-1.3570981830742002, ,0.04108092708158908,0.04451076058089624,0.01873977825882353,-0.0010582247741294445,0.05211817738327306,-0.06491062727502521, ,1.3990910053253174
0.011884983731017484,0.021410450233824624,-0.08635891852657333, ,0.012345776925306,0.02113065917198185,-0.08689184560528927, ,0.0007580400236256828, ,0.0067307400132440385,0.0003110170361637278,-0.018559102295668272,0.004403150010088677,-0.04030687225612411,-0.007202968680443525, ,0.019744363011850945, ,0.040546633389808864, ,6.84415524480361e-05, ,0.1557134629429888,-0.2402233287856276,0.09639990214000001,1.606434657034941,0.18268300018639388,-1.3576477338421553, ,0.04359069433094661,0.047807023455149006,0.01882838241134752,-0.0010582247741294445,0.003151775078691778,-0.051822153279739366, ,1.4031291007995605
0.011884983731017484,0.021410450233824624,-0.08635891852657333, ,0.012374368498126741,0.021126135156632846,-0.08696199778418835, ,0.0008270653567660966, ,0.0067307400132440385,0.0003110170361637278,-0.018559102295668272,0.004403150010088677,-0.04030687225612411,-0.007202968680443525, ,0.019744363011850945, ,0.040546633389808864, ,6.9545808349518e-05, ,0.1557134629429888,-0.2402233287856276,0.09639990214000001,1.606434657034941,0.18268300018639388,-1.3576477338421553, ,0.04359069433094661,0.047807023455149006,0.01882838241134752,-0.0010582247741294445,0.003151775078691778,-0.051822153279739366, ,1.405304193496704
0.011884983731017484,0.021410450233824624,-0.08635891852657333, ,0.012403119540460307,0.021121489704256237,-0.08703220959350436, ,0.0008973760446348714, ,0.0067307400132440385,0.0003110170361637278,-0.018559102295668272,0.004403150010088677,-0.04030687225612411,-0.007202968680443525, ,0.019744363011850945, ,0.040546633389808864, ,7.074904997202578e-05, ,0.1557134629429888,-0.2402233287856276,0.09639990214000001,1.606434657034941,0.18268300018639388,-1.3576477338421553, ,0.04359069433094661,0.047807023455149006,0.01882838241134752,-0.0010582247741294445,0.003151775078691778,-0.051822153279739366, ,1.4074671268463135
0.011884983731017484,0.021410450233824624,-0.08635891852657333, ,0.012432029068775458,0.02111672392932663,-0.08710248007939392, ,0.000968719529249691, ,0.0067307400132440385,0.0003110170361637278,-0.018559102295668272,0.004403150010088677,-0.04030687225612411,-0.007202968680443525, ,0.019744363011850945, ,0.040546633389808864, ,7.205234529753763e-05, ,0.1557134629429888,-0.2402233287856276,0.09639990214000001,1.606434657034941,0.18268300018639388,-1.3576477338421553, ,0.04359069433094661,0.047807023455149006,0.01882838241134752,-0.0010582247741294445,0.003151775078691778,-0.051822153279739366, ,1.4095821380615234
0.011884983731017484,0.021410450233824624,-0.08635891852657333, ,0.01246109610200468,0.02111183894339707,-0.08717280829053271, ,0.001040908600527997, ,0.0067307400132440385,0.0003110170361637278,-0.018559102295668272,0.004403150010088677,-0.04030687225612411,-0.007202968680443525, ,0.019744363011850945, ,0.040546633389808864, ,7.345648479787163e-05, ,0.1557134629429888,-0.2402233287856276,0.09639990214000001,1.606434657034941,0.18268300018639388,-1.3576477338421553, ,0.04359069433094661,0.047807023455149006,0.01882838241134752,-0.0010582247741294445,0.003151775078691778,-0.051822153279739366, ,1.4117000102996826
0.011914482994817581,0.021412294943386017,-0.08644175206660452, ,0.012490319661541589,0.021106835855102642,-0.08724319327811282, ,0.0010330542758551521, ,0.0070968689196215,0.00024080966512229392,-0.019226887796614495,0.003859307556888846,-0.03377957307215371,-0.005078127434874239, ,0.020496261905545345, ,0.03399928211362868, ,7.484519361271574e-05, ,0.15591425399771863,-0.24001481499802355,0.09648416099000001,1.606434657034941,0.18281963668615933,-1.3580041879662734, ,0.04756738925236631,0.05039667634544386,0.01952060235294118,-0.0010582247741294445,0.013953332964633537,-0.05385450988716739, ,1.4139020442962646
0.011914482994817581,0.021412294943386017,-0.08644175206660452, ,0.012519698771239133,0.02110171577016256,-0.08731363409584039, ,0.0011058588661190737, ,0.0070968689196215,0.00024080966512229392,-0.019226887796614495,0.003859307556888846,-0.03377957307215371,-0.005078127434874239, ,0.020496261905545345, ,0.03399928211362868, ,7.633509776373648e-05, ,0.15591425399771863,-0.24001481499802355,0.09648416099000001,1.606434657034941,0.18281963668615933,-1.3580041879662734, ,0.04756738925236631,0.05039667634544386,0.01952060235294118,-0.0010582247741294445,0.013953332964633537,-0.05385450988716739, ,1.4159321784973145
0.011914482994817581,0.021412294943386017,-0.08644175206660452, ,0.012549232457406172,0.021096479791383883,-0.08738412979993351, ,0.0011792887190018055, ,0.0070968689196215,0.00024080966512229392,-0.019226887796614495,0.003859307556888846,-0.03377957307215371,-0.005078127434874239, ,0.020496261905545345, ,0.03399928211362868, ,0.00042859663786910676, ,0.15591425399771863,-0.24001481499802355,0.09648416099000001,1.606434657034941,0.18281963668615933,-1.3580041879662734, ,0.04756738925236631,0.05039667634544386,0.01952060235294118,-0.0010582247741294445,0.013953332964633537,-0.05385450988716739, ,1.4178411960601807
0.011914482994817581,0.021412294943386017,-0.08644175206660452, ,0.012578919748806105,0.021091129018663377,-0.08745467944911976, ,0.0012532540179480483, ,0.0070968689196215,0.00024080966512229392,-0.019226887796614495,0.003859307556888846,-0.03377957307215371,-0.005078127434874239, ,0.020496261905545345, ,0.03399928211362868, ,0.00043509000306657874, ,0.15591425399771863,-0.24001481499802355,0.09648416099000001,1.606434657034941,0.18281963668615933,-1.3580041879662734, ,0.04756738925236631,0.05039667634544386,0.01952060235294118,-0.0010582247741294445,0.013953332964633537,-0.05385450988716739, ,1.4197351932525635
0.011914482994817581,0.021412294943386017,-0.08644175206660452, ,0.01260875967665392,0.021085664548991263,-0.08752528210463355, ,0.0013276840244558666, ,0.0070968689196215,0.00024080966512229392,-0.019226887796614495,0.003859307556888846,-0.03377957307215371,-0.005078127434874239, ,0.020496261905545345, ,0.03399928211362868, ,0.0004420633938586825, ,0.1568178137440029,-0.2390880870531166,0.09685230735000001,1.606434657034941,0.18363945568475198,-1.359407804049717, ,0.05804094284921761,0.061263358010633165,0.02540480306220096,-0.0010582247741294445,0.07518507911371758,-0.11057521536802978, ,1.4218330383300781
0.012044081228611243,0.021418551496347072,-0.08680357830516854, ,0.012638751274613991,0.021080087476453475,-0.08759593683021402, ,0.0010469108790091461, ,0.008414092912413077,0.0006405051630573554,-0.024956177258221766,0.0497156623940666,0.015726732338503746,0.006127319421767348, ,0.02634422118314391, ,0.05214371982314359, ,0.0004467521340536474, ,0.1568178137440029,-0.2390880870531166,0.09685230735000001,1.606434657034941,0.18363945568475198,-1.359407804049717, ,0.05804094284921761,0.061263358010633165,0.02540480306220096,-0.0010582247741294445,0.07518507911371758,-0.11057521536802978, ,1.4237391948699951
0.012044081228611243,0.021418551496347072,-0.08680357830516854, ,0.012668893578797294,0.021074398892234905,-0.08766664269210281, ,0.0011196926470493744, ,0.008414092912413077,0.0006405051630573554,-0.024956177258221766,0.0497156623940666,0.015726732338503746,0.006127319421767348, ,0.02634422118314391, ,0.05214371982314359, ,0.0004519285995382299, ,0.1568178137440029,-0.2390880870531166,0.09685230735000001,1.606434657034941,0.18363945568475198,-1.359407804049717, ,0.05804094284921761,0.061263358010633165,0.02540480306220096,-0.0010582247741294445,0.07518507911371758,-0.11057521536802978, ,1.4256591796875
0.012044081228611243,0.021418551496347072,-0.08680357830516854, ,0.012699185627759664,0.021068599884622022,-0.08773739875904127, ,0.0011931674418972599, ,0.008414092912413077,0.0006405051630573554,-0.024956177258221766,0.0497156623940666,0.015726732338503746,0.006127319421767348, ,0.02634422118314391, ,0.05214371982314359, ,0.0004575869113119629, ,0.1568178137440029,-0.2390880870531166,0.09685230735000001,1.606434657034941,0.18363945568475198,-1.359407804049717, ,0.05804094284921761,0.061263358010633165,0.02540480306220096,-0.0010582247741294445,0.07518507911371758,-0.11057521536802978, ,1.4275660514831543
0.012044081228611243,0.021418551496347072,-0.08680357830516854, ,0.012729626462498828,0.021062691539005644,-0.08780820410226856, ,0.001267233825757456, ,0.008414092912413077,0.0006405051630573554,-0.024956177258221766,0.0497156623940666,0.015726732338503746,0.006127319421767348, ,0.02634422118314391, ,0.05214371982314359, ,0.0004637206000577621, ,0.1568178137440029,-0.2390880870531166,0.09685230735000001,1.606434657034941,0.18363945568475198,-1.359407804049717, ,0.05804094284921761,0.061263358010633165,0.02540480306220096,-0.0010582247741294445,0.07518507911371758,-0.11057521536802978, ,1.4294631481170654
0.012044081228611243,0.021418551496347072,-0.08680357830516854, ,0.012760215126452526,0.021056674937884157,-0.0878790577955187, ,0.001341811662405037, ,0.008414092912413077,0.0006405051630573554,-0.024956177258221766,0.0497156623940666,0.015726732338503746,0.006127319421767348, ,0.02634422118314391, ,0.05214371982314359, ,0.00047032278849646345, ,0.1568178137440029,-0.2390880870531166,0.09685230735000001,1.606434657034941,0.18363945568475198,-1.359407804049717, ,0.05804094284921761,0.061263358010633165,0.02540480306220096,-0.0010582247741294445,0.07518507911371758,-0.11057521536802978, ,1.4314169883728027
0.012133734485768224,0.02142823940824871,-0.08708625554285349, ,0.01279095066549539,0.02105055116086605,-0.08794995891501882, ,0.0011491584025694302, ,0.009743847278180949,0.0014423662450105538,-0.031237867360745308,0.050728541183924294,0.030898768897429093,0.009577582561293268, ,0.03275404306971549, ,0.05939771936288021, ,0.00047538872591491844, ,0.1574201869081924,-0.2384239320259333,0.09714008373000001,1.606434657034941,0.18459591118311003,-1.3605144443361543, ,0.06356124685764955,0.0690661874515799,0.031857623040000005,-0.0010582247741294445,0.09638454298094033,-0.1193365815884131, ,1.4333431720733643
0.012133734485768224,0.02142823940824871,-0.08708625554285349, ,0.012821832127937144,0.02104432128467306,-0.08802090653948638, ,0.0012224745299085542, ,0.009743847278180949,0.0014423662450105538,-0.031237867360745308,0.050728541183924294,0.030898768897429093,0.009577582561293268, ,0.03275404306971549, ,0.05939771936288021, ,0.0004809226948333898, ,0.1574201869081924,-0.2384239320259333,0.09714008373000001,1.606434657034941,0.18459591118311003,-1.3605144443361543, ,0.06356124685764955,0.0690661874515799,0.031857623040000005,-0.0010582247741294445,0.09638454298094033,-0.1193365815884131, ,1.435211181640625
0.012133734485768224,0.02142823940824871,-0.08708625554285349, ,0.012852858564520009,0.02103798638314255,-0.08809189975012702, ,0.001296440178283565, ,0.009743847278180949,0.0014423662450105538,-0.031237867360745308,0.050728541183924294,0.030898768897429093,0.009577582561293268, ,0.03275404306971549, ,0.05939771936288021, ,0.00048691914691758226, ,0.1574201869081924,-0.2384239320259333,0.09714008373000001,1.606434657034941,0.18459591118311003,-1.3605144443361543, ,0.06356124685764955,0.0690661874515799,0.031857623040000005,-0.0010582247741294445,0.09638454298094033,-0.1193365815884131, ,1.4372429847717285
0.012133734485768224,0.02142823940824871,-0.08708625554285349, ,0.012884029028416488,0.02103154752723072,-0.0881629376306317, ,0.0013709670555253348, ,0.009743847278180949,0.0014423662450105538,-0.031237867360745308,0.050728541183924294,0.030898768897429093,0.009577582561293268, ,0.03275404306971549, ,0.05939771936288021, ,0.0004933720513599746, ,0.1574201869081924,-0.2384239320259333,0.09714008373000001,1.606434657034941,0.18459591118311003,-1.3605144443361543, ,0.06356124685764955,0.0690661874515799,0.031857623040000005,-0.0010582247741294445,0.09638454298094033,-0.1193365815884131, ,1.4391400814056396
0.012133734485768224,0.02142823940824871,-0.08708625554285349, ,0.012915342575226632,0.021025005785015663,-0.08823401926717545, ,0.001445984137977277, ,0.009743847278180949,0.0014423662450105538,-0.031237867360745308,0.050728541183924294,0.030898768897429093,0.009577582561293268, ,0.03275404306971549, ,0.05939771936288021, ,0.0005002750374948826, ,0.1574201869081924,-0.2384239320259333,0.09714008373000001,1.606434657034941,0.18459591118311003,-1.3605144443361543, ,0.06356124685764955,0.0690661874515799,0.031857623040000005,-0.0010582247741294445,0.09638454298094033,-0.1193365815884131, ,1.4410250186920166
0.012239029099067943,0.021446502716640017,-0.08742495191361312, ,0.012946798262975836,0.021018362221699595,-0.08830514374841364, ,0.0012078820881345242, ,0.011024147723584827,0.0018355323617415477,-0.03561310678667644,0.07604572908606796,0.03910331046945855,0.011117226187972496, ,0.037325519247314434, ,0.08551002582034181, ,0.0005053657357009232, ,0.15810751013399837,-0.2377057178686304,0.09748619316000001,1.606434657034941,0.18568900318123358,-1.3620592174868502, ,0.0711905037948018,0.07610019371168467,0.0363671495890411,-0.0010582247741294445,0.11233975581672843,-0.15164649848912679, ,1.4429271221160889
0.012239029099067943,0.021446502716640017,-0.08742495191361312, ,0.012978395152112368,0.02101161789961234,-0.08837631016548046, ,0.0012809642804823952, ,0.011024147723584827,0.0018355323617415477,-0.03561310678667644,0.07604572908606796,0.03910331046945855,0.011117226187972496, ,0.037325519247314434, ,0.08551002582034181, ,0.0005109057253065052, ,0.15810751013399837,-0.2377057178686304,0.09748619316000001,1.606434657034941,0.18568900318123358,-1.3620592174868502, ,0.0711905037948018,0.07610019371168467,0.0363671495890411,-0.0010582247741294445,0.11233975581672843,-0.15164649848912679, ,1.4449009895324707
0.012239029099067943,0.021446502716640017,-0.08742495191361312, ,0.013010132305504934,0.021004773878213798,-0.08844751761198608, ,0.0013547564833444293, ,0.011024147723584827,0.0018355323617415477,-0.03561310678667644,0.07604572908606796,0.03910331046945855,0.011117226187972496, ,0.037325519247314434, ,0.08551002582034181, ,0.0005168904824557102, ,0.15810751013399837,-0.2377057178686304,0.09748619316000001,1.606434657034941,0.18568900318123358,-1.3620592174868502, ,0.0711905037948018,0.07610019371168467,0.0363671495890411,-0.0010582247741294445,0.11233975581672843,-0.15164649848912679, ,1.446972131729126
0.012239029099067943,0.021446502716640017,-0.08742495191361312, ,0.013042008788440803,0.020997831214096895,-0.08851876518401511, ,0.0014291640805894675, ,0.011024147723584827,0.0018355323617415477,-0.03561310678667644,0.07604572908606796,0.03910331046945855,0.011117226187972496, ,0.037325519247314434, ,0.08551002582034181, ,0.0005233149444143987, ,0.15810751013399837,-0.2377057178686304,0.09748619316000001,1.606434657034941,0.18568900318123358,-1.3620592174868502, ,0.0711905037948018,0.07610019371168467,0.0363671495890411,-0.0010582247741294445,0.11233975581672843,-0.15164649848912679, ,1.448937177658081
0.012239029099067943,0.021446502716640017,-0.08742495191361312, ,0.01307402366862236,0.020990790960990532,-0.08859005198012299, ,0.001504110135729363, ,0.011024147723584827,0.0018355323617415477,-0.03561310678667644,0.07604572908606796,0.03910331046945855,0.011117226187972496, ,0.037325519247314434, ,0.08551002582034181, ,0.0005301736520459718, ,0.15810751013399837,-0.2377057178686304,0.09748619316000001,1.606434657034941,0.18568900318123358,-1.3620592174868502, ,0.0711905037948018,0.07610019371168467,0.0363671495890411,-0.0010582247741294445,0.11233975581672843,-0.15164649848912679, ,1.4511091709136963
0.01234826218662864,0.021466501663954883,-0.08776973872026853, ,0.013106176016165634,0.02098365416976236,-0.08866137710133457, ,0.0012659360482431556, ,0.012378574038643956,0.0024746158175701465,-0.039605647594168965,0.06070644142274418,0.01872618831646353,0.00731730436460102, ,0.04156873993794207, ,0.0635282984837079, ,0.0005352831131306745, ,0.15879483335980438,-0.23699522644420176,0.09783878404000002,1.606434657034941,0.1865088221798262,-1.3632994760900126, ,0.07708931077048803,0.07934526886159764,0.040531327022900764,-0.0010582247741294445,0.09752507068046994,-0.13947588723841164, ,1.4531970024108887
0.01234826218662864,0.021466501663954883,-0.08776973872026853, ,0.01313846490359751,0.020976421888421564,-0.08873273965114141, ,0.0013386445805940478, ,0.012378574038643956,0.0024746158175701465,-0.039605647594168965,0.06070644142274418,0.01872618831646353,0.00731730436460102, ,0.04156873993794207, ,0.0635282984837079, ,0.0005408235370442149, ,0.15879483335980438,-0.23699522644420176,0.09783878404000002,1.606434657034941,0.1865088221798262,-1.3632994760900126, ,0.07708931077048803,0.07934526886159764,0.040531327022900764,-0.0010582247741294445,0.09752507068046994,-0.13947588723841164, ,1.455165147781372
0.01234826218662864,0.021466501663954883,-0.08776973872026853, ,0.013170889405853424,0.020969095162121934,-0.08880413873549949, ,0.0014121303627445316, ,0.012378574038643956,0.0024746158175701465,-0.039605647594168965,0.06070644142274418,0.01872618831646353,0.00731730436460102, ,0.04156873993794207, ,0.0635282984837079, ,0.0005467913920147651, ,0.15879483335980438,-0.23699522644420176,0.09783878404000002,1.606434657034941,0.1865088221798262,-1.3632994760900126, ,0.07708931077048803,0.07934526886159764,0.040531327022900764,-0.0010582247741294445,0.09752507068046994,-0.13947588723841164, ,1.4570550918579102
0.01234826218662864,0.021466501663954883,-0.08776973872026853, ,0.013203448600274894,0.02096167503316442,-0.08887557346282667, ,0.001486292100190611, ,0.012378574038643956,0.0024746158175701465,-0.039605647594168965,0.06070644142274418,0.01872618831646353,0.00731730436460102, ,0.04156873993794207, ,0.0635282984837079, ,0.0005531825532948729, ,0.15879483335980438,-0.23699522644420176,0.09783878404000002,1.606434657034941,0.1865088221798262,-1.3632994760900126, ,0.07708931077048803,0.07934526886159764,0.040531327022900764,-0.0010582247741294445,0.09752507068046994,-0.13947588723841164, ,1.4589760303497314
0.01234826218662864,0.021466501663954883,-0.08776973872026853, ,0.013236141566607322,0.0209541625410002,-0.0889470429440006, ,0.0015610465737826956, ,0.012378574038643956,0.0024746158175701465,-0.039605647594168965,0.06070644142274418,0.01872618831646353,0.00731730436460102, ,0.04156873993794207, ,0.0635282984837079, ,0.0005599924453251959, ,0.15879483335980438,-0.23699522644420176,0.09783878404000002,1.606434657034941,0.1865088221798262,-1.3632994760900126, ,0.07708931077048803,0.07934526886159764,0.040531327022900764,-0.0010582247741294445,0.09752507068046994,-0.13947588723841164, ,1.4608750343322754
0.012494612735743434,0.021489851681715678,-0.08821990847224515, ,0.013268967386996901,0.020946558722233777,-0.08901854629235563, ,0.0012379881798512083, ,0.013966715806890923,0.001655598626291228,-0.04173571556730906,0.017373827985483117,-0.011404282315376556,0.001292845929322596, ,0.04404179959035687, ,0.020779338853941613, ,0.0005645427522683236, ,0.15971383857183707,-0.23604533030067215,0.09829896699000001,1.606434657034941,0.1874652776781843,-1.364569473856731, ,0.08811229485466182,0.09312751870311164,0.04259040513368984,-0.0010582247741294445,0.07812273430889244,-0.10969244801397061, ,1.4627721309661865
0.012494612735743434,0.021489851681715678,-0.08821990847224515, ,0.013301925145989487,0.02093886461062494,-0.08909008262368175, ,0.0013086417134093077, ,0.013966715806890923,0.001655598626291228,-0.04173571556730906,0.017373827985483117,-0.011404282315376556,0.001292845929322596, ,0.04404179959035687, ,0.020779338853941613, ,0.0005695034120092635, ,0.15971383857183707,-0.23604533030067215,0.09829896699000001,1.606434657034941,0.1874652776781843,-1.364569473856731, ,0.08811229485466182,0.09312751870311164,0.04259040513368984,-0.0010582247741294445,0.07812273430889244,-0.10969244801397061, ,1.4646801948547363
0.012494612735743434,0.021489851681715678,-0.08821990847224515, ,0.013335013930526827,0.020931081237092815,-0.08916165105622105, ,0.001380354183697431, ,0.013966715806890923,0.001655598626291228,-0.04173571556730906,0.017373827985483117,-0.011404282315376556,0.001292845929322596, ,0.04404179959035687, ,0.020779338853941613, ,0.0005748732846694501, ,0.15971383857183707,-0.23604533030067215,0.09829896699000001,1.606434657034941,0.1874652776781843,-1.364569473856731, ,0.08811229485466182,0.09312751870311164,0.04259040513368984,-0.0010582247741294445,0.07812273430889244,-0.10969244801397061, ,1.46663498878479
0.012494612735743434,0.021489851681715678,-0.08821990847224515, ,0.013368232829945098,0.020923209629717863,-0.08923325071066601, ,0.001452982373001487, ,0.013966715806890923,0.001655598626291228,-0.04173571556730906,0.017373827985483117,-0.011404282315376556,0.001292845929322596, ,0.04404179959035687, ,0.020779338853941613, ,0.0005806503181453186, ,0.15971383857183707,-0.23604533030067215,0.09829896699000001,1.606434657034941,0.1874652776781843,-1.364569473856731, ,0.08811229485466182,0.09312751870311164,0.04259040513368984,-0.0010582247741294445,0.07812273430889244,-0.10969244801397061, ,1.4684929847717285
0.012494612735743434,0.021489851681715678,-0.08821990847224515, ,0.01340158093597225,0.02091525081374485,-0.08930488071015623, ,0.001526408277865694, ,0.013966715806890923,0.001655598626291228,-0.04173571556730906,0.017373827985483117,-0.011404282315376556,0.001292845929322596, ,0.04404179959035687, ,0.020779338853941613, ,0.0005868317427186545, ,0.15971383857183707,-0.23604533030067215,0.09829896699000001,1.606434657034941,0.1874652776781843,-1.364569473856731, ,0.08811229485466182,0.09312751870311164,0.04259040513368984,-0.0010582247741294445,0.07812273430889244,-0.10969244801397061, ,1.4703919887542725
0.012635379365040094,0.021499174752178524,-0.08862159821980324, ,0.013435057342725296,0.02090720581158617,-0.08937654018027735, ,0.0012489393333165635, ,0.013966715806890923,0.001655598626291228,-0.04173571556730906,0.017373827985483117,-0.011404282315376556,0.001292845929322596, ,0.04404179959035687, ,0.020779338853941613, ,0.0005911311426576019, ,0.15971383857183707,-0.23604533030067215,0.09829896699000001,1.606434657034941,0.1874652776781843,-1.364569473856731, ,0.08811229485466182,0.09312751870311164,0.04259040513368984,-0.0010582247741294445,0.07812273430889244,-0.10969244801397061, ,1.4723560810089111
0.012635379365040094,0.021499174752178524,-0.08862159821980324, ,0.013468661146708333,0.020899075642824193,-0.08944822824905786, ,0.0013182544041168804, ,0.014877604596041871,0.0002565737780302641,-0.04049678299123478,0.04910024968634338,0.008475935368228667,0.006335347240499838, ,0.04314392635422628, ,0.0498253658379321, ,0.0005958222604734682, ,0.16064828924961824,-0.23507998869139407,0.09870859463000001,1.606434657034941,0.1884217331765424,-1.3658394716234492, ,0.10303685294079346,0.10439707542186004,0.04126635108808291,-0.0010582247741294445,0.11348702950858987,-0.15263135992480048, ,1.4747321605682373
0.012635379365040094,0.021499174752178524,-0.08862159821980324, ,0.013502391446810121,0.020890861324214305,-0.08951994404696666, ,0.0013888053865674258, ,0.014877604596041871,0.0002565737780302641,-0.04049678299123478,0.04910024968634338,0.008475935368228667,0.006335347240499838, ,0.04314392635422628, ,0.0498253658379321, ,0.0006009054856407371, ,0.16064828924961824,-0.23507998869139407,0.09870859463000001,1.606434657034941,0.1884217331765424,-1.3658394716234492, ,0.10303685294079346,0.10439707542186004,0.04126635108808291,-0.0010582247741294445,0.11348702950858987,-0.15263135992480048, ,1.4766430854797363
0.012635379365040094,0.021499174752178524,-0.08862159821980324, ,0.013536247344301153,0.020882563869687804,-0.08959168670691148, ,0.00146042588626874, ,0.014877604596041871,0.0002565737780302641,-0.04049678299123478,0.04910024968634338,0.008475935368228667,0.006335347240499838, ,0.04314392635422628, ,0.0498253658379321, ,0.0006063801378740365, ,0.16064828924961824,-0.23507998869139407,0.09870859463000001,1.606434657034941,0.1884217331765424,-1.3658394716234492, ,0.10303685294079346,0.10439707542186004,0.04126635108808291,-0.0010582247741294445,0.11348702950858987,-0.15263135992480048, ,1.4785661697387695
0.012635379365040094,0.021499174752178524,-0.08862159821980324, ,0.01357022794283212,0.02087418429035468,-0.0896634553642352, ,0.0015329779027026043, ,0.014877604596041871,0.0002565737780302641,-0.04049678299123478,0.04910024968634338,0.008475935368228667,0.006335347240499838, ,0.04314392635422628, ,0.0498253658379321, ,0.0006122446806894071, ,0.16064828924961824,-0.23507998869139407,0.09870859463000001,1.606434657034941,0.1884217331765424,-1.3658394716234492, ,0.10303685294079346,0.10439707542186004,0.04126635108808291,-0.0010582247741294445,0.11348702950858987,-0.15263135992480048, ,1.480497121810913
0.012790027418880169,0.02149348471611628,-0.0890227411037793, ,0.013604332348430616,0.02086572359450657,-0.08973524915671478, ,0.0012509373563823099, ,0.01548073042272766,-0.0012468938531604403,-0.03812940003301954,0.027638783194156163,0.006450404537054565,0.0070775834070538005, ,0.0411710930821644, ,0.02838008917664947, ,0.0006162616157566581, ,0.1617680855163808,-0.2339601924246315,0.09911692598,1.606434657034941,0.18978809817419678,-1.3674437231012568, ,0.11378530162886184,0.11364903180655184,0.03875623240875913,-0.0010582247741294445,0.12253455849234302,-0.14030763783761155, ,1.4839861392974854
0.012790027418880169,0.02149348471611628,-0.0890227411037793, ,0.013638559669499246,0.020857182787619548,-0.08980706722455811, ,0.0013191112873011466, ,0.01548073042272766,-0.0012468938531604403,-0.03812940003301954,0.027638783194156163,0.006450404537054565,0.0070775834070538005, ,0.0411710930821644, ,0.02838008917664947, ,0.0006206544262038112, ,0.1617680855163808,-0.2339601924246315,0.09911692598,1.606434657034941,0.18978809817419678,-1.3674437231012568, ,0.11378530162886184,0.11364903180655184,0.03875623240875913,-0.0010582247741294445,0.12253455849234302,-0.14030763783761155, ,1.4862940311431885
0.012790027418880169,0.02149348471611628,-0.0890227411037793, ,0.013672909016813294,0.02084856287235698,-0.08987890871040208, ,0.0013886781740767126, ,0.01548073042272766,-0.0012468938531604403,-0.03812940003301954,0.027638783194156163,0.006450404537054565,0.0070775834070538005, ,0.0411710930821644, ,0.02838008917664947, ,0.0006254247600415311, ,0.1617680855163808,-0.2339601924246315,0.09911692598,1.606434657034941,0.18978809817419678,-1.3674437231012568, ,0.11378530162886184,0.11364903180655184,0.03875623240875913,-0.0010582247741294445,0.12253455849234302,-0.14030763783761155, ,1.491267204284668
0.012790027418880169,0.02149348471611628,-0.0890227411037793, ,0.01370737950351819,0.02083986484857217,-0.08995077275930966, ,0.0014594507638507463, ,0.015343614797498545,-0.002001512044702813,-0.03664383617708941,0.012632505407920673,-0.0009115209206171477,0.004964638577835051, ,0.039776919127711155, ,0.012662740351735306, ,0.0006305730687070202, ,0.16224689495458272,-0.23347366025355537,0.09927507336000001,1.606434657034941,0.1901980076734931,-1.3680230130327677, ,0.11378530162886184,0.11744670984959255,0.03713009678321679,-0.0010582247741294445,0.11506001629208532,-0.1290226581400826, ,1.4942011833190918
