NicholasDascanio/dvrk_moveit_final/test/execution/third_experiment_notsharpbends/thirdexp_600vel4.0/thirdexp_600vel4.0_29.csv
Current Position (x),Current Position (y),Current Position (z), ,Planned Position (x),Planned Position (y),Planned Position (z), ,Position Error,,Cartesian linear Velocity(x),Cartesian linear Velocity(y),Cartesian linear Velocity(z),Cartesian Angular Velocity(x),Cartesian Angular Velocity(y),Cartesian Angular Velocity(z), ,Total Linear Velocity, ,Total Angular Velocity, ,MSE, ,Joint 1 Position,Joint 2 Position,Joint 3 Position,Joint 4 Position,Joint 5 Position,Joint 6 Position, ,Joint 1 Velocity,Joint 2 Velocity,Joint 3 Velocity,Joint 4 Velocity,Joint 5 Velocity,Joint 6 Velocity, ,Time Stamp
0.008422906736009761,0.02026884276708105,-0.07471629617266946, ,0.008575418440450516,0.020193983360762956,-0.0749453730912835, ,0.0002852016573363933, ,3.333034679355116e-05,-1.374278412829089e-05,2.9285068382164136e-08,-0.014451156765638901,-0.0010103217688381782,0.015573878279274844, ,3.605242003791729e-05, ,0.014486430959406781, ,2.3766804778032774e-05, ,0.205633208241976,-0.23375167863702745,0.08782883266000001,1.8976939885349453,0.9501702193688728,-1.1435796140395529, ,0.0004889533067022283,3.142689754983145e-05,0.0,-0.0016700417443363874,0.0,0.01985511970118914, ,0.0189058780670166
0.008431670368293454,0.020270905805009436,-0.07475277370395986, ,0.00863846828266911,0.020196022423517524,-0.07514751335802525, ,0.0004518764130881901, ,0.0005698525237114695,0.0001666623246620298,-0.0020326503335220095,0.14064771092215703,-0.0007227649090723067,-0.1438400796247207, ,0.0021175872136961014, ,0.14064956799337044, ,3.350354865566288e-05, ,0.20566409917347292,-0.23368217404115943,0.08786642507,1.8974842985914608,0.9503068558686383,-1.1469581815488719, ,0.001932401037866385,0.004081348191316198,0.0020646547660401818,-0.0008427668269164138,0.0,-0.20409096819627415, ,0.04010295867919922
0.008479473336405342,0.020300800809348183,-0.07492987482814815, ,0.008701458332496777,0.020198046354717607,-0.07534899467210578, ,0.0004852805992775752, ,0.003406360165721514,0.0020387684536955952,-0.011664943625881946,0.10745281466138588,-0.14908938379427725,-0.20130604022661389, ,0.01232196316263778, ,0.18377636279682869, ,3.8198708428192454e-05, ,0.20570271283784405,-0.23356633304804608,0.08803883164000001,1.8972746086479766,0.948667217871453,-1.1538707194587117, ,0.001961068137342738,0.00687247079280724,0.011038677422037424,-0.001367927844845875,-0.16083380584306223,-0.22196605104128223, ,0.059393882751464844
0.008548933258525378,0.020338322758348553,-0.0751897177511297, ,0.00876438837381017,0.020200055212048706,-0.07554981811121296, ,0.0004418269914731948, ,0.002940773224030879,0.001428478062021083,-0.011949235416120158,0.21274354229278383,-0.05547337263268821,-0.16653963617517667, ,0.012388418937003735, ,0.21985702084517, ,3.96234681232227e-05, ,0.20578766289946052,-0.2333809874590647,0.08829160819000001,1.8962261589305538,0.946481033875206,-1.1577238660692677, ,0.006636986924719579,0.009376039489739404,0.011994586987951809,-0.09413752488735799,-0.03156942579315903,-0.3497118714790408, ,0.07819008827209473
0.008580267270715949,0.020351353787062217,-0.07529876167385197, ,0.008827258191423916,0.02020204905325344,-0.07574998475231114, ,0.0005356292420919994, ,0.0036220843009159478,0.0016106249263276326,-0.010878034525407681,0.116051458622675,-0.11930919485178501,-0.22909059715344737, ,0.01157779091503259, ,0.16644105524873762, ,4.23041327551414e-05, ,0.20585716749532854,-0.2332651464659513,0.08839790397000001,1.8958067790435849,0.9456612148766134,-1.161384331874539, ,0.007591993921620453,0.013851545987223877,0.010397396553524807,0.036114835056681664,-0.1315771773997426,-0.22114200821350527, ,0.09654808044433594
0.008671440845548425,0.020383801932277044,-0.07561381100789223, ,0.008890067571089212,0.02020402793613147,-0.07594949567164114, ,0.00043909056957198604, ,0.0020968354090514607,0.0006191965342654039,-0.008829185127499849,-0.16610642959611197,0.040273144249450214,0.1678953088303552, ,0.009095858018700755, ,0.17091890488547776, ,4.256299149740869e-05, ,0.20609657221442948,-0.23271683243188138,0.08871160615000001,1.896016468987069,0.9444314863787243,-1.1575228148363514, ,0.006714416217150719,0.019982510330273904,0.009260936930232559,0.0,0.052079898236136166,0.2248337015524125, ,0.11930489540100098
0.008689174608192036,0.020385720535412984,-0.07569894507166326, ,0.008952816299492497,0.020205991918539633,-0.0761483519447204, ,0.0005511586474564035, ,0.0014494642249441763,0.00014719174586703068,-0.007842411322145372,-0.017928414695131952,0.1267519887306187,0.08316607561914546, ,0.00797659246139342, ,0.12801365033066692, ,4.4306446115218645e-05, ,0.20618152227604597,-0.2325005959114031,0.08880364274000001,1.8955970891001,0.9455245783768479,-1.1563721895624088, ,0.007991812523969147,0.023316201857118125,0.008790734834437087,-0.01503598210635553,0.15011418806217328,0.045267308357267666, ,0.13797593116760254
0.00876707026288287,0.020389892692936454,-0.07599876539841001, ,0.00901550416425453,0.020207941058391247,-0.07634655464634454, ,0.00046452466203990327, ,0.0032189552593694906,0.00048209936432121615,-0.010376839976398204,0.03296525147660495,0.0046452794942636235,-0.06987001739939819, ,0.010875334507714109, ,0.03329093429417412, ,4.4568155882142024e-05, ,0.20649043159101493,-0.2317205998911064,0.08911086347000001,1.8945486393826774,0.9467543068747369,-1.1572115932153955, ,0.013863687590718885,0.02722230107816144,0.01059096510638298,0.0182579262009746,0.015084688422342838,-0.07286173194019073, ,0.16121602058410645
0.008830328894991631,0.02039095564052507,-0.07619956222562212, ,0.009078130953929044,0.020209875413656268,-0.07654410485058502, ,0.0004614168715953133, ,0.002904671285703795,-0.00027336088860778544,-0.00942955493732246,0.01625340631764222,-0.009726863976152295,-0.031048459787645765, ,0.009870579910491327, ,0.018941621503596563, ,4.47391918905539e-05, ,0.206768449974487,-0.2311491176584138,0.08931178842000001,1.894338949439193,0.9467543068747369,-1.1589268467583473, ,0.013046046406168653,0.029954842663658703,0.009403076458087368,-0.020393442535103234,0.008292216880681767,-0.06651810991465745, ,0.18025708198547363
0.008850365087679331,0.020387594662283876,-0.07626535749105613, ,0.009140696458001802,0.020211795042360876,-0.07674100363079223, ,0.000584326159951993, ,0.0027569288706790975,-0.0004665833068649939,-0.008966777174269054,0.005794718202883146,-0.017157648520033087,0.001190446836251538, ,0.00939262741053969, ,0.01810976542699206, ,4.608168444983286e-05, ,0.20686112276897772,-0.23094832660368397,0.08937660292,1.893919569552224,0.9467543068747369,-1.1594169191991908, ,0.013143620714469636,0.02842928147347836,0.008883888187395427,-0.047850616420381034,0.007194858725147867,-0.057862014929957614, ,0.20053601264953613
0.00892938282302393,0.020386859662974176,-0.07651446116981647, ,0.009203200466889227,0.020213700002587213,-0.07693725205959397, ,0.0005326466995637127, ,0.0029898547417639303,1.8973559623483536e-05,-0.00962874713592251,-0.0263325857431203,-0.0173759079803675,0.025664129312341646, ,0.010082279642042715, ,0.03154880611521717, ,4.672302244148808e-05, ,0.20720864574831782,-0.23021466698063264,0.08962549060000001,1.8937098796087395,0.9467543068747369,-1.1596619554196124, ,0.01371343086105069,0.025332872813259688,0.00965967951485749,-0.035442878084278685,0.004762591681228035,-0.006013509569030899, ,0.22028303146362305
0.00898017269289015,0.020386759365146015,-0.0766790166238013, ,0.009265642771937335,0.02021559035247339,-0.07713285120889629, ,0.0005628124266208646, ,0.0031031476101121966,0.0001166082491206129,-0.00982620693817653,-0.01754664732640904,-0.010853264010552446,-0.01371195111091841, ,0.010305215444898597, ,0.02063196744067194, ,4.7506483115307615e-05, ,0.2074480504674188,-0.22973585754243073,0.08979271201000001,1.893500189665255,0.9471642163740331,-1.1600778878708422, ,0.013345090923705635,0.02773142652205458,0.009875270626162431,0.0,0.002637349749894012,-0.012459069319568512, ,0.23925209045410156
0.009045322215345849,0.02038429633318451,-0.07690869517523544, ,0.009328023165420522,0.02021746615021309,-0.07732780214988359, ,0.0005323558897224035, ,0.0032341742263893546,0.00031402340670082056,-0.011821572711004457,0.0015781515578585548,-0.0014287792863764996,0.029721081572085917, ,0.012260019371443198, ,0.00212878879038745, ,4.830646434954147e-05, ,0.20774151431663931,-0.22914892984398966,0.09002474792000001,1.8920323600608633,0.9477107623730949,-1.16085027444619, ,0.013091038978958585,0.02589982029434246,0.012039918004535148,-0.06182782983010229,0.027575074998039795,-0.044912006217791636, ,0.2561650276184082
0.009081908420774474,0.020391732064175504,-0.07703546377933373, ,0.009390341440540611,0.02021932745405537,-0.07752210595301867, ,0.0006013941157689645, ,0.0038115006328954546,0.0009939611397568903,-0.01292588427699497,-0.014111705102294174,0.002444827845683553,-0.0065914499758809395, ,0.013512734000348525, ,0.014321907807978752, ,4.949672103970641e-05, ,0.20787280077550113,-0.22888635692626602,0.09015308063000001,1.8918226701173786,0.9477107623730949,-1.1610136319264712, ,0.014970333105926926,0.026142408142829414,0.013285080500417015,0.0,0.018795680260388744,-0.009107880745714737, ,0.27362489700317383
0.009168624578328195,0.020413861401108905,-0.07731817859599856, ,0.009452597391425475,0.020221174322304615,-0.07771576368804332, ,0.0005252073631745459, ,0.0032459257845370688,0.0005779177266107836,-0.010660140368988128,0.022397279019414865,0.01596329344922593,-0.03215359310471209, ,0.01115834287804349, ,0.027503903496730223, ,5.003186784384861e-05, ,0.20825893741921236,-0.2283148746935734,0.09044604217,1.8918226701173786,0.9483939448719222,-1.1618974364055155, ,0.01471955042011335,0.02462936453632774,0.011031032908587259,-0.001109785057101149,0.033196868739817746,-0.053180054625709884, ,0.2927210330963135
0.009230825925833162,0.02041196010650178,-0.07751687822546467, ,0.009514790813127854,0.02022300681332011,-0.07790877642397806, ,0.0005195417232701561, ,0.0027724184285301224,-0.0003035205473519774,-0.009437719743131314,0.0013272280882457841,-0.00935330704064338,0.03943080574825011, ,0.009841188069303872, ,0.009447000165133265, ,5.047019007597215e-05, ,0.20854467853555866,-0.2278051743238746,0.09064437454,1.890774220399956,0.9483939448719222,-1.1622241513660778, ,0.013510384618233314,0.02480317343399655,0.00950406415274463,-0.07613571682765255,0.02283326711410657,-0.0489397728344218, ,0.30980801582336426
0.009288546040251377,0.020419553786281915,-0.07768913553451855, ,0.009576921501624822,0.020224824985515776,-0.07810114522912248, ,0.0005392881428492504, ,0.0035204952158384155,0.00027610288883671925,-0.010769308908914822,0.0073465465670543885,-0.012982005449280463,-0.00013095464185945523, ,0.011333496095450746, ,0.014916570218724914, ,5.097951002905898e-05, ,0.20883814238477919,-0.22738814674866648,0.09082196627000001,1.890774220399956,0.9488038543712184,-1.1629667987778698, ,0.017576762652059787,0.024835629824253018,0.01096270579490709,-0.037918038448210144,0.013959915144829468,-0.04990987952086751, ,0.3292520046234131
0.009364903063916824,0.020425159434430778,-0.07792180728126202, ,0.00963898925381557,0.020226628897360495,-0.07829287117105571, ,0.0005022210907075175, ,0.003446973276554311,0.0002315404803977397,-0.010677639370464944,0.021101563697711434,0.0036726567872675145,-0.02984924179853945, ,0.011128056611351264, ,0.02141878286854463, ,5.12261321906839e-05, ,0.20922427902849042,-0.22680894178309963,0.09106048363000001,1.890354840512987,0.9493504003702803,-1.163902542833499, ,0.016739626311249037,0.027363593298290304,0.010932609142072754,-0.012699607504481798,0.02484634600268618,-0.06151131337788933, ,0.3473820686340332
0.009399178833712347,0.02042153685104286,-0.07803148130294033, ,0.009700993867521325,0.020228418607377154,-0.07848395531663624, ,0.0005771652308825721, ,0.003137406209462493,-0.0004921868665532268,-0.010280927935934152,-0.03836529159214365,-0.024443964316002417,0.09579369547906974, ,0.010760253010903255, ,0.04549068998788787, ,5.185386214293481e-05, ,0.20938645641884912,-0.22652320066675333,0.09116937199000001,1.889516080739049,0.9493504003702803,-1.16406590031378, ,0.016127964234954245,0.02647055552537539,0.01027665259354839,-0.10624281146656399,0.016765186206476938,-0.006514570724497698, ,0.36473798751831055
0.009469731364523962,0.020431415464210706,-0.07824410724963574, ,0.009762935141483594,0.020230194174143,-0.07867439873200203, ,0.0005582196899043363, ,0.003977997348841461,0.00046929257149987396,-0.012209177214043545,-0.011730997425306105,-0.01901300287465046,0.013730616108309954, ,0.01284946328330389, ,0.022340776790772704, ,5.232569168220245e-05, ,0.209726256665315,-0.2260443912285514,0.09138714871,1.8893063907955645,0.9496236733698111,-1.1645337723415945, ,0.01884745611886212,0.026229115964198666,0.012424969984399377,-0.03739268702642199,0.008741036511848788,-0.026915199704711058, ,0.38323497772216797
0.009556100357589916,0.02044031465507758,-0.0785040992989108, ,0.009824812875363409,0.020231955656289095,-0.07886420248257098, ,0.000495271836940584, ,0.003554352915157569,0.0002712876637542096,-0.011073455000544644,0.014192902096820227,0.0032034874614113255,-0.0294156912767752, ,0.011633074713551938, ,0.014549935922359699, ,5.244559617383182e-05, ,0.21015872970627159,-0.22543429533148765,0.09165418445000001,1.8888870109085953,0.9501702193688728,-1.1654695163972235, ,0.01645516586760374,0.028084327185105295,0.01132916893314367,-0.00700408352591399,0.022668639096528744,-0.05202740886533598, ,0.401439905166626
0.00959178475844129,0.020438671781975712,-0.07861703515842369, ,0.00988662686974,0.020233703112500254,-0.07905336763304077, ,0.0005650929609073929, ,0.0033676533079336156,-0.0002882034109104613,-0.010168438292850497,-0.027757156374574026,-0.03250969083551903,0.04985561739875841, ,0.010715469533529783, ,0.04274739313119733, ,5.288466501978893e-05, ,0.21048308448698902,-0.22488598129741771,0.09186418343000001,1.8878385611911728,0.9503068558686383,-1.1658259705213416, ,0.016858579065281716,0.026149611892662104,0.010139281680458308,-0.07054626482678486,0.0,-0.01705413629369777, ,0.41968607902526855
0.009653782000016145,0.020437187667869564,-0.07880433572092208, ,0.009948376926109462,0.020235436601514993,-0.07924189524738916, ,0.0005647548162319918, ,0.003207627465452074,0.00011075978665713403,-0.009165115073436102,0.0002764983125893079,-0.0048399073752189116,-0.02293537004071924, ,0.009710843217599, ,0.004847792286137699, ,5.328644253586989e-05, ,0.2106375391444735,-0.22464657657831677,0.09195751631000001,1.8876288712476883,0.9505801288681692,-1.166212163809016, ,0.016202312029788418,0.024894265886272502,0.009336935240328255,0.0,0.012111907826353763,-0.030048959150859502, ,0.4370710849761963
0.009722053612594504,0.020436045827160375,-0.07899878480214155, ,0.010010062846884108,0.020237156182124995,-0.07942978638887414, ,0.0005552195761177704, ,0.0033835706312639676,4.110594802790972e-05,-0.010178746597958005,0.013072604681675483,0.004343846631749009,-0.03073593525154204, ,0.01072646830141016, ,0.01377540879469373, ,5.3615319028456594e-05, ,0.21099278485668782,-0.22407509434562414,0.09215584868000001,1.8876288712476883,0.9509900383674655,-1.1668731324806672, ,0.016418155978974183,0.0282768002260044,0.010397396553524807,-0.003859188660871516,0.023098254260086437,-0.04968740725284457, ,0.4548170566558838
0.009802546396945541,0.02043585799832702,-0.07925453348446727, ,0.010071684435391116,0.02023886191317516,-0.07961704212003393, ,0.0004926004995570817, ,0.003438275740028724,-5.759692347619872e-06,-0.011752112605648925,-0.010006554242097678,-0.01930926206063463,0.056903421972087725, ,0.012244750872695548, ,0.021748068993709683, ,5.3882873429000414e-05, ,0.21137119876752483,-0.2234572757156862,0.09241510668000001,1.886370731586781,0.9513999478667619,-1.1677791373727404, ,0.014923249183593452,0.025339637265279248,0.011869457168405368,-0.09022222731646085,0.016630360012930116,-0.04046714275180522, ,0.47510504722595215
0.009837090051638478,0.020438768476787775,-0.07936570778210306, ,0.010133241495871428,0.02024055385356324,-0.0798036635026872, ,0.0005646237047571407, ,0.0031879779168145486,-7.816433256246135e-05,-0.01037758517101456,0.026456893617435917,0.01383975671733652,0.007258544115017549, ,0.010856499750962253, ,0.029858097151686712, ,5.4425803174224545e-05, ,0.2115256534250093,-0.22319470279796255,0.0925291802,1.8861610416432966,0.9516732208662927,-1.1682470094005548, ,0.016130705687314426,0.02606342805780576,0.010690477530201345,-0.053314733250306834,0.04468978492268648,-0.07176570114809055, ,0.4907190799713135
0.009900508829083032,0.02044193326126132,-0.0795517099622833, ,0.010194733833478548,0.02024223206223971,-0.07998965159793284, ,0.0005641292390380031, ,0.003643857106228122,0.0003846863947075973,-0.01122678018320725,0.00908886503982034,0.007029995325682121,-0.03409615818481003, ,0.011809583884072179, ,0.011490349152221429, ,5.493258590510725e-05, ,0.21181911727422986,-0.22273133882550908,0.09271714225000001,1.8859513516998119,0.9516732208662927,-1.1685737243611172, ,0.016324951240060344,0.027666746810049787,0.01153425888486604,0.006850281603723914,0.023362051361466536,-0.040132182502694694, ,0.5098400115966797
0.009982462355304794,0.02045110550933795,-0.07980068242731293, ,0.010256161254277623,0.020243896598207675,-0.08017500746615103, ,0.0005079033912584897, ,0.0034654896333723957,0.0001881776230785342,-0.010838208251050392,-0.008979323100854704,-0.006368370188038987,-0.009461884929601629, ,0.011380324569623481, ,0.011008371026227653, ,5.519381759983104e-05, ,0.21219753118506685,-0.22215985659281648,0.09297251138000001,1.8857416617563274,0.952083130365589,-1.169153014292628, ,0.01478606132104562,0.02707473368287326,0.011008162764340015,-0.009874075585293914,0.011315732374831746,-0.02320886228469613, ,0.5253200531005859
0.01001244664876733,0.020450843219819867,-0.0799044979374329, ,0.010317523565244168,0.020245547520522513,-0.08035973216700219, ,0.00058519778954517, ,0.003173610080849296,0.00010953379507128101,-0.010970558854828776,0.02220540202685049,0.02258216417072118,0.008872715286364958, ,0.01142090014774637, ,0.03167070979470135, ,5.5725844447040376e-05, ,0.21233654037680288,-0.22189728367509284,0.09308010345,1.8853222818693585,0.9526296763646508,-1.1698437221278355, ,0.014308947762133713,0.025829325410579963,0.011353393813257305,-0.04580440230397539,0.050341510070076305,-0.0613882963878867, ,0.544144868850708
0.010035829281251966,0.020451482876127875,-0.07997926720209163, ,0.01037882057426304,0.020247184888291588,-0.08054382675942756, ,0.0006914536779095979, ,0.003255254516944719,-2.2096620373994912e-05,-0.010594087233806115,-0.006817001056356459,0.0002553421776577111,0.05116456119539467, ,0.011082953331500348, ,0.006821771733231676, ,5.660946646982193e-05, ,0.21243693590416782,-0.2217351062847341,0.09315528827000001,1.8849029019823895,0.9526296763646508,-1.1700070796081166, ,0.016024475102747515,0.02381353615018087,0.010858085562372189,-0.07215869522148141,0.03449794479569939,-0.03134841952087049, ,0.5601458549499512
0.010152230548124072,0.020457860507027425,-0.08032149982847252, ,0.010440052090127478,0.02024880876067427,-0.08072729230164977, ,0.0005396400689180067, ,0.0033524072486482725,-0.00033408970269164427,-0.009350407640062256,-0.012038650705520335,-0.004672127689839954,-0.007817974613113324, ,0.009938831587544317, ,0.012913474222103496, ,5.691283827807169e-05, ,0.21299297267111197,-0.2208778829356952,0.09350528657000001,1.8846932120389048,0.9531762223637126,-1.1706161087031834, ,0.017323282504284554,0.029127360822121175,0.0094645344741533,-0.008408714133567653,0.01552877723882454,-0.019813497279845937, ,0.5754849910736084
0.010181551697318127,0.02045541910991725,-0.08041783634665654, ,0.010501217922537671,0.020250419196881704,-0.08091012985117178, ,0.0006217429971287098, ,0.003264467979378114,-4.611923810236743e-05,-0.010547555572285667,0.026718006426697753,0.02366586577858681,0.02440351974995061, ,0.01104127740449277, ,0.035692085115925754, ,5.7478961716521145e-05, ,0.21314742732859646,-0.22063075548372002,0.09360510090000002,1.8840641422084514,0.9537227683627743,-1.1713884952785314, ,0.0173867610037506,0.024783740286881895,0.010985387255172415,-0.06481174772775808,0.0591727654619717,-0.0687098756970449, ,0.5911679267883301
0.010259944560226924,0.020460993716820988,-0.08065952805681655, ,0.010562317882099874,0.020252016256176567,-0.08109234046477845, ,0.0005678272495430769, ,0.004402076594646063,0.001098773462576433,-0.013694907273166392,-0.01927879870550041,-0.029783243415056854,-0.01668990909404799, ,0.014426921594290954, ,0.03547834813131583, ,5.7836562894702956e-05, ,0.2135026730408108,-0.22010560964827275,0.093851396,1.883225382434513,0.9539960413623052,-1.1719380460464865, ,0.016392631120827564,0.024006309526554716,0.013935968083989503,0.0,-0.01447443042468605,-0.011042088136252976, ,0.6061758995056152
0.010306993126375692,0.020472431317991716,-0.08080596916300786, ,0.010623351780325337,0.020253599997872615,-0.08127392519853492, ,0.0006057662880848536, ,0.004593257541065747,0.0009177384285878249,-0.014566342641004044,-0.013025381189562493,-0.01741227723142049,-0.019813314455378123, ,0.015300934500774679, ,0.021745052258977163, ,5.8298091233177896e-05, ,0.21367257316404373,-0.21982759126480067,0.09400046935,1.8834350723779978,0.9538594048625397,-1.171989985623071, ,0.01727912264356715,0.02853185254313613,0.014858965970149254,-0.0010169826249210178,0.0,-0.02107402364506831, ,0.6242320537567139
0.010335210130104727,0.020478907342958798,-0.08089807766792471, ,0.010684319429629243,0.020255170481334992,-0.08145488510778849, ,0.0006942406004775448, ,0.0043400315824169205,0.0009569213504981123,-0.013664714159712522,0.012370286222229857,-0.0008714162784706867,-0.030786576868101184, ,0.014369272273642231, ,0.012400922188138336, ,5.901461912818457e-05, ,0.2137884141571571,-0.2196499684086935,0.09409639481000001,1.8834350723779978,0.9541326778620707,-1.1725395363910263, ,0.017727805260315855,0.025808251715656996,0.014096293380530976,-0.002457801605398213,0.018519063146815975,-0.04664684324270098, ,0.6408610343933105
0.010463951648715044,0.020477881592060168,-0.0812737913964673, ,0.010745220643329171,0.02025672776597962,-0.08163522124716725, ,0.0005085791964859521, ,0.0034470575663514877,-0.00012616699970903386,-0.008429897821414236,0.003531828404434405,0.004602795694224883,-0.04870940603277906, ,0.009108309462081373, ,0.005801680576382171, ,5.912646650076271e-05, ,0.2144216782528435,-0.21872324046378655,0.09447880036,1.8821769327170905,0.9546792238611325,-1.1738019954072176, ,0.019570414839857865,0.02719110073308618,0.008671100446379969,0.030849637997430446,0.018689087641023373,-0.026453268650769923, ,0.6573550701141357
0.010494759138162332,0.020477193865953917,-0.08135122511197632, ,0.010806055235644778,0.020258271911273266,-0.08181493467058068, ,0.000599882186174962, ,0.0033288067422390555,-0.0004067417342283234,-0.00797040119895019,-0.0006322673556355676,-0.012305482080528157,-0.017396443603156255, ,0.00864717806210592, ,0.012321713317429374, ,5.950631815995091e-05, ,0.21459930110895067,-0.2184838357446856,0.09455917034000001,1.8823866226605752,0.9549524968606633,-1.1741065099547512, ,0.019898708651388295,0.025661693228358783,0.008085691126903554,-0.008967006927820839,0.010118726084398923,-0.03316824758492146, ,0.673011064529419
0.010558524731578065,0.02047344955276363,-0.08154742697751696, ,0.010866823021695986,0.020259802976732955,-0.08199402643122033, ,0.0005832184558014398, ,0.0033872462002710996,0.00010769683850496215,-0.011864755869373975,0.03455215361989523,0.04538276451918553,0.024446606630016215, ,0.012339265264598179, ,0.05703899017386501, ,5.9995098889223e-05, ,0.21496226955403921,-0.217981858107861,0.09476528045,1.8813381729431526,0.9563188618583177,-1.1757107614325586, ,0.016166429567030797,0.02623636758597478,0.012473619044635868,-0.06323470920667139,0.08054466102679357,-0.07395040517117389, ,0.6871120929718018
0.010600679424211952,0.020478616190587336,-0.08168056886994213, ,0.010927523817502484,0.020261321021926418,-0.08217249758155869, ,0.000629315743535438, ,0.004211798585021345,0.0005420131939839234,-0.013949856592841692,-0.02715761666957062,0.004503731590553178,0.041385503729521086, ,0.014581890295297427, ,0.027528516363034987, ,6.059667949643816e-05, ,0.21513216967727217,-0.21770383972438892,0.09490139090000001,1.8811284829996682,0.9564554983580831,-1.1759855368165362, ,0.016957995274923296,0.027755759449684343,0.014363220486925161,-0.04068700807803406,0.03253410240259164,-0.00022605661768347954, ,0.7006509304046631
0.010647975489388672,0.020487423855820877,-0.08182786019976662, ,0.010988157439982016,0.02026282610647114,-0.08235034917334962, ,0.0006626934706470785, ,0.004600251118029611,0.0011461111557628657,-0.014127583489462263,-0.030761031663212295,-0.008987376503764898,-0.014913804096405758, ,0.014901828625441359, ,0.03204705045124424, ,6.126855756452833e-05, ,0.21531751526625356,-0.21743354407379106,0.09505176054000002,1.8809187930561835,0.9564554983580831,-1.1759855368165362, ,0.017586534758797404,0.02606342805780576,0.014533587153284672,0.02223457835003833,0.004163996154305446,0.015383718372041846, ,0.715709924697876
0.010759204884419213,0.020511577886829453,-0.0821706302116118, ,0.011048723706949917,0.020264318290034795,-0.08252758225762985, ,0.000521893878066308, ,0.004745087556323995,0.0005980017446835411,-0.014364652064364228,-0.018900055054763616,-0.012445868818290745,0.04457827509847711, ,0.015139903927504588, ,0.022629872295349355, ,6.152550224716538e-05, ,0.21578860197158126,-0.21685433910822424,0.09540564771000001,1.8802897232257298,0.9568654078573794,-1.176401469267766, ,0.02196180086981504,0.026301813070529596,0.01478998284122563,-0.05948324141420767,0.02389999229003934,-0.018417331280312164, ,0.7336709499359131
0.010801816412217786,0.02051629288024723,-0.08229605987497203, ,0.011109222437117471,0.020265797632334773,-0.08270419788471635, ,0.0005690544511462878, ,0.003652517961468316,-7.750784085437635e-06,-0.011042628586484813,0.01887797195947848,0.008146639758960374,0.01918523365014959, ,0.011631018598237824, ,0.02056077334317032, ,6.190050478216844e-05, ,0.2159893930263111,-0.2165917661905006,0.09553527671,1.8800800332822456,0.9571386808569103,-1.1767876625554399, ,0.018721037987467107,0.024757876743665738,0.01142669406025825,-0.059849862490856866,0.042402500666635076,-0.06271658618999268, ,0.7467200756072998
0.01083638137080536,0.020516992594936074,-0.08239133303220775, ,0.011169653450091365,0.020267264193137857,-0.0828801971042087, ,0.0006422013970629945, ,0.003639532295989414,-0.0003236424516034518,-0.010426226960639415,0.00825335701986259,-0.00039654456687466464,0.005018609398942487, ,0.011047947701034526, ,0.008262870353799218, ,6.245608420660412e-05, ,0.21616701588241824,-0.2163446387385254,0.09563379475000001,1.8800800332822456,0.9574119538564413,-1.1772555345832545, ,0.018810097434781126,0.028076018212565317,0.010661855100401608,-0.041393448548081635,0.029098287366705736,-0.05171521030312033, ,0.7607920169830322
0.01091657630529518,0.02051661522280206,-0.082614642208361, ,0.01123001656637221,0.02026871803226033,-0.08305558096498819, ,0.0005950838608452206, ,0.004109504424687431,0.0001722329296868784,-0.011307955872143675,-0.011228828423703147,-0.02149004064328856,-0.012435382213200175, ,0.012032770121835734, ,0.024246819373396875, ,6.286833295699313e-05, ,0.21655315252612947,-0.21578860197158126,0.09586064550000001,1.8796606533952764,0.9575485903562067,-1.1777753461876537, ,0.01935882120735838,0.026693935740779398,0.011492649004329005,-0.010421967580916075,0.0,-0.023810922481195637, ,0.7751619815826416
0.010952826297289817,0.02051447077577081,-0.08272680925024774, ,0.011290311607353592,0.020270159209567498,-0.08323035051521784, ,0.0006535581698802664, ,0.0037824198281529633,-0.0003282727695263487,-0.01134433477575144,0.011455039244164463,-0.011978342194050737,0.01630479870179002, ,0.01196279207676622, ,0.01657402841546977, ,6.341571716002214e-05, ,0.21673077538223665,-0.2155183063209834,0.09597601531000001,1.8790315835648228,0.957958499855503,-1.1784363148593051, ,0.018165570742433152,0.028067714155122974,0.011517578828633407,-0.06592255207397107,0.021474813569461227,-0.06613200701404669, ,0.7891900539398193
0.011031518257879167,0.02051401089659202,-0.08296506794257577, ,0.011350538395320965,0.02027158778497388,-0.08340450680234292, ,0.0005946842226034368, ,0.004111029842166575,0.00045045074883033734,-0.012146936240866584,0.0006737830408635828,0.013665054138870343,-0.04776136232098031, ,0.01283166132190154, ,0.013681645506312004, ,6.379550104537046e-05, ,0.2171014665601994,-0.214954546821165,0.09622101412,1.8781928237908847,0.9586416823543302,-1.1794834768186306, ,0.01736131385994709,0.029526117473077408,0.012552254940898346,0.03408059197989753,0.025399717227061035,-0.02229457083427791, ,0.8059430122375488
0.011118011459978913,0.020518254498819406,-0.0832053665384216, ,0.01141069675345062,0.020273003818442506,-0.08357805087308984, ,0.0005335786638791477, ,0.0044317149414351475,0.000146707953067301,-0.01240081858204683,-0.018767951149370535,-0.01967816994826153,-0.017077361985228415, ,0.013169735078978267, ,0.027193125410635274, ,6.401087272002777e-05, ,0.21750304866965908,-0.2143598963898497,0.09646730922,1.878402513734369,0.9589149553538611,-1.1797063126260234, ,0.019741406606713287,0.03027015679696038,0.01259194586561265,0.0,0.0,-0.015086665455460313, ,0.821281909942627
0.011160914296556934,0.020515840503035863,-0.08333173240666875, ,0.01147078650580853,0.020274407369985117,-0.08375098377346792, ,0.0005745280257429889, ,0.004138062974855692,0.00016849607469671438,-0.012138962576718116,0.03339386092341194,0.033254252635007024,-0.015946396881824223, ,0.012826003607906191, ,0.047127433646527335, ,6.431854161711488e-05, ,0.2177270079230116,-0.21405098707488074,0.09659823451,1.8777734439039155,0.9594615013529229,-1.1803153417210903, ,0.021339541614227745,0.028352835840594795,0.012753251817453966,-0.02344594231466041,0.06361977750465651,-0.06998145666258042, ,0.8349108695983887
0.011197130490774969,0.02051457767833274,-0.08344259619625213, ,0.011530807477349593,0.02027579849966168,-0.08392330654876767, ,0.0006320112898928006, ,0.0040395733664390625,-0.0001241115746573692,-0.012758183260071727,0.014995208473240975,0.016346719080222203,0.033926343366342405, ,0.013383004026128895, ,0.022182677111256672, ,6.475342558499285e-05, ,0.21791235351199298,-0.21379613689003132,0.09671360432000001,1.877144374073462,0.9600080473519845,-1.1808426920760167, ,0.019331216451104253,0.028809029009857556,0.013207969751243784,-0.07304321783382653,0.054602816549023526,-0.06275856257748047, ,0.8489658832550049
0.011267068106531882,0.020518227251726442,-0.08365259749845358, ,0.011590759493915942,0.0202771772675806,-0.08409502024356266, ,0.0005988481397760076, ,0.004076058678843727,0.0004876884147441909,-0.012219205008514606,-0.014040107285830978,-0.0006553172291658477,-0.021292333460897015, ,0.012890347760373318, ,0.014055382629572396, ,6.524948121297882e-05, ,0.2181285900324713,-0.21343316844494278,0.09687564057,1.8769346841299777,0.96014468385175,-1.1810357887198535, ,0.016742579668043538,0.028184419827285645,0.012177990458715598,0.015036965655307408,0.0162765828456522,-0.010919665155503883, ,0.8604278564453125
0.01131435845392593,0.02052253946793037,-0.08379169359791717, ,0.011650642382236422,0.020278543733898088,-0.08426612590170748, ,0.0006306399999569242, ,0.004490132695573638,0.00020491500632894677,-0.01317996613075509,-0.024426311248891983,-0.01809919250942439,-0.012568564235267438, ,0.013925329044282203, ,0.030401069931935105, ,6.580562798665104e-05, ,0.21839116295019492,-0.21299297267111197,0.09707008407,1.877144374073462,0.9602813203515155,-1.1812288853636905, ,0.01813432859898161,0.031123955906353157,0.013374316977329978,0.0,0.0,-0.008332799053230967, ,0.8727459907531738
0.011358171863094409,0.020522914031092826,-0.08393092286461025, ,0.011710455969925133,0.020279897958818405,-0.0844366245663394, ,0.0006624915957511917, ,0.004229642414772753,0.0003516341569562999,-0.01364791335905887,0.04674201565211157,0.05934122057914291,-0.020072555937266437, ,0.014292622593266802, ,0.0755393673095851, ,6.641952208718151e-05, ,0.21859195400492476,-0.21266861789039454,0.09721526855000001,1.876724994186493,0.9609645028503427,-1.1819493323624537, ,0.019671836973149,0.030193108990922937,0.014454456914700545,-0.021217130818295928,0.08918795251273996,-0.08167946400771159, ,0.8849530220031738
0.011447077774165777,0.020529566140000316,-0.08420094183597304, ,0.011770200085480869,0.020281240002592942,-0.08460651727987788, ,0.0005749481187793181, ,0.004646042504403695,0.0001715405395663717,-0.013093705899246277,-0.025885331084176223,-0.022764658784623668,0.03262671185204233, ,0.013894613031149777, ,0.034471432666032066, ,6.681868721445805e-05, ,0.21900125884725866,-0.21213574932207305,0.09749526719000001,1.8756765444690702,0.9617843218489353,-1.1826995185247726, ,0.02174042189197498,0.027403101807239615,0.013374316977329978,-0.04649815604056797,0.009339681546945488,-0.011766847793459184, ,0.9013979434967041
0.011497096316717526,0.020526362735389287,-0.08433436764646093, ,0.011829874558285356,0.020282569925521184,-0.08477580508402431, ,0.0006041881358375741, ,0.003795914474058166,-0.00042484958869432315,-0.00979411914364252,-0.015176904609816815,-0.008244050936135557,-0.030794443265626987, ,0.010512575025522669, ,0.017271442303753534, ,6.727242831390186e-05, ,0.2192406635663596,-0.21178050360985873,0.09763008135000001,1.875466854525586,0.9617843218489353,-1.1827811972649134, ,0.01852732166311417,0.031001941051444225,0.009918313524283935,0.01724417343110089,0.007072246882720138,-0.013503883528771818, ,0.912635087966919
0.011535988555966138,0.020522999467170955,-0.08443749605760213, ,0.011889479218602865,0.020283887787949238,-0.0849444890197624, ,0.000662700465815154, ,0.004324843098732777,-0.00011520234861898441,-0.011844002462481316,-0.020510296162359547,-0.019288179132213968,-0.0162823476275068, ,0.01260943828015536, ,0.02815503276202708, ,6.784305804062375e-05, ,0.219426009155341,-0.21146387156201552,0.09773508084000002,1.8756765444690702,0.9619209583487007,-1.183055972648891, ,0.0193469809497392,0.031001941051444225,0.011994586987951809,0.0,0.0,-0.013635637411478382, ,0.9239270687103271
0.011615829923261593,0.020527840122071424,-0.08468630632496113, ,0.011949013897578447,0.02028519365027075,-0.08511257012735819, ,0.0005929499981051441, ,0.004670075751178191,0.00041624500013441145,-0.015229381613179539,0.05074500289087943,0.04980444325902764,0.05846800605869922, ,0.01593477115435708, ,0.07110230001551775, ,6.824717032293115e-05, ,0.21981214579905223,-0.21096189392519094,0.09799693142000002,1.8746280947516476,0.9632873233463551,-1.1844968666464175, ,0.023582738955882403,0.025407481006284014,0.01617138225380711,-0.11492483239792191,0.1038960338454041,-0.10390826734054803, ,0.9405019283294678
0.011662069338815272,0.020533286359885494,-0.08482750763992687, ,0.012008478427237627,0.020286487572925862,-0.08528004944635974, ,0.0006210499048835563, ,0.004715504217123833,0.00021190256241212748,-0.01452462179934922,0.005570182490796792,0.004484896693877046,0.04533013890719499, ,0.01527237771703542, ,0.0071512645666041525, ,6.870117650951048e-05, ,0.2200283823195305,-0.21071476647321574,0.09814470848000001,1.873999024921194,0.9638338693454169,-1.1850242170013436, ,0.0215527916326302,0.027739532756056937,0.015041370651558077,-0.08100020780700766,0.045747878004479325,-0.05402650977962684, ,0.9520690441131592
0.011724866631573634,0.020539151940015828,-0.08500548710603113, ,0.012067872640484617,0.020287769616401698,-0.08544692801559732, ,0.0006129569898559795, ,0.004937681160147803,0.0004140023834227446,-0.013420953007358514,-0.02794963321083797,-0.018167923664358335,-0.02026110293435911, ,0.014306434665509217, ,0.033335491768772534, ,6.912649415950818e-05, ,0.22029867797012836,-0.21033635256237876,0.09832748537000001,1.873999024921194,0.9639705058451824,-1.1852173136451807, ,0.021616615389173297,0.030040184095748903,0.01373173406896552,0.016590402866049493,0.0,0.003052801467326203, ,0.9637279510498047
0.011773124127692474,0.020544146332622172,-0.08513401897275351, ,0.012127196371101875,0.02028903984123152,-0.08561320687318379, ,0.0006481261601118972, ,0.004701492285908696,0.00037514006756652105,-0.012685700329350305,-0.01677610861050744,-0.022176201743769983,-0.01168331916606678, ,0.013534095929571034, ,0.027806859142377842, ,6.961471004895346e-05, ,0.22050719175773242,-0.21005833417890665,0.09845841066000001,1.8742087148646789,0.9638338693454169,-1.1850242170013436, ,0.021286886845776305,0.02685255844891646,0.012981916479217606,-0.004586462269321553,0.0,-0.014563364284107587, ,0.9782609939575195
0.011830357041034915,0.0205468997753293,-0.08529067557895084, ,0.012186449453748548,0.020290298307995218,-0.08577888705651422, ,0.0006565032873145721, ,0.004915018880656538,0.00020145070553962763,-0.01322367951382847,-0.028880206573158443,-0.02794410556101193,0.01693090303117737, ,0.01410899333292136, ,0.04018630317607528, ,7.010812952626927e-05, ,0.22077748740833028,-0.20973397939818925,0.09861915062000001,1.8737893349777097,0.9639705058451824,-1.1852173136451807, ,0.022933045325875007,0.028092641077107988,0.013498992813559325,-0.028428114941545228,0.0009421326038965614,-0.006136577784779822, ,0.9901959896087646
0.011904747037042928,0.020550997712387865,-0.08549324428244093, ,0.012245631723959465,0.020291545077318653,-0.08594396960226564, ,0.0006218290388439804, ,0.004704075857254276,0.0002750676058844788,-0.013139602832097903,0.024839231809195537,0.03136724289766041,0.0020390116783578893, ,0.013958981139176483, ,0.04001113560260445, ,7.051870148889451e-05, ,0.2211636240520415,-0.20930150635723266,0.09883174218000002,1.8733699550907406,0.964790324843775,-1.1862125360279214, ,0.024578332441976374,0.02754628201987541,0.01387527135888502,-0.03371142012564366,0.06711514636374294,-0.05927519420538713, ,1.001852035522461
0.011952545519471027,0.02055264689746199,-0.0856252995902511, ,0.012304743018144685,0.02029278020987342,-0.08610845554639789, ,0.0006519305571534071, ,0.004873647316489285,0.00017784690085789512,-0.013436339530791763,-0.004085682625250617,0.00036299771330645914,0.017612337420851394, ,0.014294029791223517, ,0.0041017230433060235, ,7.098002880385427e-05, ,0.22140302877114246,-0.20902348797376058,0.09896914892000001,1.8729505752037714,0.9652002343430713,-1.1865467897390107, ,0.023951777273718017,0.0282683769909058,0.013935968083989503,-0.039620231044422055,0.034666545395781526,-0.032815535886136435, ,1.0132429599761963
0.011997734575771616,0.020556076904416198,-0.08574719907608527, ,0.012363783173587422,0.02029400376637725,-0.08627234592415288, ,0.0006917030560000731, ,0.004710195767139006,8.906921263431666e-05,-0.012960760417493639,-0.026569058394717175,-0.022915132274601895,0.019932356604086193, ,0.013790402027826578, ,0.03508586304227495, ,7.165229010521315e-05, ,0.22161154255874654,-0.20876091505603694,0.09909488905000001,1.8729505752037714,0.9653368708428368,-1.186658207642707, ,0.02139245751994382,0.028109283636987788,0.013229909900332229,-0.032502410729653756,0.005536261552744332,-0.00906174267974856, ,1.0241749286651611
0.01205136877918804,0.02056160169893853,-0.0858972326013612, ,0.012422752028443933,0.020295215807593015,-0.08643564177005486, ,0.0007062374911240607, ,0.005057980719392253,0.0005939420043701648,-0.014652435866025496,-0.009981012533157873,-0.010251745876862213,0.0037006028133188228, ,0.015512247189568937, ,0.014307977821108705, ,7.233998979018944e-05, ,0.2218509472778475,-0.20845200574106795,0.09925044385000001,1.8729505752037714,0.9656101438423677,-1.187044400930381, ,0.021363561809651235,0.027387284721059387,0.01511272440227704,-0.02367052155865806,0.017020729109668856,-0.024671477822851597, ,1.034005880355835
0.012099272824067815,0.020566633528529,-0.08604617550718117, ,0.01248164942174165,0.020296416394329206,-0.08659834411791054, ,0.0007239608668557714, ,0.005385854889420503,0.001065230869234974,-0.01689861114600594,0.028039299872109562,0.033431844363731054,-0.008444713092260185, ,0.01776809523721049, ,0.04363357854749336, ,7.304891526554134e-05, ,0.22205946106545155,-0.20818943282334434,0.09940599865000001,1.872321505373318,0.9661566898414293,-1.1875717512853072, ,0.022063925031032498,0.02797669267643596,0.017777691428571434,-0.026260453914021646,0.06488177565037433,-0.06300263418943244, ,1.044424057006836
0.012156653427499619,0.020574122067733562,-0.08622668740239418, ,0.012540475193378964,0.020297605587439344,-0.08676045400080902, ,0.0007132231722402094, ,0.005503036477814774,0.0004799283860842437,-0.01708815211675277,-0.010642609616190709,0.0023354712943427476,0.07585886043871744, ,0.01795880520795333, ,0.010895783980779226, ,7.372329238940278e-05, ,0.22229886578455252,-0.2078959689741238,0.09959396070000001,1.87148274559938,0.9667032358404912,-1.1881807803803741, ,0.023825493738004213,0.02857480926180993,0.017738097461024498,-0.09987350192153097,0.04984110017683085,-0.03715421714670954, ,1.0542430877685547
0.01221405288497875,0.020579896964031487,-0.08639348827948753, ,0.01259922918412313,0.020298783447822124,-0.08692197245112152, ,0.0007118153623558623, ,0.005562213105162709,0.0006670452313631628,-0.015321732646597057,-0.01872411318033951,-0.007642834637156057,-0.020821294956437496, ,0.016313756626287097, ,0.020223859456054236, ,7.438202348423743e-05, ,0.22254599323652768,-0.20758705965915483,0.09976636727,1.871063365712411,0.9669765088400221,-1.1884852949279074, ,0.023975983213357956,0.030931206505368573,0.015833808667992052,0.013437285821979091,0.014470684978298306,-0.006993465527883023, ,1.0637030601501465
0.01223420676739212,0.020582244432019055,-0.08644905597680323, ,0.012657911235610428,0.020299950036420693,-0.08708290050050188, ,0.0008130033717009853, ,0.005689355763777124,0.0007040180247943322,-0.015672795471422328,-0.020569068004949436,-0.009631348332113498,-0.020454944068057937, ,0.016688347080376042, ,0.022712298070265695, ,7.522060381556783e-05, ,0.22263094329814417,-0.20747894139891568,0.09982340403000001,1.871063365712411,0.9669765088400221,-1.1884852949279074, ,0.02437630145349879,0.03131912262655801,0.016187816585365857,0.013605439194355782,0.012744956410338563,-0.0054787617943527454, ,1.0743958950042725
0.01233059593811749,0.02059267199078558,-0.08672214218294173, ,0.012716521190343796,0.02030110541422319,-0.08724323917988651, ,0.0007109792184720397, ,0.0051025959856692525,0.0006504621193139267,-0.014697788276966687,0.03928507667706764,0.03791597227251921,-0.03312901197604904, ,0.015571915970623837, ,0.05459796257182954, ,7.58512557918281e-05, ,0.22307113907197496,-0.20692290463197152,0.10010988412,1.871063365712411,0.9679329643383802,-1.1894285777340636, ,0.02373610344133836,0.028489024784890654,0.01554030392195122,-0.007433649805099825,0.06718094229101193,-0.07311373840539952, ,1.0841190814971924
0.01238593371315958,0.020594228823297506,-0.08688380151981537, ,0.012775058891693003,0.02030224964226197,-0.08740298951949367, ,0.0007114959070415003, ,0.005809125479757119,8.496466620623775e-05,-0.016937085763267908,-0.0126637064984064,-0.012595813313118319,0.030780226754224926, ,0.01790581000642974, ,0.017861203249480727, ,7.647110584422055e-05, ,0.22331826652395015,-0.2065985498512541,0.10027710553000001,1.8704342958819573,0.9683428738376765,-1.189926188925434, ,0.02495317947895629,0.0348117907404515,0.017389532227074237,-0.06218309504465674,0.02663089106462424,-0.039560258033479276, ,1.094208002090454
0.012442137579967875,0.020597835993167817,-0.08704682259224424, ,0.012833524183892588,0.020303382781613713,-0.08756215254882442, ,0.000710950864459128, ,0.005952072326673523,0.0002614361949373319,-0.017491537250228097,-0.030585366687412477,-0.03449186171963575,0.049717605432544, ,0.018478349202298704, ,0.046099365971194135, ,7.707849093708197e-05, ,0.22354994851017687,-0.20628191780341087,0.10044432694000001,1.8700149159949881,0.968479510337442,-1.190119285569271, ,0.024165251224464168,0.03270053120553783,0.01783741491601344,-0.07500165120977864,0.005254299030474665,-0.02281129387884533, ,1.1060988903045654
0.012461034682071097,0.020598978175917895,-0.08710148139705691, ,0.012891916912041581,0.020304504893399085,-0.08772072929666208, ,0.0008098407074154502, ,0.005986518273737867,0.0004787833802813527,-0.017045719838756114,-0.022273355776544292,-0.027286122108083226,0.016233539746311473, ,0.01807274742224864, ,0.035222626225097704, ,7.78558686893348e-05, ,0.22362717583891914,-0.20618152227604597,0.10050006741,1.8698052260515035,0.968479510337442,-1.190119285569271, ,0.024783740286881895,0.03214666041953617,0.017465802105263162,-0.03956672449063437,0.005854897106559427,-0.02272439215374746, ,1.1160850524902344
0.012539938608876516,0.020601669758476965,-0.08732176177895319, ,0.01295023692210176,0.0203056160387827,-0.08787872079107256, ,0.0007524598673426215, ,0.005179940273674447,0.00012944700702121795,-0.014313165634656802,0.029434344732372913,0.03809203175325725,-0.05637380431586193, ,0.015222195907673167, ,0.048139203692899646, ,7.851499849676845e-05, ,0.22399014428400768,-0.2056949901049698,0.10072951074000001,1.8695955361080192,0.9691626928362691,-1.1908397325680342, ,0.024159099174763436,0.03517306951759481,0.015027180679245284,0.02218363741506261,0.06134912437473488,-0.061544905460052104, ,1.1255578994750977
0.01261139926032093,0.02060075754702458,-0.08751374582589101, ,0.013008484060897153,0.02030671627897283,-0.08803612805940386, ,0.0007190408917829447, ,0.005323211877957359,-0.0003512612349624444,-0.013984365473452921,-0.004310815633685819,-0.00010366107685620134,-0.026512647315391418, ,0.014967379424866459, ,0.004311999793467644, ,7.910216738039993e-05, ,0.22431449906472511,-0.20520845793389367,0.10092784311000001,1.8698052260515035,0.9695726023355654,-1.191255665019264, ,0.025071847175289503,0.037214486885674816,0.01437618368231047,0.0,0.02649997344097015,-0.03571870887145912, ,1.1355130672454834
0.012666561610906069,0.020590617983439002,-0.08766162475018839, ,0.01306665817611275,0.020307805675221186,-0.08819295212828643, ,0.0007227508878487852, ,0.00571342314058098,-0.0007882033391146912,-0.0156109757929476,-0.03848581921000206,-0.036079116658398316,0.08944832676997706, ,0.016642326570979003, ,0.05275281994324803, ,7.982777848455561e-05, ,0.2245925174481972,-0.20483004402305668,0.10107821275000001,1.868756776334081,0.9698458753350963,-1.191641858306938, ,0.027514335041597792,0.036123693018070335,0.015833808667992052,-0.11659469450883879,0.01604467422488244,-0.025559878757706652, ,1.1433050632476807
0.012713185313953594,0.020590228977644554,-0.08778999876141406, ,0.013124759116293214,0.02030888428882302,-0.08834919402363345, ,0.0007491643144123882, ,0.006244809021324981,0.000146909247956798,-0.017717204468213617,0.009539953158194486,0.0067133834259130295,0.035219309456987695, ,0.01878612669520904, ,0.01166526800198976, ,8.058992954922612e-05, ,0.2248164767015497,-0.20455202563958458,0.10121173062000001,1.8683373964471122,0.9702557848343927,-1.1920577907581678, ,0.029190077378797533,0.034432852524844265,0.018436124444444448,-0.07839745623849351,0.054987837688458406,-0.06564117879999085, ,1.1554088592529297
0.012790753769508481,0.02059577011360761,-0.08800494810649322, ,0.0131827867308424,0.020309952181116406,-0.0885048547706399, ,0.0006966264466441537, ,0.006349213235507795,0.00040129940989635615,-0.01739079231223738,0.02039799316977057,0.03669341316781615,-0.02914547708261371, ,0.018517915843142427, ,0.04198193783672581, ,8.124884984578818e-05, ,0.22518716787951248,-0.2041118298657538,0.10143858137000002,1.8681277065036273,0.9712122403327507,-1.1932461097847455, ,0.029935943709296774,0.03730225690191462,0.018308978758620694,0.0,0.07084147802226987,-0.055459784953907285, ,1.1635010242462158
0.012790753769508481,0.02059577011360761,-0.08800494810649322, ,0.013240740870021635,0.020311009413482704,-0.08865993539378397, ,0.0008441477320210989, ,0.006349213235507795,0.00040129940989635615,-0.01739079231223738,0.02039799316977057,0.03669341316781615,-0.02914547708261371, ,0.018517915843142427, ,0.04198193783672581, ,8.215645881893143e-05, ,0.225480631728733,-0.20373341595491679,0.10162524713000001,1.8683373964471122,0.9714855133322816,-1.1936323030724196, ,0.030068739403824703,0.036597355016764664,0.018080376299659483,-0.020621881803499185,0.0291145071821712,0.004473956843696997, ,1.1710178852081299
0.012857798120030448,0.020601456977697857,-0.08818481711017631, ,0.013298621384949232,0.020312056047345765,-0.08881443691682546, ,0.0008212789722787407, ,0.006552227322550555,0.000260932728907974,-0.017460315485992053,-0.03631994099078825,-0.007004561113351385,0.02203218555661381, ,0.01865106928960823, ,0.036989192572724226, ,8.301175940400612e-05, ,0.225480631728733,-0.20373341595491679,0.10162524713000001,1.8683373964471122,0.9714855133322816,-1.1936323030724196, ,0.030068739403824703,0.036597355016764664,0.018080376299659483,-0.020621881803499185,0.0291145071821712,0.004473956843696997, ,1.1791050434112549
0.012922762123094487,0.02060196857722588,-0.0883614687161005, ,0.013356428127599154,0.020313092144172186,-0.08896836036280685, ,0.0007998957856363641, ,0.006521654132636064,0.00023612623764295568,-0.018192983582082833,-0.03315305671375379,-0.013591828566371483,0.004384226690676143, ,0.019328020587834855, ,0.03583100584949271, ,8.381839517645497e-05, ,0.22575865011220508,-0.20336272477695402,0.10180543144000001,1.867918016560143,0.9714855133322816,-1.193550624332279, ,0.026898226065326186,0.038765090505911266,0.01869578816901409,-0.01257484873696609,0.01689618787401875,-0.004612975659245516, ,1.1874408721923828
0.012922762123094487,0.02060196857722588,-0.0883614687161005, ,0.013414160950799923,0.02031411776547087,-0.08912170675405304, ,0.0009498909263953536, ,0.006521654132636064,0.00023612623764295568,-0.018192983582082833,-0.03315305671375379,-0.013591828566371483,0.004384226690676143, ,0.019328020587834855, ,0.03583100584949271, ,8.487082213825211e-05, ,0.22610617309154518,-0.20287619260587786,0.10206728202000001,1.8668695668427204,0.9720320593313434,-1.1941596534273458, ,0.026156819613690954,0.0346718821916225,0.02011213575757576,-0.09933450454111337,0.0241711773489394,-0.019024139066763507, ,1.1960530281066895
0.013007756986290482,0.020604013674434533,-0.08861519758672212, ,0.013471819708233494,0.020315132972793176,-0.08927447711217129, ,0.0008564203187421711, ,0.006557329028040213,0.00025632626791443887,-0.019589289402824978,-0.03618677269829456,-0.02342448219972013,0.07985291796967005, ,0.020659247964174125, ,0.043106681616556265, ,8.574996674741736e-05, ,0.22610617309154518,-0.20287619260587786,0.10206728202000001,1.8668695668427204,0.9720320593313434,-1.1941596534273458, ,0.026156819613690954,0.0346718821916225,0.02011213575757576,-0.09933450454111337,0.0241711773489394,-0.019024139066763507, ,1.2038960456848145
0.013080849509104852,0.02060904476733031,-0.08882538328529226, ,0.01352940425443477,0.020316137827732166,-0.08942667245805123, ,0.0008053226087102707, ,0.006360256992445971,0.00023526919071195678,-0.017073141867040443,0.025979151127595034,0.03367442805861546,-0.03672339780774969, ,0.01822087796496495, ,0.04253095281932813, ,8.65309173246481e-05, ,0.22643825060513684,-0.20246688776354396,0.10228894761000001,1.8664501869557513,0.9729885148297014,-1.195102936233502, ,0.030135580043972942,0.03767246588267994,0.01795807386696731,-0.00014219979552048212,0.06773893274187433,-0.06501829314563246, ,1.2113819122314453
0.013150455974650015,0.020615748701802196,-0.0890048306510922, ,0.013586914444789686,0.020317132391923096,-0.08957829381186477, ,0.0007800818504783592, ,0.007487760011092644,0.0007132796891323964,-0.01920183223255788,-0.024060011497638832,-0.009997403462359661,0.0017872344513215593, ,0.020622455697271985, ,0.026054358921644635, ,8.725903507830543e-05, ,0.22676260538585427,-0.20210391931845542,0.10247690966,1.866659876899236,0.9733984243289978,-1.1954371899445912, ,0.035004404853733226,0.03609621208005735,0.020011069748743723,-0.009225403268640879,0.028612732293241613,-0.008756511083544421, ,1.2188630104064941
0.013227728758555587,0.020618833191117233,-0.08920772557395366, ,0.013644350135534817,0.020318116727042677,-0.08972934219306616, ,0.0007321800740637019, ,0.00733777127314875,0.00017534867421837018,-0.01915416700360508,-0.032501094690522855,-0.016692324816779153,0.013744163912180517, ,0.020512331608488362, ,0.03653699885968621, ,8.789760830122289e-05, ,0.22711785109806862,-0.20170233720899575,0.10268690864,1.8662404970122668,0.9736716973285287,-1.1957417044921246, ,0.03340265454363632,0.040210568456979144,0.019787343503105594,-0.02453074942766141,0.023020294651944887,-0.00917679341657549, ,1.2267968654632568
0.013227728758555587,0.020618833191117233,-0.08920772557395366, ,0.013701711183756184,0.02031909089480913,-0.08987981862039215, ,0.0008753364191361307, ,0.00733777127314875,0.00017534867421837018,-0.01915416700360508,-0.032501094690522855,-0.016692324816779153,0.013744163912180517, ,0.020512331608488362, ,0.03653699885968621, ,8.876473741700309e-05, ,0.22711785109806862,-0.20170233720899575,0.10268690864,1.8662404970122668,0.9736716973285287,-1.1957417044921246, ,0.03340265454363632,0.040210568456979144,0.019787343503105594,-0.02453074942766141,0.023020294651944887,-0.00917679341657549, ,1.237889051437378
0.013281243962859412,0.02061815098129582,-0.08935535911600849, ,0.013758997447387804,0.020320054956982223,-0.09002972411186158, ,0.0008785657512801949, ,0.006734672669604012,-0.00014559434803612745,-0.019047353621868046,0.003995543727167538,0.0140230393057846,0.060542639143033684, ,0.0202034327201439, ,0.01458106628262293, ,8.977342199530488e-05, ,0.227372701282918,-0.20140115062690098,0.10284116715000001,1.8656114271818134,0.9742182433275903,-1.1961873761069102, ,0.031443651941176536,0.03773238232941184,0.01986136099750624,-0.10165946540730182,0.06980398369613854,-0.06508866748043614, ,1.2440218925476074
0.013367691417383452,0.02062292473039976,-0.08959627749941687, ,0.013816208785211259,0.020321008975362556,-0.09017905968477595, ,0.0007949566201716751, ,0.00671537419567295,0.00024285943603764149,-0.018757202081630845,-0.0013827694465645718,0.007009256284906332,0.01804102489268408, ,0.01992455422900897, ,0.00714418666659073, ,9.063512093659302e-05, ,0.22775111519375502,-0.20093006392157328,0.10309264741000002,1.8651920472948442,0.9749014258264176,-1.196826144365533, ,0.029379858067638008,0.036597355016764664,0.01952060235294118,-0.04897373910899708,0.048949640667389265,-0.046770047496461166, ,1.2500669956207275
0.013367691417383452,0.02062292473039976,-0.08959627749941687, ,0.013873345056854355,0.02032195301179183,-0.09032782635571868, ,0.0009388467966971286, ,0.00671537419567295,0.00024285943603764149,-0.018757202081630845,-0.0013827694465645718,0.007009256284906332,0.01804102489268408, ,0.01992455422900897, ,0.00714418666659073, ,9.172311675043861e-05, ,0.22775111519375502,-0.20093006392157328,0.10309264741000002,1.8651920472948442,0.9749014258264176,-1.196826144365533, ,0.029379858067638008,0.036597355016764664,0.01952060235294118,-0.04897373910899708,0.048949640667389265,-0.046770047496461166, ,1.2558400630950928
0.013436025280548115,0.020626874555868806,-0.08978142933044976, ,0.013930406122789866,0.020322887128152497,-0.09047602514055576, ,0.0009051431449235281, ,0.007792061471141073,0.0006977069273246626,-0.020561626136449702,-0.03216920800277454,-0.030872210832486386,-0.018491785007672543, ,0.021999624685471557, ,0.044586406784555256, ,9.274580148204934e-05, ,0.22804457904297554,-0.20056709547648474,0.10328449833000002,1.8649823573513598,0.9751746988259485,-1.1970489801729258, ,0.032410157636089745,0.03932736906691702,0.02118193021276596,0.005179895001015636,0.0004994062856265774,-0.006827163194031722, ,1.2614800930023193
0.013506023999718543,0.020634850628120552,-0.0899710676839842, ,0.013987391844334602,0.020323811386367803,-0.09062365705443531, ,0.000868523631322839, ,0.007792061471141073,0.0006977069273246626,-0.020561626136449702,-0.03216920800277454,-0.030872210832486386,-0.018491785007672543, ,0.021999624685471557, ,0.044586406784555256, ,9.369941412643818e-05, ,0.2283457656250703,-0.20021957249714464,0.10348283070000001,1.8649823573513598,0.9755846083252447,-1.1974649126241557, ,0.03538290140136867,0.04085102951290176,0.02349382230088496,-0.010288242996303341,0.03756377823364049,-0.03428931099205008, ,1.2684268951416016
0.013506023999718543,0.020634850628120552,-0.0899710676839842, ,0.014044302083648798,0.02032472584840101,-0.09077072311178783, ,0.0010126052922296595, ,0.008323794572706973,0.0008932033620455702,-0.022550001830507482,-0.008610498524717231,-0.002013696187153976,-0.014014235509971417, ,0.024053813645459346, ,0.008842501134542107, ,9.487547047667989e-05, ,0.2283457656250703,-0.20021957249714464,0.10348283070000001,1.8649823573513598,0.9755846083252447,-1.1974649126241557, ,0.03538290140136867,0.04085102951290176,0.02349382230088496,-0.010288242996303341,0.03756377823364049,-0.03428931099205008, ,1.2741949558258057
0.01357651184352893,0.020638556652501104,-0.09016492424702961, ,0.014101136703734439,0.020325630576255884,-0.0909172243263261, ,0.0009690765617067489, ,0.008085622862938416,0.0007979531630937415,-0.022334568172948942,0.03670716872439407,0.04032451221038089,0.02231314672700577, ,0.023766509247347783, ,0.05452959712999639, ,9.597059071712263e-05, ,0.22867012040578774,-0.19986432678493032,0.10368634823000002,1.864353287520906,0.976267790824072,-1.1981853596229188, ,0.03800438188164629,0.03711260913510785,0.023668367786032693,-0.07391499133167188,0.09858170807226604,-0.09213076425238338, ,1.281148910522461
0.01357651184352893,0.020638556652501104,-0.09016492424702961, ,0.014157895568434466,0.02032652563197623,-0.09106316171104502, ,0.0011145406834726392, ,0.008085622862938416,0.0007979531630937415,-0.022334568172948942,0.03670716872439407,0.04032451221038089,0.02231314672700577, ,0.023766509247347783, ,0.05452959712999639, ,9.728687879247496e-05, ,0.22867012040578774,-0.19986432678493032,0.10368634823000002,1.864353287520906,0.976267790824072,-1.1981853596229188, ,0.03800438188164629,0.03711260913510785,0.023668367786032693,-0.07391499133167188,0.09858170807226604,-0.09213076425238338, ,1.2876100540161133
0.01370359602393488,0.020648122486783025,-0.09050859823385302, ,0.01421457854243183,0.020327411077645727,-0.09120853627822187, ,0.0009240520592018678, ,0.008846432950602544,0.0007415593066366639,-0.024230931972119143,-0.03890572418638914,-0.01810423746587924,0.039702821488428845, ,0.02580595571553651, ,0.0429116585036321, ,9.828876694275142e-05, ,0.22924160263848034,-0.19926967635361503,0.10404542056,1.8633048378034833,0.9770876098226646,-1.199098903265519, ,0.03689616701340232,0.04245948168164241,0.0251243083911672,-0.05024293587984483,0.030562002559465545,-0.008925246819045657, ,1.2933509349822998
0.013774509777748212,0.020657502571229863,-0.09070535739049117, ,0.014271185491248246,0.020328286975387685,-0.09135334903941603, ,0.0008803197430495612, ,0.008971168058660706,0.0013338340797483588,-0.02494414345791149,-0.019956233932458333,-0.00407827679336333,-0.013606230180729295, ,0.026541877524732513, ,0.020368454957450537, ,9.921219508505632e-05, ,0.22952734375482664,-0.1989453215728976,0.10425023438000001,1.8630951478599989,0.9773608828221955,-1.1994034178130524, ,0.03522529382274342,0.04154857336185235,0.025985010636215337,0.0,0.0330700500429144,-0.01772329519775479, ,1.2991869449615479
0.013774509777748212,0.020657502571229863,-0.09070535739049117, ,0.01432771628124328,0.02032915338736499,-0.09149760100546933, ,0.0010205393512881485, ,0.008971168058660706,0.0013338340797483588,-0.02494414345791149,-0.019956233932458333,-0.00407827679336333,-0.013606230180729295, ,0.026541877524732513, ,0.020368454957450537, ,0.00010034705029075959, ,0.22952734375482664,-0.1989453215728976,0.10425023438000001,1.8630951478599989,0.9773608828221955,-1.1994034178130524, ,0.03522529382274342,0.04154857336185235,0.025985010636215337,0.0,0.0330700500429144,-0.01772329519775479, ,1.3048210144042969
0.013879390386281543,0.02067385617176554,-0.09099846312892015, ,0.014384170779613296,0.020330010375779854,-0.09164129318650538, ,0.0008867150950808341, ,0.008904244291559987,0.0012568654944392279,-0.025235867130055024,0.025025675901616695,0.03407123853220473,-0.03460371951997043, ,0.026790189754473226, ,0.04227438366638901, ,0.00010126216582858545, ,0.229952094062909,-0.198443343936073,0.10455875140000001,1.8633048378034833,0.9781807018207882,-1.200071925235231, ,0.03593220051437743,0.042842863006081616,0.026548019200000002,-0.00586913841613434,0.07538322507621242,-0.07027764899221633, ,1.3108530044555664
0.013879390386281543,0.02067385617176554,-0.09099846312892015, ,0.014440548854390431,0.020330858002873507,-0.09178442659193015, ,0.0010248341989708676, ,0.008904244291559987,0.0012568654944392279,-0.025235867130055024,0.025025675901616695,0.03407123853220473,-0.03460371951997043, ,0.026790189754473226, ,0.04227438366638901, ,0.0001023835463907707, ,0.229952094062909,-0.198443343936073,0.10455875140000001,1.8633048378034833,0.9781807018207882,-1.200071925235231, ,0.03593220051437743,0.042842863006081616,0.026548019200000002,-0.00586913841613434,0.07538322507621242,-0.07027764899221633, ,1.316438913345337
0.013973590974469496,0.020681538207901536,-0.09126128158551225, ,0.014496850374441287,0.020331696330926456,-0.09192700223043224, ,0.0009161734091409603, ,0.009414753453628025,0.0006827416064782205,-0.02560196898680595,-0.013853474271006291,-0.008548289191134779,0.04585042299933807, ,0.02728670985471116, ,0.016278236947759723, ,0.0001034865019200101, ,0.23035367617236868,-0.1980031481622422,0.10483356488000001,1.8624660780295454,0.9788638843196154,-1.2007106934938536, ,0.040658501096174283,0.04337154550204332,0.026681426331658296,-0.08054742359520833,0.05076296923298904,-0.04819554684711722, ,1.3203248977661133
0.013973590974469496,0.020681538207901536,-0.09126128158551225, ,0.014553075209466115,0.020332525422257806,-0.09206902110998146, ,0.0010535914969959429, ,0.009414753453628025,0.0006827416064782205,-0.02560196898680595,-0.013853474271006291,-0.008548289191134779,0.04585042299933807, ,0.02728670985471116, ,0.016278236947759723, ,0.00010479503127573796, ,0.23035367617236868,-0.1980031481622422,0.10483356488000001,1.8624660780295454,0.9788638843196154,-1.2007106934938536, ,0.040658501096174283,0.04337154550204332,0.026681426331658296,-0.08054742359520833,0.05076296923298904,-0.04819554684711722, ,1.324059009552002
0.013973590974469496,0.020681538207901536,-0.09126128158551225, ,0.014609223229998016,0.02033334533922532,-0.09221048423783067, ,0.0011942580597314658, ,0.009414753453628025,0.0006827416064782205,-0.02560196898680595,-0.013853474271006291,-0.008548289191134779,0.04585042299933807, ,0.02728670985471116, ,0.016278236947759723, ,0.00010631223928371943, ,0.23035367617236868,-0.1980031481622422,0.10483356488000001,1.8624660780295454,0.9788638843196154,-1.2007106934938536, ,0.040658501096174283,0.04337154550204332,0.026681426331658296,-0.08054742359520833,0.05076296923298904,-0.04819554684711722, ,1.3281199932098389
0.014052591428312344,0.02068417095523167,-0.09146859388093039, ,0.014665294307401376,0.02033415614422514,-0.09235139262051434, ,0.0011301543260010742, ,0.010499381337313552,0.00040304510314782024,-0.026941879227308386,-0.0459053282326277,-0.044241800011298675,0.07527762142004493, ,0.028918234906722275, ,0.06375438677654562, ,0.00010772165533200458, ,0.23070119915170878,-0.19764017971715364,0.10504745273,1.8616273182556071,0.9790005208193808,-1.2009037901376907, ,0.047686905305764214,0.047212408735557605,0.02789634241681261,-0.10114303991657518,0.02465578717178696,-0.02370115421412775, ,1.3335728645324707
0.014052591428312344,0.02068417095523167,-0.09146859388093039, ,0.014721288313871018,0.020334957899691856,-0.0924917472638491, ,0.0012711994839101075, ,0.010499381337313552,0.00040304510314782024,-0.026941879227308386,-0.0459053282326277,-0.044241800011298675,0.07527762142004493, ,0.028918234906722275, ,0.06375438677654562, ,0.00010933843354524516, ,0.23070119915170878,-0.19764017971715364,0.10504745273,1.8616273182556071,0.9790005208193808,-1.2009037901376907, ,0.047686905305764214,0.047212408735557605,0.02789634241681261,-0.10114303991657518,0.02465578717178696,-0.02370115421412775, ,1.3378369808197021
0.014189731952490497,0.020698724999306944,-0.0918249313056461, ,0.01477720512243126,0.02033575066809807,-0.09263154917293356, ,0.0010618415486051335, ,0.010959885281101917,0.001202215129556223,-0.028952601601771717,0.014044657154334799,0.0019717068709088283,-0.01813732583735454, ,0.030980922292655564, ,0.014181666985636731, ,0.00011062570786816826, ,0.2313035723158983,-0.19702236108721569,0.10542078425000001,1.8614176283121227,0.9796837033182081,-1.201787594616735, ,0.047401069709525866,0.04851581879267422,0.030340593371428574,-0.03377093548050125,0.05910031309126443,-0.07696561336432745, ,1.3419129848480225
0.014189731952490497,0.020698724999306944,-0.0918249313056461, ,0.01483304460693493,0.020336534511954097,-0.09277079935214871, ,0.001199874777588019, ,0.010959885281101917,0.001202215129556223,-0.028952601601771717,0.014044657154334799,0.0019717068709088283,-0.01813732583735454, ,0.030980922292655564, ,0.014181666985636731, ,0.0001121152411434372, ,0.2313035723158983,-0.19702236108721569,0.10542078425000001,1.8614176283121227,0.9796837033182081,-1.201787594616735, ,0.047401069709525866,0.04851581879267422,0.030340593371428574,-0.03377093548050125,0.05910031309126443,-0.07696561336432745, ,1.345777988433838
0.014281612611796016,0.020709872109433886,-0.09206102700546102, ,0.014888806642061995,0.020337309493808298,-0.0929094988051575, ,0.0011078771988955296, ,0.011033890853469286,0.0011520812664932466,-0.029059610456638324,0.011053069486495629,-0.0023854125590542104,-0.02795398778936001, ,0.031105224617456812, ,0.011306627053460897, ,0.00011345613145695565, ,0.23170515442535797,-0.196620778977756,0.10566837564,1.8614176283121227,0.9800936128175044,-1.2024485632883866, ,0.047025243586952814,0.049736342535886144,0.030398495267175574,-0.023139819686906236,0.05187145645925403,-0.07348487882932829, ,1.349613904953003
0.014281612611796016,0.020709872109433886,-0.09206102700546102, ,0.014944491103318656,0.020338075676246563,-0.0930476485349048, ,0.001245416606849338, ,0.011033890853469286,0.0011520812664932466,-0.029059610456638324,0.011053069486495629,-0.0023854125590542104,-0.02795398778936001, ,0.031105224617456812, ,0.011306627053460897, ,0.00011499698522992906, ,0.23170515442535797,-0.196620778977756,0.10566837564,1.8614176283121227,0.9800936128175044,-1.2024485632883866, ,0.047025243586952814,0.049736342535886144,0.030398495267175574,-0.023139819686906236,0.05187145645925403,-0.07348487882932829, ,1.3535730838775635
0.014281612611796016,0.020709872109433886,-0.09206102700546102, ,0.015000097867036738,0.02033883312189184,-0.09318524954361712, ,0.001384834758219438, ,0.011033890853469286,0.0011520812664932466,-0.029059610456638324,0.011053069486495629,-0.0023854125590542104,-0.02795398778936001, ,0.031105224617456812, ,0.011306627053460897, ,0.00011673882653876703, ,0.23170515442535797,-0.196620778977756,0.10566837564,1.8614176283121227,0.9800936128175044,-1.2024485632883866, ,0.047025243586952814,0.049736342535886144,0.030398495267175574,-0.023139819686906236,0.05187145645925403,-0.07348487882932829, ,1.3574280738830566
0.014408161840846756,0.020717149247510166,-0.09240673200454289, ,0.015055626810371902,0.020339581893404544,-0.09332230283280386, ,0.0011832319870638268, ,0.012163923322617587,0.0013703394158008553,-0.034224611788241904,0.011750739233848673,-0.002184537269938863,-0.02742376139628242, ,0.03634780478610619, ,0.011950109600212614, ,0.00011816702854476145, ,0.23222257752793102,-0.19601068308069228,0.10602744797000001,1.8605788685381845,0.9806401588165661,-1.2032209498637343, ,0.04608884971271043,0.056995160095177654,0.03563492510067114,-0.03556796230706652,0.053532459431099175,-0.08779902896535867, ,1.3614490032196045
0.014408161840846756,0.020717149247510166,-0.09240673200454289, ,0.015111077811302952,0.02034032205348222,-0.0934588094032555, ,0.0013202107591453944, ,0.012163923322617587,0.0013703394158008553,-0.034224611788241904,0.011750739233848673,-0.002184537269938863,-0.02742376139628242, ,0.03634780478610619, ,0.011950109600212614, ,0.00011979203109656935, ,0.23222257752793102,-0.19601068308069228,0.10602744797000001,1.8605788685381845,0.9806401588165661,-1.2032209498637343, ,0.04608884971271043,0.056995160095177654,0.03563492510067114,-0.03556796230706652,0.053532459431099175,-0.08779902896535867, ,1.3651909828186035
0.014408161840846756,0.020717149247510166,-0.09240673200454289, ,0.015166450748631188,0.020341053664858905,-0.09359477025504506, ,0.0014587271299372517, ,0.013316603087313635,0.0017369618600397365,-0.0375455631732127,0.00643571009680849,-0.0030373947644423624,0.029903531513700683, ,0.03987503314458797, ,0.007111225075857789, ,0.00012161436752070105, ,0.23271683243188138,-0.19543147811512543,0.10641374239000001,1.859111038933793,0.9813233413153933,-1.2041047543427787, ,0.05171495452777699,0.055658030239572304,0.03923352591133005,-0.09370287247873879,0.07048806290243377,-0.09151266233626422, ,1.3694660663604736
0.014536949336204405,0.02072768147568609,-0.0927783723703676, ,0.015221745501978341,0.02034177679030568,-0.09373018638752718, ,0.0012344302888858119, ,0.013316603087313635,0.0017369618600397365,-0.0375455631732127,0.00643571009680849,-0.0030373947644423624,0.029903531513700683, ,0.03987503314458797, ,0.007111225075857789, ,0.00012309156804803995, ,0.23271683243188138,-0.19543147811512543,0.10641374239000001,1.859111038933793,0.9813233413153933,-1.2041047543427787, ,0.05171495452777699,0.055658030239572304,0.03923352591133005,-0.09370287247873879,0.07048806290243377,-0.09151266233626422, ,1.3739628791809082
0.014536949336204405,0.02072768147568609,-0.0927783723703676, ,0.015276961951786702,0.02034249149262991,-0.0938650587993384, ,0.0013699917478499992, ,0.013316603087313635,0.0017369618600397365,-0.0375455631732127,0.00643571009680849,-0.0030373947644423624,0.029903531513700683, ,0.03987503314458797, ,0.007111225075857789, ,0.0001247614173968571, ,0.23271683243188138,-0.19543147811512543,0.10641374239000001,1.859111038933793,0.9813233413153933,-1.2041047543427787, ,0.05171495452777699,0.055658030239572304,0.03923352591133005,-0.09370287247873879,0.07048806290243377,-0.09151266233626422, ,1.3782639503479004
0.014676384097598038,0.02075017384228508,-0.09315628336726069, ,0.015332099979317323,0.020343197834675312,-0.09399938848839728, ,0.0011429868912615061, ,0.01405308476504951,0.0019913804308787095,-0.0375394824957224,0.010567341116514464,-0.005539948364466664,-0.02842373559718442, ,0.040133122648017334, ,0.011928335056707512, ,0.00012608506785088345, ,0.23327286919882553,-0.19486771861530705,0.10681040713,1.8589013489903083,0.9820065238142205,-1.2051519163021043, ,0.05689265081443092,0.057548175596404356,0.039330398814814815,-0.029522924308977898,0.060122297424906206,-0.08296411608976847, ,1.3831250667572021
0.014676384097598038,0.02075017384228508,-0.09315628336726069, ,0.0153871594666492,0.02034389587932185,-0.0941331764519043, ,0.0012745915060378716, ,0.01405308476504951,0.0019913804308787095,-0.0375394824957224,0.010567341116514464,-0.005539948364466664,-0.02842373559718442, ,0.040133122648017334, ,0.011928335056707512, ,0.00012759529144074476, ,0.23327286919882553,-0.19486771861530705,0.10681040713,1.8589013489903083,0.9820065238142205,-1.2051519163021043, ,0.05689265081443092,0.057548175596404356,0.039330398814814815,-0.029522924308977898,0.060122297424906206,-0.08296411608976847, ,1.3869330883026123
0.01482628667600236,0.020768670176829214,-0.09354338245232433, ,0.015442140296678066,0.020344585689485276,-0.09426642368634162, ,0.001040149970241987, ,0.014497019334695032,0.0014164423966603204,-0.03651621300814679,0.008792361145500919,-0.03303394723736821,-0.05221273810107436, ,0.039314166544770185, ,0.034183071206336124, ,0.00012875134355762324, ,0.2338906878287635,-0.19423445451962065,0.10721484961000001,1.8589013489903083,0.9824164333135168,-1.2058945637138963, ,0.061862413010737145,0.061501582345088,0.038107204593301434,-0.01817508589442034,0.03381042062911848,-0.09085282448372389, ,1.390739917755127
0.01482628667600236,0.020768670176829214,-0.09354338245232433, ,0.015497042353115727,0.02034526732811733,-0.09439913118747349, ,0.001166828628542577, ,0.014497019334695032,0.0014164423966603204,-0.03651621300814679,0.008792361145500919,-0.03303394723736821,-0.05221273810107436, ,0.039314166544770185, ,0.034183071206336124, ,0.00013027792780024818, ,0.2338906878287635,-0.19423445451962065,0.10721484961000001,1.8589013489903083,0.9824164333135168,-1.2058945637138963, ,0.061862413010737145,0.061501582345088,0.038107204593301434,-0.01817508589442034,0.03381042062911848,-0.09085282448372389, ,1.392745018005371
0.01482628667600236,0.020768670176829214,-0.09354338245232433, ,0.015551865520488602,0.02034594085820517,-0.09453129995034536, ,0.0012965900351639584, ,0.014497019334695032,0.0014164423966603204,-0.03651621300814679,0.008792361145500919,-0.03303394723736821,-0.05221273810107436, ,0.039314166544770185, ,0.034183071206336124, ,0.00013199057406656787, ,0.2338906878287635,-0.19423445451962065,0.10721484961000001,1.8589013489903083,0.9824164333135168,-1.2058945637138963, ,0.061862413010737145,0.061501582345088,0.038107204593301434,-0.01817508589442034,0.03381042062911848,-0.09085282448372389, ,1.3946778774261475
0.01482628667600236,0.020768670176829214,-0.09354338245232433, ,0.015606609684136933,0.020346606342771554,-0.09466293096928524, ,0.0014284364735167715, ,0.014497019334695032,0.0014164423966603204,-0.03651621300814679,0.008792361145500919,-0.03303394723736821,-0.05221273810107436, ,0.039314166544770185, ,0.034183071206336124, ,0.0001338915211332104, ,0.2338906878287635,-0.19423445451962065,0.10721484961000001,1.8589013489903083,0.9824164333135168,-1.2058945637138963, ,0.061862413010737145,0.061501582345088,0.038107204593301434,-0.01817508589442034,0.03381042062911848,-0.09085282448372389, ,1.3966739177703857
0.01482628667600236,0.020768670176829214,-0.09354338245232433, ,0.0156612747302136,0.02034726384487448,-0.09479402523790206, ,0.0015616964251750922, ,0.014497019334695032,0.0014164423966603204,-0.03651621300814679,0.008792361145500919,-0.03303394723736821,-0.05221273810107436, ,0.039314166544770185, ,0.034183071206336124, ,0.00013598201147587785, ,0.2338906878287635,-0.19423445451962065,0.10721484961000001,1.8589013489903083,0.9824164333135168,-1.2058945637138963, ,0.061862413010737145,0.061501582345088,0.038107204593301434,-0.01817508589442034,0.03381042062911848,-0.09085282448372389, ,1.3986079692840576
0.01497090280072383,0.020774977949711667,-0.0939050785634506, ,0.01571586054568321,0.020347913427606987,-0.09492458374908773, ,0.0013329429737826254, ,0.014590637599382067,0.000674119774773821,-0.03638991204493316,-0.0008510586215223373,-0.004388510905026117,-0.026745928222164747, ,0.03921182017791592, ,0.004463128538151169, ,0.0001377319544032269, ,0.23453939739019836,-0.19357802222531156,0.10759336629,1.8582722791598547,0.9830996158123441,-1.2067783681929405, ,0.06464369315972122,0.06807528088842953,0.038107204593301434,-0.027872377797485495,0.06924516818702443,-0.07786136181250303, ,1.4005539417266846
0.01497090280072383,0.020774977949711667,-0.0939050785634506, ,0.015770367018320932,0.02034855515409707,-0.0950546074950145, ,0.0014636926591126878, ,0.014590637599382067,0.000674119774773821,-0.03638991204493316,-0.0008510586215223373,-0.004388510905026117,-0.026745928222164747, ,0.03921182017791592, ,0.004463128538151169, ,0.00013966766346119693, ,0.23453939739019836,-0.19357802222531156,0.10759336629,1.8582722791598547,0.9830996158123441,-1.2067783681929405, ,0.06464369315972122,0.06807528088842953,0.038107204593301434,-0.027872377797485495,0.06924516818702443,-0.07786136181250303, ,1.4025108814239502
0.01497090280072383,0.020774977949711667,-0.0939050785634506, ,0.015824794036711512,0.020349189087507314,-0.0951840974671371, ,0.0015957179431407304, ,0.014590637599382067,0.000674119774773821,-0.03638991204493316,-0.0008510586215223373,-0.004388510905026117,-0.026745928222164747, ,0.03921182017791592, ,0.004463128538151169, ,0.0007781445393124849, ,0.23453939739019836,-0.19357802222531156,0.10759336629,1.8582722791598547,0.9830996158123441,-1.2067783681929405, ,0.06464369315972122,0.06807528088842953,0.038107204593301434,-0.027872377797485495,0.06924516818702443,-0.07786136181250303, ,1.4043948650360107
0.01497090280072383,0.020774977949711667,-0.0939050785634506, ,0.01587914149024809,0.020349815291035273,-0.09531305465619166, ,0.0017285998615098688, ,0.014590637599382067,0.000674119774773821,-0.03638991204493316,-0.0008510586215223373,-0.004388510905026117,-0.026745928222164747, ,0.03921182017791592, ,0.004463128538151169, ,0.0007856878355204008, ,0.23453939739019836,-0.19357802222531156,0.10759336629,1.8582722791598547,0.9830996158123441,-1.2067783681929405, ,0.06464369315972122,0.06807528088842953,0.038107204593301434,-0.027872377797485495,0.06924516818702443,-0.07786136181250303, ,1.406324863433838
0.01497090280072383,0.020774977949711667,-0.0939050785634506, ,0.015933409269131654,0.020350433827912302,-0.0954414800521961, ,0.001862038116607904, ,0.014590637599382067,0.000674119774773821,-0.03638991204493316,-0.0008510586215223373,-0.004388510905026117,-0.026745928222164747, ,0.03921182017791592, ,0.004463128538151169, ,0.0007941630345840819, ,0.23453939739019836,-0.19357802222531156,0.10759336629,1.8582722791598547,0.9830996158123441,-1.2067783681929405, ,0.06464369315972122,0.06807528088842953,0.038107204593301434,-0.027872377797485495,0.06924516818702443,-0.07786136181250303, ,1.4082319736480713
0.015125026966231869,0.020776370219029897,-0.09430537057212722, ,0.01598759726436922,0.02035104476140444,-0.0955693746444498, ,0.0015882806927558879, ,0.01706021264879822,0.0009740024672337231,-0.04576102285198322,0.03179204112630849,0.008561285161455684,0.05219274479704868, ,0.048847423155045984, ,0.032921555466963515, ,0.0008003670787885491, ,0.2352112751502559,-0.19285980806800868,0.10801077167,1.856804449555463,0.9839194348109367,-1.207855269315822, ,0.07172860284086982,0.0743124052924595,0.047978347951807235,-0.15954740213628218,0.11669026013945664,-0.15899877896600606, ,1.410214900970459
0.015125026966231869,0.020776370219029897,-0.09430537057212722, ,0.016041705367773332,0.020351648154811663,-0.09569673942153427, ,0.0017194753266001536, ,0.01706021264879822,0.0009740024672337231,-0.04576102285198322,0.03179204112630849,0.008561285161455684,0.05219274479704868, ,0.048847423155045984, ,0.032921555466963515, ,0.0008074919489266235, ,0.2352112751502559,-0.19285980806800868,0.10801077167,1.856804449555463,0.9839194348109367,-1.207855269315822, ,0.07172860284086982,0.0743124052924595,0.047978347951807235,-0.15954740213628218,0.11669026013945664,-0.15899877896600606, ,1.4121110439300537
0.015125026966231869,0.020776370219029897,-0.09430537057212722, ,0.016095733471960888,0.020352244071467795,-0.09582357537131175, ,0.00185124280459843, ,0.01706021264879822,0.0009740024672337231,-0.04576102285198322,0.03179204112630849,0.008561285161455684,0.05219274479704868, ,0.048847423155045984, ,0.032921555466963515, ,0.0008155208016625605, ,0.2352112751502559,-0.19285980806800868,0.10801077167,1.856804449555463,0.9839194348109367,-1.207855269315822, ,0.07172860284086982,0.0743124052924595,0.047978347951807235,-0.15954740213628218,0.11669026013945664,-0.15899877896600606, ,1.4142870903015137
0.015125026966231869,0.020776370219029897,-0.09430537057212722, ,0.016149681470352267,0.02035283257474009,-0.09594988348092652, ,0.001983361715913745, ,0.01706021264879822,0.0009740024672337231,-0.04576102285198322,0.03179204112630849,0.008561285161455684,0.05219274479704868, ,0.048847423155045984, ,0.032921555466963515, ,0.0008244356178018826, ,0.2352112751502559,-0.19285980806800868,0.10801077167,1.856804449555463,0.9839194348109367,-1.207855269315822, ,0.07172860284086982,0.0743124052924595,0.047978347951807235,-0.15954740213628218,0.11669026013945664,-0.15899877896600606, ,1.4165229797363281
0.015125026966231869,0.020776370219029897,-0.09430537057212722, ,0.01620354925716973,0.020353413728029766,-0.0960756647368043, ,0.0021156663146202266, ,0.01706021264879822,0.0009740024672337231,-0.04576102285198322,0.03179204112630849,0.008561285161455684,0.05219274479704868, ,0.048847423155045984, ,0.032921555466963515, ,0.0008342176685353548, ,0.2352112751502559,-0.19285980806800868,0.10801077167,1.856804449555463,0.9839194348109367,-1.207855269315822, ,0.07172860284086982,0.0743124052924595,0.047978347951807235,-0.15954740213628218,0.11669026013945664,-0.15899877896600606, ,1.4184958934783936
0.015311439066698587,0.02079968252813762,-0.09481331297263333, ,0.016257336727437136,0.020353987594771014,-0.09620092012465258, ,0.0017374751700540288, ,0.02077737021333567,0.0037092454372928386,-0.05671096671517746,0.046011391725736324,0.03416308136425039,-0.023258791647177434, ,0.0605110846082439, ,0.05730251046884949, ,0.0008410090783212095, ,0.23596038023905566,-0.1921107029792089,0.10854613944000001,1.8557559998380404,0.9852857998085911,-1.2094595207936296, ,0.08076335451784747,0.07561509287527553,0.059882750075187986,-0.06648817905510601,0.1344525117148449,-0.14540972608932368, ,1.4204339981079102
0.015311439066698587,0.02079968252813762,-0.09481331297263333, ,0.01631104377697834,0.020354554238431376,-0.09632565062945969, ,0.001866685286641891, ,0.02077737021333567,0.0037092454372928386,-0.05671096671517746,0.046011391725736324,0.03416308136425039,-0.023258791647177434, ,0.0605110846082439, ,0.05730251046884949, ,0.0008486633783833042, ,0.23596038023905566,-0.1921107029792089,0.10854613944000001,1.8557559998380404,0.9852857998085911,-1.2094595207936296, ,0.08076335451784747,0.07561509287527553,0.059882750075187986,-0.06648817905510601,0.1344525117148449,-0.14540972608932368, ,1.4223589897155762
0.015311439066698587,0.02079968252813762,-0.09481331297263333, ,0.01636467030241613,0.020355113722511524,-0.09644985723549636, ,0.0019963002236980305, ,0.02077737021333567,0.0037092454372928386,-0.05671096671517746,0.046011391725736324,0.03416308136425039,-0.023258791647177434, ,0.0605110846082439, ,0.05730251046884949, ,0.0008571643920523021, ,0.23596038023905566,-0.1921107029792089,0.10854613944000001,1.8557559998380404,0.9852857998085911,-1.2094595207936296, ,0.08076335451784747,0.07561509287527553,0.059882750075187986,-0.06648817905510601,0.1344525117148449,-0.14540972608932368, ,1.4242839813232422
0.015311439066698587,0.02079968252813762,-0.09481331297263333, ,0.016418216201171777,0.020355666110544585,-0.09657354092631357, ,0.002126148784399188, ,0.02077737021333567,0.0037092454372928386,-0.05671096671517746,0.046011391725736324,0.03416308136425039,-0.023258791647177434, ,0.0605110846082439, ,0.05730251046884949, ,0.000866495159643088, ,0.23596038023905566,-0.1921107029792089,0.10854613944000001,1.8557559998380404,0.9852857998085911,-1.2094595207936296, ,0.08076335451784747,0.07561509287527553,0.059882750075187986,-0.06648817905510601,0.1344525117148449,-0.14540972608932368, ,1.4261698722839355
0.015311439066698587,0.02079968252813762,-0.09481331297263333, ,0.016471681371463372,0.020356211466096605,-0.09669670268474484, ,0.002256099642374236, ,0.02077737021333567,0.0037092454372928386,-0.05671096671517746,0.046011391725736324,0.03416308136425039,-0.023258791647177434, ,0.0605110846082439, ,0.05730251046884949, ,0.000876638258057184, ,0.23596038023905566,-0.1921107029792089,0.10854613944000001,1.8557559998380404,0.9852857998085911,-1.2094595207936296, ,0.08076335451784747,0.07561509287527553,0.059882750075187986,-0.06648817905510601,0.1344525117148449,-0.14540972608932368, ,1.428053855895996
0.015526743523201991,0.02084418576943776,-0.09541187414812317, ,0.016525065712304995,0.020356749852766042,-0.09681934349290451, ,0.00179310092371183, ,0.02077737021333567,0.0037092454372928386,-0.05671096671517746,0.046011391725736324,0.03416308136425039,-0.023258791647177434, ,0.0605110846082439, ,0.05730251046884949, ,0.0008832792918662757, ,0.2367558217251008,-0.19136932062328335,0.10917743267,1.855126930007587,0.98651552830648,-1.2109523543677407, ,0.08159668233746413,0.07894920262767952,0.06807184410256412,-0.05733980770130039,0.11573344987799802,-0.1406353670843257, ,1.4305179119110107
0.015526743523201991,0.02084418576943776,-0.09541187414812317, ,0.016578369123505736,0.0203572813341836,-0.0969414643321882, ,0.001919020183185279, ,0.022994650381805735,0.004920433778248787,-0.06466576956002063,0.03701862994873199,0.017504177646715885,-0.03414983232724859, ,0.06880862131693455, ,0.04093463611228349, ,0.0008907306651851174, ,0.2367558217251008,-0.19136932062328335,0.10917743267,1.855126930007587,0.98651552830648,-1.2109523543677407, ,0.08159668233746413,0.07894920262767952,0.06807184410256412,-0.05733980770130039,0.11573344987799802,-0.1406353670843257, ,1.4325509071350098
0.015526743523201991,0.02084418576943776,-0.09541187414812317, ,0.016631591505668734,0.020357805974012072,-0.09706306618327312, ,0.002045406929366818, ,0.022994650381805735,0.004920433778248787,-0.06466576956002063,0.03701862994873199,0.017504177646715885,-0.03414983232724859, ,0.06880862131693455, ,0.04093463611228349, ,0.0008989783527864152, ,0.2367558217251008,-0.19136932062328335,0.10917743267,1.855126930007587,0.98651552830648,-1.2109523543677407, ,0.08159668233746413,0.07894920262767952,0.06807184410256412,-0.05733980770130039,0.11573344987799802,-0.1406353670843257, ,1.4344348907470703
0.015526743523201991,0.02084418576943776,-0.09541187414812317, ,0.01668473276018969,0.020358323835946414,-0.09718415002611756, ,0.0021720871711595935, ,0.022994650381805735,0.004920433778248787,-0.06466576956002063,0.03701862994873199,0.017504177646715885,-0.03414983232724859, ,0.06880862131693455, ,0.04093463611228349, ,0.0009080074933422535, ,0.2367558217251008,-0.19136932062328335,0.10917743267,1.855126930007587,0.98651552830648,-1.2109523543677407, ,0.08159668233746413,0.07894920262767952,0.06807184410256412,-0.05733980770130039,0.11573344987799802,-0.1406353670843257, ,1.436323881149292
0.015526743523201991,0.02084418576943776,-0.09541187414812317, ,0.016737792789256318,0.02035883498371315,-0.0973047168399614, ,0.0022989256547482403, ,0.022994650381805735,0.004920433778248787,-0.06466576956002063,0.03701862994873199,0.017504177646715885,-0.03414983232724859, ,0.06880862131693455, ,0.04093463611228349, ,0.0009178026916620139, ,0.2367558217251008,-0.19136932062328335,0.10917743267,1.855126930007587,0.98651552830648,-1.2109523543677407, ,0.08159668233746413,0.07894920262767952,0.06807184410256412,-0.05733980770130039,0.11573344987799802,-0.1406353670843257, ,1.438262939453125
0.015787670938058804,0.020894292831718755,-0.09614453366584624, ,0.016790771495847203,0.020359339481070524,-0.09742476760332532, ,0.0017121287191909182, ,0.022994650381805735,0.004920433778248787,-0.06466576956002063,0.03701862994873199,0.017504177646715885,-0.03414983232724859, ,0.06880862131693455, ,0.04093463611228349, ,0.0009233574191272509, ,0.2367558217251008,-0.19136932062328335,0.10917743267,1.855126930007587,0.98651552830648,-1.2109523543677407, ,0.08159668233746413,0.07894920262767952,0.06807184410256412,-0.05733980770130039,0.11573344987799802,-0.1406353670843257, ,1.4401960372924805
0.015787670938058804,0.020894292831718755,-0.09614453366584624, ,0.016843668783730524,0.02035983739180807,-0.09754430329401184, ,0.0018330654868957334, ,0.02545524371941358,0.004754658019205072,-0.07276866126294722,-0.01831652073726452,-0.01200293745768418,0.055960909605893214, ,0.07723894268887872, ,0.021852345605698105, ,0.0009296748362645321, ,0.23767482693713352,-0.19045803814412485,0.10994613264000001,1.8540784802901642,0.9876086203046036,-1.2120070550775934, ,0.08634844545811718,0.08977950951605561,0.07621440918660287,-0.13185561631902876,0.104562483499239,-0.10577495480947567, ,1.4425139427185059
0.015787670938058804,0.020894292831718755,-0.09614453366584624, ,0.0168964845574633,0.020360328779746684,-0.09766332488910404, ,0.0019548176465389896, ,0.02545524371941358,0.004754658019205072,-0.07276866126294722,-0.01831652073726452,-0.01200293745768418,0.055960909605893214, ,0.07723894268887872, ,0.021852345605698105, ,0.000936744786680218, ,0.23767482693713352,-0.19045803814412485,0.10994613264000001,1.8540784802901642,0.9876086203046036,-1.2120070550775934, ,0.08634844545811718,0.08977950951605561,0.07621440918660287,-0.13185561631902876,0.104562483499239,-0.10577495480947567, ,1.4444220066070557
0.015787670938058804,0.020894292831718755,-0.09614453366584624, ,0.016949218722389962,0.020360813708738514,-0.0977818333649667, ,0.0020771479327867594, ,0.02545524371941358,0.004754658019205072,-0.07276866126294722,-0.01831652073726452,-0.01200293745768418,0.055960909605893214, ,0.07723894268887872, ,0.021852345605698105, ,0.0009445557671330025, ,0.23767482693713352,-0.19045803814412485,0.10994613264000001,1.8540784802901642,0.9876086203046036,-1.2120070550775934, ,0.08634844545811718,0.08977950951605561,0.07621440918660287,-0.13185561631902876,0.104562483499239,-0.10577495480947567, ,1.4464330673217773
0.015787670938058804,0.020894292831718755,-0.09614453366584624, ,0.017001871184641915,0.020361292242666192,-0.09789982969724544, ,0.002199871820033753, ,0.02545524371941358,0.004754658019205072,-0.07276866126294722,-0.01831652073726452,-0.01200293745768418,0.055960909605893214, ,0.07723894268887872, ,0.021852345605698105, ,0.000953095332118722, ,0.23767482693713352,-0.19045803814412485,0.10994613264000001,1.8540784802901642,0.9876086203046036,-1.2120070550775934, ,0.08634844545811718,0.08977950951605561,0.07621440918660287,-0.13185561631902876,0.104562483499239,-0.10577495480947567, ,1.4502780437469482
0.01600555135976491,0.020934907358397772,-0.09675981736778143, ,0.017054441851135846,0.020361764445443496,-0.0980173148608669, ,0.001734924784154727, ,0.026717323141270857,0.004796771590068571,-0.07512652636332923,0.011369280772466224,0.007002951911408167,-0.004047888633168306, ,0.07988003090223725, ,0.013263059577786895, ,0.0009583779635513978, ,0.2384239320259333,-0.1896857648567024,0.11059168506000001,1.8532397205162263,0.9885650758029616,-1.21303201662389, ,0.09195440073495231,0.0963420726481937,0.07885550257425744,-0.08948759885596463,0.12179661557620436,-0.13726207333254234, ,1.4537630081176758
0.01600555135976491,0.020934907358397772,-0.09675981736778143, ,0.017106930629573136,0.02036223038101467,-0.09813428983003937, ,0.0018520717496612706, ,0.026717323141270857,0.004796771590068571,-0.07512652636332923,0.011369280772466224,0.007002951911408167,-0.004047888633168306, ,0.07988003090223725, ,0.013263059577786895, ,0.0009643759084246184, ,0.2384239320259333,-0.1896857648567024,0.11059168506000001,1.8532397205162263,0.9885650758029616,-1.21303201662389, ,0.09195440073495231,0.0963420726481937,0.07885550257425744,-0.08948759885596463,0.12179661557620436,-0.13726207333254234, ,1.4594600200653076
0.01600555135976491,0.020934907358397772,-0.09675981736778143, ,0.017159337428438604,0.020362690113354148,-0.09825075557825175, ,0.0019701653776348963, ,0.026717323141270857,0.004796771590068571,-0.07512652636332923,0.011369280772466224,0.007002951911408167,-0.004047888633168306, ,0.07988003090223725, ,0.013263059577786895, ,0.0009710811715526868, ,0.2384239320259333,-0.1896857648567024,0.11059168506000001,1.8532397205162263,0.9885650758029616,-1.21303201662389, ,0.09195440073495231,0.0963420726481937,0.07885550257425744,-0.08948759885596463,0.12179661557620436,-0.13726207333254234, ,1.461672067642212
0.01600555135976491,0.020934907358397772,-0.09675981736778143, ,0.017211662156999458,0.020363143706466868,-0.09836671307827427, ,0.0020889544641459804, ,0.026717323141270857,0.004796771590068571,-0.07512652636332923,0.011369280772466224,0.007002951911408167,-0.004047888633168306, ,0.07988003090223725, ,0.013263059577786895, ,0.000978484305940722, ,0.2384239320259333,-0.1896857648567024,0.11059168506000001,1.8532397205162263,0.9885650758029616,-1.21303201662389, ,0.09195440073495231,0.0963420726481937,0.07885550257425744,-0.08948759885596463,0.12179661557620436,-0.13726207333254234, ,1.4637649059295654
0.01600555135976491,0.020934907358397772,-0.09675981736778143, ,0.017263904725304507,0.020363591224387554,-0.0984821633021576, ,0.002208241570844855, ,0.026717323141270857,0.004796771590068571,-0.07512652636332923,0.011369280772466224,0.007002951911408167,-0.004047888633168306, ,0.07988003090223725, ,0.013263059577786895, ,0.0009865748142624594, ,0.2384239320259333,-0.1896857648567024,0.11059168506000001,1.8532397205162263,0.9885650758029616,-1.21303201662389, ,0.09195440073495231,0.0963420726481937,0.07885550257425744,-0.08948759885596463,0.12179661557620436,-0.13726207333254234, ,1.4659769535064697
0.01600555135976491,0.020934907358397772,-0.09675981736778143, ,0.017316065044182705,0.02036403273118103,-0.09859710722123435, ,0.002327869833699306, ,0.026717323141270857,0.004796771590068571,-0.07512652636332923,0.011369280772466224,0.007002951911408167,-0.004047888633168306, ,0.07988003090223725, ,0.013263059577786895, ,0.000995341448376426, ,0.2384239320259333,-0.1896857648567024,0.11059168506000001,1.8532397205162263,0.9885650758029616,-1.21303201662389, ,0.09195440073495231,0.0963420726481937,0.07885550257425744,-0.08948759885596463,0.12179661557620436,-0.13726207333254234, ,1.4679648876190186
0.01658511526815332,0.02100294049122689,-0.09823593305665748, ,0.017368143025242568,0.02036446829094157,-0.09871154580611695, ,0.0011166855897511124, ,0.026717323141270857,0.004796771590068571,-0.07512652636332923,0.011369280772466224,0.007002951911408167,-0.004047888633168306, ,0.07988003090223725, ,0.013263059577786895, ,0.0009961293973463914, ,0.24071758368957796,-0.18750023145329686,0.11214464048000002,1.8521912707988037,0.9908878962989741,-1.2153345146874317, ,0.11832536353924038,0.10462727845476381,0.05813434861313869,-0.023382660788600032,0.07297716372419648,-0.06189127230537828, ,1.4705519676208496
0.01658511526815332,0.02100294049122689,-0.09823593305665748, ,0.017420138580870513,0.020364897967793345,-0.09882548002670014, ,0.0012049596774901287, ,0.02524967162900789,0.00026889586979788374,-0.055217972980633495,-0.04633661953779489,-0.053407682706078076,-0.02844655151097824, ,0.06071773021491738, ,0.07070324989377134, ,0.000997476689476351, ,0.24071758368957796,-0.18750023145329686,0.11214464048000002,1.8521912707988037,0.9908878962989741,-1.2153345146874317, ,0.11832536353924038,0.10462727845476381,0.05813434861313869,-0.023382660788600032,0.07297716372419648,-0.06189127230537828, ,1.4727380275726318
0.01658511526815332,0.02100294049122689,-0.09823593305665748, ,0.01747205162423068,0.020365321825889543,-0.0989389108521581, ,0.0012989963214286918, ,0.02524967162900789,0.00026889586979788374,-0.055217972980633495,-0.04633661953779489,-0.053407682706078076,-0.02844655151097824, ,0.06071773021491738, ,0.07070324989377134, ,0.0009994095076298916, ,0.24071758368957796,-0.18750023145329686,0.11214464048000002,1.8521912707988037,0.9908878962989741,-1.2153345146874317, ,0.11832536353924038,0.10462727845476381,0.05813434861313869,-0.023382660788600032,0.07297716372419648,-0.06189127230537828, ,1.4746499061584473
0.01658511526815332,0.02100294049122689,-0.09823593305665748, ,0.017523882069263107,0.02036573992941267,-0.09905183925094715, ,0.001397501549452636, ,0.02524967162900789,0.00026889586979788374,-0.055217972980633495,-0.04633661953779489,-0.053407682706078076,-0.02844655151097824, ,0.06071773021491738, ,0.07070324989377134, ,0.0010019451257306734, ,0.24071758368957796,-0.18750023145329686,0.11214464048000002,1.8521912707988037,0.9908878962989741,-1.2153345146874317, ,0.11832536353924038,0.10462727845476381,0.05813434861313869,-0.023382660788600032,0.07297716372419648,-0.06189127230537828, ,1.4765288829803467
0.01658511526815332,0.02100294049122689,-0.09823593305665748, ,0.017575629830682987,0.020366152342574297,-0.09916426619080372, ,0.001499473458518527, ,0.02524967162900789,0.00026889586979788374,-0.055217972980633495,-0.04633661953779489,-0.053407682706078076,-0.02844655151097824, ,0.06071773021491738, ,0.07070324989377134, ,0.0010050940392293307, ,0.24071758368957796,-0.18750023145329686,0.11214464048000002,1.8521912707988037,0.9908878962989741,-1.2153345146874317, ,0.11832536353924038,0.10462727845476381,0.05813434861313869,-0.023382660788600032,0.07297716372419648,-0.06189127230537828, ,1.4784340858459473
0.016818466997691663,0.02099012059272858,-0.09870948035919389, ,0.0176272948239797,0.02036655912961479,-0.09927619263874539, ,0.0016041382303640312, ,0.021177555936727762,-0.0028401103194771117,-0.03807151829565345,-0.05923073694519723,-0.0747622322014807,-0.009921504617493299, ,0.06071773021491738, ,0.0953812957513814, ,0.0010088616127584798, ,0.2418914390864601,-0.186473107981025,0.11264241584000001,1.8517718909118346,0.9914344422980359,-1.2157801863022175, ,0.1178843994515165,0.10020796363090896,0.04012295093198993,-0.03738195984948883,0.05270622662834946,-0.048876124737755045, ,1.480975866317749
0.016818466997691663,0.02099012059272858,-0.09870948035919389, ,0.017678876965415823,0.020366960354803038,-0.09938761956107027, ,0.0012603597787187789, ,0.021177555936727762,-0.0028401103194771117,-0.03807151829565345,-0.05923073694519723,-0.0747622322014807,-0.009921504617493299, ,0.043657709598836136, ,0.0953812957513814, ,0.0010104334762957316, ,0.2418914390864601,-0.186473107981025,0.11264241584000001,1.8517718909118346,0.9914344422980359,-1.2157801863022175, ,0.1178843994515165,0.10020796363090896,0.04012295093198993,-0.03738195984948883,0.05270622662834946,-0.048876124737755045, ,1.4829728603363037
0.016818466997691663,0.02099012059272858,-0.09870948035919389, ,0.01773037617202576,0.02036735608243668,-0.0994985479233578, ,0.0013572183311204504, ,0.021177555936727762,-0.0028401103194771117,-0.03807151829565345,-0.05923073694519723,-0.0747622322014807,-0.009921504617493299, ,0.043657709598836136, ,0.0953812957513814, ,0.0010125874194934009, ,0.2418914390864601,-0.186473107981025,0.11264241584000001,1.8517718909118346,0.9914344422980359,-1.2157801863022175, ,0.1178843994515165,0.10020796363090896,0.04012295093198993,-0.03738195984948883,0.05270622662834946,-0.048876124737755045, ,1.4849669933319092
0.016818466997691663,0.02099012059272858,-0.09870948035919389, ,0.017781792361614878,0.0203677463768416,-0.09960897869046745, ,0.0014575467983370734, ,0.021177555936727762,-0.0028401103194771117,-0.03807151829565345,-0.05923073694519723,-0.0747622322014807,-0.009921504617493299, ,0.043657709598836136, ,0.0953812957513814, ,0.0010153340823257691, ,0.2418914390864601,-0.186473107981025,0.11264241584000001,1.8517718909118346,0.9914344422980359,-1.2157801863022175, ,0.1178843994515165,0.10020796363090896,0.04012295093198993,-0.03738195984948883,0.05270622662834946,-0.048876124737755045, ,1.4869000911712646
0.016818466997691663,0.02099012059272858,-0.09870948035919389, ,0.01783312545275871,0.020368131302371757,-0.09971891282654007, ,0.0015605628356109948, ,0.021177555936727762,-0.0028401103194771117,-0.03807151829565345,-0.05923073694519723,-0.0747622322014807,-0.009921504617493299, ,0.043657709598836136, ,0.0953812957513814, ,0.0010186790440023655, ,0.2418914390864601,-0.186473107981025,0.11264241584000001,1.8517718909118346,0.9914344422980359,-1.2157801863022175, ,0.1178843994515165,0.10020796363090896,0.04012295093198993,-0.03738195984948883,0.05270622662834946,-0.048876124737755045, ,1.4887900352478027
