NicholasDascanio/dvrk_moveit_final/test/execution/third_experiment_notsharpbends/thirdexp_600vel4.0/thirdexp_600vel4.0_16.csv
Current Position (x),Current Position (y),Current Position (z), ,Planned Position (x),Planned Position (y),Planned Position (z), ,Position Error,,Cartesian linear Velocity(x),Cartesian linear Velocity(y),Cartesian linear Velocity(z),Cartesian Angular Velocity(x),Cartesian Angular Velocity(y),Cartesian Angular Velocity(z), ,Total Linear Velocity, ,Total Angular Velocity, ,MSE, ,Joint 1 Position,Joint 2 Position,Joint 3 Position,Joint 4 Position,Joint 5 Position,Joint 6 Position, ,Joint 1 Velocity,Joint 2 Velocity,Joint 3 Velocity,Joint 4 Velocity,Joint 5 Velocity,Joint 6 Velocity, ,Time Stamp
0.009172142223186014,0.02064438670488709,-0.07970031860547695, ,0.009316349442131625,0.02057656989329401,-0.07975464629115392, ,0.00016836371153456333, ,3.238590440192124e-05,-1.1552040828075303e-05,-1.7966274676123135e-05,0.1721547471941868,-0.002670541290125705,-0.08148624434222997, ,3.879540535890563e-05, ,0.17217545926256922, ,1.4030309294546944e-05, ,0.1780862200796172,-0.24097243387442738,0.09079474418000001,1.7534273074175926,0.6052996939609011,-1.254990528965468, ,0.00038368632539199,6.478642924951785e-05,1.802754644287462e-05,-0.002157300178142253,0.0,-0.1917516221025375, ,0.023780107498168945
0.009182767341458719,0.020645257766748054,-0.07971699744105325, ,0.009350762308949427,0.020581431883553613,-0.07983649487285079, ,0.0002158140140814817, ,0.0006835817344267777,0.0002455876343441153,-0.001258150245131746,0.25582714525890393,-0.049820356669354054,-0.13740797894219522, ,0.001452769532000769, ,0.260633068105294, ,1.746262389163841e-05, ,0.1781171110111141,-0.24094154294293046,0.09080900337,1.7534273074175926,0.604616511462074,-1.2586807339342951, ,0.0012856345618942938,0.00010766123301769384,0.0011270898412122567,-0.002157300178142253,-0.047392552712095234,-0.2918874105017206, ,0.04341912269592285
0.00919236780169857,0.020643937265318296,-0.07972358689881481, ,0.00938522811322022,0.02058618234607745,-0.07991812660650692, ,0.00027995790456008737, ,0.0012096880892788992,-0.00023308132440904875,-0.0005426219372272556,0.11419350723381953,-0.12576445998401306,-0.09688156526605747, ,0.0013461466279316566, ,0.16987305992837937, ,2.0754238443004136e-05, ,0.17813255647686255,-0.2409183747443078,0.09081159595,1.7534273074175926,0.6036600559637159,-1.2606778857731993, ,0.0019541226359338034,0.0026358665242395226,0.0,-0.002157300178142253,-0.12758193510669324,-0.14949398668752378, ,0.06291007995605469
0.009220242619713293,0.0206474595459459,-0.07976170391206563, ,0.009419746505809689,0.02059082191769876,-0.0799995424448035, ,0.0003155579014316212, ,0.0012378004081972436,0.00019406620271342147,-0.0021807931197673656,0.2368151997192305,-0.06256732139830339,-0.13247847233878848, ,0.002515088501980308, ,0.2449410307093695, ,2.3326036466851274e-05, ,0.17820206107273057,-0.24087203834706244,0.09084270691000002,1.7534273074175926,0.6016105084672343,-1.2648058077677329, ,0.005197998088304646,0.003403639233442038,0.0020237341532206837,-0.002157300178142253,-0.056537779591167396,-0.27537749125664046, ,0.08177614212036133
0.00927122128281942,0.020660535662361947,-0.07985437533411388, ,0.009454317138371469,0.020595351233948622,-0.08008074333821362, ,0.00029835478093707176, ,0.00206560936559061,0.0008925517804456061,-0.005278875870447368,-0.05124769373863377,-0.08019244335142282,-0.0064767328365309025, ,0.0057384598271299, ,0.09516908153439689, ,2.457785216432356e-05, ,0.1783101793329697,-0.24082570194981712,0.09091011399000001,1.7530079275306234,0.5986045054723946,-1.2681538044363916, ,0.006445603680167775,0.0032543909307082438,0.005139984356243951,0.0026735917455638185,-0.1392750375844616,0.07980746494865465, ,0.10890913009643555
0.009298463061184913,0.02068001045485925,-0.07995175342206721, ,0.009488939663346213,0.02059977092905748,-0.08016173023500366, ,0.0002946353329842709, ,0.0009906100126085952,0.00047564334100913357,-0.0031263857468469386,-0.06584607256390437,0.004566490265335061,0.0296490508108184, ,0.003313884823438259, ,0.06600422793378978, ,2.5365865250469294e-05, ,0.17845691125757998,-0.2407561973539491,0.09102807638,1.7530079275306234,0.5984678689726292,-1.265428666848197, ,0.0060899163629193585,0.004008454757416553,0.003288359108175062,0.002572913415633666,0.0096986369838504,0.0705039247399604, ,0.12732410430908203
0.009307803882027007,0.020686000498221033,-0.07999966750487197, ,0.009523613733960566,0.020604081635955646,-0.08024250408123589, ,0.00033504357180311043, ,0.0004651317740775056,0.00022362784752225025,-0.0018406870245516337,-0.01812488543937375,0.0544920311642337,0.024949288643039937, ,0.0019116709193259882, ,0.05742728386902091, ,2.6496211351836204e-05, ,0.17860364318219024,-0.24066352455945839,0.09108381685000001,1.7530079275306234,0.599970870470049,-1.263958865364219, ,0.007476664616744138,0.0039132761349521695,0.0021811326194714504,0.002464157298322582,0.06397661677452181,0.025975032471227014, ,0.14820408821105957
0.00932850287581277,0.02069313354119053,-0.0800553057095054, ,0.009558339004227052,0.020608283986274734,-0.08032306582077012, ,0.0003629319083221609, ,0.0014150687587067238,0.0003873389160609552,-0.003542933458251547,0.042282429441955476,-0.01616583188946806,-0.028729101404868427, ,0.0038346875384262184, ,0.04526740504639352, ,2.7690964947004483e-05, ,0.17879671150404586,-0.2405708517649677,0.09114474248000001,1.7530079275306234,0.6006540529688762,-1.264760991103123, ,0.008738265703671831,0.006083404159645357,0.0036342257631759075,0.002346553525499235,-0.007764528043562815,-0.05421998726537623, ,0.16844916343688965
0.009359371373746662,0.02070323315739154,-0.08013783369536462, ,0.009593115128943317,0.020612378610348467,-0.0804034163952658, ,0.0003652736813659523, ,0.0016047979800471739,0.0006494800804187613,-0.004816308516599404,-0.004686096497250131,-0.007439213099831654,-0.003783110291965249, ,0.005118010224559169, ,0.008792120866697967, ,2.8651443554568695e-05, ,0.17896661162727878,-0.2404472880389801,0.09122900133,1.7530079275306234,0.6003807799693454,-1.2648648702562924, ,0.00904152737224939,0.006831156409984945,0.004990229172932331,0.0022533820256207156,0.0011342014156117185,-0.001652484263035511, ,0.18724918365478516
0.009393843149826097,0.020716418394798642,-0.08023394804481199, ,0.009627941763690955,0.020616366137213824,-0.08048355674418405, ,0.0003565348763634178, ,0.0017377537205231846,0.0006104789690023073,-0.004665195115492426,-0.014540075161219298,-0.00869110508741355,0.0011725634803598185, ,0.005015627381534705, ,0.016939571751511076, ,2.933791846454645e-05, ,0.17917512541488284,-0.2403160015801183,0.09132881566,1.7530079275306234,0.6003807799693454,-1.265109906476714, ,0.011037094854439494,0.006890201913461455,0.00485338559414991,0.0021677800771181636,0.0018113401942768908,0.00928734879488987, ,0.2080831527709961
0.009426113149652216,0.02072432246775552,-0.08031419309086903, ,0.009662818564835507,0.020620247194612064,-0.08056348780478965, ,0.00035917818759739187, ,0.0016132952411608292,0.00023691111388303177,-0.003814575814360201,-0.011971226588115811,-0.009215035941449665,-0.001239393206658344, ,0.004148474063379843, ,0.015107188772850992, ,2.9925409562331517e-05, ,0.17939136193536115,-0.24017699238838225,0.09141048193000001,1.7530079275306234,0.6003807799693454,-1.265109906476714, ,0.011364903180655183,0.008645577016274912,0.003893622957712052,0.0020867828496084484,0.0016855240836712207,0.004408494946773931, ,0.2279660701751709
0.009474722607238324,0.020733662256294038,-0.08043047222936993, ,0.009697745189525403,0.0206240224089898,-0.08064321051215285, ,0.0003271353623323565, ,0.0015897852792774057,0.00022815918044282834,-0.003601376646725087,-0.01070222633494708,-0.010858008070706394,-0.0019364032269966597, ,0.003943271179795312, ,0.015245785882733013, ,3.0153944535356447e-05, ,0.17973888491470125,-0.23992986493640706,0.09153233319000001,1.7530079275306234,0.6005174164691107,-1.2652213243804105, ,0.011363459781544322,0.008200919491570884,0.0037086871990686847,0.001975225482565956,0.0,0.003296915040091489, ,0.2505831718444824
0.009488609653593062,0.020734824466071833,-0.08046014758359803, ,0.009732721295691029,0.020627692405499935,-0.08072272579915168, ,0.00037418590499040675, ,0.0014531952870763237,2.3356405731089078e-05,-0.0027472742849053715,-0.0046423672079963256,-0.010958433197542987,-0.004663261464371787, ,0.0031080280018963525, ,0.011901211336767083, ,3.070429650230222e-05, ,0.1798547259078146,-0.23985263760766481,0.09156344415,1.7530079275306234,0.6006540529688762,-1.265169384803826, ,0.011602511499996427,0.008115229463167726,0.002820256997167139,0.0019416076802264864,0.00022910797942518116,-0.003293459706518085, ,0.26940011978149414
0.00953507634740594,0.02074256627198918,-0.08056967775643996, ,0.009767746542044629,0.0206312578080028,-0.08080203459647356, ,0.00034715226448723196, ,0.0017271305277676736,0.0004483291697932764,-0.00446142932015374,0.0007053001833149429,-0.004511679982393096,-0.0048938068349186166, ,0.004805031787945012, ,0.004566475976567408, ,3.12065205871711e-05, ,0.18020224888715472,-0.23961323288856387,0.09167751767000001,1.7530079275306234,0.600927325968407,-1.2653922206112187, ,0.011744722737385782,0.008191455461838717,0.004642614841154183,0.0018448510565941014,0.007207964154012126,-0.008262357911703556, ,0.2913181781768799
0.009554072411094768,0.02074738467354995,-0.08061459973120305, ,0.009802820588079759,0.020634719239067165,-0.08088113783261786, ,0.00038159103132327316, ,0.001941743919258316,0.0005395059719496464,-0.004779387095724889,0.0006094118155212195,-0.006404487170920003,-0.004758557607021584, ,0.00518690439014713, ,0.006433415592791993, ,3.1878069560762656e-05, ,0.18033353534601654,-0.23953600555982163,0.09172418411000001,1.7530079275306234,0.600927325968407,-1.2653922206112187, ,0.01363265932458997,0.008091621438283026,0.0049964904391468015,0.00181613979534786,0.007207964154012126,-0.008052093895484008, ,0.30809807777404785
0.009592969510419177,0.020758233564005756,-0.08071344611230327, ,0.009837943094069553,0.020638077319971252,-0.08096003643389747, ,0.000367772166389625, ,0.0018086010030729518,0.0004954031553023931,-0.004355158895393933,0.00597435883140029,-0.0007442703205814215,-0.004939368534562796, ,0.004741716026791245, ,0.0060205398586510245, ,3.2386683022037886e-05, ,0.18061155372948862,-0.23936610543658868,0.09182788731000001,1.7530079275306234,0.601200598967938,-1.2656150564186115, ,0.013451019356268006,0.007428042645305666,0.00458911308556612,0.0017587840934145955,0.013007093099657238,-0.012405543735130725, ,0.3279881477355957
0.009625224293173956,0.020764478537736216,-0.0807839899375339, ,0.009873113721066735,0.020641332670703796,-0.08103873132444046, ,0.0003761744904047273, ,0.001662516700617214,0.00018541646383010972,-0.003464726044487128,0.0008251055366650283,-0.004871925072661741,-0.0045676549560081285, ,0.003847423502584272, ,0.004941300695260815, ,3.2890816017313994e-05, ,0.18085868118146378,-0.23922709624485264,0.09190177584,1.7530079275306234,0.6013372354677035,-1.265726474322308, ,0.013209485183528782,0.008382895133921939,0.0036160752599318957,0.001705781216051912,0.008401594300898848,-0.008447709083877469, ,0.3447260856628418
0.009661018775563213,0.020771596863451057,-0.0808653160553946, ,0.009908332130903447,0.020644485909965208,-0.08111722342619325, ,0.0003752044958264967, ,0.0018299763817433226,0.0003455085689596787,-0.0039515086271794285,-0.004042366809194692,-0.011015560965263311,-0.0038729325806363267, ,0.0043683647008504675, ,0.01173385323907257, ,3.33382010550014e-05, ,0.1811366995649359,-0.23906491885449394,0.09198733098,1.7530079275306234,0.6016105084672343,-1.2659493101297008, ,0.013973927486153849,0.008231003908778761,0.004629122789886661,0.001654264695631853,0.013660480198767363,-0.012569431603031363, ,0.3612980842590332
0.009668910222310877,0.02077368975068141,-0.08088400698744767, ,0.009943597986189576,0.02064753765516823,-0.0811955136589214, ,0.0004340554402374047, ,0.0018854954834641668,0.00044724749347135005,-0.004502531554484275,0.005214777923929971,-0.0007504935402359426,-0.00489744921264122, ,0.0049018276119939955, ,0.0052685052433651125, ,3.405869369340136e-05, ,0.18119075869505544,-0.23903402792299702,0.09200677533000001,1.7530079275306234,0.6016105084672343,-1.2659493101297008, ,0.014052560574333005,0.008396811968669793,0.00473226723707665,0.0016447621153271674,0.013660480198767363,-0.012541429287106581, ,0.3805100917816162
0.009721187377480948,0.020784415452980525,-0.08099939081086918, ,0.009978910950313074,0.02065048852243959,-0.081273602940212, ,0.00039943729745255124, ,0.001944768106359789,0.0002658679246257924,-0.0040918920332936185,-4.5888260358109467e-05,-0.006730346180118873,-0.002986138205538036, ,0.004538324487406211, ,0.006730502528751308, ,3.453515038166771e-05, ,0.18157689533876667,-0.2388023459367703,0.09212603401000001,1.753217617474108,0.6017471449669998,-1.266060728033397, ,0.015232253861712806,0.00917231224887031,0.004278488186946012,0.0,0.009053452842526429,-0.008625050114935749, ,0.3984260559082031
0.009753545515193961,0.020789027754907794,-0.0810682962374371, ,0.010014270687437918,0.02065333912662035,-0.08135149218547627, ,0.00040815311376244133, ,0.002052668957196521,0.00026474955879230485,-0.004280400916360882,0.0030202739170368175,-0.0039009571943427693,-0.0034484078504580335, ,0.004754510929790998, ,0.004933509919838185, ,3.501229136366492e-05, ,0.1818394682564903,-0.2386478912792858,0.09219992254,1.753217617474108,0.6020204179665306,-1.26628356384079, ,0.01647802423310831,0.009798327489214966,0.0044920506260575305,0.0,0.013305694666729763,-0.012006349868100164, ,0.41616201400756836
0.009801288112688773,0.020794231250041192,-0.08117081318676052, ,0.010049676862504933,0.020656090081267536,-0.08142918230795032, ,0.00038410227326817164, ,0.002101858971711056,8.143007331264164e-05,-0.0043201272881924924,-0.0011337249574401539,-0.006346536523957941,-0.0027834891005578126, ,0.004804991340261435, ,0.006447003693518501, ,3.533619582843106e-05, ,0.18220243670157885,-0.23841620929305907,0.09230621832000001,1.7530079275306234,0.602157054466296,-1.2663949817444864, ,0.0167632823809346,0.01193522092296199,0.004481939088351154,-0.0008661558359931766,0.011235732576325111,-0.010216141107031002, ,0.433459997177124
0.009821989963692906,0.020795808126444767,-0.08121565309963695, ,0.010085129141230439,0.020658741998654893,-0.0815066742186985, ,0.00041559913604611676, ,0.0020749590628579275,0.00022257057303350555,-0.004496493473673316,-0.006117546941551193,-0.011684390503634883,-0.001910908650860896, ,0.004957161116133249, ,0.013188986321374833, ,3.577571552928798e-05, ,0.18236461409193758,-0.2383003682999457,0.09235288476,1.7530079275306234,0.6022936909660614,-1.266506399648183, ,0.0153878614494034,0.010672637002701362,0.004650747889051096,-0.0008661558359931766,0.004141527543483225,-0.004392296663033987, ,0.4509260654449463
0.009862723626504019,0.02080082373998999,-0.08130492533607293, ,0.01012062719010521,0.020661295489773784,-0.08158396882661427, ,0.00040478099058636894, ,0.002017008138079659,0.0002877897708806833,-0.004673869398966536,-4.555438211071048e-05,-0.004728689164488714,-0.002453842215869199, ,0.005098646873426217, ,0.004728908350315314, ,3.61341551432394e-05, ,0.1826812461397808,-0.23809185451234163,0.09244621764000001,1.7530079275306234,0.6025669639655924,-1.2667292354555757, ,0.014874128770920186,0.010474276110206487,0.004863759242748093,-0.0008661558359931766,0.01094733136238642,-0.009873512175211343, ,0.4691011905670166
0.009882642841514912,0.020803612546778972,-0.08135222767670332, ,0.010156170676394466,0.020663751164334658,-0.08166106703842325, ,0.0004356150067441536, ,0.0022074242344438766,0.0002383065243979125,-0.004922629966674108,-0.003535768854098841,-0.008612881342109153,-0.002450041370454216, ,0.0054001664362479315, ,0.009310391157855882, ,3.6594186853468566e-05, ,0.18282797806439105,-0.23798373625210248,0.09249547666,1.7530079275306234,0.6027036004653578,-1.2668406533592722, ,0.01636436308992426,0.011750488058255421,0.005102117719410635,-0.0008661558359931766,0.008417284995013253,-0.007779775548403839, ,0.48787713050842285
0.009940402276803123,0.020809817975163573,-0.08147876058995894, ,0.010191759268136749,0.020666109630767718,-0.0817379697586841, ,0.0003886152576681415, ,0.002035247175273606,8.330476204847433e-05,-0.004316078805985736,0.0006047038754048894,-0.003635056605240371,-0.0028754181041421626, ,0.004772599606851427, ,0.003685010420942589, ,3.683220924699035e-05, ,0.1834149057628321,-0.23755898594402014,0.09266917952,1.7530079275306234,0.6028402369651232,-1.2669520712629685, ,0.015305958315882386,0.011434088830481396,0.003881289356725147,-0.0008661558359931766,0.011089898669806777,-0.009861280915537517, ,0.5079259872436523
0.009978115482815875,0.020807798243063842,-0.08155536192717026, ,0.010227392634143783,0.02066837149622408,-0.08181467788979138, ,0.000385776728663864, ,0.001845357771331925,-0.00011265498132591632,-0.003655463305407799,-0.003425599296358887,-0.006667786043545,-0.0008332531261364421, ,0.004096394564274245, ,0.007496272447624233, ,3.704262337660644e-05, ,0.18356163768744238,-0.23744314495090676,0.09270547564,1.7527982375871392,0.6031135099646542,-1.2671749070703615, ,0.014855501183229614,0.012004656545816408,0.0037576814154281677,-0.0026461023362431614,0.009317358972246479,-0.008392972712477438, ,0.525914192199707
0.010016221253605812,0.020808885082261263,-0.08163379656867063, ,0.01026307044399887,0.020670537366576903,-0.08189119233197709, ,0.00038252737444645726, ,0.0019518667504659218,0.0001470894640357197,-0.004319845435352969,0.002598780877733226,-0.0009274888110400264,-0.005279188469388226, ,0.0047426241372624705, ,0.0027593289113031654, ,3.7366632351920746e-05, ,0.18387054700241134,-0.2372346311633027,0.09278714191000001,1.7525885476436547,0.603386782964185,-1.2673977428777543, ,0.015036751950320199,0.011210455509366458,0.004499664271186442,0.001689890633491779,0.014492733290327416,-0.012570207207388604, ,0.5440561771392822
0.010058247125983865,0.02081522021514594,-0.08172988990426347, ,0.010298792368057105,0.020672607846422216,-0.08196751398331309, ,0.000366967987897099, ,0.00212504582460648,0.00034482970235553414,-0.004912819203409151,0.0014381096733830545,-0.0033565282839271475,-0.004973162335780521, ,0.005363815787822114, ,0.0036516350709763466, ,3.7614935012802985e-05, ,0.18417173358450611,-0.23702611737569865,0.09288695624000001,1.7525885476436547,0.6035234194639505,-1.2675091607814506, ,0.015572192576053622,0.01058310422822776,0.005131704742268042,0.001689890633491779,0.012492792643492163,-0.010901199120940596, ,0.5596921443939209
0.010058247125983865,0.02081522021514594,-0.08172988990426347, ,0.010334558077444449,0.020674583539080197,-0.08204364373971273, ,0.000441098498989737, ,0.00212504582460648,0.00034482970235553414,-0.004912819203409151,0.0014381096733830545,-0.0033565282839271475,-0.004973162335780521, ,0.005363815787822114, ,0.0036516350709763466, ,3.811202373226154e-05, ,0.18417173358450611,-0.23702611737569865,0.09288695624000001,1.7525885476436547,0.6035234194639505,-1.2675091607814506, ,0.015572192576053622,0.01058310422822776,0.005131704742268042,0.001689890633491779,0.012492792643492163,-0.010901199120940596, ,0.5794270038604736
0.010120790390333704,0.020822303996332142,-0.0818723364209587, ,0.010370367244056548,0.020676465046596062,-0.0821195824949327, ,0.0003803790560347315, ,0.001840484122998305,0.00021198102448531932,-0.004044348019434783,0.012608882198768361,0.008398387744623561,-0.005875930790871544, ,0.00444849060514426, ,0.015149812735787287, ,3.837230947769823e-05, ,0.18465054302270803,-0.23668631712923277,0.09303602959000001,1.7525885476436547,0.6040699654630122,-1.2679548323962364, ,0.015120608916263666,0.009761923974197725,0.004285394543987088,0.001689890633491779,0.024431197757594194,-0.020582120515717058, ,0.5946769714355469
0.010163937963204979,0.020827334039559525,-0.08196118432467048, ,0.010406219540558809,0.02067825296974114,-0.08219533114057544, ,0.00041100387966155015, ,0.0020593859985258175,0.00029985111373538213,-0.004506992476289864,0.0072232540333567775,0.0018069036153830142,-0.005380285926639036, ,0.004964268582849438, ,0.007445824175067964, ,3.8721388014073946e-05, ,0.18496717507055124,-0.23648552607450293,0.09312806618000001,1.7525885476436547,0.6040699654630122,-1.2679548323962364, ,0.01613893563919571,0.009993804898430367,0.004752032076372315,0.001689890633491779,0.018545634830773025,-0.015752769820026342, ,0.6113619804382324
0.0101760068286804,0.020828617428779495,-0.08198759816657936, ,0.010442114640385403,0.02067994790801402,-0.08227089056609113, ,0.00041613769052586583, ,0.0020720722979277522,0.0002658507658657167,-0.004414324845887311,0.005372706979076974,-0.00025353953424734504,-0.005217998657771568, ,0.004883689597278784, ,0.00537868579694573, ,3.906899123764674e-05, ,0.1850521251321677,-0.23642374421150913,0.09315528827000001,1.7525885476436547,0.6040699654630122,-1.2679548323962364, ,0.016308118501197934,0.010097557375235057,0.00464667780630105,0.001689890633491779,0.01654820491866071,-0.014116169930176642, ,0.6291561126708984
0.01022114113514349,0.02082916398092545,-0.0820773317893202, ,0.010478052217738638,0.02068155045964129,-0.0823462616587796, ,0.0004001453869702541, ,0.001925142190802862,-2.3015804733661882e-05,-0.0036751827308952115,0.0001155189157096473,-0.004154940412357114,-0.005000100123796209, ,0.004148936042836424, ,0.0041565458952875, ,3.9347951292006866e-05, ,0.18543826177587894,-0.2361611712937855,0.09324991744000001,1.7525885476436547,0.604616511462074,-1.268400504011022, ,0.015747915957263655,0.011234395827923615,0.0038244445426170474,0.001689890633491779,0.011834596143116239,-0.010240688005931375, ,0.6440310478210449
0.010256239400052686,0.0208298755701592,-0.08214874836092127, ,0.010514031947587998,0.020683061221579015,-0.08242144530379192, ,0.00040295790495381274, ,0.002097265485523808,0.00018559031977346814,-0.00468479459260584,0.012512164152437506,0.008901380933358462,-0.006452749373994418, ,0.00513617237429508, ,0.01535541702597846, ,3.962178450510549e-05, ,0.1857085574264768,-0.23596038023905566,0.09332380597,1.7525885476436547,0.6047531479618394,-1.2685119219147185, ,0.016843617600012562,0.011868067824006217,0.004940698362282879,0.001689890633491779,0.026783191968600868,-0.022409671672079433, ,0.6621530055999756
0.010311345089423447,0.020838863361083083,-0.08227336759227065, ,0.010550053505669859,0.02068448078951342,-0.08249644238413294, ,0.00041005907973407584, ,0.0022759001855173614,0.0001297578825195318,-0.004803501458398525,-0.012107229434846035,-0.017198304665088038,0.0010560897501977204, ,0.005316971414569639, ,0.021032514956225382, ,3.990385966781225e-05, ,0.186094694070188,-0.2356900845884578,0.09345343497000001,1.7527982375871392,0.6048897844616049,-1.268623339818415, ,0.016327760075442323,0.012142922784193317,0.004937635313081216,-0.0037000644853103087,0.0,-0.0005440741314808816, ,0.6821870803833008
0.010331999238000534,0.02083729561499648,-0.08231353145720573, ,0.010586116568486417,0.020685809757862002,-0.08257125378066313, ,0.0003923574627470728, ,0.0020692343166792576,-0.00023966090498599087,-0.003745321838821086,-0.0076983521382753325,-0.011415742691258017,-2.244311051104312e-05, ,0.004285627571669281, ,0.013768943536122739, ,4.0120210512204486e-05, ,0.18626459419342095,-0.2355665208624702,0.09349491625,1.7525885476436547,0.6050264209613704,-1.2687347577221113, ,0.016801866423241992,0.0135026951562992,0.003833648981949459,-0.0034475058165503274,0.006545971440297731,-0.00587177624523133, ,0.6971950531005859
0.01036850834691324,0.020832475568564445,-0.0823814347112956, ,0.010622220813305366,0.020687048719774725,-0.08264588037210062, ,0.00039427210333764344, ,0.0018630456756794905,3.363230709972845e-05,-0.0035597035545653416,0.013292487502694522,0.0075934294801710475,0.0021812905532352794, ,0.004017904891623746, ,0.015308507265832653, ,4.033209033659757e-05, ,0.1865966717070126,-0.23531939341049504,0.09356621220000001,1.75237885770017,0.6055729669604321,-1.2691804293368971, ,0.016625252550537976,0.0098877306487818,0.003795285089349536,-0.0070076592886611265,0.027307451483347952,-0.022781847563005015, ,0.7133841514587402
0.010391343723399593,0.020832203834421067,-0.08242299676767544, ,0.010658365918159255,0.020688198267134927,-0.08272032303502277, ,0.0004247839040716721, ,0.0021270885177989154,-0.00011896467462795542,-0.004307038106279385,0.004942445191699388,0.0016238902939919838,0.0016624933090404234, ,0.0048051259510343775, ,0.005202382404025963, ,4.0620585199249804e-05, ,0.18677429456311978,-0.23519582968450745,0.09360898977000001,1.75237885770017,0.6055729669604321,-1.2691804293368971, ,0.01758327618278132,0.013669971414357645,0.004485725575894115,-0.00668996290927347,0.02193670280181666,-0.018393004066882365, ,0.7298250198364258
0.010437909064806156,0.020834321662666303,-0.08251944033544699, ,0.010694551561845036,0.020689258990560382,-0.08279458264386914, ,0.0004032515840126778, ,0.002365752922526607,8.478797759430126e-05,-0.005001049615875769,-0.008756233195121475,-0.01360674796552683,0.0027332245509539698, ,0.005533034714515977, ,0.01618070476946027, ,4.083684736062737e-05, ,0.18712181754245988,-0.23494097949965803,0.09370880410000001,1.75237885770017,0.6057096034601975,-1.2692918472405934, ,0.017345447186706414,0.013078409806845477,0.00515662399482033,-0.006139846464157158,0.005464013211446331,-0.004942940169506746, ,0.7445151805877686
0.010459953164880421,0.02083585534359809,-0.08256735850624221, ,0.010730777423921865,0.020690231479404384,-0.08286866007094212, ,0.0004305051939276364, ,0.0024783280935527703,0.00019551914284052338,-0.005312678557471995,-0.0020940075859351925,-0.007897428724193788,0.001905536932992492, ,0.0058655682870061895, ,0.008170327043115256, ,4.111741604993174e-05, ,0.18729944039856702,-0.23481741577367043,0.09375935941,1.75237885770017,0.6059828764597284,-1.2695146830479862, ,0.018599949345055034,0.012806604798714006,0.005532758430010421,-0.005909568356564781,0.012760585622669856,-0.010884863285217187, ,0.7596821784973145
0.010522853701287898,0.020844601704825518,-0.08270641116353336, ,0.010767043184712484,0.0206911163217567,-0.08294255618641024, ,0.0003727609669217892, ,0.0022690485230143984,0.00029566254194198757,-0.005065623743517705,0.007393178723795818,0.0017864923881493022,0.0009303775382279911, ,0.00555846574599428, ,0.007605961041142279, ,4.134271858195367e-05, ,0.18775508163814628,-0.2345162291915757,0.09390454389000001,1.75237885770017,0.6062561494592593,-1.2697375188553792, ,0.017393134449866343,0.011055740204306701,0.005336285266331659,-0.005378878432398496,0.02158092592596523,-0.01805742971532012, ,0.7771141529083252
0.010544308855435483,0.020846116509402147,-0.0827523735001543, ,0.010803348525301652,0.020691914104444657,-0.08301627185830963, ,0.00040065231273028995, ,0.0022753567106186994,-8.409733864444616e-06,-0.0045058753428947355,-0.006280521375496522,-0.011280779946360266,0.0016618054916934192, ,0.005047794715505769, ,0.012911271939236413, ,4.163244067220527e-05, ,0.187917259028505,-0.23440038819846232,0.09395250662000001,1.75237885770017,0.6063927859590248,-1.2698489367590755, ,0.017402703385012062,0.012713952513192761,0.004835704772313298,-0.0052081309503134955,0.007826975965581169,-0.00683448411252063, ,0.7907900810241699
0.010567286468554603,0.020845731694676045,-0.08279592656874726, ,0.010839693127535062,0.020692625413034262,-0.08308980795254554, ,0.0004289675851136783, ,0.0021308929480221886,-0.00012418461935557838,-0.00391052018435697,-0.0049392784028391415,-0.009870611780911214,0.0014714126905575721, ,0.00445514249916638, ,0.011037456552835879, ,4.1984206657904104e-05, ,0.18810260461748637,-0.2342691017396005,0.09399787677000002,1.75237885770017,0.6065294224587902,-1.2699603546627718, ,0.017197705972901555,0.012473309878873656,0.004044898811579482,-0.005029792593613876,0.008976646086411582,-0.007765200884495063, ,0.8061461448669434
0.010620538804675072,0.020848981911040964,-0.08290527308693031, ,0.01087607667401908,0.02069325083183114,-0.08316316533289522, ,0.00039504453195754837, ,0.0025495992676390165,0.00035878458964449167,-0.005519712109672966,0.019598180235745857,0.013046622530123217,-0.005694416145127608, ,0.006090681782935484, ,0.023543640815995654, ,4.22383651638142e-05, ,0.18853507765844296,-0.23399880608900264,0.09411324658,1.7521691677566855,0.6070759684578518,-1.2704060262775576, ,0.020765195089380916,0.012124305807904788,0.005893012031076582,0.0,0.035704315430085606,-0.029544578650636463, ,0.8205530643463135
0.010646550235280768,0.02085220686070437,-0.08296095685388362, ,0.010912498848120592,0.02069379094388159,-0.08323634486100924, ,0.00041432212328434693, ,0.0024475146130254247,0.00031654478239806873,-0.005491008977925122,0.005144313947827117,7.934345861625168e-05,-0.004223890197520321, ,0.006020108634891129, ,0.00514492530425783, ,4.253133693452444e-05, ,0.18872814598029858,-0.23387524236301505,0.09417157963000002,1.7521691677566855,0.6072126049576173,-1.2705174441812541, ,0.018151672065507034,0.012236871896643556,0.005765042171552661,0.0,0.019253819664181326,-0.016123807849304842, ,0.834151029586792
0.010673097245751205,0.02085475758234369,-0.08301740740185466, ,0.010948959333964938,0.020694246330973616,-0.08330934739641419, ,0.0004325421528052988, ,0.0024440671985435885,0.00011251131738108637,-0.004943775565303844,-0.012500302369769685,-0.017603431553502,-0.0024212909090407173, ,0.005516071075288178, ,0.021590237581863094, ,4.2858576726426444e-05, ,0.18906022349389023,-0.2336358376439141,0.09427269025000001,1.7521691677566855,0.6073492414573828,-1.270710540825091, ,0.017602845772300275,0.012772132107465783,0.0050972196864,0.0,0.0,-4.8930944418887184e-05, ,0.8495299816131592
0.010721420244729597,0.020856512862964624,-0.0831176289030966, ,0.010985457816436797,0.02069461757363796,-0.08338217379651353, ,0.0004073204200775776, ,0.0025301263614303056,0.00010810924048428089,-0.0049355096355535545,-0.0019184619481288747,-0.007960029156896944,-0.0035912167407081796, ,0.005547295050321789, ,0.008187951972042102, ,4.311468742569277e-05, ,0.18929190548011696,-0.23347366025355537,0.09433491217000001,1.7521691677566855,0.6076225144569137,-1.270933376632484, ,0.01969224767762415,0.012990683307114411,0.005158293886010364,0.0,0.01238767882024432,-0.010149619519752793, ,0.8634490966796875
0.010745818226363052,0.02085884311070062,-0.0831663276198356, ,0.01102199398117866,0.020694905251149302,-0.08345482491659084, ,0.0004317167585087725, ,0.0026849535966188037,0.0002933938141525405,-0.0054340582826482,0.015564442058781991,0.008185369262481534,-0.0052934736072017905, ,0.006068281895676628, ,0.017585565723799483, ,4.341964974148837e-05, ,0.1894926965348468,-0.23335781926044202,0.09438676377,1.7521691677566855,0.6078957874564446,-1.2711562124398768, ,0.02207932563017003,0.012550845332425706,0.00579651074235808,0.0,0.03195337248945215,-0.026103665201855593, ,0.876939058303833
0.010804714001177898,0.020863418066409282,-0.0832785565107361, ,0.011058567514590046,0.02069510994152711,-0.08352730160981123, ,0.0003932471938703972, ,0.002555600918515184,7.679688597415647e-05,-0.004952864377513616,0.003938479196977389,-0.002422051722845625,0.0003610183972815821, ,0.005573854981828494, ,0.00462362952156753, ,4.362590758370541e-05, ,0.1899328923086776,-0.2331029690755926,0.09450342987,1.751959477813201,0.6078957874564446,-1.2710745336997362, ,0.020629769904015386,0.013178300452502538,0.005210602394504417,-0.004918793242424653,0.020420463401466957,-0.016639261328712473, ,0.8900930881500244
0.01081675088851435,0.020863294768746425,-0.0833018968423856, ,0.011095178103827392,0.02069523222153666,-0.08359960472722308, ,0.00044090443261098224, ,0.00268010633255424,-5.615012019534011e-05,-0.004726908935886855,-0.014375582549793972,-0.021822108445638713,0.002083111102418403, ,0.005434132026180657, ,0.026131624295081576, ,4.393391458262596e-05, ,0.1900332878360425,-0.2330334644797246,0.09452805938000002,1.751959477813201,0.60803242395621,-1.2711859516034325, ,0.020806170041322247,0.013819272106956573,0.004880150588235295,-0.004918793242424653,0.00012649428141975978,-9.065314625197743e-05, ,0.9065730571746826
0.010872622517407877,0.020862160547803724,-0.08340985265701481, ,0.011131825436802495,0.02069527266669035,-0.08367173511776062, ,0.00040449986592270204, ,0.0023068092172524725,-8.156014671866757e-06,-0.004625245291206513,0.011708267120063096,0.0076740366964680165,-0.000825141891532298, ,0.005168590648252608, ,0.013999084114924, ,4.415083284625978e-05, ,0.19052754273999287,-0.23270138696613293,0.09464342919,1.751959477813201,0.608988879454568,-1.272047555669448, ,0.019171099304741573,0.01328902696519686,0.004887637778459651,-0.004564237675574176,0.029444845661239692,-0.023951197067135693, ,0.9202680587768555
0.01089792641035291,0.020862789748556786,-0.08345882680292646, ,0.011168509202183208,0.020695231851248306,-0.08374369362824574, ,0.00042712972777904644, ,0.002624467293319269,7.009281995453217e-05,-0.0050709258763441505,0.0011625562198769258,-0.00518357768659158,5.125827379075305e-05, ,0.005710256633505052, ,0.005312345173676438, ,4.441090751113914e-05, ,0.19071288832897426,-0.23257010050727112,0.09469398450000001,1.751959477813201,0.608988879454568,-1.272047555669448, ,0.020815297556146254,0.01352386227140812,0.005320244328657315,-0.004392326463036387,0.01756743799464064,-0.01426596752867391, ,0.9331130981445312
0.010924538952024027,0.020863405672656803,-0.08350762729012821, ,0.011205229089391696,0.020695110348219813,-0.08381548110338957, ,0.00044931530107753046, ,0.002711002765505143,-1.9990626457619886e-05,-0.00511576365961534,-0.004295663128944513,-0.010397087222002487,0.00015803253284713226, ,0.00578972999722471, ,0.01124953958681845, ,4.471120891786269e-05, ,0.1909136793837041,-0.2324388140484093,0.09474453981000001,1.751959477813201,0.608988879454568,-1.272047555669448, ,0.021253514346801967,0.01460627082629995,0.0053291440347942465,-0.0042349664632377665,0.012488595669297718,-0.010124528843729398, ,0.94805908203125
0.01096238168791089,0.020863547324360927,-0.0835785927715275, ,0.01124198478860366,0.02069490872936429,-0.08388709838579508, ,0.00044921329418670273, ,0.0028899547143724407,0.00017714421491931798,-0.00557753815284866,-0.014035468702358852,-0.022094322442467052,0.0013099289817385938, ,0.006284278015053544, ,0.02617543620436627, ,4.50986736730651e-05, ,0.19120714323292465,-0.23223802299367946,0.09481842834000001,1.751959477813201,0.6091255159543335,-1.2721589735731444, ,0.02116817790731001,0.013483509741186527,0.005785983116600074,-0.004027003897681449,0.0,5.852180306440966e-05, ,0.9590821266174316
0.010987338168391642,0.020864067808649352,-0.08363097311357137, ,0.011278775990748472,0.020694627565191956,-0.08395854631595856, ,0.0004700534047586411, ,0.0026795924953720946,-3.2002706871021104e-05,-0.005450454095675801,-0.0019591297997816476,-0.0058695879004104804,-0.0007290455715806388, ,0.006073606009906358, ,0.006187911350595958, ,4.5520367886004325e-05, ,0.1914156570205287,-0.2320912910690692,0.09487416881,1.751959477813201,0.6095354254536298,-1.2724932272842338, ,0.02039040428845526,0.01564665153478496,0.005664584466571835,-0.003888177054708057,0.016270185137717233,-0.013209133727781968, ,0.9705140590667725
0.011013041471989234,0.020866077009793968,-0.08368892359280217, ,0.011315602387507897,0.020694267424965423,-0.08402982573227209, ,0.0004871097512200113, ,0.002533247213971156,0.0003492591718625505,-0.005857224416505218,0.03101616501701938,0.02668388154618469,-0.0035348507425314478, ,0.006391118938145935, ,0.04091493639051615, ,4.596710597348655e-05, ,0.191631893541007,-0.2319445591444589,0.09493639073000001,1.751959477813201,0.6100819714526916,-1.2729388988990196, ,0.020756111451983986,0.012876111473333892,0.006295972932806325,-0.003751618758871063,0.05097823361409182,-0.041511654558417425, ,0.9831500053405762
0.011039108959435696,0.020867980974927314,-0.08374752688875273, ,0.011352463671315543,0.020693828876700487,-0.08410093747102543, ,0.000503407556991785, ,0.0028287617424669416,0.00022762040462505212,-0.0064985035856986685,0.00283622127403277,-7.611039595984392e-05,-0.00473529079781876, ,0.007091139040914705, ,0.002837240264428235, ,4.6436394470704827e-05, ,0.19181723912998838,-0.2318132726855971,0.09499731636000001,1.7517497878697164,0.610218607952457,-1.2730503168027159, ,0.020084008795443548,0.015792468224075682,0.00678110324393359,-0.00020898631434614263,0.021162764024668018,-0.01719951906359269, ,0.9956331253051758
0.011114832035473808,0.020870903672473382,-0.08390416491235782, ,0.011389359535356436,0.020693312487166996,-0.08417188236640748, ,0.011393889673413374, ,0.003062224507131164,4.9121163874819076e-05,-0.006266859918907787,-0.014179979286464651,-0.018896596910307074,-0.0016117026910142545, ,0.006975182081066274, ,0.023625265663884575, ,6.907442157170105e-05, ,0.1921415939107058,-0.23158159069937037,0.09509713069,1.751540097926232,0.610218607952457,-1.2729686380625753, ,0.020994898574882917,0.014248790023794413,0.006051980060790275,-0.0018836139155931713,0.002588146794030269,-0.0018098142878857227, ,1.0077061653137207
0.011141919881800579,0.020872628316110132,-0.0839680153738094, ,0.011426289673565779,0.020692718821890096,-0.08424266125050915, ,0.00043435465021946174, ,0.002742398889961015,0.00038384475189516684,-0.00642349775804325,0.050495654647824906,0.047255799726235045,-0.015581393816854805, ,0.006994956176617801, ,0.06915867071555419, ,6.911447815276593e-05, ,0.19258951241741082,-0.23126495865152716,0.09522805598,1.7513304079827472,0.6110384269510497,-1.2734737880044729, ,0.023576879890303302,0.014855501183229614,0.006986320842105265,0.006148156387822211,0.07322951704910294,-0.05992784764378647, ,1.019733190536499
0.011169582372544857,0.020875454790748912,-0.08402815913569203, ,0.011463253780629144,0.020692048445151403,-0.08431327495332466, ,0.00044852180882981005, ,0.003084476215819579,0.00038783314436150937,-0.006747488430834752,0.015814489283667833,0.010063357353036716,-0.012004565255377637, ,0.007429199701049287, ,0.01874484511890158, ,6.918174443489956e-05, ,0.19279802620501488,-0.23112594945979112,0.09529157419,1.7513304079827472,0.6113116999505807,-1.2736966238118657, ,0.023356372522390048,0.015195667183101806,0.007155800323450135,0.006148156387822211,0.033766724421091625,-0.027748586347079027, ,1.0331730842590332
0.011199792683164197,0.020877877639563835,-0.08409075520878753, ,0.011500251551980452,0.020691301919989503,-0.08438372430275409, ,0.00045925692265289897, ,0.0031021753071346094,0.00018868416086971506,-0.0065858185794476845,-0.0005590154743421083,-0.0028156072349558143,-0.009882838575230184, ,0.007282314172717155, ,0.002870562664832646, ,6.926851546838384e-05, ,0.19300653999261894,-0.23097921753518086,0.09535638869000002,1.7513304079827472,0.6113116999505807,-1.2736966238118657, ,0.02264843473949183,0.016778101407084647,0.0068866457068741905,0.006148156387822211,0.019405772498057486,-0.01346765196743926, ,1.0454010963439941
0.01123638457600122,0.0208775408686835,-0.08415855394733847, ,0.011537282683803335,0.020690479808201805,-0.08445401012460436, ,0.0004613305369385449, ,0.0028301278515783317,-0.00015623759461245976,-0.004983805013014268,-0.006112727634022341,-0.009283275633685367,-0.009135225052582375, ,0.005733441047921904, ,0.011115063766978548, ,6.935729108805033e-05, ,0.1932768356432168,-0.23078614921332524,0.09542638835000002,1.7513304079827472,0.6113116999505807,-1.2736966238118657, ,0.02248209939788457,0.016235575972364545,0.005191920312907433,0.006148156387822211,0.012409833960740059,-0.007762933187647533, ,1.0569100379943848
0.01129330720067681,0.020873673044367484,-0.08426211342508179, ,0.011574346873028487,0.020689582670344746,-0.08452413324259289, ,0.0004260597939396789, ,0.0031112921338708804,-6.6993548916945e-05,-0.00565625820957802,-0.005125968183637858,-0.00898010375515674,-0.009437843746036081, ,0.006455841061496328, ,0.010340106744298153, ,6.93763238086096e-05, ,0.1937479223485445,-0.23044634896685937,0.09553527671,1.7513304079827472,0.6118582459496423,-1.2740606166865107, ,0.024345033750249045,0.017080083073878833,0.005910505202226346,0.006148156387822211,0.014693726087997397,-0.009430897632780842, ,1.0700230598449707
0.011325161938202967,0.020873402979814815,-0.08432442159669745, ,0.011611443817333648,0.020688611065735475,-0.08459409447834806, ,0.0004345443923530081, ,0.0029234210502560886,7.642528569727656e-05,-0.005792644891542747,0.029085187855409957,0.026657215365892117,-0.012878301130093256, ,0.006488988079885077, ,0.03945320363577571, ,6.941102295377345e-05, ,0.19403366346489082,-0.23026100337787797,0.09560268379,1.7513304079827472,0.6125414284484696,-1.2746177062049928, ,0.02513826266449557,0.016291320439222448,0.006236809522317934,0.006148156387822211,0.053116072960987824,-0.04076338030944964, ,1.0824341773986816
0.011353551093401616,0.020874622164737806,-0.08437877489067226, ,0.011648573215143702,0.020687565552452557,-0.08466389465141222, ,0.00045091186110064393, ,0.0031774474048993874,0.00015871496132555913,-0.006005525584615278,0.006669970564063568,0.001452393942490928,-0.010169807314161432, ,0.006796153323558784, ,0.006826268942679231, ,6.947564907643386e-05, ,0.1942498999853691,-0.23012199418614193,0.09565972055000001,1.7513304079827472,0.612678064948235,-1.2746474453685486, ,0.025278886936193606,0.015618324812124882,0.006368977017193124,0.006059186909358988,0.026702535970604936,-0.019141186685333336, ,1.094789981842041
0.011391437719110584,0.020874037216645547,-0.08444103072602328, ,0.011685734765628666,0.02068644668733701,-0.08473353457924279, ,0.0004553673927981475, ,0.003044136652456143,-0.00033802608052527585,-0.004909348636200857,-0.009914484689613152,-0.011693410600044262,0.0010345557109254398, ,0.005786426671246201, ,0.015330781300051185, ,6.954710269116399e-05, ,0.19454336383458962,-0.22992892586428632,0.09572453505,1.751540097926232,0.612678064948235,-1.2744840878882675, ,0.02529910465435105,0.017511891780489165,0.005121804347266882,-0.0035162330794753943,0.015124401028162574,-0.006542932197471344, ,1.1064260005950928
0.011423056345843017,0.020871639478399887,-0.08449448000791845, ,0.011722928168704155,0.020685255025993582,-0.08480301507721522, ,0.00046888822040100093, ,0.003252129122435314,-0.00017848906883583004,-0.005648647094425847,-0.022748236614883496,-0.025414894596620462,0.0022995373972849687, ,0.006520384664577031, ,0.03410863718610485, ,6.964179187328146e-05, ,0.19479821401943903,-0.22975130300817917,0.09578027552000001,1.751540097926232,0.6128147014480004,-1.2745138270518233, ,0.02468060898789877,0.01748607730946578,0.005828324742041714,-0.0035162330794753943,0.0,0.005451379666422216, ,1.118067979812622
0.011454525516720966,0.020869479666837453,-0.08455055578656108, ,0.011760153125030261,0.020683991122791512,-0.08487233695862413, ,0.0004809962137350083, ,0.0031887976118325323,-0.0001314507954339518,-0.005388212662324519,0.007734632025032941,-0.008574990664049152,-0.005259768837455554, ,0.0062624711748065845, ,0.011547943232863631, ,6.988322324486073e-05, ,0.1950685096700369,-0.22956595741919777,0.09583990486,1.751540097926232,0.6132246109472966,-1.274766402022772, ,0.02618569027551622,0.016523932014360226,0.0056746745707160675,-0.0035162330794753943,0.01952974307784092,-0.0243408305505427, ,1.1279029846191406
0.011462029911553496,0.020868345214999022,-0.08456593621276262, ,0.011797409336010558,0.020682655530865797,-0.08494150103468592, ,0.0005366646556360205, ,0.0026193232372133755,-9.838823887223924e-05,-0.00497677045470137,0.06227886561914018,0.049859596888810094,-0.006251980882829391, ,0.005624835875413861, ,0.07977867197232906, ,7.022060800055752e-05, ,0.19514573699877913,-0.22951962102195242,0.09585675663000001,1.7513304079827472,0.6134978839468276,-1.2749892378301648, ,0.025984923756426824,0.015485793335259594,0.005511699487889274,-0.008406236745623567,0.08211259937801166,-0.07537295350648399, ,1.1375501155853271
0.01151301356825182,0.020865776146956685,-0.08465707032883042, ,0.011834696503791962,0.020681248802118028,-0.08501050811454083, ,0.0005122972968685341, ,0.003209056523539272,-2.9647859331012194e-05,-0.006405840079232103,-0.014704253939531816,-0.005186952532047853,0.008964876916202022, ,0.007164754698350057, ,0.015592291355072117, ,7.050845488781779e-05, ,0.19558593277260994,-0.22924160263848034,0.09595397838000001,1.751120718039263,0.6141810664456548,-1.2753012911282253, ,0.024270317534135753,0.017754338925813056,0.006695591223203027,-0.00784415486710803,0.02179738341968472,-0.001447012373999846, ,1.1467320919036865
0.01155132611449769,0.020868948160466798,-0.08473172882897778, ,0.011872014331263605,0.02067977148721767,-0.08507935900525423, ,0.0005093873629489729, ,0.0038257465986752987,0.00039922087397012315,-0.007793298061342671,-0.031082173421472275,-0.016200046360752327,0.014755637255368293, ,0.008690869290031725, ,0.03505057742669986, ,7.078605681438394e-05, ,0.1958562284232078,-0.22907170251524742,0.09603175578,1.751120718039263,0.6141810664456548,-1.2751379336479443, ,0.02742686172210138,0.01663107983849821,0.008177007967145792,-0.00784415486710803,0.013370678438858604,0.0166458946417972, ,1.156365156173706
0.011588415646359434,0.020873300108318258,-0.0848102686070083, ,0.011909362522057317,0.020678224135602837,-0.08514805451181896, ,0.0005051344866863272, ,0.0038778708447951235,0.00036357361331250973,-0.008025557671564997,-0.022540968171561912,-0.01768507181952988,0.009100746942693862, ,0.00892074234583787, ,0.028650601705348545, ,7.105132734528641e-05, ,0.19612652407380565,-0.22890180239201446,0.09611471834000002,1.751120718039263,0.6144543394451857,-1.2750340544947747, ,0.027292764325128206,0.017615916383603263,0.008392419135932562,-0.007337330715648571,0.011690860890884582,0.005991389943464268, ,1.1659619808197021
0.011613358103607169,0.020876194912392086,-0.08486995523664398, ,0.011946740780544576,0.020676607295481587,-0.08521659543715782, ,0.0005207097605367476, ,0.003340460722739187,0.00044245267109296275,-0.00800904466597676,0.07751524994149431,0.06579249453319297,-0.010170574460890798, ,0.008689029788643339, ,0.10167234765381837, ,7.133907190843479e-05, ,0.1963350378614097,-0.22876279320027842,0.09617953284000001,1.751120718039263,0.6151375219440128,-1.2755094652731163, ,0.028800285753708885,0.01776763556608702,0.008756905728422212,-0.00697151999100127,0.10150137457838863,-0.0916112268882249, ,1.1786019802093506
0.011657556108822735,0.020881449453460987,-0.08497209790193792, ,0.011984148811838477,0.02067492151383273,-0.08528498258212504, ,0.0004972055979230472, ,0.0035884233534754146,0.00019655916157740997,-0.007458265561612798,0.025987272122271435,0.012911529224054835,-0.004697389190289196, ,0.008278957836304472, ,0.02901802674516453, ,7.158133094012593e-05, ,0.19669028357362403,-0.2285311112140517,0.09628971749000001,1.751120718039263,0.616093977442371,-1.2762077118588508, ,0.02796844726155932,0.01836241129227376,0.00792872649079144,-0.006430525358167525,0.04471233958011645,-0.043481174090289745, ,1.1878931522369385
0.01169365630156614,0.020882457106310346,-0.08503813787751927, ,0.012021586321791164,0.02067316733640707,-0.08535321674550835, ,0.0005006146212449552, ,0.003461694873783879,-0.00012036412139549107,-0.006099033428377502,-0.0034314262520402637,-0.008579203350096787,0.0017700523260536958, ,0.007013988001227769, ,0.009239989599898335, ,7.182527618208206e-05, ,0.19695285649134767,-0.22836121109081875,0.09635842086000002,1.751120718039263,0.616093977442371,-1.2762077118588508, ,0.02758632022048569,0.01802411045744934,0.006415147611759969,-0.006073664858357643,0.021440805291327445,-0.013899452963616766, ,1.1970951557159424
0.011730869267688127,0.020880281804953743,-0.08509941731510712, ,0.012059053016994156,0.020671345307728288,-0.08542129872403083, ,0.0005049422487692216, ,0.003660947246400516,-0.00014348943214602915,-0.006093291555691458,-0.010243728222074233,-0.017426392095953015,0.002126201748390678, ,0.007109945565243516, ,0.020214180690050015, ,7.20724217208258e-05, ,0.19723859760769397,-0.22816814276896313,0.09642193907,1.751120718039263,0.616093977442371,-1.2762077118588508, ,0.02917213082031072,0.01822137894747903,0.006394544969891611,-0.005744423259671072,0.01370760319061,-0.007640316513609375, ,1.2073311805725098
0.011762782141821613,0.0208783268372947,-0.08515261390302803, ,0.012096548604777841,0.02066945597109405,-0.08548922931235355, ,0.0005180125716014112, ,0.0036224298215746468,-0.0003030819849363662,-0.005840341086310915,-0.022541506069865356,-0.02930297416471167,0.002771759035730626, ,0.0068792034790575605, ,0.03697003900458466, ,7.233738048216578e-05, ,0.19749344779254338,-0.2279982426457302,0.09647767954000001,1.751120718039263,0.6162306139421364,-1.2763191297625474, ,0.028100959892943672,0.019128591324021525,0.0060427964795144165,-0.00547778305382584,0.0,0.0030278556277867187, ,1.2189350128173828
0.011772770380612,0.02087815917584362,-0.08516875021840789, ,0.012134072793209357,0.020667499868577122,-0.08555700930307672, ,0.000570667936644901, ,0.003691293266062351,-0.0003080003152397083,-0.00603541807839865,-0.02299475233466807,-0.029615747094440308,0.002543996799384262, ,0.007081439228809796, ,0.037494680994593584, ,7.268568220588923e-05, ,0.19757067512128562,-0.22795190624848485,0.09649453131,1.751120718039263,0.6162306139421364,-1.2763191297625474, ,0.02842928147347836,0.01970042382363936,0.006239252455934196,-0.005404954748494004,0.0,0.0029241632834500104, ,1.228456974029541
0.011838158726185898,0.020875748721173298,-0.08529459717126939, ,0.01217162529109351,0.020665477541026264,-0.0856246394867426, ,0.000514141856995348, ,0.00361779349613086,-0.00018655791229174357,-0.007041339221429823,0.02952643577357299,0.02713652029552258,7.001076156030469e-05, ,0.007918566263316319, ,0.040102383045538155, ,7.293479533971716e-05, ,0.19814988008685247,-0.2275889378033963,0.09663064176000001,1.7507013381522938,0.6175969789397908,-1.2774333087995113, ,0.03060204500434401,0.021460185788889818,0.0075349155723746465,-0.009628415187455481,0.06308912590764032,-0.04878804902443637, ,1.2377381324768066
0.011875676788713277,0.02087428401558649,-0.08536164684080536, ,0.012209205807971626,0.020663389528067396,-0.0856921206518366, ,0.0005147145143969512, ,0.0035075590061785095,-0.00021509295801791907,-0.006517945191413862,-0.007131752736846334,-0.008498287438776193,0.005444025346907353, ,0.0074049203021158815, ,0.011094267651702697, ,7.318076343430464e-05, ,0.19843562120319877,-0.22738814674866648,0.09670064142000001,1.7507013381522938,0.6177336154395563,-1.2773813692229266, ,0.026982354722340285,0.019807334910972817,0.006810094707139805,-0.009628415187455481,0.02169842754250086,-0.012475882003572959, ,1.2477540969848633
0.01191480116620748,0.02087181995732966,-0.0854280436672392, ,0.012246814054120146,0.020661236368104494,-0.08575945358478959, ,0.0005142086534100888, ,0.0040470523684853705,-0.0002209647852291564,-0.006954629329020237,-0.014385937098662045,-0.020758306197982357,0.005318725964556419, ,0.008049492369935069, ,0.025255938829243974, ,7.34219095094893e-05, ,0.19872908505241932,-0.2271796329610624,0.09676934479,1.7507013381522938,0.6177336154395563,-1.2772180117426455, ,0.0313708897713953,0.021027463230328114,0.007263479945280439,-0.009486293673196412,0.013384785711262115,-0.006956916680663701, ,1.257910966873169
0.011955218238679666,0.02087204918323965,-0.085502313223502, ,0.0122844497405516,0.02065901859832081,-0.08582663906998042, ,0.0005088837456921299, ,0.0040108498706525764,1.049509449585419e-05,-0.007339953197155822,-0.027233118452680158,-0.030786936337203523,0.007792796349076164, ,0.008364325422193964, ,0.04110326225963666, ,7.376956073348635e-05, ,0.19903027163451406,-0.22697884190633255,0.09684712219000001,1.7507013381522938,0.6178702519393217,-1.2772477509062015, ,0.028879166633740346,0.019260592969042173,0.007621440918660288,-0.008861219120561249,0.0,0.0073495860427758245, ,1.2661709785461426
0.011992772381789404,0.020872276705332697,-0.08557560061149891, ,0.012322112579011628,0.02065673675467981,-0.0858936778897373, ,0.0005060588807296684, ,0.00409377400130352,-1.1321080039585727e-05,-0.007356792638568625,-0.003269483512791186,-0.015310208709422294,0.0015638114394963159, ,0.008419115848323945, ,0.015655414131115052, ,7.410821344262875e-05, ,0.19932373548373458,-0.2267780508516027,0.09692489959000002,1.7507013381522938,0.618280161438618,-1.27750032587715, ,0.03131912262655801,0.01983217169456025,0.007736188207867897,-0.008330179881556859,0.018860203002374128,-0.01691635856436506, ,1.2740540504455566
0.012030621230580208,0.02087147480112937,-0.08564837129633425, ,0.012359802281980345,0.020654391371926248,-0.0859605708243398, ,0.0005029452506211561, ,0.0038878256106044964,-0.00021855552102271526,-0.00761686068830561,0.041914897611564396,0.03592190098720253,-0.005121482117829285, ,0.008554502980261164, ,0.05520182593614589, ,7.443757930682436e-05, ,0.19965581299732624,-0.22656181433112443,0.09700397328000002,1.7507013381522938,0.6190999804372107,-1.2781688332993286, ,0.03301911675660083,0.023448713011729867,0.008181207765793529,-0.007864961566162029,0.07451339610657737,-0.06262894720126101, ,1.2821431159973145
0.01207343231728571,0.020871673602391217,-0.08573030597031578, ,0.012397518562670969,0.02065198298358709,-0.08602731865202126, ,0.0005713067552948329, ,0.0038878256106044964,-0.00021855552102271526,-0.00761686068830561,0.041914897611564396,0.03592190098720253,-0.005121482117829285, ,0.008554502980261164, ,0.05520182593614589, ,7.487110773482362e-05, ,0.1999878905109179,-0.22633785507777193,0.09709082471000001,1.7507013381522938,0.6195098899365069,-1.2785030870104177, ,0.03301911675660083,0.020683727453895115,0.008785886111417542,-0.007436261462242901,0.024224778236798424,-0.009805075605104284, ,1.2900960445404053
0.01207343231728571,0.020871673602391217,-0.08573030597031578, ,0.012435261135028387,0.020649512121972722,-0.08609392214897059, ,0.0005590103237958382, ,0.004412955291042586,0.00014908585258565531,-0.008331255027137923,-0.009661946551345738,-0.011576398875838152,0.00490503808336906, ,0.00942900903167416, ,0.015078666451510223, ,7.527980992829848e-05, ,0.1999878905109179,-0.22633785507777193,0.09709082471000001,1.7507013381522938,0.6195098899365069,-1.2785030870104177, ,0.03301911675660083,0.020683727453895115,0.008785886111417542,-0.007436261462242901,0.024224778236798424,-0.009805075605104284, ,1.2983810901641846
0.012120143479116089,0.020873039567520006,-0.08581613674925169, ,0.01247302971372994,0.020646979318177945,-0.08616038208933419, ,0.0005423437886442977, ,0.004682347195884015,0.00014870332318778836,-0.009021506051536655,-0.01978392998256497,-0.021397903556755426,0.0051665135271706285, ,0.010165336166553593, ,0.029142307774460034, ,7.565731313476344e-05, ,0.20031996802450955,-0.22612161855729365,0.09718026872,1.7507013381522938,0.6195098899365069,-1.2784214082702772, ,0.033579951011490014,0.022354992122136815,0.009442093372851216,-0.007070021472845213,0.014380371497136257,-0.001774719794280415, ,1.3062090873718262
0.012165293075101058,0.020875179358980013,-0.08590733066219836, ,0.01251082401418369,0.020644385102082937,-0.08622669924521785, ,0.0005240743369979855, ,0.004613021461408872,0.0002140932509398278,-0.009117923228318245,-0.02616899824126584,-0.028141456204879248,0.00544072789519714, ,0.010220681333503272, ,0.038428608656342594, ,7.6001706734233e-05, ,0.20064432280522698,-0.22589765930394112,0.09727619418000001,1.7507013381522938,0.6197831629360379,-1.2786442440776702, ,0.03172749634184914,0.02170561334823211,0.009498396851520574,-0.006724397384809441,0.005252115675629355,0.004737110532310175, ,1.3142411708831787
0.012205236926519427,0.020875171681973288,-0.08599032816591416, ,0.012548643752527722,0.02064173000235439,-0.08629287438668913, ,0.000513767925855244, ,0.003932029752715797,-7.925123251092862e-05,-0.008187222903266948,0.03595155869707887,0.03623517420522214,-0.009985751182794312, ,0.009082827621499576, ,0.051044121949997925, ,7.632591245126285e-05, ,0.20095323212019597,-0.22568142278346284,0.09736434190000001,1.7504916482088093,0.6203297089350996,-1.2790082369523152, ,0.03160071313968391,0.023600333638018098,0.008761722508250826,-0.00028121061881018224,0.07147488205970744,-0.055035216867735444, ,1.3220460414886475
0.012205236926519427,0.020875171681973288,-0.08599032816591416, ,0.012586488645629834,0.020639014546446514,-0.08635890828177926, ,0.0005804949334800303, ,0.003932029752715797,-7.925123251092862e-05,-0.008187222903266948,0.03595155869707887,0.03623517420522214,-0.009985751182794312, ,0.009082827621499576, ,0.051044121949997925, ,7.674863331712303e-05, ,0.20095323212019597,-0.22568142278346284,0.09736434190000001,1.7504916482088093,0.6203297089350996,-1.2790082369523152, ,0.03160071313968391,0.023600333638018098,0.008761722508250826,-0.00028121061881018224,0.07147488205970744,-0.055035216867735444, ,1.3293581008911133
0.012245508603545943,0.02087091857109409,-0.08606957176588392, ,0.012624358411087482,0.02063623926060205,-0.08642480169648455, ,0.0005699033769349011, ,0.004226745773571133,-0.0003055337799385181,-0.007709759231076897,0.017985368818099985,0.016805358175123342,-0.004083285299456827, ,0.008797676859618133, ,0.02461490458396006, ,7.715002086470534e-05, ,0.20128530963378763,-0.22542657259861343,0.09744860075,1.7502819582653246,0.6210128914339268,-1.2794836477306568, ,0.03462128477142312,0.024502179591652667,0.008210727587628867,-0.003993510986017243,0.05502388948583512,-0.03934507806584024, ,1.337557077407837
0.012270147076475661,0.020869385665752613,-0.08611144941788194, ,0.01266225276722575,0.020633404669853295,-0.08649055539476938, ,0.0005942686638684698, ,0.0044688771664048365,-0.00038241022536790676,-0.007586647604312404,-0.0029544364513094798,-0.003210482730608852,-0.0005818691296890342, ,0.00881330372680413, ,0.0043630114571315635, ,7.758350884711755e-05, ,0.20147837795564325,-0.2252952861397516,0.09749267461000001,1.7502819582653246,0.6211495279336923,-1.2794317081540723, ,0.03594581119639045,0.024829131752608785,0.00801248064386318,-0.003993510986017243,0.03529511570371343,-0.019392662930199263, ,1.34660005569458
0.012270147076475661,0.020869385665752613,-0.08611144941788194, ,0.012700171433097531,0.02063051129802322,-0.08655617013856713, ,0.0006631428430232231, ,0.0044688771664048365,-0.00038241022536790676,-0.007586647604312404,-0.0029544364513094798,-0.003210482730608852,-0.0005818691296890342, ,0.00881330372680413, ,0.0043630114571315635, ,7.811564882846712e-05, ,0.20147837795564325,-0.2252952861397516,0.09749267461000001,1.7502819582653246,0.6211495279336923,-1.2794317081540723, ,0.03594581119639045,0.024829131752608785,0.00801248064386318,-0.003993510986017243,0.03529511570371343,-0.019392662930199263, ,1.3540129661560059
0.012360899696283345,0.020861846073683233,-0.08626023169661974, ,0.012738114128482839,0.020627559667726537,-0.0866216466877832, ,0.0005725396437919185, ,0.0048939148678478735,-0.0002492816106850323,-0.007709497701146332,-0.03347860669748478,-0.038122995222750464,0.003816676318165002, ,0.009135036883294385, ,0.050736375943927416, ,7.850556944087798e-05, ,0.20218114664719766,-0.22480875396867547,0.09764822941000001,1.7502819582653246,0.6214228009332231,-1.2794911864811838, ,0.03736100061357117,0.023270461392464633,0.008052988634984834,-0.003993510986017243,0.0,0.010949816982693875, ,1.361402988433838
0.012407262900843697,0.02085832238879749,-0.08634373387170197, ,0.01277608057388732,0.02062455030037059,-0.0866869858002966, ,0.0005554257391953691, ,0.004349820380837048,-0.00035444220374000865,-0.008744179891648413,0.04416014576394886,0.05258638958889239,-0.006427630058720899, ,0.009772781006389423, ,0.06866911090706972, ,7.898304560635968e-05, ,0.2025672832909089,-0.22453845831807762,0.09773767342,1.7502819582653246,0.6221059834320504,-1.2800482759996659, ,0.036696419782857995,0.028026267441958293,0.00941419120567376,-0.003993510986017243,0.09481227638519223,-0.06636323697915639, ,1.3675990104675293
0.012407262900843697,0.02085832238879749,-0.08634373387170197, ,0.012814070490543727,0.020621483716156425,-0.08675218823196108, ,0.000623233452496425, ,0.004349820380837048,-0.00035444220374000865,-0.008744179891648413,0.04416014576394886,0.05258638958889239,-0.006427630058720899, ,0.009772781006389423, ,0.06866911090706972, ,7.955701932950581e-05, ,0.2025672832909089,-0.22453845831807762,0.09773767342,1.7502819582653246,0.6221059834320504,-1.2800482759996659, ,0.036696419782857995,0.028026267441958293,0.00941419120567376,-0.003993510986017243,0.09481227638519223,-0.06636323697915639, ,1.3731400966644287
0.012453686844068602,0.020856783355722917,-0.0864354434923561, ,0.012852083600407955,0.020618360434080118,-0.08681725473660908, ,0.0006011200306631036, ,0.005022785278851487,-7.964391956057033e-05,-0.0093256847689926,0.013520776960185957,0.014577501439296781,-0.002237633224929163, ,0.01059259701499074, ,0.01988252718557075, ,8.00931864488469e-05, ,0.20294569720174588,-0.22426816266747976,0.09783619146000001,1.7502819582653246,0.622925802430643,-1.280635104681704, ,0.03975573588540879,0.026149611892662104,0.009955507200000002,-0.003993510986017243,0.05799765864651678,-0.03577381989837853, ,1.3798890113830566
0.012504247557499161,0.020854451364203292,-0.08652814088136289, ,0.01289011962616158,0.02061518097193329,-0.08688218606605169, ,0.0005757565169341838, ,0.005651904534879548,-9.750595198587301e-05,-0.010517268850186804,-0.022528499874144597,-0.023907524475512806,0.0027346598180491757, ,0.011940120449525388, ,0.03284970174058576, ,8.058726149684049e-05, ,0.2033241111125829,-0.22400558974975612,0.09793341321000001,1.7500722683218404,0.6231990754301738,-1.2807762617489562, ,0.04074578856095783,0.028782815152705726,0.011000560441988952,-0.006138496456683529,0.019030694560291994,-0.004852433373703722, ,1.38897705078125
0.012504247557499161,0.020854451364203292,-0.08652814088136289, ,0.01292817829120884,0.02061194584630455,-0.08694698297008183, ,0.0006433932611377013, ,0.005651904534879548,-9.750595198587301e-05,-0.010517268850186804,-0.022528499874144597,-0.023907524475512806,0.0027346598180491757, ,0.011940120449525388, ,0.03284970174058576, ,8.117616395526744e-05, ,0.2033241111125829,-0.22400558974975612,0.09793341321000001,1.7500722683218404,0.6231990754301738,-1.2807762617489562, ,0.04074578856095783,0.028782815152705726,0.011000560441988952,-0.006138496456683529,0.019030694560291994,-0.004852433373703722, ,1.394646167755127
0.012565823504634772,0.02085588745207495,-0.08664454039784328, ,0.012966259319677391,0.020608655572580674,-0.08701164619647636, ,0.0005968576979457943, ,0.005831268502893979,0.00011447831141006977,-0.010884464195632226,-0.030514977431034908,-0.0374399142018772,0.00288379568679966, ,0.012348617674162017, ,0.04830021604808287, ,8.169197301523823e-05, ,0.20375658415353948,-0.2237121259005356,0.09805526447000001,1.7500722683218404,0.6233357119299393,-1.280806000912512, ,0.040588939930911366,0.02719110073308618,0.011361491811697575,-0.005934457416745399,0.00460971624601319,0.003668739016599825, ,1.4001710414886475
0.012619848583548253,0.020854899339897807,-0.08674373431466935, ,0.013004362436417205,0.020605310664946915,-0.08707617649099667, ,0.0005662713221708394, ,0.005831268502893979,0.00011447831141006977,-0.010884464195632226,-0.030514977431034908,-0.0374399142018772,0.00288379568679966, ,0.012348617674162017, ,0.04830021604808287, ,8.215882679885034e-05, ,0.20416588899587337,-0.22343410751706352,0.09816026396000001,1.7500722683218404,0.6237456214292356,-1.2810585758834607, ,0.04223272877546541,0.029489416270500553,0.010858085562372189,-0.005626352463863275,0.02711780669447783,-0.01322251617591608, ,1.4058690071105957
0.012619848583548253,0.020854899339897807,-0.08674373431466935, ,0.013042487366999454,0.02060191163638891,-0.08714057459739287, ,0.0006325413262356068, ,0.005707909997652344,-0.00020017828597265253,-0.010339550335473282,-0.014498723599351329,-0.017614518436393577,0.0005150080461454521, ,0.011812138207253596, ,0.02281412123195101, ,8.271753135143942e-05, ,0.20416588899587337,-0.22343410751706352,0.09816026396000001,1.7500722683218404,0.6237456214292356,-1.2810585758834607, ,0.04223272877546541,0.029489416270500553,0.010858085562372189,-0.005626352463863275,0.02711780669447783,-0.01322251617591608, ,1.4117190837860107
0.012676711760796166,0.02085300303972183,-0.0868533792822545, ,0.013080633837716361,0.020598458998693343,-0.08720484125740395, ,0.0005928500932129336, ,0.005301775647348648,-0.00020222165421502833,-0.009809971933926239,0.04554354857491844,0.045865682527849,-0.009480700228942497, ,0.011152814351394591, ,0.0646364878353433, ,8.321421362688412e-05, ,0.20462925296832685,-0.22312519820209453,0.09827822635000001,1.749862578378356,0.6247020769275937,-1.2817568224691953, ,0.044427407096662354,0.029136303825136867,0.010626291874583057,-0.0021042720384504433,0.09539919012751094,-0.06867139820028943, ,1.418018102645874
0.012676711760796166,0.02085300303972183,-0.0868533792822545, ,0.01311880157558054,0.020594953262448756,-0.08726897721076035, ,0.0006593593330386045, ,0.005301775647348648,-0.00020222165421502833,-0.009809971933926239,0.04554354857491844,0.045865682527849,-0.009480700228942497, ,0.011152814351394591, ,0.0646364878353433, ,8.380204245350959e-05, ,0.20462925296832685,-0.22312519820209453,0.09827822635000001,1.749862578378356,0.6247020769275937,-1.2817568224691953, ,0.044427407096662354,0.029136303825136867,0.010626291874583057,-0.0021042720384504433,0.09539919012751094,-0.06867139820028943, ,1.4239540100097656
0.01273231800552605,0.02085152986785169,-0.08695236019571043, ,0.013156990308324188,0.02059139493704685,-0.0873329831951867, ,0.0006268098712680193, ,0.005877140516634879,-0.00019851542709126184,-0.010149240542904085,0.014764348112156376,0.0069889971552092684,-0.007173079852042961, ,0.011729760126481381, ,0.016334991543443034, ,8.433833351623457e-05, ,0.20507717147503185,-0.22283945708574823,0.09838452213000001,1.749862578378356,0.625385259426421,-1.2822322332475369, ,0.046770301408807675,0.029544502353197624,0.010850689046321525,-0.0021042720384504433,0.056987158163366754,-0.04059866195873256, ,1.4299871921539307
0.01273231800552605,0.02085152986785169,-0.08695236019571043, ,0.013195199764398072,0.02058778453068369,-0.08739685994640221, ,0.0006938307819197568, ,0.005877140516634879,-0.00019851542709126184,-0.010149240542904085,0.014764348112156376,0.0069889971552092684,-0.007173079852042961, ,0.011729760126481381, ,0.016334991543443034, ,8.496538299186908e-05, ,0.20507717147503185,-0.22283945708574823,0.09838452213000001,1.749862578378356,0.625385259426421,-1.2822322332475369, ,0.046770301408807675,0.029544502353197624,0.010850689046321525,-0.0021042720384504433,0.056987158163366754,-0.04059866195873256, ,1.4356751441955566
0.012797285491719074,0.0208497073515505,-0.08706554089356788, ,0.013233429672971506,0.02058412255036033,-0.08746060819812468, ,0.0006456277631835144, ,0.006454043876879915,-5.325108569583024e-05,-0.011298337993034618,-0.028561959339343176,-0.03231882133668329,0.008552098100085781, ,0.01301191605597225, ,0.04313109724765512, ,8.551882720462815e-05, ,0.20554825818035954,-0.22253827050365346,0.09849989194000001,1.7496528884348712,0.6256585324259518,-1.2822100328345079, ,0.04744847077923539,0.02982304888701156,0.011825398307349667,-0.010862423961166785,0.018434308079660764,-0.0008109798628925368, ,1.4416890144348145
0.012862712184483326,0.020848696367587394,-0.08718241192842814, ,0.013271679763931064,0.02058040950188424,-0.08752422868207042, ,0.000596716864533518, ,0.006468244655776921,-0.0001915025754722912,-0.011433316521861686,-0.00916613386506507,-0.006872586810155186,0.006137235370150685, ,0.0131375640379971, ,0.011456450764697873, ,8.599860207475457e-05, ,0.20602706761856146,-0.2222293611886845,0.09861915062000001,1.7496528884348712,0.6260684419252481,-1.282380929065316, ,0.04896643011273001,0.03215755389985455,0.012094769567198179,-0.010138288563477232,0.032666929681719366,-0.008529694229174219, ,1.4481761455535889
0.012862712184483326,0.020848696367587394,-0.08718241192842814, ,0.013309949767880544,0.020576645889870012,-0.08758772212795803, ,0.0006620493004846344, ,0.006468244655776921,-0.0001915025754722912,-0.011433316521861686,-0.00916613386506507,-0.006872586810155186,0.006137235370150685, ,0.0131375640379971, ,0.011456450764697873, ,8.668784552951564e-05, ,0.20602706761856146,-0.2222293611886845,0.09861915062000001,1.7496528884348712,0.6260684419252481,-1.282380929065316, ,0.04896643011273001,0.03215755389985455,0.012094769567198179,-0.010138288563477232,0.032666929681719366,-0.008529694229174219, ,1.4519081115722656
0.012924043641844981,0.02084620773110469,-0.08729209340908226, ,0.013348239416139556,0.02057283221774073,-0.0876510892635092, ,0.0006193175677567328, ,0.006163977460352197,-0.00023514837949331822,-0.01101568885749346,0.021855799285651113,0.02327809700960299,0.0008064532973211616, ,0.012625185697533872, ,0.03193032415432659, ,8.731328995686164e-05, ,0.20652904525538607,-0.22190500640796706,0.09873840930000001,1.7496528884348712,0.6268882609238408,-1.282967757747354, ,0.0491948893512031,0.03170629520830965,0.011772957516629714,-0.009443710443339682,0.08458267776847976,-0.05441600016919003, ,1.4564001560211182
0.012924043641844981,0.02084620773110469,-0.08729209340908226, ,0.013386548440743088,0.020568968987728843,-0.08771433081445178, ,0.0006848769497695055, ,0.006163977460352197,-0.00023514837949331822,-0.01101568885749346,0.021855799285651113,0.02327809700960299,0.0008064532973211616, ,0.012625185697533872, ,0.03193032415432659, ,8.802692683777883e-05, ,0.20652904525538607,-0.22190500640796706,0.09873840930000001,1.7496528884348712,0.6268882609238408,-1.282967757747354, ,0.0491948893512031,0.03170629520830965,0.011772957516629714,-0.009443710443339682,0.08458267776847976,-0.05441600016919003, ,1.460325002670288
0.01296578909065936,0.02084390655497627,-0.08736636260456034, ,0.01342487657444208,0.02056505670087692,-0.08777744750452046, ,0.000706307527318782, ,0.006403036858831403,-0.00041714011802718154,-0.011652558908820394,0.003974613306305906,0.014027531733019365,0.0036395392389444287, ,0.013302443986619556, ,0.01457974562946101, ,8.876647171036352e-05, ,0.2068842909676004,-0.22165787895599187,0.09882526073,1.7496528884348712,0.6274348069229025,-1.2833317506219992, ,0.049684262596058,0.03519916229913605,0.012395962272373542,-0.009002917547781342,0.06884259367907959,-0.034632669242398634, ,1.466655969619751
0.01296578909065936,0.02084390655497627,-0.08736636260456034, ,0.013463223550700301,0.02056109585703931,-0.08784044005545943, ,0.000743083011752254, ,0.006403036858831403,-0.00041714011802718154,-0.011652558908820394,0.003974613306305906,0.014027531733019365,0.0036395392389444287, ,0.013302443986619556, ,0.01457974562946101, ,8.955305038676342e-05, ,0.2068842909676004,-0.22165787895599187,0.09882526073,1.7496528884348712,0.6274348069229025,-1.2833317506219992, ,0.049684262596058,0.03519916229913605,0.012395962272373542,-0.009002917547781342,0.06884259367907959,-0.034632669242398634, ,1.4712181091308594
0.01296578909065936,0.02084390655497627,-0.08736636260456034, ,0.013501589103695784,0.02055708695488275,-0.08790330918702505, ,0.0008109616325006817, ,0.006403036858831403,-0.00041714011802718154,-0.011652558908820394,0.003974613306305906,0.014027531733019365,0.0036395392389444287, ,0.013302443986619556, ,0.01457974562946101, ,9.042941034755003e-05, ,0.2068842909676004,-0.22165787895599187,0.09882526073,1.7496528884348712,0.6274348069229025,-1.2833317506219992, ,0.049684262596058,0.03519916229913605,0.012395962272373542,-0.009002917547781342,0.06884259367907959,-0.034632669242398634, ,1.475234031677246
0.01296578909065936,0.02084390655497627,-0.08736636260456034, ,0.013539972968319105,0.020553030491887503,-0.08796605561698675, ,0.0008797316173671794, ,0.006403036858831403,-0.00041714011802718154,-0.011652558908820394,0.003974613306305906,0.014027531733019365,0.0036395392389444287, ,0.013302443986619556, ,0.01457974562946101, ,9.139603938859025e-05, ,0.2068842909676004,-0.22165787895599187,0.09882526073,1.7496528884348712,0.6274348069229025,-1.2833317506219992, ,0.049684262596058,0.03519916229913605,0.012395962272373542,-0.009002917547781342,0.06884259367907959,-0.034632669242398634, ,1.4790661334991455
0.01296578909065936,0.02084390655497627,-0.08736636260456034, ,0.013578374880173057,0.020548926964348454,-0.08802868006112968, ,0.0009491779188737806, ,0.006403036858831403,-0.00041714011802718154,-0.011652558908820394,0.003974613306305906,0.014027531733019365,0.0036395392389444287, ,0.013302443986619556, ,0.01457974562946101, ,9.245312330596486e-05, ,0.2068842909676004,-0.22165787895599187,0.09882526073,1.7496528884348712,0.6274348069229025,-1.2833317506219992, ,0.049684262596058,0.03519916229913605,0.012395962272373542,-0.009002917547781342,0.06884259367907959,-0.034632669242398634, ,1.4828650951385498
0.013119702021032633,0.020833186771997875,-0.08762805333269781, ,0.013616794575571987,0.020544776867375946,-0.08809118323325645, ,0.0007380857576555329, ,0.0070561066343920184,-0.001089348588729837,-0.01003648514378848,-0.04378259440607855,-0.04419494154083676,0.010039745983995096, ,0.01231691338059847, ,0.06221019473436441, ,9.321403047383777e-05, ,0.20807359183023097,-0.22087016020282096,0.09910266679000002,1.749233508547902,0.6285278989210261,-1.2838147001508677, ,0.05595338535287192,0.03771738535710285,0.010521011571994717,-0.011640488843514415,0.014817801500170513,0.007131252113173335, ,1.4870450496673584
0.013119702021032633,0.020833186771997875,-0.08762805333269781, ,0.013655231791540942,0.02054058069489717,-0.08815356584518917, ,0.0008053408298614502, ,0.0070561066343920184,-0.001089348588729837,-0.01003648514378848,-0.04378259440607855,-0.04419494154083676,0.010039745983995096, ,0.01231691338059847, ,0.06221019473436441, ,9.406301918291017e-05, ,0.20807359183023097,-0.22087016020282096,0.09910266679000002,1.749233508547902,0.6285278989210261,-1.2838147001508677, ,0.05595338535287192,0.03771738535710285,0.010521011571994717,-0.011640488843514415,0.014817801500170513,0.007131252113173335, ,1.4908161163330078
0.013119702021032633,0.020833186771997875,-0.08762805333269781, ,0.013693686265815283,0.020536338939656885,-0.08821582860677135, ,0.0008735309505887469, ,0.0070561066343920184,-0.001089348588729837,-0.01003648514378848,-0.04378259440607855,-0.04419494154083676,0.010039745983995096, ,0.01231691338059847, ,0.06221019473436441, ,9.500064560181977e-05, ,0.20807359183023097,-0.22087016020282096,0.09910266679000002,1.749233508547902,0.6285278989210261,-1.2838147001508677, ,0.05595338535287192,0.03771738535710285,0.010521011571994717,-0.011640488843514415,0.014817801500170513,0.007131252113173335, ,1.494732141494751
0.01319816027504681,0.020823695728204028,-0.08775683172303361, ,0.013732157736840021,0.02053205209321859,-0.08827797222587028, ,0.0008011221646702592, ,0.007813733530893272,-0.00030530087710172057,-0.014877002425330264,0.03760729411609674,0.06039684683423292,0.004171236722414347, ,0.016806928377328424, ,0.07114834467157154, ,9.583437121364327e-05, ,0.20870685592591737,-0.22042224169611596,0.09924007353000001,1.749233508547902,0.6293477179196186,-1.284319850092765, ,0.06235015871121602,0.042554682313215596,0.01605726967741936,-0.011640488843514415,0.13131331388020712,-0.07152421902724596, ,1.4985110759735107
0.01319816027504681,0.020823695728204028,-0.08775683172303361, ,0.013770645943768294,0.02052772064596565,-0.08833999740837883, ,0.0008691509113851645, ,0.007813733530893272,-0.00030530087710172057,-0.014877002425330264,0.03760729411609674,0.06039684683423292,0.004171236722414347, ,0.016806928377328424, ,0.07114834467157154, ,9.6756115661205e-05, ,0.20870685592591737,-0.22042224169611596,0.09924007353000001,1.749233508547902,0.6293477179196186,-1.284319850092765, ,0.06235015871121602,0.042554682313215596,0.01605726967741936,-0.011640488843514415,0.13131331388020712,-0.07152421902724596, ,1.5022711753845215
0.01319816027504681,0.020823695728204028,-0.08775683172303361, ,0.013809150626461668,0.020523345087102206,-0.08840190485821707, ,0.0009378907542287334, ,0.007813733530893272,-0.00030530087710172057,-0.014877002425330264,0.03760729411609674,0.06039684683423292,0.004171236722414347, ,0.016806928377328424, ,0.07114834467157154, ,9.776612722552837e-05, ,0.2093401200216038,-0.2200283823195305,0.09941896155,1.7490238186044176,0.6308507194170385,-1.285463768293285, ,0.06429332083907234,0.039622940107920994,0.018565048391608396,-0.01128716609113178,0.14868376383173035,-0.10228308689770965, ,1.5061590671539307
0.013279207337111427,0.02082692178074911,-0.08792166207907506, ,0.01384767152548952,0.020518925904654223,-0.08846369527733478, ,0.0008436900978294537, ,0.008359147713466767,0.0004916849813247874,-0.01711061201583216,0.07051258802382074,0.07492121926349478,-0.004564057852018545, ,0.0190496758023006, ,0.10288446286534993, ,9.864320143848965e-05, ,0.2093401200216038,-0.2200283823195305,0.09941896155,1.7490238186044176,0.6308507194170385,-1.285463768293285, ,0.06429332083907234,0.039622940107920994,0.018565048391608396,-0.01128716609113178,0.14868376383173035,-0.10228308689770965, ,1.5106801986694336
0.013279207337111427,0.02082692178074911,-0.08792166207907506, ,0.013886208382127545,0.020514463585470627,-0.08852536936571338, ,0.0009113412535310514, ,0.008359147713466767,0.0004916849813247874,-0.01711061201583216,0.07051258802382074,0.07492121926349478,-0.004564057852018545, ,0.0190496758023006, ,0.10288446286534993, ,9.960683821400123e-05, ,0.2093401200216038,-0.2200283823195305,0.09941896155,1.7490238186044176,0.6308507194170385,-1.285463768293285, ,0.06429332083907234,0.039622940107920994,0.018565048391608396,-0.01128716609113178,0.14868376383173035,-0.10228308689770965, ,1.5146770477294922
0.01337043095210794,0.020831404953582912,-0.08810147025426865, ,0.013924760938358033,0.020509958615224148,-0.08858692782136766, ,0.0008039145051272431, ,0.009540957584178222,0.0004713440862307329,-0.018738531776861897,0.013249267610647876,0.0044859683500567665,-0.0015257458756632743, ,0.021032941069265034, ,0.01398801965634036, ,0.00010042070204805136, ,0.21001199778166132,-0.21960363201144817,0.09961210876000001,1.7490238186044176,0.6319438114151621,-1.286028396562294, ,0.06744629819365372,0.04301765256503662,0.019960916691729325,-0.01128716609113178,0.07804778141822226,-0.05266453659839165, ,1.5186240673065186
0.01337043095210794,0.020831404953582912,-0.08810147025426865, ,0.013963328936867903,0.020505411478412783,-0.08864837134034784, ,0.0008700003242186282, ,0.009540957584178222,0.0004713440862307329,-0.018738531776861897,0.013249267610647876,0.0044859683500567665,-0.0015257458756632743, ,0.021032941069265034, ,0.01398801965634036, ,0.00010131890194083328, ,0.21001199778166132,-0.21960363201144817,0.09961210876000001,1.7490238186044176,0.6319438114151621,-1.286028396562294, ,0.06744629819365372,0.04301765256503662,0.019960916691729325,-0.01128716609113178,0.07804778141822226,-0.05266453659839165, ,1.5224931240081787
0.01337043095210794,0.020831404953582912,-0.08810147025426865, ,0.014001912121049285,0.02050082265836031,-0.088709700616742, ,0.0009370150983183928, ,0.010117368107781981,0.0006031966269567234,-0.020163298630953362,-0.044054379240770145,-0.03611649253275962,0.010294068620987242, ,0.022567312540046534, ,0.05696653430189316, ,0.00010230200407528674, ,0.21001199778166132,-0.21960363201144817,0.09961210876000001,1.7490238186044176,0.6319438114151621,-1.286028396562294, ,0.06744629819365372,0.04301765256503662,0.019960916691729325,-0.01128716609113178,0.03398560403557228,0.00312963118056153, ,1.5268690586090088
0.01346458175528723,0.020837362964556974,-0.08829128221143316, ,0.0140405102349991,0.020496192637217508,-0.0887709163426772, ,0.0008234923836043444, ,0.010117368107781981,0.0006031966269567234,-0.020163298630953362,-0.044054379240770145,-0.03611649253275962,0.010294068620987242, ,0.022567312540046534, ,0.05696653430189316, ,0.00010312829029084582, ,0.21064526187734772,-0.2191788817033658,0.09981303371000001,1.7490238186044176,0.6324903574142238,-1.2863107106967988, ,0.06654764485166254,0.04446904477903973,0.021238415360000002,-0.010350046146743078,0.03398560403557228,0.00312963118056153, ,1.5305709838867188
0.01346458175528723,0.020837362964556974,-0.08829128221143316, ,0.014079123023516348,0.02049152189596353,-0.08883201920832277, ,0.0008886301339070734, ,0.010117368107781981,0.0006031966269567234,-0.020163298630953362,-0.044054379240770145,-0.03611649253275962,0.010294068620987242, ,0.022567312540046534, ,0.05696653430189316, ,0.0001040369102020647, ,0.21064526187734772,-0.2191788817033658,0.09981303371000001,1.7490238186044176,0.6324903574142238,-1.2863107106967988, ,0.06654764485166254,0.04446904477903973,0.021238415360000002,-0.010350046146743078,0.03398560403557228,0.00312963118056153, ,1.534269094467163
0.013557016791916988,0.020838477973935687,-0.0884770541424739, ,0.01411775023210374,0.020486810914406444,-0.08889300990189085, ,0.0007817358284572546, ,0.009484236159991083,-0.0002482144474019759,-0.018169518380608454,-0.018805849457688203,-0.00427247940081465,0.01490884868732734, ,0.020497408229667717, ,0.01928502200722209, ,0.0001049381055720849, ,0.2112708032401599,-0.21873868592953502,0.10000877350000001,1.7486044387174484,0.6330369034132856,-1.2863479886108817, ,0.06701761409496525,0.048367452374348,0.0192144891676719,-0.0199023892203948,0.07009563491914175,-0.026096500880346332, ,1.536877155303955
0.013557016791916988,0.020838477973935687,-0.0884770541424739, ,0.014156391606965593,0.020482060171184643,-0.08895388910963946, ,0.0008447812763930181, ,0.009484236159991083,-0.0002482144474019759,-0.018169518380608454,-0.018805849457688203,-0.00427247940081465,0.01490884868732734, ,0.020497408229667717, ,0.01928502200722209, ,0.00010592063302337432, ,0.2112708032401599,-0.21873868592953502,0.10000877350000001,1.7486044387174484,0.6330369034132856,-1.2863479886108817, ,0.06701761409496525,0.048367452374348,0.0192144891676719,-0.0199023892203948,0.07009563491914175,-0.026096500880346332, ,1.5388290882110596
0.013557016791916988,0.020838477973935687,-0.0884770541424739, ,0.01419504689500767,0.020477270143767726,-0.08901465751587426, ,0.0009091594448258254, ,0.009484236159991083,-0.0002482144474019759,-0.018169518380608454,-0.018805849457688203,-0.00427247940081465,0.01490884868732734, ,0.020497408229667717, ,0.01928502200722209, ,0.0001069859364873033, ,0.2112708032401599,-0.21873868592953502,0.10000877350000001,1.7486044387174484,0.6330369034132856,-1.2863479886108817, ,0.06701761409496525,0.048367452374348,0.0192144891676719,-0.0199023892203948,0.07009563491914175,-0.026096500880346332, ,1.5407590866088867
0.013557016791916988,0.020838477973935687,-0.0884770541424739, ,0.014233715843837027,0.0204724413084574,-0.08907531580294986, ,0.0009745878419821405, ,0.009484236159991083,-0.0002482144474019759,-0.018169518380608454,-0.018805849457688203,-0.00427247940081465,0.01490884868732734, ,0.020497408229667717, ,0.01928502200722209, ,0.0001081350780839852, ,0.2112708032401599,-0.21873868592953502,0.10000877350000001,1.7486044387174484,0.6330369034132856,-1.2863479886108817, ,0.06701761409496525,0.048367452374348,0.0192144891676719,-0.0199023892203948,0.07009563491914175,-0.026096500880346332, ,1.5426511764526367
0.013557016791916988,0.020838477973935687,-0.0884770541424739, ,0.014272398201759436,0.020467574140389022,-0.08913586465127325, ,0.0010408513351061479, ,0.009484236159991083,-0.0002482144474019759,-0.018169518380608454,-0.018805849457688203,-0.00427247940081465,0.01490884868732734, ,0.020497408229667717, ,0.01928502200722209, ,0.00010936882974671292, ,0.2112708032401599,-0.21873868592953502,0.10000877350000001,1.7486044387174484,0.6330369034132856,-1.2863479886108817, ,0.06701761409496525,0.048367452374348,0.0192144891676719,-0.0199023892203948,0.07009563491914175,-0.026096500880346332, ,1.5445621013641357
0.013655146449568764,0.020833047270354305,-0.08865190179969099, ,0.014311093717781843,0.02046266911353188,-0.08919630473930396, ,0.0009294199042341521, ,0.009889858188944754,-0.0006720281714221597,-0.016696336947397108,0.043572238154463365,0.015206868168127536,-0.00960347645509517, ,0.019417223908727025, ,0.04614962058106391, ,0.00011045212046598298, ,0.21201218559608548,-0.2182367082927104,0.10019543926,1.7483947487739642,0.6339933589116437,-1.287046235196616, ,0.07702673827797953,0.049998388597719066,0.017917673250843646,-0.016285237995169257,0.10067616286712293,-0.09178841766527154, ,1.5467360019683838
0.013655146449568764,0.020833047270354305,-0.08865190179969099, ,0.014349802141608381,0.020457726700690952,-0.08925663674355777, ,0.000994543318729269, ,0.009889858188944754,-0.0006720281714221597,-0.016696336947397108,0.043572238154463365,0.015206868168127536,-0.00960347645509517, ,0.019417223908727025, ,0.04614962058106391, ,0.0006130927428367999, ,0.21201218559608548,-0.2182367082927104,0.10019543926,1.7483947487739642,0.6339933589116437,-1.287046235196616, ,0.07702673827797953,0.049998388597719066,0.017917673250843646,-0.016285237995169257,0.10067616286712293,-0.09178841766527154, ,1.5488450527191162
0.013655146449568764,0.020833047270354305,-0.08865190179969099, ,0.0143885232236417,0.020452747373507635,-0.08931686133860772, ,0.001060490779161975, ,0.009889858188944754,-0.0006720281714221597,-0.016696336947397108,0.043572238154463365,0.015206868168127536,-0.00960347645509517, ,0.019417223908727025, ,0.04614962058106391, ,0.000616311433745614, ,0.21201218559608548,-0.2182367082927104,0.10019543926,1.7483947487739642,0.6339933589116437,-1.287046235196616, ,0.07702673827797953,0.049998388597719066,0.017917673250843646,-0.016285237995169257,0.10067616286712293,-0.09178841766527154, ,1.5508050918579102
0.013655146449568764,0.020833047270354305,-0.08865190179969099, ,0.014427256714982541,0.020447731602460554,-0.08937697919708634, ,0.0011271023281385617, ,0.009889858188944754,-0.0006720281714221597,-0.016696336947397108,0.043572238154463365,0.015206868168127536,-0.00960347645509517, ,0.019417223908727025, ,0.04614962058106391, ,0.0006199599401341352, ,0.21201218559608548,-0.2182367082927104,0.10019543926,1.7483947487739642,0.6339933589116437,-1.287046235196616, ,0.07702673827797953,0.049998388597719066,0.017917673250843646,-0.016285237995169257,0.10067616286712293,-0.09178841766527154, ,1.5538430213928223
0.013655146449568764,0.020833047270354305,-0.08865190179969099, ,0.01446600236742666,0.020442679856867273,-0.0894369909896879, ,0.0011942525165507215, ,0.009889858188944754,-0.0006720281714221597,-0.016696336947397108,0.043572238154463365,0.015206868168127536,-0.00960347645509517, ,0.019417223908727025, ,0.04614962058106391, ,0.0006240329371299975, ,0.21201218559608548,-0.2182367082927104,0.10019543926,1.7483947487739642,0.6339933589116437,-1.287046235196616, ,0.07702673827797953,0.049998388597719066,0.017917673250843646,-0.016285237995169257,0.10067616286712293,-0.09178841766527154, ,1.5559229850769043
0.013766774347465104,0.02082581218258181,-0.0888437476559633, ,0.014504759933467773,0.020437592604884397,-0.08949689738516961, ,0.001059217510437558, ,0.011725105443882146,-0.0007230166571429481,-0.02066911360721255,0.05574842767625013,0.028197436225866384,-0.014495230189926234, ,0.02377421098721301, ,0.06247382512508341, ,0.0006270976172237126, ,0.2128771316779986,-0.2176575033271436,0.10040154937000001,1.7483947487739642,0.6352230874095326,-1.2879673175897433, ,0.08944103822664541,0.06055963086054293,0.022154118942976357,-0.016285237995169257,0.12732556748162108,-0.11295618270940971, ,1.5582540035247803
0.013766774347465104,0.02082581218258181,-0.0888437476559633, ,0.014543529166293768,0.020432470313509483,-0.0895566990503551, ,0.001125329092001124, ,0.011725105443882146,-0.0007230166571429481,-0.02066911360721255,0.05574842767625013,0.028197436225866384,-0.014495230189926234, ,0.02377421098721301, ,0.06247382512508341, ,0.0006305817534109673, ,0.2128771316779986,-0.2176575033271436,0.10040154937000001,1.7483947487739642,0.6352230874095326,-1.2879673175897433, ,0.08944103822664541,0.06055963086054293,0.022154118942976357,-0.016285237995169257,0.12732556748162108,-0.11295618270940971, ,1.5602350234985352
0.013766774347465104,0.02082581218258181,-0.0888437476559633, ,0.014582309819787014,0.020427313448581758,-0.0896163966501345, ,0.0011920091508913593, ,0.011725105443882146,-0.0007230166571429481,-0.02066911360721255,0.05574842767625013,0.028197436225866384,-0.014495230189926234, ,0.02377421098721301, ,0.06247382512508341, ,0.0006344805547823589, ,0.2128771316779986,-0.2176575033271436,0.10040154937000001,1.7483947487739642,0.6352230874095326,-1.2879673175897433, ,0.08944103822664541,0.06055963086054293,0.022154118942976357,-0.016285237995169257,0.12732556748162108,-0.11295618270940971, ,1.5621511936187744
0.013766774347465104,0.02082581218258181,-0.0888437476559633, ,0.0146211016485246,0.02042212247478285,-0.08967599084746826, ,0.001259154179330226, ,0.011725105443882146,-0.0007230166571429481,-0.02066911360721255,0.05574842767625013,0.028197436225866384,-0.014495230189926234, ,0.02377421098721301, ,0.06247382512508341, ,0.000638788648744758, ,0.2128771316779986,-0.2176575033271436,0.10040154937000001,1.7483947487739642,0.6352230874095326,-1.2879673175897433, ,0.08944103822664541,0.06055963086054293,0.022154118942976357,-0.016285237995169257,0.12732556748162108,-0.11295618270940971, ,1.5641000270843506
0.013766774347465104,0.02082581218258181,-0.0888437476559633, ,0.01465990440777703,0.020416897855638185,-0.08973548230338771, ,0.0013266811647225875, ,0.011725105443882146,-0.0007230166571429481,-0.02066911360721255,0.05574842767625013,0.028197436225866384,-0.014495230189926234, ,0.02377421098721301, ,0.06247382512508341, ,0.0006435002413199487, ,0.2128771316779986,-0.2176575033271436,0.10040154937000001,1.7483947487739642,0.6352230874095326,-1.2879673175897433, ,0.08944103822664541,0.06055963086054293,0.022154118942976357,-0.016285237995169257,0.12732556748162108,-0.11295618270940971, ,1.5659880638122559
0.013897617601930149,0.02082309195496622,-0.08907514336443233, ,0.01469871785350633,0.020411640053518296,-0.08979487167699822, ,0.0011528500007327402, ,0.013785268461138991,0.00025109118542979137,-0.025044961415122056,0.03553689065596457,-0.0007368874856496222,-0.011932135845373483, ,0.028589277108979627, ,0.03554439121582746, ,0.0006469652056696956, ,0.21384247328727668,-0.2170319619643314,0.10064914076,1.7483947487739642,0.6363161794076562,-1.2888586608193147, ,0.099368525192116,0.06059830240004519,0.026816181010101015,-0.015457365220593456,0.10712639242890266,-0.0933097413253096, ,1.5678770542144775
0.013897617601930149,0.02082309195496622,-0.08907514336443233, ,0.014737541742367603,0.02040634952963907,-0.08985415962548038, ,0.001219021388546746, ,0.013785268461138991,0.00025109118542979137,-0.025044961415122056,0.03553689065596457,-0.0007368874856496222,-0.011932135845373483, ,0.028589277108979627, ,0.03554439121582746, ,0.0006508304501485946, ,0.21384247328727668,-0.2170319619643314,0.10064914076,1.7483947487739642,0.6363161794076562,-1.2888586608193147, ,0.099368525192116,0.06059830240004519,0.026816181010101015,-0.015457365220593456,0.10712639242890266,-0.0933097413253096, ,1.5697720050811768
0.013897617601930149,0.02082309195496622,-0.08907514336443233, ,0.014776375831706903,0.02040102674406341,-0.08991334680409241, ,0.0012856671711266481, ,0.013785268461138991,0.00025109118542979137,-0.025044961415122056,0.03553689065596457,-0.0007368874856496222,-0.011932135845373483, ,0.028589277108979627, ,0.03554439121582746, ,0.0006550910992826755, ,0.21384247328727668,-0.2170319619643314,0.10064914076,1.7483947487739642,0.6363161794076562,-1.2888586608193147, ,0.099368525192116,0.06059830240004519,0.026816181010101015,-0.015457365220593456,0.10712639242890266,-0.0933097413253096, ,1.5716540813446045
0.013897617601930149,0.02082309195496622,-0.08907514336443233, ,0.014815219879560908,0.020395672155702108,-0.08997243386617171, ,0.001352705388925408, ,0.013785268461138991,0.00025109118542979137,-0.025044961415122056,0.03553689065596457,-0.0007368874856496222,-0.011932135845373483, ,0.028589277108979627, ,0.03554439121582746, ,0.0006597418612136269, ,0.21384247328727668,-0.2170319619643314,0.10064914076,1.7483947487739642,0.6363161794076562,-1.2888586608193147, ,0.099368525192116,0.06059830240004519,0.026816181010101015,-0.015457365220593456,0.10712639242890266,-0.0933097413253096, ,1.5735499858856201
0.013897617601930149,0.02082309195496622,-0.08907514336443233, ,0.014854073644656143,0.020390286222314938,-0.0900314214631379, ,0.0014200692820939523, ,0.013785268461138991,0.00025109118542979137,-0.025044961415122056,0.03553689065596457,-0.0007368874856496222,-0.011932135845373483, ,0.028589277108979627, ,0.03554439121582746, ,0.0006647771421466092, ,0.21384247328727668,-0.2170319619643314,0.10064914076,1.7483947487739642,0.6363161794076562,-1.2888586608193147, ,0.099368525192116,0.06059830240004519,0.026816181010101015,-0.015457365220593456,0.10712639242890266,-0.0933097413253096, ,1.5754330158233643
0.014046482585889131,0.02083010785172243,-0.08935506139004648, ,0.014892936886408395,0.020384869400511547,-0.0900903102444931, ,0.0012063635601547678, ,0.015390218489413751,0.0008548438848564339,-0.029941423430453962,0.02899989922511632,-0.006491473694830169,-0.018134218049993676, ,0.03367608083285683, ,0.02971715535020235, ,0.0006683402106861366, ,0.21488504222529697,-0.2164064206015192,0.10094858375000001,1.7481850588304795,0.6374092714057796,-1.2896683253087453, ,0.10428235336095688,0.0659923098459463,0.03192146597194389,-0.00978343826720762,0.10492175939083133,-0.09094936616061883, ,1.5773041248321533
0.014046482585889131,0.02083010785172243,-0.08935506139004648, ,0.014931809364922444,0.020379422145752633,-0.09014910085782593, ,0.0012717781990702881, ,0.015390218489413751,0.0008548438848564339,-0.029941423430453962,0.02899989922511632,-0.006491473694830169,-0.018134218049993676, ,0.03367608083285683, ,0.02971715535020235, ,0.0006722842498259024, ,0.21488504222529697,-0.2164064206015192,0.10094858375000001,1.7481850588304795,0.6374092714057796,-1.2896683253087453, ,0.10428235336095688,0.0659923098459463,0.03192146597194389,-0.00978343826720762,0.10492175939083133,-0.09094936616061883, ,1.5792210102081299
0.014046482585889131,0.02083010785172243,-0.08935506139004648, ,0.014970690840990536,0.020373944912350943,-0.09020779394881197, ,0.00133768394728813, ,0.015390218489413751,0.0008548438848564339,-0.029941423430453962,0.02899989922511632,-0.006491473694830169,-0.018134218049993676, ,0.03367608083285683, ,0.02971715535020235, ,0.0006766050270821506, ,0.21488504222529697,-0.2164064206015192,0.10094858375000001,1.7481850588304795,0.6374092714057796,-1.2896683253087453, ,0.10428235336095688,0.0659923098459463,0.03192146597194389,-0.00978343826720762,0.10492175939083133,-0.09094936616061883, ,1.5811161994934082
0.014046482585889131,0.02083010785172243,-0.08935506139004648, ,0.01500958107609282,0.020368438153472192,-0.0902663901612162, ,0.0014040006201126807, ,0.015390218489413751,0.0008548438848564339,-0.029941423430453962,0.02899989922511632,-0.006491473694830169,-0.018134218049993676, ,0.03367608083285683, ,0.02971715535020235, ,0.000681297901875896, ,0.21488504222529697,-0.2164064206015192,0.10094858375000001,1.7481850588304795,0.6374092714057796,-1.2896683253087453, ,0.10428235336095688,0.0659923098459463,0.03192146597194389,-0.00978343826720762,0.10492175939083133,-0.09094936616061883, ,1.5829989910125732
0.014046482585889131,0.02083010785172243,-0.08935506139004648, ,0.015048479832395214,0.020362902321136436,-0.09032489013689528, ,0.0014706621937175845, ,0.015390218489413751,0.0008548438848564339,-0.029941423430453962,0.02899989922511632,-0.006491473694830169,-0.018134218049993676, ,0.03367608083285683, ,0.02971715535020235, ,0.0006863579293877016, ,0.21488504222529697,-0.2164064206015192,0.10094858375000001,1.7481850588304795,0.6374092714057796,-1.2896683253087453, ,0.10428235336095688,0.0659923098459463,0.03192146597194389,-0.00978343826720762,0.10492175939083133,-0.09094936616061883, ,1.5849320888519287
0.014204093327559775,0.020833394106993516,-0.08966853503632027, ,0.015087386872750153,0.02035733786621876,-0.0903832945157996, ,0.0012319570385614655, ,0.016994477217387362,0.0006439185235712981,-0.03416393171653629,0.03438305720635018,0.010831244034224648,-0.0038707249495291474, ,0.03816282375937937, ,0.0360480780182155, ,0.000689833082949318, ,0.21595077936193996,-0.21568820644421632,0.10128173028000001,1.7475559890000258,0.6386389999036686,-1.2905894077018727, ,0.11351308798860141,0.07734062066705036,0.0363671495890411,-0.027416131373659447,0.13658097681810213,-0.10890584603308838, ,1.5870890617370605
0.014204093327559775,0.020833394106993516,-0.08966853503632027, ,0.015126301960695107,0.020351745238450496,-0.0904416039359747, ,0.001296182826306153, ,0.016994477217387362,0.0006439185235712981,-0.03416393171653629,0.03438305720635018,0.010831244034224648,-0.0038707249495291474, ,0.03816282375937937, ,0.0360480780182155, ,0.0006936707395528423, ,0.21595077936193996,-0.21568820644421632,0.10128173028000001,1.7475559890000258,0.6386389999036686,-1.2905894077018727, ,0.11351308798860141,0.07734062066705036,0.0363671495890411,-0.027416131373659447,0.13658097681810213,-0.10890584603308838, ,1.5890471935272217
0.014204093327559775,0.020833394106993516,-0.08966853503632027, ,0.0151652248604522,0.020346124886420243,-0.0904998190335638, ,0.0013609695811851942, ,0.016994477217387362,0.0006439185235712981,-0.03416393171653629,0.03438305720635018,0.010831244034224648,-0.0038707249495291474, ,0.03816282375937937, ,0.0360480780182155, ,0.0006978675876134231, ,0.21595077936193996,-0.21568820644421632,0.10128173028000001,1.7475559890000258,0.6386389999036686,-1.2905894077018727, ,0.11351308798860141,0.07734062066705036,0.0363671495890411,-0.027416131373659447,0.13658097681810213,-0.10890584603308838, ,1.5909171104431152
0.014204093327559775,0.020833394106993516,-0.08966853503632027, ,0.015204155336927051,0.02034047725757498,-0.09055794044280956, ,0.0014262303531031631, ,0.016994477217387362,0.0006439185235712981,-0.03416393171653629,0.03438305720635018,0.010831244034224648,-0.0038707249495291474, ,0.03816282375937937, ,0.0360480780182155, ,0.000702419854897734, ,0.21595077936193996,-0.21568820644421632,0.10128173028000001,1.7475559890000258,0.6386389999036686,-1.2905894077018727, ,0.11351308798860141,0.07734062066705036,0.0363671495890411,-0.027416131373659447,0.13658097681810213,-0.10890584603308838, ,1.5928411483764648
0.014204093327559775,0.020833394106993516,-0.08966853503632027, ,0.015243093155709684,0.020334802798220725,-0.09061596879605587, ,0.0014918929804667704, ,0.016994477217387362,0.0006439185235712981,-0.03416393171653629,0.03438305720635018,0.010831244034224648,-0.0038707249495291474, ,0.03816282375937937, ,0.0360480780182155, ,0.0007073234146838771, ,0.21595077936193996,-0.21568820644421632,0.10128173028000001,1.7475559890000258,0.6386389999036686,-1.2905894077018727, ,0.11351308798860141,0.07734062066705036,0.0363671495890411,-0.027416131373659447,0.13658097681810213,-0.10890584603308838, ,1.5948569774627686
