NicholasDascanio/dvrk_moveit_final/test/execution/third_experiment_notsharpbends/thirdexp_600vel4.0/thirdexp_600vel4.0_15.csv
Current Position (x),Current Position (y),Current Position (z), ,Planned Position (x),Planned Position (y),Planned Position (z), ,Position Error,,Cartesian linear Velocity(x),Cartesian linear Velocity(y),Cartesian linear Velocity(z),Cartesian Angular Velocity(x),Cartesian Angular Velocity(y),Cartesian Angular Velocity(z), ,Total Linear Velocity, ,Total Angular Velocity, ,MSE, ,Joint 1 Position,Joint 2 Position,Joint 3 Position,Joint 4 Position,Joint 5 Position,Joint 6 Position, ,Joint 1 Velocity,Joint 2 Velocity,Joint 3 Velocity,Joint 4 Velocity,Joint 5 Velocity,Joint 6 Velocity, ,Time Stamp
0.010016547838610298,0.019885829266763057,-0.07992236568041679, ,0.01013557667159597,0.01983855365793479,-0.07996398979989719, ,0.00013466778974399634, ,-1.7002154825393484e-05,3.970604082534612e-06,-1.1429108925788335e-06,0.1043376345586229,-0.0012875956086370356,-0.048921451528775604, ,1.7497005766566656e-05, ,0.10434557914804114, ,1.1222315811999695e-05, ,0.18899844163089644,-0.2311491176584138,0.09097492849000001,1.7507013381522938,0.6166405234414327,-1.2639931787518492, ,-0.00019180462284323747,-0.00014905207559446176,0.0,-0.0015894060459357966,0.0,-0.11603808456916997, ,0.01905202865600586
0.010021063329029982,0.01988789892071975,-0.07993003326531403, ,0.010146317328002212,0.019874135292248685,-0.08001144872038654, ,0.00015002159195225427, ,0.00018130600692532587,0.0002039866904854314,-0.0008200970264576607,0.22976617115668535,-0.0031635494737755916,-0.10937753878843129, ,0.000864315666204832, ,0.22978794888608908, ,1.2940426440738666e-05, ,0.18899844163089644,-0.23115684039128803,0.09098140994000001,1.7507013381522938,0.6162306139421364,-1.2666810384259608, ,0.0003171343004806581,-0.00017888196008980118,0.0008625310660615191,-0.0015894060459357966,0.0,-0.25525894621032696, ,0.040802001953125
0.01003041136595803,0.01989024284929648,-0.07993839031981835, ,0.010157266841753117,0.019909321593104934,-0.08005909846353089, ,0.0001761441630115323, ,0.0011744757006935977,0.0001515873065867764,-0.0008935154213966815,0.12860127969633203,-0.13327651811614263,-0.1036774105282791, ,0.0014834897004400267, ,0.18520507396045105, ,1.4401048272118216e-05, ,0.18899844163089644,-0.2311800085899107,0.09099178026000002,1.7504916482088093,0.6139077934461239,-1.2700143734321176, ,0.0003941179202308794,-0.000546226549749123,0.0002971098629886989,0.004377482472971743,-0.12386486950667018,-0.06665832348847256, ,0.05932188034057617
0.010050628813677612,0.01989487120087306,-0.07995894126111329, ,0.010168424256380836,0.019944114519949586,-0.08010693794148338, ,0.00019545763785508075, ,0.001158307275311892,0.00038605458350112707,-0.0012465814079685791,0.26010007810201796,-0.11527453801391385,-0.16354907464020188, ,0.001744900883195264, ,0.2845000346977028, ,1.5625980537211037e-05, ,0.18899844163089644,-0.23121862225428183,0.09101122461000001,1.7509110280957785,0.6121315189491732,-1.2744468099741848, ,0.000504394703178669,-0.0022051004514511627,0.0008783989628031664,0.0038244103373235583,-0.11727777493972309,-0.30247009812304176, ,0.0794839859008789
0.010076424966829504,0.019905031398041676,-0.07999147950678237, ,0.010179788617776589,0.01997851602782528,-0.08015496606867799, ,0.00020691034549290556, ,0.001903794126388598,0.0005992747413863975,-0.0021864727196129023,-0.007751895608614433,-0.19204513007726803,-0.061824238749019114, ,0.002960443420325222, ,0.19220151891145837, ,1.660002938568787e-05, ,0.18900616436377066,-0.2312417904529045,0.09102418751000001,1.7509110280957785,0.6104918809519879,-1.2767036596960124, ,-0.0002857217749966209,-0.003117760202528138,0.0015288022578687818,0.0038244103373235583,-0.20154983912295704,-0.017067806512981454, ,0.09777593612670898
0.01010080671862811,0.019922460097113164,-0.08004316070884371, ,0.010191358974187275,0.020012528067375475,-0.08020318176182778, ,0.0002047405373934431, ,0.000533048996384091,0.001024812622293698,-0.0028825089198654106,-0.17326971195947177,0.0032993365680472325,0.08203912688296323, ,0.003105356632733546, ,0.1733011214738917, ,1.7224872023374394e-05, ,0.18900616436377066,-0.23131129504877251,0.09107215024000001,1.751120718039263,0.6085789699552717,-1.2740819854224352, ,-0.00025695567017300683,-0.0037448815808340348,0.0030929731106796123,0.002851178223972642,0.0,0.19638578374484816, ,0.12133598327636719
0.010097601835104993,0.01994932497978487,-0.0801087409065669, ,0.010203134376213863,0.02004615258484891,-0.080251583939923, ,0.00020227910053612785, ,0.00019237530296096995,0.0009638908684410378,-0.0018543885740625236,-0.07408113008200728,0.02618239210032186,0.035113965202953165, ,0.002098773653128651, ,0.07857182376844991, ,1.764196063868528e-05, ,0.18899844163089644,-0.2314039678432632,0.09115122393000001,1.7513304079827472,0.6106285174517534,-1.2703624571286043, ,-1.25955847246394e-05,-0.0050235495035874985,0.0021548716883116885,0.012492708972303283,0.023197637273420908,0.09349366999813374, ,0.14038896560668945
0.010101076243142397,0.019958411189805042,-0.08013021749399143, ,0.010215113876808206,0.020079391522103293,-0.08030017152422914, ,0.00023775027884132918, ,0.0003063099903199606,0.0008244701500741608,-0.0019777429932782524,0.022911477862383487,0.01613338852874654,-0.015122116445190582, ,0.002164496289207802, ,0.028021813703394013, ,1.838989566861792e-05, ,0.18899071889802221,-0.23145030424050855,0.09117455715000002,1.7513304079827472,0.6106285174517534,-1.2698723846877609, ,0.00028464784950971974,-0.003139386233023051,0.0022123349333333336,0.012492708972303283,0.01436420714901755,-0.01730072215471115, ,0.1598670482635498
0.010110535655388093,0.01998035717846385,-0.08018064355187605, ,0.010227296531271178,0.02011224681660962,-0.08034894343828515, ,0.00024362436362671612, ,0.0004970816517142898,0.0008852942261642588,-0.0024049557507145117,0.008733505285121863,0.0005219693264068126,-0.005702827081515133, ,0.0026104881149404957, ,0.008749089464767712, ,1.9039084874493323e-05, ,0.18899844163089644,-0.23155069976787349,0.09123029762000001,1.751540097926232,0.6107651539515188,-1.2712906624337064, ,0.00040131124568756844,-0.003329201728903349,0.0025942689771986977,0.004287928152176918,0.0,-0.005183658511127936, ,0.17899489402770996
0.010122537438631063,0.020005499472558363,-0.08023263941683458, ,0.010239681397249675,0.020144720401456376,-0.08039789860790167, ,0.0002457962048450194, ,0.0005561300914060348,0.0012924098864142458,-0.0027611887466473663,-0.01990931978210311,0.003616873683109673,0.0009275852670143786, ,0.0030989945607697703, ,0.020235186909566997, ,1.9582274640180443e-05, ,0.18900616436377066,-0.23167426349386105,0.09128733438000002,1.751959477813201,0.6106285174517534,-1.2710975657898693, ,0.00017063882277978007,-0.006444375054982063,0.003043334260603745,0.014719409557138878,2.3646451415088513e-05,0.032050725725868714, ,0.2006089687347412
0.010133185364219886,0.02003261463565204,-0.08028498280371278, ,0.010252267534735092,0.02017681420535361,-0.08044703596115943, ,0.0002474576834029591, ,0.0005619146055181928,0.0014312477642927832,-0.002630790554806981,-0.0063614436438647224,0.002632271173848175,-0.004397024764090987, ,0.003047175270631701, ,0.006884534598701737, ,2.022387114145373e-05, ,0.18901388709664488,-0.231844163617094,0.09134566743000001,1.751959477813201,0.6106285174517534,-1.2706891720891667, ,0.0004961705211953192,-0.008421526804471903,0.00294923375671172,0.014719409557138878,-0.0005029832832078643,0.019115972376168848, ,0.21798205375671387
0.010143777940327751,0.02006376331830907,-0.08034035398380614, ,0.010265054006059416,0.020208530152636923,-0.08049635442840654, ,0.0002449519527502945, ,0.0006122509135637509,0.0017411164523740109,-0.0029358950778286706,0.02068960954830646,0.0018328895469975196,-0.01370893936200056, ,0.0034678260610800137, ,0.02077063858273845, ,2.0748347078763823e-05, ,0.18901388709664488,-0.23205267740469807,0.09140788935000001,1.751959477813201,0.6106285174517534,-1.270444135868745, ,0.00041104555376965884,-0.011298600018867814,0.003324042470784642,0.01273746030823638,-0.0006157710371763185,-0.00813720930094654, ,0.23522400856018066
0.010154722638874743,0.020098307725496097,-0.08039214131026846, ,0.010278039875894613,0.02023987016327187,-0.0805458529422579, ,0.00024264033165178716, ,0.0004604932392764277,0.0017012585689705297,-0.0023036382347681704,0.012365079646200056,0.003077507911733209,-0.011668863656393476, ,0.0029005316510255087, ,0.012742301579337121, ,2.1181720783747645e-05, ,0.1890216098295191,-0.23228435939092482,0.09146751869000001,1.75237885770017,0.6106285174517534,-1.270444135868745, ,0.0,-0.012416190181665676,0.002686140222596965,0.01579617550971899,-0.0006204129947098262,0.002918665875083805, ,0.2556178569793701
0.010158759381494251,0.020113972747861444,-0.0804132419232923, ,0.010291224211248165,0.020270836152857713,-0.08059553043759227, ,0.00027455812024860236, ,0.00043167651049221456,0.001708792794423153,-0.002160963384416137,0.012945828630331361,0.0027417642540551656,-0.010264804353503956, ,0.002788562384593622, ,0.013232979638146444, ,2.1789855806898903e-05, ,0.1890216098295191,-0.23240792311691238,0.09149214820000001,1.75237885770017,0.6106285174517534,-1.270444135868745, ,0.0,-0.012990683307114411,0.0025469797761432686,0.01429970705979125,-0.0006088829380986481,0.002598924111095521, ,0.27310705184936523
0.01016258588238613,0.02012873247098232,-0.0804312363208489, ,0.010304606081462737,0.020301430032632073,-0.08064538585155111, ,0.00030960330464241295, ,0.00042245186053841105,0.001703435385684643,-0.0020698329974141935,0.007593291719067809,0.0029266595329473207,-0.006218548176160917, ,0.002713736598282814, ,0.00813777703765989, ,2.2561927931935114e-05, ,0.18901388709664488,-0.23253148684289998,0.09151288884000001,1.75237885770017,0.6104918809519879,-1.2701693604847675, ,0.00017028082788765294,-0.013246362584934503,0.002459668239654108,0.01299402533783628,0.0,0.008632293918155485, ,0.29253697395324707
0.010174688423425738,0.020177188957273752,-0.08048811558688258, ,0.010318184558211622,0.020331653709474404,-0.0806954181235365, ,0.0002956769217812716, ,0.0003607723621267431,0.0017107894505664803,-0.0018414050200918758,-0.008522747456152713,0.0017422266176418712,0.011759479628763737, ,0.0025392380135512366, ,0.008698998664639863, ,2.315564312676752e-05, ,0.18901388709664488,-0.23292534621948544,0.09158029592000001,1.7525885476436547,0.6103552444522224,-1.2694045126599462, ,0.00017006673495773887,-0.014588307695383669,0.0022390794939555806,0.0025384031936426196,0.0010642884827414866,0.02598463596456594, ,0.3095998764038086
0.010188798657739083,0.02021776307964806,-0.08054872120022566, ,0.010331958715498288,0.020361509085910917,-0.08074562619520904, ,0.00028271769223652704, ,0.0007759241669443357,0.0020701154740255263,-0.003763357888877473,-0.010179412907514274,0.0036333094483402013,0.0024739010419840253, ,0.0043646648197111886, ,0.01080839414224828, ,2.3606048606134912e-05, ,0.18903705529526754,-0.23318791913720907,0.09165029558000001,1.753217617474108,0.6103552444522224,-1.2691594764395246, ,0.0006220298156294543,-0.012698640647460293,0.004230760031872511,0.012702696980954395,0.0010252450943325948,0.027818845986170685, ,0.32757997512817383
0.010207442178581046,0.020260396596721814,-0.0806351080433182, ,0.01034592762965214,0.020390998060117748,-0.08079600901048692, ,0.00024924703335316796, ,0.0008747702983502965,0.0018660040487121076,-0.004188980820347558,0.01241595949096392,-0.004573272797271551,0.017425524975751925, ,0.004668485246621814, ,0.013231435026846601, ,2.381750030669786e-05, ,0.18906022349389023,-0.23342732385631004,0.09174622104,1.7534273074175926,0.6103552444522224,-1.268914440219103, ,0.0011835644175428768,-0.010995709182362094,0.004603702751445087,-0.018226561110068807,0.0009319773703712691,-0.005342005733368042, ,0.346660852432251
0.010215623738743754,0.020278466357194092,-0.08067119579002657, ,0.0103600903793275,0.020420122525925927,-0.08084656551554276, ,0.0002677529103650546, ,0.0005322203970341883,0.0014882570563079186,-0.0022427515188744294,0.010130878126535852,0.00338309953638259,-0.011789714481304328, ,0.00350474449840694, ,0.011301480958985434, ,2.4109278490330507e-05, ,0.1890833916925129,-0.2336358376439141,0.09181492441000001,1.753217617474108,0.6103552444522224,-1.2688327614789625, ,0.0011739843566061716,-0.009983978854446397,0.002679813512786003,0.01585819145302164,0.0008540152467680013,0.0029619961744576633, ,0.36446404457092285
0.010226297818442628,0.02030602455422424,-0.08071802127173598, ,0.010374446045500241,0.02044888437282507,-0.08089729465880278, ,0.0002729391365513203, ,0.000507166674605969,0.0014713070124115725,-0.0020527634135342246,0.009567359430761504,0.0028189958034877498,-0.009780883413979504, ,0.0025760046569342663, ,0.00997402144478409, ,2.4400714063967725e-05, ,0.18909883715826134,-0.233736233171279,0.09183955392000001,1.753217617474108,0.6103552444522224,-1.268751082738822, ,0.001291326281651335,-0.010394475752016871,0.002402535674208145,0.01416991856137209,0.0008199166066503443,0.0037041623130437355, ,0.383944034576416
0.01023537600587821,0.02033492699339343,-0.08075865751455658, ,0.010388993711465736,0.02047728548596766,-0.08094819539094475, ,0.0002824693726118313, ,0.0005112248828733954,0.0012261303235746037,-0.0019501902764954614,-0.0017582773705132036,0.001433797999121131,-0.005787210231651368, ,0.0023596585697501925, ,0.0022687697075141327, ,2.4713465039271813e-05, ,0.189122005356884,-0.23392930149313462,0.09188751665000001,1.7536369973610773,0.6104918809519879,-1.2685357856819561, ,0.0014761875595766213,-0.007878461264081161,0.0022390794939555806,0.013441304129569074,-0.00038104527189570484,0.013186005322335154, ,0.40062499046325684
0.010245127317916752,0.020361450703730626,-0.08080854270297086, ,0.010403732462836282,0.020505327746173047,-0.08099926666489572, ,0.00028676091956408606, ,0.0006806884060951574,0.0014986358586663736,-0.0030988659983391008,-0.00305518837544156,0.0030042584924426766,-0.008793931767687859, ,0.003508876831513933, ,0.004284827279258632, ,2.5139556901711582e-05, ,0.189122005356884,-0.2340837561506191,0.09194325712000001,1.7538466873045617,0.6104918809519879,-1.2683724282016748, ,0.0008176065861451759,-0.0075716123161722,0.0034336735330890277,0.017375309705709854,-0.00040885539784305967,0.015081887388303138, ,0.41575002670288086
0.010256392491890177,0.020383475904388958,-0.08086071211326137, ,0.010418661387538764,0.020533013029931598,-0.08105050743583062, ,0.0002910580884973476, ,0.0008246399855823387,0.001743650503941435,-0.0039998989406067175,0.013347854588458523,0.0028380326193043533,-0.015382703930350513, ,0.004440668837099114, ,0.013646232089444987, ,2.555403447444732e-05, ,0.18913745082263247,-0.23419187441085826,0.09200029388000001,1.7538466873045617,0.6104918809519879,-1.2682090707213938, ,0.00048339488068179317,-0.007945521227182676,0.004379656728072588,0.01623545749694458,-0.0004297598857297215,-0.0029172069533948478, ,0.4324028491973877
0.010267337476470885,0.020401520485779614,-0.08090451446881061, ,0.010433779575812286,0.02056034320940898,-0.08110191666117059, ,0.00030314230243030677, ,0.0009541643993286798,0.0014878488056410462,-0.0035409342325387434,0.006838842825349949,-0.0002804322806900719,-0.011389818169544479, ,0.003957567309416037, ,0.006844590045958518, ,2.5992745703935e-05, ,0.18916834175412936,-0.23427682447247472,0.09204825661,1.7538466873045617,0.6104918809519879,-1.2681273919812532, ,0.0031302809894800795,-0.006326372099507985,0.0038907697899364926,0.013982607267147172,-0.00044017718094134343,0.0020742922669329446, ,0.44788694381713867
0.010283767583679973,0.020429823965206973,-0.08096721541366575, ,0.010449086120205195,0.020587320152450128,-0.08115349330058035, ,0.00029467731278186115, ,0.0007430053481405223,0.0012656169434016233,-0.002964289180254274,-0.0005885616399418937,-0.0014480435289731955,0.0005532292303831936, ,0.0033076961074081823, ,0.0015630849743167748, ,2.636500041273492e-05, ,0.1892069554185005,-0.23441583366421076,0.09211695998000001,1.7540563772480462,0.6103552444522224,-1.2680159740775567, ,0.002023568238676628,-0.00600901703062046,0.003254763285655906,0.0040468011250363875,-0.0004816509992470882,0.007937259984332935, ,0.46316099166870117
0.01029189898381824,0.020445292816050478,-0.08099857864726255, ,0.010464580115573306,0.02061394572258335,-0.08120523631596717, ,0.00031775771930926206, ,0.0008094242792230301,0.0015624071014019507,-0.0032770258455217523,0.007245822840939656,0.0010470688236438252,-0.011277860063250359, ,0.003719567448847315, ,0.00732108607966128, ,2.680831043766182e-05, ,0.18923012361712316,-0.234493060992953,0.09215195981,1.7542660671915309,0.6103552444522224,-1.2679342953374162, ,0.0019748400339697383,-0.007898249153100428,0.00363671495890411,0.014804000110311109,-0.0004816509992470882,0.003494304810556891, ,0.48177599906921387
0.010309969984642243,0.02047914512597775,-0.08107512657934421, ,0.010480260659076913,0.020640221779024522,-0.08125714467147871, ,0.00029677464147135024, ,0.0010442530509799993,0.0016684934147527261,-0.003973401010245977,0.003070182964981234,-0.0016675896536535032,-0.00409077340560087, ,0.004434213605339509, ,0.003493834240634503, ,2.7138865288947187e-05, ,0.1892687372814943,-0.23465523838331173,0.09223621866000001,1.7544757571350151,0.6103552444522224,-1.2676892591169946, ,0.0032658749995175245,-0.007498884840154892,0.0043628626458504524,0.008515615122016765,-0.0004816509992470882,0.006411142242950167, ,0.4965639114379883
0.01032609506254063,0.020507426315498435,-0.08113584742988318, ,0.01049612685017885,0.02066615017668119,-0.08130921733350097, ,0.000290105491841592, ,0.0007035881519490133,0.0012944602143169523,-0.002471699715634895,0.002184088214883779,-0.0013846852514429236,-0.0023607363612300845, ,0.0028774924879627645, ,0.0025860383763017095, ,2.7422890851320785e-05, ,0.18932279641161384,-0.2348096930407962,0.09230362574,1.7544757571350151,0.6103552444522224,-1.2675259016367133, ,0.002641682754315527,-0.007499904393164531,0.002782325156331878,0.007010110894280363,-0.0004816509992470882,0.007088772173636314, ,0.5136518478393555
0.010333049222309472,0.020519764156461805,-0.08115873592899261, ,0.010512177790641775,0.020691732766156837,-0.08136145327065679, ,0.0003205535326971341, ,0.0008021211905365429,0.001372668545679182,-0.002632405864946279,0.0017082787483229478,-0.0023182517564818987,-0.0013665663431828216, ,0.003075252506446963, ,0.00287967139826721, ,2.7804665967873872e-05, ,0.18935368734311075,-0.23488692036953845,0.09232955154000001,1.7544757571350151,0.6103552444522224,-1.267444222896573, ,0.003460943949547794,-0.007955389955115837,0.002968470279537831,0.0064703308259527305,-0.0004816509992470882,0.00800198882087612, ,0.5297589302062988
0.010350194386949762,0.020549185972600425,-0.08121163982611312, ,0.01052841258452534,0.02071697139375459,-0.0814138514538037, ,0.0003174952218100915, ,0.0008662134880185146,0.0016086848786391608,-0.003057097289036769,0.0005036490990391562,-0.005043477273593924,0.005578954695270282, ,0.00356146552422222, ,0.005068562434971065, ,2.8152863382039074e-05, ,0.18942319193897877,-0.23506454322564563,0.09238918088,1.7546854470785,0.610218607952457,-1.2671694475125952, ,0.003180374627709138,-0.009897022336058542,0.003435895496117343,0.0,-0.0020755804799203795,0.009894851865178455, ,0.5461158752441406
0.010359798405377929,0.020565629115761958,-0.08124390729641459, ,0.010544830338184253,0.020741867901481765,-0.08146641085603262, ,0.00033882851089117485, ,0.0010277409867894703,0.0015873540923820031,-0.0034353785964610912,-0.002046603944582678,-0.003177248118450292,-0.004832671441206671, ,0.00392145007000623, ,0.003779350848186381, ,2.8557153787145343e-05, ,0.1894618056033499,-0.2351494932872621,0.092425477,1.7548951370219843,0.610218607952457,-1.2670877687724547, ,0.004108582054791979,-0.007825637940841781,0.003815284196407186,0.011830495447739103,-0.0020755804799203795,0.01286598350421821, ,0.5626039505004883
0.01037706437578503,0.020598394112724436,-0.08131275225469321, ,0.010561430160265995,0.02076642412705392,-0.08151913045266512, ,0.0003237542104760669, ,0.0008692739159320962,0.0016584430540621195,-0.0037074299419510813,-0.002939054362553273,-0.0015600444227575154,-0.0005887272084228182, ,0.00415344523004243, ,0.0033274282030706856, ,2.8987202863416345e-05, ,0.18950814200059524,-0.23531939341049504,0.09250195811,1.7551048269654688,0.610218607952457,-1.266842732552033, ,0.0016297727570125633,-0.008186683136413516,0.004075949723643808,0.007735918816524977,-0.0019886239413412633,0.013429707020944667, ,0.5771348476409912
0.010397757892315233,0.020634427843609086,-0.08139377697893295, ,0.010578211161707514,0.020790641903898715,-0.0815720092212526, ,0.0003367027107629054, ,0.0010688390490108906,0.0017373396824284495,-0.004090196805022109,0.012061939200395265,-0.003487438887658137,-0.006623459536985096, ,0.004570610023688759, ,0.012555978899488675, ,2.944073605229428e-05, ,0.18956992386358903,-0.2355047389994764,0.09259140212000001,1.7551048269654688,0.610218607952457,-1.2665976963316115, ,0.0031655791597174207,-0.008035762945076573,0.004489518466741827,0.006396693113919085,-0.0018516407949238718,-0.0036012166151998776, ,0.5909209251403809
0.010408256515392952,0.02065197504932903,-0.08143506019246678, ,0.010595172455733753,0.02081452306116033,-0.08162504614157343, ,0.00031217636964022, ,0.0010193335430151032,0.0016968796880794995,-0.003670810372775803,0.0065841689877657065,-0.003843873702650461,-0.0030735393684478275, ,0.0041705263865141695, ,0.007624083265210888, ,2.9792031473731894e-05, ,0.18960081479508595,-0.2355896890610929,0.09263677227000001,1.7551048269654688,0.610218607952457,-1.266516017591471, ,0.003545211847602913,-0.008760435522756063,0.004069701461420542,0.0058826378760062,-0.0017895017056610823,0.0031596775169845824, ,0.6049900054931641
0.0104296604086848,0.020687034490157283,-0.08151085573795498, ,0.010612313157854556,0.020838069423703424,-0.08167824019563184, ,0.0002901570860798232, ,0.0010451899131814308,0.0016806253513893595,-0.0038935077517413814,-0.0025381887319144373,-0.0014885336152717522,-0.006341229084112105, ,0.004367645376998806, ,0.0029424706401006244, ,3.0056150780410535e-05, ,0.1896780421238282,-0.2357518664514516,0.09272103112,1.755524206852438,0.610218607952457,-1.2664343388513304, ,0.0032541113324816495,-0.00745918676296284,0.004284241936525013,0.013712450342435836,-0.001680000727623837,0.013454732013990838, ,0.6213209629058838
0.01044007812057432,0.02070534502858475,-0.08155060781000226, ,0.010629632385862627,0.020861282812117344,-0.0817315903676562, ,0.00030496245342174897, ,0.0010379569163846173,0.0017658926264354153,-0.004086770906973856,-2.272606167345849e-05,-0.0007819056656590494,-0.007801382849115674, ,0.004571370448176077, ,0.0007822351333696252, ,3.0355421027115834e-05, ,0.18970893305532507,-0.23583681651306806,0.09276510498000001,1.7557338967959226,0.610218607952457,-1.2662709813710493, ,0.0027172456055965903,-0.007863986742713146,0.004490784189455879,0.014340812061775385,-0.0016296782921601484,0.011244229277514672, ,0.634619951248169
0.010450403727758895,0.020723000543156716,-0.08159322737924336, ,0.01064712925983038,0.020884165042720056,-0.08178509564409593, ,0.0003185723810154386, ,0.001038610760279545,0.0016125574241886472,-0.004417107670219288,-0.005917494250170748,-0.006544274150157067,0.017512204996368883, ,0.0048155886377455916, ,0.008822939457558618, ,3.0683855806761745e-05, ,0.18973210125394777,-0.23590632110893608,0.09281177142000001,1.7559435867394069,0.610218607952457,-1.2662709813710493, ,0.0022799910869304367,-0.006810060346298373,0.004771962708208509,-0.012381559369194443,-0.0015834489156831225,0.011206532320807604, ,0.6478829383850098
0.010471825527422398,0.020755055823422925,-0.08167112160505044, ,0.010664802902108366,0.02090671792756265,-0.08183875501362145, ,0.00029722486545023926, ,0.0010666024890215251,0.0013966135950540465,-0.003686879968660799,-0.003140191518799914,-0.0085255941817799,0.015886487170710267, ,0.004084269127614996, ,0.009085513647885311, ,3.0933667548588737e-05, ,0.18980932858269,-0.23605305303354637,0.09289732656000001,1.7559435867394069,0.610218607952457,-1.2661076238907683, ,0.004291889586105615,-0.00630900285308072,0.004019382165026495,-0.012381559369194443,-0.0015007949144049024,0.007596504336384914, ,0.6635768413543701
0.010482710885424497,0.020770168464816302,-0.0817075873067628, ,0.010682652437321926,0.020928943274432874,-0.0818925674671209, ,0.0003152835613698256, ,0.0010148579226219132,0.0012347469739631954,-0.003199441259449761,-0.0038810679906675616,-0.008982015296256389,0.01591909734250716, ,0.003576445311407572, ,0.009784645481320036, ,3.12266879893297e-05, ,0.18985566497993533,-0.2361225576294144,0.09293751155,1.7559435867394069,0.610218607952457,-1.265944266410487, ,0.004792480370653002,-0.0058006504433471785,0.0035039180642322926,-0.012381559369194443,-0.0014570108840860688,0.007870075689444504, ,0.6765339374542236
0.010492522549205532,0.0207840445416389,-0.0817418138789928, ,0.010700676992370296,0.020950842886859913,-0.08194653199769888, ,0.00033624316841276926, ,0.0009815635582621095,0.0013455196646485422,-0.003481450081423232,-0.004031599019083568,-0.00789314824961001,0.016331989802796397, ,0.0038593244041290344, ,0.008863158547016402, ,3.1568712269816505e-05, ,0.18989427864430647,-0.2361843394924082,0.09297510396000001,1.7559435867394069,0.610218607952457,-1.2658625876703464, ,0.0037475342791123837,-0.006303068834598841,0.003798905680896733,-0.012381559369194443,-0.0014194535752867624,0.008588356408273377, ,0.6895608901977539
0.010514932613738318,0.020812889470547328,-0.08181904681532287, ,0.010718875696421883,0.020972418564118054,-0.08200064760067442, ,0.00031626121784100107, ,0.0013292747936635859,0.0016908250451387026,-0.004505046628610789,-0.002513155524942111,-0.004115164719251294,-0.003950215397273609, ,0.004992124391107968, ,0.004821880287135506, ,3.1840165922102216e-05, ,0.18998695143879715,-0.23630790321839576,0.09305936281,1.7557338967959226,0.610218607952457,-1.2656992301900651, ,0.005285014098286428,-0.005965719945195549,0.004913266971005552,0.009936857739291614,-0.0013535290417016,0.011086531621391565, ,0.7044079303741455
0.010529173604841121,0.020832511965784145,-0.08186738479855427, ,0.010737247680913213,0.020993672101230786,-0.08205491327357967, ,0.00032316302284727204, ,0.0013509089805719447,0.0017081636481438315,-0.004681743240953016,-0.0024994494413150526,-0.0033940960619694713,-0.006113347405982916, ,0.0051634773067032284, ,0.004215107749312656, ,3.2120282853366344e-05, ,0.19004101056891673,-0.23636968508138956,0.09311251070000001,1.7561532766828913,0.610218607952457,-1.265535872709784, ,0.005108888361347919,-0.005533218316537037,0.005090703585810164,0.012110096260923617,-0.001319467891500286,0.011048375351113002, ,0.7178130149841309
0.010542109476311914,0.020848941001126067,-0.08190997510868793, ,0.010755792079546994,0.021014605288975453,-0.08210932801615732, ,0.0003359263206574685, ,0.0011787135925353585,0.0014375256748728233,-0.0036448626246725533,-0.0017198506080117698,-0.004281765027032464,-0.004467940593216546, ,0.004091560747670878, ,0.004614260202601087, ,3.2513702148798405e-05, ,0.1900950696990363,-0.23642374421150913,0.09315917714000001,1.756362966626376,0.610218607952457,-1.265535872709784, ,0.005458664359984367,-0.005473600407953834,0.004004226123680242,0.009752464089064578,-0.0012879715873889313,0.00964557393496523, ,0.7298240661621094
0.010552875741091827,0.020863278326890715,-0.08194126702862763, ,0.010774508028288422,0.021035219913886637,-0.08216389083035891, ,0.00035811469833554806, ,0.0010118786218003746,0.0010371673315945056,-0.0029185170721009145,-0.0028108594133277203,-0.01249848654285654,0.02569978811849091, ,0.003258428504529137, ,0.01281066338218732, ,3.2954330487832884e-05, ,0.19014912882915588,-0.23648552607450293,0.09319417697000001,1.7565726565698605,0.610218607952457,-1.2654541939696435, ,0.0055378895432248425,-0.005024354624021499,0.003185762304000001,-0.024764180256604665,-0.0012577875530397067,0.0033457359200812437, ,0.7416520118713379
0.01057663583502855,0.020890120391107846,-0.08201075554658112, ,0.010793394665362978,0.021055517758260776,-0.08221860072034344, ,0.00034284150251298373, ,0.001246349992378865,0.0014159002451439675,-0.003828823801670929,-0.005376071314629854,-0.012489427388683404,0.025889643023890727, ,0.004268261181317677, ,0.01359735042036938, ,3.334027601864668e-05, ,0.19027269255514348,-0.2365936443347421,0.09327065808000001,1.7565726565698605,0.610218607952457,-1.2652908364893625, ,0.006208770264471065,-0.006620588302171002,0.004185184319495534,-0.022350345854907732,-0.0012035662143045369,0.00841893397910508, ,0.7556760311126709
0.01058989061822216,0.02090511578310044,-0.08205366647522493, ,0.010812451131254754,0.0210755006001601,-0.08227345669247485, ,0.00035619083009610664, ,0.0013971185869069533,0.0016442810184890088,-0.004441525862691984,-0.002849898053050598,-0.004133684803689041,-0.006715253839085126, ,0.004937889468447618, ,0.005020883113613058, ,3.374904348980958e-05, ,0.19033447441813728,-0.23665542619773589,0.09331732452000001,1.756362966626376,0.610218607952457,-1.2651274790090814, ,0.006182538671823253,-0.0053626479706227175,0.004850429817295981,0.0129218970221447,-0.0011778158426109058,0.011439782643650288, ,0.7667639255523682
0.010605635008792694,0.02092265132818448,-0.08210502722035529, ,0.010831676568703088,0.021095170213416763,-0.08232845775532097, ,0.00036163345603464796, ,0.0016208889594355892,0.0017652204552594866,-0.005164652114345828,-0.0028350771885928554,-0.005631578497547171,-0.005275034026256649, ,0.0056935854904184525, ,0.006304945310211265, ,3.415919605448945e-05, ,0.1904039790140053,-0.23670948532785543,0.09337306499,1.756362966626376,0.610218607952457,-1.2649641215288003, ,0.0072041105152770065,-0.0048043123807521805,0.005604789415904294,0.01084010834185679,-0.0011519652803843785,0.010396554980893109, ,0.7785830497741699
0.010637097620387092,0.02095721737364521,-0.08220451552848429, ,0.01085107012270084,0.021114528367637105,-0.08238360291965074, ,0.00032031745855000166, ,0.0014493972423636954,0.0016005845059609118,-0.004578425203022353,-0.00700587775019628,-0.006547901750051193,0.0067410007597871165, ,0.005062074719575354, ,0.00958943889741408, ,3.4451993725106365e-05, ,0.19053526547286712,-0.23680988085522037,0.09348065706000001,1.7565726565698605,0.6100819714526916,-1.264771024884963, ,0.00672125364537085,-0.005212832463989764,0.004983983579474344,9.211418989159584e-06,0.0,0.013426753092937796, ,0.7947189807891846
0.01065285062369433,0.020973989029853413,-0.08224799222181388, ,0.01087063094049125,0.02113357682820557,-0.08243889119843331, ,0.00033066440848903344, ,0.0014168300207551153,0.001513297396506224,-0.004035637147569065,-0.0036121329746120045,-0.004590168647579825,-0.004942400524379537, ,0.004536942087444453, ,0.005840988937591694, ,3.4761874840452354e-05, ,0.19062021553448358,-0.23686393998533994,0.09352861979,1.756782346513345,0.6100819714526916,-1.2646893461448228, ,0.0074352297181914705,-0.005016452116385691,0.004435759264828739,0.011476790997415633,0.0,0.011793879622519172, ,0.8056590557098389
0.010665994999577563,0.02098819995885537,-0.0822857297800034, ,0.010890358171565806,0.021152317356288718,-0.08249432160683523, ,0.0003475397866517776, ,0.0014173287992863511,0.0015807165432101397,-0.004022124358810533,-0.002027034606502763,-0.004866534897603334,-0.004311710596748121, ,0.0045480732264335565, ,0.005271814692581362, ,3.510416187889833e-05, ,0.1906897201303516,-0.23691799911545952,0.09357010107000001,1.756782346513345,0.6100819714526916,-1.2646893461448228, ,0.0074760457834314965,-0.00587190829430573,0.004439468093645486,0.010528004429242692,0.0,0.010775639710825619, ,0.8169338703155518
0.010677853440387073,0.02100022254208419,-0.08232015397325547, ,0.010910250967662162,0.021170751708839867,-0.08254989316221957, ,0.00036860399122071944, ,0.001521211788604643,0.0014963061326320878,-0.004145979963345215,-0.002486126462380466,-0.006055887619147895,-0.004110274560097285, ,0.004662849687133623, ,0.006546342369422595, ,3.548760610207145e-05, ,0.1907515019933454,-0.23695661277983063,0.09360769348,1.756782346513345,0.6100819714526916,-1.2646893461448228, ,0.008428411308313656,-0.004589470953573833,0.004551089005714286,0.009576831401059282,0.0,0.009695985791327476, ,0.8301270008087158
0.010710480006181439,0.021033634597093218,-0.08241371613223739, ,0.010930308482761067,0.021188881638602605,-0.08260560488414329, ,0.0003305260899244437, ,0.0014108187935090372,0.0014382349687447464,-0.00426290199822284,0.0013310020117781015,-0.006408364002285583,0.0003138159405941917, ,0.0047150040233165, ,0.006545127510858222, ,3.576894689946862e-05, ,0.19092140211657832,-0.23705700830719556,0.09370880410000001,1.7569920364568297,0.6100819714526916,-1.2645259886645415, ,0.006923401583005992,-0.004093203900171081,0.004627777896571762,0.002006655597201336,0.0,0.0033938629798475357, ,0.8438730239868164
0.010725749366703714,0.02104904864631791,-0.08245894184955117, ,0.010950529873083814,0.021206708894115234,-0.08266145579435574, ,0.00034116700840543804, ,0.0015513471462017473,0.0015289300704173219,-0.004481239796531859,-0.00025232931019946516,-0.007535353738780165,0.001314681636174643, ,0.004982551077738744, ,0.0075395771925352425, ,3.6067421727319155e-05, ,0.19099862944532056,-0.2371033447044409,0.09375935941,1.7569920364568297,0.6100819714526916,-1.2643626311842604, ,0.008078332738263595,-0.004472812876815271,0.004886138503067485,0.002006655597201336,0.0,0.005550988202782176, ,0.8573808670043945
0.010742809387595927,0.02106443484446916,-0.08250663242149536, ,0.010970914297090868,0.0212242352197149,-0.08271744491679671, ,0.00034929918098895436, ,0.0016833737861555304,0.0015560442516655993,-0.004736123382660617,-0.0023211550695772013,-0.008478832867354822,0.0020048075683027082, ,0.005261737898531417, ,0.008790811411161642, ,3.646127271182348e-05, ,0.19109130223981127,-0.23714195836881202,0.09381121101,1.7569920364568297,0.6100819714526916,-1.2642809524441199, ,0.009046148607231037,-0.004033708586593579,0.00515495518446602,0.002011016416378775,0.0,0.007364736752007401, ,0.8666820526123047
0.010755362997255763,0.021075832857309077,-0.08254112105603253, ,0.01099146091547818,0.02124146235554148,-0.08277357127759512, ,0.00037041660758957646, ,0.001782012224734747,0.001596360274006356,-0.0050753920566797015,-0.002551542265547322,-0.008867213445054384,0.0017925978133022443, ,0.005611019356813621, ,0.00922701679012315, ,3.6894706453829154e-05, ,0.1911608068356793,-0.2371728493003089,0.09384880342000002,1.7569920364568297,0.6100819714526916,-1.2642809524441199, ,0.009427953463973354,-0.0035286978199473703,0.0055040813821700075,0.0019995691263755217,0.0,0.007068416177434155, ,0.8766648769378662
0.010779772379379387,0.021098971835956177,-0.08261548374191025, ,0.011012168891175247,0.021258392037542047,-0.08282983390506558, ,0.00035407475455514055, ,0.002044859520506408,0.0019337414702320973,-0.006378048351327443,-0.0013592200640171104,-0.008367615010120757,-0.0009245642559767487, ,0.006971392063581835, ,0.008477290226569545, ,3.72810418121116e-05, ,0.19127664782879267,-0.23721146296468004,0.09392917340000001,1.757201726400314,0.6100819714526916,-1.2641175949638388, ,0.009507719284220433,-0.003556718131659966,0.006874756806214934,0.004503428510205804,0.0,0.006291148976401548, ,0.887462854385376
0.010798164144482208,0.02111678991692623,-0.08267516040017353, ,0.011033037389342687,0.021275025997474602,-0.08288623182970903, ,0.00035320708756303323, ,0.001828386474581852,0.0016596907460563687,-0.005635550237321234,-0.002901788890862365,-0.006540823878276076,-0.0005089943311866141, ,0.00615280399089313, ,0.00715560969375762, ,3.765672171864871e-05, ,0.19136932062328335,-0.23724235389617693,0.0939939879,1.757201726400314,0.610218607952457,-1.2641473341273946, ,0.008732667830337399,-0.002528463772805236,0.006070431219512196,0.004503428510205804,0.0010911052662380858,0.007048437035470654, ,0.8967249393463135
0.010818480117220131,0.021135640125247435,-0.08273499612153547, ,0.011054065577369772,0.02129136596291246,-0.08294276408420816, ,0.0003505974498817013, ,0.0020129063625301848,0.0018498971252541591,-0.006057557920286612,-0.001131727259061462,-0.006451591771237254,-0.005464405742023754, ,0.006645894925137259, ,0.006550101893512713, ,3.801822247875664e-05, ,0.19146971615064826,-0.23727324482767384,0.09405880240000002,1.7574114163437988,0.610218607952457,-1.2641473341273946, ,0.009869141846660759,-0.0031509639721440785,0.006546983773119607,0.009725078248493368,0.0010911052662380858,0.0068351902045066994, ,0.9065420627593994
0.010838448251707404,0.021152501421580514,-0.08279403757713598, ,0.011075252624871641,0.02130741365724818,-0.08299942970342773, ,0.00034965702831762094, ,0.0020944318324419213,0.0018240569502572675,-0.006326559303732085,-0.005593954934139155,-0.006916673185302258,-0.003370208800116789, ,0.006909354606775287, ,0.00889565566004713, ,3.836968925391928e-05, ,0.1915701116780132,-0.2372964130262965,0.09412232061,1.7574114163437988,0.610218607952457,-1.264065655387254, ,0.010208595884236605,-0.002138930923891223,0.006810094707139805,0.008984967848982995,0.0010911052662380858,0.010523690171382397, ,0.9191708564758301
0.010846381984036427,0.021159883698048786,-0.08281803624522982, ,0.011096597703687365,0.02132317079969802,-0.08305622772441179, ,0.00038210700684538414, ,0.0021690668588070657,0.0018343240497351065,-0.006160286456711909,-0.0029105995269627363,-0.008266971723533897,-0.0040468568768585594, ,0.006783710266967474, ,0.008764382591626858, ,3.878419592184038e-05, ,0.19160872534238432,-0.23731185849204495,0.09414824641000001,1.7574114163437988,0.610218607952457,-1.2639839766471135, ,0.011464288578408866,-0.0026938873776823835,0.006661987252195735,0.008717035512492533,0.0010911052662380858,0.008101797998211015, ,0.9305720329284668
0.010885001665525054,0.021190265002686223,-0.08292233085118202, ,0.01111809998787728,0.021338639105305535,-0.0831131571863816, ,0.0003358040982734001, ,0.0020200327723342,0.0014480079173426123,-0.005215271734952385,-0.009839754798357286,-0.00883725262607513,-0.0009223077508130691, ,0.005777224125770468, ,0.013225649496741824, ,3.9089978505168396e-05, ,0.1918249618628626,-0.2373581948892903,0.09426102364000001,1.7574114163437988,0.610218607952457,-1.2637389404266917, ,0.011851046725722706,-0.001007078767117646,0.00563851735221239,0.007624557899733476,0.0010911052662380858,0.013714983946315672, ,0.9401710033416748
0.010904190443154188,0.021203102406707384,-0.08297038085003083, ,0.011139758653720095,0.021353820284946097,-0.08317021713073412, ,0.0003437190709508661, ,0.0017862409380226308,0.0011619184505370088,-0.004314295337264161,0.0091600777653315,-0.008540063270220676,-0.009939611378441697, ,0.004811845324977266, ,0.012523565939124882, ,3.940611747835608e-05, ,0.19194080285597595,-0.23736591762216452,0.09431287524000001,1.7574114163437988,0.610218607952457,-1.2636572616865511, ,0.011152184321541025,-0.0003336324169819471,0.004671205724340177,0.007128378148471357,0.0010911052662380858,-0.008145605452678329, ,0.9502639770507812
0.010922365916040847,0.02121601208126533,-0.08301315857716304, ,0.011161572879711364,0.021368716045331065,-0.0832274066010407, ,0.00035558499384160633, ,0.0019230938069631758,0.0013454428515799987,-0.004506960756921856,0.01267894680238411,-0.009837936574780994,-0.01023836769864263, ,0.0050814566338483564, ,0.016048074221148862, ,3.9740620445549805e-05, ,0.19205664384908933,-0.23738908582078722,0.09435954168,1.7574114163437988,0.610218607952457,-1.2635755829464106, ,0.012311486969184066,-0.0018555194506879413,0.004919336479308216,0.0066999323158885475,0.0010829896178233128,-0.01047447104764104, ,0.9601879119873047
0.010936305749735522,0.021225592144062024,-0.08304657257144867, ,0.011183541846560207,0.021383328089011316,-0.08328472464304366, ,0.0003777866131920778, ,0.0021065806315202643,0.0015071411405516522,-0.005350252469578052,0.009574340248742687,-0.011697765662290754,-0.003052733957641437, ,0.005944271011895882, ,0.015116405270584485, ,4.019841151544495e-05, ,0.1921415939107058,-0.23738908582078722,0.09439583780000001,1.757621106287283,0.610218607952457,-1.2635755829464106, ,0.012605863650168808,-0.0017265039604448748,0.005794402153510367,0.0,0.001068991859404015,-0.00855634364898794, ,0.9717738628387451
0.010972858552225757,0.021254329462390132,-0.08314278888063478, ,0.011205664737186915,0.02139765811438215,-0.08334217030465635, ,0.0003383707648170647, ,0.002124581812605751,0.0015419632774323387,-0.0054852844842017,0.007261227752282631,-0.00852959689204223,-0.013559920179458335, ,0.006081105532715982, ,0.011201760872531646, ,4.056682877427334e-05, ,0.1923578304311841,-0.23741225401940988,0.09450083729000001,1.7580404861742522,0.6103552444522224,-1.2636053221099666, ,0.012337399809499503,-0.0009852682393782929,0.005997293493975904,0.012764970448217327,0.0008774043786242532,-0.0042510172429730785, ,0.9805388450622559
0.010972858552225757,0.021254329462390132,-0.08314278888063478, ,0.011227940736720834,0.021411707815686687,-0.08339974263595974, ,0.0003947912097662702, ,0.002124581812605751,0.0015419632774323387,-0.0054852844842017,0.007261227752282631,-0.00852959689204223,-0.013559920179458335, ,0.006081105532715982, ,0.011201760872531646, ,4.104527300198769e-05, ,0.1923578304311841,-0.23741225401940988,0.09450083729000001,1.7580404861742522,0.6103552444522224,-1.2636053221099666, ,0.012337399809499503,-0.0009852682393782929,0.005997293493975904,0.012764970448217327,0.0008774043786242532,-0.0042510172429730785, ,0.9889328479766846
0.010995142054934483,0.021269435317932604,-0.08319522734228445, ,0.011250369032497872,0.021425478883020595,-0.08345744068920176, ,0.00039780176417795234, ,0.0023173286515536726,0.0014111834315525958,-0.005479267927574371,0.0021382560195486603,-0.016833036991313582,0.010068601834859704, ,0.006114231577144037, ,0.01696830186604915, ,4.152204988396729e-05, ,0.19249683962292014,-0.2374199767522841,0.09455787405,1.7582501761177367,0.6103552444522224,-1.2636053221099666, ,0.014853176014786473,-0.0009187651460420572,0.005921491271375466,-0.011768429379497744,0.0008774043786242532,-0.003655170368309886, ,0.9963219165802002
0.011019780716423405,0.02128502210663313,-0.08325396094575631, ,0.01127294881405822,0.021438973002335843,-0.08351526351879424, ,0.0003950620187058488, ,0.0023881962635096637,0.0013830529192697025,-0.005984190794743748,0.00015732120610913348,-0.016483379213035984,0.00988567201851776, ,0.006589905631982735, ,0.016484129718263674, ,4.19855596393721e-05, ,0.19265129428040462,-0.23742769948515832,0.09462139226,1.7582501761177367,0.6103552444522224,-1.2636053221099666, ,0.014508017361025954,0.0007887316312444688,0.0064099845150905445,-0.011768429379497744,0.0008774043786242532,-0.0033193687268257273, ,1.0042660236358643
0.011044179584337222,0.02130053374544647,-0.08331812848878274, ,0.01129567927314298,0.0214521918554448,-0.08357321018131227, ,0.00038899735945297355, ,0.002633261212939989,0.001821958275758453,-0.007124225338043717,0.00166635629955762,-0.016721237920508343,0.010328759291904329, ,0.007810773536686556, ,0.016804062680171043, ,4.242944542430279e-05, ,0.19279030347214066,-0.2374199767522841,0.09469009563000001,1.7582501761177367,0.6103552444522224,-1.2636053221099666, ,0.014749291507378111,-0.0009760515586447116,0.007647053058089295,-0.011768429379497744,0.0008774043786242532,-0.003074097853128769, ,1.013037919998169
0.011073235192417333,0.02132096114391144,-0.08339927019215705, ,0.011318559603692508,0.02146513712002451,-0.08363127973549152, ,0.00036715011514901495, ,0.002954629659789611,0.0021477305766809157,-0.008520316658633401,-0.003289876000263539,-0.017189326984049267,0.012524555689517162, ,0.009270295519556238, ,0.017501319989027424, ,4.2822736925202803e-05, ,0.19294475812962514,-0.2374199767522841,0.09477694706,1.7582501761177367,0.6103552444522224,-1.263687000850107, ,0.015288696883916672,-0.0007497463939247571,0.009112592402745997,-0.011768429379497744,0.0008774043786242532,0.0021618131237609362, ,1.0213520526885986
0.011073235192417333,0.02132096114391144,-0.08339927019215705, ,0.011341589001844411,0.02147781046962086,-0.08368947124222659, ,0.000425243609559256, ,0.002954629659789611,0.0021477305766809157,-0.008520316658633401,-0.003289876000263539,-0.017189326984049267,0.012524555689517162, ,0.009270295519556238, ,0.017501319989027424, ,4.332461965614835e-05, ,0.19294475812962514,-0.2374199767522841,0.09477694706,1.7582501761177367,0.6103552444522224,-1.263687000850107, ,0.015288696883916672,-0.0007497463939247571,0.009112592402745997,-0.011768429379497744,0.0008774043786242532,0.0021618131237609362, ,1.0287549495697021
0.011101671431813445,0.021341388542376428,-0.0834804906433967, ,0.011364766665929539,0.02149021357365236,-0.08374778376456933, ,0.00040350167877604954, ,0.002885693066860907,0.0019702395985998654,-0.007840188349563133,-0.0008227474125010368,-0.01794537638784876,0.011268313585455663, ,0.008583566968844918, ,0.01796422604464501, ,4.377599847997473e-05, ,0.19309149005423543,-0.2374199767522841,0.09486379849000001,1.7582501761177367,0.6103552444522224,-1.2636053221099663, ,0.016005556005813926,-0.000615378420368391,0.008405705287598946,-0.011768429379497744,0.0008774043786242532,-0.0007154644383323235, ,1.0363750457763672
0.011128814866549269,0.021360653287539205,-0.08355342049707978, ,0.011388091796470963,0.021502348097414577,-0.08380621636772703, ,0.00038885434001890463, ,0.0026478776101010854,0.0016577811330212224,-0.0067972854375267155,-0.0010623324741133198,-0.017163460822123864,0.011113933677061651, ,0.007480814356892471, ,0.01719630550925978, ,4.41918551844475e-05, ,0.19325366744459413,-0.23742769948515832,0.09494287218000001,1.7582501761177367,0.6104918809519879,-1.2637167400136629, ,0.015618324812124882,0.0,0.007296752872194229,-0.011768429379497744,0.0012956302704646492,-0.0010564996099037282, ,1.0440590381622314
0.011158299936869894,0.021379211384435333,-0.0836295854330466, ,0.011411563596180592,0.021514215702084123,-0.08386476811905993, ,0.0003710519407194973, ,0.0026478776101010854,0.0016577811330212224,-0.0067972854375267155,-0.0010623324741133198,-0.017163460822123864,0.011113933677061651, ,0.007480814356892471, ,0.01719630550925978, ,4.456692182533883e-05, ,0.19325366744459413,-0.23742769948515832,0.09494287218000001,1.7582501761177367,0.6104918809519879,-1.2637167400136629, ,0.015618324812124882,0.0,0.007296752872194229,-0.011768429379497744,0.0012956302704646492,-0.0010564996099037282, ,1.05206298828125
0.011158299936869894,0.021379211384435333,-0.0836295854330466, ,0.011435181269958048,0.02152581804472298,-0.08392343808808006, ,0.0004295418120783842, ,0.0029887781388535286,0.0018158839310955808,-0.007509353176167591,-0.0013491178794060527,-0.01939236505052782,0.010750190244113911, ,0.008283756052595839, ,0.019439236544336238, ,4.513475492822245e-05, ,0.19342356756782708,-0.2374199767522841,0.09502453845000002,1.7582501761177367,0.6104918809519879,-1.2636350612735223, ,0.017932150710217455,0.00028927078349381497,0.008065221022784811,-0.011412049338117342,0.0012956302704646492,-0.0009817200316482506, ,1.058743953704834
0.01119836617171777,0.021403602307975618,-0.08372573490900953, ,0.01145894402488596,0.021537156778282062,-0.08398222534644952, ,0.00038926206930387235, ,0.0028632069959476265,0.001601979026130763,-0.006602163999410007,-0.002909912229953575,-0.01957894264393361,0.010259785351906062, ,0.007372439255559305, ,0.019794003427720364, ,4.561921638722857e-05, ,0.19367069501980225,-0.2374199767522841,0.09512824165000001,1.7582501761177367,0.6104918809519879,-1.2635533825333818, ,0.018480417051308817,0.0002837230674753494,0.007123797638640431,-0.009991081769416717,0.0012956302704646492,0.0010416919598114126, ,1.0665898323059082
0.01119836617171777,0.021403602307975618,-0.08372573490900953, ,0.011482851070229875,0.02154823355160605,-0.0840411289679777, ,0.0004486906133940711, ,0.0028632069959476265,0.001601979026130763,-0.006602163999410007,-0.002909912229953575,-0.01957894264393361,0.010259785351906062, ,0.007372439255559305, ,0.019794003427720364, ,4.6210929791844096e-05, ,0.19367069501980225,-0.2374199767522841,0.09512824165000001,1.7582501761177367,0.6104918809519879,-1.2635533825333818, ,0.018480417051308817,0.0002837230674753494,0.007123797638640431,-0.009991081769416717,0.0012956302704646492,0.0010416919598114126, ,1.0722410678863525
0.011226141506605253,0.021419736250573976,-0.08379128718514778, ,0.011506901617434428,0.021559050009436947,-0.08410014802862027, ,0.00044003361675204033, ,0.003016440843485861,0.00171298770153792,-0.007009509452153163,-0.0013769819718650424,-0.0188671646435919,0.009319542166953569, ,0.007820899244185057, ,0.018917345588580183, ,4.6779610598214873e-05, ,0.19385604060878364,-0.23741225401940988,0.09519953760000001,1.7582501761177367,0.6106285174517534,-1.2636648004370783, ,0.019426190697742228,0.0002652143957757049,0.007570727908745247,-0.009143064536598307,0.0028404720173577334,-0.00022370705675730206, ,1.0777950286865234
0.011257331046654105,0.021439761112244878,-0.08387356029779232, ,0.011531094880120798,0.021569607792418465,-0.08415928160647713, ,0.0004164654404666073, ,0.0034340313878744046,0.002376953949038015,-0.00938096654697707,0.008631297598416531,-0.010709825105318099,-0.005765453985499104, ,0.010268642315528227, ,0.013754983801100788, ,4.729767177771199e-05, ,0.19405683166351348,-0.23741225401940988,0.09528898161,1.7580404861742522,0.6109017904512842,-1.2637242787641898, ,0.019090110955234517,0.0002538972228445272,0.010094303878326997,0.0046878853484865445,0.007727793180101771,-0.007669829496739689, ,1.0840659141540527
0.011257331046654105,0.021439761112244878,-0.08387356029779232, ,0.011555430074085006,0.021579908537100054,-0.08421852878179015, ,0.0004769775527218723, ,0.0034340313878744046,0.002376953949038015,-0.00938096654697707,0.008631297598416531,-0.010709825105318099,-0.005765453985499104, ,0.010268642315528227, ,0.013754983801100788, ,4.792282949672082e-05, ,0.19419584085524952,-0.23741225401940988,0.09536546272000002,1.7580404861742522,0.6110384269510497,-1.2637540179277458, ,0.020756111451983986,0.0002350759371813427,0.011008162764340015,0.0046878853484865445,0.014702888899023684,-0.010333987139503469, ,1.093724012374878
0.011282211292569304,0.021457765355085222,-0.0839444021351271, ,0.01157990641729511,0.021589953875941068,-0.08427788863694206, ,0.0004661646052891065, ,0.003690518152577463,0.0025943019037771927,-0.010205462174683605,0.012021891083428266,-0.005749898775707065,-0.005067107941831213, ,0.011158036780784671, ,0.013326180639953476, ,4.85209670046966e-05, ,0.19419584085524952,-0.23741225401940988,0.09536546272000002,1.7580404861742522,0.6110384269510497,-1.2637540179277458, ,0.020756111451983986,0.0002350759371813427,0.011008162764340015,0.0046878853484865445,0.014702888899023684,-0.010333987139503469, ,1.1007518768310547
0.011318163994230697,0.021481806679780672,-0.08404251708455945, ,0.011604523129888585,0.021599745437314702,-0.08433736025645377, ,0.0004276021528431627, ,0.003570593609307958,0.0025414370732630234,-0.009964419938941439,0.005886330153791543,-0.004833358779399811,-0.0018689915772060483, ,0.010885665153758876, ,0.007616438901233661, ,4.904133462799748e-05, ,0.19438890917710513,-0.23740453128653566,0.09547046221000001,1.7580404861742522,0.6110384269510497,-1.2637540179277458, ,0.019869543877401755,0.00012077666578216682,0.010748185910931175,0.004428879762208921,0.014702888899023684,-0.003477195883912752, ,1.1086509227752686
0.011318163994230697,0.021481806679780672,-0.08404251708455945, ,0.011629279434169996,0.02160928484551243,-0.08439694272698305, ,0.0004885294624834139, ,0.003570593609307958,0.0025414370732630234,-0.009964419938941439,0.005886330153791543,-0.004833358779399811,-0.0018689915772060483, ,0.010885665153758876, ,0.007616438901233661, ,4.9667766662124855e-05, ,0.19438890917710513,-0.23740453128653566,0.09547046221000001,1.7580404861742522,0.6110384269510497,-1.2637540179277458, ,0.019869543877401755,0.00012077666578216682,0.010748185910931175,0.004428879762208921,0.014702888899023684,-0.003477195883912752, ,1.1142868995666504
0.011372229686816074,0.021519278943972188,-0.0841812135025104, ,0.011654174554608765,0.021618573720747946,-0.08445663513732275, ,0.00040645963894622435, ,0.0035508083799783955,0.0023357277730087504,-0.009079824887481559,0.011729345690596514,-0.0072953511127535975,-0.006469319709561647, ,0.01002532215782908, ,0.013813024161035444, ,5.013757749964283e-05, ,0.19470554122494835,-0.23740453128653566,0.09562083185,1.7584598660612214,0.6111750634508152,-1.263702078351161, ,0.021460185788889818,0.00012077666578216682,0.009838672958616432,0.00609792899730098,0.013470855910722649,-0.009773353843761115, ,1.1198229789733887
0.011372229686816074,0.021519278943972188,-0.0841812135025104, ,0.01167920771783597,0.021627613679160954,-0.0845164365783983, ,0.00046727554717213574, ,0.0035508083799783955,0.0023357277730087504,-0.009079824887481559,0.011729345690596514,-0.0072953511127535975,-0.006469319709561647, ,0.01002532215782908, ,0.013813024161035444, ,5.0804850939957105e-05, ,0.19470554122494835,-0.23740453128653566,0.09562083185,1.7584598660612214,0.6111750634508152,-1.263702078351161, ,0.021460185788889818,0.00012077666578216682,0.009838672958616432,0.00609792899730098,0.013470855910722649,-0.009773353843761115, ,1.1236319541931152
0.01140780598319954,0.021540895542460553,-0.08426853016169936, ,0.011704378152643097,0.021636406332822048,-0.0845763461432666, ,0.0004379817818952564, ,0.0037185291354510427,0.002186447841056582,-0.008585024425652435,-0.007702120040792722,-0.014120077157634555,0.001092771809216186, ,0.009607843539624706, ,0.016084128370098153, ,5.1414220650129826e-05, ,0.19492950047830085,-0.23739680855366144,0.09571546102,1.7584598660612214,0.6113116999505807,-1.263731817514717, ,0.024079406637521134,0.0004424482094782779,0.00932600206088993,0.005947246820253051,0.008814757155934477,0.010623276940794478, ,1.1276249885559082
0.01140780598319954,0.021540895542460553,-0.08426853016169936, ,0.011729685089977735,0.02164495328973591,-0.08463636292711385, ,0.0004997350472608719, ,0.0037185291354510427,0.002186447841056582,-0.008585024425652435,-0.007702120040792722,-0.014120077157634555,0.001092771809216186, ,0.009607843539624706, ,0.016084128370098153, ,5.213065856702624e-05, ,0.19492950047830085,-0.23739680855366144,0.09571546102,1.7584598660612214,0.6113116999505807,-1.263731817514717, ,0.024079406637521134,0.0004424482094782779,0.00932600206088993,0.005947246820253051,0.008814757155934477,0.010623276940794478, ,1.13142991065979
0.011447655624891603,0.021562129450080722,-0.08435872082964029, ,0.011755127762944106,0.021653256153846303,-0.08469648602725371, ,0.000562497598695579, ,0.0037185291354510427,0.002186447841056582,-0.008585024425652435,-0.007702120040792722,-0.014120077157634555,0.001092771809216186, ,0.009607843539624706, ,0.016084128370098153, ,5.295482454105776e-05, ,0.19520751886177293,-0.23737364035503875,0.09581397906000001,1.7584598660612214,0.6115849729501114,-1.2639546533221098, ,0.029082728028952128,0.0011573999322342778,0.010527965313945805,0.005539169375193102,0.016243257075110977,0.0037720257288562722, ,1.1355910301208496
0.011447655624891603,0.021562129450080722,-0.08435872082964029, ,0.011780705406797232,0.02166131652503955,-0.08475671454312506, ,0.0005283552110461983, ,0.004313436557038964,0.002406967642749721,-0.009659265567873275,-0.001257215869554826,-0.012218868821665094,0.00037249005457632806, ,0.010848992555788141, ,0.012283373434782963, ,5.371189544063497e-05, ,0.19520751886177293,-0.23737364035503875,0.09581397906000001,1.7584598660612214,0.6115849729501114,-1.2639546533221098, ,0.029082728028952128,0.0011573999322342778,0.010527965313945805,0.005539169375193102,0.016243257075110977,0.0037720257288562722, ,1.1396009922027588
0.011447655624891603,0.021562129450080722,-0.08435872082964029, ,0.011806417258941711,0.021669135999148686,-0.08481704757629104, ,0.0005917970245829219, ,0.004313436557038964,0.002406967642749721,-0.009659265567873275,-0.001257215869554826,-0.012218868821665094,0.00037249005457632806, ,0.010848992555788141, ,0.012283373434782963, ,5.4576847643673636e-05, ,0.19520751886177293,-0.23737364035503875,0.09581397906000001,1.7584598660612214,0.6115849729501114,-1.2639546533221098, ,0.029082728028952128,0.0011573999322342778,0.010527965313945805,0.005539169375193102,0.016243257075110977,0.0037720257288562722, ,1.1453900337219238
0.011483448582528248,0.021583023195078183,-0.08445020862676461, ,0.011832262558931196,0.02167671616795816,-0.08487748423043598, ,0.0005594765453473953, ,0.004189861672008523,0.002612727826052988,-0.01141202425556791,0.02903583360733613,0.024586476856900907,-0.003531461822345515, ,0.01243445154131327, ,0.03804700098495028, ,5.537813385374489e-05, ,0.1954469235808739,-0.23734274942354186,0.09591379339000002,1.7584598660612214,0.6119948824494077,-1.264288907033199, ,0.026746601341169893,0.004011231830876963,0.012424969984399377,0.00523694422877256,0.05284946203363985,-0.02729465097468589, ,1.1497669219970703
0.011483448582528248,0.021583023195078183,-0.08445020862676461, ,0.011858240548463005,0.021684058619207327,-0.08493802361136508, ,0.0006234104858429608, ,0.004189861672008523,0.002612727826052988,-0.01141202425556791,0.02903583360733613,0.024586476856900907,-0.003531461822345515, ,0.01243445154131327, ,0.03804700098495028, ,5.6287095233417714e-05, ,0.1954469235808739,-0.23734274942354186,0.09591379339000002,1.7584598660612214,0.6119948824494077,-1.264288907033199, ,0.026746601341169893,0.004011231830876963,0.012424969984399377,0.00523694422877256,0.05284946203363985,-0.02729465097468589, ,1.1535389423370361
0.011543553162251686,0.021619773323627682,-0.08460304067359833, ,0.01188435047137703,0.021691164936594634,-0.08499866482700102, ,0.0005270275505746296, ,0.004867762707315609,0.0030903770035874286,-0.012697453226808203,0.0063131679092316845,-0.007131665925703591,-0.0013298640131297248, ,0.013945281002762787, ,0.00952451667400673, ,5.7019344986258335e-05, ,0.19580216929308822,-0.2373195812249192,0.09607842222000001,1.7584598660612214,0.6121315189491732,-1.2642369674566143, ,0.02883529065890938,0.0019007943752300215,0.013719906563307495,0.004845442192694004,0.021601573908807063,-0.00473164365722728, ,1.157418966293335
0.011543553162251686,0.021619773323627682,-0.08460304067359833, ,0.011910591573653654,0.02169803669978207,-0.08505940698738293, ,0.0005908574818421978, ,0.004867762707315609,0.0030903770035874286,-0.012697453226808203,0.0063131679092316845,-0.007131665925703591,-0.0013298640131297248, ,0.013945281002762787, ,0.00952451667400673, ,5.785881469025426e-05, ,0.19580216929308822,-0.2373195812249192,0.09607842222000001,1.7584598660612214,0.6121315189491732,-1.2642369674566143, ,0.02883529065890938,0.0019007943752300215,0.013719906563307495,0.004845442192694004,0.021601573908807063,-0.00473164365722728, ,1.161294937133789
0.011543553162251686,0.021619773323627682,-0.08460304067359833, ,0.011936963103410577,0.021704675484398986,-0.08512024920466475, ,0.0006553506109817558, ,0.004867762707315609,0.0030903770035874286,-0.012697453226808203,0.0063131679092316845,-0.007131665925703591,-0.0013298640131297248, ,0.013945281002762787, ,0.00952451667400673, ,5.8805539219379254e-05, ,0.19580216929308822,-0.2373195812249192,0.09607842222000001,1.7584598660612214,0.6121315189491732,-1.2642369674566143, ,0.02883529065890938,0.0019007943752300215,0.013719906563307495,0.004845442192694004,0.021601573908807063,-0.00473164365722728, ,1.1649720668792725
0.011595245720594893,0.021650609721298612,-0.08474235047878284, ,0.011963464310900548,0.021711082862046368,-0.08518119059311254, ,0.000576040429955642, ,0.005801931899029519,0.003501285004669858,-0.01636518008063079,-0.017590869800933967,-0.029338376786998806,0.004521341335818392, ,0.017712722250302945, ,0.03420786282454271, ,5.960698913461856e-05, ,0.19608791040943452,-0.2372577993619254,0.09622749557000002,1.7586695560047059,0.6122681554489386,-1.2643483853603108, ,0.02931632423802001,0.00676562909749467,0.017370568724100328,-0.0007790457792590192,0.0,0.011950010353269954, ,1.1690049171447754
0.011595245720594893,0.021650609721298612,-0.08474235047878284, ,0.011990094448508678,0.021717260400300805,-0.08524223026910319, ,0.0006404901527090794, ,0.005801931899029519,0.003501285004669858,-0.01636518008063079,-0.017590869800933967,-0.029338376786998806,0.004521341335818392, ,0.017712722250302945, ,0.03420786282454271, ,6.051513577998414e-05, ,0.19608791040943452,-0.2372577993619254,0.09622749557000002,1.7586695560047059,0.6122681554489386,-1.2643483853603108, ,0.02931632423802001,0.00676562909749467,0.017370568724100328,-0.0007790457792590192,0.0,0.011950010353269954, ,1.172806978225708
0.011595245720594893,0.021650609721298612,-0.08474235047878284, ,0.012016852770750567,0.021723209662718686,-0.08530336735112268, ,0.0007055233428350474, ,0.005801931899029519,0.003501285004669858,-0.01636518008063079,-0.017590869800933967,-0.029338376786998806,0.004521341335818392, ,0.017712722250302945, ,0.03420786282454271, ,6.152988069539226e-05, ,0.19608791040943452,-0.2372577993619254,0.09622749557000002,1.7586695560047059,0.6122681554489386,-1.2643483853603108, ,0.02931632423802001,0.00676562909749467,0.017370568724100328,-0.0007790457792590192,0.0,0.011950010353269954, ,1.1765668392181396
0.011653919885698798,0.0216915000796374,-0.0849191949319734, ,0.012043738534269674,0.021728932208840306,-0.08536460095976375, ,0.0005930820117507055, ,0.005861015459071926,0.004180322079963991,-0.017364489292221296,0.042220116178727334,0.02576974628158389,-0.0007099712665738795, ,0.018797661644028563, ,0.04946328390659479, ,6.234306797975199e-05, ,0.19640454245727773,-0.23721146296468004,0.09641805020000001,1.7586695560047059,0.6128147014480004,-1.2647940569750964, ,0.03290462606049611,0.0028368161037151374,0.018806152916174736,-0.0007790457792590192,0.062202662247014845,-0.04042738168711407, ,1.1802568435668945
0.011653919885698798,0.0216915000796374,-0.0849191949319734, ,0.012070750997834358,0.021734429594194124,-0.08542593021772452, ,0.0006575498225149977, ,0.005861015459071926,0.004180322079963991,-0.017364489292221296,0.042220116178727334,0.02576974628158389,-0.0007099712665738795, ,0.018797661644028563, ,0.04946328390659479, ,6.326179847381318e-05, ,0.19640454245727773,-0.23721146296468004,0.09641805020000001,1.7586695560047059,0.6128147014480004,-1.2647940569750964, ,0.03290462606049611,0.0028368161037151374,0.018806152916174736,-0.0007790457792590192,0.062202662247014845,-0.04042738168711407, ,1.184345006942749
0.011653919885698798,0.0216915000796374,-0.0849191949319734, ,0.012097889422335743,0.02173970337030042,-0.0854873542498064, ,0.000722660028736073, ,0.005861015459071926,0.004180322079963991,-0.017364489292221296,0.042220116178727334,0.02576974628158389,-0.0007099712665738795, ,0.018797661644028563, ,0.04946328390659479, ,6.439673518682912e-05, ,0.19640454245727773,-0.23721146296468004,0.09641805020000001,1.7586695560047059,0.6128147014480004,-1.2647940569750964, ,0.03290462606049611,0.0028368161037151374,0.018806152916174736,-0.0007790457792590192,0.062202662247014845,-0.04042738168711407, ,1.1878018379211426
0.011653919885698798,0.0216915000796374,-0.0849191949319734, ,0.012125153070785403,0.02174475508467603,-0.08554887218291193, ,0.0007882831031032156, ,0.005861015459071926,0.004180322079963991,-0.017364489292221296,0.042220116178727334,0.02576974628158389,-0.0007099712665738795, ,0.018797661644028563, ,0.04946328390659479, ,6.564052619699474e-05, ,0.19640454245727773,-0.23721146296468004,0.09641805020000001,1.7586695560047059,0.6128147014480004,-1.2647940569750964, ,0.03290462606049611,0.0028368161037151374,0.018806152916174736,-0.0007790457792590192,0.062202662247014845,-0.04042738168711407, ,1.1898610591888428
0.011653919885698798,0.0216915000796374,-0.0849191949319734, ,0.012152541208313165,0.021749586280837983,-0.08561048314604358, ,0.0008543281717513178, ,0.006327232495876414,0.004040756369631018,-0.017796701237130567,0.03304426281664998,0.010834875581351868,-0.0022015964650285414, ,0.01931538656147665, ,0.03477522176371199, ,6.699333519451502e-05, ,0.19670572903937247,-0.2371728493003089,0.09658267903000001,1.7586695560047059,0.6132246109472966,-1.2650466319460452, ,0.036068772922261794,0.0054891859738825785,0.019191339180722893,-0.0007790457792590192,0.04979675853357304,-0.03505734572347923, ,1.1927659511566162
0.011707561062342869,0.02172692692605328,-0.08507184524591306, ,0.012180053102163163,0.021754198498307734,-0.08567218627030138, ,0.0007644617792345043, ,0.006327232495876414,0.004040756369631018,-0.017796701237130567,0.03304426281664998,0.010834875581351868,-0.0022015964650285414, ,0.01931538656147665, ,0.03477522176371199, ,6.81876304754054e-05, ,0.19670572903937247,-0.2371728493003089,0.09658267903000001,1.7586695560047059,0.6132246109472966,-1.2650466319460452, ,0.036068772922261794,0.0054891859738825785,0.019191339180722893,-0.0007790457792590192,0.04979675853357304,-0.03505734572347923, ,1.194756031036377
0.011707561062342869,0.02172692692605328,-0.08507184524591306, ,0.012207688021693518,0.021758593272615485,-0.08573398068888118, ,0.0008303933271700257, ,0.006327232495876414,0.004040756369631018,-0.017796701237130567,0.03304426281664998,0.010834875581351868,-0.0022015964650285414, ,0.01931538656147665, ,0.03477522176371199, ,6.949054619625091e-05, ,0.19670572903937247,-0.2371728493003089,0.09658267903000001,1.7586695560047059,0.6132246109472966,-1.2650466319460452, ,0.036068772922261794,0.0054891859738825785,0.019191339180722893,-0.0007790457792590192,0.04979675853357304,-0.03505734572347923, ,1.1966760158538818
0.011707561062342869,0.02172692692605328,-0.08507184524591306, ,0.012235445238372339,0.021762772135304004,-0.08579586553707345, ,0.00089674520592001, ,0.006327232495876414,0.004040756369631018,-0.017796701237130567,0.03304426281664998,0.010834875581351868,-0.0022015964650285414, ,0.01931538656147665, ,0.03477522176371199, ,0.00038830574514697936, ,0.19670572903937247,-0.2371728493003089,0.09658267903000001,1.7586695560047059,0.6132246109472966,-1.2650466319460452, ,0.036068772922261794,0.0054891859738825785,0.019191339180722893,-0.0007790457792590192,0.04979675853357304,-0.03505734572347923, ,1.1985969543457031
0.011813123846965447,0.021787557878888503,-0.08534159101080824, ,0.012263324025775726,0.021766736613932886,-0.0858578399522596, ,0.0006852931457593946, ,0.007234090378913821,0.004116636969059199,-0.01807033408399607,0.001895098591164521,-0.029333180357157866,-0.0022015964650285414, ,0.019895118432734914, ,0.029394301178310055, ,0.0003910556284859832, ,0.1972772112720651,-0.23708789923869245,0.09685878880000001,1.7586695560047059,0.6133612474470621,-1.2649130136293198, ,0.04200838493070862,0.005159539379487137,0.019145206153846156,-0.0007790457792590192,0.014481849364520658,-0.0060566359643781514, ,1.2008659839630127
0.011813123846965447,0.021787557878888503,-0.08534159101080824, ,0.012291323659585414,0.021770488232082653,-0.0859199030739124, ,0.0007506072714566755, ,0.007234090378913821,0.004116636969059199,-0.01807033408399607,0.001895098591164521,-0.029333180357157866,0.0009918852914375738, ,0.019895118432734914, ,0.029394301178310055, ,0.00039435426741231985, ,0.1972772112720651,-0.23708789923869245,0.09685878880000001,1.7586695560047059,0.6133612474470621,-1.2649130136293198, ,0.04200838493070862,0.005159539379487137,0.019145206153846156,-0.0007790457792590192,0.014481849364520658,-0.0060566359643781514, ,1.202725887298584
0.011813123846965447,0.021787557878888503,-0.08534159101080824, ,0.012319443417586194,0.021774028509358882,-0.08598205404359269, ,0.0008165386995096444, ,0.007234090378913821,0.004116636969059199,-0.01807033408399607,0.001895098591164521,-0.029333180357157866,0.0009918852914375738, ,0.019895118432734914, ,0.029394301178310055, ,0.0003981923077041137, ,0.1972772112720651,-0.23708789923869245,0.09685878880000001,1.7586695560047059,0.6133612474470621,-1.2649130136293198, ,0.04200838493070862,0.005159539379487137,0.019145206153846156,-0.0007790457792590192,0.014481849364520658,-0.0060566359643781514, ,1.2045938968658447
0.011813123846965447,0.021787557878888503,-0.08534159101080824, ,0.012347682579663373,0.021777358961396192,-0.08604429200494786, ,0.000882975505768102, ,0.007234090378913821,0.004116636969059199,-0.01807033408399607,0.001895098591164521,-0.029333180357157866,0.0009918852914375738, ,0.019895118432734914, ,0.029394301178310055, ,0.00040255972390288835, ,0.1972772112720651,-0.23708789923869245,0.09685878880000001,1.7586695560047059,0.6133612474470621,-1.2649130136293198, ,0.04200838493070862,0.005159539379487137,0.019145206153846156,-0.0007790457792590192,0.014481849364520658,-0.0060566359643781514, ,1.206514835357666
0.011813123846965447,0.021787557878888503,-0.08534159101080824, ,0.0123760404278004,0.02178048109986261,-0.08610661610371034, ,0.0009498360650923771, ,0.007234090378913821,0.004116636969059199,-0.01807033408399607,0.001895098591164521,-0.029333180357157866,0.0009918852914375738, ,0.019895118432734914, ,0.029394301178310055, ,0.00040744611980636595, ,0.1972772112720651,-0.23708789923869245,0.09685878880000001,1.7586695560047059,0.6133612474470621,-1.2649130136293198, ,0.04200838493070862,0.005159539379487137,0.019145206153846156,-0.0007790457792590192,0.014481849364520658,-0.0060566359643781514, ,1.2083890438079834
0.011889745490183762,0.021827224829589625,-0.08553977124006354, ,0.012404516246076741,0.021783396432463385,-0.08616902548769476, ,0.0008141687587221791, ,0.0086537456782247,0.004523980008371866,-0.023393354249580254,0.06972428674661228,0.03207259304825106,-0.01336070647032984, ,0.025349610104021234, ,0.07674711969374404, ,0.0004110454351950015, ,0.19778691164176393,-0.23696433551270485,0.09708563955,1.7586695560047059,0.6140444299458894,-1.2651433881872398, ,0.05274982854834395,0.016235575972364545,0.02520381569620253,-0.0007790457792590192,0.09013055415097104,-0.08112807955852708, ,1.2108309268951416
0.011889745490183762,0.021827224829589625,-0.08553977124006354, ,0.012433109320664517,0.021786106462945362,-0.08623151930679739, ,0.0008805965933276287, ,0.0086537456782247,0.004523980008371866,-0.023393354249580254,0.06972428674661228,0.03207259304825106,-0.01336070647032984, ,0.025349610104021234, ,0.07674711969374404, ,0.0004151643050031824, ,0.19778691164176393,-0.23696433551270485,0.09708563955,1.7586695560047059,0.6140444299458894,-1.2651433881872398, ,0.05274982854834395,0.016235575972364545,0.02520381569620253,-0.0007790457792590192,0.09013055415097104,-0.08112807955852708, ,1.213181972503662
0.011889745490183762,0.021827224829589625,-0.08553977124006354, ,0.012461818939827314,0.02178861269110086,-0.08629409671299333, ,0.0009475050649661485, ,0.0086537456782247,0.004523980008371866,-0.023393354249580254,0.06972428674661228,0.03207259304825106,-0.01336070647032984, ,0.025349610104021234, ,0.07674711969374404, ,0.00041979335508981694, ,0.19778691164176393,-0.23696433551270485,0.09708563955,1.7586695560047059,0.6140444299458894,-1.2651433881872398, ,0.05274982854834395,0.016235575972364545,0.02520381569620253,-0.0007790457792590192,0.09013055415097104,-0.08112807955852708, ,1.2151060104370117
0.011889745490183762,0.021827224829589625,-0.08553977124006354, ,0.012490644393916216,0.02179091661277198,-0.08635675686033527, ,0.0010148217985666865, ,0.0086537456782247,0.004523980008371866,-0.023393354249580254,0.06972428674661228,0.03207259304825106,-0.01336070647032984, ,0.025349610104021234, ,0.07674711969374404, ,0.00042492291063703127, ,0.19778691164176393,-0.23696433551270485,0.09708563955,1.7586695560047059,0.6140444299458894,-1.2651433881872398, ,0.05274982854834395,0.016235575972364545,0.02520381569620253,-0.0007790457792590192,0.09013055415097104,-0.08112807955852708, ,1.216986894607544
0.011889745490183762,0.021827224829589625,-0.08553977124006354, ,0.012519584975368503,0.021793019719854662,-0.08641949890495101, ,0.0010824918156725856, ,0.0086537456782247,0.004523980008371866,-0.023393354249580254,0.06972428674661228,0.03207259304825106,-0.01336070647032984, ,0.025349610104021234, ,0.07674711969374404, ,0.0004305431576886172, ,0.19778691164176393,-0.23696433551270485,0.09708563955,1.7586695560047059,0.6140444299458894,-1.2651433881872398, ,0.05274982854834395,0.016235575972364545,0.02520381569620253,-0.0007790457792590192,0.09013055415097104,-0.08112807955852708, ,1.2188539505004883
0.011976183468829869,0.021876019665150324,-0.08578742295922319, ,0.012548639978705096,0.021794923500302668,-0.08648232200504209, ,0.0009039733002315648, ,0.0086537456782247,0.004523980008371866,-0.023393354249580254,0.06972428674661228,0.05107834839028652,-0.014613321365417202, ,0.025349610104021234, ,0.07674711969374404, ,0.0004345552775406761, ,0.19829661201146273,-0.23680215812234615,0.09735267529000001,1.7586695560047059,0.6151375219440128,-1.266034731416811, ,0.05530124799444684,0.015382872679278776,0.030282911634980987,-0.0007790457792590192,0.11291340022447131,-0.09834632930440845, ,1.2212438583374023
0.011976183468829869,0.021876019665150324,-0.08578742295922319, ,0.012577808700527424,0.021796629438131907,-0.08654522532088152, ,0.000970834768071331, ,0.009680182489204322,0.005783591776873969,-0.02809084631407633,0.0892394242703025,0.05107834839028652,-0.014613321365417202, ,0.030269646735746322, ,0.10282341672495027, ,0.0004390618278812698, ,0.19829661201146273,-0.23680215812234615,0.09735267529000001,1.7586695560047059,0.6151375219440128,-1.266034731416811, ,0.05530124799444684,0.015382872679278776,0.030282911634980987,-0.0007790457792590192,0.11291340022447131,-0.09834632930440845, ,1.2233529090881348
0.011976183468829869,0.021876019665150324,-0.08578742295922319, ,0.012607090439515408,0.02179813901342435,-0.08660820801481277, ,0.0010381700771318998, ,0.009680182489204322,0.005783591776873969,-0.02809084631407633,0.0892394242703025,0.05107834839028652,-0.014613321365417202, ,0.030269646735746322, ,0.10282341672495027, ,0.00044405439662502513, ,0.19829661201146273,-0.23680215812234615,0.09735267529000001,1.7586695560047059,0.6151375219440128,-1.266034731416811, ,0.05530124799444684,0.015382872679278776,0.030282911634980987,-0.0007790457792590192,0.11291340022447131,-0.09834632930440845, ,1.2254760265350342
0.011976183468829869,0.021876019665150324,-0.08578742295922319, ,0.012636484496425083,0.02179945370233231,-0.0866712692512467, ,0.0011059132251805535, ,0.009680182489204322,0.005783591776873969,-0.02809084631407633,0.0892394242703025,0.05107834839028652,-0.014613321365417202, ,0.030269646735746322, ,0.10282341672495027, ,0.00044952430429903776, ,0.19829661201146273,-0.23680215812234615,0.09735267529000001,1.7586695560047059,0.6151375219440128,-1.266034731416811, ,0.05530124799444684,0.015382872679278776,0.030282911634980987,-0.0007790457792590192,0.11291340022447131,-0.09834632930440845, ,1.2287249565124512
0.011976183468829869,0.021876019665150324,-0.08578742295922319, ,0.012665990174086221,0.02180057497708239,-0.0867344081966605, ,0.001174012875354655, ,0.009680182489204322,0.005783591776873969,-0.02809084631407633,0.0892394242703025,0.05107834839028652,-0.014613321365417202, ,0.030269646735746322, ,0.10282341672495027, ,0.0004554627352093297, ,0.19829661201146273,-0.23680215812234615,0.09735267529000001,1.7586695560047059,0.6151375219440128,-1.266034731416811, ,0.05530124799444684,0.015382872679278776,0.030282911634980987,-0.0007790457792590192,0.11291340022447131,-0.09834632930440845, ,1.230712890625
0.012074124021805663,0.02193007238942254,-0.0860597397205936, ,0.012695606777398978,0.021801504305979755,-0.08679762401959598, ,0.0009732645099325541, ,0.011244228780019823,0.005917023010461878,-0.03043538732477117,0.018352899826315567,-0.011885844041973334,0.0025977003445913733, ,0.03298115588897095, ,0.021864951529245297, ,0.0004596725057355348, ,0.19884492604553267,-0.23664770346486166,0.09764434054000001,1.7584598660612214,0.6158207044428401,-1.2666734996754336, ,0.06247329924849953,0.019319409926398776,0.0325077786122449,-0.006926903968335975,0.05512213553815918,-0.03434045347325158, ,1.232677936553955
0.012074124021805663,0.02193007238942254,-0.0860597397205936, ,0.012725333613332602,0.0218022431534121,-0.08686091589065686, ,0.0010403352830472222, ,0.011244228780019823,0.005917023010461878,-0.03043538732477117,0.018352899826315567,-0.011885844041973334,0.0025977003445913733, ,0.03298115588897095, ,0.021864951529245297, ,0.0004643552700686935, ,0.19884492604553267,-0.23664770346486166,0.09764434054000001,1.7584598660612214,0.6158207044428401,-1.2666734996754336, ,0.06247329924849953,0.019319409926398776,0.0325077786122449,-0.006926903968335975,0.05512213553815918,-0.03434045347325158, ,1.23482084274292
0.012074124021805663,0.02193007238942254,-0.0860597397205936, ,0.012755169990922317,0.021802792979853932,-0.08692428298250786, ,0.0011079073570797922, ,0.011244228780019823,0.005917023010461878,-0.03043538732477117,0.018352899826315567,-0.011885844041973334,0.0025977003445913733, ,0.03298115588897095, ,0.021864951529245297, ,0.0004695036867647823, ,0.19884492604553267,-0.23664770346486166,0.09764434054000001,1.7584598660612214,0.6158207044428401,-1.2666734996754336, ,0.06247329924849953,0.019319409926398776,0.0325077786122449,-0.006926903968335975,0.05512213553815918,-0.03434045347325158, ,1.239548921585083
0.01219825526266751,0.021994985242713438,-0.0864030592022192, ,0.012785115221266945,0.021803155241870435,-0.08698772446987212, ,0.0008503157269099576, ,0.011195624109904804,0.005920252661017915,-0.03146276818089258,-0.0009619798509208271,-0.02682687914663328,0.0033148357682673793, ,0.03391603120038013, ,0.026843547067996198, ,0.0004725260045437123, ,0.19950908107271598,-0.2364082987457607,0.09800989432000001,1.7584598660612214,0.6163672504419018,-1.2671191712902194, ,0.057304916400042746,0.02146989628019701,0.033393734842767295,-0.006926903968335975,0.03385371651059684,-0.01854663690881906, ,1.2416210174560547
0.01219825526266751,0.021994985242713438,-0.0864030592022192, ,0.012815168617526735,0.021803331392121855,-0.08705123952952976, ,0.0009151235012623486, ,0.011195624109904804,0.005920252661017915,-0.03146276818089258,-0.0009619798509208271,-0.02682687914663328,0.0033148357682673793, ,0.03391603120038013, ,0.026843547067996198, ,0.0004760110242029142, ,0.19950908107271598,-0.2364082987457607,0.09800989432000001,1.7584598660612214,0.6163672504419018,-1.2671191712902194, ,0.057304916400042746,0.02146989628019701,0.033393734842767295,-0.006926903968335975,0.03385371651059684,-0.01854663690881906, ,1.2438979148864746
0.01219825526266751,0.021994985242713438,-0.0864030592022192, ,0.012845329494920605,0.021803322879367436,-0.08711482734031592, ,0.0009808432117209022, ,0.011195624109904804,0.005920252661017915,-0.03146276818089258,-0.0009619798509208271,-0.02682687914663328,0.0033148357682673793, ,0.03391603120038013, ,0.026843547067996198, ,0.0004799550256678984, ,0.19950908107271598,-0.2364082987457607,0.09800989432000001,1.7584598660612214,0.6163672504419018,-1.2671191712902194, ,0.057304916400042746,0.02146989628019701,0.033393734842767295,-0.006926903968335975,0.03385371651059684,-0.01854663690881906, ,1.245823860168457
0.01219825526266751,0.021994985242713438,-0.0864030592022192, ,0.012875597170723101,0.021803131148469528,-0.08717848708311887, ,0.001047324425554513, ,0.011195624109904804,0.005920252661017915,-0.03146276818089258,-0.0009619798509208271,-0.02682687914663328,0.0033148357682673793, ,0.03391603120038013, ,0.026843547067996198, ,0.00048435323807012023, ,0.19950908107271598,-0.2364082987457607,0.09800989432000001,1.7584598660612214,0.6163672504419018,-1.2671191712902194, ,0.057304916400042746,0.02146989628019701,0.033393734842767295,-0.006926903968335975,0.03385371651059684,-0.01854663690881906, ,1.2477200031280518
0.01219825526266751,0.021994985242713438,-0.0864030592022192, ,0.012905970964263849,0.02180275764039779,-0.08724221794087805, ,0.0011144506961034805, ,0.011195624109904804,0.005920252661017915,-0.03146276818089258,-0.0009619798509208271,-0.02682687914663328,0.0033148357682673793, ,0.03391603120038013, ,0.026843547067996198, ,0.0004892001415934537, ,0.19950908107271598,-0.2364082987457607,0.09800989432000001,1.7584598660612214,0.6163672504419018,-1.2671191712902194, ,0.057304916400042746,0.02146989628019701,0.033393734842767295,-0.006926903968335975,0.03385371651059684,-0.01854663690881906, ,1.249582052230835
0.01231381491036022,0.022045242242953348,-0.08671012971929228, ,0.012936450196922439,0.02180220379223329,-0.08730601909858245, ,0.0008954476762779876, ,0.012178998696490818,0.004595078576727672,-0.031572880337189725,0.041278276357233655,0.01443484924369087,-0.007681165954216453, ,0.03415098137919214, ,0.043729047527140436, ,0.0004923012678124196, ,0.20016551336702507,-0.23610711216366592,0.09833655940000001,1.7584598660612214,0.617050432940729,-1.267594582068561, ,0.07260668826202814,0.03709810068743971,0.03360508759493671,-0.006615873015043988,0.09370803860252955,-0.07306181808188733, ,1.2514379024505615
0.01231381491036022,0.022045242242953348,-0.08671012971929228, ,0.012967034192128402,0.021801471037172625,-0.08736988974326872, ,0.0009598974528974024, ,0.012178998696490818,0.004595078576727672,-0.031572880337189725,0.041278276357233655,0.01443484924369087,-0.007681165954216453, ,0.03415098137919214, ,0.043729047527140436, ,0.0004958436631539725, ,0.20016551336702507,-0.23610711216366592,0.09833655940000001,1.7584598660612214,0.617050432940729,-1.267594582068561, ,0.07260668826202814,0.03709810068743971,0.03360508759493671,-0.006615873015043988,0.09370803860252955,-0.07306181808188733, ,1.2533509731292725
0.01231381491036022,0.022045242242953348,-0.08671012971929228, ,0.012997722275356921,0.02180056080453174,-0.0874338290640187, ,0.001025348249017011, ,0.012178998696490818,0.004595078576727672,-0.031572880337189725,0.041278276357233655,0.01443484924369087,-0.007681165954216453, ,0.03415098137919214, ,0.043729047527140436, ,0.0004998249006416645, ,0.20016551336702507,-0.23610711216366592,0.09833655940000001,1.7584598660612214,0.617050432940729,-1.267594582068561, ,0.07260668826202814,0.03709810068743971,0.03360508759493671,-0.006615873015043988,0.09370803860252955,-0.07306181808188733, ,1.2552430629730225
0.01231381491036022,0.022045242242953348,-0.08671012971929228, ,0.01302851377412777,0.021799474519750697,-0.08749783625195902, ,0.0010916399686914662, ,0.012178998696490818,0.004595078576727672,-0.031572880337189725,0.041278276357233655,0.01443484924369087,-0.007681165954216453, ,0.03415098137919214, ,0.043729047527140436, ,0.0005042414310002451, ,0.20016551336702507,-0.23610711216366592,0.09833655940000001,1.7584598660612214,0.617050432940729,-1.267594582068561, ,0.07260668826202814,0.03709810068743971,0.03360508759493671,-0.006615873015043988,0.09370803860252955,-0.07306181808188733, ,1.257200002670288
0.01231381491036022,0.022045242242953348,-0.08671012971929228, ,0.013059408018001619,0.021798213604397126,-0.08756191050025736, ,0.0011586469389985809, ,0.012178998696490818,0.004595078576727672,-0.031572880337189725,0.041278276357233655,0.01443484924369087,-0.007681165954216453, ,0.03415098137919214, ,0.043729047527140436, ,0.0005090888792076403, ,0.20016551336702507,-0.23610711216366592,0.09833655940000001,1.7584598660612214,0.617050432940729,-1.267594582068561, ,0.07260668826202814,0.03709810068743971,0.03360508759493671,-0.006615873015043988,0.09370803860252955,-0.07306181808188733, ,1.2591040134429932
0.01231381491036022,0.022045242242953348,-0.08671012971929228, ,0.013090404338578682,0.021796779476170505,-0.08762605100412199, ,0.0012262694183996354, ,0.012326322907517366,0.003805543911457164,-0.029909878308593332,0.044310717072461134,0.012297200087472246,-0.010800662076976948, ,0.032573320698345724, ,0.0459851806593552, ,0.0005143622655252285, ,0.20095323212019597,-0.23570553005420625,0.09867229851,1.7580404861742522,0.6180068884390871,-1.2682928286542954, ,0.07772067285706043,0.04115218627860832,0.031857623040000005,-0.006669195387635677,0.09688285788682588,-0.0803959799942737, ,1.2610549926757812
0.012440869070021328,0.022086535267134784,-0.08702582326413905, ,0.013121502069495198,0.021795173548906668,-0.08769025696079938, ,0.0009947990088853892, ,0.012326322907517366,0.003805543911457164,-0.029909878308593332,0.044310717072461134,0.012297200087472246,-0.010800662076976948, ,0.032573320698345724, ,0.0459851806593552, ,0.0005178691030680034, ,0.20095323212019597,-0.23570553005420625,0.09867229851,1.7580404861742522,0.6180068884390871,-1.2682928286542954, ,0.07772067285706043,0.04115218627860832,0.031857623040000005,-0.006669195387635677,0.09688285788682588,-0.0803959799942737, ,1.2633378505706787
0.012440869070021328,0.022086535267134784,-0.08702582326413905, ,0.013152700546421814,0.021793397232581325,-0.08775452756957258, ,0.0010600207181247609, ,0.012326322907517366,0.003805543911457164,-0.029909878308593332,0.044310717072461134,0.012297200087472246,-0.010800662076976948, ,0.032573320698345724, ,0.0459851806593552, ,0.000521797737959719, ,0.20095323212019597,-0.23570553005420625,0.09867229851,1.7580404861742522,0.6180068884390871,-1.2682928286542954, ,0.07772067285706043,0.04115218627860832,0.031857623040000005,-0.006669195387635677,0.09688285788682588,-0.0803959799942737, ,1.2652368545532227
0.012440869070021328,0.022086535267134784,-0.08702582326413905, ,0.013183999107061226,0.021791451933314644,-0.08781886203175872, ,0.0011261558119536825, ,0.012326322907517366,0.003805543911457164,-0.029909878308593332,0.044310717072461134,0.012297200087472246,-0.010800662076976948, ,0.032573320698345724, ,0.0459851806593552, ,0.0005261456377726252, ,0.20095323212019597,-0.23570553005420625,0.09867229851,1.7580404861742522,0.6180068884390871,-1.2682928286542954, ,0.07772067285706043,0.04115218627860832,0.031857623040000005,-0.006669195387635677,0.09688285788682588,-0.0803959799942737, ,1.2671308517456055
0.012440869070021328,0.022086535267134784,-0.08702582326413905, ,0.013215397091144105,0.02178933905337499,-0.0878832595507082, ,0.0011930700861655335, ,0.012326322907517366,0.003805543911457164,-0.029909878308593332,0.044310717072461134,0.012297200087472246,-0.010800662076976948, ,0.032573320698345724, ,0.0459851806593552, ,0.0005309093838325746, ,0.20095323212019597,-0.23570553005420625,0.09867229851,1.7580404861742522,0.6180068884390871,-1.2682928286542954, ,0.07772067285706043,0.04115218627860832,0.031857623040000005,-0.006669195387635677,0.09688285788682588,-0.0803959799942737, ,1.2690958976745605
0.01256683322306999,0.022114940040078974,-0.08730979283582102, ,0.013246893840428887,0.02178705999118343,-0.08794771933180195, ,0.0009884017321012844, ,0.013554523482768395,0.0023530275398316565,-0.028167609527355184,0.028794213185830995,-0.011001823962322974,0.004554327297021674, ,0.03134766453714976, ,0.030824164413752204, ,0.0005341540104160407, ,0.20179501000348643,-0.23524988881462702,0.09897433408,1.757621106287283,0.6189633439374452,-1.2690727539801703, ,0.09480213941905173,0.05137896132023322,0.02999776180790961,-0.02479859476087118,0.09472649800163281,-0.07860359838060742, ,1.2712938785552979
0.01256683322306999,0.022114940040078974,-0.08730979283582102, ,0.01327848869869808,0.021784616141317548,-0.08801224058244979, ,0.0010530907989476617, ,0.013554523482768395,0.0023530275398316565,-0.028167609527355184,0.028794213185830995,-0.011001823962322974,0.004554327297021674, ,0.03134766453714976, ,0.030824164413752204, ,0.0005378084948423197, ,0.20179501000348643,-0.23524988881462702,0.09897433408,1.757621106287283,0.6189633439374452,-1.2690727539801703, ,0.09480213941905173,0.05137896132023322,0.02999776180790961,-0.02479859476087118,0.09472649800163281,-0.07860359838060742, ,1.273622989654541
0.01256683322306999,0.022114940040078974,-0.08730979283582102, ,0.013310181011755467,0.021782008894515575,-0.08807682251208923, ,0.0011188134817322597, ,0.013554523482768395,0.0023530275398316565,-0.028167609527355184,0.028794213185830995,-0.011001823962322974,0.004554327297021674, ,0.03134766453714976, ,0.030824164413752204, ,0.0005418714667786129, ,0.20179501000348643,-0.23524988881462702,0.09897433408,1.757621106287283,0.6189633439374452,-1.2690727539801703, ,0.09480213941905173,0.05137896132023322,0.02999776180790961,-0.02479859476087118,0.09472649800163281,-0.07860359838060742, ,1.2756869792938232
0.01256683322306999,0.022114940040078974,-0.08730979283582102, ,0.013341970127424746,0.02177923963768069,-0.08814146433218219, ,0.0011854153105653165, ,0.013554523482768395,0.0023530275398316565,-0.028167609527355184,0.028794213185830995,-0.011001823962322974,0.004554327297021674, ,0.03134766453714976, ,0.030824164413752204, ,0.000546340521249354, ,0.20179501000348643,-0.23524988881462702,0.09897433408,1.757621106287283,0.6189633439374452,-1.2690727539801703, ,0.09480213941905173,0.05137896132023322,0.02999776180790961,-0.02479859476087118,0.09472649800163281,-0.07860359838060742, ,1.280871868133545
0.01264892497804078,0.02212898493336442,-0.08748034573972623, ,0.013373855395545928,0.021776309753884913,-0.08820616525621448, ,0.0010847662711203463, ,0.014128204792374912,0.0021670129970546787,-0.028964318521725835,0.022454122343745726,-0.01968993330752496,0.024292154704085682, ,0.03229913100089041, ,0.029864036877282833, ,0.000550053802282947, ,0.20236649223617906,-0.23494097949965803,0.09915581468000001,1.7574114163437988,0.6195098899365069,-1.2695184255949559, ,0.09926458322015773,0.054195854687875945,0.03081008030947776,-0.04621112525976721,0.09549791798795558,-0.07919229470878683, ,1.282839059829712
0.01264892497804078,0.02212898493336442,-0.08748034573972623, ,0.013405836167973709,0.021773220622373444,-0.08827092449969363, ,0.001150868181040806, ,0.014128204792374912,0.0021670129970546787,-0.028964318521725835,0.022454122343745726,-0.01968993330752496,0.024292154704085682, ,0.03229913100089041, ,0.029864036877282833, ,0.0005541689692607406, ,0.20236649223617906,-0.23494097949965803,0.09915581468000001,1.7574114163437988,0.6195098899365069,-1.2695184255949559, ,0.09926458322015773,0.054195854687875945,0.03081008030947776,-0.04621112525976721,0.09549791798795558,-0.07919229470878683, ,1.2847909927368164
0.01264892497804078,0.02212898493336442,-0.08748034573972623, ,0.013437911798574634,0.02176997361856841,-0.0883357412801463, ,0.0012178221781927936, ,0.014128204792374912,0.0021670129970546787,-0.028964318521725835,0.022454122343745726,-0.01968993330752496,0.024292154704085682, ,0.03229913100089041, ,0.029864036877282833, ,0.0005586836169405504, ,0.20236649223617906,-0.23494097949965803,0.09915581468000001,1.7574114163437988,0.6195098899365069,-1.2695184255949559, ,0.09926458322015773,0.054195854687875945,0.03081008030947776,-0.04621112525976721,0.09549791798795558,-0.07919229470878683, ,1.2867419719696045
0.01264892497804078,0.02212898493336442,-0.08748034573972623, ,0.013470081643224484,0.02176657011407345,-0.0884006148171178, ,0.0012855107719581664, ,0.014128204792374912,0.0021670129970546787,-0.028964318521725835,0.022454122343745726,-0.01968993330752496,0.024292154704085682, ,0.03229913100089041, ,0.029864036877282833, ,0.00056359461123121, ,0.20236649223617906,-0.23494097949965803,0.09915581468000001,1.7574114163437988,0.6195098899365069,-1.2695184255949559, ,0.09926458322015773,0.054195854687875945,0.03081008030947776,-0.04621112525976721,0.09549791798795558,-0.07919229470878683, ,1.288667917251587
0.01264892497804078,0.02212898493336442,-0.08748034573972623, ,0.013502345059806676,0.02176301147667748,-0.08846554433216842, ,0.0013538384960957448, ,0.014128204792374912,0.0021670129970546787,-0.028964318521725835,0.022454122343745726,-0.01968993330752496,0.024292154704085682, ,0.03229913100089041, ,0.029864036877282833, ,0.0005688982614652002, ,0.20236649223617906,-0.23494097949965803,0.09915581468000001,1.7574114163437988,0.6195098899365069,-1.2695184255949559, ,0.09926458322015773,0.054195854687875945,0.03081008030947776,-0.04621112525976721,0.09549791798795558,-0.07919229470878683, ,1.2905659675598145
0.012868080261087735,0.022157416730963806,-0.08793505241430023, ,0.013534701408208378,0.021759299070358937,-0.08853052904887349, ,0.0009785059262961175, ,0.014226209877624404,0.0014291375417250845,-0.028516810972399834,0.05369648378476899,0.023705582482931583,-0.04259509824686826, ,0.031900407358386035, ,0.05869623627887558, ,0.0005716289792307396, ,0.20384925694803016,-0.234045142486248,0.09961859021000001,1.757201726400314,0.6215594374329886,-1.2711896941504024, ,0.10138562132315254,0.06398984595985892,0.030573534587332057,0.018631154008083496,0.1337315576262899,-0.110252340881524, ,1.2923810482025146
0.012868080261087735,0.022157416730963806,-0.08793505241430023, ,0.013567150050319143,0.02175543425528987,-0.08859556819282005, ,0.0010423864804565692, ,0.014226209877624404,0.0014291375417250845,-0.028516810972399834,0.05369648378476899,0.023705582482931583,-0.04259509824686826, ,0.031900407358386035, ,0.05869623627887558, ,0.000574746578576606, ,0.20384925694803016,-0.234045142486248,0.09961859021000001,1.757201726400314,0.6215594374329886,-1.2711896941504024, ,0.10138562132315254,0.06398984595985892,0.030573534587332057,0.018631154008083496,0.1337315576262899,-0.110252340881524, ,1.2943179607391357
0.012868080261087735,0.022157416730963806,-0.08793505241430023, ,0.013599690350028042,0.021751418387840036,-0.08866066099160555, ,0.001107517848306535, ,0.014226209877624404,0.0014291375417250845,-0.028516810972399834,0.05369648378476899,0.023705582482931583,-0.04259509824686826, ,0.031900407358386035, ,0.05869623627887558, ,0.0005782516527195661, ,0.20384925694803016,-0.234045142486248,0.09961859021000001,1.757201726400314,0.6215594374329886,-1.2711896941504024, ,0.10138562132315254,0.06398984595985892,0.030573534587332057,0.018631154008083496,0.1337315576262899,-0.110252340881524, ,1.2961640357971191
0.012868080261087735,0.022157416730963806,-0.08793505241430023, ,0.013632321673221651,0.02174725282058094,-0.08872580667483627, ,0.001173708511495468, ,0.014226209877624404,0.0014291375417250845,-0.028516810972399834,0.05369648378476899,0.023705582482931583,-0.04259509824686826, ,0.031900407358386035, ,0.05869623627887558, ,0.0005821435276135262, ,0.20384925694803016,-0.234045142486248,0.09961859021000001,1.757201726400314,0.6215594374329886,-1.2711896941504024, ,0.10138562132315254,0.06398984595985892,0.030573534587332057,0.018631154008083496,0.1337315576262899,-0.110252340881524, ,1.2980608940124512
0.012868080261087735,0.022157416730963806,-0.08793505241430023, ,0.013665043387780773,0.021742938902290197,-0.08879100447412484, ,0.0012408045875512896, ,0.014226209877624404,0.0014291375417250845,-0.028516810972399834,0.05369648378476899,0.023705582482931583,-0.04259509824686826, ,0.031900407358386035, ,0.05869623627887558, ,0.0005864205474832519, ,0.20384925694803016,-0.234045142486248,0.09961859021000001,1.757201726400314,0.6215594374329886,-1.2711896941504024, ,0.10138562132315254,0.06398984595985892,0.030573534587332057,0.018631154008083496,0.1337315576262899,-0.110252340881524, ,1.3000168800354004
0.012868080261087735,0.022157416730963806,-0.08793505241430023, ,0.0136978548635784,0.02173847797795533,-0.08885625362308901, ,0.001308681487904806, ,0.014960480624063391,-0.0001930062347544142,-0.028700499267974376,-0.025687560628751726,-0.04732485123675739,0.0007000430847414908, ,0.032366215258207556, ,0.053846753309661786, ,0.0005910802954859716, ,0.20384925694803016,-0.234045142486248,0.09961859021000001,1.757201726400314,0.6215594374329886,-1.2711896941504024, ,0.10138562132315254,0.06398984595985892,0.030573534587332057,0.018631154008083496,0.1337315576262899,-0.110252340881524, ,1.3020949363708496
0.013001268597324927,0.02216319933145086,-0.08819494953661304, ,0.013730755472477402,0.0217338713887781,-0.08892155335734933, ,0.0011155387468339793, ,0.014960480624063391,-0.0001930062347544142,-0.028700499267974376,-0.025687560628751726,-0.04732485123675739,0.0007000430847414908, ,0.032366215258207556, ,0.053846753309661786, ,0.0005944422086356383, ,0.204876380420302,-0.23333465106181933,0.09991544062,1.7574114163437988,0.6225158929313467,-1.2718879407361368, ,0.10462727845476381,0.07888357569282692,0.02999776180790961,-0.02289159101083596,0.06612052851168543,-0.05212015477407377, ,1.3039820194244385
0.013001268597324927,0.02216319933145086,-0.08819494953661304, ,0.013763744588328177,0.021729120472178495,-0.08898690291452749, ,0.0011819408808031353, ,0.014960480624063391,-0.0001930062347544142,-0.028700499267974376,-0.025687560628751726,-0.04732485123675739,0.0007000430847414908, ,0.032366215258207556, ,0.053846753309661786, ,0.0005981842383946669, ,0.204876380420302,-0.23333465106181933,0.09991544062,1.7574114163437988,0.6225158929313467,-1.2718879407361368, ,0.10462727845476381,0.07888357569282692,0.02999776180790961,-0.02289159101083596,0.06612052851168543,-0.05212015477407377, ,1.305912971496582
0.013001268597324927,0.02216319933145086,-0.08819494953661304, ,0.013796821586965245,0.021724226561798947,-0.08905230153424443, ,0.0012492614216664374, ,0.014960480624063391,-0.0001930062347544142,-0.028700499267974376,-0.025687560628751726,-0.04732485123675739,0.0007000430847414908, ,0.032366215258207556, ,0.053846753309661786, ,0.000602304980060944, ,0.204876380420302,-0.23333465106181933,0.09991544062,1.7574114163437988,0.6225158929313467,-1.2718879407361368, ,0.10462727845476381,0.07888357569282692,0.02999776180790961,-0.02289159101083596,0.06612052851168543,-0.05212015477407377, ,1.3078548908233643
0.013001268597324927,0.02216319933145086,-0.08819494953661304, ,0.013829985846206181,0.021719190987508304,-0.08911774845811851, ,0.001317373727389304, ,0.014960480624063391,-0.0001930062347544142,-0.028700499267974376,-0.025687560628751726,-0.04732485123675739,0.0007000430847414908, ,0.032366215258207556, ,0.053846753309661786, ,0.0006068022677799903, ,0.204876380420302,-0.23333465106181933,0.09991544062,1.7574114163437988,0.6225158929313467,-1.2718879407361368, ,0.10462727845476381,0.07888357569282692,0.02999776180790961,-0.02289159101083596,0.06612052851168543,-0.05212015477407377, ,1.3097429275512695
0.013001268597324927,0.02216319933145086,-0.08819494953661304, ,0.013863236745848153,0.021714015075406184,-0.08918324292976344, ,0.0013861743814873018, ,0.014960480624063391,-0.0001930062347544142,-0.028700499267974376,-0.025687560628751726,-0.04732485123675739,0.0007000430847414908, ,0.032366215258207556, ,0.053846753309661786, ,0.000611673343490661, ,0.204876380420302,-0.23333465106181933,0.09991544062,1.7574114163437988,0.6225158929313467,-1.2718879407361368, ,0.10462727845476381,0.07888357569282692,0.02999776180790961,-0.02289159101083596,0.06612052851168543,-0.05212015477407377, ,1.312129020690918
0.013001268597324927,0.02216319933145086,-0.08819494953661304, ,0.013896573667665434,0.021708700147826603,-0.08924878419478678, ,0.0014555782918347963, ,0.014960480624063391,-0.0001930062347544142,-0.028700499267974376,-0.025687560628751726,-0.04732485123675739,0.0007000430847414908, ,0.032366215258207556, ,0.053846753309661786, ,0.00061691498913255, ,0.204876380420302,-0.23333465106181933,0.09991544062,1.7574114163437988,0.6225158929313467,-1.2718879407361368, ,0.10462727845476381,0.07888357569282692,0.02999776180790961,-0.02289159101083596,0.06612052851168543,-0.05212015477407377, ,1.314182996749878
