NicholasDascanio/dvrk_moveit_final/test/execution/third_experiment_notsharpbends/thirdexp_600vel4.0/thirdexp_600vel4.0_1.csv
Current Position (x),Current Position (y),Current Position (z), ,Planned Position (x),Planned Position (y),Planned Position (z), ,Position Error,,Cartesian linear Velocity(x),Cartesian linear Velocity(y),Cartesian linear Velocity(z),Cartesian Angular Velocity(x),Cartesian Angular Velocity(y),Cartesian Angular Velocity(z), ,Total Linear Velocity, ,Total Angular Velocity, ,MSE, ,Joint 1 Position,Joint 2 Position,Joint 3 Position,Joint 4 Position,Joint 5 Position,Joint 6 Position, ,Joint 1 Velocity,Joint 2 Velocity,Joint 3 Velocity,Joint 4 Velocity,Joint 5 Velocity,Joint 6 Velocity, ,Time Stamp
0.008620986099152357,0.020029829941669186,-0.07760847822934423, ,0.008655119744101913,0.02007374185394999,-0.07766799309926178, ,8.145785105809257e-05, ,2.1765912897333772e-05,-2.1699825437072643e-06,3.871388059467922e-06,-0.01780087922959708,0.000686216693700477,0.0009741219075570069, ,2.2213766767509416e-05, ,0.0178141010072755, ,6.788154254841048e-06, ,0.12966468495822953,-0.2492975399128414,0.08722346523,1.6701803998542366,0.1649202552168866,-1.247599280397163, ,0.00028286537503482116,2.166739759811945e-05,-1.938874574587314e-06,0.0,0.0,0.017832564070771606, ,0.0209500789642334
0.008605264601458027,0.020031468983270125,-0.0776158075492603, ,0.008725968949569111,0.02009034755359286,-0.07781556880625305, ,0.0002407089227500632, ,-0.0029137933494053124,0.0003287245288309703,-0.00029440386558443935,-0.34622970949433857,0.3874182611078008,0.12075742742715123, ,0.002947019703864369, ,0.5195843731063572, ,1.464394426400708e-05, ,0.12973418955409755,-0.24927437171421873,0.08723253926,1.6701803998542366,0.16737971221266457,-1.2400483900672525, ,0.00688962295597074,4.2523446255176034e-05,0.0005769993595791688,0.0,0.3881158828288794,0.3731946799449499, ,0.04156303405761719
0.008565395979803641,0.020042766056510584,-0.07764453051859818, ,0.00879668255899476,0.020106782471118752,-0.07796271407761769, ,0.00039853777773698855, ,-0.0038037001092243073,0.0014387607592650955,-0.003986898363971561,-0.1937387992839986,0.5380575841185573,0.1162636381727572, ,0.005695043951362728, ,0.5718747119557714, ,2.252201723578576e-05, ,0.12980369414996556,-0.2492666489813445,0.0872662428,1.6708094696846902,0.17284517220328216,-1.2369906621221776, ,0.006956727898111699,3.680695035237533e-05,0.0045471914130745085,0.038989138453457084,0.5423092083713605,0.23584525547852575, ,0.062207937240600586
0.008541475381716932,0.020090897423828854,-0.07782949979608489, ,0.008867260583057465,0.02012304740663367,-0.07810942974368777, ,0.00043073239299104793, ,0.0024879444342645997,0.0015544016456391393,-0.007202499717009997,0.5131511842404294,-0.08255879893587117,-0.02856607880156983, ,0.007777019619203937, ,0.5197500294850458, ,2.741516534609982e-05, ,0.13015893986217988,-0.24919714438547647,0.08746587146000001,1.6710191596281745,0.1813166351887395,-1.2353223044365969, ,0.015377887142840833,0.003268678807709633,0.007531352964539008,-0.018925891985497614,-0.037208651353184255,-0.5232541838630416, ,0.0842139720916748
0.00864967636725136,0.02011707409060595,-0.0779676911324827, ,0.008937703033347979,0.020139143158732043,-0.07825571663380021, ,0.00040792780434764674, ,0.008255463609278575,0.0013476682146020466,-0.008623796130313654,-0.11367133646265161,-0.5985559683522992,-0.13750160898878083, ,0.012014106238833758, ,0.609253986392922, ,2.998778363238152e-05, ,0.13052190830726842,-0.24912763978960845,0.08760716707,1.6710191596281745,0.17448481020046747,-1.2435551163355307, ,0.022074189708878988,0.0061984542319192286,0.008680551237057221,-0.012917017222290121,-0.5981436797711907,0.06588103131318035, ,0.10633492469787598
0.008761505162031046,0.02015951626350429,-0.07818438422829463, ,0.009008009922367671,0.020155070524498074,-0.07840157557629958, ,0.0003285672581255405, ,0.00016903629628014632,0.0009208380763581471,-0.004294184775185,0.22649852456792652,0.22121671247542976,0.06374939268852396, ,0.00439505846556809, ,0.31660450961479436, ,3.045051624208677e-05, ,0.13132507252618777,-0.24896546239924974,0.08783531411,1.6710191596281745,0.1722986262042204,-1.2433243259390587, ,0.025620124610818248,0.004694612525100094,0.004756288898178561,-0.008513057493590855,0.27002079593401934,-0.21481642438737972, ,0.1318349838256836
0.00880318099983929,0.020172332846578572,-0.07827285671736697, ,0.009078181263527689,0.020170830299506785,-0.0785470073985376, ,0.00038831172872153495, ,0.0031883977965292444,0.0009184368158152797,-0.005444463626413181,-0.18444401196381613,-0.0033819527258232562,0.015712310041597923, ,0.0063758600104529915, ,0.1844750149715788, ,3.161449632959604e-05, ,0.13195061388899998,-0.24881873047463948,0.08793123957000001,1.6708094696846902,0.17448481020046747,-1.2420032202728601, ,0.033461544978304225,0.006746709347651476,0.005845435420183487,0.0,0.021394505583497692,0.1797770723492175, ,0.15040898323059082
0.008838123606110694,0.020182686965854454,-0.0783372082896859, ,0.009148217071147303,0.020186423277824665,-0.07869201292687533, ,0.0004712305674048214, ,0.003639870877986246,0.0012076237477220367,-0.006933026555772269,-0.01234442309204008,-0.025176627021103192,0.001919131690684831, ,0.007922996424807857, ,0.028040101883138966, ,3.350578418458215e-05, ,0.13231358233408852,-0.24873378041302302,0.08799994294,1.6708094696846902,0.17475808319999833,-1.2410008749781445, ,0.03533020906867862,0.007805764324030826,0.007384706314325453,0.0,0.010239716475549098,0.005306903511256955, ,0.18002605438232422
0.008959859525824274,0.02021629519546599,-0.0785568343474343, ,0.009218117360452964,0.020201850252010788,-0.0788365929866843, ,0.00038101267928185604, ,0.0033717584267988106,0.00030884835707696036,-0.004223933681082804,0.006451982776797334,-0.03750201683406139,0.003717036677144003, ,0.0054134792821755266, ,0.03805298079033674, ,3.4005293287147746e-05, ,0.13359555599120979,-0.24840942563230559,0.08823457143,1.6714385395151437,0.17585117519812185,-1.2427090056091215, ,0.03518611107099398,0.01000986759982648,0.004513689861150468,-0.006322425111287395,0.00015540717956147887,-0.017235524068652818, ,0.20053410530090332
0.00899185836860648,0.020224593784720274,-0.07861143195173585, ,0.009287882147576844,0.020217112013118006,-0.07898074840234724, ,0.0004733716249569658, ,0.0035856945299583285,0.0011126344661187971,-0.006390801894360071,0.03646838936471158,-0.021264976153980215,0.007471025529877601, ,0.007411984185784857, ,0.042215431100784406, ,3.5312339287985866e-05, ,0.13436782927863225,-0.24823952550907263,0.08838882994000001,1.6714385395151437,0.1759878116978873,-1.2427387447726774, ,0.03422176038891842,0.007667185168714229,0.008261831701244815,-0.006322425111287395,0.013337018847649294,-0.029334683827085428, ,0.2213740348815918
0.009072323866254596,0.020253909307812616,-0.07877757459166494, ,0.009357511449555678,0.020232209350694155,-0.07912447999726001, ,0.0004496067239701069, ,0.00351031787031787,0.0013462140960403836,-0.008518919855034326,0.00350416165171738,-0.03179829531786735,0.0037554556625467627, ,0.009311638923387702, ,0.03199079069259031, ,3.649968766977176e-05, ,0.13466129312785277,-0.24815457544745617,0.08846919992,1.6714385395151437,0.17612444819765274,-1.2428501626763737, ,0.029461950188907415,0.010543264288907719,0.00892370393277311,-0.006322425111287395,0.0,-0.014823049272816588, ,0.23833394050598145
0.009136292655886606,0.020281284116020017,-0.07894796158946407, ,0.009427005284329602,0.020247143052783606,-0.07926778859383203, ,0.00043355363827112604, ,0.0031558662189941256,0.0015793605326756889,-0.008736340340348911,0.04626249792749267,0.0175614305517721,-0.001396113252995747, ,0.00942218200985152, ,0.049483557942251774, ,3.737515808013159e-05, ,0.13524822082629384,-0.2479460616598521,0.08864808794000001,1.671228849571659,0.17680763069647995,-1.2434072521948558, ,0.030068739403824703,0.009106052713617255,0.009223399837869139,0.010136960465391325,0.04957008285683616,-0.050832307129493014, ,0.25711894035339355
0.009215896529538005,0.020316941443447135,-0.07914379111969772, ,0.009496363670740535,0.020261913905926642,-0.07941067501348748, ,0.00039104585401749634, ,0.00357017179316059,0.0012995008447107535,-0.007679725282374334,0.01836241048688419,-0.012146935674519944,-0.009758765369312493, ,0.008568139208184179, ,0.022016496961515142, ,3.779895212118827e-05, ,0.13599732591509361,-0.24773754787224805,0.08885549434000001,1.6718579194021128,0.17762744969507258,-1.2440757596170344, ,0.033579951011490014,0.009125323034209855,0.008143564171779142,0.012722373919802901,0.020329076598419166,-0.02445158077000088, ,0.2770349979400635
0.00928499511876664,0.02032657318880965,-0.0792623156597671, ,0.009565586628531221,0.020276522695162363,-0.07955314007666683, ,0.00040720448024472093, ,0.003300785000846657,0.0002383281402521324,-0.005405285044747539,-0.006362098801392066,-0.028950039249676516,-0.014590822688004641, ,0.00633790883014435, ,0.02964086822450249, ,3.8284560173029044e-05, ,0.13666920367515115,-0.24747497495452442,0.08897993818000001,1.6718579194021128,0.17776408619483802,-1.2441871775207307, ,0.03172749634184914,0.014559211653646943,0.005634528305624337,0.012722373919802901,0.0,-0.0064014953610354, ,0.2937910556793213
0.009336732224896577,0.02034088530034099,-0.07937482463664423, ,0.00963467417834375,0.020290970204029007,-0.0796951846028277, ,0.00044033104864048354, ,0.0031244716719469033,0.0013681811022288346,-0.008249231208255272,0.09304386499149261,0.06707650207301992,0.008488773078297164, ,0.008926592758972906, ,0.11470142939260433, ,3.893605681985369e-05, ,0.13724068590784377,-0.2472819066326688,0.08909919686000001,1.6718579194021128,0.17885717819296154,-1.2450785207503021, ,0.0368102954066993,0.010712915714601227,0.008790734834437087,0.012722373919802901,0.10965734027456275,-0.09497177209477982, ,0.31452298164367676
0.009425053307168049,0.020374673570274157,-0.0795924493117761, ,0.009703626341718268,0.02030525721456473,-0.07983680941044571, ,0.00037700586711657204, ,0.0040865215974004235,0.0009198328672537174,-0.007680260941233824,-0.031508326799272186,-0.0481576773329606,-0.015394319680308851, ,0.008748266079352078, ,0.05754942673105102, ,3.910645012586579e-05, ,0.13808246379113423,-0.2469961655163225,0.08932864019,1.6718579194021128,0.17995027019108506,-1.2458065064995925, ,0.035409306551668206,0.0132278981821119,0.008061139433198382,0.010824571637324166,-0.016980240005157188,0.018783966598724902, ,0.3330531120300293
0.009464889584143862,0.02038123424226817,-0.079663008043655, ,0.00977244314109177,0.020319384507309742,-0.07997801531701616, ,0.00044457188662371574, ,0.0037283651988794905,0.0004803720803687533,-0.006499670830217775,-0.039743425108695864,-0.030150476283736342,-0.006548667271678042, ,0.0075084742320259265, ,0.04988578001702184, ,3.966774609853805e-05, ,0.13843770950334855,-0.24684943359171221,0.08940252872000001,1.6720676093455973,0.1798136336913196,-1.2453683736353338, ,0.035056129131315394,0.014885794754269925,0.0068042765997437,0.006842677794267486,0.001923136357280128,0.02612847941547167, ,0.35896992683410645
0.009577925522170806,0.020395710429557137,-0.07983910947759247, ,0.009841124599796523,0.02033335286130568,-0.08011880313905423, ,0.00038908966195871615, ,0.003760564623168114,0.0003609353870147864,-0.005346896301730504,0.0017440889410144456,-0.028540498516099327,-0.006826946177484127, ,0.0065468634245783985, ,0.028593738779868597, ,3.9852113610445376e-05, ,0.13957295123585955,-0.2464555742151268,0.08958919448000001,1.6722772992890815,0.18022354319061595,-1.2454575911260013, ,0.03803484631602035,0.012941080261621543,0.005682772572244025,0.006759752158164702,0.008850058371525044,-0.013100320385152924, ,0.3773350715637207
0.00960519918382912,0.02039984931324962,-0.07988532989879749, ,0.009909670742059135,0.020347163054098862,-0.0802591736920967, ,0.00048501335390137605, ,0.003259219875277668,0.00045261635711705563,-0.00583382378290167,0.03413448692425794,0.010191993968354972,0.0016331060544776967, ,0.00669782619154036, ,0.03562358673514114, ,4.05425197929993e-05, ,0.13987413781795432,-0.24635517868776186,0.0896384535,1.6722772992890815,0.18063345268991227,-1.2457918448370906, ,0.035303921710740614,0.013500774158268712,0.006173957953488373,0.006309281556820766,0.04794802415553,-0.04360214523386044, ,0.39801812171936035
0.00971462229381567,0.020419118136198178,-0.08009354392872031, ,0.009978081592998733,0.020360815861739264,-0.0803991277907025, ,0.0004076658610149548, ,0.0032311403180179357,0.0005589854259155663,-0.0060936439686389635,-0.005359061269249017,-0.020878090986689198,0.00040407139366864997, ,0.0069199154097168755, ,0.02155491156404928, ,4.0765348870488684e-05, ,0.14094759768747153,-0.2459227056468053,0.08985752651000001,1.6724869892325662,0.18145327168850492,-1.2462153160388474, ,0.03014515297283062,0.012429199942170371,0.006394544969891611,0.0,0.009949926339828457,-0.006305536881363075, ,0.418194055557251
0.009750007450281307,0.020427844249564998,-0.08016492278492336, ,0.010046357178625948,0.020374312058782904,-0.08053866624845438, ,0.00047997190904471915, ,0.003773919515451025,0.0010616751550723376,-0.007761170415489514,-0.018249457926042545,-0.03153769997411008,-0.004383965693417284, ,0.008695135931212902, ,0.03643719536532905, ,4.153459446089273e-05, ,0.14127195246818897,-0.2457991419208177,0.08993271133000001,1.6726966791760507,0.18158990818827037,-1.246326733942544, ,0.032734371010165846,0.011547449690736284,0.008172812478193948,0.0033259611461519656,0.0,0.007294634196258005, ,0.43366289138793945
0.00982898983256254,0.02045905487981882,-0.08037128979597107, ,0.010114497525841652,0.020387652418293278,-0.08067778987795884, ,0.00042491793877404274, ,0.0035973787624782954,0.001454303026258689,-0.009323276804704005,0.013301456856216674,0.003445213794131883,0.0031478335385732147, ,0.010098496008319593, ,0.01374038507980221, ,4.197998476419514e-05, ,0.1420442257556114,-0.24552112353734562,0.09015048805,1.6726966791760507,0.1830929096856902,-1.2473889734029233, ,0.03172749634184914,0.011769433406730843,0.009808381477832513,0.0033259611461519656,0.03682106655241807,-0.02211950190287555, ,0.45143795013427734
0.009869936918414928,0.02047364427500926,-0.08047164735566543, ,0.010182502662435138,0.02040083771184082,-0.0808164994908484, ,0.00047108506144385374, ,0.0037493589176003216,0.001543006868932609,-0.010115414045544733,-0.012486766068988417,-0.010070519768998797,-0.006224811338546853, ,0.010897713696155076, ,0.01604165170342454, ,4.2606119872205754e-05, ,0.14236858053632884,-0.24538211434560958,0.09025548754000001,1.6729063691195354,0.1830929096856902,-1.247225615922642, ,0.030059214937748106,0.012980022097999012,0.010583927920265782,0.009508819526014716,0.018201111144606177,0.0021662443292008327, ,0.4665830135345459
0.009920036089260582,0.020493676365502915,-0.08060407838965035, ,0.01025037261708325,0.020413868709505692,-0.08095479589778115, ,0.0004883587350290628, ,0.003740523418699164,0.0012906952885403766,-0.009039793436392371,0.0036718269059217916,-0.02239442232205191,-0.009969844351184125, ,0.009867891119501664, ,0.022693444066501877, ,4.3264645658149576e-05, ,0.14277788537866273,-0.24521221422237663,0.09039419057,1.6729063691195354,0.18336618268522106,-1.2472034155096134, ,0.030484080166550197,0.012644495877211297,0.009470161426872773,0.009403170961152162,0.006812116603506818,-0.014482863815523942, ,0.48246097564697266
0.009972248465369236,0.02051443857404175,-0.0807439941505601, ,0.010318107419348686,0.020426746179877837,-0.08109267990844289, ,0.0004988888952384601, ,0.0030974539822298205,0.0011232600326630063,-0.008064682161435145,0.05162015819189241,0.06113915156536754,0.012193893828225475, ,0.008711775515816492, ,0.08001647675182091, ,4.392314449424124e-05, ,0.14330303121411,-0.245019145900521,0.09054196763000001,1.6729063691195354,0.18459591118311003,-1.2480428191625998, ,0.03445785822747668,0.012456936408305431,0.008554678582169711,0.008292981758306565,0.10004714040834696,-0.056336916496443144, ,0.49776196479797363
0.010046873924742869,0.020525741118528062,-0.08088052308835503, ,0.010385707099678818,0.02043947089005869,-0.08123015233154768, ,0.0004944603932094047, ,0.003886650853809795,0.0005668584152104752,-0.006790564302187196,-0.028207069801227207,-0.017989994459957193,-0.00975586492214266, ,0.007844689086538384, ,0.03345562244230188, ,4.451929131613905e-05, ,0.14402896810428711,-0.24471795931842627,0.09068585582000001,1.6733257490065043,0.18514245718217182,-1.2481617758168233, ,0.03689616701340232,0.014689929033819004,0.007162235395683454,0.013070082852208727,0.015398468836186448,0.016570106541340376, ,0.5135219097137451
0.01008897438680504,0.02053238869579484,-0.08095957975492014, ,0.010453171689404161,0.020452043605661843,-0.0813672139748384, ,0.0005525039963451115, ,0.004400497489714925,0.000828115599940878,-0.008617953353592289,-0.004982453297186115,-0.035907500978211014,-0.014096856998810315, ,0.009711811036492903, ,0.03625152989631028, ,4.5311023839590655e-05, ,0.14441510474799832,-0.24454805919519332,0.09076881838,1.673535438949989,0.18527909368193726,-1.2480281575000984, ,0.03815719403235657,0.01686457109622726,0.009024822390934847,0.011517682509499408,0.0,-0.010131100618377542, ,0.5296308994293213
0.010176429039803809,0.020556815393946926,-0.08115935777072651, ,0.010520501220737125,0.020464465090814704,-0.08150386564508819, ,0.0004955803866962664, ,0.004525538501567415,0.0012186141536448577,-0.01062497657515728,0.011173846798887685,-0.0014629579542219532,0.020837116126476485, ,0.011612736387573496, ,0.01126920418016335, ,4.583091523013574e-05, ,0.14521054623404345,-0.24421598168160166,0.09097881736,1.6737451288934733,0.1860989126805299,-1.2486149861821363, ,0.04099219937730919,0.018027534490590955,0.011139029034965036,-0.014059308587692903,0.04602198015700622,-0.027998552809757934, ,0.5444350242614746
0.010216363289070865,0.02056680426415849,-0.08124857014812391, ,0.010587695726770513,0.020476736108158995,-0.08164010814810131, ,0.000547085055032047, ,0.0048672814888483735,0.0011312714963826267,-0.010499787106655922,-0.016306794979198413,-0.031113514817868337,0.014392151620792465, ,0.011628230027622938, ,0.03512779866715399, ,4.6514391492222716e-05, ,0.14555034648050932,-0.24406152702411718,0.09107215024000001,1.6737451288934733,0.18623554918029533,-1.2487264040858326, ,0.04186014184317194,0.018437330786569027,0.01099296861283644,-0.014059308587692903,0.014815483229347788,-0.002933866391085623, ,0.5628640651702881
0.010332286520589463,0.020585085895486993,-0.0814654906132226, ,0.010654755241476133,0.020488857418852095,-0.08177594228871343, ,0.0004578495806275499, ,0.004469612585906654,0.0004051075072519267,-0.007270894442067346,-0.0005190495844255096,-0.0186692681415865,-0.011466884268723528, ,0.008544439990321945, ,0.01867648160368606, ,4.682959167122921e-05, ,0.14662380635002653,-0.24361360851741215,0.09130029728000001,1.673535438949989,0.1867820951793571,-1.2490903969604776, ,0.04335173209614928,0.018037814400013452,0.0076765356722891575,0.014321265286656644,0.02274909953874744,-0.013828030185057554, ,0.5784730911254883
0.010378332606729022,0.020588102943880696,-0.08154195283880164, ,0.010721679799703527,0.02050082978256875,-0.08191136887079362, ,0.0005118321055791142, ,0.0043885831388293505,0.00044003229082187345,-0.007981233322815551,0.021712094119844462,0.005038671733397475,-0.004554996580984665, ,0.009118847281131787, ,0.022289082787778993, ,4.748917935538874e-05, ,0.14707172485673156,-0.2434128174626823,0.09138066726,1.673535438949989,0.18705536817888796,-1.2493132327678707, ,0.04393376924003276,0.019823885848855395,0.008401271898734177,0.012500910991388767,0.0496023877347118,-0.03636975264848632, ,0.5915820598602295
0.010475761097526671,0.02060064396976198,-0.08171156419519252, ,0.010788469437178263,0.0205126539575007,-0.08204638869724405, ,0.00046651494629803154, ,0.005033918788772633,0.0005246909839424939,-0.008406965040052719,-0.012096749757767679,-0.03353193403024772,-0.016104831504465667, ,0.009812884396815102, ,0.035647186600292466, ,4.795802792465556e-05, ,0.14798300733589007,-0.2430266808189711,0.09155955528000001,1.6741645087804424,0.1874652776781843,-1.2496474864789597, ,0.04640437240023021,0.0198737050384232,0.0088542587659811,0.015960861081459082,0.00961275110088448,-0.004648495644308741, ,0.6045889854431152
0.010521736472821031,0.02060800759596813,-0.08180282648751955, ,0.010855124190501043,0.020524330700360156,-0.08218100257000174, ,0.0005110443645321368, ,0.0047901670110390895,0.0010075652250314863,-0.010134833947956473,0.016806288123753645,-0.001376027706029534,-0.009542952647012956, ,0.011255032066990786, ,0.01686252252245839, ,4.855645170984173e-05, ,0.14841548037684663,-0.2428336124971155,0.09165548074,1.6741645087804424,0.1878751871774806,-1.2499817401900493, ,0.04373130947394967,0.019414267912944105,0.010654723424749164,0.015960861081459082,0.041614092077072444,-0.031039649563646264, ,0.6176350116729736
0.01057129814470238,0.02061907192549328,-0.08190883820258, ,0.010921644097145484,0.02053586076637748,-0.082315211290039, ,0.0005429599152843794, ,0.00502976649648942,0.0011559791298715576,-0.010365048706817268,0.0100018083929592,-0.013913371202665118,-0.012071968006897577, ,0.011578820037145424, ,0.017135283765319972, ,4.923333422089335e-05, ,0.14914141726702373,-0.2425247031821465,0.09183566505000001,1.6741645087804424,0.1884217331765424,-1.2502640543245538, ,0.0435307071369132,0.01818994471122691,0.011046332538141471,0.015960861081459082,0.01353127461230474,-0.007879935096149654, ,0.6342968940734863
0.010637344994249157,0.020634286137540873,-0.08204688625329762, ,0.01098802919545766,0.020547244909306712,-0.0824490156573644, ,0.0005406141341149543, ,0.004909832602178532,0.001232631820298511,-0.01036890943477102,-0.005964090504052927,-0.025442620563032446,-0.014797060276196167, ,0.011538635978845642, ,0.026132301789115766, ,4.9871708144569904e-05, ,0.1501376498077987,-0.24209995287406416,0.09206899725,1.6741645087804424,0.18910491567536958,-1.250412750142333, ,0.04131342688657849,0.01702492672380172,0.007789149887530563,0.012899044600151536,0.042706583041580586,-0.02895660006394946, ,0.6539249420166016
0.010758104864600377,0.02065099639408887,-0.08226541288719368, ,0.011054279524653854,0.02055848388142239,-0.08258241647102368, ,0.00044358681948264384, ,0.0041621984273275065,0.0002027439850380351,-0.006137354634904436,0.005684345731155431,-0.010859530008870707,-0.007182228977018083, ,0.00741836388878974, ,0.012257290471271191, ,5.017261534989046e-05, ,0.15057012284875526,-0.2419300527508312,0.09214288578,1.6741645087804424,0.18937818867490044,-1.250635585949726, ,0.041712941344382755,0.016810795670233972,0.006525527046292504,0.011597630251278286,0.030102932723488386,-0.018679168339811054, ,0.668036937713623
0.01084105239241995,0.020657286452045006,-0.08239485986575505, ,0.01112039512481964,0.020569578433523618,-0.08271541452910047, ,0.0004341432377107467, ,0.003922385640167757,0.0007208315341473816,-0.007070077692644214,0.018833865825160466,-0.006516400123338767,-0.008558175887575967, ,0.008117309023983306, ,0.019929323993108754, ,5.043097961861792e-05, ,0.15138100980054883,-0.24159797523723955,0.09228029252000002,1.6745838886674116,0.18992473467396223,-1.2507545426039492, ,0.03701128765930997,0.01341489137100237,0.007520685325779038,0.012926247099612823,0.029945646210227335,-0.028298690099557065, ,0.6877748966217041
0.010878360817803403,0.020662298214680408,-0.08245964131797479, ,0.01118637603690819,0.020580529314934193,-0.08284801062871737, ,0.0005023845635492254, ,0.0037069570987815757,0.00045633265276693734,-0.006810465318436024,0.016707527710664933,0.00858763380403371,-0.004487776618515706, ,0.00776738104355698, ,0.018785337950200872, ,5.088636896684627e-05, ,0.15173625551276318,-0.24145896604550351,0.09234899589000001,1.6745838886674116,0.1901980076734931,-1.2510590571514828, ,0.036484791064387075,0.015740079873688965,0.007204347137042063,0.01233070709087058,0.0451450413360856,-0.027542372867888576, ,0.7008941173553467
0.010959449279729352,0.02068012661756355,-0.08263506779410118, ,0.011252222302739054,0.020591337273503475,-0.08298020556603651, ,0.000461215429314048, ,0.004498678645983186,0.0013167366849480538,-0.01018242587875786,-0.012292896573359174,-0.02425125057765544,-0.009910335440510874, ,0.01120953620065125, ,0.027188938031547434, ,5.1199834180416795e-05, ,0.15242357873856915,-0.2411423339976603,0.09253306907000002,1.6745838886674116,0.1906079171727894,-1.2513933108625719, ,0.03578316046699501,0.015137492671633558,0.010704846451612904,0.010354999643394874,0.009408192432557526,-0.0005198237418290556, ,0.7159581184387207
0.011004554779632145,0.020695349212521003,-0.0827404535838962, ,0.011317933964996247,0.02060200305560743,-0.08311200013626033, ,0.0004949412686407049, ,0.004224403000084161,0.0014486653696296216,-0.009619248166630578,0.017541812580176046,-0.003051264427354876,-0.00418595851959917, ,0.010605382942237868, ,0.017805204880755834, ,5.1599081049942486e-05, ,0.1528097153822804,-0.24100332480592426,0.09264455001,1.6745838886674116,0.19101782667208575,-1.25156420709338, ,0.03600035719213611,0.012191282317378056,0.010197702637644048,0.009526671654544303,0.03320177403862638,-0.026063480405423202, ,0.7306749820709229
0.011053553592520051,0.020710810994260385,-0.0828533278287244, ,0.011383511067227601,0.02061252740615086,-0.08324339513363292, ,0.0005202731024814415, ,0.004212477960177618,0.001134433500061022,-0.009471707844659056,0.009996431281153365,-0.008432182523213545,0.003748177603369204, ,0.01042809471694704, ,0.013077853961215507, ,5.205489633685322e-05, ,0.1532267429574885,-0.24084114741556556,0.09276380869,1.674793578610896,0.19142773617138206,-1.2518984608044694, ,0.03564873837658557,0.01506539792958736,0.00997420884157796,0.0,0.029453905255749056,-0.023001324043454507, ,0.744826078414917
0.01109809096199227,0.020723377827390553,-0.08295043431879175, ,0.011448953653842466,0.020622911068567205,-0.08337439135144, ,0.0005594084050966178, ,0.004495754497270545,0.0013130353411991871,-0.009636333515946262,-0.013574648777756966,-0.025156825519542597,-0.0023484837004455186, ,0.010714233240765092, ,0.028585606108113, ,5.275089359622082e-05, ,0.15394495711479136,-0.24056312903209348,0.09296862251000002,1.6750032685543808,0.19197428217044385,-1.2519357387185523, ,0.03458343351256224,0.014332720368293427,0.010390614168297457,0.0032600724247848546,0.035764826576347435,-0.019956315538771, ,0.7558600902557373
0.011188214754460907,0.020752461962906588,-0.08316752391937487, ,0.011514261770110843,0.020633154784820567,-0.0835049895820105, ,0.00048417345302606, ,0.004286976173893725,0.001397548378610785,-0.010331508471249008,0.032490546161645296,0.024504410398389524,-0.001210395786398091, ,0.011272593910790015, ,0.040695228235547005, ,5.3215348143170215e-05, ,0.15436970742287373,-0.2403855061759863,0.09309177006000001,1.675212958497865,0.19279410116903647,-1.2525225674005902, ,0.038326713068849265,0.015113384545066218,0.010880335737704918,0.013070871562157691,0.06410128859046299,-0.041222034733651144, ,0.771306037902832
0.011235228762835194,0.020767471557493374,-0.08327419974815986, ,0.011579435462161777,0.020643259295406464,-0.08363519061671719, ,0.0005140246541712003, ,0.004320883858653924,0.0012113894257175734,-0.009489090674535848,-0.011589611909088316,-0.015811793032083573,0.010384273343859234, ,0.0104966824992604, ,0.019604382830323966, ,5.374595458816253e-05, ,0.1547712895323334,-0.24023105151850183,0.09320843616,1.6754226484413495,0.19306737416856737,-1.252582045727702, ,0.035810166625838025,0.013939033718929314,0.010018120452830188,-0.007282465265171807,0.0225954813611169,-0.0017714241573235888, ,0.7826340198516846
0.011272434290594251,0.02077466219231784,-0.08334416723868697, ,0.011644474776981646,0.02065322533935285,-0.08376499524597696, ,0.0005746801236245003, ,0.004736984669632375,0.0008421954286111875,-0.008788475708517941,-0.022969858549218354,-0.02797842254743112,0.008626669640893703, ,0.010019262556671307, ,0.03619953698025928, ,5.442210578412909e-05, ,0.15508019884730237,-0.24010748779251423,0.09328232469000002,1.6754226484413495,0.19306737416856737,-1.2524186882474206, ,0.041116525805229974,0.016224472825862674,0.009298780805604204,-0.007282465265171807,0.015009846076097582,0.006869264740040572, ,0.7936739921569824
0.011322676102310154,0.020784227903211897,-0.08344859387682742, ,0.01170937976241317,0.020663053654221667,-0.08389440425925218, ,0.0006024697639161063, ,0.004453424792378123,0.0007090792822753323,-0.009145227979826087,-0.010728642545915861,-0.013278375514104813,0.010735775281148396, ,0.01019661613541052, ,0.017070997721344662, ,5.515017208811677e-05, ,0.15553584008688162,-0.2399066967377844,0.09339250934000001,1.6754226484413495,0.1936139201676291,-1.2527826811220657, ,0.03841981439614202,0.018676823766674035,0.009595669590361447,-0.007282465265171807,0.028204282161507128,-0.00696273423975002, ,0.8047659397125244
0.011341467286741793,0.020787646085633944,-0.08348807711255146, ,0.011774150467153377,0.02067274497610945,-0.0840234184450513, ,0.000697859113191015, ,0.004428065217523101,0.0008844656180341003,-0.009489534103337348,0.01742443022801578,0.011227053278888571,0.01660372819251575, ,0.010509105504205623, ,0.020728179301260103, ,5.6103309959966935e-05, ,0.15569801747724035,-0.23982946940904215,0.09343399062,1.6754226484413495,0.19375055666739455,-1.2528124202856217, ,0.04050232247480613,0.01791860678974146,0.010011823708359523,-0.007282465265171807,0.057148637356259926,-0.032521702528119104, ,0.8176279067993164
0.011432561502388777,0.020811488531819886,-0.08368663350990975, ,0.011838786940752683,0.02068230003964891,-0.08415203859092964, ,0.0006311185805555763, ,0.005528525481630537,0.0014843611153146643,-0.012398899896297564,-0.0044602281427363905,-0.02109817038690736,-0.011006401986684502, ,0.013656523736299223, ,0.021564464652009032, ,5.6856503619291167e-05, ,0.15648573623041123,-0.23952056009407316,0.0936439896,1.675212958497865,0.1945703756659872,-1.2533992489676598, ,0.04397448635703002,0.01945805650163436,0.013045709680589684,0.013106416500621436,0.021091059429076794,-0.011415092382601005, ,0.8287339210510254
0.011499758881670943,0.020827640471996544,-0.08383081737820589, ,0.011903289233613099,0.020691719578009856,-0.08428026548348982, ,0.0006191242473882146, ,0.006175274023195856,0.0014370196023016698,-0.012695525156839475,-0.029857110317663978,-0.04642136634606887,-0.009207573690920406, ,0.014190679814825672, ,0.05519411164386145, ,5.7556718293529124e-05, ,0.15701860479873272,-0.23928115537497222,0.09379565553000001,1.6754226484413495,0.19470701216575265,-1.2534289881312155, ,0.048615236454134625,0.02062080433691238,0.013374316977329978,0.006863281721625607,0.0,0.010565153170171412, ,0.8407258987426758
0.011610677819173675,0.020855522639277996,-0.08408166254178832, ,0.011967657396986972,0.020701004322901,-0.08440809990838379, ,0.0005078106767108401, ,0.005578607843208992,0.0012458892706975755,-0.01161928137146757,0.02413892351428843,0.00853914538458561,-0.008975223372184994, ,0.012949162333235517, ,0.025604773393689655, ,5.7959870568838466e-05, ,0.15796077820938811,-0.23885640506688985,0.09406009869000001,1.6758420283283186,0.19580010416387617,-1.2541569738805058, ,0.04934838354574663,0.020346685582862515,0.012309746151468317,0.01866778987225983,0.05743989835729088,-0.037674002786932684, ,0.8630509376525879
0.011736362618888616,0.020865109376443897,-0.08428527825527458, ,0.012031891482975128,0.020710155004569467,-0.08453554265031132, ,0.00041710961903841095, ,0.005012816815772545,-9.129781523986873e-05,-0.006371918132399734,-0.02943834304549888,-0.031838793867202536,-0.016175499946801727, ,0.008107897903005692, ,0.04336271238839629, ,5.812943143833817e-05, ,0.159057406277528,-0.2383698728958137,0.09427528283000002,1.6758420283283186,0.1959367406636416,-1.2536966406032184, ,0.04744847077923539,0.020351049015327208,0.006798468425096031,0.01716071911987373,0.011246695768242774,0.012770368548770419, ,0.8748528957366943
0.011784475010214158,0.02085997076114589,-0.08434248304593457, ,0.012095991544525748,0.020719172351803355,-0.08466259449302332, ,0.0004683354372457283, ,0.004809489123222414,-0.0007482585754665301,-0.005068174271217477,-0.028736136916046838,-0.026436961989985575,-0.01316457357708869, ,0.0070269102004782095, ,0.039047132042876055, ,5.8558630182430054e-05, ,0.15955166118147837,-0.238138190909587,0.09433620846000002,1.6758420283283186,0.19634665016293792,-1.253949215574167, ,0.0481955010454397,0.024085518162048423,0.005374092955465587,0.014987570210331537,0.018381179789161515,0.008514120585625593, ,0.8840980529785156
0.011810658687479008,0.02085601687854157,-0.08437773634034322, ,0.012159957635432917,0.02072805709193306,-0.08478925621932071, ,0.0005547360388727682, ,0.004303056511566468,-0.0004966064803976328,-0.006179516438560792,0.06987268656766939,0.04891829744947507,0.003320239144236176, ,0.007546478433849166, ,0.08529473690989436, ,5.918379220620242e-05, ,0.15986057049644736,-0.23798373625210248,0.09437380087000001,1.6758420283283186,0.19702983266176513,-1.2544246263525087, ,0.04899170963266432,0.024887737098995746,0.00657129188118812,0.013918973895589873,0.10268456442116669,-0.08575387974594817, ,0.8966948986053467
0.011874299858019213,0.020857048473491454,-0.0844792426286186, ,0.012223789810334782,0.02073680995083083,-0.08491552861105585, ,0.0005717919093274985, ,0.005411097931779883,0.0004923927632252932,-0.009604778509116504,-0.0005358192995721502,-0.011060597983667281,0.000698005479259576, ,0.011035134873202748, ,0.011073565294777302, ,5.983443595218469e-05, ,0.16047838912638532,-0.23769027240288196,0.09448139294,1.676051718271803,0.19771301516059234,-1.2549817158709908, ,0.04866509823511321,0.022567643652430622,0.010152206195028681,0.004461864673864237,0.03885345753246443,-0.018529785209527742, ,0.9064888954162598
0.011943381180848265,0.02086764843171046,-0.08461217890449486, ,0.012287488124712469,0.020745431652913773,-0.08504141244913367, ,0.0005635494349905749, ,0.006187416309548739,0.001261459085325683,-0.013165649675166423,-0.028853255306185963,-0.03426976528087337,-0.004461191108068021, ,0.014601703016457709, ,0.04479873612738329, ,6.045069995038901e-05, ,0.1610421486262037,-0.23742769948515832,0.09462139226,1.676051718271803,0.19784965166035778,-1.2547664188141248, ,0.048097790957157015,0.023466108199424032,0.013827093333333334,0.004461864673864237,0.012815995206359777,0.0072565422585476646, ,0.9157679080963135
0.012007962577502838,0.0208836495952829,-0.08476009730644192, ,0.012351052634888265,0.0207539229211435,-0.08516690851351176, ,0.000547754649142868, ,0.006490487309443625,0.001653722718132835,-0.014916579724856625,-0.02619290237543748,-0.025796444257791862,-0.00714773866423409, ,0.016351317226160133, ,0.036763078389897605, ,6.1016370801520165e-05, ,0.16152868079727983,-0.23718829476605738,0.09477046561000001,1.6762614082152878,0.1982595611596541,-1.254937315044933, ,0.0489159492569437,0.023915559868566225,0.015585921252446186,0.00928317665428825,0.021463907089583994,0.005445427654038698, ,0.9252378940582275
0.012059352275300507,0.02089839674205111,-0.0848908483680833, ,0.012414483398024425,0.020762284477028298,-0.08529201758320132, ,0.0005527941770453031, ,0.005893492643866123,0.0017074215585835299,-0.014810862562978755,0.03871582863456726,0.03477601193810304,0.006582318546132469, ,0.0160315374740374, ,0.0520411921509151, ,6.15806357742712e-05, ,0.16152868079727983,-0.23718829476605738,0.09477046561000001,1.6762614082152878,0.1982595611596541,-1.254937315044933, ,0.0489159492569437,0.023915559868566225,0.015585921252446186,0.00928317665428825,0.021463907089583994,0.005445427654038698, ,0.9350929260253906
0.012059352275300507,0.02089839674205111,-0.0848908483680833, ,0.012477780472121395,0.02077051704062381,-0.08541674043626832, ,0.0006841036773120185, ,0.005893492643866123,0.0017074215585835299,-0.014810862562978755,0.03871582863456726,0.03477601193810304,0.006582318546132469, ,0.0160315374740374, ,0.0520411921509151, ,6.24279341941826e-05, ,0.16196887657111064,-0.23697205824557907,0.0949143538,1.6762614082152878,0.1989427436584813,-1.2554127258232746, ,0.049042347058641224,0.023483529215162283,0.015601186601371206,0.008581069924379308,0.08768822180384407,-0.05490515596582798, ,0.9511480331420898
0.012182283936002134,0.02092875025306444,-0.08516898452570719, ,0.012540943916016558,0.020778621330534184,-0.08554107784983339, ,0.0005381720138611166, ,0.006711816598531233,0.001436563101889411,-0.014000112168787077,-0.02489097482848346,-0.04076410899969321,-0.004806056206899026, ,0.015592156243978878, ,0.04776267028344961, ,6.293134698458394e-05, ,0.16294194091326292,-0.23651641700599985,0.09520731534000001,1.676471098158772,0.19976256265707393,-1.2557545182848908, ,0.051630544917557544,0.023612078019027316,0.014748899555555556,0.0038012009778789534,0.010158476107945737,0.0028731904335083493, ,0.9607241153717041
0.012259164519117353,0.020942885751440224,-0.08531999154728115, ,0.012603973789382598,0.020786598063913364,-0.08566503060007348, ,0.0005122218485043115, ,0.005897844162875191,0.0007763381784341576,-0.010380729434764363,-0.03882174290568417,-0.04607843416627821,-0.005671614571178766, ,0.0119643976168731, ,0.06025238332969748, ,6.33665124330011e-05, ,0.16355203681032668,-0.236246121355402,0.09536675901000001,1.676471098158772,0.19989919915683937,-1.2556208999681655, ,0.047903554547436035,0.020897806993717415,0.010985387255172415,0.003456388422557469,0.0,0.018806649505296855, ,0.9710550308227539
0.012301064058654106,0.020947243352755288,-0.0853957418318772, ,0.012666870152726068,0.020794447956466032,-0.08578859946222188, ,0.0005581197445955567, ,0.005742208619962425,0.00040740247272097506,-0.00981393480092786,-0.025418562165755897,-0.015669185642489588,0.0019402489219364331, ,0.011377708595618579, ,0.02986011704994872, ,6.389219256901538e-05, ,0.16393045072116366,-0.23607622123216904,0.09544712899,1.676471098158772,0.20030910865613571,-1.255873474939114, ,0.05071990462772356,0.023718305813164406,0.010390614168297457,0.0032744133171439564,0.035188478466027184,0.004878648709351461, ,0.9815781116485596
0.012346859266351911,0.02094946937682158,-0.08548421510302744, ,0.0127296330673857,0.020802171722448873,-0.08591178521056927, ,0.00059247664815155, ,0.004914387377570263,0.0002703405117548069,-0.009417519288015569,0.01623331260761591,0.022814840755645237,0.00889032399372549, ,0.010626097911710725, ,0.02800066647144614, ,6.461985537220219e-05, ,0.16437064649499447,-0.23584453924594231,0.09554046187000001,1.676471098158772,0.2011289276547283,-1.2564603036211524, ,0.045689427808604126,0.024196058530971645,0.009924493158878505,0.0030780679936044954,0.072051760429729,-0.03496127174165552, ,0.9896180629730225
0.012418869173164348,0.020953921096511233,-0.08560944322743827, ,0.012792262595531281,0.02080977007467197,-0.08603458861846441, ,0.0005839098975655119, ,0.005678973048097683,0.00029091472658119915,-0.00936680544046193,-0.023191434448637884,-0.025903498695207552,-0.011147751558971415, ,0.010957755719974274, ,0.03476828733680157, ,6.531670864003239e-05, ,0.16499618785780665,-0.2355279071980991,0.09567268345,1.6768904780457412,0.20153883715402465,-1.2565495211118198, ,0.04906770504574497,0.023747983372990687,0.009905977313432835,0.013040244770658639,0.020628643309323045,0.003227083868326437, ,0.9977691173553467
0.012418869173164348,0.020953921096511233,-0.08560944322743827, ,0.012854758800161837,0.020817243724499574,-0.0861570104583149, ,0.0007130991118168152, ,0.005678973048097683,0.00029091472658119915,-0.00936680544046193,-0.023191434448637884,-0.025903498695207552,-0.011147751558971415, ,0.010957755719974274, ,0.03476828733680157, ,6.627601283802959e-05, ,0.16499618785780665,-0.2355279071980991,0.09567268345,1.6768904780457412,0.20153883715402465,-1.2565495211118198, ,0.04906770504574497,0.023747983372990687,0.009905977313432835,0.013040244770658639,0.020628643309323045,0.003227083868326437, ,1.005108118057251
0.01246661177036575,0.020958525947351092,-0.08570150824564746, ,0.012917121745103935,0.020824593381850626,-0.08627905150158738, ,0.0007446162648786444, ,0.005807466968788305,0.0007331280731451852,-0.012115754506903212,0.004412452194862337,0.007466225268085086,-0.006160272615236036, ,0.01345569235070222, ,0.008672600132516754, ,6.728551223492755e-05, ,0.165420938165889,-0.23531167067762082,0.0957699052,1.6771001679892257,0.2020853831530864,-1.2568318352463244, ,0.04881529915559196,0.026441053652402,0.012732862925659475,0.014825992078415444,0.05600403955644863,-0.02446987236770471, ,1.0127739906311035
0.01252744724021667,0.020971951195873324,-0.08584157063675966, ,0.01297935149501116,0.020831819755202454,-0.08640071251880967, ,0.000732457452981588, ,0.006563617529349592,0.0016629633246118287,-0.015253991553468405,0.017327817868247407,0.01840735807824796,-0.002526526705214952, ,0.016689241456815065, ,0.025280096471630247, ,6.825276777572479e-05, ,0.16593063853558782,-0.23506454322564563,0.09591768226000001,1.6771001679892257,0.20290520215167906,-1.2572553064480811, ,0.05292634777382642,0.024790214618200305,0.01610597726996967,0.014825992078415444,0.0721397270631216,-0.03471243485077268, ,1.0222430229187012
0.01252744724021667,0.020971951195873324,-0.08584157063675966, ,0.013041448115361082,0.020838923551588166,-0.08652199427956944, ,0.0008630582758353038, ,0.006563617529349592,0.0016629633246118287,-0.015253991553468405,0.017327817868247407,0.01840735807824796,-0.002526526705214952, ,0.016689241456815065, ,0.025280096471630247, ,6.947439759918732e-05, ,0.16593063853558782,-0.23506454322564563,0.09591768226000001,1.6771001679892257,0.20290520215167906,-1.2572553064480811, ,0.05292634777382642,0.024790214618200305,0.01610597726996967,0.014825992078415444,0.0721397270631216,-0.03471243485077268, ,1.0300579071044922
0.012674877715604717,0.021008911095355198,-0.08618033852889252, ,0.01310341167245521,0.020845905476601184,-0.08664289755251672, ,0.000651285677913689, ,0.007212109617396014,0.0017886221811537321,-0.016462831111120423,-0.01570793685601172,-0.028378157411953552,-0.010679610730428144, ,0.01806207359727907, ,0.03243544186691336, ,7.024110825117283e-05, ,0.1670272666037277,-0.23453167465732414,0.09627416201000001,1.6771001679892257,0.20358838465050627,-1.2570772873052984, ,0.052487246437207286,0.02603482621631572,0.017313925565217395,0.01197840883787787,0.02241717695078936,-0.006563239407714479, ,1.0382049083709717
0.012674877715604717,0.021008911095355198,-0.08618033852889252, ,0.013165242233416379,0.020852766234394013,-0.08676342310536327, ,0.0007777057292133817, ,0.007212109617396014,0.0017886221811537321,-0.016462831111120423,-0.01570793685601172,-0.028378157411953552,-0.010679610730428144, ,0.01806207359727907, ,0.03243544186691336, ,7.125280131880764e-05, ,0.1670272666037277,-0.23453167465732414,0.09627416201000001,1.6771001679892257,0.20358838465050627,-1.2570772873052984, ,0.052487246437207286,0.02603482621631572,0.017313925565217395,0.01197840883787787,0.02241717695078936,-0.006563239407714479, ,1.0458390712738037
0.012754379543435173,0.021026497464823303,-0.08636394018117001, ,0.013226939866188064,0.020859506527681145,-0.08688357170488463, ,0.0007219530124363427, ,0.0071993926690579226,0.0015242057494365597,-0.016556607080337002,0.019207424425727707,0.013519688215749552,0.00017806485992632147, ,0.018118380059557362, ,0.023488420091973983, ,7.213551204034524e-05, ,0.16764508523366567,-0.23421504260948092,0.09646730922,1.6771001679892257,0.20427156714933348,-1.2573076618632182, ,0.057029411994273305,0.029507755459723495,0.017427583719912477,0.010827511196319905,0.07267977624258526,-0.04186582236860724, ,1.053389072418213
0.012827411755756824,0.021043793758143994,-0.08653457715226627, ,0.013288504639532104,0.020866127057738566,-0.0870033441169192, ,0.0006811127447428094, ,0.007434468567158745,0.0018244420885311545,-0.016638186893728334,0.067856370965263,0.03242848372370659,0.005660144033999729, ,0.01831472563051679, ,0.07520699676317318, ,7.29222268631537e-05, ,0.16823973566498093,-0.23392930149313462,0.09664749353,1.6771001679892257,0.20522802264769155,-1.2580059084489525, ,0.06206470997937919,0.02670896187967092,0.01765943627494457,0.009958433805969322,0.10010035426179134,-0.0862197930041243, ,1.0608949661254883
0.012901196291008487,0.021060937580703095,-0.08669344634535608, ,0.013349936623027905,0.0208726285244065,-0.08712274110637064, ,0.0006489392715029306, ,0.007993246663426799,0.0014769469987458966,-0.016254891621918982,0.005017324966020944,-0.01731185634223814,-0.010206314746743004, ,0.018174016240221094, ,0.018024227723432918, ,7.363246615550026e-05, ,0.16883438609629622,-0.233666728575411,0.09681601123000001,1.6775195478761948,0.20591120514651876,-1.2583996404871534, ,0.06330683226048751,0.02917213082031072,0.017201740302375815,0.015467956585045703,0.045431477051521715,-0.028319629092012508, ,1.0692720413208008
0.012901196291008487,0.021060937580703095,-0.08669344634535608, ,0.013411235887070437,0.020879011626089437,-0.08724176343720702, ,0.00077064198933681, ,0.007993246663426799,0.0014769469987458966,-0.016254891621918982,0.005017324966020944,-0.01731185634223814,-0.010206314746743004, ,0.018174016240221094, ,0.018024227723432918, ,7.471891791611352e-05, ,0.16883438609629622,-0.233666728575411,0.09681601123000001,1.6775195478761948,0.20591120514651876,-1.2583996404871534, ,0.06330683226048751,0.02917213082031072,0.017201740302375815,0.015467956585045703,0.045431477051521715,-0.028319629092012508, ,1.075334072113037
0.0129629342600898,0.021072711200123495,-0.0868197102974378, ,0.013472402502868805,0.020885277059757613,-0.08736041187246285, ,0.0007661903422842074, ,0.00808765450774263,0.0015556045583061705,-0.01645481654315219,-0.013923289679741203,-0.028442864288528477,-0.008286360666085018, ,0.01840084368846243, ,0.031667859386358126, ,7.57838169112724e-05, ,0.16931319553449814,-0.23344276932205849,0.09694952910000001,1.6777292378196795,0.20618447814604965,-1.2585407975544056, ,0.06255566351909743,0.028583416132069512,0.017408537180327872,0.01146618063886333,0.033095764051564835,-0.01020378084930046, ,1.0817670822143555
0.013070075603956283,0.021090424217066403,-0.08703559844014332, ,0.01353343654244496,0.020891425520948297,-0.08747868717423883, ,0.00067129089570482, ,0.008050615603558409,0.001047303143134104,-0.015876912735850277,-0.010545107259894614,-0.021691842566104753,-0.006305857213430483, ,0.017832151117901658, ,0.024119168977740156, ,7.665088613973138e-05, ,0.17015497341778862,-0.2330411872125988,0.09717767614000002,1.6777292378196795,0.20673102414511138,-1.2589864691691914, ,0.06381771456521236,0.03251008617967481,0.016749538927444796,0.010543158131376114,0.041982574485057926,-0.017026388020265005, ,1.0875780582427979
0.013070075603956283,0.021090424217066403,-0.08703559844014332, ,0.01359433807863175,0.020897457703766772,-0.08759659010370273, ,0.0007917062991987737, ,0.008050615603558409,0.001047303143134104,-0.015876912735850277,-0.010545107259894614,-0.021691842566104753,-0.006305857213430483, ,0.017832151117901658, ,0.024119168977740156, ,7.774166990823542e-05, ,0.17015497341778862,-0.2330411872125988,0.09717767614000002,1.6777292378196795,0.20673102414511138,-1.2589864691691914, ,0.06381771456521236,0.03251008617967481,0.016749538927444796,0.010543158131376114,0.041982574485057926,-0.017026388020265005, ,1.0935750007629395
0.013153190709355453,0.02110121707414825,-0.08720121177015637, ,0.01365510718507195,0.02090337430088781,-0.08771412142109047, ,0.0007444046087635374, ,0.008084565736027964,0.0009567885394261642,-0.01594573475838974,0.024384506396365344,0.011807338983527836,0.00262781713531122, ,0.017903689687722286, ,0.027092736575542637, ,7.872850311101308e-05, ,0.17083457391072038,-0.23270138696613293,0.09735267529000001,1.6777292378196795,0.20741420664393861,-1.259461879947533, ,0.06792909202467486,0.03394025091504678,0.016873741016949155,0.009413885502235153,0.08302202728469701,-0.050931939887139226, ,1.0996720790863037
0.013153190709355453,0.02110121707414825,-0.08720121177015637, ,0.013715743936216095,0.020909176003556015,-0.08783128188570635, ,0.0008662183652836625, ,0.008084565736027964,0.0009567885394261642,-0.01594573475838974,0.024384506396365344,0.011807338983527836,0.00262781713531122, ,0.017903689687722286, ,0.027092736575542637, ,7.993777922608145e-05, ,0.17083457391072038,-0.23270138696613293,0.09735267529000001,1.6777292378196795,0.20741420664393861,-1.259461879947533, ,0.06792909202467486,0.03394025091504678,0.016873741016949155,0.009413885502235153,0.08302202728469701,-0.050931939887139226, ,1.1053760051727295
0.013232872910399375,0.0211115301830781,-0.08736042881531368, ,0.013776248407321782,0.020914863501588662,-0.0879480722559243, ,0.0008241720254633881, ,0.008578860772338326,0.0010909125764590193,-0.017500392286126334,0.03231837403446954,0.007853828783009375,0.009632964913314841, ,0.019520519269961848, ,0.033258957970630096, ,8.105296756154928e-05, ,0.1714987289379037,-0.23236930945254128,0.09752119299,1.677938927763164,0.20823402564253127,-1.2599670298894305, ,0.07029403078405243,0.03631723748889046,0.018478899675174017,0.0012013947658198567,0.08398660921371214,-0.06252559087746781, ,1.112191915512085
0.013322235805369669,0.02112489702880771,-0.08754323417793854, ,0.01383662067445107,0.020920437483374212,-0.08806449328918779, ,0.0007603331903311387, ,0.009523608642989961,0.001803877063590371,-0.01980309242880745,0.014618461907916297,-0.005268546759286125,0.00858000888437858, ,0.02204802856922295, ,0.015538789140812168, ,8.203432294607774e-05, ,0.17220922036233235,-0.23201406374032693,0.09771434020000001,1.677938927763164,0.20891720814135845,-1.2603607619276314, ,0.07507669427094206,0.034570834811829064,0.020986576442687747,0.0012013947658198567,0.07430217922700495,-0.043692767778254475, ,1.118190050125122
0.013322235805369669,0.02112489702880771,-0.08754323417793854, ,0.01389686081446982,0.020925898635875857,-0.08818054574201128, ,0.0008808860829719483, ,0.009523608642989961,0.001803877063590371,-0.01980309242880745,0.014618461907916297,-0.005268546759286125,0.00858000888437858, ,0.02204802856922295, ,0.015538789140812168, ,8.323202693500927e-05, ,0.17220922036233235,-0.23201406374032693,0.09771434020000001,1.677938927763164,0.20891720814135845,-1.2603607619276314, ,0.07507669427094206,0.034570834811829064,0.020986576442687747,0.0012013947658198567,0.07430217922700495,-0.043692767778254475, ,1.1236441135406494
0.013433714575083206,0.021147056172182703,-0.08777414737020517, ,0.013956968905045936,0.020931247644631744,-0.08829623036998006, ,0.0007700253716874602, ,0.010276810069476294,0.0017046847181454703,-0.020876108416333135,-0.022615279475296617,-0.01577652342059641,-0.00985186583961328, ,0.02333089534936161, ,0.02757436476049945, ,8.420825449764047e-05, ,0.17308188917711972,-0.2316202043637415,0.09795933901000001,1.6781486177066482,0.2097370271399511,-1.2605391969089665, ,0.07967837242524835,0.03865455867962149,0.022092665076282943,0.018605000543666782,0.06208425075924738,-0.008255787325866765, ,1.129913091659546
0.013433714575083206,0.021147056172182703,-0.08777414737020517, ,0.014016945024647762,0.020936485193756207,-0.08841154792775217, ,0.0008892566361945234, ,0.010276810069476294,0.0017046847181454703,-0.020876108416333135,-0.022615279475296617,-0.01577652342059641,-0.00985186583961328, ,0.02333089534936161, ,0.02757436476049945, ,8.555561922137737e-05, ,0.17308188917711972,-0.2316202043637415,0.09795933901000001,1.6781486177066482,0.2097370271399511,-1.2605391969089665, ,0.07967837242524835,0.03865455867962149,0.022092665076282943,0.018605000543666782,0.06208425075924738,-0.008255787325866765, ,1.1337060928344727
0.01352978405888703,0.02116163008057199,-0.08797167626926615, ,0.014076789252542405,0.020941611965940493,-0.08852649916905721, ,0.0008095993470751508, ,0.010369531595783047,0.0017256744203570252,-0.021832132062651072,0.005135501690451122,0.007611764843505401,-0.0030704326765834578, ,0.024231119002680303, ,0.009181905121272408, ,8.674461011268537e-05, ,0.1738309942659195,-0.2312417904529045,0.09816804170000001,1.6781486177066482,0.21042020963877828,-1.2607695714668865, ,0.08124738147129348,0.04090385412003051,0.02308523408695653,0.01648551648472878,0.08997217366127097,-0.03680982410466679, ,1.1379659175872803
0.01352978405888703,0.02116163008057199,-0.08797167626926615, ,0.01413650166879444,0.020946628642454328,-0.08864108484669901, ,0.0009286763268788054, ,0.010369531595783047,0.0017256744203570252,-0.021832132062651072,0.005135501690451122,0.007611764843505401,-0.0030704326765834578, ,0.024231119002680303, ,0.009181905121272408, ,8.81456993643615e-05, ,0.1738309942659195,-0.2312417904529045,0.09816804170000001,1.6781486177066482,0.21042020963877828,-1.2607695714668865, ,0.08124738147129348,0.04090385412003051,0.02308523408695653,0.01648551648472878,0.08997217366127097,-0.03680982410466679, ,1.1418828964233398
0.01352978405888703,0.02116163008057199,-0.08797167626926615, ,0.014196082354264462,0.020951535903147942,-0.08875530571255538, ,0.0010498419339120303, ,0.010369531595783047,0.0017256744203570252,-0.021832132062651072,0.005135501690451122,0.007611764843505401,-0.0030704326765834578, ,0.024231119002680303, ,0.009181905121272408, ,8.976039536285191e-05, ,0.1738309942659195,-0.2312417904529045,0.09816804170000001,1.6781486177066482,0.21042020963877828,-1.2607695714668865, ,0.08124738147129348,0.04090385412003051,0.02308523408695653,0.01648551648472878,0.08997217366127097,-0.03680982410466679, ,1.1471049785614014
0.01352978405888703,0.02116163008057199,-0.08797167626926615, ,0.014255531390606965,0.020956334426450837,-0.08886916251757818, ,0.0011723212277395794, ,0.010369531595783047,0.0017256744203570252,-0.021832132062651072,0.005135501690451122,0.007611764843505401,-0.0030704326765834578, ,0.024231119002680303, ,0.009181905121272408, ,9.15887571253084e-05, ,0.17454148569034814,-0.23088654474069017,0.09837155923000002,1.678358307650133,0.21137666513713638,-1.261222781832199, ,0.08650587197672815,0.04351074807816175,0.02492771755868545,0.003259775214153778,0.11573099463447648,-0.06008518101629541, ,1.1523549556732178
0.013619342174726616,0.021177448903160496,-0.08816396575618088, ,0.014314848860269958,0.02096102488937618,-0.08898265601179568, ,0.0010958205318466303, ,0.010951254975855912,0.0018869319540559155,-0.023566335900098007,0.02526685607488214,0.022994187567154285,0.014044496358438458, ,0.026054993484967415, ,0.03416342209179985, ,9.326333146952128e-05, ,0.17454148569034814,-0.23088654474069017,0.09837155923000002,1.678358307650133,0.21137666513713638,-1.261222781832199, ,0.08650587197672815,0.04351074807816175,0.02492771755868545,0.003259775214153778,0.11573099463447648,-0.06008518101629541, ,1.1562399864196777
0.013762530411714916,0.021205178512122842,-0.08847231635406881, ,0.014374034846491768,0.02096560796751849,-0.08909578694431082, ,0.0009055646285553024, ,0.01149716763481181,0.0025574486424803002,-0.02543451234473912,0.013350731691062588,0.012408309263405018,0.012628699116113052, ,0.028029267300387555, ,0.018226286817774245, ,9.457784328966069e-05, ,0.17565355922423648,-0.23035367617236868,0.09869822431000001,1.678358307650133,0.21274303013479076,-1.2620919246487416, ,0.08714136047609806,0.04081588884235302,0.02695230375634518,0.0031336609959650066,0.1046828850749941,-0.04623335562487107, ,1.1641221046447754
0.013762530411714916,0.021205178512122842,-0.08847231635406881, ,0.014433089433301027,0.020970084335057274,-0.08920855606330426, ,0.001023214338726621, ,0.01149716763481181,0.0025574486424803002,-0.02543451234473912,0.013350731691062588,0.012408309263405018,0.012628699116113052, ,0.028029267300387555, ,0.018226286817774245, ,9.609707580723318e-05, ,0.17565355922423648,-0.23035367617236868,0.09869822431000001,1.678358307650133,0.21274303013479076,-1.2620919246487416, ,0.08714136047609806,0.04081588884235302,0.02695230375634518,0.0031336609959650066,0.1046828850749941,-0.04623335562487107, ,1.168916940689087
0.013762530411714916,0.021205178512122842,-0.08847231635406881, ,0.0144920127055146,0.020974454664758026,-0.08932096411603384, ,0.0011426202057544408, ,0.01149716763481181,0.0025574486424803002,-0.02543451234473912,0.013350731691062588,0.012408309263405018,0.012628699116113052, ,0.028029267300387555, ,0.018226286817774245, ,9.782198697627124e-05, ,0.17565355922423648,-0.23035367617236868,0.09869822431000001,1.678358307650133,0.21274303013479076,-1.2620919246487416, ,0.08714136047609806,0.04081588884235302,0.02695230375634518,0.0031336609959650066,0.1046828850749941,-0.04623335562487107, ,1.1728289127349854
0.014032503040099398,0.021254164170594864,-0.08903699921226926, ,0.014550804748735522,0.020978719627971543,-0.08943301184883502, ,0.0007080482791136921, ,0.011543797842441429,0.0018482905740388232,-0.0228509810882235,-0.020786655798835728,-0.025431871475856408,-0.030159473484923722, ,0.025667932978087355, ,0.03284598781501819, ,9.874857703985379e-05, ,0.17765374703866063,-0.22935744363159372,0.09929581400000001,1.6791970674240708,0.21424603163221062,-1.262255697967575, ,0.08658480069203538,0.04173128476625804,0.024244766392694066,0.037047849225358885,0.05504754273909171,-0.010280369272885122, ,1.1804609298706055
0.014032503040099398,0.021254164170594864,-0.08903699921226926, ,0.014609465649352428,0.02098287989463738,-0.08954470000712243, ,0.0008150098821194627, ,0.011543797842441429,0.0018482905740388232,-0.0228509810882235,-0.020786655798835728,-0.025431871475856408,-0.030159473484923722, ,0.025667932978087355, ,0.03284598781501819, ,9.986121258587136e-05, ,0.17765374703866063,-0.22935744363159372,0.09929581400000001,1.6791970674240708,0.21424603163221062,-1.262255697967575, ,0.08658480069203538,0.04173128476625804,0.024244766392694066,0.037047849225358885,0.05504754273909171,-0.010280369272885122, ,1.1864221096038818
0.014140547804118043,0.021260496318937276,-0.08922586050143479, ,0.014667995494537027,0.02098693613328315,-0.08965602933539, ,0.0007335403649492193, ,0.010938578093757862,0.00012035887108417125,-0.018632855102530512,0.024582008201227103,0.021641442154680737,-0.020263434534862935, ,0.021606718081258552, ,0.03275095265492841, ,0.00010081959308816487, ,0.17854186131919644,-0.2289172478577629,0.09949673895000001,1.6791970674240708,0.21506585063080325,-1.2623524542087694, ,0.09358672737521774,0.04984083065045734,0.01981195462686567,0.037047849225358885,0.11369991733055074,-0.05985436031413612, ,1.1904358863830566
0.014140547804118043,0.021260496318937276,-0.08922586050143479, ,0.014726394372243325,0.020990889011026775,-0.08976700057721124, ,0.0008418651219015197, ,0.010938578093757862,0.00012035887108417125,-0.018632855102530512,0.024582008201227103,0.021641442154680737,-0.020263434534862935, ,0.021606718081258552, ,0.03275095265492841, ,0.00010196489887658203, ,0.17854186131919644,-0.2289172478577629,0.09949673895000001,1.6791970674240708,0.21506585063080325,-1.2623524542087694, ,0.09358672737521774,0.04984083065045734,0.01981195462686567,0.037047849225358885,0.11369991733055074,-0.05985436031413612, ,1.1942040920257568
0.014140547804118043,0.021260496318937276,-0.08922586050143479, ,0.01478466237120572,0.020994739193577475,-0.08987761447524072, ,0.0009540931126393641, ,0.010938578093757862,0.00012035887108417125,-0.018632855102530512,0.024582008201227103,0.021641442154680737,-0.020263434534862935, ,0.021606718081258552, ,0.03275095265492841, ,0.00010330208838618309, ,0.17854186131919644,-0.2289172478577629,0.09949673895000001,1.6791970674240708,0.21506585063080325,-1.2623524542087694, ,0.09358672737521774,0.04984083065045734,0.01981195462686567,0.037047849225358885,0.11369991733055074,-0.05985436031413612, ,1.197972059249878
0.014254609665233035,0.02125816338249982,-0.08941497986259347, ,0.014842799580937609,0.02099848734523665,-0.08998787177121413, ,0.0008611644211347073, ,0.011114266861378768,-0.00023169863794623405,-0.019011590215665678,0.026544845753569586,0.007064763556663566,0.042009963019899135, ,0.02202319628603358, ,0.027468841193830893, ,0.00010446471759464196, ,0.1795303711270972,-0.2283766565565672,0.09969766390000001,1.6794067573675557,0.21629557912869224,-1.2632735366018966, ,0.09470752650545987,0.05295588256611093,0.020137561972187107,-0.028955863919532254,0.1161663734358956,-0.07619767942353099, ,1.2022569179534912
0.014254609665233035,0.02125816338249982,-0.08941497986259347, ,0.014900806091729803,0.021002134128899536,-0.09009777320594997, ,0.0009743344138683881, ,0.011114266861378768,-0.00023169863794623405,-0.019011590215665678,0.026544845753569586,0.007064763556663566,0.042009963019899135, ,0.02202319628603358, ,0.027468841193830893, ,0.0001060070397511557, ,0.1795303711270972,-0.2283766565565672,0.09969766390000001,1.6794067573675557,0.21629557912869224,-1.2632735366018966, ,0.09470752650545987,0.05295588256611093,0.020137561972187107,-0.028955863919532254,0.1161663734358956,-0.07619767942353099, ,1.2041869163513184
0.014254609665233035,0.02125816338249982,-0.08941497986259347, ,0.014958681994648471,0.0210056802060547,-0.09020731951934788, ,0.001089618158394023, ,0.011114266861378768,-0.00023169863794623405,-0.019011590215665678,0.026544845753569586,0.007064763556663566,0.042009963019899135, ,0.02202319628603358, ,0.027468841193830893, ,0.00010774794438592184, ,0.1795303711270972,-0.2283766565565672,0.09969766390000001,1.6794067573675557,0.21629557912869224,-1.2632735366018966, ,0.09470752650545987,0.05295588256611093,0.020137561972187107,-0.028955863919532254,0.1161663734358956,-0.07619767942353099, ,1.2061760425567627
0.014254609665233035,0.02125816338249982,-0.08941497986259347, ,0.015016427381534593,0.021009126236787874,-0.09031651145039214, ,0.0012062938848448421, ,0.011114266861378768,-0.00023169863794623405,-0.019011590215665678,0.026544845753569586,0.007064763556663566,0.042009963019899135, ,0.02202319628603358, ,0.027468841193830893, ,0.00010968883827365844, ,0.1795303711270972,-0.2283766565565672,0.09969766390000001,1.6794067573675557,0.21629557912869224,-1.2632735366018966, ,0.09470752650545987,0.05295588256611093,0.020137561972187107,-0.028955863919532254,0.1161663734358956,-0.07619767942353099, ,1.2081599235534668
0.014367619737960611,0.02125714649899995,-0.08960543888039951, ,0.015074042345001735,0.021012472879781103,-0.09042534973715027, ,0.001109572842448027, ,0.012743114417355693,0.0004293612720568216,-0.02222519466508335,0.023313210113889763,0.003081723182682246,-0.00010715050004696198, ,0.025622852964816586, ,0.023515895916073594, ,0.00011145230212581783, ,0.18048799000350102,-0.22785923345399417,0.09989988514,1.6791970674240708,0.21738867112681573,-1.2640015223511871, ,0.10509074369708835,0.05501271974404103,0.02363325151335312,0.013998885127472063,0.11222525155703861,-0.0677698955826408, ,1.210582971572876
0.014367619737960611,0.02125714649899995,-0.08960543888039951, ,0.015131526978434713,0.021015720792314944,-0.0905338351167751, ,0.0012262790121393501, ,0.012743114417355693,0.0004293612720568216,-0.02222519466508335,0.023313210113889763,0.003081723182682246,-0.00010715050004696198, ,0.025622852964816586, ,0.023515895916073594, ,0.00011341502520682758, ,0.18048799000350102,-0.22785923345399417,0.09989988514,1.6791970674240708,0.21738867112681573,-1.2640015223511871, ,0.10509074369708835,0.05501271974404103,0.02363325151335312,0.013998885127472063,0.11222525155703861,-0.0677698955826408, ,1.2125439643859863
0.014367619737960611,0.02125714649899995,-0.08960543888039951, ,0.015188881375987747,0.021018870630268444,-0.09064196832550386, ,0.0013437408077018062, ,0.012743114417355693,0.0004293612720568216,-0.02222519466508335,0.023313210113889763,0.003081723182682246,-0.00010715050004696198, ,0.025622852964816586, ,0.023515895916073594, ,0.0006323411069728834, ,0.18048799000350102,-0.22785923345399417,0.09989988514,1.6791970674240708,0.21738867112681573,-1.2640015223511871, ,0.10509074369708835,0.05501271974404103,0.02363325151335312,0.013998885127472063,0.11222525155703861,-0.0677698955826408, ,1.2145659923553467
0.014367619737960611,0.02125714649899995,-0.08960543888039951, ,0.015246105632583277,0.021021923048121404,-0.09074975009866044, ,0.0014616824905334318, ,0.012743114417355693,0.0004293612720568216,-0.02222519466508335,0.023313210113889763,0.003081723182682246,-0.00010715050004696198, ,0.025622852964816586, ,0.023515895916073594, ,0.0006402395963401266, ,0.18048799000350102,-0.22785923345399417,0.09989988514,1.6791970674240708,0.21738867112681573,-1.2640015223511871, ,0.10509074369708835,0.05501271974404103,0.02363325151335312,0.013998885127472063,0.11222525155703861,-0.0677698955826408, ,1.2167088985443115
0.014367619737960611,0.02125714649899995,-0.08960543888039951, ,0.015303199843910483,0.021024878698955453,-0.09085718117065504, ,0.0015799105122761984, ,0.012743114417355693,0.0004293612720568216,-0.02222519466508335,0.023313210113889763,0.003081723182682246,-0.00010715050004696198, ,0.025622852964816586, ,0.023515895916073594, ,0.0006491044163017877, ,0.18048799000350102,-0.22785923345399417,0.09989988514,1.6791970674240708,0.21738867112681573,-1.2640015223511871, ,0.10509074369708835,0.05501271974404103,0.02363325151335312,0.013998885127472063,0.11222525155703861,-0.0677698955826408, ,1.2187089920043945
0.014514087196871672,0.021269224702744643,-0.08988789097375244, ,0.015360164106423286,0.021027738234454755,-0.09096426227498501, ,0.0013902291283672042, ,0.015386532073333977,0.002202165209457937,-0.032871015370752474,0.05749046028890266,0.033284652958744075,0.009750382524678962, ,0.03636067315600369, ,0.06643028503847698, ,0.0006560308154799691, ,0.1816463999346347,-0.2272414148240562,0.10019932813000001,1.6791970674240708,0.21875503612447017,-1.2648706651677295, ,0.11629527151773382,0.0629707641396621,0.034779064454148474,0.011173044588072114,0.15782144551094057,-0.10737639338816848, ,1.2211289405822754
0.014514087196871672,0.021269224702744643,-0.08988789097375244, ,0.015416998517339207,0.021030502304907273,-0.09107099414423603, ,0.0015073056584070717, ,0.015386532073333977,0.002202165209457937,-0.032871015370752474,0.05749046028890266,0.033284652958744075,0.009750382524678962, ,0.03636067315600369, ,0.06643028503847698, ,0.0006639129899515163, ,0.1816463999346347,-0.2272414148240562,0.10019932813000001,1.6791970674240708,0.21875503612447017,-1.2648706651677295, ,0.11629527151773382,0.0629707641396621,0.034779064454148474,0.011173044588072114,0.15782144551094057,-0.10737639338816848, ,1.2233779430389404
0.014514087196871672,0.021269224702744643,-0.08988789097375244, ,0.01547370317463758,0.021033171559205942,-0.09117737751008169, ,0.0016246105498649616, ,0.015386532073333977,0.002202165209457937,-0.032871015370752474,0.05749046028890266,0.033284652958744075,0.009750382524678962, ,0.03636067315600369, ,0.06643028503847698, ,0.000672726729033291, ,0.1816463999346347,-0.2272414148240562,0.10019932813000001,1.6791970674240708,0.21875503612447017,-1.2648706651677295, ,0.11629527151773382,0.0629707641396621,0.034779064454148474,0.011173044588072114,0.15782144551094057,-0.10737639338816848, ,1.2253000736236572
0.014514087196871672,0.021269224702744643,-0.08988789097375244, ,0.015530278177057877,0.021035746644849414,-0.09128341310328499, ,0.001742021275916395, ,0.015386532073333977,0.002202165209457937,-0.032871015370752474,0.05749046028890266,0.033284652958744075,0.009750382524678962, ,0.03636067315600369, ,0.06643028503847698, ,0.0006824475885504101, ,0.1816463999346347,-0.2272414148240562,0.10019932813000001,1.6791970674240708,0.21875503612447017,-1.2648706651677295, ,0.11629527151773382,0.0629707641396621,0.034779064454148474,0.011173044588072114,0.15782144551094057,-0.10737639338816848, ,1.2272450923919678
0.014514087196871672,0.021269224702744643,-0.08988789097375244, ,0.015586723624098896,0.02103822820794489,-0.09138910165369904, ,0.0018594466357522324, ,0.015386532073333977,0.002202165209457937,-0.032871015370752474,0.05749046028890266,0.033284652958744075,0.009750382524678962, ,0.03636067315600369, ,0.06643028503847698, ,0.0006930511835702463, ,0.1816463999346347,-0.2272414148240562,0.10019932813000001,1.6791970674240708,0.21875503612447017,-1.2648706651677295, ,0.11629527151773382,0.0629707641396621,0.034779064454148474,0.011173044588072114,0.15782144551094057,-0.10737639338816848, ,1.2291300296783447
0.014680987122069118,0.02130611602151638,-0.09027996500348177, ,0.015643039616016312,0.021040616893207215,-0.09149444389026773, ,0.0015719394882411327, ,0.018009353900215137,0.00514915967477296,-0.04492180428625015,0.07046472923511234,0.0689200647732884,0.031399313511074986, ,0.04867051647138815, ,0.09856505701363556, ,0.0007008984005762364, ,0.18285114626301371,-0.2266081507283698,0.10061414093000001,1.6794067573675557,0.22066794712118631,-1.2661038008589172, ,0.124210656490145,0.06162139062238363,0.047548691104477625,0.0,0.20592777202239326,-0.11783366612536278, ,1.2312850952148438
0.014680987122069118,0.02130611602151638,-0.09027996500348177, ,0.015699226253821412,0.02104291334396072,-0.09159944054102487, ,0.0016873358507063048, ,0.018009353900215137,0.00514915967477296,-0.04492180428625015,0.07046472923511234,0.0689200647732884,0.031399313511074986, ,0.04867051647138815, ,0.09856505701363556, ,0.0007096279355331397, ,0.18285114626301371,-0.2266081507283698,0.10061414093000001,1.6794067573675557,0.22066794712118631,-1.2661038008589172, ,0.124210656490145,0.06162139062238363,0.047548691104477625,0.0,0.20592777202239326,-0.11783366612536278, ,1.2332379817962646
0.014680987122069118,0.02130611602151638,-0.09027996500348177, ,0.01575528363927974,0.021045118202140684,-0.09170409233309733, ,0.0018028786757759564, ,0.018009353900215137,0.00514915967477296,-0.04492180428625015,0.07046472923511234,0.0689200647732884,0.031399313511074986, ,0.04867051647138815, ,0.09856505701363556, ,0.0007192178543071995, ,0.18285114626301371,-0.2266081507283698,0.10061414093000001,1.6794067573675557,0.22066794712118631,-1.2661038008589172, ,0.124210656490145,0.06162139062238363,0.047548691104477625,0.0,0.20592777202239326,-0.11783366612536278, ,1.2351469993591309
0.014680987122069118,0.02130611602151638,-0.09027996500348177, ,0.015811211874909484,0.021047232108294647,-0.09180839999270357, ,0.0019184739739531254, ,0.018009353900215137,0.00514915967477296,-0.04492180428625015,0.07046472923511234,0.0689200647732884,0.031399313511074986, ,0.04867051647138815, ,0.09856505701363556, ,0.0007296461683910772, ,0.18285114626301371,-0.2266081507283698,0.10061414093000001,1.6794067573675557,0.22066794712118631,-1.2661038008589172, ,0.124210656490145,0.06162139062238363,0.047548691104477625,0.0,0.20592777202239326,-0.11783366612536278, ,1.2370779514312744
0.014680987122069118,0.02130611602151638,-0.09027996500348177, ,0.01586701106397999,0.02104925570158345,-0.09191236424515571, ,0.0020340494829181248, ,0.018009353900215137,0.00514915967477296,-0.04492180428625015,0.07046472923511234,0.0689200647732884,0.031399313511074986, ,0.04867051647138815, ,0.09856505701363556, ,0.0007408910245507931, ,0.18285114626301371,-0.2266081507283698,0.10061414093000001,1.6794067573675557,0.22066794712118631,-1.2661038008589172, ,0.124210656490145,0.06162139062238363,0.047548691104477625,0.0,0.20592777202239326,-0.11783366612536278, ,1.23903489112854
0.014874373569962015,0.021368483387098475,-0.090790431445921, ,0.015922681310509487,0.02105118961978107,-0.09201598581485941, ,0.0016436568878249029, ,0.02111704335100459,0.007075796262155959,-0.05720038648913751,0.09352655638495047,0.08472735082296795,0.0031617842450772553, ,0.06138306466069002, ,0.126195595737819, ,0.0007486069721001444, ,0.18411767445438654,-0.22594399570118648,0.10115339757000001,1.6800358271980091,0.22285413111743338,-1.267478093617357, ,0.133469678703897,0.0718916223927809,0.06033640727272729,0.03068043806742339,0.22618743218614207,-0.14415963013679253, ,1.2409319877624512
0.014874373569962015,0.021368483387098475,-0.090790431445921, ,0.015978222719264853,0.021053034499278356,-0.09211926542531464, ,0.0017560725184441212, ,0.02111704335100459,0.007075796262155959,-0.05720038648913751,0.09352655638495047,0.08472735082296795,0.0031617842450772553, ,0.06138306466069002, ,0.126195595737819, ,0.0007571448157132289, ,0.18411767445438654,-0.22594399570118648,0.10115339757000001,1.6800358271980091,0.22285413111743338,-1.267478093617357, ,0.133469678703897,0.0718916223927809,0.06033640727272729,0.03068043806742339,0.22618743218614207,-0.14415963013679253, ,1.2428419589996338
0.014874373569962015,0.021368483387098475,-0.090790431445921, ,0.016033635395758854,0.02105479097508158,-0.09222220379911632, ,0.0018687597441836277, ,0.02111704335100459,0.007075796262155959,-0.05720038648913751,0.09352655638495047,0.08472735082296795,0.0031617842450772553, ,0.06138306466069002, ,0.126195595737819, ,0.0007664861176331483, ,0.18411767445438654,-0.22594399570118648,0.10115339757000001,1.6800358271980091,0.22285413111743338,-1.267478093617357, ,0.133469678703897,0.0718916223927809,0.06033640727272729,0.03068043806742339,0.22618743218614207,-0.14415963013679253, ,1.2447268962860107
0.014874373569962015,0.021368483387098475,-0.090790431445921, ,0.016088919446249322,0.02105645968081561,-0.09232480165795508, ,0.001981608545214342, ,0.02111704335100459,0.007075796262155959,-0.05720038648913751,0.09352655638495047,0.08472735082296795,0.0031617842450772553, ,0.06138306466069002, ,0.126195595737819, ,0.0007766121378629915, ,0.18411767445438654,-0.22594399570118648,0.10115339757000001,1.6800358271980091,0.22285413111743338,-1.267478093617357, ,0.133469678703897,0.0718916223927809,0.06033640727272729,0.03068043806742339,0.22618743218614207,-0.14415963013679253, ,1.246635913848877
0.014874373569962015,0.021368483387098475,-0.090790431445921, ,0.01614407497773701,0.021058041248723357,-0.09242705972261803, ,0.002094532907898323, ,0.02111704335100459,0.007075796262155959,-0.05720038648913751,0.09352655638495047,0.08472735082296795,0.0031617842450772553, ,0.06138306466069002, ,0.126195595737819, ,0.0007875040450533662, ,0.18411767445438654,-0.22594399570118648,0.10115339757000001,1.6800358271980091,0.22285413111743338,-1.267478093617357, ,0.133469678703897,0.0718916223927809,0.06033640727272729,0.03068043806742339,0.22618743218614207,-0.14415963013679253, ,1.2485389709472656
0.015089367465120122,0.021443566709462774,-0.09138177254573697, ,0.016199102097964845,0.02105953630966875,-0.09252897871298915, ,0.0016416675343937368, ,0.02322870299683372,0.008283537732435653,-0.06397666133088463,0.05731033740700422,0.0924255510273792,-0.022641362144226247, ,0.06856531802104111, ,0.10874688717824271, ,0.0007945053851299266, ,0.18543826177587894,-0.2252257815438836,0.10177691306000002,1.6804552070849783,0.22504031511368042,-1.2685256714152349, ,0.14121568684296246,0.07585686775257457,0.06749496406779662,0.06056476979851395,0.23309583633454564,-0.10578685194336768, ,1.2504870891571045
0.015089367465120122,0.021443566709462774,-0.09138177254573697, ,0.016254000915415494,0.021060945493136203,-0.09263055934804995, ,0.0017499252973659216, ,0.02322870299683372,0.008283537732435653,-0.06397666133088463,0.05731033740700422,0.0924255510273792,-0.022641362144226247, ,0.06856531802104111, ,0.10874688717824271, ,0.0008022730266928209, ,0.18543826177587894,-0.2252257815438836,0.10177691306000002,1.6804552070849783,0.22504031511368042,-1.2685256714152349, ,0.14121568684296246,0.07585686775257457,0.06749496406779662,0.06056476979851395,0.23309583633454564,-0.10578685194336768, ,1.2524409294128418
0.015089367465120122,0.021443566709462774,-0.09138177254573697, ,0.01630877153931025,0.021062269427232515,-0.0927318023458797, ,0.0018587399965732398, ,0.02322870299683372,0.008283537732435653,-0.06397666133088463,0.05731033740700422,0.0924255510273792,-0.022641362144226247, ,0.06856531802104111, ,0.10874688717824271, ,0.0008107929216112113, ,0.18543826177587894,-0.2252257815438836,0.10177691306000002,1.6804552070849783,0.22504031511368042,-1.2685256714152349, ,0.14121568684296246,0.07585686775257457,0.06749496406779662,0.06056476979851395,0.23309583633454564,-0.10578685194336768, ,1.254384994506836
0.015089367465120122,0.021443566709462774,-0.09138177254573697, ,0.016363414079607688,0.02106350873868864,-0.09283270842365778, ,0.0019679567472060968, ,0.02322870299683372,0.008283537732435653,-0.06397666133088463,0.05731033740700422,0.0924255510273792,-0.022641362144226247, ,0.06856531802104111, ,0.10874688717824271, ,0.0008200502322159704, ,0.18543826177587894,-0.2252257815438836,0.10177691306000002,1.6804552070849783,0.22504031511368042,-1.2685256714152349, ,0.14121568684296246,0.07585686775257457,0.06749496406779662,0.06056476979851395,0.23309583633454564,-0.10578685194336768, ,1.256422996520996
0.015089367465120122,0.021443566709462774,-0.09138177254573697, ,0.016417928647001517,0.021064664052859408,-0.09293327829766164, ,0.0020774532811686794, ,0.02322870299683372,0.008283537732435653,-0.06397666133088463,0.05731033740700422,0.0924255510273792,-0.022641362144226247, ,0.06856531802104111, ,0.10874688717824271, ,0.0008300296214933729, ,0.18543826177587894,-0.2252257815438836,0.10177691306000002,1.6804552070849783,0.22504031511368042,-1.2685256714152349, ,0.14121568684296246,0.07585686775257457,0.06749496406779662,0.06056476979851395,0.23309583633454564,-0.10578685194336768, ,1.258500099182129
0.015313454534411592,0.021516723540121428,-0.09198286315157522, ,0.016472315352919716,0.02106573599372636,-0.09303351268327012, ,0.0016279473585246755, ,0.02575010057852669,0.007823647281666603,-0.06683685945021005,-0.03950048116675559,0.01695317752156595,0.04716485285732995, ,0.07205166838983884, ,0.04296934340722257, ,0.0008363124383203909, ,0.18680518549461667,-0.22447667645508382,0.10241079887000001,1.6806648970284628,0.22708986261016204,-1.2692167950889943, ,0.1558242061715448,0.08488098529380213,0.07048146690265487,-0.02189560525705381,0.1853156723302192,-0.03563208826818974, ,1.261120080947876
0.015313454534411592,0.021516723540121428,-0.09198286315157522, ,0.01652657430952183,0.021066725183896462,-0.09313341229496173, ,0.00173145067521894, ,0.02575010057852669,0.007823647281666603,-0.06683685945021005,-0.03950048116675559,0.01695317752156595,0.04716485285732995, ,0.07205166838983884, ,0.04296934340722257, ,0.0008433057057961609, ,0.18680518549461667,-0.22447667645508382,0.10241079887000001,1.6806648970284628,0.22708986261016204,-1.2692167950889943, ,0.1558242061715448,0.08488098529380213,0.07048146690265487,-0.02189560525705381,0.1853156723302192,-0.03563208826818974, ,1.2630829811096191
0.015313454534411592,0.021516723540121428,-0.09198286315157522, ,0.016580705629699564,0.021067632244607365,-0.09323297784631764, ,0.0018358635788712574, ,0.02575010057852669,0.007823647281666603,-0.06683685945021005,-0.03950048116675559,0.01695317752156595,0.04716485285732995, ,0.07205166838983884, ,0.04296934340722257, ,0.0008509999528742625, ,0.18680518549461667,-0.22447667645508382,0.10241079887000001,1.6806648970284628,0.22708986261016204,-1.2692167950889943, ,0.1558242061715448,0.08488098529380213,0.07048146690265487,-0.02189560525705381,0.1853156723302192,-0.03563208826818974, ,1.2651550769805908
0.015313454534411592,0.021516723540121428,-0.09198286315157522, ,0.016634709427072448,0.021068457795723555,-0.09333221005002001, ,0.0019409775169546423, ,0.02575010057852669,0.007823647281666603,-0.06683685945021005,-0.03950048116675559,0.01695317752156595,0.04716485285732995, ,0.07205166838983884, ,0.04296934340722257, ,0.0008593843956748808, ,0.18680518549461667,-0.22447667645508382,0.10241079887000001,1.6806648970284628,0.22708986261016204,-1.2692167950889943, ,0.1558242061715448,0.08488098529380213,0.07048146690265487,-0.02189560525705381,0.1853156723302192,-0.03563208826818974, ,1.267124891281128
0.015313454534411592,0.021516723540121428,-0.09198286315157522, ,0.01668858581598838,0.02106920245574126,-0.09343110961785427, ,0.0020466262457091568, ,0.02575010057852669,0.007823647281666603,-0.06683685945021005,-0.03950048116675559,0.01695317752156595,0.04716485285732995, ,0.07205166838983884, ,0.04296934340722257, ,0.0008684473105606387, ,0.18680518549461667,-0.22447667645508382,0.10241079887000001,1.6806648970284628,0.22708986261016204,-1.2692167950889943, ,0.1558242061715448,0.08488098529380213,0.07048146690265487,-0.02189560525705381,0.1853156723302192,-0.03563208826818974, ,1.2692110538482666
0.015603899623558584,0.021593505670747627,-0.09270249883934434, ,0.01674233491152149,0.021069866841788413,-0.09352967726070914, ,0.001732085706902251, ,0.025218954473040914,0.005539557482607463,-0.058563069335655596,-0.0008930774279275812,0.01828708912908339,0.022089826581285686, ,0.06400246441996767, ,0.018290062188204698, ,0.0008749900256844387, ,0.1886123049871852,-0.22348816664718307,0.10317042481000001,1.6804552070849783,0.22913941010664365,-1.2697445612824727, ,0.16475163465012285,0.08827622470555421,0.061979811361867705,0.0027037778122331923,0.19224960588773332,-0.07283076805081172, ,1.2720270156860352
0.015603899623558584,0.021593505670747627,-0.09270249883934434, ,0.016795956829469758,0.02107045156962461,-0.09362791368857677, ,0.0015971783300703305, ,0.025218954473040914,0.005539557482607463,-0.058563069335655596,-0.0008930774279275812,0.01828708912908339,0.022089826581285686, ,0.06400246441996767, ,0.018290062188204698, ,0.0008804200129354606, ,0.1886123049871852,-0.22348816664718307,0.10317042481000001,1.6804552070849783,0.22913941010664365,-1.2697445612824727, ,0.16475163465012285,0.08827622470555421,0.061979811361867705,0.0027037778122331923,0.19224960588773332,-0.07283076805081172, ,1.2740559577941895
0.015603899623558584,0.021593505670747627,-0.09270249883934434, ,0.016849451686355283,0.021070957253645436,-0.09372581961055537, ,0.001694592042393998, ,0.025218954473040914,0.005539557482607463,-0.058563069335655596,-0.0008930774279275812,0.01828708912908339,0.022089826581285686, ,0.06400246441996767, ,0.018290062188204698, ,0.0008864959236030616, ,0.1886123049871852,-0.22348816664718307,0.10317042481000001,1.6804552070849783,0.22913941010664365,-1.2697445612824727, ,0.16475163465012285,0.08827622470555421,0.061979811361867705,0.0027037778122331923,0.19224960588773332,-0.07283076805081172, ,1.2760040760040283
0.015603899623558584,0.021593505670747627,-0.09270249883934434, ,0.01690281959942018,0.02107138450687889,-0.09382339573484652, ,0.0017933804570693752, ,0.025218954473040914,0.005539557482607463,-0.058563069335655596,-0.0008930774279275812,0.01828708912908339,0.022089826581285686, ,0.06400246441996767, ,0.018290062188204698, ,0.0008932135868139232, ,0.1886123049871852,-0.22348816664718307,0.10317042481000001,1.6804552070849783,0.22913941010664365,-1.2697445612824727, ,0.16475163465012285,0.08827622470555421,0.061979811361867705,0.0027037778122331923,0.19224960588773332,-0.07283076805081172, ,1.2780051231384277
0.015603899623558584,0.021593505670747627,-0.09270249883934434, ,0.016956060686627823,0.021071733940992075,-0.09392064276875944, ,0.0018932669941726407, ,0.025218954473040914,0.005539557482607463,-0.058563069335655596,-0.0008930774279275812,0.01828708912908339,0.022089826581285686, ,0.06400246441996767, ,0.018290062188204698, ,0.0009005669206915607, ,0.1886123049871852,-0.22348816664718307,0.10317042481000001,1.6804552070849783,0.22913941010664365,-1.2697445612824727, ,0.16475163465012285,0.08827622470555421,0.061979811361867705,0.0027037778122331923,0.19224960588773332,-0.07283076805081172, ,1.2799699306488037
0.015865832500712083,0.021635811152054256,-0.09326328034093434, ,0.017009175066658985,0.02107200616628746,-0.09401756141870886, ,0.001481231997146373, ,0.02514799229955103,0.0021543233949988068,-0.04844613219865721,0.02918913357285167,0.010267046093517362,0.019364930236328872, ,0.05462682812499997, ,0.030937855239248465, ,0.0009048053519065595, ,0.19041170174687952,-0.22253054777077924,0.10376542192000002,1.6804552070849783,0.23118895760312522,-1.270680721176654, ,0.18319872887735672,0.09864546939549977,0.0515495518446602,0.00383342336718772,0.20485472292798101,-0.11219385063970495, ,1.281877040863037
0.015865832500712083,0.021635811152054256,-0.09326328034093434, ,0.017062162858911156,0.021072201791706293,-0.09411415239021673, ,0.0015725282449833996, ,0.02514799229955103,0.0021543233949988068,-0.04844613219865721,0.02918913357285167,0.010267046093517362,0.019364930236328872, ,0.05462682812499997, ,0.030937855239248465, ,0.0009096439235955221, ,0.19041170174687952,-0.22253054777077924,0.10376542192000002,1.6804552070849783,0.23118895760312522,-1.270680721176654, ,0.18319872887735672,0.09864546939549977,0.0515495518446602,0.00383342336718772,0.20485472292798101,-0.11219385063970495, ,1.2837860584259033
0.015865832500712083,0.021635811152054256,-0.09326328034093434, ,0.017115024183497363,0.02107232142483018,-0.09421041638791283, ,0.001665853302218724, ,0.02514799229955103,0.0021543233949988068,-0.04844613219865721,0.02918913357285167,0.010267046093517362,0.019364930236328872, ,0.05462682812499997, ,0.030937855239248465, ,0.0009150842788374156, ,0.19041170174687952,-0.22253054777077924,0.10376542192000002,1.6804552070849783,0.23118895760312522,-1.270680721176654, ,0.18319872887735672,0.09864546939549977,0.0515495518446602,0.00383342336718772,0.20485472292798101,-0.11219385063970495, ,1.28568696975708
0.015865832500712083,0.021635811152054256,-0.09326328034093434, ,0.01716775916124455,0.02107236567188217,-0.09430635411553627, ,0.0017608199049857119, ,0.02514799229955103,0.0021543233949988068,-0.04844613219865721,0.02918913357285167,0.010267046093517362,0.019364930236328872, ,0.05462682812499997, ,0.030937855239248465, ,0.0009211252475956178, ,0.19041170174687952,-0.22253054777077924,0.10376542192000002,1.6804552070849783,0.23118895760312522,-1.270680721176654, ,0.18319872887735672,0.09864546939549977,0.0515495518446602,0.00383342336718772,0.20485472292798101,-0.11219385063970495, ,1.2876770496368408
0.015865832500712083,0.021635811152054256,-0.09326328034093434, ,0.017220367913691022,0.02107233513772594,-0.094401966275934, ,0.0018571152528325766, ,0.02514799229955103,0.0021543233949988068,-0.04844613219865721,0.02918913357285167,0.010267046093517362,0.019364930236328872, ,0.05462682812499997, ,0.030937855239248465, ,0.000927763474583114, ,0.19041170174687952,-0.22253054777077924,0.10376542192000002,1.6804552070849783,0.23118895760312522,-1.270680721176654, ,0.18319872887735672,0.09864546939549977,0.0515495518446602,0.00383342336718772,0.20485472292798101,-0.11219385063970495, ,1.2895989418029785
0.016115529925713547,0.02164384038421712,-0.09371093808018063, ,0.01727285056308586,0.0210722304258692,-0.09449725357106345, ,0.0015114301351278696, ,0.02503338661265611,-0.0003617918402628725,-0.041562239543100225,0.028254771580348618,-0.0102832633331855,-0.0006973863570661262, ,0.04852031630639309, ,0.030065821142732645, ,0.0009318738031784996, ,0.19228832583531608,-0.22148797883275895,0.10424245664000001,1.680874586971947,0.23323850509960684,-1.271861917291257, ,0.1924887252707318,0.10771503014582383,0.044369948523676886,0.01861667624751673,0.19021520256797256,-0.11831984551965874, ,1.2914869785308838
0.016115529925713547,0.02164384038421712,-0.09371093808018063, ,0.017325207232387188,0.021072052138463967,-0.09459221670199217, ,0.0016021588540231259, ,0.02503338661265611,-0.0003617918402628725,-0.041562239543100225,0.028254771580348618,-0.0102832633331855,-0.0006973863570661262, ,0.04852031630639309, ,0.030065821142732645, ,0.0009365611112263641, ,0.19228832583531608,-0.22148797883275895,0.10424245664000001,1.680874586971947,0.23323850509960684,-1.271861917291257, ,0.1924887252707318,0.10771503014582383,0.044369948523676886,0.01861667624751673,0.19021520256797256,-0.11831984551965874, ,1.2933990955352783
0.016115529925713547,0.02164384038421712,-0.09371093808018063, ,0.01737743804526012,0.021071800876307285,-0.09468685636889831, ,0.0016947146683264833, ,0.02503338661265611,-0.0003617918402628725,-0.041562239543100225,0.028254771580348618,-0.0102832633331855,-0.0006973863570661262, ,0.04852031630639309, ,0.030065821142732645, ,0.0009418260664840038, ,0.19228832583531608,-0.22148797883275895,0.10424245664000001,1.680874586971947,0.23323850509960684,-1.271861917291257, ,0.1924887252707318,0.10771503014582383,0.044369948523676886,0.01861667624751673,0.19021520256797256,-0.11831984551965874, ,1.2952539920806885
0.016115529925713547,0.02164384038421712,-0.09371093808018063, ,0.017429543126076173,0.021071477238843693,-0.09478117327107276, ,0.0017887519740682031, ,0.02503338661265611,-0.0003617918402628725,-0.041562239543100225,0.028254771580348618,-0.0102832633331855,-0.0006973863570661262, ,0.04852031630639309, ,0.030065821142732645, ,0.0009476669348121707, ,0.19228832583531608,-0.22148797883275895,0.10424245664000001,1.680874586971947,0.23323850509960684,-1.271861917291257, ,0.1924887252707318,0.10771503014582383,0.044369948523676886,0.01861667624751673,0.19021520256797256,-0.11831984551965874, ,1.297205924987793
0.016115529925713547,0.02164384038421712,-0.09371093808018063, ,0.017481522599910905,0.021071081824165585,-0.09487516810691767, ,0.0018839904217456272, ,0.02503338661265611,-0.0003617918402628725,-0.041562239543100225,0.028254771580348618,-0.0102832633331855,-0.0006973863570661262, ,0.04852031630639309, ,0.030065821142732645, ,0.0009540801093802081, ,0.19228832583531608,-0.22148797883275895,0.10424245664000001,1.680874586971947,0.23323850509960684,-1.271861917291257, ,0.1924887252707318,0.10771503014582383,0.044369948523676886,0.01861667624751673,0.19021520256797256,-0.11831984551965874, ,1.2990520000457764
0.016363038700449167,0.021633577592969397,-0.09410258354713243, ,0.01753337659254173,0.021070615229012598,-0.09496884157394803, ,0.001561095888765949, ,0.025513160816910904,-0.0017938091376101142,-0.0392377303209557,0.02240426840951709,-0.02528199709258641,-0.02945275794342674, ,0.04683736336336384, ,0.033779248247279674, ,0.0009582094684236486, ,0.19421128632099796,-0.22039907349749327,0.10466115831000002,1.6812939668589162,0.2350147795965576,-1.2729019563386077, ,0.19894537014354458,0.11658100928559063,0.04191792505263159,0.043046522130134705,0.1758629179738554,-0.11741065166325698, ,1.3010070323944092
0.016363038700449167,0.021633577592969397,-0.09410258354713243, ,0.017585105230448546,0.021070078048777148,-0.09506219436879301, ,0.001652825238522724, ,0.025513160816910904,-0.0017938091376101142,-0.0392377303209557,0.02240426840951709,-0.02528199709258641,-0.02945275794342674, ,0.04683736336336384, ,0.033779248247279674, ,0.0009629028182216153, ,0.19421128632099796,-0.22039907349749327,0.10466115831000002,1.6812939668589162,0.2350147795965576,-1.2729019563386077, ,0.19894537014354458,0.11658100928559063,0.04191792505263159,0.043046522130134705,0.1758629179738554,-0.11741065166325698, ,1.303175926208496
0.016464792227570222,0.021626011663699853,-0.09425650923626576, ,0.01763670864080955,0.021069470877500603,-0.09515522718719528, ,0.0015782330885030788, ,0.026444846794236174,-0.0018343830091472493,-0.039385741679304156,0.03554881290388722,-0.018896758385755514,-0.04771209617896677, ,0.04747558878648845, ,0.04025805262392981, ,0.0009670325515792091, ,0.1950067278070431,-0.21993570952503982,0.10482578714000002,1.6815036568024009,0.23569796209538477,-1.2733773671169493, ,0.20856470672191377,0.1178843994515165,0.04225148944297083,0.06412809981975803,0.18817821912167634,-0.12699063187691195, ,1.3122529983520508
0.016464792227570222,0.021626011663699853,-0.09425650923626576, ,0.017688186951501813,0.021068794307878575,-0.0952479407240129, ,0.0016703658961642529, ,0.026444846794236174,-0.0018343830091472493,-0.039385741679304156,0.03554881290388722,-0.018896758385755514,-0.04771209617896677, ,0.04747558878648845, ,0.04025805262392981, ,0.0009717214405431094, ,0.1950067278070431,-0.21993570952503982,0.10482578714000002,1.6815036568024009,0.23569796209538477,-1.2733773671169493, ,0.20856470672191377,0.1178843994515165,0.04225148944297083,0.06412809981975803,0.18817821912167634,-0.12699063187691195, ,1.3160569667816162
0.016464792227570222,0.021626011663699853,-0.09425650923626576, ,0.01773954029109846,0.021068048931259506,-0.09534033567321917, ,0.0017637983959909993, ,0.026444846794236174,-0.0018343830091472493,-0.039385741679304156,0.03554881290388722,-0.018896758385755514,-0.04771209617896677, ,0.04747558878648845, ,0.04025805262392981, ,0.00097696698329442, ,0.1950067278070431,-0.21993570952503982,0.10482578714000002,1.6815036568024009,0.23569796209538477,-1.2733773671169493, ,0.20856470672191377,0.1178843994515165,0.04225148944297083,0.06412809981975803,0.18817821912167634,-0.12699063187691195, ,1.3181309700012207
0.016464792227570222,0.021626011663699853,-0.09425650923626576, ,0.017790768788867442,0.021067235337646633,-0.09543241272790329, ,0.0018582771174699604, ,0.026444846794236174,-0.0018343830091472493,-0.039385741679304156,0.03554881290388722,-0.018896758385755514,-0.04771209617896677, ,0.04747558878648845, ,0.04025805262392981, ,0.000982765076282417, ,0.1950067278070431,-0.21993570952503982,0.10482578714000002,1.6815036568024009,0.23569796209538477,-1.2733773671169493, ,0.20856470672191377,0.1178843994515165,0.04225148944297083,0.06412809981975803,0.18817821912167634,-0.12699063187691195, ,1.3209240436553955
0.016691926630370797,0.021608090570077534,-0.09459644849286315, ,0.017841872574769928,0.021066354115699085,-0.09552417258027084, ,0.001573698205946414, ,0.025925646672258718,-0.002499501544010903,-0.037906099302982214,-0.011746526180653045,-0.03618852381400111,0.03783829063807204, ,0.04599194524817211, ,0.03804618078248592, ,0.0009866273843194366, ,0.19679067910098896,-0.21890858605276795,0.10519004463,1.6817133467458854,0.23733760009257007,-1.2743876670007441, ,0.20451927060015251,0.11832536353924038,0.04063472326530613,-0.024734972933971554,0.1844497636408357,-0.09708871129387309, ,1.3268630504608154
0.016691926630370797,0.021608090570077534,-0.09459644849286315, ,0.017892851779458933,0.02106540585273318,-0.0956156159216455, ,0.0016659622336782718, ,0.025925646672258718,-0.002499501544010903,-0.037906099302982214,-0.011746526180653045,-0.03618852381400111,0.03783829063807204, ,0.04599194524817211, ,0.03804618078248592, ,0.0009910386495750134, ,0.19679067910098896,-0.21890858605276795,0.10519004463,1.6817133467458854,0.23733760009257007,-1.2743876670007441, ,0.20451927060015251,0.11832536353924038,0.04063472326530613,-0.024734972933971554,0.1844497636408357,-0.09708871129387309, ,1.3288640975952148
0.016691926630370797,0.021608090570077534,-0.09459644849286315, ,0.017943706534277733,0.021064391134723796,-0.09570674344246843, ,0.001759351266503715, ,0.025925646672258718,-0.002499501544010903,-0.037906099302982214,-0.011746526180653045,-0.03618852381400111,0.03783829063807204, ,0.04599194524817211, ,0.03804618078248592, ,0.0009959955051681017, ,0.19679067910098896,-0.21890858605276795,0.10519004463,1.6817133467458854,0.23733760009257007,-1.2743876670007441, ,0.20451927060015251,0.11832536353924038,0.04063472326530613,-0.024734972933971554,0.1844497636408357,-0.09708871129387309, ,1.3310489654541016
0.017152258269445345,0.021521358940662094,-0.09515316577297467, ,0.017994436971257795,0.021063310546304618,-0.09579755583229926, ,0.0011551241690469138, ,0.02498163732031203,-0.007447467970318286,-0.024361188320186127,-0.21426326327254389,-0.18420554524552268,-0.0030337833326653327, ,0.03567932845141703, ,0.2825604719476874, ,0.0009970155607057867, ,0.2004589772162456,-0.21666127078636863,0.10578763432,1.6817133467458854,0.23870396509022446,-1.2743583436757404, ,0.20496099688654598,0.13498853706752598,0.026155683940886704,-0.015245421179789997,0.02025902942711904,0.08059703712294902, ,1.3329389095306396
0.017152258269445345,0.021521358940662094,-0.09515316577297467, ,0.01804504322311811,0.021062164670770597,-0.09588805377981698, ,0.0012441803460938967, ,0.02498163732031203,-0.007447467970318286,-0.024361188320186127,-0.21426326327254389,-0.18420554524552268,-0.0030337833326653327, ,0.03567932845141703, ,0.2825604719476874, ,0.0009985898587018891, ,0.2004589772162456,-0.21666127078636863,0.10578763432,1.6817133467458854,0.23870396509022446,-1.2743583436757404, ,0.20496099688654598,0.13498853706752598,0.026155683940886704,-0.015245421179789997,0.02025902942711904,0.08059703712294902, ,1.3348441123962402
0.017152258269445345,0.021521358940662094,-0.09515316577297467, ,0.018095525423262756,0.021060954090077817,-0.0959782379728205, ,0.0013350916391284791, ,0.02498163732031203,-0.007447467970318286,-0.024361188320186127,-0.21426326327254389,-0.18420554524552268,-0.0030337833326653327, ,0.03567932845141703, ,0.2825604719476874, ,0.0010007196168058548, ,0.2004589772162456,-0.21666127078636863,0.10578763432,1.6817133467458854,0.23870396509022446,-1.2743583436757404, ,0.20496099688654598,0.13498853706752598,0.026155683940886704,-0.015245421179789997,0.02025902942711904,0.08059703712294902, ,1.3367919921875
0.017152258269445345,0.021521358940662094,-0.09515316577297467, ,0.018145883705779946,0.021059679384845764,-0.09606810909822963, ,0.0014274315424630706, ,0.02498163732031203,-0.007447467970318286,-0.024361188320186127,-0.21426326327254389,-0.18420554524552268,-0.0030337833326653327, ,0.03567932845141703, ,0.2825604719476874, ,0.0010034033396087306, ,0.2004589772162456,-0.21666127078636863,0.10578763432,1.6817133467458854,0.23870396509022446,-1.2743583436757404, ,0.20496099688654598,0.13498853706752598,0.026155683940886704,-0.015245421179789997,0.02025902942711904,0.08059703712294902, ,1.339993953704834
0.017379431431159872,0.021458857749129534,-0.09538699158898566, ,0.018196118205439843,0.021058341134357325,-0.09615766784208397, ,0.0011921966000127983, ,0.02450598618845354,-0.005714718300572735,-0.026672840754851917,-0.11743702977359387,-0.16340772037465087,-0.004621993959363831, ,0.03666935775626928, ,0.20123003140608173, ,0.001004583297486256, ,0.20231243310605948,-0.2154565244579896,0.10603911458000001,1.6817133467458854,0.23911387458952077,-1.2742025249459863, ,0.1956637970277748,0.12228987314235924,0.02875236736462094,-0.01230350871792417,0.03606815403705258,-0.0024099525079541335, ,1.3422160148620605
0.017379431431159872,0.021458857749129534,-0.09538699158898566, ,0.01824622905769365,0.021056939916561122,-0.09624691488954588, ,0.0012854353940776168, ,0.02450598618845354,-0.005714718300572735,-0.026672840754851917,-0.11743702977359387,-0.16340772037465087,-0.004621993959363831, ,0.03666935775626928, ,0.20123003140608173, ,0.0010063277204464508, ,0.20231243310605948,-0.2154565244579896,0.10603911458000001,1.6817133467458854,0.23911387458952077,-1.2742025249459863, ,0.1956637970277748,0.12228987314235924,0.02875236736462094,-0.01230350871792417,0.03606815403705258,-0.0024099525079541335, ,1.3442840576171875
0.017379431431159872,0.021458857749129534,-0.09538699158898566, ,0.01829621639867207,0.02105547630807247,-0.09633585092490068, ,0.0013796902924202684, ,0.02450598618845354,-0.005714718300572735,-0.026672840754851917,-0.11743702977359387,-0.16340772037465087,-0.004621993959363831, ,0.03666935775626928, ,0.20123003140608173, ,0.001008632427680857, ,0.20231243310605948,-0.2154565244579896,0.10603911458000001,1.6817133467458854,0.23911387458952077,-1.2742025249459863, ,0.1956637970277748,0.12228987314235924,0.02875236736462094,-0.01230350871792417,0.03606815403705258,-0.0024099525079541335, ,1.346242904663086
