NicholasDascanio/dvrk_moveit_final/test/execution/third_experiment_notsharpbends/thirdexp_600vel4.0/thirdexp_600vel4.0_20.csv
Current Position (x),Current Position (y),Current Position (z), ,Planned Position (x),Planned Position (y),Planned Position (z), ,Position Error,,Cartesian linear Velocity(x),Cartesian linear Velocity(y),Cartesian linear Velocity(z),Cartesian Angular Velocity(x),Cartesian Angular Velocity(y),Cartesian Angular Velocity(z), ,Total Linear Velocity, ,Total Angular Velocity, ,MSE, ,Joint 1 Position,Joint 2 Position,Joint 3 Position,Joint 4 Position,Joint 5 Position,Joint 6 Position, ,Joint 1 Velocity,Joint 2 Velocity,Joint 3 Velocity,Joint 4 Velocity,Joint 5 Velocity,Joint 6 Velocity, ,Time Stamp
0.0092414179098757,0.019964192782521307,-0.0760993270364472, ,0.009387644091250535,0.01991629130406481,-0.07623811467287342, ,0.00020721644669900223, ,-3.536587271117741e-05,-5.122961589969665e-05,-1.7722585184805673e-05,0.03663365469103162,-0.0003934748086911473,-0.016365414513848292, ,6.472486789083735e-05, ,0.03663576774747348, ,1.7268037224916852e-05, ,0.18806399095311527,-0.24294945349022884,0.08720272459,1.7584598660612214,0.6137711569463585,-1.249564949233421, ,-0.00047252421205710635,0.0005418149526625716,-1.1537328727786453e-08,-0.001958010431046669,0.0,-0.04167416985340511, ,0.01917290687561035
0.009243710614772171,0.019966753379101747,-0.07611453380627427, ,0.009428717201494607,0.019931697509265395,-0.07640161804793533, ,0.00034332741363132487, ,0.0003601268292338544,0.0004033442674980693,-0.001800089702774565,0.14682817827878272,-0.0022774580663580835,-0.06958894986031808, ,0.001879548049210928, ,0.14684584009052187, ,2.5024720924105775e-05, ,0.18805626822024105,-0.2429340080244804,0.08721828007000001,1.7584598660612214,0.6137711569463585,-1.2511985240362324, ,0.0002504427059848758,0.0005020319860809985,0.0018770589783035328,-0.001958010431046669,0.0,-0.164022462447178, ,0.04026198387145996
0.009266057214629565,0.01998153957705044,-0.07620219039312748, ,0.009469834787292242,0.019947004322202026,-0.0765646836696161, ,0.00041727611775320785, ,0.0013878733636025228,0.001143556907606551,-0.005325840464082248,0.24425397795513315,-0.04538298482203765,-0.1316096335381698, ,0.00562125355442964, ,0.24843433952249652, ,3.0244374315110466e-05, ,0.1880794364188637,-0.24286450342861238,0.08730642779,1.7582501761177367,0.6132246109472966,-1.2559802917904428, ,0.000673186777730797,0.0017431888969760131,0.00537228044519393,-0.002227294080794489,-0.043520733209001836,-0.2802737275766529, ,0.05919694900512695
0.009320218786669783,0.020018421781791862,-0.07638316128920446, ,0.009510996453979872,0.0199622120115349,-0.07672731195549205, ,0.00039748627362817877, ,0.002315508502334675,0.002225778750293202,-0.00992733331798341,0.19989662938965477,-0.04583049759791955,-0.11034862843753354, ,0.010433964609676633, ,0.2050831461992887, ,3.250729170742175e-05, ,0.1881103273503606,-0.24278727609987014,0.08748531581,1.7582501761177367,0.6109017904512842,-1.2582518031747723, ,0.0013119132040474183,0.002707063796200598,0.010184662097186702,-0.0021733637291807568,-0.04363623388073785,-0.2318304129429123, ,0.07756590843200684
0.00937869341982173,0.020061282909582454,-0.07660173211666654, ,0.009552201808005518,0.019977320845813756,-0.0768895033236426, ,0.0003463626083844643, ,0.0039105375790742854,0.0018561490760418283,-0.01036917538100276,0.3274559397419075,-0.213342955535415,-0.2310030268512783, ,0.01123643144560749, ,0.39082298938134247, ,3.291670884800342e-05, ,0.1881721092133544,-0.24267143510675676,0.08770568511000001,1.7580404861742522,0.609262152454099,-1.2663895221867203, ,0.004299442203169779,0.006442152712474148,0.009899820708514607,-0.0011862689677602366,-0.21437555019378604,-0.4031219593097588, ,0.09741997718811035
0.009464156155843229,0.0200872080501683,-0.0767942258559826, ,0.009593450456928712,0.01999233109347748,-0.07705125819265037, ,0.0003029591974127661, ,0.0030300421512601252,0.00105880144649002,-0.007801060499696236,-0.25758633380570634,-0.17354518361959956,0.052020439381378764, ,0.00843556523662898, ,0.3105940277792442, ,3.249400092756362e-05, ,0.18822616834347397,-0.24250153498352384,0.08787938797000001,1.757621106287283,0.6032501464644197,-1.2690832572571502, ,0.0020937672434341564,0.008838693884987942,0.007276752635906807,0.0029019055644468853,-0.18365700222927744,0.24760158273556065, ,0.11997389793395996
0.009484642813981908,0.020105146350013342,-0.0769278022622712, ,0.009634742009418105,0.02000724302285423,-0.0772125769815985, ,0.0003364691229628133, ,-0.00019422911677906908,0.0007214149755049537,-0.0057297806201619325,-0.6065163569371905,0.19061977251633422,0.3399708632135679, ,0.005778282657664892, ,0.6357656713761485, ,3.265412750655219e-05, ,0.18828022747359355,-0.24229302119591978,0.08802068358000001,1.757621106287283,0.6044798749623086,-1.2617547868960806, ,0.001940092249974754,0.011531578934127026,0.006576718216350124,0.0029019055644468853,0.19247842589908656,0.6881822244887497, ,0.14095783233642578
0.009469428521699692,0.020114315917942816,-0.07703250396308231, ,0.009676076075251424,0.020022056902160888,-0.07737346011007112, ,0.00040922613742455785, ,0.0007182640647371245,0.00047026582318529585,-0.005988505159932503,-0.15113778564925628,0.08244237746971994,0.08936719161699049, ,0.00604973117267925, ,0.17216090103771683, ,3.3662479486540435e-05, ,0.1883265638708389,-0.24201500281244767,0.08814642371,1.757621106287283,0.6096720619533953,-1.2578207932224883, ,0.0028129321993256543,0.013963646491829131,0.006379179623548259,0.0029019055644468853,0.08679231845627172,0.16620653942756708, ,0.1596848964691162
0.00949935646868592,0.020127924852845713,-0.07716394627548648, ,0.009717452265313141,0.020036772999503027,-0.07753390799815094, ,0.0004390286017005291, ,0.0020137045082506662,0.0009845614516851336,-0.00831833359157269,0.2442611525736646,-0.010646807809561658,-0.11799915280846346, ,0.008615047349804877, ,0.24449307788426533, ,3.477556434344396e-05, ,0.18841151393245537,-0.24176015262759828,0.08828123787000001,1.7578307962307675,0.6099453349529261,-1.2595138463524114, ,0.00551964488016411,0.012985791943283127,0.008495366144000002,-0.00843687853814513,0.0,-0.2865986176034348, ,0.1795799732208252
0.009555984074537213,0.020150092431119305,-0.07736790630137595, ,0.0097588701915943,0.020051391582874646,-0.0776939210664193, ,0.0003964722701084988, ,0.0028038585950170823,0.0011207553881047202,-0.009721958855121426,0.002145492707164408,-0.08827717198564891,-0.025966675647641324, ,0.010180088390652159, ,0.0883032397247718, ,3.525317833044454e-05, ,0.18851190945982027,-0.2414512433126293,0.08848345911000001,1.7574114163437988,0.6085789699552717,-1.2626469618027563, ,0.00421741392187323,0.014031781984100367,0.009578359302465424,-0.014014497528416265,-0.08420023469629065,-0.033359541333351214, ,0.1989140510559082
0.009601210189593251,0.020169297353729753,-0.07755251011797568, ,0.009800329467190599,0.02006591292015777,-0.07785349973595412, ,0.0003754085480469256, ,0.0023091066394013604,0.0013199147341246254,-0.00901513545031995,-0.038891856090642093,-0.01035899424962854,-0.03865600225874888, ,0.009399298674108734, ,0.04024779711352983, ,3.54574351585024e-05, ,0.18862002772005942,-0.241165502196283,0.08867012487,1.756782346513345,0.6083056969557408,-1.262914198436207, ,0.0051242163727790654,0.014306790525926547,0.009202086377816292,0.04825579065441735,-0.017955226445444793,0.034500245389622174, ,0.21910595893859863
0.009644667622463014,0.02019117860539408,-0.07772653096696837, ,0.009841829706301606,0.020080337279122354,-0.07801264442832918, ,0.00036471852117094005, ,0.002039600201377611,0.0011132099040292234,-0.008082068182400325,-0.0446860751221344,0.0011589301387060203,-0.0111570781989249, ,0.008409460825573542, ,0.0447011005949948, ,3.5834307924985196e-05, ,0.1887358687131728,-0.24090292927855936,0.08884771660000002,1.756782346513345,0.6081690604559755,-1.2623127080916672, ,0.005891232655552167,0.012863893392770878,0.008304906944734099,0.027646446328704055,0.0,0.041066473402287265, ,0.2376539707183838
0.009661947086534796,0.020198859705423088,-0.0777997973980122, ,0.009883370524229445,0.02009466492742627,-0.07817135556561323, ,0.00044490489144688423, ,0.0017972541919448876,0.0007402522503083528,-0.007155002903228867,-0.013523540978236034,0.0016202034068659769,-0.022382160260425343, ,0.007414321450393392, ,0.013620249664289768, ,3.677581654130841e-05, ,0.18878992784329238,-0.24077164281969754,0.08892290142,1.756782346513345,0.6083056969557408,-1.2622607685150824, ,0.005249319282619035,0.014240237328702096,0.007296752872194229,0.023005355464106543,0.0013993796184067963,0.004342800044164029, ,0.2547340393066406
0.00969393998493697,0.020211319762666217,-0.07792854356465848, ,0.009924951537377288,0.020108896132614587,-0.07832963357036875, ,0.00047405709575377693, ,0.0020325302834052657,0.0011028378066813473,-0.00833273380599802,-0.00105018104124262,-9.846853023325031e-07,-0.022833202037338653, ,0.00864765189299543, ,0.0010501623758674143, ,3.78051312670782e-05, ,0.18888260063778306,-0.24053223810059657,0.08905382671,1.756782346513345,0.6083056969557408,-1.2622607685150824, ,0.00542520039666056,0.01303529417011961,0.008550086698872786,0.01759746660244382,0.0013997580735662216,-0.009247336621911965, ,0.27765583992004395
0.009742737212639522,0.020239334172364915,-0.07812990355094487, ,0.009966572363249031,0.020123031162119533,-0.07848747886565005, ,0.00043759418475001024, ,0.0019187830670897848,0.0007745859304302484,-0.007597044862089934,-0.01183801772295464,-0.005837102347162338,-0.0032658537342335125, ,0.007873804827323194, ,0.013198878820348306, ,3.8462888046445135e-05, ,0.1890216098295191,-0.24024649698425027,0.08926123311,1.7569920364568297,0.6084423334555062,-1.2624538651589194, ,0.005817928039749725,0.01358171448077541,0.007739947288629739,0.0,0.0,-0.0016629047538843243, ,0.29468202590942383
0.009780891642358087,0.020254122083140258,-0.0782882229705006, ,0.010008232620447139,0.020137070283260717,-0.07864489187500419, ,0.0004388596035331985, ,0.002059628451728524,0.000977304881261032,-0.008378248636689603,-0.0033090073990850225,0.0011481499493939703,0.003915137008767255, ,0.008682870746953307, ,0.003502532939312726, ,3.905329321278394e-05, ,0.18915289628838092,-0.23998392406652663,0.08942326936000002,1.756362966626376,0.6087156064550372,-1.2627583797064528, ,0.006771657078327057,0.01305502016212282,0.00861016838918919,-0.008552260820514026,0.010549300792715273,-0.010659568215617119, ,0.3116738796234131
0.009828523578185942,0.020280533884895192,-0.07847867505070223, ,0.010049931928672097,0.02015101376324403,-0.0788018730224673, ,0.0004126185266448733, ,0.002257378256547889,0.0013371876894383134,-0.009581212718050635,-0.005158429913762211,0.0002585347233208886,0.004805416146598353, ,0.009933955136724536, ,0.005164896769134756, ,3.942159976537321e-05, ,0.18929190548011696,-0.23972907388167722,0.08961900915000001,1.756362966626376,0.6087156064550372,-1.2628400584465933, ,0.006185758466882732,0.012240028577127663,0.009875270626162431,-0.008552260820514026,0.00897084400122122,-0.007965778235552513, ,0.33135390281677246
0.009849150363496565,0.02029355565977616,-0.078568962624262, ,0.010091669908720471,0.020164861869162155,-0.07895842273256526, ,0.0004765049816295743, ,0.0023585827740843245,0.0013252091282765835,-0.009998305749160885,-0.011890999949916459,-0.005341334759466948,0.0051130646527509285, ,0.0103578573937653, ,0.013035552804015905, ,4.011708881532301e-05, ,0.18934596461023653,-0.23961323288856387,0.08971234203,1.756362966626376,0.6088522429548027,-1.2629514763502898, ,0.005852972041214966,0.013305796629062085,0.010250200463320465,-0.008552260820514026,0.002695256400125329,-0.0028361002599884173, ,0.34868502616882324
0.009893238624260812,0.020314027823277216,-0.07874792052134119, ,0.010133446182484773,0.020178614867994014,-0.07911454143031242, ,0.00045874527832048427, ,0.0021852165597956216,0.0009083213357758031,-0.008368810656678917,-0.006632019651299033,-0.0011023931781051733,0.004738795933986327, ,0.008696965612762486, ,0.0067230137828078905, ,4.0648020766315284e-05, ,0.1894926965348468,-0.23931976903934332,0.08989641521000001,1.756362966626376,0.6091255159543335,-1.2632559908978234, ,0.00818969127000205,0.013735264373783584,0.008596228559093363,-0.008552260820514026,0.009639564397644785,-0.007860418406326094, ,0.3677098751068115
0.009937432705267707,0.020328903333076295,-0.07891214064145888, ,0.010175260372951614,0.02019227302660445,-0.07927022954120932, ,0.00045106263454984037, ,0.0021280824788549313,0.0007122696059989397,-0.007876915548279137,-0.007652717998604515,-0.0036864843910682232,0.00786307712277906, ,0.00819035173745065, ,0.008494364579422176, ,4.1089629303377474e-05, ,0.1896548739252055,-0.23903402792299702,0.09006363662000001,1.7559435867394069,0.6091255159543335,-1.2634193483781044, ,0.008539177857560273,0.014298168081734336,0.008061139433198382,-0.012538351729217337,0.00828850170581239,-0.008359913622023879, ,0.38548803329467773
0.009981280914829149,0.020345179647195198,-0.07908276057770194, ,0.01021711210420025,0.020205836611744382,-0.07942548749124359, ,0.00043874202975623247, ,0.0022831981187473576,0.0008416407492816648,-0.009080180423310758,-0.001332141269701575,0.0015822966562121506,0.0033815898133041093, ,0.009400586647660816, ,0.0020683813343040525, ,4.143089349162418e-05, ,0.18981705131556423,-0.2387173958751538,0.09023863577,1.7559435867394069,0.6093987889538645,-1.263805541665778, ,0.00796205533232949,0.016392631120827564,0.0092933556126021,-0.010700850582596956,0.012839806269007924,-0.016574566999826335, ,0.40270304679870605
0.010026477418691665,0.020360104837373664,-0.07925152235992583, ,0.010259001001402143,0.020219305890049888,-0.07958031570688638, ,0.00042661062467960303, ,0.0021257934266747233,0.0004956493950431961,-0.007670235099221132,0.002285391373232338,-0.002180781301098873,-0.0008855233847625948, ,0.007974783538944739, ,0.0031589229593898074, ,4.1685550284301834e-05, ,0.18998695143879715,-0.2383930410944364,0.09041104234000001,1.7559435867394069,0.6095354254536298,-1.264243674530037, ,0.00900882206073036,0.016386969704450145,0.007815903591756624,-0.008981515024087798,0.00961857826630041,-0.020713793482059928, ,0.42553281784057617
0.010070987951575228,0.020367915962766894,-0.07940670444926881, ,0.010300926690819572,0.020232681128042752,-0.07973471461509372, ,0.0004227894904235807, ,0.0021399464933080582,0.0003548095078714777,-0.007357684803166451,-0.021769666958860803,-0.0035044166915773212,0.004517783389148753, ,0.007670774826824471, ,0.022049927761448214, ,4.2093336074937294e-05, ,0.19017229702777855,-0.2380532408479705,0.09056789343,1.755524206852438,0.6095354254536298,-1.264407032010318, ,0.009603663509533728,0.017393134449866343,0.007471299962476548,-0.003704962610323419,0.007233726586428605,0.005532149971405046, ,0.4407939910888672
0.01008515373614013,0.02036996750623691,-0.07945416893459406, ,0.010342888799803674,0.020245962592129553,-0.07988868464330358, ,0.0005202004256820242, ,0.0021399464933080582,0.0003548095078714777,-0.007357684803166451,-0.021769666958860803,-0.0035044166915773212,0.004517783389148753, ,0.007670774826824471, ,0.022049927761448214, ,4.2901502317591596e-05, ,0.19023407889077235,-0.23793739985485715,0.09061585616000001,1.755524206852438,0.6095354254536298,-1.2644887107504585, ,0.009003254772422649,0.016834653460789564,0.007280078391224864,-0.003704962610323419,0.006681907256780356,0.004051747645769968, ,0.4598579406738281
0.010137542496950015,0.0203876318613794,-0.07966029665588044, ,0.010384886956794119,0.020259150548602046,-0.08004222621943562, ,0.00047281806338803604, ,0.0023782159841082115,0.0009549102069406851,-0.00946012542353925,-0.014657742831875787,-0.002177324103060173,0.0016113802411572152, ,0.009801109008652081, ,0.014818572448363865, ,4.3453017402048205e-05, ,0.19042714721262796,-0.23753581774539748,0.09082715143,1.755524206852438,0.6099453349529261,-1.2649863219418291, ,0.007427508985456856,0.016260613700903148,0.009671409544626596,-0.003704962610323419,0.006422789320666417,-0.0012325575065588266, ,0.4754939079284668
0.010162203337708347,0.020395842960632914,-0.07975327827063285, ,0.010426920791317624,0.020272245263636395,-0.08019533977189003, ,0.0005298774309611387, ,0.002526643506120211,0.0009053132164743141,-0.009796462648397999,-0.010379149368821557,-0.005116776822242507,0.003456408835492222, ,0.01015747015001273, ,0.011571864864397902, ,4.420303094832291e-05, ,0.19058932460298667,-0.2371960174989316,0.09103455783000002,1.7553145169089535,0.6100819714526916,-1.265179418585666, ,0.008300481884610255,0.016285728772691056,0.011061674666666669,-0.008798903041886724,0.0025003489420211042,-0.012013413749623931, ,0.49106502532958984
0.010213157707070989,0.02041872442003791,-0.0799582239762187, ,0.01046898993398682,0.020285247003293216,-0.08034802572954615, ,0.0004849863462064731, ,0.0027391116198893575,0.0012197535043921809,-0.010333532694163344,0.002778123386006023,-0.008476967108800837,-0.006026728944503752, ,0.010759759710097277, ,0.008920584234497372, ,4.472638592290414e-05, ,0.19066655193172893,-0.23705700830719556,0.09113177958,1.7551048269654688,0.6100819714526916,-1.265342776065947, ,0.009379283750403635,0.015470645836072836,0.01060506758988016,-0.005326809337988286,0.0025003489420211042,-0.020600194239871382, ,0.5102829933166504
0.010269820554643243,0.02043772213665534,-0.08016610296340919, ,0.010511094016499228,0.02029815603351708,-0.08050028452176133, ,0.0004351653645269099, ,0.002237637009407366,0.0005818841892197481,-0.00835529824558484,0.009522640041005151,-0.0013278167603262957,-0.0010893269873870212, ,0.008669291630127952, ,0.009614766246735752, ,4.5025051085621034e-05, ,0.1908827884522072,-0.23668631712923277,0.09134437114,1.7548951370219843,0.610218607952457,-1.265780908930206, ,0.008792306596424148,0.016757362097557967,0.008600870151187908,-0.012558091920903559,0.01128101483741831,-0.02994538581255464, ,0.5255570411682129
0.010293555253497833,0.02044467281904487,-0.08025277409442343, ,0.010553232671635243,0.020310972620136813,-0.08065211657837089, ,0.0004947550142887837, ,0.002197048554354662,0.0006723416840095222,-0.008424612754886492,0.007457948753397487,-0.0014544974008852349,-0.000958481758185415, ,0.008732305867297872, ,0.007598455096925324, ,4.552900091934319e-05, ,0.19096773851382368,-0.23651641700599985,0.09143251886,1.7548951370219843,0.610218607952457,-1.265780908930206, ,0.007941767796790617,0.01594638574331554,0.008600870151187908,-0.011322657245499997,0.009883489959792291,-0.026409543240333365, ,0.5404608249664307
0.010340523229789865,0.02046253084577041,-0.08043054052225243, ,0.010595405533258113,0.020323697028864777,-0.08080352232968521, ,0.00047260474607613957, ,0.002360445548195771,0.0008333391666939492,-0.009139063656416598,-0.0006027737800817591,-0.004506750453565285,-8.13550249024275e-05, ,0.009475686881106725, ,0.004546874984701839, ,4.592308360560281e-05, ,0.19114536136993085,-0.23620750769103085,0.09161529575,1.7548951370219843,0.6104918809519879,-1.2662487809580203, ,0.007839220290646045,0.016108800128750767,0.00933146544815466,-0.009500136120913091,0.006030877287699113,-0.017873537640215875, ,0.5574829578399658
0.010388108510286258,0.020475706787575928,-0.08060469398294998, ,0.010637612236312271,0.02033632952529654,-0.08095450220648999, ,0.0005348230844441456, ,0.002622768060729014,0.0008251700348743214,-0.009658504787930887,-0.0033191597274185233,-0.004168484725874599,0.0052059486662835545, ,0.010042237431236058, ,0.005328508436109218, ,4.6514738784399e-05, ,0.19133070695891222,-0.23588315291031342,0.09179288748000002,1.7544757571350151,0.6106285174517534,-1.2665235563419979, ,0.010148842826709994,0.01746676634612015,0.009881396724565759,-0.013728194021677255,0.009812253242251292,-0.016642906782769768, ,0.5733659267425537
0.01041507655029772,0.020484161428972452,-0.08070735826017703, ,0.010679852416821373,0.02034887037491122,-0.08110505664004468, ,0.0004965621110714211, ,0.002650128977819871,0.0008536344783123015,-0.009888168319133885,-0.008606398747195845,-0.0076401713455256405,0.0071750871234482145, ,0.010272669961074734, ,0.011508354489354108, ,4.6942382086104264e-05, ,0.19143110248627715,-0.23569780732133203,0.09189788697000001,1.7542660671915309,0.6107651539515188,-1.2667983317259754, ,0.009561243352346658,0.017615916383603263,0.010094303878326997,-0.014744533140444058,0.005751402595321607,-0.011772897083212028, ,0.5896239280700684
0.010417168926822663,0.02048535046849239,-0.0807148576669603, ,0.0107221257118886,0.020361319843070547,-0.08125518606208129, ,0.0006327219068234627, ,0.0026598519842013775,0.00085498505287064,-0.009906493226100545,-0.008641837302820093,-0.007712817188110943,0.007168147722748218, ,0.010292930586439812, ,0.011583125896507803, ,4.780252539759131e-05, ,0.19143882521915137,-0.2356900845884578,0.09190566471000002,1.7542660671915309,0.6107651539515188,-1.2667983317259754, ,0.009633956240040932,0.017651960855370307,0.010113531123809524,-0.014744533140444058,0.005751402595321607,-0.011772897083212028, ,0.6090428829193115
0.010512635737862387,0.02051364412957906,-0.08104910676784889, ,0.010764431759694127,0.02037367819501931,-0.08140489090480392, ,0.0004577925857375904, ,0.002517885809097384,0.0003208531782881202,-0.008494293692373334,-0.004717532186177541,-0.003354599624213338,0.0020861093062863665, ,0.008865422778523592, ,0.005788644430658929, ,4.820505777652743e-05, ,0.19183268459573682,-0.2350568204927714,0.09224788527000001,1.7542660671915309,0.6110384269510497,-1.26726620375379, ,0.011601642620862228,0.02007551122455485,0.00863350217886179,-0.010743465707492374,0.011450850202319918,-0.01707810870528716, ,0.6223950386047363
0.010538750061078205,0.020519857391435636,-0.08113830167412578, ,0.010806770199494956,0.0203859456958845,-0.08155417160088652, ,0.0005125572483013929, ,0.0026697201657476743,0.0008530662926250327,-0.009100032320769004,-0.0006059779943055511,-0.002918138664914021,-0.005603383391131801, ,0.009521854656633513, ,0.00298038255815022, ,4.876455248536354e-05, ,0.19194080285597595,-0.23488692036953845,0.09233862557000001,1.7540563772480462,0.6110384269510497,-1.2674295612340711, ,0.011737286289446178,0.01613344807182434,0.009358878683901293,-0.001741285532245167,0.009837968920244418,-0.015740962722329374, ,0.6356558799743652
0.01058551073191814,0.020536772965736416,-0.08131288353957011, ,0.01084914067162301,0.020398122610675473,-0.08170302858347284, ,0.0004908541752386112, ,0.0025266676930808954,0.0009671661984744063,-0.009531986691536683,-0.0011586549660520802,-0.002405136833151396,0.006466441702334172, ,0.009908492840708046, ,0.002669660245607128, ,4.9231747197366876e-05, ,0.19213387117783157,-0.23459345652031793,0.09251880988000001,1.7538466873045617,0.611448336450346,-1.2678454936853008, ,0.009194046421798566,0.015132664895307095,0.009790295955746774,-0.01427221738038236,0.010766366209362421,-0.01648204619612782, ,0.6535558700561523
0.010614860931753674,0.020545011780124457,-0.08141928550161884, ,0.010891542817484013,0.020410209204283505,-0.08185146228617474, ,0.0005305670301231763, ,0.002613018097572381,0.00048444257041747906,-0.008894056221849217,-0.013654226546446806,-0.008767356399950087,0.006767300965398927, ,0.00928260654448352, ,0.016226656623317633, ,4.980038572868678e-05, ,0.19224971217094494,-0.23438494273271387,0.09262769824000001,1.7538466873045617,0.6115849729501114,-1.2681202690692785, ,0.011217257479998455,0.01896421693814364,0.009045321703577514,-0.01257777228401601,0.005703600813059849,-0.00722473765298417, ,0.6671998500823975
0.01064316306990776,0.02055227144437102,-0.08151598014573283, ,0.01093397627955688,0.02042220574148181,-0.08199947314307136, ,0.0005790119933558246, ,0.0030014997539151767,0.0011733642260458896,-0.010890053236165794,-0.0046130940652309525,-0.006245631466510038,-0.005469672914379325, ,0.011356894111782596, ,0.007764560264978771, ,5.049023391208504e-05, ,0.19236555316405832,-0.2342073198766067,0.09272621628000001,1.7536369973610773,0.6115849729501114,-1.2682836265495596, ,0.011065408297396313,0.017219550273719974,0.011185963146067417,-0.0020829103717341663,0.005703600813059849,-0.013177076521200265, ,0.680945873260498
0.010676085423249248,0.020566604357621813,-0.08163381588764568, ,0.010976440701391772,0.02043411248692486,-0.08214706158870813, ,0.00060925244239801, ,0.003356793121596364,0.0015038176819363765,-0.011757434903487247,0.005083794715088744,-0.0012868265351712932,-0.006605617998644539, ,0.01231936699637775, ,0.005244107794235506, ,5.124044155142056e-05, ,0.19249683962292014,-0.23403741975337378,0.09284806754000001,1.7536369973610773,0.6117216094498769,-1.2685584019335372, ,0.013998663749590025,0.015989375157282357,0.012187307972456008,-0.0020419731949341984,0.014043561400785647,-0.021318903964076277, ,0.6965160369873047
0.010765158625401667,0.02060765611347513,-0.08196013733303968, ,0.01101893572760963,0.02044592970514862,-0.08229422805809496, ,0.0004496385896731093, ,0.003020767759999638,0.0009814210635666414,-0.010632106635272469,-0.016719017804655276,-0.006160682072667918,0.013506997447466898, ,0.011096392056324901, ,0.017817952297929894, ,5.150180792732046e-05, ,0.1928289171365118,-0.2336126694452914,0.09318510294000001,1.753217617474108,0.6119948824494077,-1.2691896314416327, ,0.012345120535770884,0.017777621123730006,0.010917622700479782,-0.016061831402832866,0.010381822128553446,-0.0025761214955310544, ,0.7098619937896729
0.010793515705411339,0.020615467087064944,-0.08205732672796895, ,0.011061461003900359,0.02045765766057001,-0.08244097298670618, ,0.0004938450667123264, ,0.002478131007026068,0.0004533022904063775,-0.00845140533949673,-0.017317692256655737,-0.007055048204524949,0.012011132088906886, ,0.008818892700727542, ,0.01869962906444376, ,5.187739218428125e-05, ,0.1929524808624994,-0.23342732385631004,0.09328491727,1.753217617474108,0.6121315189491732,-1.2693827280854697, ,0.010655394291317177,0.01770795699915484,0.008605516758508914,-0.015056831392589301,0.007428514345884389,-0.00207157765849454, ,0.7233648300170898
0.010819452916758506,0.02062027028715578,-0.08214012220833522, ,0.011104016177022027,0.020469296617486744,-0.08258729681047844, ,0.0005511210600467795, ,0.002729773116318718,0.0005470706338948402,-0.008882540899376304,-0.007938557040287049,-0.00876575758404483,0.006090844941278224, ,0.009308623978555548, ,0.01182620558797719, ,5.239667205930006e-05, ,0.19306832185561273,-0.23324970100020287,0.09336917612000001,1.753217617474108,0.6121315189491732,-1.26938272808547, ,0.01260084206061224,0.017945715120739555,0.009076245880341883,-0.013533336274837462,0.007428514345884389,-0.012394555280626943, ,0.7383339405059814
0.01087500779923875,0.020636511283201923,-0.08232504654546531, ,0.011146600894799455,0.020480846840077175,-0.08273319996581063, ,0.0005143767519524664, ,0.0025628533407941727,0.0005033686238484711,-0.008236307463055433,0.008345186676495883,0.004576334641074012,0.0015870829828388206, ,0.008640506804804772, ,0.009517612174836912, ,5.279667218812761e-05, ,0.1933463402390848,-0.232909900753737,0.09356102704000001,1.753217617474108,0.612678064948235,-1.2699917571805366, ,0.013296474927626561,0.01692472651301423,0.008490837697228146,-0.011184780363063768,0.021702575443229264,-0.026701366390211166, ,0.7552578449249268
0.01090174753408326,0.0206388238953676,-0.08240699842740642, ,0.011189214806123289,0.020492308592399828,-0.08287868288956139, ,0.0005714808818642097, ,0.0025410285282474777,0.00029994392459452214,-0.00832726281870552,0.0051841637757182755,0.004437781852793413,0.003856466250566854, ,0.008711492317109859, ,0.006824179202281987, ,5.33336513810726e-05, ,0.19358574495818578,-0.2325392095757742,0.09372954474,1.7525885476436547,0.6128147014480004,-1.270103175084233, ,0.01173498424544708,0.02062080433691238,0.009730489627367138,-0.012740600344396327,0.01447917362339815,-0.01936176594820116, ,0.7683110237121582
0.010958322263059924,0.02064848745809117,-0.08259946260900826, ,0.011231857560948636,0.02050368213839342,-0.08302374601905, ,0.0005251728780511004, ,0.003190181479301564,0.001068201555352525,-0.01077870769752436,0.004701359195794967,0.0007313915493905568,-0.020622781909794385, ,0.011291538958990805, ,0.004757895164491904, ,5.3730093465625067e-05, ,0.1937170314170476,-0.23233069578817014,0.09383972939000002,1.75237885770017,0.6128147014480004,-1.2702665325645142, ,0.013656201116487377,0.01865112845095731,0.0111157093649686,0.011703331261858956,0.012467212315317498,-0.021182367726444922, ,0.7830040454864502
0.010968922989229836,0.020652048515843863,-0.08263347245413645, ,0.011274528810293932,0.020514967741876465,-0.08316838979205299, ,0.0006311280494982588, ,0.003320269046404917,0.00126159456755551,-0.01116850195156311,0.004944116225568241,-0.0005949346177285622,-0.02025469478478596, ,0.011719694673303959, ,0.004979764922300106, ,5.452378880933845e-05, ,0.19376336781429296,-0.23227663665805057,0.09387472922000001,1.75237885770017,0.6128147014480004,-1.2702665325645142, ,0.014204002628120159,0.017515123949514724,0.011550987324147935,0.011703331261858956,0.011645005220639363,-0.020337941239631563, ,0.795421838760376
0.011033056393428636,0.020680247148045568,-0.08286395731901713, ,0.011317228206239526,0.02052616566654715,-0.08331261464680478, ,0.0005529811207577785, ,0.0034066800484429008,0.0015781706079221179,-0.012611900217912869,0.030827658002111794,0.013925872947629217,-0.02820788904155387, ,0.013158879835561948, ,0.03382712101504413, ,5.5095531563520096e-05, ,0.19403366346489082,-0.23195228187733316,0.09411454287000001,1.75237885770017,0.6133612474470621,-1.2712022766201432, ,0.013060410343857801,0.017911842498767608,0.01309935157894737,0.011703331261858956,0.025944562882966163,-0.04729302944522637, ,0.8068668842315674
0.01107160509201347,0.0206955597213754,-0.08299215415336042, ,0.011359955401927135,0.020537276175982874,-0.08345642102199602, ,0.0005689844525837581, ,0.0034069144445260375,0.0010886038092406236,-0.01196371951438037,0.018112813741684095,0.005527113789441304,0.001628770289471962, ,0.0124869014933481, ,0.018937337811563076, ,5.569007336701794e-05, ,0.1941881181223753,-0.23175921355547754,0.09424676445,1.7525885476436547,0.6133612474470621,-1.2712839553602837, ,0.014843882615121349,0.019932144834797473,0.012357495360744767,-0.017328266692065282,0.025944562882966163,-0.041440403194810536, ,0.8181159496307373
0.011097362073605429,0.0207031831644308,-0.08307959532487716, ,0.01140271005155762,0.02054829953364032,-0.08359980935677189, ,0.0006227752128228149, ,0.0032734848431715024,0.0008330452067492034,-0.011509115341019843,0.020447424862135775,0.003340053466311899,-0.0022935427272085147, ,0.011994557235173781, ,0.020718420275599864, ,5.6399249712523364e-05, ,0.1944120773757278,-0.23141169057613745,0.09445157827,1.75237885770017,0.6133612474470621,-1.2714473128405648, ,0.013071204071414707,0.01918660363090796,0.012140862439024392,-0.006249912175564072,0.018150961203138253,-0.013326234854730992, ,0.8310718536376953
0.011177915453610621,0.020728905441689125,-0.0833561992956819, ,0.011445491810390854,0.020559236002854992,-0.08374278009073247, ,0.0004998295072162091, ,0.0037251412002176874,0.0012927309959240086,-0.012464425220983509,-0.02535139987152328,-0.016392551445011144,0.017760745823953754, ,0.01307324468060136, ,0.030189549805609936, ,5.679013109010464e-05, ,0.19461286843045764,-0.23117228585703647,0.09462009597000001,1.751959477813201,0.6134978839468276,-1.2716404094844018, ,0.015345559760425417,0.01845167053441003,0.01282513004830918,-0.019385940995884914,0.003491631509118987,0.004495418388083202, ,0.8428359031677246
0.011212010988310237,0.020740122337637015,-0.08347856491809444, ,0.011488300334744368,0.020570085846840867,-0.08388533366392957, ,0.000520297053368125, ,0.003365385176056875,0.0008604208888103925,-0.01151105836010621,-0.011879276077026032,-0.010258605694012799,0.025642967000672173, ,0.01202375174639329, ,0.015695731546977905, ,5.72186663331297e-05, ,0.19476732308794215,-0.23097149480230664,0.09474713239000002,1.7517497878697164,0.6139077934461239,-1.2719746631954911, ,0.014227427520010612,0.019898708651388295,0.011799119644444446,-0.03368791891042489,0.012360254951532498,-0.013658932268019766, ,0.854403018951416
0.011242843611515915,0.02074737618068585,-0.08358755442465485, ,0.011531135281991022,0.020580849328690476,-0.08402747051686786, ,0.0005516968804414119, ,0.0029918444016928843,0.0008668426917124747,-0.0104941444237789,0.028428533104426053,0.03661856035283588,-0.04178813458316898, ,0.010946671474162643, ,0.04635839006599618, ,5.770898370358295e-05, ,0.1949140550125524,-0.23076298101470258,0.09485990962000002,1.751540097926232,0.6143177029454203,-1.2724722743868617, ,0.01432406665033521,0.021445636510388878,0.010932609142072754,0.03324493097142486,0.045734998167975986,-0.0410777808857139, ,0.8660509586334229
0.011290834713535284,0.020758221639330873,-0.08374241277674335, ,0.011573996310559331,0.02059152671137466,-0.08416919109050201, ,0.0005386162067095846, ,0.0034941562152043058,0.0007250448430470889,-0.010691631311632378,-0.039545523146066845,-0.028860480652395635,0.012165332054905505, ,0.011271459434543423, ,0.04895687494801791, ,5.815529995529545e-05, ,0.1951380142659049,-0.23044634896685937,0.09501935329000001,1.7517497878697164,0.6145909759449512,-1.2729401464146761, ,0.015188370928052303,0.020139418836687347,0.010880335737704918,-0.012015332408389026,-0.011621782931465055,0.017675212587548304, ,0.8817939758300781
0.011342960514739547,0.020770250934409193,-0.0839085172892151, ,0.011616883079931752,0.020602118257741674,-0.08431049582623638, ,0.0005146735984200427, ,0.003426301788042355,0.0007110435046639013,-0.010895458330544878,-0.019929722527307722,-0.023654758626174402,0.0010117698443535327, ,0.011443606906954937, ,0.030931234895101318, ,5.853457180584069e-05, ,0.1953619735192574,-0.23012971691901615,0.09518916728000001,1.7517497878697164,0.6145909759449512,-1.2729401464146761, ,0.01417853601650542,0.020957805114503264,0.011084767933194156,-0.00903916737535568,-0.0076963360623886505,-0.0037188209294501317, ,0.893035888671875
0.011382264376428244,0.020779730256876554,-0.08402790796553913, ,0.011659795250642698,0.020612624230518125,-0.084451385165924, ,0.0005331798471748046, ,0.0038069644213343055,0.0009790212137942944,-0.011872175377192713,-0.01325293670508054,-0.0188255936815074,-0.0007179675044752443, ,0.012505998913688799, ,0.023022664331297335, ,5.8945344754688914e-05, ,0.19553187364249036,-0.22991348039853787,0.09531101854000001,1.7517497878697164,0.6144543394451857,-1.2728287285109796, ,0.016954965438354615,0.020765195089380916,0.012177990458715598,-0.007717189214685957,0.0,-0.009487180420025984, ,0.9047658443450928
0.0114111568736297,0.020788432927253374,-0.08413473634277878, ,0.011702732484278746,0.020623044892307377,-0.08459185955186503, ,0.0005668608004739571, ,0.003460169031435807,0.001015422554816116,-0.012125242689423683,0.022291523997549724,0.02464064536823186,-0.011363082517166143, ,0.012650113160298572, ,0.033227596726294335, ,5.942015262093796e-05, ,0.1956708828342264,-0.22972813480955648,0.09542249948,1.751540097926232,0.6150008854442475,-1.273356078865906, ,0.01593032425020493,0.02190603452411606,0.01259194586561265,0.0,0.04286523071608587,-0.04213891035195407, ,0.9193098545074463
0.011447706271893099,0.020798555442954107,-0.08427106691393182, ,0.011745694443476583,0.020633380505590458,-0.08473191942680616, ,0.0005731184423479542, ,0.003390174809871826,0.0011328011657116862,-0.012027598161942392,0.03323224326524179,0.029163281003889523,0.002760684660174751, ,0.012547495418117801, ,0.04421401021899577, ,6.0028121077420925e-05, ,0.1958562284232078,-0.22948873009045553,0.09556509138000001,1.751120718039263,0.6158207044428401,-1.2741879437683654, ,0.01627455694708811,0.019370675966211632,0.0125621541955836,-0.017046674348115572,0.05210444362967931,-0.05374394942357226, ,0.9289729595184326
0.011482382453456,0.020810224004010017,-0.08438849469153543, ,0.011788680791921644,0.020643631332725107,-0.08487156523393903, ,0.0005957591285165181, ,0.0033928755680416494,0.0010051774143511679,-0.012430237756199948,-0.009053924475608325,0.007549120139285084,0.013079713976732363, ,0.012924116872351255, ,0.011788234241521148, ,6.067217014741964e-05, ,0.1959875148820696,-0.22930338450147414,0.09568564635000001,1.751120718039263,0.6158207044428401,-1.274269622508506, ,0.013073004760775697,0.021406934707527806,0.01279422612048193,-0.017046674348115572,0.025723231613388527,-0.013025140491564113, ,0.9387240409851074
0.01152131167151944,0.02082174449942672,-0.08452216608129008, ,0.011831691194347663,0.02065379763594584,-0.08501079741689965, ,0.0006027455344369909, ,0.003798591486004696,0.0010708347300372738,-0.012475558302199818,-0.030689516293192234,-0.018678074313848096,0.013909517122389869, ,0.013084935584411112, ,0.03592654406118021, ,6.131739575884182e-05, ,0.1961419695395541,-0.22907170251524742,0.09582305309000001,1.751120718039263,0.6159573409426056,-1.2743810404122025, ,0.015367925758456807,0.020629769904015386,0.012783957881219905,-0.01499888020186025,0.0,0.008419108935809046, ,0.9492378234863281
0.011559227637553265,0.020834184135199073,-0.08464366095105551, ,0.01187472531653497,0.020663879677363675,-0.08514961641976665, ,0.0006201075149683013, ,0.0038825028895460552,0.0011556155452186992,-0.012760546206142103,-0.025314758168735296,-0.015094146237276474,0.01124525517892706, ,0.013388084831475045, ,0.02947320636509216, ,6.198588304279512e-05, ,0.19628870146416436,-0.22888635692626602,0.09594749693000001,1.751120718039263,0.6158207044428401,-1.274269622508506, ,0.01596247965659727,0.0205493593673605,0.013110132938271608,-0.013333830291281202,0.004021858540570742,0.0034958155697739058, ,0.9603328704833984
0.011583834218030541,0.02084145130139034,-0.0847252048731352, ,0.011917782825309479,0.02067387771896573,-0.0852880226870607, ,0.0006755490133972829, ,0.004049443665961659,0.0011094837673009325,-0.012878671301932114,-0.03079337002050338,-0.019472309516081816,0.011383877480118872, ,0.013545815691087456, ,0.03643353017239289, ,6.275723240605104e-05, ,0.1963968197244035,-0.22874734773452998,0.09603175578,1.751120718039263,0.6159573409426056,-1.2744627191523432, ,0.01726968909162344,0.021387636141192424,0.013218930721991703,-0.012413613328846192,0.0005384867628352942,0.008329966745792028, ,0.9697449207305908
0.011638600872206816,0.020860333638949027,-0.0849153205553284, ,0.011960863388541423,0.020683792022615232,-0.0854260166637433, ,0.0006291506869440678, ,0.0036004314350746944,0.0013777569305626403,-0.013410930412603132,0.03656298186953769,0.04913433813135804,-0.007311918259228722, ,0.013954009288017226, ,0.06124568877067001, ,6.341561346015086e-05, ,0.19665166990925292,-0.22845388388530943,0.09623008815,1.7509110280957785,0.6166405234414327,-1.2751831661511064, ,0.016625252550537976,0.021102277420162505,0.01407138826855124,-0.0021688575048644577,0.06977336072171963,-0.05361431725639161, ,0.9792590141296387
0.01167970179436165,0.02087231660377263,-0.08505660626475878, ,0.012003966675144336,0.02069362285005101,-0.08556359879521547, ,0.0006277902487829916, ,0.003869992835301212,0.0012334326635326607,-0.013684461271322534,0.001124297024522193,0.01156201108067476,0.008517582536796343, ,0.014274546611611814, ,0.011616525476342095, ,6.405758077726291e-05, ,0.19681384729961163,-0.2282222018990827,0.09637527263000001,1.7507013381522938,0.6167771599411982,-1.2753762627949432, ,0.016016361444467643,0.02212049919777874,0.014158943573333334,-0.015403550130062902,0.03269363454340954,-0.023721681257404682, ,0.9892008304595947
0.01172023369480204,0.020885035416033877,-0.08519308543528196, ,0.012047092355073452,0.02070337046288762,-0.08570076952731696, ,0.0006305409394333214, ,0.004037551269484459,0.0014489631341936767,-0.014266663068366926,-0.017101513471704355,0.002311531156361666,0.007172046115391639, ,0.014897616907555138, ,0.017257008671154934, ,6.469204506263511e-05, ,0.19707642021733526,-0.22785923345399417,0.09661638257,1.7504916482088093,0.6167771599411982,-1.2753762627949432, ,0.015237145401167433,0.021815388864016273,0.014158943573333334,-0.007547751314980246,0.01611746849852764,-0.001786756064882277, ,1.0021300315856934
0.011797378877200025,0.020909891286905936,-0.08545054603060338, ,0.012090240099325283,0.020713035122614548,-0.08583752930632484, ,0.0005237137582041584, ,0.0038106194198365443,0.0009284329490372713,-0.01160917119189531,-0.020181588927505382,-0.013631010276298164,0.003657064314941818, ,0.012253802016779341, ,0.024353660134065848, ,6.509741658670593e-05, ,0.19728493400493932,-0.22760438326914476,0.0967810114,1.7504916482088093,0.617050432940729,-1.2758441348227576, ,0.017515123949514724,0.020156529642835763,0.011949596039009755,-0.00653153349570369,0.005591041164117106,-0.00010464143771705958, ,1.0180888175964355
0.011834879574923792,0.02091626950021513,-0.08556340528909653, ,0.0121334095799357,0.020722617090596536,-0.0859738785789527, ,0.0005432400402481742, ,0.0037188125092911316,0.0004111877142594583,-0.010792399237271924,-0.002674674984029746,-0.011297902263564757,-0.006434370367782455, ,0.011422544511284941, ,0.011610182402131285, ,6.553379525867917e-05, ,0.19747800232679494,-0.227372701282918,0.09689767750000002,1.7504916482088093,0.61732370594026,-1.2760669706301506, ,0.018581739095059873,0.023777735294029257,0.011046332538141471,-0.00588131394659302,0.009254532033082468,-0.022732762651980543, ,1.0275988578796387
0.011870789676633395,0.020920035567837267,-0.08566301122108552, ,0.012176600469978859,0.020732116628073054,-0.08610981779234948, ,0.0005731229199511611, ,0.0034839536159613277,0.00036395159263963555,-0.009816868274752817,0.020860812967833053,0.00856342008335631,-0.009851939405774422, ,0.010423113559959101, ,0.02255006851497887, ,6.602080705165093e-05, ,0.19767107064865055,-0.2271487420295655,0.09700008441,1.7504916482088093,0.6174603424400255,-1.2762600672739877, ,0.01996569357426273,0.022043424287681943,0.010171654865900383,-0.005376272934869798,0.031550293687995556,-0.043534165015968705, ,1.0378239154815674
0.011898178304313245,0.02092240999279754,-0.08574128041808662, ,0.012219812443566777,0.02074153399615798,-0.08624534739409791, ,0.000624698456856486, ,0.003483879146796176,0.0005593737894273944,-0.010320225844294978,0.014365110005603959,0.0022074639411900744,-0.014147611729035057, ,0.010906758199530858, ,0.014533725105926997, ,6.67306795489932e-05, ,0.19781780257326081,-0.22697884190633255,0.09708045439000001,1.7502819582653246,0.6175969789397908,-1.276534842657965, ,0.017864635082543445,0.02130122144971286,0.010654723424749164,0.0,0.02136730812842222,-0.0358912030210037, ,1.0479018688201904
0.011944353463665817,0.020928814358944947,-0.08588449350498413, ,0.012263045175847163,0.020750869455839555,-0.08638046783221422, ,0.0006158078671351985, ,0.004049686789694112,0.0010163315066864145,-0.012825337629609742,-0.005965999960520322,-0.017371501637942932,0.007084329389820926, ,0.013487852984800439, ,0.018367413472624536, ,6.741209585551513e-05, ,0.1980340390937391,-0.2267085462557347,0.09722693516000001,1.7496528884348712,0.6177336154395563,-1.2766462605616615, ,0.01733277471387594,0.021339541614227745,0.013175195632754346,-0.01949913994480525,0.0047625790356043566,-0.019991092629677982, ,1.0561108589172363
0.011989039498563347,0.020943412999772267,-0.08603396664266218, ,0.01230629834300242,0.020760123267980202,-0.08651517955514645, ,0.0006048257329982114, ,0.004494598284351719,0.0013947261949812902,-0.015147440217697945,-0.005102403006521865,-0.01323641288708016,0.006857432439401677, ,0.015861639891429812, ,0.014185779679717804, ,6.806166436244566e-05, ,0.19821166194984627,-0.22647686426950797,0.09738119367,1.7496528884348712,0.6178702519393217,-1.276757678465358, ,0.017402703385012062,0.02315124214649202,0.015585921252446186,-0.01949913994480525,0.009171728551151347,-0.022275432267265412, ,1.0642318725585938
0.012033098929800506,0.020959638612773713,-0.08619181634195165, ,0.012349571622249068,0.020769295693315957,-0.08664948301177355, ,0.0005880851747146952, ,0.004455313726908743,0.0017361585279525972,-0.016160968246986696,0.03986187892521996,0.03472313739487294,0.002287422142181723, ,0.016853514812034794, ,0.05286458700867725, ,6.866904612641665e-05, ,0.19838928480595344,-0.2262606277490297,0.09753415589000002,1.7496528884348712,0.618280161438618,-1.2770919321764471, ,0.018960427883810346,0.022708050145602003,0.016767170021052633,-0.01949913994480525,0.03935277231554964,-0.04600782744137518, ,1.0724279880523682
0.012033098929800506,0.020959638612773713,-0.08619181634195165, ,0.01239286469183644,0.020778386992456287,-0.08678337865140395, ,0.0007157021163623373, ,0.004455313726908743,0.0017361585279525972,-0.016160968246986696,0.03986187892521996,0.03472313739487294,0.002287422142181723, ,0.016853514812034794, ,0.05286458700867725, ,6.951069866812785e-05, ,0.19838928480595344,-0.2262606277490297,0.09753415589000002,1.7496528884348712,0.618280161438618,-1.2770919321764471, ,0.018960427883810346,0.022708050145602003,0.016767170021052633,-0.01949913994480525,0.03935277231554964,-0.04600782744137518, ,1.080169916152954
0.012075180103834439,0.020977022873251663,-0.08634292832647336, ,0.012436177231044477,0.02078739742588441,-0.08691686692377529, ,0.0007040470507118354, ,0.004859673266103106,0.0018301863723333566,-0.01732197609867083,0.031348517037418935,0.02763645616359374,0.0031597001152927832, ,0.01808360755971207, ,0.041791167370882745, ,7.031752491062657e-05, ,0.1985746303949348,-0.22602894576280294,0.09770396988,1.7496528884348712,0.6189633439374452,-1.2776490216949292, ,0.020316193868223247,0.02440764957779598,0.018059877006802724,-0.01949913994480525,0.05522722701984991,-0.0573161068477428, ,1.0888128280639648
0.012131701826729742,0.02099801670814727,-0.08653147529427056, ,0.012479508920183936,0.02079632725395621,-0.08704994827905252, ,0.0006560965219673502, ,0.005384527681333296,0.0018901462969934733,-0.017397928991342432,-0.012207881449158846,-0.021121304274594778,0.008881193750399932, ,0.018309935132678, ,0.02439549691518377, ,7.102208585484621e-05, ,0.19880631238116156,-0.2257663728450793,0.09789970967000002,1.7496528884348712,0.6192366169369762,-1.2778718575023222, ,0.021785340119024516,0.023344881072194533,0.01797834257336343,-0.01949913994480525,0.005422012633795101,-0.01518334894625697, ,1.096472978591919
0.01218495996475694,0.02101684819804092,-0.0867035467631107, ,0.01252285944059434,0.02080517673690062,-0.08718262316782685, ,0.0006232937227248542, ,0.005334719326905546,0.0017115382179247283,-0.017441944486989103,-0.018658744092701962,-0.019208960072453995,0.009913641101767413, ,0.018319662138136884, ,0.02677930663624999, ,7.16549317117594e-05, ,0.19901482616876562,-0.22552696812597836,0.09807730140000001,1.7496528884348712,0.6192366169369762,-1.2779535362424628, ,0.021106970987204356,0.02535995231386178,0.01797834257336343,-0.018361355924304813,0.006377103262936124,-0.009852320028138874, ,1.1045470237731934
0.01218495996475694,0.02101684819804092,-0.0867035467631107, ,0.012566228474643157,0.020813946134819093,-0.08731489204111512, ,0.0007485171827211591, ,0.0054973818151706514,0.0019359083315812003,-0.018339295339092235,-0.010124801266470808,-0.009211248042862922,0.0009387620681061849, ,0.01924314686906756, ,0.013687827318230948, ,7.251029737078556e-05, ,0.19923878542211812,-0.22526439520825473,0.09826915232000001,1.7494431984913867,0.6195098899365069,-1.2781763720498556, ,0.021450484077412024,0.025710360758187695,0.01896287085714286,-0.009730928453509221,0.015221040532152194,-0.01655864447726453, ,1.1126599311828613
0.012240089951231757,0.021035717502514185,-0.08688874001395248, ,0.012609615705724457,0.020822635707685392,-0.08744675535035866, ,0.0007023775695346176, ,0.0054973818151706514,0.0019359083315812003,-0.018339295339092235,-0.010124801266470808,-0.009211248042862922,0.0009387620681061849, ,0.01924314686906756, ,0.013687827318230948, ,7.326826865764488e-05, ,0.19923878542211812,-0.22526439520825473,0.09826915232000001,1.7494431984913867,0.6195098899365069,-1.2781763720498556, ,0.021450484077412024,0.025710360758187695,0.01896287085714286,-0.009730928453509221,0.015221040532152194,-0.01655864447726453, ,1.1201720237731934
0.012287976630387215,0.021051446435926678,-0.08705616574870259, ,0.01265302081825774,0.02083124571534548,-0.08757821354742167, ,0.0006740026117085615, ,0.004776259324027568,0.001541635698056433,-0.01658011577410542,0.04168691364410494,0.047660019871067556,-0.006191112429024796, ,0.017323092473303423, ,0.06331883614154576, ,7.396339555012295e-05, ,0.1994550219425964,-0.2250095450234053,0.09844415147,1.749233508547902,0.6201930724353342,-1.2787334615683377, ,0.02228150776202648,0.026192917901868833,0.017370568724100328,-0.008457036100294005,0.07563342523775002,-0.06543359044747617, ,1.128324031829834
0.012326824880639058,0.02106285399602707,-0.08718561476769468, ,0.012696443497687082,0.020839776417517063,-0.08770926708459029, ,0.0006786702270562032, ,0.005076969193673826,0.0016384877005067046,-0.01651291554505469,0.016174579916003528,0.01741799320505078,-0.0027663524402318394, ,0.017353288965966468, ,0.023769776923129596, ,7.465690396471664e-05, ,0.19963264479870357,-0.22480875396867547,0.09857896563000001,1.7490238186044176,0.6206029819346306,-1.279067715279427, ,0.02315124214649202,0.02459744467560155,0.01722033677837838,-0.008412303946850379,0.04469736489347971,-0.039940359117706235, ,1.1366629600524902
0.012326824880639058,0.02106285399602707,-0.08718561476769468, ,0.012739883430479215,0.020848228073789568,-0.08783991641457209, ,0.0008029895996828605, ,0.005076969193673826,0.0016384877005067046,-0.01651291554505469,0.016174579916003528,0.01741799320505078,-0.0027663524402318394, ,0.017353288965966468, ,0.023769776923129596, ,7.570018124001162e-05, ,0.19963264479870357,-0.22480875396867547,0.09857896563000001,1.7490238186044176,0.6206029819346306,-1.279067715279427, ,0.02315124214649202,0.02459744467560155,0.01722033677837838,-0.008412303946850379,0.04469736489347971,-0.039940359117706235, ,1.142416000366211
0.012398736313061995,0.021077664940816792,-0.08740633183343052, ,0.012783340304123477,0.020856600943623637,-0.08797016199049403, ,0.0007174217496073627, ,0.005205672202089307,0.0008819398338995648,-0.01583889422165391,-0.015603795690313043,-0.010928483287360777,-0.0012273584463677336, ,0.016695730325773886, ,0.019050175591574695, ,7.657889307851938e-05, ,0.1999492768465468,-0.22441489459209002,0.09880581638000001,1.7488141286609333,0.620739618434396,-1.2791791331831233, ,0.023535947807160416,0.030631679005316582,0.016270491848825334,-0.008056118905473088,0.0151854266573385,-0.015495932444858897, ,1.1479699611663818
0.012398736313061995,0.021077664940816792,-0.08740633183343052, ,0.012826813807129111,0.020864895286351364,-0.08810000426590216, ,0.0008424385499009606, ,0.005205672202089307,0.0008819398338995648,-0.01583889422165391,-0.015603795690313043,-0.010928483287360777,-0.0012273584463677336, ,0.016695730325773886, ,0.019050175591574695, ,7.76710532757839e-05, ,0.1999492768465468,-0.22441489459209002,0.09880581638000001,1.7488141286609333,0.620739618434396,-1.2791791331831233, ,0.023535947807160416,0.030631679005316582,0.016270491848825334,-0.008056118905473088,0.0151854266573385,-0.015495932444858897, ,1.1535048484802246
0.012449688369860198,0.021088328092113723,-0.08755977655136707, ,0.012870303629025663,0.020873111361175496,-0.08822944369476059, ,0.0008195666662690734, ,0.005772106925266824,0.001212937984184016,-0.01709225674757743,-0.028357391638612547,-0.027484528490952148,0.0004903617506355439, ,0.01808130740945731, ,0.039491005407703894, ,7.871104176238271e-05, ,0.2001809588327735,-0.22413687620861794,0.09896396376000001,1.7488141286609333,0.6208762549341614,-1.2792905510868198, ,0.025661693228358783,0.030011682972318397,0.01756208546857773,-0.008056118905473088,0.0,-0.0028957536118823833, ,1.1591088771820068
0.012509712251663672,0.02110307399648105,-0.0877578901923314, ,0.012913809460360928,0.020881249427169356,-0.0883584807314492, ,0.0007571061281650218, ,0.00572504018783183,0.001688048633574454,-0.020006389277463427,0.04470218086973664,0.05732595652406737,0.004652260303298422, ,0.020877768205989012, ,0.07269489019728431, ,7.962986540061528e-05, ,0.2004589772162456,-0.22379707596215206,0.09917007387000001,1.7486044387174484,0.6215594374329886,-1.2800109980855832, ,0.02625088286541377,0.032299843961358335,0.020931421182654404,-0.021321327638456657,0.09288426701893499,-0.07574089160212782, ,1.1649219989776611
0.012509712251663672,0.02110307399648105,-0.0877578901923314, ,0.012957330992699781,0.020889309743276824,-0.08848711583076378, ,0.0008819454206592488, ,0.00572504018783183,0.001688048633574454,-0.020006389277463427,0.04470218086973664,0.05732595652406737,0.004652260303298422, ,0.020877768205989012, ,0.07269489019728431, ,8.075803351369844e-05, ,0.2004589772162456,-0.22379707596215206,0.09917007387000001,1.7486044387174484,0.6215594374329886,-1.2800109980855832, ,0.02625088286541377,0.032299843961358335,0.020931421182654404,-0.021321327638456657,0.09288426701893499,-0.07574089160212782, ,1.172057867050171
0.012509712251663672,0.02110307399648105,-0.0877578901923314, ,0.013000867918623359,0.020897292568311885,-0.08861534944791435, ,0.0010093642852562303, ,0.00572504018783183,0.001688048633574454,-0.020006389277463427,0.04470218086973664,0.05732595652406737,0.004652260303298422, ,0.020877768205989012, ,0.07269489019728431, ,8.209675983955382e-05, ,0.2004589772162456,-0.22379707596215206,0.09917007387000001,1.7486044387174484,0.6215594374329886,-1.2800109980855832, ,0.02625088286541377,0.032299843961358335,0.020931421182654404,-0.021321327638456657,0.09288426701893499,-0.07574089160212782, ,1.1779749393463135
0.012524496498322405,0.021107662560413826,-0.0878097351961025, ,0.01304441993172735,0.020905198160958538,-0.08874318203852473, ,0.001087490329740184, ,0.005870279461050672,0.001820925396555528,-0.0205317295136246,0.051090863139704575,0.06330709076982109,0.0039044066693142325, ,0.02143193568185799, ,0.08135146212261021, ,8.355717659341063e-05, ,0.2005284818121136,-0.2237121259005356,0.09922451805000002,1.7486044387174484,0.6218327104325195,-1.280233833892976, ,0.02724574836591179,0.03225592846990849,0.021525420972972976,-0.021321327638456657,0.1002156754692607,-0.08171916360177493, ,1.184196949005127
0.012692619472419476,0.02116856487599874,-0.08836619350576089, ,0.01308798672662133,0.02091302677977044,-0.08887061405863039, ,0.0006899674474033359, ,0.007739336628534765,0.002562154266648527,-0.02533073541440461,-0.01902452028541585,-0.014716015808511246,0.0048858532216099065, ,0.02661030106125177, ,0.024051674878369404, ,8.431589147704294e-05, ,0.2011849141064227,-0.22296302081173583,0.09979358936,1.7486044387174484,0.622652529431112,-1.2809840200552949, ,0.03000219461222598,0.035290792695600884,0.02628516752475248,-0.015440528674321233,0.020062534344526567,-0.01808465847520404, ,1.1901679039001465
0.012692619472419476,0.02116856487599874,-0.08836619350576089, ,0.01313156799892765,0.02092077868317043,-0.08899764596467796, ,0.0008079641168718235, ,0.007739336628534765,0.002562154266648527,-0.02533073541440461,-0.01902452028541585,-0.014716015808511246,0.0048858532216099065, ,0.02661030106125177, ,0.024051674878369404, ,8.526952797608193e-05, ,0.2011849141064227,-0.22296302081173583,0.09979358936,1.7486044387174484,0.622652529431112,-1.2809840200552949, ,0.03000219461222598,0.035290792695600884,0.02628516752475248,-0.015440528674321233,0.020062534344526567,-0.01808465847520404, ,1.1956939697265625
0.012770642169348406,0.021189088219597342,-0.08861406135533535, ,0.013175163445279685,0.02092845412945091,-0.0891242782135244, ,0.0007013478694683721, ,0.007562973462833108,0.0019257306037004525,-0.02312882340259043,-0.03701082210479564,-0.034387139955948054,0.005482355017941823, ,0.02441002822500951, ,0.05051999335509584, ,8.603113359238984e-05, ,0.20151699162001435,-0.2225768841680246,0.10005803252,1.7481850588304795,0.6227891659308775,-1.2810954379589914, ,0.03125722712729604,0.03645675818612016,0.02380988269058296,-0.014097932983056208,0.0,-0.0016163095265117509, ,1.201982021331787
0.012770642169348406,0.021189088219597342,-0.08861406135533535, ,0.01321877276332119,0.02093605337677289,-0.08925051126243493, ,0.0008184840531034497, ,0.007562973462833108,0.0019257306037004525,-0.02312882340259043,-0.03701082210479564,-0.034387139955948054,0.005482355017941823, ,0.02441002822500951, ,0.05051999335509584, ,8.713236321064992e-05, ,0.20151699162001435,-0.2225768841680246,0.10005803252,1.7481850588304795,0.6227891659308775,-1.2810954379589914, ,0.03125722712729604,0.03645675818612016,0.02380988269058296,-0.014097932983056208,0.0,-0.0016163095265117509, ,1.2058210372924805
0.012770642169348406,0.021189088219597342,-0.08861406135533535, ,0.01326239565170453,0.020943576683166487,-0.08937634556908344, ,0.0009397737091766077, ,0.007562973462833108,0.0019257306037004525,-0.02312882340259043,-0.03701082210479564,-0.034387139955948054,0.005482355017941823, ,0.02441002822500951, ,0.05051999335509584, ,8.843203890293397e-05, ,0.201849069133606,-0.22219847025718759,0.10029006843,1.7475559890000258,0.6233357119299393,-1.2816227883139177, ,0.03450797874853483,0.03849774505414636,0.02318604296943232,-0.07909844034019062,0.05593744522884692,-0.04709698286084313, ,1.2096469402313232
0.012842125117772992,0.021203247946439692,-0.0888380987798041, ,0.01330603181009031,0.020951024306529956,-0.08950178159154981, ,0.0008481161820840373, ,0.0072494102621296665,0.0012618953042747671,-0.022399416256008522,-0.0034277244362638636,0.001272457446194215,0.06155309560816717, ,0.02357711130561928, ,0.0036555169271577674, ,8.956782926550279e-05, ,0.201849069133606,-0.22219847025718759,0.10029006843,1.7475559890000258,0.6233357119299393,-1.2816227883139177, ,0.03450797874853483,0.03849774505414636,0.02318604296943232,-0.07909844034019062,0.05593744522884692,-0.04709698286084313, ,1.2134850025177002
0.012842125117772992,0.021203247946439692,-0.0888380987798041, ,0.013349680939145694,0.02095839650462981,-0.0896268197883196, ,0.0009693533770712328, ,0.0072494102621296665,0.0012618953042747671,-0.022399416256008522,-0.0034277244362638636,0.001272457446194215,0.06155309560816717, ,0.02357711130561928, ,0.0036555169271577674, ,9.090040551936489e-05, ,0.201849069133606,-0.22219847025718759,0.10029006843,1.7475559890000258,0.6233357119299393,-1.2816227883139177, ,0.03450797874853483,0.03849774505414636,0.02318604296943232,-0.07909844034019062,0.05593744522884692,-0.04709698286084313, ,1.217500925064087
0.012852626763934331,0.021205842692897874,-0.08887020202922799, ,0.013393342740543226,0.020965693535100673,-0.08975146061828328, ,0.0010614433975179884, ,0.007098258576484184,0.0013181553953891144,-0.02241084758763311,0.02488743546797354,0.03266667267277264,0.05877445011882767, ,0.023545039776164012, ,0.0410669002302449, ,9.23787964210107e-05, ,0.20190312826372558,-0.222144411127068,0.10032377197,1.7475559890000258,0.6234723484297048,-1.2818158849577548, ,0.035568568800026526,0.03829577948283728,0.02335602862170088,-0.07909844034019062,0.09002150572236955,-0.0733659896421133, ,1.2249619960784912
0.012852626763934331,0.021205842692897874,-0.08887020202922799, ,0.013437016916959752,0.020972915655444825,-0.08987570454073436, ,0.0011860869092842005, ,0.007098258576484184,0.0013181553953891144,-0.02241084758763311,0.02488743546797354,0.03266667267277264,0.05877445011882767, ,0.023545039776164012, ,0.0410669002302449, ,9.405606495776476e-05, ,0.20190312826372558,-0.222144411127068,0.10032377197,1.7475559890000258,0.6234723484297048,-1.2818158849577548, ,0.035568568800026526,0.03829577948283728,0.02335602862170088,-0.07909844034019062,0.09002150572236955,-0.0733659896421133, ,1.2290370464324951
0.013015409609347647,0.02124985389494308,-0.0893785403488164, ,0.013480703172075245,0.020980063123032064,-0.08999955201536883, ,0.0008215477162759983, ,0.008994824812348366,0.0027874569394889673,-0.02749950892665044,0.021791764582941194,0.023541060654557536,-0.03113792792898798, ,0.029067159833758616, ,0.0320787595481399, ,9.51135534157956e-05, ,0.20272173794839338,-0.2213489696410229,0.10085784345000001,1.7471366091130571,0.6256585324259518,-1.2837619288971787, ,0.041331420539403654,0.04007472194192178,0.02875236736462094,0.01610248995054639,0.0644423903455391,-0.05494412484104475, ,1.2337288856506348
0.013015409609347647,0.02124985389494308,-0.0893785403488164, ,0.013524401210571649,0.020987136195099364,-0.09012300350228358, ,0.000939318064767228, ,0.008994824812348366,0.0027874569394889673,-0.02749950892665044,0.021791764582941194,0.023541060654557536,-0.03113792792898798, ,0.029067159833758616, ,0.0320787595481399, ,9.635996099971512e-05, ,0.20272173794839338,-0.2213489696410229,0.10085784345000001,1.7471366091130571,0.6256585324259518,-1.2837619288971787, ,0.041331420539403654,0.04007472194192178,0.02875236736462094,0.01610248995054639,0.0644423903455391,-0.05494412484104475, ,1.2374968528747559
0.013102898817798133,0.021272474817691362,-0.08963711708463808, ,0.01356811073813166,0.020994135128750837,-0.09024605946197617, ,0.0008152949970275076, ,0.008994824812348366,0.0027874569394889673,-0.02749950892665044,0.021791764582941194,0.023541060654557536,-0.03113792792898798, ,0.029067159833758616, ,0.0320787595481399, ,9.739242381070697e-05, ,0.20311559732497883,-0.22094738753156323,0.10112617548000001,1.7471366091130571,0.6259318054254827,-1.2839847647045715, ,0.040210568456979144,0.04319387417317742,0.02585846025974026,0.01230074378741288,-0.0020195086401764237,-0.0007489026757833005, ,1.241713047027588
0.013102898817798133,0.021272474817691362,-0.08963711708463808, ,0.0136118314614374,0.021001060180957317,-0.0903687203553427, ,0.0009316231461813453, ,0.0089042204350566,0.0018235332949818371,-0.025075944081377605,-0.03946765581117777,-0.039462351940965264,-0.021288115127341155, ,0.026672333733784213, ,0.05581185502279064, ,9.861033835378122e-05, ,0.20311559732497883,-0.22094738753156323,0.10112617548000001,1.7471366091130571,0.6259318054254827,-1.2839847647045715, ,0.040210568456979144,0.04319387417317742,0.02585846025974026,0.01230074378741288,-0.0020195086401764237,-0.0007489026757833005, ,1.245896816253662
0.013102898817798133,0.021272474817691362,-0.08963711708463808, ,0.013655563088169545,0.0210079116085562,-0.09049098664367737, ,0.0010509637059513616, ,0.0089042204350566,0.0018235332949818371,-0.025075944081377605,-0.03946765581117777,-0.039462351940965264,-0.021288115127341155, ,0.026672333733784213, ,0.05581185502279064, ,0.00010001683428334267, ,0.20311559732497883,-0.22094738753156323,0.10112617548000001,1.7471366091130571,0.6259318054254827,-1.2839847647045715, ,0.040210568456979144,0.04319387417317742,0.02585846025974026,0.01230074378741288,-0.0020195086401764237,-0.0007489026757833005, ,1.2496578693389893
0.01318877289792868,0.021289876380202178,-0.08988642365575553, ,0.013699305327006212,0.021014689668250982,-0.09061285878867104, ,0.0009295585457131193, ,0.009319097494952282,0.0019520679582516352,-0.027940707629786267,-0.054487024785371756,-0.04267785153666063,-0.007471151508360232, ,0.029518456773470647, ,0.0692113997317704, ,0.00010121474048555357, ,0.2034862885029416,-0.22050719175773242,0.1013828409,1.7473462990565414,0.6259318054254827,-1.284066443444712, ,0.03797396620987226,0.047686905305764214,0.0287005612972973,0.0,-0.004985231721868344,0.007909230846642365, ,1.2538478374481201
0.01318877289792868,0.021289876380202178,-0.08988642365575553, ,0.0137430578876213,0.021021394616611275,-0.09073433725241038, ,0.0010479846251599324, ,0.009319097494952282,0.0019520679582516352,-0.027940707629786267,-0.054487024785371756,-0.04267785153666063,-0.007471151508360232, ,0.029518456773470647, ,0.0692113997317704, ,0.00010259862779191825, ,0.2034862885029416,-0.22050719175773242,0.1013828409,1.7473462990565414,0.6259318054254827,-1.284066443444712, ,0.03797396620987226,0.047686905305764214,0.0287005612972973,0.0,-0.004985231721868344,0.007909230846642365, ,1.2575769424438477
0.01328946580760056,0.02131158773000174,-0.09018756567258883, ,0.013786820480683587,0.021028026710072742,-0.09085542249737685, ,0.0008796597417619152, ,0.010157621681108082,0.0023547337796082975,-0.030104980713999096,-0.040207264287437317,-0.04001502324349009,-0.006905702234611237, ,0.03185956548949786, ,0.056725668427078976, ,0.00010369889285909293, ,0.20390331607814974,-0.22001293685378207,0.10169265421000001,1.7471366091130571,0.6259318054254827,-1.2839847647045715, ,0.04270789449076092,0.048269044536353396,0.031050314853801175,-0.005721881845796965,0.004198614424522628,-0.008472525323968345, ,1.2621500492095947
0.01328946580760056,0.02131158773000174,-0.09018756567258883, ,0.013830592817855807,0.02103458620493619,-0.0909761149864449, ,0.0009956697778376593, ,0.010157621681108082,0.0023547337796082975,-0.030104980713999096,-0.040207264287437317,-0.04001502324349009,-0.006905702234611237, ,0.03185956548949786, ,0.056725668427078976, ,0.00010498063593570996, ,0.20390331607814974,-0.22001293685378207,0.10169265421000001,1.7471366091130571,0.6259318054254827,-1.2839847647045715, ,0.04270789449076092,0.048269044536353396,0.031050314853801175,-0.005721881845796965,0.004198614424522628,-0.008472525323968345, ,1.267961025238037
0.013390168937036796,0.021331221286633024,-0.09049232547608285, ,0.013874374611792764,0.021041073357368142,-0.09109641518288229, ,0.0008267800978395734, ,0.009123635720301709,0.0015307029791002055,-0.027078820506713223,0.05866125766078349,0.05874903329063759,0.02488262804636477, ,0.028615490567204752, ,0.08302154842782454, ,0.00010598034229870534, ,0.20438984824922588,-0.21950323648408324,0.10201024526000001,1.7465075392826033,0.6268882609238408,-1.2849280475107274, ,0.048097790957157015,0.04802476799517752,0.028393603422459897,-0.05416490944528454,0.1246673031669388,-0.11126632243150907, ,1.2723748683929443
0.013390168937036796,0.021331221286633024,-0.09049232547608285, ,0.013918165576141301,0.02104748842339979,-0.09121632355034713, ,0.0009399244651154504, ,0.009123635720301709,0.0015307029791002055,-0.027078820506713223,0.05866125766078349,0.05874903329063759,0.02488262804636477, ,0.028615490567204752, ,0.08302154842782454, ,0.000107156374254308, ,0.20438984824922588,-0.21950323648408324,0.10201024526000001,1.7465075392826033,0.6268882609238408,-1.2849280475107274, ,0.048097790957157015,0.04802476799517752,0.028393603422459897,-0.05416490944528454,0.1246673031669388,-0.11126632243150907, ,1.2762408256530762
0.013390168937036796,0.021331221286633024,-0.09049232547608285, ,0.01396196542553777,0.02105383165892753,-0.09133584055288839, ,0.0010561315801636121, ,0.009123635720301709,0.0015307029791002055,-0.027078820506713223,0.05866125766078349,0.05874903329063759,0.02488262804636477, ,0.028615490567204752, ,0.08302154842782454, ,0.00010868697942512946, ,0.20438984824922588,-0.21950323648408324,0.10201024526000001,1.7465075392826033,0.6268882609238408,-1.2849280475107274, ,0.048097790957157015,0.04802476799517752,0.028393603422459897,-0.05416490944528454,0.1246673031669388,-0.11126632243150907, ,1.2781729698181152
0.013390168937036796,0.021331221286633024,-0.09049232547608285, ,0.014005773875608217,0.021060103319711948,-0.09145496665494376, ,0.0011743732079793321, ,0.009123635720301709,0.0015307029791002055,-0.027078820506713223,0.05866125766078349,0.05874903329063759,0.02488262804636477, ,0.028615490567204752, ,0.08302154842782454, ,0.00011040306030846957, ,0.20438984824922588,-0.21950323648408324,0.10201024526000001,1.7465075392826033,0.6268882609238408,-1.2849280475107274, ,0.048097790957157015,0.04802476799517752,0.028393603422459897,-0.05416490944528454,0.1246673031669388,-0.11126632243150907, ,1.280146837234497
0.013479841378916259,0.021346655759695157,-0.0907405342422252, ,0.01404959064296574,0.021066303661378384,-0.09157370232133939, ,0.0010475593400711882, ,0.009879273014158788,0.0013321585057676222,-0.026774523377866254,0.025301809838745404,0.016962380037725364,0.03862018478270889, ,0.028570085468627524, ,0.03046128949941719, ,0.00011190974243027457, ,0.204876380420302,-0.21906304071025245,0.10227079955000001,1.7462978493391188,0.6278447164221989,-1.2857079728366023, ,0.053857515072911914,0.048342812816337635,0.027994396344463976,-0.0647019414374296,0.08919311955651804,-0.0820707803381257, ,1.2820680141448975
0.013479841378916259,0.021346655759695157,-0.0907405342422252, ,0.014093415445210708,0.02107243293941599,-0.09169204801728803, ,0.0011649247847501964, ,0.009879273014158788,0.0013321585057676222,-0.026774523377866254,0.025301809838745404,0.016962380037725364,0.03862018478270889, ,0.028570085468627524, ,0.03046128949941719, ,0.00011359997524298712, ,0.204876380420302,-0.21906304071025245,0.10227079955000001,1.7462978493391188,0.6278447164221989,-1.2857079728366023, ,0.053857515072911914,0.048342812816337635,0.027994396344463976,-0.0647019414374296,0.08919311955651804,-0.0820707803381257, ,1.2841029167175293
0.013479841378916259,0.021346655759695157,-0.0907405342422252, ,0.014137248000928838,0.021078491409177853,-0.09181000420838832, ,0.0012836906146261701, ,0.009879273014158788,0.0013321585057676222,-0.026774523377866254,0.025301809838745404,0.016962380037725364,0.03862018478270889, ,0.028570085468627524, ,0.03046128949941719, ,0.00011547512049840889, ,0.204876380420302,-0.21906304071025245,0.10227079955000001,1.7462978493391188,0.6278447164221989,-1.2857079728366023, ,0.053857515072911914,0.048342812816337635,0.027994396344463976,-0.0647019414374296,0.08919311955651804,-0.0820707803381257, ,1.2862858772277832
0.013479841378916259,0.021346655759695157,-0.0907405342422252, ,0.014181088029690096,0.021084479325880683,-0.0919275713606236, ,0.0014034031737618327, ,0.009879273014158788,0.0013321585057676222,-0.026774523377866254,0.025301809838745404,0.016962380037725364,0.03862018478270889, ,0.028570085468627524, ,0.03046128949941719, ,0.0006443848979365701, ,0.204876380420302,-0.21906304071025245,0.10227079955000001,1.7462978493391188,0.6278447164221989,-1.2857079728366023, ,0.053857515072911914,0.048342812816337635,0.027994396344463976,-0.0647019414374296,0.08919311955651804,-0.0820707803381257, ,1.2882609367370605
0.013479841378916259,0.021346655759695157,-0.0907405342422252, ,0.01422493525204756,0.02109039694460455,-0.09204474994036091, ,0.00152374933875394, ,0.009879273014158788,0.0013321585057676222,-0.026774523377866254,0.025301809838745404,0.016962380037725364,0.03862018478270889, ,0.028570085468627524, ,0.03046128949941719, ,0.0006520315452480255, ,0.204876380420302,-0.21906304071025245,0.10227079955000001,1.7462978493391188,0.6278447164221989,-1.2857079728366023, ,0.053857515072911914,0.048342812816337635,0.027994396344463976,-0.0647019414374296,0.08919311955651804,-0.0820707803381257, ,1.2902238368988037
0.01359960311101174,0.021367138561720202,-0.09106903741706163, ,0.014268789389536357,0.02109624452029273,-0.0921615404143499, ,0.0013094871729537483, ,0.012747144410784951,0.002290557625510215,-0.03566616340316014,-0.020776512745805442,-0.018053984119272556,0.0224483966297208, ,0.03794484888316342, ,0.027523664551605435, ,0.0006576992661765231, ,0.20547875358449152,-0.21847611301181138,0.10261302011000001,1.7462978493391188,0.6285278989210261,-1.2863467410952252, ,0.061342560800562884,0.06013747880764941,0.037043747720930234,-0.04188652146905526,0.05495372688346934,-0.0436718864416499, ,1.292130947113037
0.01359960311101174,0.021367138561720202,-0.09106903741706163, ,0.014312650164672425,0.02110202230775122,-0.09227794324972147, ,0.0014283473110877872, ,0.012747144410784951,0.002290557625510215,-0.03566616340316014,-0.020776512745805442,-0.018053984119272556,0.0224483966297208, ,0.03794484888316342, ,0.027523664551605435, ,0.0006642860016031151, ,0.20547875358449152,-0.21847611301181138,0.10261302011000001,1.7462978493391188,0.6285278989210261,-1.2863467410952252, ,0.061342560800562884,0.06013747880764941,0.037043747720930234,-0.04188652146905526,0.05495372688346934,-0.0436718864416499, ,1.2940559387207031
0.01359960311101174,0.021367138561720202,-0.09106903741706163, ,0.014356517300951437,0.021107730561648694,-0.09239395891398704, ,0.0015477818239171296, ,0.012747144410784951,0.002290557625510215,-0.03566616340316014,-0.020776512745805442,-0.018053984119272556,0.0224483966297208, ,0.03794484888316342, ,0.027523664551605435, ,0.0006717732543345898, ,0.20547875358449152,-0.21847611301181138,0.10261302011000001,1.7462978493391188,0.6285278989210261,-1.2863467410952252, ,0.061342560800562884,0.06013747880764941,0.037043747720930234,-0.04188652146905526,0.05495372688346934,-0.0436718864416499, ,1.2959778308868408
0.01359960311101174,0.021367138561720202,-0.09106903741706163, ,0.014400390522846855,0.021113369536516564,-0.09250958787503727, ,0.0016675865252154746, ,0.012747144410784951,0.002290557625510215,-0.03566616340316014,-0.020776512745805442,-0.018053984119272556,0.0224483966297208, ,0.03794484888316342, ,0.027523664551605435, ,0.0006801414330814881, ,0.20547875358449152,-0.21847611301181138,0.10261302011000001,1.7462978493391188,0.6285278989210261,-1.2863467410952252, ,0.061342560800562884,0.06013747880764941,0.037043747720930234,-0.04188652146905526,0.05495372688346934,-0.0436718864416499, ,1.297860860824585
0.01359960311101174,0.021367138561720202,-0.09106903741706163, ,0.01444426955581041,0.021118939486747843,-0.09262483060114061, ,0.0017876119868172166, ,0.012747144410784951,0.002290557625510215,-0.03566616340316014,-0.020776512745805442,-0.018053984119272556,0.0224483966297208, ,0.03794484888316342, ,0.027523664551605435, ,0.0006893703543626191, ,0.20547875358449152,-0.21847611301181138,0.10261302011000001,1.7462978493391188,0.6285278989210261,-1.2863467410952252, ,0.061342560800562884,0.06013747880764941,0.037043747720930234,-0.04188652146905526,0.05495372688346934,-0.0436718864416499, ,1.2997238636016846
0.01359960311101174,0.021367138561720202,-0.09106903741706163, ,0.014488154126269245,0.021124440666597865,-0.09273968756094293, ,0.0019077465969731364, ,0.015156810496841897,0.004999865348212166,-0.047119515999674136,0.03488388174863025,0.028543358359158565,0.0027241303837368274, ,0.04974913412292697, ,0.04507079138862649, ,0.0006994395795081606, ,0.20547875358449152,-0.21847611301181138,0.10261302011000001,1.7462978493391188,0.6285278989210261,-1.2863467410952252, ,0.061342560800562884,0.06013747880764941,0.037043747720930234,-0.04188652146905526,0.05495372688346934,-0.0436718864416499, ,1.301750898361206
0.013735197073857305,0.02140588569464908,-0.09147607083272098, ,0.014532043961625813,0.0211298733301834,-0.09285415922346589, ,0.0016156346742349228, ,0.015156810496841897,0.004999865348212166,-0.047119515999674136,0.03488388174863025,0.028543358359158565,0.0027241303837368274, ,0.04974913412292697, ,0.04507079138862649, ,0.0007069493753665767, ,0.20608112674868104,-0.21789690804624454,0.10303820323000001,1.7462978493391188,0.6293477179196186,-1.286933569777263, ,0.06482031527217949,0.05964609777402312,0.04931520594427245,-0.0316263111694659,0.10527741510230414,-0.09543720132910195, ,1.3040459156036377
0.013735197073857305,0.02140588569464908,-0.09147607083272098, ,0.014575938790255918,0.021135237731482976,-0.0929682460581061, ,0.0017339791973700134, ,0.015156810496841897,0.004999865348212166,-0.047119515999674136,0.03488388174863025,0.028543358359158565,0.0027241303837368274, ,0.04974913412292697, ,0.04507079138862649, ,0.0007152992113178242, ,0.20608112674868104,-0.21789690804624454,0.10303820323000001,1.7462978493391188,0.6293477179196186,-1.286933569777263, ,0.06482031527217949,0.05964609777402312,0.04931520594427245,-0.0316263111694659,0.10527741510230414,-0.09543720132910195, ,1.306095838546753
0.013735197073857305,0.02140588569464908,-0.09147607083272098, ,0.014619838341508274,0.021140534124335905,-0.09308194853463386, ,0.0018525239058645847, ,0.015156810496841897,0.004999865348212166,-0.047119515999674136,0.03488388174863025,0.028543358359158565,0.0027241303837368274, ,0.04974913412292697, ,0.04507079138862649, ,0.0007244703782093303, ,0.20608112674868104,-0.21789690804624454,0.10303820323000001,1.7462978493391188,0.6293477179196186,-1.286933569777263, ,0.06482031527217949,0.05964609777402312,0.04931520594427245,-0.0316263111694659,0.10527741510230414,-0.09543720132910195, ,1.3115780353546143
0.013900989867273304,0.021464975346205804,-0.09201661433654258, ,0.01466374234570305,0.021145762762442618,-0.0931952671231919, ,0.001439760538582611, ,0.016940453523702152,0.0065715701876482785,-0.05643118037170676,0.0809886967786026,0.08459305707242483,-0.015499509242169997, ,0.05928442138086533, ,0.11710927396132209, ,0.0007301926994923166, ,0.2067607272416128,-0.2172481984848097,0.10360468196000001,1.7456687795086654,0.6308507194170385,-1.2881591667179237, ,0.06668794206498298,0.06567262391589673,0.05921491271375466,-0.020401637494495892,0.1633857142152106,-0.1425129540354184, ,1.313640832901001
0.013900989867273304,0.021464975346205804,-0.09201661433654258, ,0.014707650534130425,0.02115092389936438,-0.09330820229429493, ,0.0015548405691029686, ,0.016940453523702152,0.0065715701876482785,-0.05643118037170676,0.0809886967786026,0.08459305707242483,-0.015499509242169997, ,0.05928442138086533, ,0.11710927396132209, ,0.000736737523854306, ,0.2067607272416128,-0.2172481984848097,0.10360468196000001,1.7456687795086654,0.6308507194170385,-1.2881591667179237, ,0.06668794206498298,0.06567262391589673,0.05921491271375466,-0.020401637494495892,0.1633857142152106,-0.1425129540354184, ,1.3158290386199951
0.013900989867273304,0.021464975346205804,-0.09201661433654258, ,0.014751562639049452,0.021156017788522878,-0.09342075451882792, ,0.0016704904860682858, ,0.016940453523702152,0.0065715701876482785,-0.05643118037170676,0.0809886967786026,0.08459305707242483,-0.015499509242169997, ,0.05928442138086533, ,0.11710927396132209, ,0.0007440899093835498, ,0.2067607272416128,-0.2172481984848097,0.10360468196000001,1.7456687795086654,0.6308507194170385,-1.2881591667179237, ,0.06668794206498298,0.06567262391589673,0.05921491271375466,-0.020401637494495892,0.1633857142152106,-0.1425129540354184, ,1.318058967590332
0.013900989867273304,0.021464975346205804,-0.09201661433654258, ,0.014795478393687896,0.021161044683199716,-0.0935329242680451, ,0.001786527184281238, ,0.016940453523702152,0.0065715701876482785,-0.05643118037170676,0.0809886967786026,0.08459305707242483,-0.015499509242169997, ,0.05928442138086533, ,0.11710927396132209, ,0.000752233950593688, ,0.2067607272416128,-0.2172481984848097,0.10360468196000001,1.7456687795086654,0.6308507194170385,-1.2881591667179237, ,0.06668794206498298,0.06567262391589673,0.05921491271375466,-0.020401637494495892,0.1633857142152106,-0.1425129540354184, ,1.3200218677520752
0.014061420502603856,0.021527881138746797,-0.09255432247065203, ,0.014839397532239222,0.0211660048365369,-0.09364471201356886, ,0.001387498494429366, ,0.016940453523702152,0.0065715701876482785,-0.05643118037170676,0.0809886967786026,0.08459305707242483,-0.015499509242169997, ,0.05928442138086533, ,0.11710927396132209, ,0.0007571584819412514, ,0.2073631004058023,-0.21666899351924285,0.10416727182,1.744830019734727,0.6320804479149275,-1.2891619278511914, ,0.0614219686462594,0.056519917545247635,0.058561807058823544,-0.11211244161484579,0.1125339680148281,-0.1001048279797164, ,1.322995901107788
0.014061420502603856,0.021527881138746797,-0.09255432247065203, ,0.01488331978986332,0.021170898501535813,-0.09375611822738925, ,0.001499089084270615, ,0.016710245606752546,0.006736837685569024,-0.05599985245618483,0.026663137127165986,0.021775433139738246,0.07974860617834505, ,0.05882687111647334, ,0.03441717079256116, ,0.0007628656404207079, ,0.2073631004058023,-0.21666899351924285,0.10416727182,1.744830019734727,0.6320804479149275,-1.2891619278511914, ,0.0614219686462594,0.056519917545247635,0.058561807058823544,-0.11211244161484579,0.1125339680148281,-0.1001048279797164, ,1.3250539302825928
0.014061420502603856,0.021527881138746797,-0.09255432247065203, ,0.014927244902683774,0.021175725931057612,-0.09386714338186158, ,0.001611571880800065, ,0.016710245606752546,0.006736837685569024,-0.05599985245618483,0.026663137127165986,0.021775433139738246,0.07974860617834505, ,0.05882687111647334, ,0.03441717079256116, ,0.0007693443140113901, ,0.2073631004058023,-0.21666899351924285,0.10416727182,1.744830019734727,0.6320804479149275,-1.2891619278511914, ,0.0614219686462594,0.056519917545247635,0.058561807058823544,-0.11211244161484579,0.1125339680148281,-0.1001048279797164, ,1.3269288539886475
0.014061420502603856,0.021527881138746797,-0.09255432247065203, ,0.014971172607787787,0.021180487377822514,-0.0939777879497071, ,0.0017246986078956513, ,0.016710245606752546,0.006736837685569024,-0.05599985245618483,0.026663137127165986,0.021775433139738246,0.07974860617834505, ,0.05882687111647334, ,0.03441717079256116, ,0.0007765818465408163, ,0.2073631004058023,-0.21666899351924285,0.10416727182,1.744830019734727,0.6320804479149275,-1.2891619278511914, ,0.0614219686462594,0.056519917545247635,0.058561807058823544,-0.11211244161484579,0.1125339680148281,-0.1001048279797164, ,1.3288798332214355
0.014061420502603856,0.021527881138746797,-0.09255432247065203, ,0.015015102643224759,0.021185183094409758,-0.09408805240401001, ,0.0018382815571641876, ,0.016710245606752546,0.006736837685569024,-0.05599985245618483,0.026663137127165986,0.021775433139738246,0.07974860617834505, ,0.05882687111647334, ,0.03441717079256116, ,0.0007845645511319695, ,0.2073631004058023,-0.21666899351924285,0.10416727182,1.744830019734727,0.6320804479149275,-1.2891619278511914, ,0.0614219686462594,0.056519917545247635,0.058561807058823544,-0.11211244161484579,0.1125339680148281,-0.1001048279797164, ,1.3307900428771973
0.01424104173219203,0.021590501881877912,-0.09312474276102956, ,0.015059034748004003,0.021189813333257645,-0.09419793721821774, ,0.0014076257421104642, ,0.018254843418318414,0.00514845606577384,-0.05494204184974757,-0.026743759882766886,-0.02777218358722977,-0.03076006009943378, ,0.0581237805954494, ,0.03854895894415937, ,0.000789214261512406, ,0.20805042363160828,-0.21599711575918532,0.10476226893000001,1.744410639847758,0.6329002669135202,-1.28983043527337, ,0.07266228296973261,0.07579627920005652,0.057092514408602156,0.007243487028861846,0.04547601888766387,-0.04459841277250009, ,1.3326778411865234
0.01424104173219203,0.021590501881877912,-0.09312474276102956, ,0.015102968662095496,0.02119437834666265,-0.0943074428661396, ,0.0015161172204917245, ,0.018254843418318414,0.00514845606577384,-0.05494204184974757,-0.026743759882766886,-0.02777218358722977,-0.03076006009943378, ,0.0581237805954494, ,0.03854895894415937, ,0.0007945987278752157, ,0.20805042363160828,-0.21599711575918532,0.10476226893000001,1.744410639847758,0.6329002669135202,-1.28983043527337, ,0.07266228296973261,0.07579627920005652,0.057092514408602156,0.007243487028861846,0.04547601888766387,-0.04459841277250009, ,1.3345918655395508
0.01424104173219203,0.021590501881877912,-0.09312474276102956, ,0.01514690412642776,0.021198878386779384,-0.09441656982194477, ,0.0016256607255256282, ,0.018254843418318414,0.00514845606577384,-0.05494204184974757,-0.026743759882766886,-0.02777218358722977,-0.03076006009943378, ,0.0581237805954494, ,0.03854895894415937, ,0.0008007094778579393, ,0.20805042363160828,-0.21599711575918532,0.10476226893000001,1.744410639847758,0.6329002669135202,-1.28983043527337, ,0.07266228296973261,0.07579627920005652,0.057092514408602156,0.007243487028861846,0.04547601888766387,-0.04459841277250009, ,1.3364508152008057
0.01424104173219203,0.021590501881877912,-0.09312474276102956, ,0.015190840882885725,0.021203313705621226,-0.09452531856016301, ,0.0017359855067395462, ,0.018254843418318414,0.00514845606577384,-0.05494204184974757,-0.026743759882766886,-0.02777218358722977,-0.03076006009943378, ,0.0581237805954494, ,0.03854895894415937, ,0.0008075363101855423, ,0.20805042363160828,-0.21599711575918532,0.10476226893000001,1.744410639847758,0.6329002669135202,-1.28983043527337, ,0.07266228296973261,0.07579627920005652,0.057092514408602156,0.007243487028861846,0.04547601888766387,-0.04459841277250009, ,1.3383898735046387
0.01424104173219203,0.021590501881877912,-0.09312474276102956, ,0.015234778674311448,0.021207684555058448,-0.09463368955568086, ,0.0018468845781300152, ,0.018254843418318414,0.00514845606577384,-0.05494204184974757,-0.026743759882766886,-0.02777218358722977,-0.03076006009943378, ,0.0581237805954494, ,0.03854895894415937, ,0.0008150678193735457, ,0.20805042363160828,-0.21599711575918532,0.10476226893000001,1.744410639847758,0.6329002669135202,-1.28983043527337, ,0.07266228296973261,0.07579627920005652,0.057092514408602156,0.007243487028861846,0.04547601888766387,-0.04459841277250009, ,1.3403749465942383
0.01443682559916174,0.021642831257206754,-0.09370565669556968, ,0.01527871724450176,0.021211991186819403,-0.0947416832837435, ,0.0014027671938521267, ,0.01967069328492112,0.0054870377854678975,-0.05831511296966397,0.03435280844888549,0.03345869131435558,-0.04238417846579098, ,0.06178750811153711, ,0.0479471072261887, ,0.0008192958724273484, ,0.2088690333162761,-0.21517850607451752,0.10536763636000002,1.744410639847758,0.6337200859121127,-1.2904989426955484, ,0.08472941210577749,0.08035304111640201,0.06102992919540231,0.009921469383998148,0.12167570511007401,-0.10602232735423239, ,1.342317819595337
0.01443682559916174,0.021642831257206754,-0.09370565669556968, ,0.015322656338206756,0.02121623385248988,-0.09484930021995208, ,0.0015081783564320262, ,0.01967069328492112,0.0054870377854678975,-0.05831511296966397,0.03435280844888549,0.03345869131435558,-0.04238417846579098, ,0.06178750811153711, ,0.0479471072261887, ,0.0008242164615988104, ,0.2088690333162761,-0.21517850607451752,0.10536763636000002,1.744410639847758,0.6337200859121127,-1.2904989426955484, ,0.08472941210577749,0.08035304111640201,0.06102992919540231,0.009921469383998148,0.12167570511007401,-0.10602232735423239, ,1.3442938327789307
0.01443682559916174,0.021642831257206754,-0.09370565669556968, ,0.015366595701129873,0.021220412803512327,-0.09495654084026217, ,0.001614812972445565, ,0.01967069328492112,0.0054870377854678975,-0.05831511296966397,0.03435280844888549,0.03345869131435558,-0.04238417846579098, ,0.06178750811153711, ,0.0479471072261887, ,0.0008298235290516243, ,0.2088690333162761,-0.21517850607451752,0.10536763636000002,1.744410639847758,0.6337200859121127,-1.2904989426955484, ,0.08472941210577749,0.08035304111640201,0.06102992919540231,0.009921469383998148,0.12167570511007401,-0.10602232735423239, ,1.3462128639221191
0.01443682559916174,0.021642831257206754,-0.09370565669556968, ,0.01541053507992575,0.021224528291186266,-0.0950634056209838, ,0.0017223732663898474, ,0.01967069328492112,0.0054870377854678975,-0.05831511296966397,0.03435280844888549,0.03345869131435558,-0.04238417846579098, ,0.06178750811153711, ,0.0479471072261887, ,0.0008361090905821751, ,0.2088690333162761,-0.21517850607451752,0.10536763636000002,1.744410639847758,0.6337200859121127,-1.2904989426955484, ,0.08472941210577749,0.08035304111640201,0.06102992919540231,0.009921469383998148,0.12167570511007401,-0.10602232735423239, ,1.3480889797210693
0.01443682559916174,0.021642831257206754,-0.09370565669556968, ,0.015454474222199352,0.021228580566667776,-0.09516989503878007, ,0.0018306300227817355, ,0.01967069328492112,0.0054870377854678975,-0.05831511296966397,0.03435280844888549,0.03345869131435558,-0.04238417846579098, ,0.06178750811153711, ,0.0479471072261887, ,0.0008430637824157386, ,0.2088690333162761,-0.21517850607451752,0.10536763636000002,1.744410639847758,0.6337200859121127,-1.2904989426955484, ,0.08472941210577749,0.08035304111640201,0.06102992919540231,0.009921469383998148,0.12167570511007401,-0.10602232735423239, ,1.3500149250030518
0.01443682559916174,0.021642831257206754,-0.09370565669556968, ,0.015498412876504853,0.021232569880969172,-0.09527600957066537, ,0.0019394045726898782, ,0.01967069328492112,0.0054870377854678975,-0.05831511296966397,0.03435280844888549,0.03345869131435558,-0.04238417846579098, ,0.06178750811153711, ,0.0479471072261887, ,0.0008506772601259755, ,0.2088690333162761,-0.21517850607451752,0.10536763636000002,1.744410639847758,0.6337200859121127,-1.2904989426955484, ,0.08472941210577749,0.08035304111640201,0.06102992919540231,0.009921469383998148,0.12167570511007401,-0.10602232735423239, ,1.3520119190216064
0.014577285431098139,0.021680741832785334,-0.09411149690668098, ,0.01554235079234426,0.021236496484959094,-0.09538174969400513, ,0.0016559731955098592, ,0.019554343670067732,0.00470336075227906,-0.054868455177161136,0.06468316997245017,0.05864023584442623,-0.036914935171447394, ,0.058438354975660786, ,0.08730459577287848, ,0.0008562310251975885, ,0.20951002014483672,-0.2146070238418249,0.10579411577000002,1.7446203297912426,0.6348131779102364,-1.2913902859251198, ,0.09321899956627777,0.07994687578641177,0.05771308521739131,0.0,0.1591850718689475,-0.1361914681872621, ,1.354503870010376
0.014577285431098139,0.021680741832785334,-0.09411149690668098, ,0.01558628772016663,0.021240360629361722,-0.09548711588651408, ,0.0017619162299471957, ,0.019554343670067732,0.00470336075227906,-0.054868455177161136,0.06468316997245017,0.05864023584442623,-0.036914935171447394, ,0.058438354975660786, ,0.08730459577287848, ,0.0008624343485177913, ,0.20951002014483672,-0.2146070238418249,0.10579411577000002,1.7446203297912426,0.6348131779102364,-1.2913902859251198, ,0.09321899956627777,0.07994687578641177,0.05771308521739131,0.0,0.1591850718689475,-0.1361914681872621, ,1.3566060066223145
0.014577285431098139,0.021680741832785334,-0.09411149690668098, ,0.015630223411366273,0.021244162564757252,-0.0955921086262558, ,0.0018685531599891365, ,0.019554343670067732,0.00470336075227906,-0.054868455177161136,0.06468316997245017,0.05864023584442623,-0.036914935171447394, ,0.058438354975660786, ,0.08730459577287848, ,0.0008692786941740589, ,0.20951002014483672,-0.2146070238418249,0.10579411577000002,1.7446203297912426,0.6348131779102364,-1.2913902859251198, ,0.09321899956627777,0.07994687578641177,0.05771308521739131,0.0,0.1591850718689475,-0.1361914681872621, ,1.3587689399719238
0.014577285431098139,0.021680741832785334,-0.09411149690668098, ,0.01567415761828237,0.021247902541580925,-0.09569672839164121, ,0.001975711848407524, ,0.019554343670067732,0.00470336075227906,-0.054868455177161136,0.06468316997245017,0.05864023584442623,-0.036914935171447394, ,0.058438354975660786, ,0.08730459577287848, ,0.0008767545938648256, ,0.20951002014483672,-0.2146070238418249,0.10579411577000002,1.7446203297912426,0.6348131779102364,-1.2913902859251198, ,0.09321899956627777,0.07994687578641177,0.05771308521739131,0.0,0.1591850718689475,-0.1361914681872621, ,1.360827922821045
0.014834757634416555,0.021726493184852227,-0.0947903346892736, ,0.01571809009419705,0.02125158081012327,-0.09580097566142703, ,0.0014238023643637473, ,0.019672587067144445,0.002711916311066995,-0.050041393579009934,0.06077406165213721,0.054756743798002924,-0.0017840657324870845, ,0.053837777102346884, ,0.0818014288711695, ,0.0008804260554117981, ,0.21084605293207756,-0.21352584123943347,0.10650966785000002,1.7439912599607892,0.6371359984062488,-1.2933660690280997, ,0.10509074369708835,0.08642708702957265,0.05274440900662252,-0.038517604565928024,0.17593178217499256,-0.1454488797832339, ,1.3630180358886719
0.014834757634416555,0.021726493184852227,-0.0947903346892736, ,0.015762020593334865,0.021255197620529662,-0.09590485091471593, ,0.0015244941851992348, ,0.019672587067144445,0.002711916311066995,-0.050041393579009934,0.06077406165213721,0.054756743798002924,-0.0017840657324870845, ,0.053837777102346884, ,0.0818014288711695, ,0.0008847198429437144, ,0.21084605293207756,-0.21352584123943347,0.10650966785000002,1.7439912599607892,0.6371359984062488,-1.2933660690280997, ,0.10509074369708835,0.08642708702957265,0.05274440900662252,-0.038517604565928024,0.17593178217499256,-0.1454488797832339, ,1.3649349212646484
0.014834757634416555,0.021726493184852227,-0.0947903346892736, ,0.015805948870861182,0.02125875322280006,-0.09600835463095397, ,0.001626519495173195, ,0.019672587067144445,0.002711916311066995,-0.050041393579009934,0.06077406165213721,0.054756743798002924,-0.0017840657324870845, ,0.053837777102346884, ,0.0818014288711695, ,0.0008896324234220553, ,0.21084605293207756,-0.21352584123943347,0.10650966785000002,1.7439912599607892,0.6371359984062488,-1.2933660690280997, ,0.10509074369708835,0.08642708702957265,0.05274440900662252,-0.038517604565928024,0.17593178217499256,-0.1454488797832339, ,1.3668458461761475
0.014834757634416555,0.021726493184852227,-0.0947903346892736, ,0.015849874682880728,0.02126224786678914,-0.09611148728993067, ,0.001729575246021131, ,0.019672587067144445,0.002711916311066995,-0.050041393579009934,0.06077406165213721,0.054756743798002924,-0.0017840657324870845, ,0.053837777102346884, ,0.0818014288711695, ,0.0008951583630444177, ,0.21084605293207756,-0.21352584123943347,0.10650966785000002,1.7439912599607892,0.6371359984062488,-1.2933660690280997, ,0.10509074369708835,0.08642708702957265,0.05274440900662252,-0.038517604565928024,0.17593178217499256,-0.1454488797832339, ,1.3687169551849365
0.014834757634416555,0.021726493184852227,-0.0947903346892736, ,0.015893797786437534,0.021265681802205408,-0.09621424937177736, ,0.0018334247181216023, ,0.019672587067144445,0.002711916311066995,-0.050041393579009934,0.06077406165213721,0.054756743798002924,-0.0017840657324870845, ,0.053837777102346884, ,0.0818014288711695, ,0.0009012908228815234, ,0.21084605293207756,-0.21352584123943347,0.10650966785000002,1.7439912599607892,0.6371359984062488,-1.2933660690280997, ,0.10509074369708835,0.08642708702957265,0.05274440900662252,-0.038517604565928024,0.17593178217499256,-0.1454488797832339, ,1.3705739974975586
0.015039006515300398,0.021749421221872667,-0.09531542535001167, ,0.01593771793951303,0.021269055278611195,-0.09631664135696591, ,0.0014285892187879544, ,0.02099863015393191,0.00224862986091813,-0.053176608281006524,-0.023224628880111228,-0.024073580526926628,0.0264737388086784, ,0.057216697500508035, ,0.03344391508631187, ,0.0009047148384393575, ,0.21181139454135564,-0.21267634062326876,0.10701781353,1.7431525001868509,0.6385023634039032,-1.2945619268052044, ,0.10405366398955129,0.09423728059431061,0.05550108543554008,-0.059147165758023125,0.09756030967051274,-0.07739020394338156, ,1.3725459575653076
0.015039006515300398,0.021749421221872667,-0.09531542535001167, ,0.015981634901024,0.021272368545423095,-0.09641866372630838, ,0.001527502027695342, ,0.02099863015393191,0.00224862986091813,-0.053176608281006524,-0.023224628880111228,-0.024073580526926628,0.0264737388086784, ,0.057216697500508035, ,0.03344391508631187, ,0.000908732820305525, ,0.21181139454135564,-0.21267634062326876,0.10701781353,1.7431525001868509,0.6385023634039032,-1.2945619268052044, ,0.10405366398955129,0.09423728059431061,0.05550108543554008,-0.059147165758023125,0.09756030967051274,-0.07739020394338156, ,1.374506950378418
0.015039006515300398,0.021749421221872667,-0.09531542535001167, ,0.016025548430823548,0.021275621851910512,-0.09652031696095507, ,0.001627732959727245, ,0.02099863015393191,0.00224862986091813,-0.053176608281006524,-0.023224628880111228,-0.024073580526926628,0.0264737388086784, ,0.057216697500508035, ,0.03344391508631187, ,0.0009133417955582283, ,0.21181139454135564,-0.21267634062326876,0.10701781353,1.7431525001868509,0.6385023634039032,-1.2945619268052044, ,0.10405366398955129,0.09423728059431061,0.05550108543554008,-0.059147165758023125,0.09756030967051274,-0.07739020394338156, ,1.3764238357543945
0.015039006515300398,0.021749421221872667,-0.09531542535001167, ,0.01606945828969775,0.021278815447196467,-0.09662160154239394, ,0.001728987246934887, ,0.02099863015393191,0.00224862986091813,-0.053176608281006524,-0.023224628880111228,-0.024073580526926628,0.0264737388086784, ,0.057216697500508035, ,0.03344391508631187, ,0.0009185369895160413, ,0.21181139454135564,-0.21267634062326876,0.10701781353,1.7431525001868509,0.6385023634039032,-1.2945619268052044, ,0.10405366398955129,0.09423728059431061,0.05550108543554008,-0.059147165758023125,0.09756030967051274,-0.07739020394338156, ,1.3783009052276611
0.015039006515300398,0.021749421221872667,-0.09531542535001167, ,0.01611336423936598,0.02128194958025664,-0.09672251795244924, ,0.0018310335460632872, ,0.02099863015393191,0.00224862986091813,-0.053176608281006524,-0.023224628880111228,-0.024073580526926628,0.0264737388086784, ,0.057216697500508035, ,0.03344391508631187, ,0.0009243122841777328, ,0.21181139454135564,-0.21267634062326876,0.10701781353,1.7431525001868509,0.6385023634039032,-1.2945619268052044, ,0.10405366398955129,0.09423728059431061,0.05550108543554008,-0.059147165758023125,0.09756030967051274,-0.07739020394338156, ,1.380234956741333
0.015253653585537028,0.021771241355666226,-0.09585110207721563, ,0.016157266042478732,0.02128502449991977,-0.09682306667328061, ,0.0019336884560636545, ,0.02175347919465619,0.0022082159824651894,-0.05360351934586191,-0.03756539375375898,-0.039068775301344616,-0.04834575070733344, ,0.057891513723167976, ,0.05419488404975274, ,0.000930660561988336, ,0.21288485441087285,-0.21168783081536804,0.10757910710000002,1.7429428102433666,0.6391855459027305,-1.2951190163236865, ,0.10783743358917133,0.10010225902792276,0.05608736450704226,0.022242013355830374,0.06396644864239664,-0.050048714085653596, ,1.3824198246002197
0.015253653585537028,0.021771241355666226,-0.09585110207721563, ,0.016201163462617706,0.021288040454866614,-0.0969232481873818, ,0.0015102169907809386, ,0.02175347919465619,0.0022082159824651894,-0.05360351934586191,-0.03756539375375898,-0.039068775301344616,-0.04834575070733344, ,0.057891513723167976, ,0.05419488404975274, ,0.0009342827896682898, ,0.21288485441087285,-0.21168783081536804,0.10757910710000002,1.7429428102433666,0.6391855459027305,-1.2951190163236865, ,0.10783743358917133,0.10010225902792276,0.05608736450704226,0.022242013355830374,0.06396644864239664,-0.050048714085653596, ,1.3845248222351074
0.015253653585537028,0.021771241355666226,-0.09585110207721563, ,0.016245056264292748,0.021290997693630718,-0.09702306297758005, ,0.001608417109568373, ,0.02175347919465619,0.0022082159824651894,-0.05360351934586191,-0.03756539375375898,-0.039068775301344616,-0.04834575070733344, ,0.057891513723167976, ,0.05419488404975274, ,0.0009384699593571102, ,0.21288485441087285,-0.21168783081536804,0.10757910710000002,1.7429428102433666,0.6391855459027305,-1.2951190163236865, ,0.10783743358917133,0.10010225902792276,0.05608736450704226,0.022242013355830374,0.06396644864239664,-0.050048714085653596, ,1.3865020275115967
0.015253653585537028,0.021771241355666226,-0.09585110207721563, ,0.016288944212942674,0.021293896464597145,-0.09712251152703419, ,0.0017076787804829274, ,0.02175347919465619,0.0022082159824651894,-0.05360351934586191,-0.03756539375375898,-0.039068775301344616,-0.04834575070733344, ,0.057891513723167976, ,0.05419488404975274, ,0.0009432181619566523, ,0.21288485441087285,-0.21168783081536804,0.10757910710000002,1.7429428102433666,0.6391855459027305,-1.2951190163236865, ,0.10783743358917133,0.10010225902792276,0.05608736450704226,0.022242013355830374,0.06396644864239664,-0.050048714085653596, ,1.3883848190307617
