NicholasDascanio/dvrk_moveit_final/test/execution/third_experiment_notsharpbends/thirdexp_600vel4.0/thirdexp_600vel4.0_9.csv
Current Position (x),Current Position (y),Current Position (z), ,Planned Position (x),Planned Position (y),Planned Position (z), ,Position Error,,Cartesian linear Velocity(x),Cartesian linear Velocity(y),Cartesian linear Velocity(z),Cartesian Angular Velocity(x),Cartesian Angular Velocity(y),Cartesian Angular Velocity(z), ,Total Linear Velocity, ,Total Angular Velocity, ,MSE, ,Joint 1 Position,Joint 2 Position,Joint 3 Position,Joint 4 Position,Joint 5 Position,Joint 6 Position, ,Joint 1 Velocity,Joint 2 Velocity,Joint 3 Velocity,Joint 4 Velocity,Joint 5 Velocity,Joint 6 Velocity, ,Time Stamp
0.00782391834718399,0.020394786420938206,-0.07643728992650341, ,0.008051109872264981,0.02034876899885053,-0.07656880375370974, ,0.00026651356241414516, ,0.00011008868289999856,0.00010981169255464327,-0.0005596613472939053,0.10957275986177978,-0.0008963619732989253,-0.007013662590365953, ,0.0005808605250653561, ,0.1095764261532305, ,2.2209463534512098e-05, ,0.12432827654214038,-0.25838719650580366,0.08614235937,1.6225807826832495,0.18992473467396223,-1.3006602528298328, ,0.0005198097646864137,0.0004673055817054405,0.0005772601738666496,-0.0010825419929314532,0.0,-0.11045596560204785, ,0.021360158920288086
0.007845100972545198,0.02039975865202106,-0.0764809175713114, ,0.008135868239541528,0.020352344844411292,-0.07674395685455948, ,0.0003949472588083594, ,0.002336940448365377,0.0011519095605556507,-0.005621109206305002,0.25884833908478283,-0.1217810253403127,-0.050054081498793056, ,0.006195567367409746, ,0.2860648191831297, ,3.0066400964659295e-05, ,0.12443639480237953,-0.2583099691770614,0.08618643323000001,1.622371092739765,0.18910491567536958,-1.3059542934379151, ,0.007364923465314677,0.0041158022949947465,0.005752550205850488,-0.00013518915563940894,-0.11820689641689491,-0.26593158105030446, ,0.04061317443847656
0.007871884327843711,0.0204092442832742,-0.07653439724394631, ,0.008220434416549852,0.02035584487843651,-0.07691852977537036, ,0.0005214369208948761, ,0.002820178873479792,0.0010135724304046832,-0.006041444680452836,0.26034394761660407,-0.14574877309879228,-0.056364356582009306, ,0.006743870682113505, ,0.29836500450346387, ,3.6965554441168144e-05, ,0.12453679032974445,-0.2582481873140676,0.08624087741000001,1.6225807826832495,0.18773855067771517,-1.3089240514079792, ,0.01039405247347726,0.007183303484582981,0.006138270335260117,0.0002197418972835671,-0.1398223283569167,-0.27086263253120846, ,0.05927705764770508
0.007936328187025785,0.020446303298483917,-0.07672013232803733, ,0.008304808451805284,0.020359269585668662,-0.07709252370035706, ,0.0005310629970884343, ,0.003226801792664457,0.0018298548712245657,-0.009877143026991013,0.2678486442200814,-0.05552531764760151,-0.02945723919355541, ,0.010550761727691704, ,0.2735433366331495, ,4.080858902870988e-05, ,0.12486114511046187,-0.25809373265658314,0.08643272833000001,1.6225807826832495,0.18596227618076444,-1.3127030580289216, ,0.0215527916326302,0.010151332803018259,0.010237025398457585,0.00021671636462111603,-0.03466453105801198,-0.279222089780399, ,0.07984709739685059
0.008017655818577255,0.020480371946520283,-0.07692890529794802, ,0.008388990394853,0.02036261944986822,-0.0772659398123339, ,0.0005151187066036407, ,0.004663511573112995,0.001127110917313888,-0.009595076085657206,-0.04756956517710465,-0.14791503515433685,-0.03300109225940134, ,0.010727730622179035, ,0.1553760633898257, ,4.2866912419412606e-05, ,0.12537856821303492,-0.257815714273111,0.08664791247,1.6230001625702186,0.18432263818357916,-1.3171652337345445, ,0.030193108990922937,0.017724494127469327,0.009802345550769233,0.0009734227676437291,-0.12225136047889733,0.02772625222746139, ,0.09930801391601562
0.00809353456227078,0.02049898000648939,-0.0770997565324536, ,0.008472980296265994,0.02036589495381429,-0.07743877929271722, ,0.000525953541930718, ,0.0038335518690913914,0.0004090709628022744,-0.00744856584400582,-0.20465305456218658,-0.017339667570664543,0.014379688323779742, ,0.008387168301525385, ,0.20538631110706143, ,4.443601593129312e-05, ,0.12604272324021823,-0.25747591402664516,0.08682420791,1.6230001625702186,0.1840493651840483,-1.3146553932032161, ,0.03954039231602949,0.020007788648212267,0.007687650347490348,0.0009734227676437291,0.02215399943180647,0.1857559221307403, ,0.12521004676818848
0.008172287536078064,0.02049963513378156,-0.07726135090759703, ,0.008556778207644609,0.020369096579304892,-0.07761104332152775, ,0.0005358714165611432, ,0.0037297713416467836,-0.0003781216977866438,-0.006185251809792964,-0.05468107548004474,0.013465136368407054,0.01324807274129873, ,0.007232669647499036, ,0.05631456209561844, ,4.5707005615296064e-05, ,0.12706984671249008,-0.25693532272544944,0.08699142932000001,1.6230001625702186,0.1865088221798262,-1.3129853721634261, ,0.044385847314532635,0.025585586831617897,0.006320956952380953,0.0009734227676437291,0.05956159722187901,0.030656247177439276, ,0.1437392234802246
0.00823047120149585,0.020494419651019995,-0.07734757273484702, ,0.008640384181614677,0.020372224807157314,-0.07778273307739261, ,0.0006101841974854163, ,0.004656304296412408,-0.00029289036648328195,-0.006843304085871473,0.01946144451117434,-0.04480320281121585,-0.00636818272089261, ,0.008282376789259987, ,0.04884746451553282, ,4.757425124130162e-05, ,0.12771855627392495,-0.2565800770132351,0.08707957704000001,1.6230001625702186,0.1869187316791225,-1.3133196258745155, ,0.048615236454134625,0.026596676445759745,0.006989386362439668,0.0009734227676437291,0.00380594667756772,-0.04574792240554337, ,0.16446709632873535
0.008375781149089346,0.02049670636845614,-0.07758477458449742, ,0.008723798271826394,0.02037528011720884,-0.0779538497375472, ,0.0005216097399482334, ,0.005424977059792842,0.00014596466168732594,-0.0092388602776539,0.009156787784636024,-0.047618609690285495,-0.015069959865664489, ,0.010714859822309911, ,0.048491016529422115, ,4.8072808062336584e-05, ,0.12917815278715336,-0.25580780372581263,0.08732327956000001,1.6234195424571878,0.1869187316791225,-1.3147081644569052, ,0.05416492098086232,0.029136303825136867,0.009492736305125149,0.010427113885261505,0.004158349645711655,-0.03674674422890582, ,0.1829681396484375
0.008480999854319628,0.020502480121856077,-0.07777604792736136, ,0.008807020532952906,0.020378262988317054,-0.07812439447783781, ,0.0004930159210309544, ,0.005382737812723629,0.000442472709990401,-0.00935295498815655,-0.020804023701908717,-0.041138687474133157,-0.009968126262793572, ,0.010800343303344274, ,0.04609988001841007, ,4.819327708594039e-05, ,0.13024388992379635,-0.2552440442259943,0.08752031564000001,1.6234195424571878,0.18732864117841885,-1.315287454388416, ,0.05391871679458567,0.02582229702271314,0.009689058102189783,0.009542792808010427,0.010743219328045365,-0.003398831989797975, ,0.20785808563232422
0.00858065881640079,0.020508400056470644,-0.07795429959524737, ,0.008890051020688329,0.020381173898360142,-0.07829436847272266, ,0.0004770292158859469, ,0.004839706758968494,-7.925473532757293e-06,-0.008156722402829561,-0.003533897643837293,-0.02257183082789514,-0.005984365217794808, ,0.009484458059518091, ,0.022846792846575127, ,4.858327458244925e-05, ,0.13125556793031976,-0.2547266211234212,0.08770438882,1.6234195424571878,0.18773855067771517,-1.3155400293593646, ,0.050638709476238414,0.02726923608002034,0.0083968431839747,0.008263900758961079,0.026955914745061715,-0.021980741004563382, ,0.2248070240020752
0.008635410144573086,0.020508282745823243,-0.07804489037298822, ,0.008972889791747169,0.020384013324237667,-0.07846377289527504, ,0.0005520851101735363, ,0.00474654750567095,-6.306851378084076e-05,-0.007553536815123405,-0.014102367231591072,-0.034637557653261826,-0.00818564150987931, ,0.00892130087366446, ,0.0373983574121655, ,4.954023824021169e-05, ,0.13182705016301238,-0.2544254345413265,0.08779772170000001,1.6234195424571878,0.18801182367724606,-1.3157628651667577, ,0.04871506240167905,0.025892753494807852,0.007773944128843339,0.007664199724939096,0.012601816505289843,-0.010370767621088978, ,0.2454240322113037
0.008758441100010951,0.020507644114000113,-0.07826030140524022, ,0.009055536903862788,0.02038678174187084,-0.07863260891718354, ,0.0004914127726387583, ,0.00458773723637697,0.00040494146714830655,-0.009348501633360956,-0.013432843581898163,-0.027227375126420754,-0.004132956787205713, ,0.010421410333098322, ,0.030360684636032725, ,4.989334388731908e-05, ,0.1331244692858821,-0.25369949765114935,0.08801938729000001,1.6238389223441565,0.18896827917560413,-1.3165427904926323, ,0.04381206904823212,0.02559939076300803,0.009613042558841281,0.004317342474886143,0.01607367416497957,-0.011097502455252803, ,0.26238417625427246
0.008807133599947095,0.0205126933664981,-0.07836245560457704, ,0.00913799241578529,0.02038947962620331,-0.07880087770875595, ,0.000562905963059503, ,0.004608569029178256,0.0005139982394138712,-0.009556431640922845,-0.025737614055808006,-0.04069830687038367,-0.007338164546221913, ,0.010622075521970876, ,0.0481536798147129, ,5.071845887335988e-05, ,0.13358011052546134,-0.2534292020005515,0.08812438678000001,1.6238389223441565,0.18910491567536958,-1.3166542083963289, ,0.04178641195881584,0.02480317343399655,0.00982047565967941,0.004317342474886143,0.0,0.0017154396170815218, ,0.2810242176055908
0.008912578377538312,0.020525974716896513,-0.07860585249191085, ,0.009220256387280967,0.020392107451201482,-0.07896858043891926, ,0.0004941232296146386, ,0.0041041666427045044,0.0003275302380429457,-0.009128666616497222,-0.0003385321134557945,-0.008595455885362148,-0.0012128600641612265, ,0.010014190635446864, ,0.008602116162707573, ,5.097462961998845e-05, ,0.13458406579911053,-0.25280366063773935,0.08837457075,1.6238389223441565,0.18992473467396223,-1.3173227158185075, ,0.03940902888640813,0.0255580235815973,0.009358878683901293,0.004317342474886143,0.03083193689015106,-0.02388768329151116, ,0.29889702796936035
0.008995207204558875,0.02053464145998457,-0.07880039365949229, ,0.00930232887913027,0.020394665689855,-0.0791357182752223, ,0.0004757725687020865, ,0.0036266209050494313,0.0005533272620377,-0.00955727586166529,0.04046022846771594,0.038602371221347805,0.006709657083551533, ,0.010237190637270837, ,0.055921132605049634, ,5.108360976179737e-05, ,0.13537950728515566,-0.2522785148022921,0.08857419941000001,1.6240486122876412,0.19074455367255488,-1.317991223240686, ,0.03777744488792627,0.024189890787272697,0.009850842003710576,0.006110236935199761,0.07762278268035039,-0.06226985488251756, ,0.31541919708251953
0.00902912221659908,0.02053819834878687,-0.07888116938791478, ,0.009384209953126568,0.020397154814177604,-0.07930229238383679, ,0.0005686168806688894, ,0.004012019655971858,0.000501968839543886,-0.010029905274598626,0.02407289543115309,0.01986800345509856,0.0031845869241750794, ,0.010814216303237091, ,0.03121284598089072, ,5.174339396066229e-05, ,0.13571158479874731,-0.25206227828181377,0.08865716197000001,1.6240486122876412,0.1911544631718512,-1.3183254769517752, ,0.03975573588540879,0.026214624739909057,0.01030991036893204,0.005805450325189171,0.06032020798956663,-0.04823197797315504, ,0.33391714096069336
0.009123375950784673,0.020546770889927988,-0.07909402962927235, ,0.009465899672074864,0.020399575295207275,-0.07946830392955999, ,0.0005282710427493302, ,0.0046497769821713724,0.0003567292332629302,-0.010184885962426704,-0.028417445130792043,-0.04006878521083489,-0.005233346343922649, ,0.011201766994426886, ,0.049122893099257624, ,5.210305198999201e-05, ,0.13655336268203777,-0.2514830733162469,0.08887493869,1.6242583022311257,0.19142773617138206,-1.3185483127591682, ,0.04045052922355958,0.028076018212565317,0.010404187798824299,0.001522854415342982,0.0,0.0008051437310108347, ,0.3510091304779053
0.009164674709784144,0.02055078723223492,-0.07919512289655788, ,0.009547398099789793,0.020401927603007176,-0.07963375407581533, ,0.000600860794101279, ,0.003975126977375379,0.0003230214667054108,-0.009631076683483907,0.019976003423929092,0.01686078738989545,-0.002560736828194593, ,0.010424184161715363, ,0.026140519913240033, ,5.2823999127649666e-05, ,0.13695494479149745,-0.25120505493277484,0.08897864189000002,1.6244679921746104,0.19197428217044385,-1.3189939843739538, ,0.03908440756114941,0.02699002888466177,0.009875270626162431,0.010545618336924847,0.05529529923530162,-0.04434018574471334, ,0.369232177734375
0.00930838208099346,0.020557353989213017,-0.0794948909308624, ,0.009628705301095072,0.02040421220666605,-0.0797986439846548, ,0.0004672529171510217, ,0.00488579652848515,-6.793518809978493e-06,-0.00901536067599452,-0.027133043971303932,-0.042732832016998755,-0.012511083355175428, ,0.010254159253099386, ,0.05061913618175558, ,5.278148311203599e-05, ,0.1382987003116125,-0.25033238611798747,0.08928586262,1.6244679921746104,0.19265746466927103,-1.3194693951522953, ,0.04493226399548806,0.02882653145761567,0.009223399837869139,0.00888171829942395,0.0,-0.00023239456321090662, ,0.38659000396728516
0.009349702468302232,0.020555654085281268,-0.07957581997532524, ,0.009709821341820895,0.020406429574298852,-0.07996297481675929, ,0.0005494018829491896, ,0.004407961917095115,-0.00018835791294183297,-0.008604482610718542,0.02195284754250443,0.013801379375340503,-6.29315218135167e-06, ,0.009669680861542764, ,0.02593078365034667, ,5.315147582318457e-05, ,0.1387311733525691,-0.2500543677345154,0.08936882518000001,1.6244679921746104,0.19320401066833282,-1.3199150667670811, ,0.04633639724534706,0.029813679408881803,0.008824826326869806,0.008361147407722844,0.060197457323941835,-0.049312539066821225, ,0.40419912338256836
0.009431521182341474,0.020557706453586188,-0.07973944377974228, ,0.009790746288803451,0.020408580173047315,-0.08012674773144199, ,0.0005488949586780603, ,0.005014724303539532,0.00013535510008838304,-0.009143271594919332,-0.008179848183737879,-0.025639382360940308,-0.006690915618904026, ,0.01042905538877269, ,0.026912595197387246, ,5.3743261239895497e-05, ,0.1395497830372369,-0.24956011283056503,0.08953734288000001,1.6244679921746104,0.1940238296669254,-1.3206652529294, ,0.04841680691758713,0.027514335041597792,0.009436499715639812,0.00753540441426664,0.02167806367756285,-0.017677007353802968, ,0.4211921691894531
0.009536133463059936,0.020559541054152745,-0.07992951250315443, ,0.009871480209882743,0.02041066446908064,-0.0802899638866478, ,0.0005143412078082589, ,0.005401470590311411,0.00029248196656318255,-0.010653248494462746,-0.018539912856185132,-0.03519684382959125,-0.011694304352794645, ,0.01194793428687723, ,0.039781227319702274, ,5.413217883385446e-05, ,0.14053829284513764,-0.24897318513212396,0.08973308267,1.624887372061579,0.19429710266645633,-1.320888088736793, ,0.04922040537265082,0.0301547319855325,0.01096270579490709,0.010285386514098271,0.01191051296007731,-0.009712224685490097, ,0.4364051818847656
0.009580320382679922,0.020561459751320198,-0.08002747134677263, ,0.009952023173901405,0.020412682927595877,-0.08045262443895665, ,0.0005839971404664357, ,0.004625154794490248,0.00024875379196452363,-0.009972216912303229,0.04645742067324203,0.038486665423580174,0.0038241723912499676, ,0.010995410200080732, ,0.060328395075773686, ,5.480302198850157e-05, ,0.1410016568175911,-0.24868744401577766,0.08983419329,1.624887372061579,0.19511692166504896,-1.3215565961589717, ,0.049245947876736265,0.029100564722008823,0.010548881801324505,0.010285386514098271,0.08822921350490583,-0.0719450075958912, ,0.45423221588134766
0.009694417245027794,0.020570230732623523,-0.08025307081174991, ,0.010032375250703426,0.0204146360128189,-0.08061473054358326, ,0.0005188671237042264, ,0.0052416132683563614,0.0002513323243225506,-0.010072766670397108,-0.016943869607817415,-0.03379881575392958,-0.011024070164681854, ,0.011357742116658649, ,0.037808128226125226, ,5.514827069148962e-05, ,0.14205194848848562,-0.24809279358446237,0.09006363662000001,1.624887372061579,0.19566346766411072,-1.3220022677737573, ,0.047686905305764214,0.028713144193183295,0.010486380197498356,0.009816089809332507,0.012266028906465679,-0.010002124101423909, ,0.47105908393859863
0.009794389040493812,0.02057300664156817,-0.08044250964530258, ,0.010112536511131984,0.020416524188004912,-0.08077628335437985, ,0.00048693886702320103, ,0.004747242278944701,0.00021978689777425522,-0.010134719832799748,0.032676032413930134,0.023453844664867995,0.0059805529917016835, ,0.011193621470497288, ,0.04022195690117553, ,5.5338115925893286e-05, ,0.14303273556351215,-0.24752131135176977,0.09026326528,1.6250970620050638,0.19634665016293792,-1.3225593572922394, ,0.0481955010454397,0.029109491275604533,0.010479481263157897,0.004710201607625288,0.07305335147347762,-0.05957010969357011, ,0.48596811294555664
0.009833670358851795,0.02057457521440859,-0.08052509131152301, ,0.010192507027028456,0.020418347915438752,-0.0809372840238368, ,0.0005683955976748435, ,0.004879466131580467,0.00018458894800323805,-0.00959581284040466,0.039290126579315535,0.02664337357174812,0.007500713678800451, ,0.010766749132260894, ,0.04747192139088911, ,5.584289773419729e-05, ,0.14344204040584604,-0.2472819066326688,0.09034882042,1.6250970620050638,0.19702983266176513,-1.3231164468107215, ,0.05137896132023322,0.02797669267643596,0.009980458345864663,0.004629092067211273,0.07966621306748624,-0.0649624549124819, ,0.505897045135498
0.009963165430575663,0.02057427106247522,-0.08074835060512546, ,0.010272286871230892,0.020420107656436065,-0.08109773370308421, ,0.0004913155503071411, ,0.005189821705093999,-0.00018711528718495498,-0.008674443261798889,-0.028455918597293024,-0.047133340151763924,-0.006657327185966985, ,0.010110154665658249, ,0.055057161277742406, ,5.60163310744057e-05, ,0.14466995493284773,-0.24657913794111436,0.09057956004,1.6253067519485482,0.19743974216106144,-1.32336902178167, ,0.04775890365297976,0.029118423307293886,0.00891870745800672,0.0025628231051088167,0.0,0.0, ,0.5210630893707275
0.010012708076880608,0.020573537647145913,-0.08083848372177514, ,0.010351876117572122,0.020421803871343614,-0.08125763354189308, ,0.0005601291549728895, ,0.004412655161888692,-1.049092266490464e-05,-0.008447360724614862,0.03538141474961114,0.024727336958652053,-0.0007268234170486152, ,0.009530453234183934, ,0.04316579270368122, ,5.6438966947528887e-05, ,0.14514104163817543,-0.2463088422905165,0.09066641147000001,1.625516441892033,0.1979862881601232,-1.3237330146563153, ,0.04644980007756769,0.02665644425799741,0.008642871144872492,0.011398201470728949,0.0707615163595799,-0.05892034038093185, ,0.5366480350494385
0.010100336095964318,0.020580662795828642,-0.08103293204467572, ,0.010431274840878763,0.020423437019540032,-0.08141698468867686, ,0.0005307888760885732, ,0.005204568104371151,0.0005545474779885983,-0.010759305772053081,0.005211248391027204,-0.008050342099023071,-0.005764462555977249, ,0.011964853227470689, ,0.009589836991257927, ,5.67293594036034e-05, ,0.14608321504883082,-0.24576825098932079,0.09087511416,1.625516441892033,0.19976256265707393,-1.3250180899240875, ,0.04812218131768295,0.026754141967429035,0.011178113347368422,0.010148995756751626,0.03893904401429989,-0.029572524524138482, ,0.5529220104217529
0.010155232349678422,0.02058695462589051,-0.08114546632089438, ,0.01051048311696894,0.020425007559436423,-0.08157578829049275, ,0.0005810395490090229, ,0.005379751369590007,0.0006182599870073477,-0.01120385187253464,-0.05287484979059042,-0.036915578961013704,-0.00970407577135378, ,0.012443884722699654, ,0.06448650660306317, ,5.718204507541905e-05, ,0.14656202448703273,-0.24549795533872293,0.09099178026000002,1.625516441892033,0.19989919915683937,-1.3247211141270812, ,0.04579968221933918,0.02710566739744952,0.01159302148471616,0.009456516065777973,0.006693147035352396,0.027575093194456557, ,0.5694382190704346
0.010244809386742442,0.020596880211287888,-0.08135074501783233, ,0.01058950102265141,0.02042651594847714,-0.0817340454930422, ,0.0005429139528551046, ,0.004051545882264934,0.00042960284604853273,-0.009499019474372882,0.02701384951427982,0.0521426399124894,0.009091372105307962, ,0.010335906037495998, ,0.05872480638780786, ,5.7477746086670776e-05, ,0.147396079637449,-0.24498825496902413,0.09120437182,1.625516441892033,0.2009922911549629,-1.3253674211362307, ,0.04223272877546541,0.024251710083943466,0.009893671751552797,0.008407897697760555,0.09549814366683398,-0.04812412087108758, ,0.5859332084655762
0.010299731238129559,0.020596680539810376,-0.08145630313666988, ,0.010668328635723779,0.02042796264314045,-0.08189175744067351, ,0.0005949371572235509, ,0.00454498989141533,-0.0004061072853858847,-0.008155644269041088,-0.014068135460286872,-0.012573535410796362,-0.005331747145770409, ,0.009345394035751183, ,0.018868126350368414, ,5.81283978928088e-05, ,0.14791350274002205,-0.2446639001883067,0.09131326018000001,1.625516441892033,0.20140220065425923,-1.325538317367039, ,0.04335173209614928,0.029776260294468393,0.008352811494493972,0.007811790737639496,0.02986737516996776,-0.013740303846266733, ,0.5989730358123779
0.010348476541244487,0.020594968824324014,-0.0815459506288273, ,0.010746966034971068,0.02042934809893889,-0.0820489252763816, ,0.0006627273929527427, ,0.005395185753443337,0.0001598042375744626,-0.010641066465791915,-0.038417398052156104,-0.04325595069326086,-0.013764917599887202, ,0.011931716650922696, ,0.05785303455343226, ,5.8972716730112696e-05, ,0.14835369851385283,-0.24436271360621192,0.09140529677,1.6259358217790016,0.20153883715402465,-1.325568056530595, ,0.045777588788456725,0.030484080166550197,0.010940117802197802,0.010262728361692432,0.0,0.009757982432257558, ,0.6136870384216309
0.01044503282431513,0.02060199391449728,-0.08176050172259597, ,0.010825413300163584,0.02043067277042061,-0.0822055501418105, ,0.0006100068329615539, ,0.004385013424965443,0.0004398030545203472,-0.010775251491814797,0.04132092727827931,0.04859979231809222,0.023497209285427804, ,0.011641641386666643, ,0.06379152529326713, ,5.960883871672806e-05, ,0.1493190401231309,-0.2437835086406451,0.09162825865,1.6263552016659708,0.20331511165097538,-1.3269348105385077, ,0.04371116607944301,0.0272770743197674,0.011178113347368422,-0.007973688638365657,0.09753946608321017,-0.06771445603916859, ,0.6278882026672363
0.010493993693881966,0.02060690280379118,-0.0818748490312725, ,0.010903670512056499,0.020431937111169387,-0.08236163317725331, ,0.0006598536911486545, ,0.005437983072421678,0.0004386102950069889,-0.012466063915304066,-0.03400497010824567,-0.024637567293921678,0.008681548339995213, ,0.013607600391960259, ,0.04199223039050886, ,6.037411259726926e-05, ,0.14974379043121325,-0.2434977675242988,0.09174622104,1.6263552016659708,0.20372502115027172,-1.3270240280291752, ,0.0451245561381221,0.03196259399072778,0.012814812164119069,-0.007973688638365657,0.02311936139972268,0.0016879134649235138, ,0.6412031650543213
0.010602045812917118,0.020618286338234267,-0.0821264838265107, ,0.010981737752386592,0.02043314157380571,-0.08251717552165448, ,0.0005753994728427577, ,0.005527423851890115,0.0004440501635363211,-0.01203078651572026,-0.004823464960504314,-0.02027627516616288,0.008881203927237909, ,0.013247241945892618, ,0.020842094347708923, ,6.0845657920299733e-05, ,0.15063962744462328,-0.24287994889436082,0.09200547904,1.6263552016659708,0.20427156714933348,-1.3270613059432583, ,0.04744847077923539,0.03057246828558981,0.012424969984399377,-0.007973688638365657,0.030123180734827497,-0.026044544185866117, ,0.6601531505584717
0.010705669549596541,0.020620546438744957,-0.0823618796997753, ,0.011059615103872805,0.020434286609987227,-0.08267217831260994, ,0.0005062167602202503, ,0.005178245523146072,-7.658637500368226e-05,-0.009502631732319147,-0.036912669563513745,-0.017754825021382852,0.011813420899650814, ,0.010822204119812993, ,0.040960699558964385, ,6.108824751177451e-05, ,0.1516821963826436,-0.24220034840142907,0.09224918156,1.6263552016659708,0.20645775114558051,-1.3286806349221199, ,0.047903554547436035,0.029163165813912345,0.009832599703703704,-0.007973688638365657,0.03304812081570426,0.007547445855729987, ,0.6742310523986816
0.01075885942883237,0.020614972872482828,-0.082450368128662, ,0.011137302650212594,0.020435372670409797,-0.08282664268636913, ,0.0005630790771916664, ,0.005541347451529995,-0.000739089580371603,-0.008601380967610204,-0.08837695083366762,-0.048955520894924005,-0.012642098118999107, ,0.010258486220508312, ,0.10103033414608387, ,6.148902072067761e-05, ,0.15216872855371974,-0.24187599362071163,0.09233992186000001,1.6261455117224866,0.20659438764534596,-1.328465337865254, ,0.049998388597719066,0.03447037470340384,0.008795588912203204,0.010857364579894157,-0.001805311973144741,0.05597596663134986, ,0.6883761882781982
0.010807136021195485,0.0206085598612877,-0.08252399580294584, ,0.011214800476081564,0.020436400204807817,-0.08298056977783576, ,0.0006358372823636694, ,0.005390790054093424,-0.0006507194530183394,-0.008809881766573026,-0.06004201895166365,-0.04543165960899222,-0.013062880941233573, ,0.010348819737286224, ,0.07529329107927951, ,6.208442401725421e-05, ,0.15259347886180208,-0.2415825297714911,0.09241510668000001,1.6261455117224866,0.20645775114558051,-1.328108883741136, ,0.04792774826185393,0.03392811639559198,0.00900441578292821,0.010019425415464713,0.0,0.028039294092466333, ,0.7031140327453613
0.010933731501544992,0.020602625188300538,-0.08276093030659451, ,0.01129210866713183,0.020437369661955175,-0.08313396072056839, ,0.0005430426056501113, ,0.005147689212007595,0.0002627139678355608,-0.011561841089584532,0.07501085613000043,0.05590739693975112,0.004687257142763865, ,0.012658747656585959, ,0.09355354276205843, ,6.239252526023526e-05, ,0.15380594792305533,-0.2407948110183202,0.09266010549,1.62677458155294,0.20782411614323493,-1.3288963478175377, ,0.051240249221636495,0.03151675242725698,0.012030824410876134,0.01103029810459459,0.10821055988860921,-0.10267247900505755, ,0.7176790237426758
0.010989319522889774,0.02060559927060998,-0.08288089632844817, ,0.01136922730999002,0.02043828148966575,-0.08328681664678228, ,0.0005806000958973183, ,0.005672852785752404,0.00018237036918036895,-0.011908976562461523,-0.012255314459902734,-0.006848137259437507,0.028463428467149894, ,0.013192355378992476, ,0.014038855968290997, ,6.27932283774377e-05, ,0.15431564829275415,-0.24047045623760277,0.09278454933000001,1.6269842714964244,0.20850729864206213,-1.3293717585958795, ,0.05061170216451775,0.03243231085388612,0.012319266450116011,-0.02334984569206081,0.05095991836158212,-0.02235452489837357, ,0.7325592041015625
0.010998606567694172,0.020605687296123894,-0.08290229238487648, ,0.01144615649225565,0.02043913613479444,-0.08343913868735056, ,0.0007185013408444462, ,0.005837725629846863,0.00016469413197055642,-0.011694712169289474,-0.024362879012792986,-0.022592327219307488,0.025473520678458192, ,0.013071819208090502, ,0.03322593722118971, ,6.372950774888925e-05, ,0.15440059835437062,-0.240408674374609,0.09280658626,1.6269842714964244,0.20864393514182755,-1.3294014977594353, ,0.05126793169015169,0.032005713847713585,0.01210396012158055,-0.02334984569206081,0.03534685869654009,-0.010099885008948258, ,0.7440202236175537
0.011163307180347885,0.0206145906605225,-0.08323212535481533, ,0.011522896302499844,0.020439934043237514,-0.08359092797180417, ,0.000537167188768535, ,0.005891126437100813,0.0002214391333286689,-0.011729835463219209,-0.05200494366726488,-0.05309541522654147,0.017923454217260697, ,0.013127964274093393, ,0.0743211750570437, ,6.414673185205691e-05, ,0.15582158120322792,-0.23954372829269585,0.09314880682000001,1.6269842714964244,0.2094637541404202,-1.329824968961192, ,0.05286737691279709,0.029683122164050918,0.012271811648690295,-0.019222820843477147,0.05739348364904536,-0.05105790980239611, ,0.7558491230010986
0.011215402068727145,0.020617589037553122,-0.0833425235492774, ,0.011599446830263956,0.020440675659933693,-0.083742185628334, ,0.0005818234263764461, ,0.00541480097216144,0.0003254141229510203,-0.011196700573594265,0.04143428793907631,0.036298696501515626,0.005911141946188524, ,0.012441546031513229, ,0.05508534658829598, ,6.466912717105983e-05, ,0.15633128157292675,-0.23925798717634952,0.09326417663000001,1.62677458155294,0.21042020963877828,-1.3306865730272075, ,0.05237138055103244,0.029343519343992198,0.011712361411764708,0.007454529846967116,0.08984752851468356,-0.06776438942078873, ,0.7679600715637207
0.011278321530967032,0.020622353426588462,-0.08346383762652371, ,0.01167580816605696,0.02044136142886451,-0.08389291278379181, ,0.0006122574776185804, ,0.006109977137661467,0.0005792201041331065,-0.011732289322581198,-0.0009040703811141685,-0.01683693064014067,-0.0037027910574299644, ,0.013240616651067674, ,0.016861178913351225, ,6.525461728748862e-05, ,0.15690276380561935,-0.23895680059425478,0.09339121305,1.62677458155294,0.21096675563784006,-1.3311322446419933, ,0.053735527496302816,0.027837178515245174,0.012290749629629632,0.00693198090040728,0.03643816621387579,-0.024917517438145433, ,0.7841181755065918
0.011393366803303195,0.020628812984825436,-0.08368422036218824, ,0.01175198040135506,0.02044199179305531,-0.0840431105636906, ,0.0005406552017104047, ,0.005795937937507663,8.696786214770748e-05,-0.010302001502406781,-0.01468540289405034,-0.04172613494995225,-0.005122835881816484, ,0.011820816170640616, ,0.04423495540838853, ,6.563797846482916e-05, ,0.157852659949149,-0.23840848656018485,0.09361287864000001,1.6269842714964244,0.21124002863737093,-1.331191722969105, ,0.0491948893512031,0.02894964660111982,0.010676147131367292,0.001640065475582024,0.0,-0.007389433033330592, ,0.7958841323852539
0.011446594734247419,0.020630086909470935,-0.08379121770349593, ,0.011827963628599303,0.020442567194575923,-0.08419278009220629, ,0.0005846864365454857, ,0.005115514363491517,0.0001984709154524366,-0.011403056528859121,0.06029078451569861,0.04919094734165903,0.0050831508431129855, ,0.012499503034430016, ,0.07781213147760804, ,6.612116470725071e-05, ,0.15837780578459623,-0.2380841317794674,0.09373213732,1.6271939614399091,0.21205984763596358,-1.3318602303912837, ,0.04889074784053105,0.031001941051444225,0.011869457168405368,0.009005246838206728,0.0992548072527227,-0.08784941613122563, ,0.8081409931182861
0.011461854542002938,0.020630860206588744,-0.08382345890680767, ,0.01190375794119399,0.020443088074541354,-0.08434192249217835, ,0.0007066409817903632, ,0.005121717627223623,0.00015629381421205908,-0.011423465180052297,0.062467989229323825,0.052387250264339304,0.005707912988879787, ,0.012520062936313116, ,0.08152713336112227, ,6.689401755898851e-05, ,0.15852453770920652,-0.23799918171785095,0.09376584086,1.6271939614399091,0.21233312063549445,-1.3320830661986762, ,0.04927151690470964,0.0315272231091265,0.011887172776119406,0.009005246838206728,0.10294639487020964,-0.09048276317023231, ,0.8265180587768555
0.011628230085359705,0.020640137514635434,-0.08414934046340056, ,0.011979363433505436,0.020443554873112394,-0.08449053888511097, ,0.000527594281722127, ,0.005852519059786582,-0.0003118397697013753,-0.00991077070261444,-0.02813808563280065,-0.03305092869328957,-0.008065793693436817, ,0.011514017513749636, ,0.043406401082677744, ,6.720416541247303e-05, ,0.15995324329093805,-0.2371651265674347,0.09410546884000001,1.6271939614399091,0.21328957613385255,-1.3326179553041295, ,0.05121259663166258,0.03226689614364868,0.01027665259354839,0.0071636347981634315,0.016989173684605497,-0.0023014158466802374, ,0.8377971649169922
0.011690116930490612,0.020638312054974094,-0.08426299927156276, ,0.012054780200860241,0.02044396802949675,-0.08463863039117432, ,0.0005584332001377109, ,0.005981381386138732,7.810061593044494e-05,-0.011437463439252803,-0.027624027713583216,-0.030932223713151498,-0.007256405333187177, ,0.012907307733098337, ,0.041471546573949136, ,6.757997221068821e-05, ,0.16050155732500798,-0.2368176035880946,0.09422343123000002,1.6271939614399091,0.21369948563314886,-1.3328705302750783, ,0.049788531772545004,0.03195183217456929,0.011860619151154134,0.006548574959936044,0.017855677660992914,-0.002579362836373998, ,0.8493452072143555
0.011736659672632738,0.020638035096740493,-0.08436148181642737, ,0.01213000833954352,0.020444327981949315,-0.08478619812920443, ,0.0006104339165054257, ,0.005166190988311616,-3.266054416608631e-05,-0.011102527579066561,0.054667586886898496,0.06262026443141888,0.011684365307887117, ,0.012245681470738613, ,0.0831254618320985, ,6.806912276735001e-05, ,0.1609417530988388,-0.2365318624717483,0.09432583814,1.6271939614399091,0.21451930463174151,-1.3334573589571166, ,0.051074780171405154,0.03242123046070064,0.011576171162790699,0.006115318882824878,0.11597700118777506,-0.0837674949749977, ,0.8671882152557373
0.01184947353470343,0.020634226983096436,-0.08456547390150981, ,0.012205047946796808,0.020444635167773218,-0.08493324321670546, ,0.0005455570439216991, ,0.005841032482800435,-0.0006663858191093156,-0.00944383388679943,-0.05140332168370369,-0.04958135976101356,-0.004645688883526739, ,0.011124195656608214, ,0.07141857349983811, ,6.839181054927378e-05, ,0.16197659930398486,-0.23589859837606186,0.09453842970000001,1.6274036513833936,0.21561239662986503,-1.3340219872261254, ,0.049684262596058,0.034432852524844265,0.00972454915750916,0.00016104674394666962,0.0,0.0174788642297325, ,0.8785951137542725
0.01184947353470343,0.020634226983096436,-0.08456547390150981, ,0.012279899120817745,0.02044489002332052,-0.08507976676985049, ,0.0006968585394074749, ,0.005841032482800435,-0.0006663858191093156,-0.00944383388679943,-0.05140332168370369,-0.04958135976101356,-0.004645688883526739, ,0.011124195656608214, ,0.07141857349983811, ,6.92171581926717e-05, ,0.16197659930398486,-0.23589859837606186,0.09453842970000001,1.6274036513833936,0.21561239662986503,-1.3340219872261254, ,0.049684262596058,0.034432852524844265,0.00972454915750916,0.00016104674394666962,0.0,0.0174788642297325, ,0.8878390789031982
0.011911058305573511,0.020630916763265426,-0.0846761084113927, ,0.012354561960756964,0.020445092983992833,-0.08522576990348127, ,0.0007303107044191986, ,0.006036650096639021,-5.4468360500894565e-05,-0.011312830507658451,-0.0370356823036313,-0.03905468090811702,-0.0105676396119172, ,0.012822801772099393, ,0.0538229475153346, ,7.010043385578857e-05, ,0.16247857694080947,-0.23554335266384754,0.09465250322,1.6276133413268778,0.21561239662986503,-1.3339403084859849, ,0.049143936591647217,0.03279092659242252,0.011712361411764708,0.007973735678145535,0.008450534842115777,0.006097116288733582, ,0.8985300064086914
0.011951797845666273,0.020631327950398036,-0.0847619200234466, ,0.012429036566717646,0.02044524448424212,-0.08537125373111036, ,0.0007960348111374401, ,0.005186753821350668,0.00012906446352691235,-0.011531731887428391,0.05426619348937943,0.0632783340464702,0.009722892220407151, ,0.012645153742148571, ,0.08336046491951324, ,7.111300804183061e-05, ,0.16285699085164645,-0.23530394794474657,0.09474194723000001,1.6276133413268778,0.21629557912869224,-1.334497398004467, ,0.049867021312911604,0.03151675242725698,0.012039918004535148,0.007973735678145535,0.11495502745352838,-0.0821572171461807, ,0.908682107925415
0.012043566830133452,0.020637234663364142,-0.08497960029429522, ,0.012503323039753244,0.02044534495757158,-0.08551621936492197, ,0.0007322277367277473, ,0.005649479240390903,0.0005495744096803536,-0.01311340840499231,0.028583639489502433,0.021785980001985228,0.0003787810111915669, ,0.01428916119705794, ,0.03593957405617676, ,7.19594410677151e-05, ,0.16369876873493694,-0.23475563391067664,0.09496879798,1.6276133413268778,0.21820849012540838,-1.3358938911759357, ,0.047212408735557605,0.0308006950855147,0.013649367197943447,0.007973735678145535,0.0693564992474556,-0.056555574587607134, ,0.917957067489624
0.01211073229550586,0.020642105315556582,-0.08512075217728231, ,0.012577421481865525,0.020445394836536276,-0.08566066791577231, ,0.0007402721215138753, ,0.007237775319203701,0.0007524490645639511,-0.01646250728334013,-0.03500160624117005,-0.032781768936109255,-0.008708670031796043, ,0.017999047675365056, ,0.047955767170311754, ,7.280494088143799e-05, ,0.16421619183750996,-0.23441583366421076,0.09511527875,1.6276133413268778,0.21834512662517383,-1.3358419515993512, ,0.05379645213065237,0.03750867255275525,0.01705440205567452,0.007576965433677262,0.01982978359122778,-0.0004393130703383881, ,0.9272720813751221
0.012188745087691277,0.020655618690112464,-0.08531316819566852, ,0.01265133199600356,0.02044539455274404,-0.08580460049319091, ,0.0007068850958411516, ,0.007768358637169864,0.0016195506065674772,-0.019159402960144453,-0.0401239985768512,-0.043677472843437384,-0.0076324906861842965, ,0.02073772074920763, ,0.059309816338107925, ,7.355848020327088e-05, ,0.16477222860445415,-0.23402969702049956,0.09531490741000001,1.6278230312703625,0.21861839962470472,-1.3359831086666034, ,0.05337285801938739,0.03490141285710584,0.019911014400000003,0.004602252559596202,0.008858326150127441,0.006603619450738363, ,0.9402101039886475
0.012268888432050212,0.020671577384356193,-0.08552062773454319, ,0.012725054686062377,0.020445344536855724,-0.08594801820538149, ,0.0006647793371871931, ,0.006494163710400385,0.0010779926356268928,-0.016894126448963986,0.05316574148037682,0.05830188199060081,0.011641123968868142, ,0.018131402011249204, ,0.07890313133591871, ,7.420410397755531e-05, ,0.16540549270014054,-0.23362811491103988,0.09553138784000001,1.628032721213847,0.21971149162282821,-1.3367927731560343, ,0.05370511689783292,0.03490141285710584,0.01762036672566372,0.004777102542914258,0.11452216503131943,-0.08488317285992715, ,0.9506611824035645
0.012341428728276737,0.020681098209419317,-0.08569888255936818, ,0.012798589656880001,0.02044524521858682,-0.08609092215922258, ,0.0006467749189478746, ,0.006805554528902093,0.0005732296434569528,-0.015360585877954141,0.0005630913930192432,-0.00247131838118701,-0.00046927019049396716, ,0.01681046588241985, ,0.002534488373374984, ,7.479712419058777e-05, ,0.16597697493283317,-0.23324197826732865,0.09571675731000001,1.628032721213847,0.22053131062142087,-1.3374612805782127, ,0.053493202682339785,0.036123693018070335,0.015960732985971945,0.004777102542914258,0.051524518031864405,-0.034545872320278045, ,0.9602072238922119
0.012416497644869988,0.020684774561396897,-0.0858535779112748, ,0.012871937014237285,0.02044509702670739,-0.08623331346026905, ,0.0006395853555034563, ,0.007287841031218224,6.795259837325611e-05,-0.014363836041454189,-0.036777160825755224,-0.0425216921281182,-0.00786883748641167, ,0.016107049086586653, ,0.05621968737376844, ,7.536223000878036e-05, ,0.1665639026312742,-0.23285584162361742,0.09587749727000001,1.628032721213847,0.22080458362095176,-1.3374390801651839, ,0.05679050961009622,0.03894006629399704,0.01488673973831776,0.004777102542914258,0.013556215449114265,-0.0006075070994649018, ,0.9696722030639648
0.012486316560912297,0.020682359096185383,-0.08598327674084218, ,0.012945096864854701,0.02044490038904339,-0.08637519321275233, ,0.0006484323602639958, ,0.006907194632758844,-0.0005489946153694383,-0.011307337477997855,-0.026574067667641775,-0.029368545187047367,-0.004270284255683406, ,0.013261471020360151, ,0.039606720818133545, ,7.593406413555952e-05, ,0.16715083032971528,-0.23246970497990618,0.09601231143000001,1.628032721213847,0.2212144931202481,-1.3376916551361326, ,0.05983413717431954,0.03768742714792326,0.011781665325443788,0.004777102542914258,0.03026222166814855,-0.009283149586826946, ,0.9790689945220947
0.012546303831259233,0.0206742726755933,-0.08608617677735153, ,0.01301806931639278,0.0204446557324771,-0.08651656251958183, ,0.0006786151344056829, ,0.006067052210090652,-0.0008654525118704479,-0.010144705398868189,0.053854541805071224,0.06080662973041901,0.01322310596031531, ,0.011852138127784967, ,0.08122658299324627, ,7.655686583082593e-05, ,0.16774548076103057,-0.2320912910690692,0.0961199035,1.628032721213847,0.22230758511837162,-1.338582998365704, ,0.0621053282450725,0.03826489578970596,0.01064760128342246,0.004777102542914258,0.1257022234441725,-0.08870497729344778, ,0.9885590076446533
0.012615490723420787,0.02066810122381864,-0.08619985535948378, ,0.013090854477448096,0.02044436348294805,-0.08665742248234526, ,0.0006967043470917491, ,0.0075947413430491224,-0.000406704303540681,-0.012823334924522938,0.0026656385023002163,-0.009671993647573495,-0.00010905673168183679, ,0.01490917244667952, ,0.010032584064081543, ,7.736363625183512e-05, ,0.16839419032246544,-0.23170515442535797,0.09623916218,1.628032721213847,0.22312740411696425,-1.339169827047742, ,0.06720746569296797,0.040210568456979144,0.013430701112984824,0.004777102542914258,0.05822861934704867,-0.04055944529709096, ,0.9966561794281006
0.012615490723420787,0.02066810122381864,-0.08619985535948378, ,0.01316345245755348,0.020444024065453686,-0.08679777420130999, ,0.0008414152223399667, ,0.0075947413430491224,-0.000406704303540681,-0.012823334924522938,0.0026656385023002163,-0.009671993647573495,-0.00010905673168183679, ,0.01490917244667952, ,0.010032584064081543, ,7.845371960702493e-05, ,0.16839419032246544,-0.23170515442535797,0.09623916218,1.628032721213847,0.22312740411696425,-1.339169827047742, ,0.06720746569296797,0.040210568456979144,0.013430701112984824,0.004777102542914258,0.05822861934704867,-0.04055944529709096, ,1.0040571689605713
0.012698483568952933,0.020666504370641995,-0.08634933960637745, ,0.013235863367174769,0.02044363790405039,-0.08693761877542396, ,0.0008273565677517881, ,0.008462068193796213,0.00025390081443927524,-0.01636916088010985,-0.036304854663498344,-0.04627526922230863,-0.008298742985985097, ,0.01842879517654231, ,0.058817019972793094, ,7.949750352841455e-05, ,0.16941359106186307,-0.2310564448639231,0.09648934615000002,1.6282424111573317,0.22340067711649514,-1.3390659478945726, ,0.0673983959932321,0.04083345161724216,0.018372331626297582,0.005671269293897886,0.0,0.017348849938509027, ,1.0175251960754395
0.012837180077458507,0.020677489222689267,-0.08664455208008609, ,0.013308087317711105,0.020443205421853818,-0.08707695730231609, ,0.0006808941213345833, ,0.007903390101648132,0.0007156660750158956,-0.019059960147484074,0.04046803396341985,0.05196833887432632,0.0075580215357496, ,0.02064601254124969, ,0.06586628502355824, ,8.022916503490834e-05, ,0.17016269615066285,-0.2305853581585954,0.09670323400000001,1.6284521011008162,0.2243571326148532,-1.3398458732204475, ,0.06398984595985892,0.04389312745535188,0.01986136099750624,0.008031361648101578,0.11773863544954465,-0.08041772988180299, ,1.0301930904388428
0.012946555341245483,0.0206846865507781,-0.08687944364922683, ,0.013380124421490964,0.020442727041040082,-0.08721579087829734, ,0.0005997132733239999, ,0.00825415137724693,0.00020822613369098395,-0.015239574380307257,-0.017317613381909045,-0.03613632284561183,-0.008817526199196749, ,0.017332599354227762, ,0.040071595177407146, ,8.078675826127707e-05, ,0.17101991949970177,-0.23002932139165125,0.09694823281,1.6284521011008162,0.22517695161344586,-1.3403510231623448, ,0.0659923098459463,0.0392622844677165,0.015960732985971945,0.008031361648101578,0.028906902857373056,-0.019556290457980543, ,1.0375251770019531
0.012946555341245483,0.0206846865507781,-0.08687944364922683, ,0.013451974791772497,0.0204422031828462,-0.08735412059836198, ,0.000734551026637961, ,0.00825415137724693,0.00020822613369098395,-0.015239574380307257,-0.017317613381909045,-0.03613632284561183,-0.008817526199196749, ,0.017332599354227762, ,0.040071595177407146, ,8.160303602634225e-05, ,0.17101991949970177,-0.23002932139165125,0.09694823281,1.6284521011008162,0.22517695161344586,-1.3403510231623448, ,0.0659923098459463,0.0392622844677165,0.015960732985971945,0.008031361648101578,0.028906902857373056,-0.019556290457980543, ,1.044917106628418
0.013035021996573774,0.020682314954096417,-0.0870323634832177, ,0.013523638542740763,0.02044163426757114,-0.0874919475561878, ,0.0007126646070784094, ,0.00860416278674145,-0.0005410254614422996,-0.014715511551891708,-0.035794385207647,-0.052540310186609596,-0.012434020096806784, ,0.01705492908353868, ,0.06357453512889036, ,8.236337552038368e-05, ,0.17171496545838197,-0.22958912561782044,0.09710767648000002,1.6284521011008162,0.22517695161344586,-1.3402693444222042, ,0.06931843795359444,0.04595493537940474,0.015316164923076924,0.008031361648101578,0.015410269333212639,-0.007886176625669575, ,1.0523622035980225
0.013119892971279062,0.020678320792445734,-0.08716946895946692, ,0.013595115789506155,0.02044102071457646,-0.08762927284413746, ,0.0007025437112938829, ,0.008900083396443376,-0.0004310311598451339,-0.013236273400887337,-0.02681499335735965,-0.061129523207683195,-0.012585568564757836, ,0.015956071128803675, ,0.06675224393285162, ,8.309206733525155e-05, ,0.17242545688281063,-0.22917209804261232,0.09725156467000001,1.6284521011008162,0.22545022461297673,-1.340328822749316, ,0.0749580896986341,0.04106315082582033,0.013960395723049959,0.008031361648101578,0.012395547127070593,-0.012097877674818482, ,1.0603611469268799
0.013189176471190694,0.020672823272204047,-0.08727991055872032, ,0.013666406648102982,0.02044036294228697,-0.08776609755325873, ,0.0007198362594362557, ,0.008900083396443376,-0.0004310311598451339,-0.013236273400887337,-0.02681499335735965,-0.061129523207683195,-0.012585568564757836, ,0.015956071128803675, ,0.06675224393285162, ,8.384297429280049e-05, ,0.17306644371137125,-0.22880912959752378,0.09736823077000001,1.6284521011008162,0.22627004361156938,-1.340915651431354, ,0.0731101244672348,0.041768020052143834,0.012672085536992842,0.008031361648101578,0.11386427967893986,-0.10525153222982639, ,1.0680232048034668
0.013189176471190694,0.020672823272204047,-0.08727991055872032, ,0.013737511235487611,0.02043966136819174,-0.0879024227732864, ,0.0008617174388992972, ,0.007621105524153167,-0.0007917278292338538,-0.011977492560972193,0.06728570793114733,0.03902324687375902,0.005290662513518475, ,0.014218593826887577, ,0.0777829032748125, ,8.48551772576622e-05, ,0.17306644371137125,-0.22880912959752378,0.09736823077000001,1.6284521011008162,0.22627004361156938,-1.340915651431354, ,0.0731101244672348,0.041768020052143834,0.012672085536992842,0.008031361648101578,0.11386427967893986,-0.10525153222982639, ,1.0757780075073242
0.013285993336028373,0.020666138489424266,-0.08743864055624606, ,0.013808429669537181,0.020438916408844737,-0.08803824959264203, ,0.0008271037377504233, ,0.008426202006628983,-0.00014377053187698545,-0.014748689520936964,-0.009124134807023841,-0.027486178969123157,-0.00432253545151377, ,0.016986623937891552, ,0.02896099398227284, ,8.594989658075483e-05, ,0.1739313897932844,-0.22829942922782495,0.09753545218000001,1.6286617910443004,0.22722649910992745,-1.3418589342375102, ,0.06916686702512448,0.04138549566440069,0.015479894577259477,0.005271007683828192,0.04175652426445112,-0.030057688870449427, ,1.081416130065918
0.013285993336028373,0.020666138489424266,-0.08743864055624606, ,0.013879162069047043,0.020438128479865713,-0.08817357909843515, ,0.0009715824057098244, ,0.008426202006628983,-0.00014377053187698545,-0.014748689520936964,-0.009124134807023841,-0.05667023158020684,-0.010660810020875842, ,0.016986623937891552, ,0.02896099398227284, ,8.730680288487567e-05, ,0.17461871301909038,-0.22785151072111992,0.09770785875000002,1.6286617910443004,0.22749977210945835,-1.342081770044903, ,0.06967470011635153,0.04647254728622467,0.020061475465994964,0.005271007683828192,0.012171629136986396,-0.005933190644578427, ,1.087759017944336
0.013374392255088866,0.020665486667005566,-0.08760384292163531, ,0.013949708553730449,0.020437297995940597,-0.08830841237646433, ,0.0009378043664662237, ,0.00955557356783334,0.00042537270734663963,-0.01925051119797647,-0.03873488329369784,-0.05667023158020684,-0.010660810020875842, ,0.021495862614322972, ,0.06864330766677669, ,8.858446632119248e-05, ,0.17461871301909038,-0.22785151072111992,0.09770785875000002,1.6286617910443004,0.22749977210945835,-1.342081770044903, ,0.06967470011635153,0.04647254728622467,0.020061475465994964,0.005271007683828192,0.012171629136986396,-0.005933190644578427, ,1.0934321880340576
0.013468034764260933,0.020675641206804842,-0.08781303995939474, ,0.014020069244214865,0.020436425370823005,-0.08844275051121778, ,0.0008709200091396291, ,0.00955558508960854,0.0016044143402194687,-0.023058366456261876,0.04935733911285851,0.030430673538655546,0.005176570336513992, ,0.025011429695463508, ,0.05798419006843819, ,8.972199754332792e-05, ,0.17532920444351904,-0.22740359221441492,0.09792693176000002,1.6288714809877853,0.228319591108051,-1.3426685987269409, ,0.07092447052202598,0.04347088481835583,0.024171185918057666,0.006026088257255889,0.10318511090348191,-0.0894536719712564, ,1.1000800132751465
0.013468034764260933,0.020675641206804842,-0.08781303995939474, ,0.014090244262042624,0.02043551101733427,-0.08857659458587408, ,0.0010138159767151642, ,0.00955558508960854,0.0016044143402194687,-0.023058366456261876,0.04935733911285851,0.030430673538655546,0.005176570336513992, ,0.025011429695463508, ,0.05798419006843819, ,9.111386667245909e-05, ,0.17532920444351904,-0.22740359221441492,0.09792693176000002,1.6288714809877853,0.228319591108051,-1.3426685987269409, ,0.07092447052202598,0.04347088481835583,0.024171185918057666,0.006026088257255889,0.10318511090348191,-0.0894536719712564, ,1.106133222579956
0.013568761814226294,0.02069324958243421,-0.08805944674866155, ,0.014160233729667872,0.020434555347364602,-0.08870994568230356, ,0.000916466364185708, ,0.010476508713383315,0.0020018299581940654,-0.025679814576567275,0.023270079431282512,0.015626105843691316,0.003403011153922287, ,0.027806787565089156, ,0.02802963811731357, ,9.230926586236306e-05, ,0.17605514133369615,-0.22694795097483567,0.09818489347,1.6288714809877853,0.22927604660640907,-1.3434485240528158, ,0.07437064385460092,0.04566744059599171,0.02690677621621622,0.006026088257255889,0.09139320003236948,-0.06569614480744977, ,1.1121702194213867
0.013680069035153047,0.020716840764997815,-0.08832858383448888, ,0.014230037770454448,0.020433558771873996,-0.08884280488106826, ,0.0008044486199766976, ,0.01143201481220723,0.002343615437266108,-0.02684817160439682,-0.0071351135798931225,-0.022898901490212554,-0.002830651371526441, ,0.029274695805139587, ,0.02398448634590182, ,9.328435056178931e-05, ,0.1768351373539928,-0.22650003246813064,0.09846748469000001,1.6288714809877853,0.2300958656050017,-1.3440353527348539, ,0.07862215539227074,0.04478383273169929,0.02819258676106195,0.006026088257255889,0.056027873062598245,-0.03498960230055682, ,1.1183350086212158
0.013680069035153047,0.020716840764997815,-0.08832858383448888, ,0.014299656508675512,0.02043252170089253,-0.08897517326142358, ,0.0009395764229605804, ,0.01143201481220723,0.002343615437266108,-0.02684817160439682,-0.0071351135798931225,-0.022898901490212554,-0.002830651371526441, ,0.029274695805139587, ,0.02398448634590182, ,9.449707734722169e-05, ,0.1768351373539928,-0.22650003246813064,0.09846748469000001,1.6288714809877853,0.2300958656050017,-1.3440353527348539, ,0.07862215539227074,0.04478383273169929,0.02819258676106195,0.006026088257255889,0.056027873062598245,-0.03498960230055682, ,1.1238701343536377
0.013794868706523545,0.02073606137163971,-0.08858923194900098, ,0.014369090069510785,0.020431444543521693,-0.0891070519013181, ,0.0008310590163768793, ,0.011401011087641457,0.0013630398281348874,-0.024698214159773167,-0.011985001450006277,-0.02820727970989283,-0.004256958056142068, ,0.027236789716771417, ,0.030647702982924838, ,9.54981153441782e-05, ,0.17763830157291216,-0.22602894576280294,0.09874100188000001,1.6288714809877853,0.23064241160406349,-1.344399345609499, ,0.08180770824006102,0.049710288925338283,0.025900506536585367,0.006026088257255889,0.05384229229782824,-0.03502133186720916, ,1.1299920082092285
0.013794868706523545,0.02073606137163971,-0.08858923194900098, ,0.014438338579045388,0.020430327707934882,-0.08923844187739571, ,0.000963846502868558, ,0.011401011087641457,0.0013630398281348874,-0.024698214159773167,-0.011985001450006277,-0.02820727970989283,-0.004256958056142068, ,0.027236789716771417, ,0.030647702982924838, ,9.672966472024371e-05, ,0.17763830157291216,-0.22602894576280294,0.09874100188000001,1.6288714809877853,0.23064241160406349,-1.344399345609499, ,0.08180770824006102,0.049710288925338283,0.025900506536585367,0.006026088257255889,0.05384229229782824,-0.03502133186720916, ,1.1355481147766113
0.013909698678107112,0.02074665826469715,-0.08882973023872578, ,0.014507402164268365,0.020429171601378006,-0.08936934426499528, ,0.000865581039592258, ,0.011012187376291912,0.0006060952454895055,-0.022312624215166197,0.015367187095750927,0.007219861523331794,0.001184087340280639, ,0.024889532370544625, ,0.01697855439352153, ,9.777015666496618e-05, ,0.17847235672332842,-0.22552696812597836,0.09898470440000001,1.6290811709312696,0.23132559410289066,-1.3447930776477, ,0.08533897622164638,0.05179964058868492,0.02339032528634362,0.007743970755389677,0.09166231991694779,-0.061557711847613585, ,1.1417291164398193
0.013909698678107112,0.02074665826469715,-0.08882973023872578, ,0.014576280953070238,0.020427976630170794,-0.08949976013815172, ,0.000997411639998321, ,0.011012187376291912,0.0006060952454895055,-0.022312624215166197,0.015367187095750927,0.007219861523331794,0.001184087340280639, ,0.024889532370544625, ,0.01697855439352153, ,9.921496986617048e-05, ,0.17847235672332842,-0.22552696812597836,0.09898470440000001,1.6290811709312696,0.23132559410289066,-1.3447930776477, ,0.08533897622164638,0.05179964058868492,0.02339032528634362,0.007743970755389677,0.09166231991694779,-0.061557711847613585, ,1.145693063735962
0.014014072904937593,0.020748321882398568,-0.08903347282236289, ,0.014644975074241916,0.020426743199707043,-0.08962969056959758, ,0.000925702975317743, ,0.010468082716652912,-0.00013873869647012876,-0.020324984123821083,0.011944455950180956,0.005297313838558922,-0.0003086007493574785, ,0.022862742263826636, ,0.013066296080952557, ,0.00010052066651892704, ,0.1793218573394931,-0.22499409955765687,0.09920766628000001,1.6292908608747545,0.23228204960124876,-1.3454913242334343, ,0.08280710432676333,0.054475856233335694,0.02129520256684492,0.007582925920573972,0.08906328023588139,-0.06275680506343331, ,1.1502912044525146
0.014014072904937593,0.020748321882398568,-0.08903347282236289, ,0.014713484657472277,0.020425471714455874,-0.08975913663076274, ,0.0010582991039142177, ,0.010468082716652912,-0.00013873869647012876,-0.020324984123821083,0.011944455950180956,0.005297313838558922,-0.0003086007493574785, ,0.022862742263826636, ,0.013066296080952557, ,0.00010205422245967187, ,0.1793218573394931,-0.22499409955765687,0.09920766628000001,1.6292908608747545,0.23228204960124876,-1.3454913242334343, ,0.08280710432676333,0.054475856233335694,0.02129520256684492,0.007582925920573972,0.08906328023588139,-0.06275680506343331, ,1.1544480323791504
0.014014072904937593,0.020748321882398568,-0.08903347282236289, ,0.014781809833347958,0.020424162577962014,-0.0898880993917757, ,0.001193685812533631, ,0.010468082716652912,-0.00013873869647012876,-0.020324984123821083,0.011944455950180956,0.005297313838558922,-0.0003086007493574785, ,0.022862742263826636, ,0.013066296080952557, ,0.00010381817498661355, ,0.1793218573394931,-0.22499409955765687,0.09920766628000001,1.6292908608747545,0.23228204960124876,-1.3454913242334343, ,0.08280710432676333,0.054475856233335694,0.02129520256684492,0.007582925920573972,0.08906328023588139,-0.06275680506343331, ,1.1583571434020996
0.014132823410418343,0.020750351352561935,-0.08925872897948722, ,0.014849950733349979,0.02042281619284704,-0.09001657992146436, ,0.001093567066256201, ,0.010468082716652912,-0.00013873869647012876,-0.020324984123821083,0.011944455950180956,0.005297313838558922,-0.0003086007493574785, ,0.022862742263826636, ,0.013066296080952557, ,0.00010539176418072186, ,0.18026403075014852,-0.2244303400578385,0.09944488735000001,1.6292908608747545,0.23323850509960684,-1.346107892079028, ,0.0924020852565441,0.05298545033973801,0.024134562909090912,0.007582925920573972,0.09041824442098495,-0.05681369306110124, ,1.1622340679168701
0.014132823410418343,0.020750351352561935,-0.08925872897948722, ,0.014917907489852746,0.02042143296080989,-0.09014457928735692, ,0.0012285255748933153, ,0.010468082716652912,-0.00013873869647012876,-0.020324984123821083,0.011944455950180956,0.005297313838558922,-0.0003086007493574785, ,0.022862742263826636, ,0.013066296080952557, ,0.00010719307753741543, ,0.18026403075014852,-0.2244303400578385,0.09944488735000001,1.6292908608747545,0.23323850509960684,-1.346107892079028, ,0.0924020852565441,0.05298545033973801,0.024134562909090912,0.007582925920573972,0.09041824442098495,-0.05681369306110124, ,1.1660370826721191
0.014255939087056416,0.020756469989735928,-0.08950915283189464, ,0.014985680236122918,0.020420013282627734,-0.09027209855568287, ,0.0011080665313264021, ,0.01315904631928285,0.0009441819354189513,-0.02793608230322549,0.015303974357938144,0.008936735164760243,0.0019827869373377177, ,0.030894605904798193, ,0.01772173388039872, ,0.00010876923340382032, ,0.18119848142792966,-0.22385113509227164,0.09970803422,1.6292908608747545,0.23419496059796494,-1.346887817404903, ,0.0978318985138874,0.061661430512326684,0.02933482784530387,0.007582925920573972,0.10825334312114367,-0.07285348022155763, ,1.1697402000427246
0.014255939087056416,0.020756469989735928,-0.08950915283189464, ,0.015053269106316644,0.02041855755815682,-0.09039913879137253, ,0.001241770904433256, ,0.01315904631928285,0.0009441819354189513,-0.02793608230322549,0.015303974357938144,0.008936735164760243,0.0019827869373377177, ,0.030894605904798193, ,0.01772173388039872, ,0.00011056929041194971, ,0.18119848142792966,-0.22385113509227164,0.09970803422,1.6292908608747545,0.23419496059796494,-1.346887817404903, ,0.0978318985138874,0.061661430512326684,0.02933482784530387,0.007582925920573972,0.10825334312114367,-0.07285348022155763, ,1.1735620498657227
0.014255939087056416,0.020756469989735928,-0.08950915283189464, ,0.015120674235478393,0.020417066186333255,-0.09052570105805982, ,0.0013770737506757374, ,0.01315904631928285,0.0009441819354189513,-0.02793608230322549,0.015303974357938144,0.008936735164760243,0.0019827869373377177, ,0.030894605904798193, ,0.01772173388039872, ,0.00011259369526282859, ,0.18119848142792966,-0.22385113509227164,0.09970803422,1.6292908608747545,0.23419496059796494,-1.346887817404903, ,0.0978318985138874,0.061661430512326684,0.02933482784530387,0.007582925920573972,0.10825334312114367,-0.07285348022155763, ,1.1774041652679443
0.014388016524990254,0.02076906839962885,-0.08979260328940221, ,0.01518789575953921,0.02041553956517366,-0.09065178641808133, ,0.0012259629175716167, ,0.014189192912392736,0.0015113226027226728,-0.03070308563293508,0.02605453823651179,0.010662523206979043,-0.00019049752975489493, ,0.03385700457657088, ,0.028151395697667267, ,0.00011434024941125084, ,0.18217154577008196,-0.22325648466095635,0.10000618092,1.6295005508182387,0.23528805259608845,-1.347697481894334, ,0.10348630486201829,0.06235015871121602,0.03230996251521299,0.010565046454467248,0.11519869560752544,-0.0836243594613864, ,1.181272029876709
0.014388016524990254,0.02076906839962885,-0.08979260328940221, ,0.01525493381531578,0.0204139780917759,-0.09077739593247823, ,0.0013592097942750085, ,0.014189192912392736,0.0015113226027226728,-0.03070308563293508,0.02605453823651179,0.010662523206979043,-0.00019049752975489493, ,0.03385700457657088, ,0.028151395697667267, ,0.00011630638731638564, ,0.18217154577008196,-0.22325648466095635,0.10000618092,1.6295005508182387,0.23528805259608845,-1.347697481894334, ,0.10348630486201829,0.06235015871121602,0.03230996251521299,0.010565046454467248,0.11519869560752544,-0.0836243594613864, ,1.185500144958496
0.014388016524990254,0.02076906839962885,-0.08979260328940221, ,0.015321788540506656,0.02041238216232044,-0.09090253066099618, ,0.001493684712066205, ,0.014189192912392736,0.0015113226027226728,-0.03070308563293508,0.02605453823651179,0.010662523206979043,-0.00019049752975489493, ,0.03385700457657088, ,0.028151395697667267, ,0.00011849195393238812, ,0.18217154577008196,-0.22325648466095635,0.10000618092,1.6295005508182387,0.23528805259608845,-1.347697481894334, ,0.10348630486201829,0.06235015871121602,0.03230996251521299,0.010565046454467248,0.11519869560752544,-0.0836243594613864, ,1.194162130355835
0.014531693868889306,0.020784097694925487,-0.09010850077243922, ,0.01538846007369257,0.020410752172070404,-0.09102719166208689, ,0.0013105068331949136, ,0.01485404212538877,0.0014434561677674337,-0.03285927964104872,0.018934370451560774,0.003942213970161563,-0.00212236337675629, ,0.03608958841133726, ,0.019339419001629193, ,0.00012034605224902049, ,0.1831986692423538,-0.2226154978323957,0.10033803116000001,1.6295005508182387,0.23638114459421197,-1.3483437889034837, ,0.10509074369708835,0.06788050183009356,0.034477947012987016,0.010251296655333083,0.10999108685907506,-0.08207795118564723, ,1.1986660957336426
0.014531693868889306,0.020784097694925487,-0.09010850077243922, ,0.015454948554334581,0.02040908851537263,-0.09115137999290814, ,0.001442438271619073, ,0.01485404212538877,0.0014434561677674337,-0.03285927964104872,0.018934370451560774,0.003942213970161563,-0.00212236337675629, ,0.03608958841133726, ,0.019339419001629193, ,0.0001224144621752185, ,0.1831986692423538,-0.2226154978323957,0.10033803116000001,1.6295005508182387,0.23638114459421197,-1.3483437889034837, ,0.10509074369708835,0.06788050183009356,0.034477947012987016,0.010251296655333083,0.10999108685907506,-0.08207795118564723, ,1.203261137008667
0.014816433690512254,0.020809187211413848,-0.09072610611828029, ,0.015521254122770486,0.02040739158565875,-0.09127509670932546, ,0.0009795928928186125, ,0.015509516411240409,0.0006482013499354274,-0.03073503610016844,-0.032336629298944805,-0.0423081277091251,-0.002988538384690985, ,0.03443265468097473, ,0.05325042570984401, ,0.00012367477773005242, ,0.18519113432390374,-0.22132580144240022,0.10098617616000001,1.6297102407617232,0.2381574190911627,-1.3493838279508341, ,0.11099057492218804,0.07024199967318341,0.03230996251521299,0.003914903922664368,0.06978396073621108,-0.03484127140531767, ,1.2071290016174316
0.014816433690512254,0.020809187211413848,-0.09072610611828029, ,0.015587376920215563,0.02040566177544559,-0.09139834286591193, ,0.0010995855972888659, ,0.015509516411240409,0.0006482013499354274,-0.03073503610016844,-0.032336629298944805,-0.0423081277091251,-0.002988538384690985, ,0.03443265468097473, ,0.05325042570984401, ,0.00012513159147676826, ,0.18519113432390374,-0.22132580144240022,0.10098617616000001,1.6297102407617232,0.2381574190911627,-1.3493838279508341, ,0.11099057492218804,0.07024199967318341,0.03230996251521299,0.003914903922664368,0.06978396073621108,-0.03484127140531767, ,1.2109711170196533
0.014816433690512254,0.020809187211413848,-0.09072610611828029, ,0.015653317088758834,0.020403899476336262,-0.09152111951594975, ,0.0012233880304053204, ,0.015509516411240409,0.0006482013499354274,-0.03073503610016844,-0.032336629298944805,-0.0423081277091251,-0.002988538384690985, ,0.03443265468097473, ,0.05325042570984401, ,0.00012700574922238012, ,0.18519113432390374,-0.22132580144240022,0.10098617616000001,1.6297102407617232,0.2381574190911627,-1.3493838279508341, ,0.11099057492218804,0.07024199967318341,0.03230996251521299,0.003914903922664368,0.06978396073621108,-0.03484127140531767, ,1.212893009185791
0.014816433690512254,0.020809187211413848,-0.09072610611828029, ,0.015719074771363174,0.02040210507902058,-0.09164342771143046, ,0.0013497983881354762, ,0.015509516411240409,0.0006482013499354274,-0.03073503610016844,-0.032336629298944805,-0.0423081277091251,-0.002988538384690985, ,0.03443265468097473, ,0.05325042570984401, ,0.00012908887126482151, ,0.18519113432390374,-0.22132580144240022,0.10098617616000001,1.6297102407617232,0.2381574190911627,-1.3493838279508341, ,0.11099057492218804,0.07024199967318341,0.03230996251521299,0.003914903922664368,0.06978396073621108,-0.03484127140531767, ,1.214860200881958
0.014967245091922507,0.02080518298605715,-0.09100464642432105, ,0.01578465011186187,0.020400278973276297,-0.09176526850305608, ,0.0011877054234309603, ,0.015607177884812192,-0.0007467246544445929,-0.028194295972869585,-0.018676202228669,-0.014669200703727786,0.0025661806962660122, ,0.03223445244832765, ,0.02374801387766297, ,0.00013088923955081834, ,0.18633409878928897,-0.22058441908647466,0.10127913770000001,1.6297102407617232,0.23911387458952077,-1.3500820745365685, ,0.11997084899933096,0.07862215539227074,0.029662591284916204,0.003914903922664368,0.10745500469287772,-0.05610864830089125, ,1.2168400287628174
0.014967245091922507,0.02080518298605715,-0.09100464642432105, ,0.015850043254958184,0.020398421547969562,-0.0918866429402397, ,0.0013125186925399919, ,0.015607177884812192,-0.0007467246544445929,-0.028194295972869585,-0.018676202228669,-0.014669200703727786,0.0025661806962660122, ,0.03223445244832765, ,0.02374801387766297, ,0.00013289540161022273, ,0.18633409878928897,-0.22058441908647466,0.10127913770000001,1.6297102407617232,0.23911387458952077,-1.3500820745365685, ,0.11997084899933096,0.07862215539227074,0.029662591284916204,0.003914903922664368,0.10745500469287772,-0.05610864830089125, ,1.218766212463379
0.014967245091922507,0.02080518298605715,-0.09100464642432105, ,0.015915254346222693,0.02039653319105593,-0.0920075520711062, ,0.001439283133211419, ,0.015607177884812192,-0.0007467246544445929,-0.028194295972869585,-0.018676202228669,-0.014669200703727786,0.0025661806962660122, ,0.03223445244832765, ,0.02374801387766297, ,0.00013510961810446202, ,0.18633409878928897,-0.22058441908647466,0.10127913770000001,1.6297102407617232,0.23911387458952077,-1.3500820745365685, ,0.11997084899933096,0.07862215539227074,0.029662591284916204,0.003914903922664368,0.10745500469287772,-0.05610864830089125, ,1.2206690311431885
0.014967245091922507,0.02080518298605715,-0.09100464642432105, ,0.015980283532092663,0.020394614289580976,-0.09212799694249324, ,0.0015673959048263038, ,0.015607177884812192,-0.0007467246544445929,-0.028194295972869585,-0.018676202228669,-0.014669200703727786,0.0025661806962660122, ,0.03223445244832765, ,0.02374801387766297, ,0.0007526117646894343, ,0.18633409878928897,-0.22058441908647466,0.10127913770000001,1.6297102407617232,0.23911387458952077,-1.3500820745365685, ,0.11997084899933096,0.07862215539227074,0.029662591284916204,0.003914903922664368,0.10745500469287772,-0.05610864830089125, ,1.2226002216339111
0.014967245091922507,0.02080518298605715,-0.09100464642432105, ,0.016045130959869012,0.02039266522968127,-0.0922479785999518, ,0.0016964326519502326, ,0.015607177884812192,-0.0007467246544445929,-0.028194295972869585,-0.018676202228669,-0.014669200703727786,0.0025661806962660122, ,0.03223445244832765, ,0.02374801387766297, ,0.0007612706719120104, ,0.18633409878928897,-0.22058441908647466,0.10127913770000001,1.6297102407617232,0.23911387458952077,-1.3500820745365685, ,0.11997084899933096,0.07862215539227074,0.029662591284916204,0.003914903922664368,0.10745500469287772,-0.05610864830089125, ,1.2245831489562988
0.014967245091922507,0.02080518298605715,-0.09100464642432105, ,0.01610979677771608,0.020390686396584982,-0.0923674980877471, ,0.001826087739922961, ,0.015607177884812192,-0.0007467246544445929,-0.028194295972869585,-0.018676202228669,-0.014669200703727786,0.0025661806962660122, ,0.03223445244832765, ,0.02374801387766297, ,0.0007709508270757463, ,0.18767013157652981,-0.21975036393605843,0.10160839536,1.629919930705208,0.24048023958717518,-1.3511145748333924, ,0.13894134928033788,0.08690196113413075,0.037216849345794396,0.011558359383061823,0.18214261317027644,-0.1293115597522017, ,1.2267529964447021
0.01515272367880796,0.020800762290691804,-0.0913422139834015, ,0.01617428113465856,0.020388678174612852,-0.09248655644885917, ,0.0015883679147408675, ,0.018364683068643608,0.00017242229544958075,-0.03610687233152061,0.05374639198806788,0.04675401307039456,0.007038319374653848, ,0.04050922787741605, ,0.07123588295851, ,0.0007783149449826393, ,0.18767013157652981,-0.21975036393605843,0.10160839536,1.629919930705208,0.24048023958717518,-1.3511145748333924, ,0.13894134928033788,0.08690196113413075,0.037216849345794396,0.011558359383061823,0.18214261317027644,-0.1293115597522017, ,1.2290031909942627
0.01515272367880796,0.020800762290691804,-0.0913422139834015, ,0.016238584180580315,0.02038664094717887,-0.09260515472498385, ,0.0017162776095989898, ,0.018364683068643608,0.00017242229544958075,-0.03610687233152061,0.05374639198806788,0.04675401307039456,0.007038319374653848, ,0.04050922787741605, ,0.07123588295851, ,0.0007866896116309996, ,0.18767013157652981,-0.21975036393605843,0.10160839536,1.629919930705208,0.24048023958717518,-1.3511145748333924, ,0.13894134928033788,0.08690196113413075,0.037216849345794396,0.011558359383061823,0.18214261317027644,-0.1293115597522017, ,1.2309000492095947
0.01515272367880796,0.020800762290691804,-0.0913422139834015, ,0.016302706066222993,0.020384575096791133,-0.09272329395653343, ,0.0018447366109875377, ,0.018364683068643608,0.00017242229544958075,-0.03610687233152061,0.05374639198806788,0.04675401307039456,0.007038319374653848, ,0.04050922787741605, ,0.07123588295851, ,0.0007960528594129158, ,0.18767013157652981,-0.21975036393605843,0.10160839536,1.629919930705208,0.24048023958717518,-1.3511145748333924, ,0.13894134928033788,0.08690196113413075,0.037216849345794396,0.011558359383061823,0.18214261317027644,-0.1293115597522017, ,1.2327840328216553
0.01515272367880796,0.020800762290691804,-0.0913422139834015, ,0.016366646943183936,0.020382481005052553,-0.09284097518263752, ,0.001973538461252944, ,0.018364683068643608,0.00017242229544958075,-0.03610687233152061,0.05374639198806788,0.04675401307039456,0.007038319374653848, ,0.04050922787741605, ,0.07123588295851, ,0.000806381680481688, ,0.18767013157652981,-0.21975036393605843,0.10160839536,1.629919930705208,0.24048023958717518,-1.3511145748333924, ,0.13894134928033788,0.08690196113413075,0.037216849345794396,0.011558359383061823,0.18214261317027644,-0.1293115597522017, ,1.2347822189331055
0.015331412210677221,0.020809521067128786,-0.09171259797569443, ,0.016430406963914346,0.02038035905266184,-0.09295819944114336, ,0.0017156609551518542, ,0.020956483738337785,0.002231278873368045,-0.04577130189922737,0.11395583695845303,0.09100707604294332,0.007020169018767648, ,0.050390126946021574, ,0.1458355915854666, ,0.0008142884567831677, ,0.189122005356884,-0.21885452692264837,0.10202709703000001,1.630339310592177,0.24280306008318767,-1.3527636429758096, ,0.15159255840011304,0.09003504891695518,0.04812329764350454,0.020254685766407026,0.24578968073748092,-0.19425844889277022, ,1.2369511127471924
0.015331412210677221,0.020809521067128786,-0.09171259797569443, ,0.016493986281717977,0.02037820961941404,-0.09307496776861734, ,0.001842188776497914, ,0.020956483738337785,0.002231278873368045,-0.04577130189922737,0.11395583695845303,0.09100707604294332,0.007020169018767648, ,0.050390126946021574, ,0.1458355915854666, ,0.0008231496664358811, ,0.189122005356884,-0.21885452692264837,0.10202709703000001,1.630339310592177,0.24280306008318767,-1.3527636429758096, ,0.15159255840011304,0.09003504891695518,0.04812329764350454,0.020254685766407026,0.24578968073748092,-0.19425844889277022, ,1.238915205001831
0.015331412210677221,0.020809521067128786,-0.09171259797569443, ,0.016557385050749628,0.020376033084201408,-0.09319128120034505, ,0.0019691179027170468, ,0.020956483738337785,0.002231278873368045,-0.04577130189922737,0.11395583695845303,0.09100707604294332,0.007020169018767648, ,0.050390126946021574, ,0.1458355915854666, ,0.0008329442667459766, ,0.189122005356884,-0.21885452692264837,0.10202709703000001,1.630339310592177,0.24280306008318767,-1.3527636429758096, ,0.15159255840011304,0.09003504891695518,0.04812329764350454,0.020254685766407026,0.24578968073748092,-0.19425844889277022, ,1.2409601211547852
0.015331412210677221,0.020809521067128786,-0.09171259797569443, ,0.016620603426011703,0.020373829825014584,-0.09330714077033231, ,0.002096284229793797, ,0.020956483738337785,0.002231278873368045,-0.04577130189922737,0.11395583695845303,0.09100707604294332,0.007020169018767648, ,0.050390126946021574, ,0.1458355915854666, ,0.0008436505376192632, ,0.189122005356884,-0.21885452692264837,0.10202709703000001,1.630339310592177,0.24280306008318767,-1.3527636429758096, ,0.15159255840011304,0.09003504891695518,0.04812329764350454,0.020254685766407026,0.24578968073748092,-0.19425844889277022, ,1.2435731887817383
0.015331412210677221,0.020809521067128786,-0.09171259797569443, ,0.016683641563354674,0.020371600218942836,-0.09342254751130655, ,0.0022235616262785396, ,0.020956483738337785,0.002231278873368045,-0.04577130189922737,0.11395583695845303,0.09100707604294332,0.007020169018767648, ,0.050390126946021574, ,0.1458355915854666, ,0.0008552464291206016, ,0.189122005356884,-0.21885452692264837,0.10202709703000001,1.630339310592177,0.24280306008318767,-1.3527636429758096, ,0.15159255840011304,0.09003504891695518,0.04812329764350454,0.020254685766407026,0.24578968073748092,-0.19425844889277022, ,1.245652198791504
0.015331412210677221,0.020809521067128786,-0.09171259797569443, ,0.01674649961947486,0.020369344642174894,-0.09353750245471618, ,0.0023508517641859968, ,0.020956483738337785,0.002231278873368045,-0.04577130189922737,0.11395583695845303,0.09100707604294332,0.007020169018767648, ,0.050390126946021574, ,0.1458355915854666, ,0.0008677098069128133, ,0.189122005356884,-0.21885452692264837,0.10202709703000001,1.630339310592177,0.24280306008318767,-1.3527636429758096, ,0.15159255840011304,0.09003504891695518,0.04812329764350454,0.020254685766407026,0.24578968073748092,-0.19425844889277022, ,1.2520620822906494
0.015608455535806837,0.02084885298380497,-0.09234701038982898, ,0.016809177751911406,0.0203670634700003,-0.09365200663073234, ,0.0018376262309379174, ,0.024734798838528183,0.0046263189521325455,-0.060464366320309576,0.08562213715838707,0.07508026938164918,0.0038913418811541965, ,0.06549162309139928, ,0.11387444428694424, ,0.0008757256451278968, ,0.1910372431096917,-0.2177192851901374,0.10269727896000001,1.630339310592177,0.24580906307802738,-1.3548881218965687, ,0.15895635101921404,0.09813541009148995,0.06371524608000001,0.020254685766407026,0.23631095131847038,-0.1744189302670821, ,1.2542071342468262
0.015608455535806837,0.02084885298380497,-0.09234701038982898, ,0.016871676119045716,0.02036475707680981,-0.09376606106824989, ,0.001960556022411673, ,0.024734798838528183,0.0046263189521325455,-0.060464366320309576,0.08562213715838707,0.07508026938164918,0.0038913418811541965, ,0.06549162309139928, ,0.11387444428694424, ,0.0008846176974007146, ,0.1910372431096917,-0.2177192851901374,0.10269727896000001,1.630339310592177,0.24580906307802738,-1.3548881218965687, ,0.15895635101921404,0.09813541009148995,0.06371524608000001,0.020254685766407026,0.23631095131847038,-0.1744189302670821, ,1.2562789916992188
0.015608455535806837,0.02084885298380497,-0.09234701038982898, ,0.016933994880100098,0.020362425836095887,-0.09387966679488696, ,0.0020839149644990445, ,0.024734798838528183,0.0046263189521325455,-0.060464366320309576,0.08562213715838707,0.07508026938164918,0.0038913418811541965, ,0.06549162309139928, ,0.11387444428694424, ,0.0008943680816860669, ,0.1910372431096917,-0.2177192851901374,0.10269727896000001,1.630339310592177,0.24580906307802738,-1.3548881218965687, ,0.15895635101921404,0.09813541009148995,0.06371524608000001,0.020254685766407026,0.23631095131847038,-0.1744189302670821, ,1.2585110664367676
0.015881255199381918,0.020898814642749883,-0.0930186835814965, ,0.016996134195134543,0.020360070120454175,-0.09399282483698745, ,0.0015754846940302266, ,0.025467990901354265,0.004618411555107113,-0.06205201134048906,-0.008952327242190647,0.022064353653511674,-0.004246689233414683, ,0.06723392296485453, ,0.02379201301337651, ,0.0008998609575920681, ,0.19272852160914686,-0.2166303798548717,0.10340375701000001,1.630339310592177,0.24799524707427442,-1.356017378434587, ,0.15556875665323078,0.10031389171085707,0.06528201442622952,0.020254685766407026,0.17804555543743275,-0.08279392431816453, ,1.2606031894683838
0.015881255199381918,0.020898814642749883,-0.0930186835814965, ,0.017058094225046446,0.02035769030158384,-0.0941055362196197, ,0.001690861999669043, ,0.025467990901354265,0.004618411555107113,-0.06205201134048906,-0.008952327242190647,0.022064353653511674,-0.004246689233414683, ,0.06723392296485453, ,0.02379201301337651, ,0.0009061889659286839, ,0.19272852160914686,-0.2166303798548717,0.10340375701000001,1.630339310592177,0.24799524707427442,-1.356017378434587, ,0.15556875665323078,0.10031389171085707,0.06528201442622952,0.020254685766407026,0.17804555543743275,-0.08279392431816453, ,1.2625620365142822
0.015881255199381918,0.020898814642749883,-0.0930186835814965, ,0.017119875131568058,0.020355286750288498,-0.09421780196657886, ,0.0018076190991840233, ,0.025467990901354265,0.004618411555107113,-0.06205201134048906,-0.008952327242190647,0.022064353653511674,-0.004246689233414683, ,0.06723392296485453, ,0.02379201301337651, ,0.0009133431733354723, ,0.19272852160914686,-0.2166303798548717,0.10340375701000001,1.630339310592177,0.24799524707427442,-1.356017378434587, ,0.15556875665323078,0.10031389171085707,0.06528201442622952,0.020254685766407026,0.17804555543743275,-0.08279392431816453, ,1.2645339965820312
0.015881255199381918,0.020898814642749883,-0.0930186835814965, ,0.017181477077265056,0.02035285983647701,-0.09432962310038753, ,0.0019254106067041056, ,0.025467990901354265,0.004618411555107113,-0.06205201134048906,-0.008952327242190647,0.022064353653511674,-0.004246689233414683, ,0.06723392296485453, ,0.02379201301337651, ,0.0009213122082438867, ,0.19272852160914686,-0.2166303798548717,0.10340375701000001,1.630339310592177,0.24799524707427442,-1.356017378434587, ,0.15556875665323078,0.10031389171085707,0.06528201442622952,0.020254685766407026,0.17804555543743275,-0.08279392431816453, ,1.2665281295776367
0.016133627799099944,0.0209359866117586,-0.09360754507478895, ,0.01724290022553507,0.02035040992916422,-0.09444100064229533, ,0.0015059991866713854, ,0.025706284569048752,0.0023555800354756423,-0.05644709292251892,-0.05223826930048897,-0.006249617506220823,-0.006331317564200522, ,0.062069607079889996, ,0.0526053364991076, ,0.0009258800752628515, ,0.1942885136497402,-0.2156187018483483,0.10402338363000001,1.630339310592177,0.24949824857169425,-1.3565078667139825, ,0.16561420865352666,0.10958076392433115,0.05943586388059702,0.0181618221294966,0.15962374670631863,-0.04921237808706712, ,1.2690210342407227
0.016133627799099944,0.0209359866117586,-0.09360754507478895, ,0.017304144740604845,0.02034793739647199,-0.09455193561228067, ,0.001614863857188304, ,0.025706284569048752,0.0023555800354756423,-0.05644709292251892,-0.05223826930048897,-0.006249617506220823,-0.006331317564200522, ,0.062069607079889996, ,0.0526053364991076, ,0.0009312210348126612, ,0.1942885136497402,-0.2156187018483483,0.10402338363000001,1.630339310592177,0.24949824857169425,-1.3565078667139825, ,0.16561420865352666,0.10958076392433115,0.05943586388059702,0.0181618221294966,0.15962374670631863,-0.04921237808706712, ,1.2711601257324219
0.016133627799099944,0.0209359866117586,-0.09360754507478895, ,0.0173652107875306,0.020345442605629517,-0.09466242902905143, ,0.0017257807037764723, ,0.025706284569048752,0.0023555800354756423,-0.05644709292251892,-0.05223826930048897,-0.006249617506220823,-0.006331317564200522, ,0.062069607079889996, ,0.0526053364991076, ,0.000937333032266229, ,0.1942885136497402,-0.2156187018483483,0.10402338363000001,1.630339310592177,0.24949824857169425,-1.3565078667139825, ,0.16561420865352666,0.10958076392433115,0.05943586388059702,0.0181618221294966,0.15962374670631863,-0.04921237808706712, ,1.2730731964111328
0.016133627799099944,0.0209359866117586,-0.09360754507478895, ,0.017426098532194168,0.02034292592297454,-0.09477248191004524, ,0.001838281645075933, ,0.025706284569048752,0.0023555800354756423,-0.05644709292251892,-0.05223826930048897,-0.006249617506220823,-0.006331317564200522, ,0.062069607079889996, ,0.0526053364991076, ,0.0009442105025930207, ,0.1942885136497402,-0.2156187018483483,0.10402338363000001,1.630339310592177,0.24949824857169425,-1.3565078667139825, ,0.16561420865352666,0.10958076392433115,0.05943586388059702,0.0181618221294966,0.15962374670631863,-0.04921237808706712, ,1.2749881744384766
0.016133627799099944,0.0209359866117586,-0.09360754507478895, ,0.017486808141302164,0.02034038771395424,-0.09488209527143066, ,0.0019520023794421168, ,0.025706284569048752,0.0023555800354756423,-0.05644709292251892,-0.05223826930048897,-0.006249617506220823,-0.006331317564200522, ,0.062069607079889996, ,0.0526053364991076, ,0.0009518452895388472, ,0.1942885136497402,-0.2156187018483483,0.10402338363000001,1.630339310592177,0.24949824857169425,-1.3565078667139825, ,0.16561420865352666,0.10958076392433115,0.05943586388059702,0.0181618221294966,0.15962374670631863,-0.04921237808706712, ,1.276900053024292
0.016384284496728782,0.020949080312105284,-0.09414696204749219, ,0.01754733978238421,0.020337828343125603,-0.09499127012810801, ,0.0015617883025768064, ,0.026538366800472533,0.0006584600595721784,-0.05471410710088435,0.00568524971596188,0.03877172950426124,0.002370972056656586, ,0.060814077300683576, ,0.03918008083097627, ,0.000956431327230862, ,0.19594890121769848,-0.2144834601158373,0.10459115865000002,1.630339310592177,0.2514111595684104,-1.357250929964327, ,0.181447306995164,0.1221324859182378,0.05771308521739131,0.016113543277175256,0.22267762720394327,-0.11886010167651688, ,1.2791650295257568
0.016384284496728782,0.020949080312105284,-0.09414696204749219, ,0.01760769362379194,0.02033524817415647,-0.09510000749370909, ,0.0016678775159810178, ,0.026538366800472533,0.0006584600595721784,-0.05471410710088435,0.00568524971596188,0.03877172950426124,0.002370972056656586, ,0.060814077300683576, ,0.03918008083097627, ,0.0009617406271469079, ,0.19594890121769848,-0.2144834601158373,0.10459115865000002,1.630339310592177,0.2514111595684104,-1.357250929964327, ,0.181447306995164,0.1221324859182378,0.05771308521739131,0.016113543277175256,0.22267762720394327,-0.11886010167651688, ,1.2810640335083008
0.016384284496728782,0.020949080312105284,-0.09414696204749219, ,0.01766786983469561,0.02033264756982635,-0.09520830838059972, ,0.0017759607778320295, ,0.026538366800472533,0.0006584600595721784,-0.05471410710088435,0.00568524971596188,0.03877172950426124,0.002370972056656586, ,0.060814077300683576, ,0.03918008083097627, ,0.0009677718875223533, ,0.19594890121769848,-0.2144834601158373,0.10459115865000002,1.630339310592177,0.2514111595684104,-1.357250929964327, ,0.181447306995164,0.1221324859182378,0.05771308521739131,0.016113543277175256,0.22267762720394327,-0.11886010167651688, ,1.2830650806427002
0.016384284496728782,0.020949080312105284,-0.09414696204749219, ,0.01772786858508401,0.020330026892027116,-0.09531617379987856, ,0.0018856037392066816, ,0.026538366800472533,0.0006584600595721784,-0.05471410710088435,0.00568524971596188,0.03877172950426124,0.002370972056656586, ,0.060814077300683576, ,0.03918008083097627, ,0.0009745206511376792, ,0.19594890121769848,-0.2144834601158373,0.10459115865000002,1.630339310592177,0.2514111595684104,-1.357250929964327, ,0.181447306995164,0.1221324859182378,0.05771308521739131,0.016113543277175256,0.22267762720394327,-0.11886010167651688, ,1.2850980758666992
0.016384284496728782,0.020949080312105284,-0.09414696204749219, ,0.01778769004576158,0.020327386501764026,-0.0954236047613795, ,0.001996463610435769, ,0.026538366800472533,0.0006584600595721784,-0.05471410710088435,0.00568524971596188,0.03877172950426124,0.002370972056656586, ,0.060814077300683576, ,0.03918008083097627, ,0.0009819800887967893, ,0.19594890121769848,-0.2144834601158373,0.10459115865000002,1.630339310592177,0.2514111595684104,-1.357250929964327, ,0.181447306995164,0.1221324859182378,0.05771308521739131,0.016113543277175256,0.22267762720394327,-0.11886010167651688, ,1.2870330810546875
0.016655601061063924,0.020948432445506357,-0.09466803141307961, ,0.0178473343883477,0.02032472675915611,-0.09553060227367079, ,0.0015978941129140857, ,0.0271962873996014,-0.0011107044230394137,-0.047977977229833435,0.03374956410382637,0.03547925187651155,0.013563548802164519, ,0.055161200238061286, ,0.04896484627711225, ,0.0009864432338990885, ,0.19788730716912883,-0.2132478228559614,0.10514337819000001,1.6305490005356613,0.25387061656418836,-1.3588480585301597, ,0.20147970606894008,0.124210656490145,0.05105388307692308,0.005815229415213597,0.2421386370230361,-0.1505952953045733, ,1.2896580696105957
0.016655601061063924,0.020948432445506357,-0.09466803141307961, ,0.01790680178527377,0.02032204802343744,-0.09563716734405783, ,0.001702082591764242, ,0.0271962873996014,-0.0011107044230394137,-0.047977977229833435,0.03374956410382637,0.03547925187651155,0.013563548802164519, ,0.055161200238061286, ,0.04896484627711225, ,0.0009915917184880466, ,0.19788730716912883,-0.2132478228559614,0.10514337819000001,1.6305490005356613,0.25387061656418836,-1.3588480585301597, ,0.20147970606894008,0.124210656490145,0.05105388307692308,0.005815229415213597,0.2421386370230361,-0.1505952953045733, ,1.2917330265045166
0.016655601061063924,0.020948432445506357,-0.09466803141307961, ,0.017966092409782648,0.0203193506529576,-0.09574330097858191, ,0.0018081305581396732, ,0.0271962873996014,-0.0011107044230394137,-0.047977977229833435,0.03374956410382637,0.03547925187651155,0.013563548802164519, ,0.055161200238061286, ,0.04896484627711225, ,0.0009974241387712725, ,0.19788730716912883,-0.2132478228559614,0.10514337819000001,1.6305490005356613,0.25387061656418836,-1.3588480585301597, ,0.20147970606894008,0.124210656490145,0.05105388307692308,0.005815229415213597,0.2421386370230361,-0.1505952953045733, ,1.293708086013794
0.016655601061063924,0.020948432445506357,-0.09466803141307961, ,0.01802520643592608,0.020316635005182642,-0.09584900418202182, ,0.0019156418165810428, ,0.0271962873996014,-0.0011107044230394137,-0.047977977229833435,0.03374956410382637,0.03547925187651155,0.013563548802164519, ,0.055161200238061286, ,0.04896484627711225, ,0.0010039363208833984, ,0.19788730716912883,-0.2132478228559614,0.10514337819000001,1.6305490005356613,0.25387061656418836,-1.3588480585301597, ,0.20147970606894008,0.124210656490145,0.05105388307692308,0.005815229415213597,0.2421386370230361,-0.1505952953045733, ,1.295659065246582
0.016655601061063924,0.020948432445506357,-0.09466803141307961, ,0.018084144038563496,0.02031390143669579,-0.0959542779578948, ,0.002024301067962594, ,0.0271962873996014,-0.0011107044230394137,-0.047977977229833435,0.03374956410382637,0.03547925187651155,0.013563548802164519, ,0.055161200238061286, ,0.04896484627711225, ,0.0010111219881163505, ,0.19788730716912883,-0.2132478228559614,0.10514337819000001,1.6305490005356613,0.25387061656418836,-1.3588480585301597, ,0.20147970606894008,0.124210656490145,0.05105388307692308,0.005815229415213597,0.2421386370230361,-0.1505952953045733, ,1.2976291179656982
0.016940546346920327,0.02092743681101632,-0.09513030622939544, ,0.018142905393359828,0.020311150303198383,-0.09605912330845699, ,0.0016395662544190647, ,0.02818324472912487,-0.002608149355429614,-0.043665405295828075,0.005740034201025008,-0.02192595638754781,-0.004798600643741914, ,0.05203619265637046, ,0.022661350704113677, ,0.0010155167032653207, ,0.2000496723739117,-0.21194268100021743,0.10563726468000001,1.6307586904791458,0.2561934370602008,-1.3602520904521551, ,0.21373185035691616,0.12911148511356568,0.04671205724340176,0.014004858095474944,0.19396701962808166,-0.12650856645991343, ,1.2995271682739258
0.016940546346920327,0.02092743681101632,-0.09513030622939544, ,0.018201490676784424,0.020308381959510406,-0.09616354123470429, ,0.0017437844156847477, ,0.02818324472912487,-0.002608149355429614,-0.043665405295828075,0.005740034201025008,-0.02192595638754781,-0.004798600643741914, ,0.05203619265637046, ,0.022661350704113677, ,0.0010205741179349, ,0.2000496723739117,-0.21194268100021743,0.10563726468000001,1.6307586904791458,0.2561934370602008,-1.3602520904521551, ,0.21373185035691616,0.12911148511356568,0.04671205724340176,0.014004858095474944,0.19396701962808166,-0.12650856645991343, ,1.3013851642608643
0.016940546346920327,0.02092743681101632,-0.09513030622939544, ,0.018259900066108375,0.02030559675957172,-0.09626753273637287, ,0.00184950355882005, ,0.02818324472912487,-0.002608149355429614,-0.043665405295828075,0.005740034201025008,-0.02192595638754781,-0.004798600643741914, ,0.05203619265637046, ,0.022661350704113677, ,0.001026290872699625, ,0.2000496723739117,-0.21194268100021743,0.10563726468000001,1.6307586904791458,0.2561934370602008,-1.3602520904521551, ,0.21373185035691616,0.12911148511356568,0.04671205724340176,0.014004858095474944,0.19396701962808166,-0.12650856645991343, ,1.3032801151275635
0.016940546346920327,0.02092743681101632,-0.09513030622939544, ,0.018318133739403806,0.02030279505644234,-0.09637109881194028, ,0.001956397346753716, ,0.02818324472912487,-0.002608149355429614,-0.043665405295828075,0.005740034201025008,-0.02192595638754781,-0.004798600643741914, ,0.05203619265637046, ,0.022661350704113677, ,0.0010326614649876667, ,0.2000496723739117,-0.21194268100021743,0.10563726468000001,1.6307586904791458,0.2561934370602008,-1.3602520904521551, ,0.21373185035691616,0.12911148511356568,0.04671205724340176,0.014004858095474944,0.19396701962808166,-0.12650856645991343, ,1.305171012878418
0.016940546346920327,0.02092743681101632,-0.09513030622939544, ,0.018376191875541452,0.02029997720230365,-0.09647424045862545, ,0.00206420513925136, ,0.02818324472912487,-0.002608149355429614,-0.043665405295828075,0.005740034201025008,-0.02192595638754781,-0.004798600643741914, ,0.05203619265637046, ,0.022661350704113677, ,0.0010396787688942224, ,0.2000496723739117,-0.21194268100021743,0.10563726468000001,1.6307586904791458,0.2561934370602008,-1.3602520904521551, ,0.21373185035691616,0.12911148511356568,0.04671205724340176,0.014004858095474944,0.19396701962808166,-0.12650856645991343, ,1.307096004486084
0.017224545290869354,0.020898969760560764,-0.09556801123758202, ,0.01843407465418932,0.02029714354845902,-0.09657695867239065, ,0.0016861586510506198, ,0.029424465758449272,-0.0029794451323810448,-0.04632354487412886,-0.010702744501957165,-0.02736317816737402,-0.002774689312099535, ,0.05495950407502285, ,0.02937820536411591, ,0.00104404687620609, ,0.20218114664719766,-0.21062981641159928,0.10610522537000001,1.6309683804226305,0.2579697115571516,-1.3611287720192249, ,0.21865654736974832,0.1375317993601026,0.04946835875776398,0.01020477267964504,0.19421480341915365,-0.11895490356228283, ,1.3090500831604004
0.017224545290869354,0.020898969760560764,-0.09556801123758202, ,0.018491782255810066,0.020294294445334825,-0.09667925444794138, ,0.0017906376614841783, ,0.029424465758449272,-0.0029794451323810448,-0.04632354487412886,-0.010702744501957165,-0.02736317816737402,-0.002774689312099535, ,0.05495950407502285, ,0.02937820536411591, ,0.0010490575526173522, ,0.20218114664719766,-0.21062981641159928,0.10610522537000001,1.6309683804226305,0.2579697115571516,-1.3611287720192249, ,0.21865654736974832,0.1375317993601026,0.04946835875776398,0.01020477267964504,0.19421480341915365,-0.11895490356228283, ,1.3110380172729492
0.017224545290869354,0.020898969760560764,-0.09556801123758202, ,0.01854931486166131,0.020291430242480566,-0.09678112877872667, ,0.001896252317166225, ,0.029424465758449272,-0.0029794451323810448,-0.04632354487412886,-0.010702744501957165,-0.02736317816737402,-0.002774689312099535, ,0.05495950407502285, ,0.02937820536411591, ,0.0010547055177143447, ,0.20218114664719766,-0.21062981641159928,0.10610522537000001,1.6309683804226305,0.2579697115571516,-1.3611287720192249, ,0.21865654736974832,0.1375317993601026,0.04946835875776398,0.01020477267964504,0.19421480341915365,-0.11895490356228283, ,1.31296706199646
0.017224545290869354,0.020898969760560764,-0.09556801123758202, ,0.0186066726537911,0.020288551288570784,-0.09688258265694168, ,0.0020027443109096243, ,0.029424465758449272,-0.0029794451323810448,-0.04632354487412886,-0.010702744501957165,-0.02736317816737402,-0.002774689312099535, ,0.05495950407502285, ,0.02937820536411591, ,0.001060983920318287, ,0.20218114664719766,-0.21062981641159928,0.10610522537000001,1.6309683804226305,0.2579697115571516,-1.3611287720192249, ,0.21865654736974832,0.1375317993601026,0.04946835875776398,0.01020477267964504,0.19421480341915365,-0.11895490356228283, ,1.3149142265319824
0.017224545290869354,0.020898969760560764,-0.09556801123758202, ,0.01866385581503871,0.020285657931404803,-0.09698361707352565, ,0.002109906649007243, ,0.029424465758449272,-0.0029794451323810448,-0.04632354487412886,-0.010702744501957165,-0.02736317816737402,-0.002774689312099535, ,0.05495950407502285, ,0.02937820536411591, ,0.0010678847277438722, ,0.20218114664719766,-0.21062981641159928,0.10610522537000001,1.6309683804226305,0.2579697115571516,-1.3611287720192249, ,0.21865654736974832,0.1375317993601026,0.04946835875776398,0.01020477267964504,0.19421480341915365,-0.11895490356228283, ,1.316906213760376
0.017224545290869354,0.020898969760560764,-0.09556801123758202, ,0.018720864529031336,0.020282750517908107,-0.0970842330181651, ,0.0022175720744597237, ,0.029424465758449272,-0.0029794451323810448,-0.04632354487412886,-0.010702744501957165,-0.02736317816737402,-0.002774689312099535, ,0.05495950407502285, ,0.02937820536411591, ,0.001075399024127636, ,0.20218114664719766,-0.21062981641159928,0.10610522537000001,1.6309683804226305,0.2579697115571516,-1.3611287720192249, ,0.21865654736974832,0.1375317993601026,0.04946835875776398,0.01020477267964504,0.19421480341915365,-0.11895490356228283, ,1.3188061714172363
0.017524990295763262,0.020868542941791027,-0.0960571377666713, ,0.018777698980182982,0.020279829394133062,-0.0971844314792935, ,0.0017851201090498517, ,0.03032608291196164,-0.002824501193912212,-0.05111322293525089,-0.03137516278755222,-0.01163133672598598,0.00010813509592060399, ,0.05949966949997488, ,0.033456538401412626, ,0.001080007602601157, ,0.20437440278347743,-0.20920111082986775,0.10662633395000001,1.6309683804226305,0.26001925905363316,-1.3623916468739685, ,0.21665968392344928,0.14488082680682562,0.05436454443686007,0.00915682010585583,0.20840339946076625,-0.10537447100933264, ,1.3240721225738525
0.017524990295763262,0.020868542941791027,-0.0960571377666713, ,0.018834359353692744,0.020276894905259583,-0.09728421344409208, ,0.0018894997875396333, ,0.03032608291196164,-0.002824501193912212,-0.05111322293525089,-0.03137516278755222,-0.01163133672598598,0.00010813509592060399, ,0.05949966949997488, ,0.033456538401412626, ,0.0010852301328265663, ,0.20437440278347743,-0.20920111082986775,0.10662633395000001,1.6309683804226305,0.26001925905363316,-1.3623916468739685, ,0.21665968392344928,0.14488082680682562,0.05436454443686007,0.00915682010585583,0.20840339946076625,-0.10537447100933264, ,1.3261752128601074
0.017524990295763262,0.020868542941791027,-0.0960571377666713, ,0.018890845835542742,0.02027394739559604,-0.09738357989849063, ,0.0019946312812564185, ,0.03032608291196164,-0.002824501193912212,-0.05111322293525089,-0.03137516278755222,-0.01163133672598598,0.00010813509592060399, ,0.05949966949997488, ,0.033456538401412626, ,0.0010910596273677835, ,0.20437440278347743,-0.20920111082986775,0.10662633395000001,1.6309683804226305,0.26001925905363316,-1.3623916468739685, ,0.21665968392344928,0.14488082680682562,0.05436454443686007,0.00915682010585583,0.20840339946076625,-0.10537447100933264, ,1.3281960487365723
0.01762627131372284,0.02085948349462735,-0.09623140261868536, ,0.018947158612496597,0.02027098720858006,-0.09748253182716839, ,0.0019121703457256774, ,0.030130947519612435,-0.0026121222945579255,-0.0516513425739656,-0.014085467653820188,-0.0028161120476412403,0.0007790153365556314, ,0.05985447661624414, ,0.01435142008729705, ,0.0010962896319433116, ,0.20510033967365454,-0.2087145786587916,0.10681170342000001,1.6309683804226305,0.2608390780522258,-1.3629784755560064, ,0.21325155406397928,0.14334885431793168,0.05492693627586208,0.008806392339529371,0.21404759167742635,-0.1211553125370767, ,1.330207109451294
0.01762627131372284,0.02085948349462735,-0.09623140261868536, ,0.019003297872097986,0.020268014686779138,-0.09758107021355407, ,0.002016839138296998, ,0.030130947519612435,-0.0026121222945579255,-0.0516513425739656,-0.014085467653820188,-0.0028161120476412403,0.0007790153365556314, ,0.05985447661624414, ,0.01435142008729705, ,0.0011021158946417527, ,0.20510033967365454,-0.2087145786587916,0.10681170342000001,1.6309683804226305,0.2608390780522258,-1.3629784755560064, ,0.21325155406397928,0.14334885431793168,0.05492693627586208,0.008806392339529371,0.21404759167742635,-0.1211553125370767, ,1.332228183746338
0.01762627131372284,0.02085948349462735,-0.09623140261868536, ,0.019059263802668328,0.020265030171891796,-0.09767919603982772, ,0.0021220150839682144, ,0.030130947519612435,-0.0026121222945579255,-0.0516513425739656,-0.014085467653820188,-0.0028161120476412403,0.0007790153365556314, ,0.05985447661624414, ,0.01435142008729705, ,0.001108530354951982, ,0.20510033967365454,-0.2087145786587916,0.10681170342000001,1.6309683804226305,0.2608390780522258,-1.3629784755560064, ,0.21325155406397928,0.14334885431793168,0.05492693627586208,0.008806392339529371,0.21404759167742635,-0.1211553125370767, ,1.3346951007843018
0.018133511165429977,0.02080572025845556,-0.0970618321209587, ,0.019115056593305212,0.020262034004748197,-0.09777691028692082, ,0.0013305498686215654, ,0.029035071641353292,-0.004712704746405458,-0.04190331567110414,-0.13631511942180505,-0.12442818221091484,-0.018462265741870543, ,0.05119700025858461, ,0.18456450123849136, ,0.001109917976912417, ,0.20866051952867204,-0.2063128087349078,0.10769577320000001,1.6309683804226305,0.26357180804753466,-1.3644717249686698, ,0.20719856235473968,0.1407966491965442,0.04474385258426967,0.007370551749098919,0.08316660969512624,0.001439626996214062, ,1.3401520252227783
0.018133511165429977,0.02080572025845556,-0.0970618321209587, ,0.019170676433881456,0.020259026525310662,-0.09787421393451701, ,0.0014263765431828347, ,0.029035071641353292,-0.004712704746405458,-0.04190331567110414,-0.13631511942180505,-0.12442818221091484,-0.018462265741870543, ,0.05119700025858461, ,0.18456450123849136, ,0.001111883558069376, ,0.20866051952867204,-0.2063128087349078,0.10769577320000001,1.6309683804226305,0.26357180804753466,-1.3644717249686698, ,0.20719856235473968,0.1407966491965442,0.04474385258426967,0.007370551749098919,0.08316660969512624,0.001439626996214062, ,1.3420732021331787
0.018133511165429977,0.02080572025845556,-0.0970618321209587, ,0.01922612351504186,0.020256008072674987,-0.0979711079610527, ,0.001524062920977575, ,0.029035071641353292,-0.004712704746405458,-0.04190331567110414,-0.13631511942180505,-0.12442818221091484,-0.018462265741870543, ,0.05119700025858461, ,0.18456450123849136, ,0.001114427875124365, ,0.20866051952867204,-0.2063128087349078,0.10769577320000001,1.6309683804226305,0.26357180804753466,-1.3644717249686698, ,0.20719856235473968,0.1407966491965442,0.04474385258426967,0.007370551749098919,0.08316660969512624,0.001439626996214062, ,1.3440730571746826
