NicholasDascanio/dvrk_moveit_final/test/execution/third_experiment_notsharpbends/old_data/thirdexp_500vel3.0.csv
Current Position (x),Current Position (y),Current Position (z), ,Planned Position (x),Planned Position (y),Planned Position (z), ,Position Error,,Cartesian linear Velocity(x),Cartesian linear Velocity(y),Cartesian linear Velocity(z),Cartesian Angular Velocity(x),Cartesian Angular Velocity(y),Cartesian Angular Velocity(z), ,Total Linear Velocity, ,Total Angular Velocity, ,MSE, ,Joint 1 Position,Joint 2 Position,Joint 3 Position,Joint 4 Position,Joint 5 Position,Joint 6 Position, ,Joint 1 Velocity,Joint 2 Velocity,Joint 3 Velocity,Joint 4 Velocity,Joint 5 Velocity,Joint 6 Velocity, ,Time Stamp
0.01033341592793912,0.0196349827315027,-0.08013776058191202, ,0.010382575593714707,0.01963067417870901,-0.08023085178303312, ,0.000105362270725871, ,-1.2691096378784984e-05,1.823313878630079e-05,2.8309374519478056e-06,-0.3177359152237767,0.04223204655907762,0.01622916769776413, ,2.2394764659467987e-05, ,0.3205302756053773, ,8.780189227155916e-06, ,0.14778221628116023,-0.23504137502702296,0.08977974911000002,-4.536222547400715,0.17721754019577626,-1.124327187820443, ,-0.00016916072657189525,-0.00012223919320761406,0.0,0.005441504413562028,0.0,0.3219520397612592, ,0.02455902099609375
0.010288343669872248,0.019642857447026603,-0.08013288052856377, ,0.010392379466985603,0.019671489761008343,-0.08026817527868801, ,0.00017305469047715233, ,-0.00365455313593329,0.0007737399333797205,-0.0008205762393570677,-0.3361628764727082,0.45739214377668813,0.14091882829836977, ,0.003824627756065116, ,0.5676381353530077, ,1.2655316418319243e-05, ,0.147774493548286,-0.23506454322564563,0.08977845282000001,-4.5358031675137465,0.1821364541873321,-1.1153513126711647, ,0.0003095381740505956,-0.0003086136412859197,0.001149103561992591,-0.004678696707972026,0.4266808917707071,0.3997386122114226, ,0.04660391807556152
0.010215161112851413,0.01966044207686096,-0.08014353241862207, ,0.0104023208991681,0.019711932351682216,-0.08030568153039525, ,0.00025292759529973465, ,-0.002467569119676583,0.0010128759129998737,-0.0014229350897391614,-0.007639785806961695,0.2971364245882623,0.08632526632513658, ,0.0030231703963104345, ,0.2972346230577227, ,1.6604517390711186e-05, ,0.14778221628116023,-0.23511087962289098,0.08979660088000001,-4.5358031675137465,0.1906079171727894,-1.1100074116792586, ,0.00042720090545941147,-0.003260830128885704,0.0017774988581060248,-0.004678696707972026,0.3050489297088903,0.05347895368413069, ,0.06903290748596191
0.010245599407841529,0.01967659177752877,-0.08017653709026004, ,0.010412399428531234,0.01975200353317889,-0.08034336969581587, ,0.0002476737734780728, ,0.004307855314032001,0.0005075760234629144,-0.002450522506081644,-0.0511633026666989,-0.4228438014407536,-0.10616163908113264, ,0.004981998733343962, ,0.42592788586396096, ,1.8548055475734062e-05, ,0.14778221628116023,-0.23524988881462702,0.08983160071000001,-4.5358031675137465,0.18773855067771517,-1.1170606908177985, ,0.0004227816139818447,-0.005757482077671587,0.0023469591159569767,-0.004678696707972026,-0.4394109681019974,-0.005372356256397648, ,0.09622001647949219
0.010311772882509843,0.019698400568695748,-0.08024483534812547, ,0.010422614594242773,0.019791704884826268,-0.08038123893410663, ,0.00019899125291577408, ,0.0008291541593746286,0.0012460333208901772,-0.002674085532057993,-0.03448299868885111,-0.03977698466792597,-0.003520658866312797, ,0.003064445967795603, ,0.05264300245722114, ,1.880787659416548e-05, ,0.14779766174690867,-0.2354043434721115,0.08990160037000001,-4.5358031675137465,0.18158990818827037,-1.1169476095598934, ,0.0004100160160131097,-0.007732825086331774,0.0029093719671232877,-0.004300069586499093,-0.04476054081353942,0.03562591487875248, ,0.1185309886932373
0.010311618357002613,0.01972747790647722,-0.08029677519135323, ,0.010432965936366508,0.01983103798283495,-0.08041928840591916, ,0.00020114525143779985, ,-0.00014538464283594764,0.0011677344532378137,-0.0012289103174479184,-0.06617800561138514,0.0487868926711268,0.021523599032649245, ,0.001701458496696612, ,0.08221732982286499, ,1.9018626360232334e-05, ,0.1478053844797829,-0.23558196632821868,0.08995993342000001,-4.5358031675137465,0.18254636368662844,-1.1162573175632382, ,0.0005428844486831725,-0.009573678764099548,0.0015045325008458258,-0.0038142475670918568,0.04172890919520721,0.08180080186633829, ,0.14098286628723145
0.010303417927129127,0.019751177907502367,-0.08031566850834636, ,0.010443452995866081,0.01987000440030044,-0.08045751727339899, ,0.00023205738086475627, ,-6.670649128170532e-05,0.0012994956861166053,-0.001007046479157203,-0.021762917698740305,0.03226169722496169,0.00899960981101676, ,0.001645381841822044, ,0.03891582832982242, ,1.96001696555439e-05, ,0.1478053844797829,-0.23579048011582274,0.08998456293000001,-4.536012857457231,0.1837760921845174,-1.115953218854257, ,0.0004404925284883397,-0.011807507970445537,0.0013126249939742012,0.0028544127104594306,0.028472205465318902,0.03823042993581474, ,0.16458392143249512
0.010307769937316087,0.019790749085102352,-0.08035223655689105, ,0.01045407531459916,0.019908605707206133,-0.08049592470018414, ,0.00023652003999380427, ,0.00030900378649310255,0.0014889380091211396,-0.0016204602434495134,0.0013500023605039439,0.0007629303376176849,-0.006274242074579367, ,0.0022222311166197706, ,0.0015506672957956154, ,2.0094295795036164e-05, ,0.1478053844797829,-0.23613800309516284,0.09002993308000001,-4.535593477570262,0.18391272868428285,-1.115737921797391, ,0.0005369626656227284,-0.012612565332066823,0.0019497771400469488,0.008757540551973059,-0.0023768272423288993,0.012175173161220054, ,0.18683385848999023
0.010315980850614137,0.019826829135654648,-0.08039496151731998, ,0.010464832435320348,0.019946843470425468,-0.08053450985140465, ,0.00023671496016483264, ,0.00031897517061041543,0.0017594108078363073,-0.0019485088371315362,0.009927500823144355,0.0022224720576588877,-0.004812787390435703, ,0.0026446092790007453, ,0.010173232259833595, ,2.0483121906063024e-05, ,0.1478131072126571,-0.23643918967725758,0.09008048839,-4.535593477570262,0.1837760921845174,-1.1155448251535542, ,0.0003240936883819493,-0.014809135698887449,0.0023352604486145726,0.007721805909827541,0.0,0.005888101465213004, ,0.20919489860534668
0.010322490200630549,0.019860642558318473,-0.08043017459639033, ,0.0104757239016765,0.019984719253725237,-0.0805732718936816, ,0.00024362354149664797, ,0.00029921228199709504,0.0016694039675991847,-0.00161328072218883,0.015539463873883743,0.000941291475030095,-0.0045396348283619995, ,0.002340750368005935, ,0.015567946785551847, ,2.086343879269065e-05, ,0.14782855267840556,-0.23673265352647813,0.09012326596,-4.535593477570262,0.1837760921845174,-1.1154631464134135, ,0.0006942110667676738,-0.0147013077549916,0.0019887436677343408,0.006973495588287556,0.0,0.0, ,0.23295187950134277
0.010329108541955685,0.01989231279505993,-0.08046186000410331, ,0.010486749258212653,0.0200222346177672,-0.08061220999512525, ,0.0002536442296561974, ,0.000371419711894987,0.001601854041268404,-0.0017026026543790714,0.014400892917407742,8.002015449890421e-05,-0.004108356090466944, ,0.0023670117808348005, ,0.014401115235615014, ,2.1265312379559313e-05, ,0.14785172087702825,-0.2370106719099502,0.09016215466000001,-4.535593477570262,0.1837760921845174,-1.1152997889331324, ,0.001414002263916699,-0.0136385371598837,0.002067989707780649,0.006362917075518211,0.0,0.0, ,0.255964994430542
0.010338510256529088,0.019926957237767773,-0.08049938299611394, ,0.010497908050363203,0.02005939112011148,-0.08065132332533521, ,0.0002569674172257646, ,0.0004207740678027469,0.001697492748714687,-0.0018715808399752851,0.00808204248025039,-0.0009534187551874563,0.0025713718797369407, ,0.002561512695388568, ,0.00813808441541075, ,2.1807292592862875e-05, ,0.14789805727427358,-0.23743542221803254,0.09022826545000001,-4.5353837876267775,0.1835028191849865,-1.1146685594250367, ,0.001611396262143497,-0.012749824205088108,0.002084650113859443,0.0,0.002397602483164414,0.0049387787795119355, ,0.2772328853607178
0.010351805856315923,0.019973699264343468,-0.08055492854675807, ,0.01050919982445641,0.020096190315219056,-0.08069061105539886, ,0.00024121911595616436, ,0.0004010735910572012,0.0014998707681121034,-0.002011380905603806,0.0015439373056017915,0.0018634765875900042,0.0030129930643891974, ,0.0025408906890907954, ,0.0024199767278228345, ,2.2153088613019787e-05, ,0.1479289482057705,-0.23769027240288196,0.09027363560000001,-4.5353837876267775,0.1835028191849865,-1.1145868806848962, ,0.001464361430272874,-0.011630727681461304,0.0023486894013565324,0.0,0.0021208464516473792,0.010366287743230621, ,0.2978389263153076
0.010360737582415154,0.020004792552176527,-0.08059316529222711, ,0.010520624127712984,0.0201326337544538,-0.08073007235788998, ,0.0002462734760289672, ,0.00040218997077081585,0.0014289267635614338,-0.0017441921286875561,0.0033660760404272327,0.002500776411776264,-0.003240735325340018, ,0.0022903699810262997, ,0.004193369832901972, ,2.2490467595118986e-05, ,0.1479675618701416,-0.23793739985485715,0.09031900575000001,-4.535174097683293,0.1835028191849865,-1.1145052019447557, ,0.0019089066550559601,-0.011421253245528973,0.0020743340955853627,0.0063138549288831195,0.0018487666058598791,0.009191515819883912, ,0.3201789855957031
0.01036830189693585,0.020033094589715125,-0.08062688264440021, ,0.010532180508242445,0.020168722986086053,-0.08076970640686873, ,0.00025622234147628796, ,0.00036691608959671986,0.0013753571909762127,-0.0015851472453321796,0.0047473673750399615,0.0022305034985005564,-0.003281013653516962, ,0.002130475676687984, ,0.00524524954986977, ,2.2854036062147482e-05, ,0.1479984528016385,-0.23816908184108387,0.09035919074000001,-4.535174097683293,0.1835028191849865,-1.1143418444644746, ,0.001745287585631337,-0.011252355323388924,0.0019038771096757559,0.006153981160506055,0.0016456455889722345,0.0075746299720604, ,0.3415398597717285
0.010374265211172887,0.020060957221336648,-0.08065800826164987, ,0.01054386851504698,0.02020445955529401,-0.08080951237787957, ,0.0002689083445539794, ,0.00035458675712210193,0.0013465636159397903,-0.0016995826439632103,0.016110444844049294,-0.0005075699137468332,-0.004119262930561285, ,0.002197167836957429, ,0.01611843851855118, ,2.3256724087591128e-05, ,0.1480293437331354,-0.23840076382731062,0.09039678315,-4.535174097683293,0.18363945568475198,-1.114044868667468, ,0.0012103270442905447,-0.010634195785845783,0.0020034549016145022,0.005548509035494176,0.0,-0.004848673594363566, ,0.3635280132293701
0.010388280632141962,0.020106727567112143,-0.08071749366810937, ,0.010555687698017173,0.020239845004167253,-0.08084948944795116, ,0.0002513329736606582, ,0.000550625482784917,0.0015755407747502967,-0.0022454513783625916,-0.007407713559658061,0.0001189295798962888,0.001940984716462938, ,0.002797779306482795, ,0.00740866819137095, ,2.350987141814738e-05, ,0.1480911255961292,-0.23875600953952494,0.09046678281000001,-4.534964407739808,0.18363945568475198,-1.1137998324470464, ,0.002616564698335345,-0.011756310896738204,0.0026087146282345237,0.0012663532725393954,0.0,0.01942289401768828, ,0.3873000144958496
0.01039752123314703,0.020137852702272536,-0.08076238937974212, ,0.010567637607933021,0.02027488087170905,-0.08088963679559444, ,0.00025280072197393703, ,0.0003844252871479216,0.0014640828207154615,-0.0019501135483644435,-0.003236791514721409,0.0010120866031420727,0.0015816878446233557, ,0.0024686563468468968, ,0.0033913328609602596, ,2.374536787077944e-05, ,0.1481220165276261,-0.23898769152575167,0.09051863441,-4.534964407739808,0.18363945568475198,-1.1136364749667653, ,0.0011306651100587823,-0.011338326144494372,0.002277171053609722,0.0012226609051290656,0.0,0.014782965142270964, ,0.40933799743652344
0.010399797142180211,0.020146580686295625,-0.0807733808578337, ,0.010579717796459573,0.020309568693839063,-0.08092995360080305, ,0.00028887983017205997, ,0.00034072755723233144,0.001374197598088678,-0.0016098642835603414,-0.0020038337932891796,0.000756318915771505,0.0014895243971379242, ,0.002143869706473193, ,0.00214181422225843, ,2.4153908736730773e-05, ,0.14812973926050033,-0.2390571961216197,0.09053159731,-4.534964407739808,0.18363945568475198,-1.1135547962266248, ,0.001216338775007405,-0.011262487158652437,0.0019225771017674313,0.0012060561089942726,0.0,0.013458548114698958, ,0.4354360103607178
0.010408529786488634,0.020186007874365218,-0.08080549267461812, ,0.010591927816153328,0.02034391000339538,-0.0809704390450505, ,0.0002928740766199111, ,0.00016114916730779696,0.0011132604712522814,-0.000469894366615073,0.015206527790405636,-0.0032863146826268945,0.007727210016371956, ,0.001219064660612155, ,0.015557581805460807, ,2.4545042923204006e-05, ,0.14817607565774565,-0.23941244183383403,0.09057307859000001,-4.534545027852839,0.18363945568475198,-1.113146402525922, ,0.0011288525281811508,-0.011640939837888956,0.000740224043977164,-0.006611801775239463,0.0,-0.004691408525930513, ,0.4566059112548828
0.010419645193767056,0.020218331362920353,-0.08084196609429037, ,0.010604267220454364,0.02037790633013797,-0.08101109231129039, ,0.0002969059450017307, ,0.00046819751380222484,0.0014609585091283255,-0.0019892204587610807,0.0034531361231222414,-0.002874941436244914,0.00849975831541434, ,0.0025120920984069606, ,0.004493265773966948, ,2.4921283312772792e-05, ,0.14823013478786523,-0.2396827374844319,0.09061715245000002,-4.534545027852839,0.1835028191849865,-1.1130349846222254, ,0.002093111371404905,-0.011283972113568802,0.002325034523427237,-0.006611801775239463,-7.240012884990404e-05,0.006820844252444695, ,0.48000192642211914
0.010434207724120858,0.02026325207153833,-0.0809096313582348, ,0.010616735563688414,0.02041155920075062,-0.08105191258395537, ,0.0002748733599040471, ,0.000539826140539689,0.0014736214111272644,-0.002389730061390552,-0.0007266815871154058,-0.0025287389995995386,0.008261400448474376, ,0.0028589827022310536, ,0.00263108095261456, ,2.5161007531204506e-05, ,0.1482841939179848,-0.24000709226514932,0.09069492985000001,-4.534545027852839,0.1835028191849865,-1.1127082696616633, ,0.0022318473334747677,-0.010254642500386425,0.002722873764102565,-0.006274809712091859,-7.240012884990404e-05,0.010065026158772538, ,0.5005598068237305
0.010445953605624206,0.020292892392850724,-0.08095455034865331, ,0.01062933240106718,0.020444870138843933,-0.08109289904895574, ,0.0002754367091922609, ,0.0005924471201645922,0.0015121437129016336,-0.0020812613417552674,-0.0020869344134380762,-0.0009223096018199488,-0.000522692211954467, ,0.002639928213293724, ,0.0022816551467192223, ,2.5383678628529145e-05, ,0.1483459757809786,-0.2402233287856276,0.09074678145000001,-4.534754717796323,0.1835028191849865,-1.1124632334412414, ,0.0033905670959143265,-0.011346054700483508,0.002441945656906332,0.0033304327358969436,-7.240012884990404e-05,0.013923711506269573, ,0.5213918685913086
0.010451433922585796,0.020308530506009455,-0.08097416057243237, ,0.010642057288686745,0.02047784066495734,-0.08113405089367813, ,0.00030094536456753653, ,0.0005436374911268306,0.0015115132071409243,-0.0018657823337610313,0.002884229881816306,-0.0012728662354513825,-0.0007553640928380435, ,0.0024619824560899854, ,0.0031526132718594033, ,2.5812959047561174e-05, ,0.1483768667124755,-0.2403468925116152,0.09077011467000001,-4.534754717796323,0.1835028191849865,-1.1122998759609604, ,0.003187794490550823,-0.011954585107439929,0.0022284291438164523,0.0033304327358969436,-7.240012884990404e-05,0.0095076427656087, ,0.5414628982543945
0.010463521448146162,0.020346458963610852,-0.08101964115154918, ,0.010654909783524971,0.020510472296562603,-0.08117536730698577, ,0.00029627774771668876, ,0.0005293858692314359,0.001419517934752443,-0.001956443459401228,-0.012660570965250082,0.003120101878918968,-0.00839971490466767, ,0.002474459855293597, ,0.01303936704262531, ,2.6193357671867104e-05, ,0.1484386485754693,-0.24064035636083572,0.09082455885000001,-4.534125647965871,0.1835028191849865,-1.1118914822602575, ,0.002808670477763958,-0.010456475841413671,0.0022919153266187054,0.012225160451540741,-0.00013734738644894615,0.025005166036023027, ,0.5597410202026367
0.010473933103712803,0.02037229770007479,-0.08105511153083822, ,0.010667889443444906,0.020542766548065344,-0.08121684747921545, ,0.00030469198685719346, ,0.000587227172241247,0.00160298711963273,-0.002213527038015253,-0.016610436075259968,-0.0034342354391321394,0.0234599092934723, ,0.002795372140798335, ,0.016961738106943774, ,2.6583296710728814e-05, ,0.14848498497271465,-0.24083342468269134,0.09086604013,-4.533915958022385,0.18336618268522106,-1.1113716706558585, ,0.0033245592291410867,-0.012417814912126509,0.0025934242136112016,-0.02011589945610282,0.0014133797455434763,0.02648320649829895, ,0.5778470039367676
0.010482276317110191,0.020392640339250943,-0.08108528311174484, ,0.01068099582718782,0.02057472493080869,-0.08125849060217892, ,0.00032038270382577644, ,0.0005780951709363116,0.0015275364758291395,-0.0023714755244472127,0.005954902775745973,-0.0060714175298617066,0.02131092729377486, ,0.002879489169054222, ,0.008504291729209058, ,2.7010742465252406e-05, ,0.14853132136996,-0.2409801566073016,0.09090103996000001,-4.533915958022385,0.18336618268522106,-1.1112083131755774, ,0.002919913848043167,-0.011095164452060186,0.002726135806948486,-0.01993116389238468,0.001367029689001264,0.0023715181720762157, ,0.5956339836120605
0.010495834027509043,0.020428956625896902,-0.08114173698925094, ,0.010694228494378785,0.020606348953075084,-0.08130029586916028, ,0.00030978915511090083, ,0.0006385738401893852,0.0017331330590705783,-0.0028714526207741266,0.005052150095210858,-0.0044241521414859555,0.0166975618644661, ,0.003414200770776106, ,0.006715455499096175, ,2.7371139447517338e-05, ,0.1485931032329538,-0.241235006792151,0.09096585446000001,-4.533915958022385,0.18336618268522106,-1.1111266344354367, ,0.0027148786132976865,-0.011921726326441054,0.0032647697315023576,-0.014835346810491389,0.001282686300427779,0.00483752794141868, ,0.6140739917755127
0.010507956247729572,0.020464993653304703,-0.08119709395930017, ,0.010707587005523416,0.020637640120088944,-0.08134226247491455, ,0.000301219421478946, ,0.0005550045031976191,0.0016550547162163265,-0.0024660419343988235,0.005864394951353065,-0.003545127792828138,0.013959233071584169, ,0.0030213571345428583, ,0.006852668029441983, ,2.7678043574005425e-05, ,0.14863943963019913,-0.24148985697700043,0.09102937267000001,-4.533915958022385,0.18336618268522106,-1.1109632769551556, ,0.0024173007514366536,-0.012120733406008227,0.002845446859592712,-0.011989028025128929,0.0012118834256267088,0.00461838724607678, ,0.6321558952331543
0.010519192037968049,0.020497613146972633,-0.08124264493525706, ,0.010721070922004645,0.02066859993401978,-0.08138438961566877, ,0.00030013850067858115, ,0.0006151576616626904,0.001654413266077927,-0.0023611759207840637,0.0032552632003900505,-0.0007006723197050281,0.001467010388637349, ,0.0029479915082251196, ,0.0033298168313022386, ,2.7963239777217517e-05, ,0.1486934987603187,-0.2417369844289756,0.09108252056,-4.534125647965871,0.18336618268522106,-1.110881598215015, ,0.003275670663559277,-0.012113363781546618,0.0027520406910850038,0.0013494352731209032,0.0011501404524838098,0.00917747518395438, ,0.6513090133666992
0.010529780034394884,0.020523674608369315,-0.0812791526943172, ,0.010734679806086406,0.02069922989398423,-0.08142667648911865, ,0.00030751722680070283, ,0.0005534529503866579,0.001641979982576677,-0.0022312144029186113,0.0034983017903396497,-0.00016177185732050724,0.0012417664449738024, ,0.002825017901406229, ,0.003502040190348605, ,2.8258350018706825e-05, ,0.1487552806233125,-0.2419300527508312,0.09112529813,-4.534125647965871,0.18336618268522106,-1.1106365619945933, ,0.0027568587824924862,-0.012341909423653373,0.0026164276478318005,0.0016087521426073248,0.0011045157917453983,0.00919134872973346, ,0.6694879531860352
0.010539046090075714,0.020548840529522473,-0.08131066530033207, ,0.010748413220909126,0.020729531496048927,-0.08146912229442907, ,0.0003187356896174882, ,0.0005894139377230895,0.0015072348794850834,-0.0018656319003298278,0.001892309319892368,-0.0013860285959736555,0.0020882750676511214, ,0.002469766822889751, ,0.0023456150170919157, ,2.8575709229213105e-05, ,0.14880933975343208,-0.24212312107268683,0.09116289054000001,-4.533915958022385,0.18336618268522106,-1.1103915257741717, ,0.003848052537749741,-0.011816329418312885,0.0022365643807919127,0.0007089596938576341,0.0010628124196250181,0.010152758690277291, ,0.6871178150177002
0.010553206468779858,0.020581896505309002,-0.08135301745668821, ,0.010762270730490726,0.02075950623323298,-0.08151172623223248, ,0.0003169251590087133, ,0.0007844600252990329,0.0016250523835057964,-0.0022799630971343837,-0.01646751274182709,-0.0029389898609084534,0.011786200316955271, ,0.0029076458698962366, ,0.016727720623060154, ,2.88701075131298e-05, ,0.14890201254792276,-0.2423625257917878,0.09121214956000001,-4.533496578135416,0.18336618268522106,-1.1100648108136093, ,0.00547212964927418,-0.01196531856745313,0.002676211612903226,-0.0080274505664277,0.001013399266538118,0.028138571565845528, ,0.7049858570098877
0.010572521171576416,0.020620883803257432,-0.08141340426982498, ,0.010776251899727364,0.020789155595510547,-0.08155448750462801, ,0.00029954312678390796, ,0.0008093998376266013,0.0016969107924218023,-0.0026814202350015207,0.007859626213628304,-0.005676731577572912,0.009911039118115155, ,0.0032748509601603503, ,0.009695308426406408, ,2.9092777210139114e-05, ,0.14902557627391036,-0.24264054417525988,0.09128344551,-4.533496578135416,0.18336618268522106,-1.1097380958530472, ,0.005059375444386575,-0.01171133426613239,0.003199841607071113,-0.0080274505664277,0.0009621792136554041,0.026598930640232256, ,0.7228069305419922
0.010579934288224882,0.020635033476452413,-0.08143715510825901, ,0.01079035629438817,0.020818481069813564,-0.0815974053151804, ,0.0003218859565220686, ,0.0009076870367480345,0.0016972027694105373,-0.002995598801933844,0.009548187332417805,-0.006653030902286746,0.00957034752212852, ,0.0035606186512069367, ,0.011637469711260413, ,2.937487764950923e-05, ,0.14907191267115572,-0.24273321696975056,0.0913106676,-4.533496578135416,0.18336618268522106,-1.1094930596326253, ,0.005643895699549601,-0.010829722068478433,0.00341015018625562,-0.0080274505664277,0.0009452199942866119,0.00013870279183933291, ,0.7409508228302002
0.010598616524873136,0.0206693151314313,-0.08149745949388168, ,0.010804583481119262,0.02084748414003403,-0.08164047886891888, ,0.00030760546862467354, ,0.0008839255805757725,0.0016738103565570512,-0.0026352025261546343,0.018694055545982937,-0.008117702622960084,0.00905086570697054, ,0.003244573607666441, ,0.020380500693163318, ,2.96906093060978e-05, ,0.1491877536642691,-0.24294945349022884,0.09137937097000001,-4.533496578135416,0.18336618268522106,-1.1091663446720632, ,0.005997009081983764,-0.01156845018024454,0.0030550079631760647,-0.0080274505664277,0.000905822247384282,-0.008373842808075143, ,0.7585389614105225
0.010616440678235067,0.020702096121077894,-0.08154342583159427, ,0.010818933027440667,0.020876166287026935,-0.08168370737233663, ,0.00030163303007691296, ,0.0007766140612006942,0.0014297044915523968,-0.0020167892664715898,0.00730371533453886,-0.006442804263665114,0.00888156052398682, ,0.0025912590141810884, ,0.009739301023919199, ,2.997484798771667e-05, ,0.1493190401231309,-0.2431888582093298,0.09143381515000001,-4.533496578135416,0.18336618268522106,-1.1090029871917821, ,0.005810407584041977,-0.010524275033931729,0.0023874117985611515,-0.00721966047471461,0.0008672705216090998,0.0022064721256059936, ,0.7745828628540039
0.010629609576273425,0.02072667406676129,-0.08158398943739323, ,0.010833404501744736,0.020904528988612687,-0.08172709003338927, ,0.00030601066231267867, ,0.0008704603250041091,0.0016130438780091066,-0.0028335948256384687,0.015931013204184285,-0.007055892941142698,0.0075114956493330136, ,0.0033747401923220725, ,0.01742362782907401, ,3.026026854082843e-05, ,0.14940399018474737,-0.24335103559968851,0.09148048159000001,-4.533496578135416,0.18336618268522106,-1.1090029871917821, ,0.005450034434179084,-0.010262604562263303,0.0032296860340632607,-0.00651168346993885,0.0008412955709400396,-0.006676001604599236, ,0.793914794921875
0.010645819184541343,0.020756299983534687,-0.08163230548899028, ,0.010847997473296903,0.020932573719579774,-0.08177062606149396, ,0.0003017964069387932, ,0.0007916333228326692,0.001395842222747848,-0.0021962382982639314,0.0033409672331876153,-0.0031964717892665837,-0.001122350322219597, ,0.002720022332883683, ,0.004623796481433109, ,3.052182239883132e-05, ,0.1495121084449865,-0.24355182665441835,0.09153622206,-4.533706268078901,0.18336618268522106,-1.1089213084516416, ,0.005610718041460206,-0.009400333459181724,0.0025539220009620014,0.0033498129375721967,0.0008109158439009493,0.006622646534040945, ,0.81437087059021
0.010661414301575283,0.020785358712320172,-0.08167949357547145, ,0.010862711512236167,0.020960301951686976,-0.08181431466752839, ,0.0002988351232426151, ,0.0007563557409457904,0.0013978662577150197,-0.0021874435885253455,0.006004680525767301,-0.0018896449011818288,-0.005871405380650466, ,0.002703888595023932, ,0.006294993726685456, ,3.076450720353444e-05, ,0.14961250397235143,-0.24373717224339975,0.09159066624000001,-4.533286888191932,0.18336618268522106,-1.1088396297115009, ,0.005176698551516586,-0.009357955957372535,0.002541696428913356,0.008131881440757433,0.0007823537852307211,0.004583851247183801, ,0.8300948143005371
0.010669204524068296,0.02079960141867142,-0.08170046384830741, ,0.010877546189570148,0.020987715153666535,-0.08185815506382996, ,0.0003219620262249502, ,0.0007464084625442032,0.001367414354129845,-0.002237959307390798,-0.004621675818568997,-0.009684693446941301,0.02873179640512133, ,0.0027267947246492614, ,0.010730944715030204, ,3.106230182867469e-05, ,0.149666563102471,-0.24382984503789046,0.09161529575,-4.532867508304963,0.18336618268522106,-1.1086762722312198, ,0.0050894743328434335,-0.009550786686122357,0.0025816550275526745,-0.027468550936059623,0.0007684589595330503,0.010309481503281594, ,0.8458449840545654
0.01068441046123008,0.02082992294708111,-0.08175007078308158, ,0.010892501077177357,0.0210148147912263,-0.08190214646419475, ,0.00031719664446957884, ,0.0007211563667155966,0.0013308346253556786,-0.0022279778533646237,-0.009217093589428543,-0.007995317505657722,0.025724948913180487, ,0.0026935242008163333, ,0.01220163580007467, ,3.133561835379484e-05, ,0.1497592358969617,-0.2440306360926203,0.09167233251000001,-4.532867508304963,0.18336618268522106,-1.1084312360107982, ,0.004783806308226521,-0.009093072847297996,0.00256007899710704,-0.02406064653751324,0.0007423003013445636,0.014989414644954596, ,0.8616209030151367
0.010691664974364804,0.020843828304198384,-0.0817725418185736, ,0.010907575747808441,0.021041602327052426,-0.08194628808387586, ,0.0003404699559599679, ,0.0007936732758176523,0.0015240291094336302,-0.002698610262976694,-0.005252360950851981,-0.007456268160982033,0.022094367976773145, ,0.00319923105551808, ,0.00912048410466182, ,3.166121143842765e-05, ,0.14980557229420705,-0.24412330888711098,0.09169825831,-4.532867508304963,0.18336618268522106,-1.1083495572706576, ,0.004784379411655572,-0.009867649478509292,0.0030691351676300585,-0.020363871811067455,0.0007306766185330338,0.012294447788840472, ,0.8774898052215576
0.010712580095104807,0.020880149152674693,-0.08184278515093488, ,0.010922769775079154,0.021068079220812164,-0.08199057913958344, ,0.0003183401877842684, ,0.0009478595061211322,0.0017606980077741398,-0.0034159083286704668,-0.021259158534788148,-0.004596335409772936,0.018623285861443885, ,0.003958146640512992, ,0.021750359085341665, ,3.1916387448230485e-05, ,0.14992913602019464,-0.24433182267471504,0.091777332,-4.532867508304963,0.18336618268522106,-1.1079411635699548, ,0.0053044728739362335,-0.01037441231336584,0.003836418959537573,-0.015360682664418895,0.0007058167489450466,0.02970670968149162, ,0.8936519622802734
0.010720371539615282,0.02089611009053539,-0.08187253678073345, ,0.010938082733475686,0.02109424692915597,-0.08203501884948261, ,0.0003362391907789584, ,0.0009805025565926225,0.0015953584589528565,-0.0031348082747017884,-0.018902605054466493,-0.006180814109254729,0.016689041881114863, ,0.0036515170539346935, ,0.019887456865963906, ,3.220867884367438e-05, ,0.1499831951503142,-0.24442449546920572,0.09181103554,-4.532867508304963,0.1835028191849865,-1.1079709027335105, ,0.0061197374871656066,-0.009248774072536792,0.003528757536552947,-0.013967062941610315,0.0,0.026302591903523995, ,0.9093668460845947
0.010737179529851294,0.020923624276997576,-0.08192398592098345, ,0.010953514198350903,0.021120106905720686,-0.08207960643319365, ,0.00033109493503426446, ,0.0009556383106544982,0.0015638692301265609,-0.002750489076123051,-0.03126265459794543,-0.004364599636234065,0.01577649034672461, ,0.0033051659122651407, ,0.03156585659122269, ,3.247746811372157e-05, ,0.15009131341055335,-0.24458667285956445,0.09186936859000001,-4.532867508304963,0.1835028191849865,-1.1076441877729484, ,0.006502171248772664,-0.00992949819553023,0.003148608721091125,-0.01189451000680229,0.0,0.03977792341807059, ,0.9275798797607422
0.010758683457839065,0.020959425202485667,-0.08198078808268824, ,0.010969063745923956,0.021145660601131554,-0.08212434111178961, ,0.0003155169749595912, ,0.0009409121221717973,0.0014837827784533247,-0.002195929816233441,-0.005534730704299776,-0.007883828427870034,0.01220785798331911, ,0.0028123006085956632, ,0.009632652521405983, ,3.2697904859130416e-05, ,0.15024576806803783,-0.2448260775786654,0.09193547938,-4.532867508304963,0.1835028191849865,-1.1073174728123862, ,0.007313299404182904,-0.010533403308718091,0.0025942689771986977,-0.009978105889342323,0.0,0.014656085820259693, ,0.9438138008117676
0.010767996971286867,0.02097496420467589,-0.08200391085097629, ,0.010984730953278956,0.021170909463005153,-0.08216922210779651, ,0.0003357022115556424, ,0.0008723599577693205,0.0014427430076519808,-0.0021392463937864002,-0.013760012296750671,-0.005978768513510551,0.012112711454398246, ,0.002723764750373294, ,0.015002786784463484, ,3.3041537328098056e-05, ,0.15031527266390585,-0.24493419583890455,0.09196270147,-4.532867508304963,0.1835028191849865,-1.107154115332105, ,0.0065898379129267215,-0.010232371979123866,0.0025211794112060784,-0.009315593677906384,0.0,0.02276520862183585, ,0.9573628902435303
0.010786375691570087,0.02100507748442753,-0.0820531288421996, ,0.01100051539836777,0.021195854935951816,-0.08221424864519153, ,0.0003289550743698227, ,0.001013933928765746,0.0016242855037066108,-0.002961947756354079,-0.007347546016232939,-0.004592087654872517,0.002695088136541224, ,0.003526967524776028, ,0.008664508137379654, ,3.335878453780979e-05, ,0.15044655912276766,-0.2451349868936344,0.09201973823000001,-4.5330771982484475,0.1835028191849865,-1.1069907578518239, ,0.006750229189049925,-0.009732130933443422,0.0033747482033898313,0.0,0.0,0.01715104488505957, ,0.970958948135376
0.010797066894326943,0.021023168272876317,-0.08208485348718067, ,0.011016416660003284,0.021220498461578422,-0.08225941994940217, ,0.00034282207164650834, ,0.001080114949560889,0.0018142964485397875,-0.0032626853411842024,-0.002502044979444013,-0.004536594345586105,-9.292881937275545e-05, ,0.0038863138760305096, ,0.005180822035723891, ,3.370009880675632e-05, ,0.15051606371863568,-0.24524310515387354,0.09205603435000001,-4.532867508304963,0.1835028191849865,-1.1069907578518239, ,0.006980422501914953,-0.010954855887197006,0.003719078104132618,0.002854027135942746,0.0,0.013895392765502376, ,0.9848477840423584
0.010807786566273373,0.021040626889027567,-0.08211673477747687, ,0.011032434317862362,0.021244841478490685,-0.08230473524730593, ,0.00035709156738786843, ,0.0011707888659478736,0.0018349774372778333,-0.0033227124657860727,0.00017294649390393164,-0.005144756941396562,-0.0028052091940872544, ,0.003972191699079539, ,0.0051476629717565605, ,3.4065407708990585e-05, ,0.1505855683145037,-0.24534350068123845,0.09209233047000001,-4.5326578183614785,0.1835028191849865,-1.1069907578518239, ,0.007939129262215716,-0.010926947454002816,0.0037934773803286505,0.005502534443127879,0.0,0.01155375704893415, ,0.9981069564819336
0.01083318958174235,0.021077420924588013,-0.0821902800963337, ,0.011048567952487147,0.02126888542229571,-0.08235019376722741, ,0.0003295737832501949, ,0.001194807184918253,0.0018321291504082926,-0.0035507962070492343,0.004670180265659529,-0.005807671992515984,-0.0027708729452187606, ,0.004170421457946825, ,0.007452492007507023, ,3.4356527097353965e-05, ,0.15075546843773666,-0.24554429173596828,0.09217529303000001,-4.5326578183614785,0.1835028191849865,-1.1069090791116833, ,0.007799876984847162,-0.010233345267957173,0.004015329347113688,0.004959764820126709,0.0,0.006235741829376481, ,1.0123507976531982
0.010844862555957265,0.02109583963888683,-0.08222448266138532, ,0.011064817145278101,0.021292631725605117,-0.08239579473893975, ,0.00034125499948608784, ,0.0012274808780470094,0.001844091994584001,-0.0034106803984860915,0.005846762246505332,-0.006599851589363916,-0.002489306660000714, ,0.004066955294944499, ,0.00881718034902621, ,3.466642580584471e-05, ,0.1508326957664789,-0.24565240999620744,0.09221418173000001,-4.5326578183614785,0.1835028191849865,-1.1069090791116833, ,0.008437533703073779,-0.010746919754580779,0.003887920800585795,0.004693627710746798,0.0,0.005520721046219008, ,1.0269148349761963
0.010856022359727368,0.021112038873211916,-0.08225527417841651, ,0.011081181478499689,0.021316081818036896,-0.08244153739366211, ,0.00035640445767808326, ,0.0011872851944229694,0.001769732827963662,-0.0033851746624274414,0.010524572306220191,-0.006912205163753544,-0.002782139409899141, ,0.004000125986817039, ,0.012591473385197767, ,3.5002185767028e-05, ,0.15090992309522114,-0.24574508279069812,0.09224918156,-4.5326578183614785,0.1835028191849865,-1.1068274003715428, ,0.0079989502980374,-0.009986680727300223,0.0038401184956605595,0.0044670062640241376,0.0,0.0, ,1.040132999420166
0.010880412026481396,0.02115018317007443,-0.08232994310492035, ,0.011097660535273689,0.02133923712621842,-0.0824874209640589, ,0.0003282340461089122, ,0.0011703460592651562,0.00183291193558425,-0.003634833171593941,0.007261665193514434,-0.007002971801217434,0.001710887523346985, ,0.00423571578925739, ,0.010088280071293572, ,3.5266071774855554e-05, ,0.15106437775270565,-0.24595359657830218,0.09233344041000001,-4.532448128417994,0.1835028191849865,-1.1065823641511212, ,0.0073467179194229475,-0.01007041539292895,0.004093757779491134,0.0,0.0,0.002722915255428617, ,1.055408000946045
0.01089123216019525,0.02116512981940697,-0.08235839900668268, ,0.011114253899584509,0.021362099073789064,-0.0825334446842385, ,0.00034521960060666137, ,0.0011474233472064763,0.0015981551495889285,-0.0028332199876176726,0.006934710077081934,-0.008185630438484673,0.0016469044288749406, ,0.003449321051759086, ,0.01072822209623152, ,3.55603959377576e-05, ,0.1511416050814479,-0.24603854663991864,0.09236584766000001,-4.532448128417994,0.1835028191849865,-1.1065823641511212, ,0.00852092709576873,-0.009673235647181734,0.003262763523146252,0.0,0.0,0.0026563775118291066, ,1.0693268775939941
0.010910731917128482,0.021192973965647816,-0.0824091600974658, ,0.0111309611562729,0.021384669081402446,-0.08257960778975315, ,0.00033808334916762156, ,0.0012482792647301227,0.001511144271793409,-0.0028035726987111305,0.0036130044688352982,-0.00879936109906904,0.0017792788448528123, ,0.0034207861683957417, ,0.009512231960503742, ,3.583152848893385e-05, ,0.15129605973893237,-0.24620072403027737,0.09242418071000001,-4.532448128417994,0.18363945568475198,-1.1065304245745362, ,0.009803251894829031,-0.008715389539332768,0.0032264151346971847,0.0,0.0003765242324569912,0.005109900836605556, ,1.082880973815918
0.010925761553535784,0.02121304234463899,-0.08244383237044843, ,0.011147781891039694,0.021406948566729193,-0.08262590951759692, ,0.00034647473319764446, ,0.001197735479021823,0.0015994282206828964,-0.0029589452861786426,0.006017154785911441,-0.008143007889425811,0.0017325874684899546, ,0.003570447887509815, ,0.010124955751905598, ,3.611368634786957e-05, ,0.15141190073204575,-0.24632428775626497,0.09246436570000001,-4.532448128417994,0.18363945568475198,-1.106448745834396, ,0.008912066865029248,-0.009285222403510844,0.003391273476687248,0.0,0.0003765242324569912,0.003249168975975391, ,1.0965769290924072
0.010940003382119957,0.0212311827801479,-0.08248180140875057, ,0.011164715690441212,0.02142893894445966,-0.08267234910620531, ,0.0003548401711188751, ,0.0013219638190442827,0.0017944290009831543,-0.003751930402230025,-0.0004625212880760181,-0.007357594440672879,0.002182248060665994, ,0.0043640056738745775, ,0.007372117819992848, ,3.6406394087343416e-05, ,0.15151229625941065,-0.24641696055075565,0.09250714327000001,-4.532448128417994,0.18363945568475198,-1.1062853883541146, ,0.008941522767221445,-0.009199013447005008,0.004217318379666403,0.0,0.0003765242324569912,0.009711696765229101, ,1.1106188297271729
0.01096684151143653,0.021268773721088187,-0.08256301294099265, ,0.011181762141891633,0.021450641626306274,-0.08271892579545355, ,0.000321831680432147, ,0.0013220310809952682,0.001864899718471606,-0.0040687561359921435,-0.0014673168078359233,-0.004624168438759438,-0.005074107590809295, ,0.0046819239115013424, ,0.006218723245390001, ,3.669947524037367e-05, ,0.1516821963826436,-0.24659458340686283,0.09259788357000001,-4.532028748531025,0.18363945568475198,-1.1061220308738335, ,0.008322951142198436,-0.008937023068487171,0.004539416221145626,0.00767055541411013,0.0003765242324569912,0.011601854722517707, ,1.122102975845337
0.010979620727682049,0.021286283091295696,-0.08260403293781604, ,0.011198920833659075,0.021472058021006206,-0.08276563882665702, ,0.00032972916810401163, ,0.001387868429793861,0.0017933328632911546,-0.0043654498063784505,-0.002424710478573388,-0.004975282263172664,-0.0052784817829434946, ,0.004919285877948971, ,0.005534677309267604, ,3.700286070075155e-05, ,0.15175942371138584,-0.24667181073560507,0.09264325372000001,-4.532028748531025,0.18363945568475198,-1.1061220308738335, ,0.008557947912053214,-0.0072629970338545305,0.004815239274486094,0.007566305643795653,0.0003765242324569912,0.010881898818389076, ,1.133598804473877
0.010994535797689548,0.021303472004042718,-0.08264619976296021, ,0.01121619135486829,0.02149318953432399,-0.08281248744256829, ,0.0003358206660014885, ,0.001524545015286323,0.0018751425064328802,-0.004329080090762925,0.0020754007030695794,-0.00722927866819024,-0.004939277748566697, ,0.004957956368838444, ,0.007521286899206896, ,3.731252468945326e-05, ,0.15185981923875075,-0.2467413153314731,0.09268992016000001,-4.532028748531025,0.18363945568475198,-1.106040352133693, ,0.010236451086337483,-0.008237139994515426,0.004818152304900182,0.007095117790124271,0.0003765242324569912,0.007237497660009966, ,1.1451799869537354
0.011008960989202234,0.021322272009447165,-0.0826893644762534, ,0.011233573295498102,0.02151403756905403,-0.08285947088737766, ,0.0003408238681437369, ,0.001495169982393199,0.0018165381221979505,-0.004264394613659276,-0.0035921187141078736,-0.006436134931823363,-0.004231733820476452, ,0.004870359888822835, ,0.007370695239030082, ,3.762606380468999e-05, ,0.15195249203324146,-0.24682626539308955,0.09273788289000001,-4.532028748531025,0.18363945568475198,-1.1059586733935525, ,0.009996728022397329,-0.007768502070293185,0.00473789753718025,0.006669537986360318,0.0003765242324569912,0.012434721406822053, ,1.1568520069122314
0.011023701937806545,0.02133915724927976,-0.08273028038619543, ,0.01125106624637839,0.021534603525023205,-0.08290658840671132, ,0.00034781934048090104, ,0.0013647019393397061,0.0015898024774308882,-0.0037589697963655044,-0.000614409603735818,-0.006418878790131564,-0.004315670662736105, ,0.004303456428322595, ,0.006448217066218763, ,3.794736968287399e-05, ,0.15205288756060636,-0.24689576998895757,0.09278325304000001,-4.532028748531025,0.18363945568475198,-1.105876994653412, ,0.009359671190193552,-0.006685878096291873,0.004179693392810286,0.006278044815812035,0.0003765242324569912,0.00828590252193874, ,1.1681389808654785
0.011034843845688551,0.021352551743366817,-0.08276042900509714, ,0.011268669799194607,0.021554888799093407,-0.08295383924763072, ,0.0003647223362642054, ,0.0013848632934341748,0.0016784378298595744,-0.0038650640056924397,0.0006712535948660451,-0.00660939816496033,-0.003988084351480747, ,0.0044355066969067195, ,0.006643397069952481, ,3.829594635189757e-05, ,0.1521301148893486,-0.24695755185195137,0.09281695658000001,-4.532028748531025,0.18363945568475198,-1.105876994653412, ,0.009399650602437335,-0.00737688305799603,0.004306248045417681,0.005997437990841303,0.0003765242324569912,0.00763546142035134, ,1.1800999641418457
0.011052352730625777,0.02137327385354531,-0.08281077987188926, ,0.011286383546481649,0.021574894785164236,-0.0830012226586312, ,0.00036289099996980985, ,0.0014025831188741354,0.0016728141694538783,-0.004087970624777293,0.0005713206800943381,-0.006578060509248021,-0.003780548497104132, ,0.004634333876612519, ,0.006602824111027523, ,3.8634035638308456e-05, ,0.15223823314958776,-0.24704250191356783,0.09287140076000001,-4.532028748531025,0.18363945568475198,-1.1057953159132712, ,0.009189804271884261,-0.006678004439094371,0.004522660851788757,0.005632535449866163,0.0003765242324569912,0.007001923938066638, ,1.1910099983215332
0.011065247182380236,0.02139033444249612,-0.0828516809270371, ,0.01130420708162747,0.021594622874175382,-0.08304873788964127, ,0.0003710350970959558, ,0.0014962858350292343,0.001854875960172025,-0.004412175914523147,0.006983761166188691,-0.007484968782769629,-0.0036404331350023064, ,0.005014651775390929, ,0.010237073606910032, ,3.898142805804364e-05, ,0.1523386286769527,-0.24711200650943585,0.09291806720000001,-4.532028748531025,0.1837760921845174,-1.1058250550768272, ,0.009748463448014376,-0.00776790951766585,0.004890639091188211,0.00536462856665932,0.0007839368590038966,0.0016109232895933244, ,1.203061819076538
0.01109685142331224,0.021426066762954693,-0.08294215805680773, ,0.011322139998868917,0.021614074454109296,-0.08309638419202103, ,0.0003314928882984875, ,0.001509767746359093,0.0016764433003539209,-0.004051708269501076,-0.0015995495983583234,-0.008726564004542574,0.00185778904142765, ,0.004637477836970346, ,0.008871948892496302, ,3.924561712575789e-05, ,0.15254714246455675,-0.24724329296829767,0.09301788153000001,-4.531819058587541,0.1837760921845174,-1.1056616975965459, ,0.010559194896624442,-0.006856980209084774,0.004502207891464105,0.0,0.0007839368590038966,0.008577990753758761, ,1.2172389030456543
0.011112565561228223,0.021441707469666758,-0.08298055717213088, ,0.011340181893292674,0.021633250909993944,-0.08314416081856271, ,0.00033950587223292953, ,0.0014806529185021,0.0015449734618024915,-0.00362394995832577,-0.002273567942632268,-0.009097104173774469,0.0018457874395549309, ,0.004208597077791139, ,0.009376908601091591, ,3.9520095644156624e-05, ,0.1526629834576701,-0.24730507483129147,0.09306065910000001,-4.531819058587541,0.1837760921845174,-1.1054983401162648, ,0.010981633781256604,-0.0065871244692887135,0.0040551964154786155,0.0,0.0007839368590038966,0.008989402075762442, ,1.2290749549865723
0.011127789036935032,0.021456086876098596,-0.08301529681710068, ,0.011358332360833764,0.021652153623905098,-0.08319206702348732, ,0.00035048551989442947, ,0.0014881576564450486,0.0013404963942127324,-0.0033713715263484862,0.0013369065254181843,-0.008450514388069619,-0.005400800764177936, ,0.00392143975626385, ,0.00855561289710634, ,3.9810200087560134e-05, ,0.15277882445078347,-0.24735913396141104,0.09309954780000002,-4.531609368644055,0.1837760921845174,-1.1054166613761245, ,0.011494300091869039,-0.004862271292613796,0.003763007682494685,0.006968938042999367,0.0007839368590038966,0.004656854702948068, ,1.2402489185333252
0.011140485624835064,0.021471099518297093,-0.08304978556253495, ,0.011376590998276107,0.021670783974968934,-0.08324010206244534, ,0.00036309778261812997, ,0.0015078701664151721,0.0015772210630665545,-0.003679132742601703,0.004577862468836677,-0.006924064788744626,-0.004801523126641578, ,0.00427753626030565, ,0.008300572107283449, ,4.011855870068105e-05, ,0.15289466544389685,-0.24742091582440484,0.0931384365,-4.531609368644055,0.1840493651840483,-1.105639497183517, ,0.011325107372292526,-0.006610504411373602,0.004122363229813665,0.006968938042999367,0.0023796865898040712,0.0033556277969961487, ,1.251694917678833
0.01115355937366757,0.021487861457148066,-0.08309030634182343, ,0.011394957403248862,0.021689143339364975,-0.08328826519251566, ,0.00037145001192878945, ,0.001406819445897866,0.0017163952142821171,-0.004473782066568481,0.03576821107292204,0.022619951015815983,0.002544932944722353, ,0.004993984327580202, ,0.04232052818104788, ,4.051217022516998e-05, ,0.15301822916988445,-0.24748269768739864,0.09318380665,-4.531609368644055,0.1844592746833446,-1.1058920721544658, ,0.012437344896260914,-0.0053226855252120455,0.004960701189660542,0.006968938042999367,0.038196154698944364,-0.024351134769186142, ,1.2606480121612549
0.011165474754139898,0.021499355558623374,-0.08312083253514727, ,0.011413431174230743,0.02170723309032795,-0.08333655567220298, ,0.0003888854925463442, ,0.001406904455618271,0.0017018787188391284,-0.0042989469706433085,0.028488815156013904,0.019879040773367992,0.0020750800023996447, ,0.004832878684312212, ,0.03473886655598408, ,4.093223839488417e-05, ,0.1531031792315009,-0.24752131135176977,0.09321751019,-4.531609368644055,0.1844592746833446,-1.1058103934143255, ,0.012333888947032853,-0.0057173390056326654,0.004783426882882884,0.006968938042999367,0.03426051814220366,-0.01716078393114649, ,1.2698040008544922
0.011186785259366767,0.021518526331450953,-0.08316970878789348, ,0.01143201191054219,0.02172505459815134,-0.08338497276143902, ,0.00038617174119761277, ,0.001565651511257739,0.0015315357021548123,-0.003792323352140677,0.007024443031454646,0.009707892316614859,0.00033165234964103703, ,0.0043793358707536895, ,0.011982736429912868, ,4.134114057800563e-05, ,0.1532653566218596,-0.2475908159476378,0.09327195437000001,-4.531609368644055,0.1844592746833446,-1.1054019997136226, ,0.013888034766350178,-0.005374489481684422,0.004257902036888533,0.006968938042999367,0.022614999777684924,0.002531350158995138, ,1.2786049842834473
0.011205274174417315,0.02153481886311152,-0.08321295655738183, ,0.011450699212351414,0.02174260923018902,-0.08343351572157964, ,0.0003899443945061856, ,0.001727183809310843,0.001761202143797489,-0.004694490489438222,-0.0025956144116008524,0.006671605101584923,-0.00024677091960404775, ,0.005303134719945204, ,0.007158737774577637, ,4.175095779003877e-05, ,0.15340436581359565,-0.24764487507775734,0.09331991710000001,-4.531609368644055,0.1844592746833446,-1.1052386422333413, ,0.013646382162564103,-0.005431241401014118,0.0051953070841487285,0.006968938042999367,0.017969445866837776,0.011649155268227615, ,1.2882208824157715
0.01121807210550559,0.02154599246222009,-0.08324479312649072, ,0.011469492680669616,0.021759898350858366,-0.08348218381540479, ,0.000406598541553013, ,0.0018756472875064614,0.0018126392412889671,-0.004863729125267913,-0.006751161555227061,0.00397345968085606,-0.00044403914068781174, ,0.005519019366714559, ,0.007833681220117586, ,4.218500617843163e-05, ,0.15349703860808636,-0.24767576600925426,0.09335491693,-4.531609368644055,0.1844592746833446,-1.1051569634932008, ,0.014857827079766834,-0.005510213882244424,0.005386814852891445,0.006906873805902285,0.015899739510507584,0.015623937502231889, ,1.2985138893127441
0.011244009687880986,0.021571390592522235,-0.08331416515139796, ,0.011488391917351327,0.021776923321642702,-0.08353097630711724, ,0.0003859707943160112, ,0.00204702493891902,0.00189199153679836,-0.005456985540087867,-0.017703723073606487,-0.009517978669563743,-0.003728750907034692, ,0.006127694041040325, ,0.02010009263118266, ,4.257570900145732e-05, ,0.15369010692994198,-0.2477529933379965,0.09343139804000002,-4.531609368644055,0.18459591118311003,-1.1052683813968973, ,0.014104777282769142,-0.004955613304989575,0.005974798019504878,0.006439338229948609,0.0,0.023807318802113245, ,1.307499885559082
0.011263131423046907,0.02159086366088771,-0.08337227312342754, ,0.011507396525093486,0.021793685501093826,-0.08357989246234161, ,0.00037935198540871713, ,0.0020851491123147657,0.0019738031223973627,-0.006155276860823364,-0.008028085781259171,-0.004472163923323432,-0.00019068600071847348, ,0.0067919937293816875, ,0.009189690018313587, ,4.294901105396248e-05, ,0.15383683885455224,-0.24779160700236763,0.09349491625,-4.531399678700571,0.18486918418264095,-1.10549121720429, ,0.014027633637615784,-0.003811627958102656,0.006681548456375841,0.0038199416490162946,0.00724424981816352,0.013525734827095699, ,1.3169620037078857
0.011263131423046907,0.02159086366088771,-0.08337227312342754, ,0.011526506107434489,0.021810186244834724,-0.08362893154812309, ,0.0004281847348664521, ,0.0020851491123147657,0.0019738031223973627,-0.006155276860823364,-0.008028085781259171,-0.004472163923323432,-0.00019068600071847348, ,0.0067919937293816875, ,0.009189690018313587, ,4.340360093100255e-05, ,0.15383683885455224,-0.24779160700236763,0.09349491625,-4.531399678700571,0.18486918418264095,-1.10549121720429, ,0.014027633637615784,-0.003811627958102656,0.006681548456375841,0.0038199416490162946,0.00724424981816352,0.013525734827095699, ,1.3261609077453613
0.011303659407360181,0.021629204928251412,-0.08348335637525328, ,0.01154572026875424,0.021826426905561868,-0.08367809283292699, ,0.00036798404435570657, ,0.0017945982800163978,0.0015866227878638631,-0.004623823191590112,0.021436294963240426,0.008375870786441678,0.0027138132285459624, ,0.005207465387757587, ,0.023014559545398546, ,4.374580100253722e-05, ,0.15413802543664698,-0.24788427979685831,0.09361676751,-4.531189988757087,0.18514245718217182,-1.1053056593109802, ,0.015293624747537595,-0.003541227502636446,0.005105388307692308,0.0038412325034048733,0.025677356851182807,-0.01389120295813475, ,1.3364558219909668
0.011325440602436848,0.02164518139844009,-0.08353027822233008, ,0.011565038614272535,0.021842408833048128,-0.08372737558663693, ,0.000367631934486636, ,0.0020486226788501635,0.0016319297642801774,-0.004795151697202658,-0.005730735760967642,-0.002711410478670255,0.0008950583904996852, ,0.005463838342688068, ,0.006339800991409667, ,4.408259948239122e-05, ,0.15430792555987993,-0.24792289346122942,0.09366861911,-4.531189988757087,0.18514245718217182,-1.105142301830699, ,0.016503815923212307,-0.0037141866687440297,0.005293722671984049,0.0038412325034048733,0.011912868580082612,0.011776833063271638, ,1.3462238311767578
0.011345327296338676,0.02166051047590216,-0.08357762214347114, ,0.011584460750048127,0.021858133374145234,-0.08377677908055456, ,0.00036865038204435784, ,0.0021853788548282837,0.0018460074772466868,-0.005524742839182265,0.018205472842705725,-0.007078567788124567,-0.0010901293376488538, ,0.006221447402677047, ,0.019533186074230113, ,4.441648834370163e-05, ,0.1544546574844902,-0.24795378439272633,0.09372047071,-4.531189988757087,0.18514245718217182,-1.1048972656102773, ,0.016625252550537976,-0.004025642899891006,0.00606349886562619,0.0038412325034048733,0.01065307762926772,-0.012283172055127129, ,1.3556029796600342
0.011369472075880646,0.021681773312776886,-0.0836388380291276, ,0.011603986282978746,0.02187360187278599,-0.08382630258739811, ,0.0003562836936678059, ,0.0020890027294947237,0.0017516531454779317,-0.004933684681452361,-0.0016443695100752645,-0.010652226515709469,-0.0015050750368084671, ,0.0056367956927581495, ,0.010778398670695926, ,4.472444996489645e-05, ,0.15463228034059737,-0.2480078435228459,0.09378398892,-4.531189988757087,0.18527909368193726,-1.1050903622541144, ,0.015816156926411796,-0.004785644507899691,0.00549648430641822,0.0038412325034048733,0.003408983393991726,0.0075057807651425605, ,1.364487886428833
0.011369472075880646,0.021681773312776886,-0.0836388380291276, ,0.011623614820800978,0.02188881566998743,-0.08387594538130119, ,0.0004045676320835779, ,0.0020890027294947237,0.0017516531454779317,-0.004933684681452361,-0.0016443695100752645,-0.010652226515709469,-0.0015050750368084671, ,0.0056367956927581495, ,0.010778398670695926, ,4.518824804755321e-05, ,0.15463228034059737,-0.2480078435228459,0.09378398892,-4.531189988757087,0.18527909368193726,-1.1050903622541144, ,0.015816156926411796,-0.004785644507899691,0.00549648430641822,0.0038412325034048733,0.003408983393991726,0.0075057807651425605, ,1.372243881225586
0.011388868891434157,0.021697424595238844,-0.08368573164255136, ,0.01164334597208666,0.021903776103853027,-0.08392570673781227, ,0.000406112762702989, ,0.0020323891011079596,0.0015676105399677863,-0.004895359361326681,0.012874182463705806,0.0023741110054806,0.0015983629082509001, ,0.005527436253802416, ,0.013091255645037745, ,4.564993408605206e-05, ,0.1548099031967045,-0.2480387344543428,0.09383972939000002,-4.531189988757087,0.18555236668146813,-1.1053131980615072, ,0.01693076566609648,-0.002560262846401669,0.005384993752535498,0.0038412325034048733,0.020184978113314628,-0.0070017393707101855, ,1.3792338371276855
0.011410078926097139,0.021715167279416785,-0.08374015089244549, ,0.011663179346244303,0.021918484509575467,-0.08397558593389365, ,0.0004010328883019007, ,0.0021592580553969056,0.00188060964307421,-0.00592042183305938,0.015040047937119827,0.003546202690020435,0.0002741702254705951, ,0.006576509914900632, ,0.015452462204960693, ,4.609829246643193e-05, ,0.15497208058706324,-0.2480696253858397,0.09389935873000001,-4.530980298813603,0.18568900318123358,-1.1054246159652035, ,0.016581677714218205,-0.00308513589795122,0.006464615064935065,0.005390816693887499,0.02082825400070912,-0.008337012931175482, ,1.3865528106689453
0.011410078926097139,0.021715167279416785,-0.08374015089244549, ,0.011683114553517851,0.021932942219438926,-0.08402558224792009, ,0.00045104926231037614, ,0.0021592580553969056,0.00188060964307421,-0.00592042183305938,0.015040047937119827,0.003546202690020435,0.0002741702254705951, ,0.006576509914900632, ,0.015452462204960693, ,4.6626593792295245e-05, ,0.1551574261760446,-0.24810823905021082,0.09397324726,-4.530980298813603,0.18568900318123358,-1.1052612584849224, ,0.0175800188140924,-0.0032592742419061413,0.008093908292682929,0.005390816693887499,0.020337650066909074,-0.0060231320870725155, ,1.3934478759765625
0.011436539020600862,0.02173657514282277,-0.08380797158963864, ,0.011703151204987038,0.02194715056282188,-0.0840756949596775, ,0.0004325504216110931, ,0.0024930759727060632,0.0022953422235400542,-0.0074652971268046415,0.012853303890250765,0.0023729772840464054,0.0003368849157897411, ,0.008198456252266504, ,0.013070517162653516, ,4.7118477221260296e-05, ,0.1551574261760446,-0.24810823905021082,0.09397324726,-4.530980298813603,0.18568900318123358,-1.1052612584849224, ,0.0175800188140924,-0.0032592742419061413,0.008093908292682929,0.005390816693887499,0.020337650066909074,-0.0060231320870725155, ,1.4001729488372803
0.011465912568994667,0.021760519105151636,-0.08388958940033955, ,0.011723288912565416,0.021961110866199667,-0.08412592335036273, ,0.00040290615875629795, ,0.0028315721875291,0.0023466684339829833,-0.007989508742638617,0.004570244717490922,-0.00376625390941554,-0.00014703195322049228, ,0.008795277354406703, ,0.005922142579695263, ,4.7555853019073875e-05, ,0.15535049449790023,-0.2481314072488335,0.09406139498,-4.530770608870118,0.18568900318123358,-1.1050979010046413, ,0.02005853763654001,-0.002324643245960093,0.008647563257328992,0.004955870004733036,0.01571917464532823,0.000694578501962766, ,1.4067409038543701
0.011465912568994667,0.021760519105151636,-0.08388958940033955, ,0.01174352728899737,0.021974824453147034,-0.08417626670258191, ,0.000452968641919683, ,0.0028315721875291,0.0023466684339829833,-0.007989508742638617,0.004570244717490922,-0.00376625390941554,-0.00014703195322049228, ,0.008795277354406703, ,0.005922142579695263, ,4.807216097724768e-05, ,0.15535049449790023,-0.2481314072488335,0.09406139498,-4.530770608870118,0.18568900318123358,-1.1050979010046413, ,0.02005853763654001,-0.002324643245960093,0.008647563257328992,0.004955870004733036,0.01571917464532823,0.000694578501962766, ,1.4134318828582764
0.011490144079561046,0.021779992009482853,-0.08395550853186726, ,0.011763865947862988,0.02198829264434057,-0.08422672430034969, ,0.0004380306025180792, ,0.002847468626375503,0.002380171589680875,-0.008031281562981616,0.002493695753851506,-0.005622765332573521,-0.0005979257884595808, ,0.0088473034263783, ,0.006150932862931565, ,4.8558608195105855e-05, ,0.15551267188825896,-0.24815457544745617,0.09413269093000001,-4.530770608870118,0.18568900318123358,-1.1050162222645008, ,0.019886198985429752,-0.0026117431341291767,0.008694766113537119,0.004955870004733036,0.013319586332515058,0.0027378804835850295, ,1.420339822769165
0.011522259524713082,0.02180710687538598,-0.08404899777294624, ,0.011784304503571303,0.022001516757561585,-0.08427729542908848, ,0.0003982242999019263, ,0.0028856297180419833,0.002419352714982736,-0.008449732806497702,0.002702835061025419,-0.007768457139560998,-0.0015331523782827164, ,0.009250843795586699, ,0.008225217360187909, ,4.897466828623701e-05, ,0.15574435387448568,-0.24817774364607884,0.09423380155000001,-4.530770608870118,0.18596227618076444,-1.105157379331753, ,0.0192332674419276,-0.0019109372744433096,0.009107382229845628,0.004955870004733036,0.010557695752294696,0.0014334707815631866, ,1.427886962890625
0.011548858890437129,0.021830861655626296,-0.08413173893303891, ,0.011804842571363109,0.022014498107698285,-0.08432797937562653, ,0.00037116075053403275, ,0.00269505975061498,0.0022027307902879136,-0.007577443148407217,0.03570556265512619,0.014212157353727663,0.004184571054565383, ,0.009250843795586699, ,0.008225217360187909, ,4.934226950865557e-05, ,0.15594514492921552,-0.2481931891118273,0.09432324556,-4.530770608870118,0.18637218568006078,-1.1054099543027016, ,0.02162646799418204,-0.0014766160555551738,0.00823620037228542,0.004955870004733036,0.04004950857791447,-0.02815435532983356, ,1.4348549842834473
0.011548858890437129,0.021830861655626296,-0.08413173893303891, ,0.011825479767309561,0.02202723800674872,-0.08437877542819819, ,0.00041965439440379076, ,0.00269505975061498,0.0022027307902879136,-0.007577443148407217,0.03570556265512619,0.014212157353727663,0.004184571054565383, ,0.008338645852967421, ,0.038430100132383856, ,4.978538139426376e-05, ,0.15594514492921552,-0.2481931891118273,0.09432324556,-4.530770608870118,0.18637218568006078,-1.1054099543027016, ,0.02162646799418204,-0.0014766160555551738,0.00823620037228542,0.004955870004733036,0.04004950857791447,-0.02815435532983356, ,1.4415249824523926
0.011579148048542154,0.02185237402218801,-0.08420957919491107, ,0.011846215708311054,0.02203973776382301,-0.08442968287644145, ,0.0003935428022428232, ,0.0026183211094645224,0.0020381865413241227,-0.007111161822006113,0.02415104446690372,0.010360464865453526,0.0032128880410889874, ,0.007917322303192196, ,0.02627950081120449, ,5.018178830669888e-05, ,0.15616910418256805,-0.24820091184470153,0.09440750441000001,-4.530770608870118,0.1865088221798262,-1.1054396934662576, ,0.020907015104311696,-0.001089165622511236,0.007728680989810773,0.004955870004733036,0.033872649770805334,-0.017744046916300667, ,1.4490249156951904
0.011579148048542154,0.02185237402218801,-0.08420957919491107, ,0.01186705001209517,0.02205199868514645,-0.08448070101139815, ,0.00044299501809186363, ,0.0026183211094645224,0.0020381865413241227,-0.007111161822006113,0.02415104446690372,0.010360464865453526,0.0032128880410889874, ,0.007847192636112587, ,0.02627950081120449, ,5.0736208114916464e-05, ,0.15616910418256805,-0.24820091184470153,0.09440750441000001,-4.530770608870118,0.1865088221798262,-1.1054396934662576, ,0.020907015104311696,-0.001089165622511236,0.007728680989810773,0.004955870004733036,0.033872649770805334,-0.017744046916300667, ,1.4536139965057373
0.011610115759126825,0.02187277495301819,-0.08428377315817673, ,0.01188798229721877,0.022064022074061284,-0.08453182912551221, ,0.00041870877376670615, ,0.002691175834484134,0.0018671334518788132,-0.0068666893243073904,0.016291012208238264,-0.0004005518546010046,0.0002331604874110321, ,0.0076078930707386624, ,0.016295935238297306, ,5.124787965933078e-05, ,0.15639306343592055,-0.24820863457757575,0.09448787439,-4.530770608870118,0.1865088221798262,-1.1052763359859765, ,0.020925455690952763,-6.245701615796131e-05,0.00744336986915888,0.004955870004733036,0.021913035391451504,-0.01252780218741641, ,1.4582188129425049
0.011610115759126825,0.02187277495301819,-0.08428377315817673, ,0.011909012183065018,0.022075809231030027,-0.08458306651262891, ,0.00046918919671073804, ,0.002691175834484134,0.0018671334518788132,-0.0068666893243073904,0.016291012208238264,-0.0004005518546010046,0.0002331604874110321, ,0.0076078930707386624, ,0.016295935238297306, ,5.183741894774248e-05, ,0.15639306343592055,-0.24820863457757575,0.09448787439,-4.530770608870118,0.1865088221798262,-1.1052763359859765, ,0.020925455690952763,-6.245701615796131e-05,0.00744336986915888,0.004955870004733036,0.021913035391451504,-0.01252780218741641, ,1.4626998901367188
0.011640579061685426,0.0218925590059909,-0.08435413920000867, ,0.011930139289843125,0.02208736145363756,-0.08463441246799398, ,0.0004476005184168523, ,0.0031978653877272147,0.0021104088382821137,-0.007568146510969051,0.00547949537693728,-0.007983045907123221,-0.0014652920217049922, ,0.008482747792679917, ,0.0096826580396488, ,5.238858189729595e-05, ,0.15661702268927305,-0.24821635731044997,0.0945643555,-4.530560918926633,0.1865088221798262,-1.1050312997655547, ,0.02490733374238078,-0.0006841231327066219,0.00823620037228542,0.00609483562017658,0.01639256613684561,-0.001588803955306888, ,1.4681878089904785
0.011640579061685426,0.0218925590059909,-0.08435413920000867, ,0.01195136323858772,0.022098680036593953,-0.08468586628825195, ,0.000499114761296502, ,0.0031978653877272147,0.0021104088382821137,-0.007568146510969051,0.00547949537693728,-0.007983045907123221,-0.0014652920217049922, ,0.008482747792679917, ,0.0096826580396488, ,5.3018514161675997e-05, ,0.15661702268927305,-0.24821635731044997,0.0945643555,-4.530560918926633,0.1865088221798262,-1.1050312997655547, ,0.02490733374238078,-0.0006841231327066219,0.00823620037228542,0.00609483562017658,0.01639256613684561,-0.001588803955306888, ,1.4731907844543457
0.011673268216070305,0.021916780555435684,-0.08444152176831529, ,0.011972683651157601,0.022109766271737066,-0.08473742727144613, ,0.000463090872559576, ,0.0032334893626017247,0.0022792400612122116,-0.008665916802162676,-0.006372487403809452,-0.01122874854143715,-0.00265294273604546, ,0.009526200855361938, ,0.01291097752477071, ,5.358707123848528e-05, ,0.15686415014124824,-0.2482240800433242,0.09465898467000002,-4.530560918926633,0.1867820951793571,-1.1051724568328072, ,0.0225194450779475,0.00037717040172508193,0.00932600206088993,0.00588617781350636,0.009226671772580955,0.008278034568352664, ,1.4776978492736816
0.011673268216070305,0.021916780555435684,-0.08444152176831529, ,0.011994100150236416,0.022120621448034696,-0.08478909471701643, ,0.0005150642621509791, ,0.0032334893626017247,0.0022792400612122116,-0.008665916802162676,-0.006372487403809452,-0.01122874854143715,-0.00265294273604546, ,0.009526200855361938, ,0.01291097752477071, ,5.4234515872888464e-05, ,0.15686415014124824,-0.2482240800433242,0.09465898467000002,-4.530560918926633,0.1867820951793571,-1.1051724568328072, ,0.0225194450779475,0.00037717040172508193,0.00932600206088993,0.00588617781350636,0.009226671772580955,0.008278034568352664, ,1.482111930847168
0.011703212721210589,0.021940475807423532,-0.08453011605579629, ,0.01201561235932943,0.022131246851587825,-0.08484086792579955, ,0.0004801602335667139, ,0.0030208193832738854,0.002522752377418289,-0.009233339304899234,0.05427066948937348,0.03915805032766014,0.010822106804544923, ,0.010037140231337307, ,0.06692277941909867, ,5.482263486311146e-05, ,0.15711900032609766,-0.24821635731044997,0.09475491013000001,-4.530560918926633,0.1874652776781843,-1.1057295463512893, ,0.02545518818628508,0.00030307419234790563,0.009999253935969869,0.005539057772188411,0.0721849660092846,-0.044030094419297755, ,1.4865188598632812
0.011703212721210589,0.021940475807423532,-0.08453011605579629, ,0.012037219902764462,0.022141643765632706,-0.08489274620002674, ,0.0005324753198451612, ,0.0030208193832738854,0.002522752377418289,-0.009233339304899234,0.05427066948937348,0.03915805032766014,0.010822106804544923, ,0.010037140231337307, ,0.06692277941909867, ,5.548955923238424e-05, ,0.15711900032609766,-0.24821635731044997,0.09475491013000001,-4.530560918926633,0.1874652776781843,-1.1057295463512893, ,0.02545518818628508,0.00030307419234790563,0.009999253935969869,0.005539057772188411,0.0721849660092846,-0.044030094419297755, ,1.4912738800048828
0.011741402743525496,0.02196913226312596,-0.08463854009889363, ,0.012058922405692504,0.02215181347054326,-0.0849447288433234, ,0.0004774334577944552, ,0.003944335370692148,0.0030550226908496875,-0.011664536652600064,0.02751932232405004,0.0038804966607823115,0.005527511728298728, ,0.012686700141405957, ,0.02779156597903637, ,5.606574530051268e-05, ,0.15738929597669551,-0.24820863457757575,0.09487157623,-4.5303512289831485,0.18773855067771517,-1.105789024678401, ,0.027869880046540608,0.0008062537554952696,0.012532503162863888,0.0023672546129249726,0.03576876561727945,-0.023159319941266018, ,1.4959259033203125
0.011741402743525496,0.02196913226312596,-0.08463854009889363, ,0.012080719494082777,0.022161757243834356,-0.08499681516070859, ,0.0005297180951413454, ,0.003944335370692148,0.0030550226908496875,-0.011664536652600064,0.02751932232405004,0.0038804966607823115,0.005527511728298728, ,0.012686700141405957, ,0.02779156597903637, ,5.672026975903982e-05, ,0.15738929597669551,-0.24820863457757575,0.09487157623,-4.5303512289831485,0.18773855067771517,-1.105789024678401, ,0.027869880046540608,0.0008062537554952696,0.012532503162863888,0.0023672546129249726,0.03576876561727945,-0.023159319941266018, ,1.5004589557647705
0.011741402743525496,0.02196913226312596,-0.08463854009889363, ,0.012102610794725832,0.02217147636016383,-0.08504900445859288, ,0.0005830054720509356, ,0.003944335370692148,0.0030550226908496875,-0.011664536652600064,0.02751932232405004,0.0038804966607823115,0.005527511728298728, ,0.012686700141405957, ,0.02779156597903637, ,5.745396496612241e-05, ,0.15765186889441915,-0.24820091184470153,0.09500250152,-4.5303512289831485,0.18773855067771517,-1.1055439884579792, ,0.028566207573290422,0.0007352426817042601,0.013649367197943447,0.0023672546129249726,0.020367631661454676,0.0012815057846712209, ,1.5049498081207275
0.011783578532828215,0.022000636113653594,-0.08476096088792985, ,0.012124595935230565,0.022180972091335172,-0.08510129604477795, ,0.0005144336230986838, ,0.004318333077084637,0.003317539392429945,-0.012732284353064758,0.0012350364992006146,-0.008405237188334424,0.0031469758212489536, ,0.013847928835470862, ,0.008495468953631615, ,5.8076279129933066e-05, ,0.15765186889441915,-0.24820091184470153,0.09500250152,-4.5303512289831485,0.18773855067771517,-1.1055439884579792, ,0.028566207573290422,0.0007352426817042601,0.013649367197943447,0.0023672546129249726,0.020367631661454676,0.0012815057846712209, ,1.5107460021972656
0.011783578532828215,0.022000636113653594,-0.08476096088792985, ,0.012146674544025226,0.022190245706299974,-0.08515368922845558, ,0.0005674734006301949, ,0.004318333077084637,0.003317539392429945,-0.012732284353064758,0.0012350364992006146,-0.008405237188334424,0.0031469758212489536, ,0.013847928835470862, ,0.008495468953631615, ,5.877708789137768e-05, ,0.15765186889441915,-0.24820091184470153,0.09500250152,-4.5303512289831485,0.18773855067771517,-1.1055439884579792, ,0.028566207573290422,0.0007352426817042601,0.013649367197943447,0.0023672546129249726,0.020367631661454676,0.0012815057846712209, ,1.5155909061431885
0.011826986872501218,0.022032638619810523,-0.08488150461968345, ,0.012168846250354269,0.022199298471160967,-0.08520618332020674, ,0.0005000595953001178, ,0.004401888111613464,0.00312996832110834,-0.012094252859570484,-0.01652012161788523,-0.025872418396486376,-0.0012327589040937899, ,0.01324553784749923, ,0.030696843375072135, ,5.9369201543881336e-05, ,0.15794533274363967,-0.24820091184470153,0.09513213052000001,-4.5303512289831485,0.1878751871774806,-1.1054920488813946, ,0.028523276693258423,0.000705597687103871,0.012971344885993488,0.0023672546129249726,0.0,0.01635608610083494, ,1.520108938217163
0.011826986872501218,0.022032638619810523,-0.08488150461968345, ,0.012191110684279603,0.02220813164917408,-0.08525877763199975, ,0.0005529185107060836, ,0.004401888111613464,0.00312996832110834,-0.012094252859570484,-0.01652012161788523,-0.025872418396486376,-0.0012327589040937899, ,0.01324553784749923, ,0.030696843375072135, ,6.003923257415652e-05, ,0.15794533274363967,-0.24820091184470153,0.09513213052000001,-4.5303512289831485,0.1878751871774806,-1.1054920488813946, ,0.028523276693258423,0.000705597687103871,0.012971344885993488,0.0023672546129249726,0.0,0.01635608610083494, ,1.5245318412780762
0.011869396328113438,0.022064633307188077,-0.0850017456270058, ,0.012213467476679656,0.022216746500751075,-0.08531147147719018, ,0.00048729198762553674, ,0.004632434011882319,0.0030932673551972074,-0.01170797811290914,0.0026575828653007277,-0.01398199728906299,-0.002055404633105798, ,0.012965511918066802, ,0.014232314459847245, ,6.060417645489071e-05, ,0.15825424205860866,-0.2481931891118273,0.09526175952,-4.530141539039664,0.18828509667677693,-1.105826302592484, ,0.03369919799661605,0.0005619881240685528,0.012651955138999207,0.0073200672066319845,0.018723719740375306,0.0005497175577036922, ,1.5289909839630127
0.011869396328113438,0.022064633307188077,-0.0850017456270058, ,0.01223591625924727,0.022225144283462585,-0.08536426417051983, ,0.0005399262244181883, ,0.004632434011882319,0.0030932673551972074,-0.01170797811290914,0.0026575828653007277,-0.01398199728906299,-0.002055404633105798, ,0.012965511918066802, ,0.014232314459847245, ,6.124638177929011e-05, ,0.15825424205860866,-0.2481931891118273,0.09526175952,-4.530141539039664,0.18828509667677693,-1.105826302592484, ,0.03369919799661605,0.0005619881240685528,0.012651955138999207,0.0073200672066319845,0.018723719740375306,0.0005497175577036922, ,1.5334908962249756
0.011912768811315078,0.0220960938721511,-0.08512132481242163, ,0.012258456664489475,0.022233326252039987,-0.08541715502811476, ,0.0004752350307367223, ,0.004392932912579369,0.0030594902286523273,-0.011516485479940669,0.05128643332368303,0.024195829579146986,0.00772622472570545, ,0.01269991251321545, ,0.056707461673982475, ,6.188036133358939e-05, ,0.1586172105036972,-0.24817774364607884,0.09539138852000001,-4.530141539039664,0.18910491567536958,-1.1064131312745218, ,0.03613744918449001,0.0011726514047374625,0.012502991773940349,0.0073200672066319845,0.06701435776877414,-0.04233318453980427, ,1.5358757972717285
0.011912768811315078,0.0220960938721511,-0.08512132481242163, ,0.012281088325727397,0.02224129365837865,-0.08547014336748518, ,0.0005276519941913198, ,0.004392932912579369,0.0030594902286523273,-0.011516485479940669,0.05128643332368303,0.024195829579146986,0.00772622472570545, ,0.01269991251321545, ,0.056707461673982475, ,6.259255037465625e-05, ,0.1586172105036972,-0.24817774364607884,0.09539138852000001,-4.530141539039664,0.18910491567536958,-1.1064131312745218, ,0.03613744918449001,0.0011726514047374625,0.012502991773940349,0.0073200672066319845,0.06701435776877414,-0.04233318453980427, ,1.5384678840637207
0.011912768811315078,0.0220960938721511,-0.08512132481242163, ,0.01230381087709575,0.02224904775153991,-0.0855232285075243, ,0.0005812360678478915, ,0.004392932912579369,0.0030594902286523273,-0.011516485479940669,0.05128643332368303,0.024195829579146986,0.00772622472570545, ,0.01269991251321545, ,0.056707461673982475, ,6.338437253873753e-05, ,0.1586172105036972,-0.24817774364607884,0.09539138852000001,-4.530141539039664,0.18910491567536958,-1.1064131312745218, ,0.03613744918449001,0.0011726514047374625,0.012502991773940349,0.0073200672066319845,0.06701435776877414,-0.04233318453980427, ,1.540787935256958
0.011912768811315078,0.0220960938721511,-0.08512132481242163, ,0.012326623953539735,0.022256589777754094,-0.0855764097685063, ,0.0006357179655442419, ,0.004392932912579369,0.0030594902286523273,-0.011516485479940669,0.05128643332368303,0.024195829579146986,0.00772622472570545, ,0.01269991251321545, ,0.056707461673982475, ,6.425683228417275e-05, ,0.1586172105036972,-0.24817774364607884,0.09539138852000001,-4.530141539039664,0.18910491567536958,-1.1064131312745218, ,0.03613744918449001,0.0011726514047374625,0.012502991773940349,0.0073200672066319845,0.06701435776877414,-0.04233318453980427, ,1.543118953704834
0.011962717913618203,0.02212835603171264,-0.08524761396380745, ,0.012349527190817099,0.02226392098042284,-0.08562968647208741, ,0.0005603379996299276, ,0.004392932912579369,0.0030594902286523273,-0.011516485479940669,0.05128643332368303,0.024195829579146986,0.00772622472570545, ,0.01269991251321545, ,0.056707461673982475, ,6.50119025541054e-05, ,0.15897245621591152,-0.2481622981803304,0.09552749897000001,-4.530141539039664,0.18924155217513502,-1.1062795129577965, ,0.0352776734418107,0.001474353203258963,0.014171540498220642,0.007024223803311427,0.028434137296930877,-0.00783455406717274, ,1.5455889701843262
0.011962717913618203,0.02212835603171264,-0.08524761396380745, ,0.012372520225495983,0.022271042600121756,-0.08568305794130228, ,0.0006147429130630615, ,0.004932892116411639,0.003398168992037889,-0.013152949047478834,0.01137546903375276,-0.007435638006905073,9.027782882460957e-05, ,0.01445271759137977, ,0.013590055726621388, ,0.00036106302409258595, ,0.15897245621591152,-0.2481622981803304,0.09552749897000001,-4.530141539039664,0.18924155217513502,-1.1062795129577965, ,0.0352776734418107,0.001474353203258963,0.014171540498220642,0.007024223803311427,0.028434137296930877,-0.00783455406717274, ,1.5479838848114014
0.011962717913618203,0.02212835603171264,-0.08524761396380745, ,0.012395602694953229,0.022277955874602948,-0.08573652350056495, ,0.0006699267736377657, ,0.004932892116411639,0.003398168992037889,-0.013152949047478834,0.01137546903375276,-0.007435638006905073,9.027782882460957e-05, ,0.01445271759137977, ,0.013590055726621388, ,0.00036361561706403373, ,0.15897245621591152,-0.2481622981803304,0.09552749897000001,-4.530141539039664,0.18924155217513502,-1.1062795129577965, ,0.0352776734418107,0.001474353203258963,0.014171540498220642,0.007024223803311427,0.028434137296930877,-0.00783455406717274, ,1.5502448081970215
0.011962717913618203,0.02212835603171264,-0.08524761396380745, ,0.012418774237375037,0.02228466203879781,-0.08579008247566755, ,0.0007257348170297593, ,0.004932892116411639,0.003398168992037889,-0.013152949047478834,0.01137546903375276,-0.007435638006905073,9.027782882460957e-05, ,0.01445271759137977, ,0.013590055726621388, ,0.0003665838072276873, ,0.15897245621591152,-0.2481622981803304,0.09552749897000001,-4.530141539039664,0.18924155217513502,-1.1062795129577965, ,0.0352776734418107,0.001474353203258963,0.014171540498220642,0.007024223803311427,0.028434137296930877,-0.00783455406717274, ,1.552501916885376
0.011962717913618203,0.02212835603171264,-0.08524761396380745, ,0.012442034491756697,0.022291162324819064,-0.08584373419377753, ,0.000782054729371945, ,0.004932892116411639,0.003398168992037889,-0.013152949047478834,0.01137546903375276,-0.007435638006905073,9.027782882460957e-05, ,0.01445271759137977, ,0.013590055726621388, ,0.0003699616196028438, ,0.15897245621591152,-0.2481622981803304,0.09552749897000001,-4.530141539039664,0.18924155217513502,-1.1062795129577965, ,0.0352776734418107,0.001474353203258963,0.014171540498220642,0.007024223803311427,0.028434137296930877,-0.00783455406717274, ,1.5554468631744385
0.01200752289639622,0.022156099050938592,-0.0853622741376059, ,0.012465383097900289,0.02229745796196387,-0.0858974779834392, ,0.0007183741799663717, ,0.004932892116411639,0.003398168992037889,-0.013152949047478834,0.01137546903375276,-0.007435638006905073,9.027782882460957e-05, ,0.01445271759137977, ,0.013590055726621388, ,0.00037277139831545287, ,0.15928908826375474,-0.2481314072488335,0.09565064652000001,-4.530141539039664,0.18937818867490044,-1.1061458946410712, ,0.04436509656777502,0.004338011908200989,0.017427583719912477,0.006686926502905908,0.0,0.018835877675941845, ,1.5579018592834473
0.01200752289639622,0.022156099050938592,-0.0853622741376059, ,0.01248881969641549,0.022303550176716064,-0.08595131317457055, ,0.0007748260651720989, ,0.006483658099453733,0.003917198470992603,-0.016239054038458642,-0.021893152456338806,-0.04034353627769377,-0.005767238950189019, ,0.017918960412806842, ,0.0459010883812235, ,0.00037598783565030605, ,0.15928908826375474,-0.2481314072488335,0.09565064652000001,-4.530141539039664,0.18937818867490044,-1.1061458946410712, ,0.04436509656777502,0.004338011908200989,0.017427583719912477,0.006686926502905908,0.0,0.018835877675941845, ,1.5607028007507324
0.01200752289639622,0.022156099050938592,-0.0853622741376059, ,0.01251234392871463,0.022309440192749153,-0.08600523909846428, ,0.0008317221419046161, ,0.006483658099453733,0.003917198470992603,-0.016239054038458642,-0.021893152456338806,-0.04034353627769377,-0.005767238950189019, ,0.017918960412806842, ,0.0459010883812235, ,0.0003796047745888323, ,0.15928908826375474,-0.2481314072488335,0.09565064652000001,-4.530141539039664,0.18937818867490044,-1.1061458946410712, ,0.04436509656777502,0.004338011908200989,0.017427583719912477,0.006686926502905908,0.0,0.018835877675941845, ,1.5629959106445312
0.01200752289639622,0.022156099050938592,-0.0853622741376059, ,0.012535955437018655,0.022315129230928307,-0.08605925508778425, ,0.0008889960590732454, ,0.006483658099453733,0.003917198470992603,-0.016239054038458642,-0.021893152456338806,-0.04034353627769377,-0.005767238950189019, ,0.017918960412806842, ,0.0459010883812235, ,0.0003836157295847725, ,0.159814234099202,-0.2480696253858397,0.09589305275000001,-4.5299318490961795,0.1901980076734931,-1.1065693658428282, ,0.04633639724534706,0.0048496550352635625,0.021940511735537193,0.0030050154789634693,0.12056470885148331,-0.061738101039434445, ,1.5653038024902344
0.012082630397708755,0.022211579417107694,-0.08558868024810952, ,0.012559653864350264,0.022320618509313328,-0.08611336047656704, ,0.000717447038804916, ,0.006282827447682577,0.0051115883365464845,-0.020465621815260585,0.07372927903474256,0.06153771740443864,0.02422531783081146, ,0.022010087059004143, ,0.09603589776787229, ,0.00038622378668805486, ,0.159814234099202,-0.2480696253858397,0.09589305275000001,-4.5299318490961795,0.1901980076734931,-1.1065693658428282, ,0.04633639724534706,0.0048496550352635625,0.021940511735537193,0.0030050154789634693,0.12056470885148331,-0.061738101039434445, ,1.5675628185272217
0.012082630397708755,0.022211579417107694,-0.08558868024810952, ,0.012583438854537674,0.022325909243161007,-0.08616755460021853, ,0.0007739353558834072, ,0.006282827447682577,0.0051115883365464845,-0.020465621815260585,0.07372927903474256,0.06153771740443864,0.02422531783081146, ,0.022010087059004143, ,0.09603589776787229, ,0.00038922930272832895, ,0.159814234099202,-0.2480696253858397,0.09589305275000001,-4.5299318490961795,0.1901980076734931,-1.1065693658428282, ,0.04633639724534706,0.0048496550352635625,0.021940511735537193,0.0030050154789634693,0.12056470885148331,-0.061738101039434445, ,1.5697460174560547
0.012082630397708755,0.022211579417107694,-0.08558868024810952, ,0.012607310052209785,0.022331002644927943,-0.08622183679551518, ,0.0008309259056696818, ,0.006282827447682577,0.0051115883365464845,-0.020465621815260585,0.07372927903474256,0.06153771740443864,0.02422531783081146, ,0.022010087059004143, ,0.09603589776787229, ,0.0003926269689048009, ,0.159814234099202,-0.2480696253858397,0.09589305275000001,-4.5299318490961795,0.1901980076734931,-1.1065693658428282, ,0.04633639724534706,0.0048496550352635625,0.021940511735537193,0.0030050154789634693,0.12056470885148331,-0.061738101039434445, ,1.5719709396362305
0.012082630397708755,0.022211579417107694,-0.08558868024810952, ,0.01263126710279983,0.022335899924272724,-0.08627620640060112, ,0.0008883411692783681, ,0.006282827447682577,0.0051115883365464845,-0.020465621815260585,0.07372927903474256,0.06153771740443864,0.02422531783081146, ,0.022010087059004143, ,0.09603589776787229, ,0.00039641104677024794, ,0.159814234099202,-0.2480696253858397,0.09589305275000001,-4.5299318490961795,0.1901980076734931,-1.1065693658428282, ,0.04633639724534706,0.0048496550352635625,0.021940511735537193,0.0030050154789634693,0.12056470885148331,-0.061738101039434445, ,1.574206829071045
0.012151186497124586,0.022263969977678218,-0.08580395951737538, ,0.012655309652539675,0.02234060228805902,-0.08633066275498785, ,0.0007330954694522594, ,0.007163980989934251,0.005178248652371735,-0.0221619468714048,0.07852144390962507,0.05438439586047303,0.014160719799872242, ,0.023859773089048814, ,0.09551583282697503, ,0.00039896168633602076, ,0.1603239344689008,-0.2480001207899717,0.09612379237000002,-4.529722159152695,0.19142773617138206,-1.1074087694958146, ,0.05277916660649098,0.009183483874277911,0.023703588571428576,0.01162226303594907,0.11866453912039528,-0.06981845621941207, ,1.5765199661254883
0.012151186497124586,0.022263969977678218,-0.08580395951737538, ,0.012679437348463357,0.022345110940357626,-0.08638520519955381, ,0.0007896070926832849, ,0.007163980989934251,0.005178248652371735,-0.0221619468714048,0.07852144390962507,0.05438439586047303,0.014160719799872242, ,0.023859773089048814, ,0.09551583282697503, ,0.00040189886984239113, ,0.1603239344689008,-0.2480001207899717,0.09612379237000002,-4.529722159152695,0.19142773617138206,-1.1074087694958146, ,0.05277916660649098,0.009183483874277911,0.023703588571428576,0.01162226303594907,0.11866453912039528,-0.06981845621941207, ,1.5788428783416748
0.012151186497124586,0.022263969977678218,-0.08580395951737538, ,0.01270364983840264,0.022349427082449552,-0.08643983307654239, ,0.0008466722172480538, ,0.007163980989934251,0.005178248652371735,-0.0221619468714048,0.07852144390962507,0.05438439586047303,0.014160719799872242, ,0.023859773089048814, ,0.09551583282697503, ,0.00040521807392750805, ,0.1603239344689008,-0.2480001207899717,0.09612379237000002,-4.529722159152695,0.19142773617138206,-1.1074087694958146, ,0.05277916660649098,0.009183483874277911,0.023703588571428576,0.01162226303594907,0.11866453912039528,-0.06981845621941207, ,1.5813648700714111
0.012151186497124586,0.022263969977678218,-0.08580395951737538, ,0.012727946770989885,0.022353551912827997,-0.08649454572956125, ,0.0009042049839917859, ,0.007163980989934251,0.005178248652371735,-0.0221619468714048,0.07852144390962507,0.05438439586047303,0.014160719799872242, ,0.023859773089048814, ,0.09551583282697503, ,0.00040891427326131746, ,0.1603239344689008,-0.2480001207899717,0.09612379237000002,-4.529722159152695,0.19142773617138206,-1.1074087694958146, ,0.05277916660649098,0.009183483874277911,0.023703588571428576,0.01162226303594907,0.11866453912039528,-0.06981845621941207, ,1.5837218761444092
0.012227086283869561,0.022315338729811684,-0.08603261519862991, ,0.01275232779565508,0.02235748662720125,-0.08654934250358137, ,0.0007380123295985643, ,0.008103280158773346,0.0054484144714566154,-0.024684905898053423,0.009403734960729954,0.012791196923305105,0.004243631717322624, ,0.026546053356009448, ,0.015875634929561625, ,0.0004113341119108561, ,0.16084908030434808,-0.24789200252973254,0.09636749489000002,-4.529722159152695,0.19224755516997472,-1.1078322406975716, ,0.05337285801938739,0.012516083033298705,0.02624186411861615,0.01162226303594907,0.06780484555755202,-0.010526997006324064, ,1.5860018730163574
0.012227086283869561,0.022315338729811684,-0.08603261519862991, ,0.012776792562624014,0.0223612324184957,-0.08660422274493611, ,0.0007943666726123923, ,0.008103280158773346,0.0054484144714566154,-0.024684905898053423,0.009403734960729954,0.012791196923305105,0.004243631717322624, ,0.026546053356009448, ,0.015875634929561625, ,0.00041412997001816654, ,0.16084908030434808,-0.24789200252973254,0.09636749489000002,-4.529722159152695,0.19224755516997472,-1.1078322406975716, ,0.05337285801938739,0.012516083033298705,0.02624186411861615,0.01162226303594907,0.06780484555755202,-0.010526997006324064, ,1.5882759094238281
0.012227086283869561,0.022315338729811684,-0.08603261519862991, ,0.012801340722921,0.022364790476857327,-0.08665918580132001, ,0.0008513544245562968, ,0.008103280158773346,0.0054484144714566154,-0.024684905898053423,0.009403734960729954,0.012791196923305105,0.004243631717322624, ,0.026546053356009448, ,0.015875634929561625, ,0.0004172982631669936, ,0.16084908030434808,-0.24789200252973254,0.09636749489000002,-4.529722159152695,0.19224755516997472,-1.1078322406975716, ,0.05337285801938739,0.012516083033298705,0.02624186411861615,0.01162226303594907,0.06780484555755202,-0.010526997006324064, ,1.590526819229126
0.012227086283869561,0.022315338729811684,-0.08603261519862991, ,0.012825971928364674,0.022368161989655196,-0.0867142310217873, ,0.0009088753722823288, ,0.008103280158773346,0.0054484144714566154,-0.024684905898053423,0.009403734960729954,0.012791196923305105,0.004243631717322624, ,0.026546053356009448, ,0.015875634929561625, ,0.0004208347891318521, ,0.16084908030434808,-0.24789200252973254,0.09636749489000002,-4.529722159152695,0.19224755516997472,-1.1078322406975716, ,0.05337285801938739,0.012516083033298705,0.02624186411861615,0.01162226303594907,0.06780484555755202,-0.010526997006324064, ,1.5927648544311523
0.012227086283869561,0.022315338729811684,-0.08603261519862991, ,0.012850685831568117,0.022371348141484008,-0.08676935775675243, ,0.0009668521329731016, ,0.008103280158773346,0.0054484144714566154,-0.024684905898053423,0.009403734960729954,0.012791196923305105,0.004243631717322624, ,0.026546053356009448, ,0.015875634929561625, ,0.0004247349130164325, ,0.16084908030434808,-0.24789200252973254,0.09636749489000002,-4.529722159152695,0.19224755516997472,-1.1078322406975716, ,0.05337285801938739,0.012516083033298705,0.02624186411861615,0.01162226303594907,0.06780484555755202,-0.010526997006324064, ,1.5949718952178955
0.012317857158989072,0.022370637757138077,-0.08628963611376482, ,0.012875482085940606,0.022374350114165723,-0.0868245653579871, ,0.0007727280485893012, ,0.009542392176022573,0.005505170761797983,-0.02553755714550633,0.022711771901663184,-0.029410343599530403,-0.0020466543619998712, ,0.02781242489459655, ,0.037158875546520226, ,0.0004272029494389351, ,0.1614591762014118,-0.24774527060512228,0.09664101208,-4.529512469209211,0.19279410116903647,-1.1077878398715137, ,0.06486462170777224,0.014121568684296247,0.02722873764102564,0.008412472196774505,0.03901597753099754,-0.030166091880377686, ,1.59722900390625
0.012317857158989072,0.022370637757138077,-0.08628963611376482, ,0.012900360345681924,0.022377169086753423,-0.08687985317862032, ,0.0008292821018329729, ,0.009542392176022573,0.005505170761797983,-0.02553755714550633,0.022711771901663184,-0.029410343599530403,-0.0020466543619998712, ,0.02781242489459655, ,0.037158875546520226, ,0.0004300344927656537, ,0.1614591762014118,-0.24774527060512228,0.09664101208,-4.529512469209211,0.19279410116903647,-1.1077878398715137, ,0.06486462170777224,0.014121568684296247,0.02722873764102564,0.008412472196774505,0.03901597753099754,-0.030166091880377686, ,1.5996849536895752
0.012317857158989072,0.022370637757138077,-0.08628963611376482, ,0.012925320265786851,0.022379806235532797,-0.08693522057313709, ,0.0008864957875249422, ,0.009542392176022573,0.005505170761797983,-0.02553755714550633,0.022711771901663184,-0.029410343599530403,-0.0020466543619998712, ,0.02781242489459655, ,0.037158875546520226, ,0.0004332265297919424, ,0.1614591762014118,-0.24774527060512228,0.09664101208,-4.529512469209211,0.19279410116903647,-1.1077878398715137, ,0.06486462170777224,0.014121568684296247,0.02722873764102564,0.008412472196774505,0.03901597753099754,-0.030166091880377686, ,1.6020638942718506
0.012317857158989072,0.022370637757138077,-0.08628963611376482, ,0.012950361502039796,0.022382262734025504,-0.08699066689737797, ,0.0009442674640370338, ,0.009542392176022573,0.005505170761797983,-0.02553755714550633,0.022711771901663184,-0.029410343599530403,-0.0020466543619998712, ,0.02781242489459655, ,0.037158875546520226, ,0.00043677542516864436, ,0.1614591762014118,-0.24774527060512228,0.09664101208,-4.529512469209211,0.19279410116903647,-1.1077878398715137, ,0.06486462170777224,0.014121568684296247,0.02722873764102564,0.008412472196774505,0.03901597753099754,-0.030166091880377686, ,1.6048109531402588
0.012317857158989072,0.022370637757138077,-0.08628963611376482, ,0.012975483711018582,0.022384539752991216,-0.08704619150853694, ,0.0010025178366401901, ,0.009542392176022573,0.005505170761797983,-0.02553755714550633,0.022711771901663184,-0.029410343599530403,-0.0020466543619998712, ,0.02781242489459655, ,0.037158875546520226, ,0.00044067709697189644, ,0.1614591762014118,-0.24774527060512228,0.09664101208,-4.529512469209211,0.19279410116903647,-1.1077878398715137, ,0.06486462170777224,0.014121568684296247,0.02722873764102564,0.008412472196774505,0.03901597753099754,-0.030166091880377686, ,1.6073808670043945
0.012445958189753133,0.02243999367266408,-0.08662908566292038, ,0.013000686550088719,0.02238663846043028,-0.08710179376516111, ,0.0007307689664710419, ,0.009945427195782978,0.005053184100781081,-0.025488059265359814,0.019895958559321268,-0.005065475778394764,0.006054815839955362, ,0.0278224254294535, ,0.02053040318740034, ,0.00044266402758490436, ,0.1623627359476961,-0.24751358861889552,0.09700267699000001,-4.529512469209211,0.1936139201676291,-1.1082113110732708, ,0.07227489836898002,0.0194620470792598,0.027182272218430035,0.008412472196774505,0.07202721264411407,-0.027956121978295882, ,1.6096959114074707
0.012445958189753133,0.02243999367266408,-0.08662908566292038, ,0.013025969677406534,0.022388560021586748,-0.08715747302714985, ,0.0007862899929100097, ,0.009945427195782978,0.005053184100781081,-0.025488059265359814,0.019895958559321268,-0.005065475778394764,0.006054815839955362, ,0.0278224254294535, ,0.02053040318740034, ,0.00044500161918575545, ,0.1623627359476961,-0.24751358861889552,0.09700267699000001,-4.529512469209211,0.1936139201676291,-1.1082113110732708, ,0.07227489836898002,0.0194620470792598,0.027182272218430035,0.008412472196774505,0.07202721264411407,-0.027956121978295882, ,1.6120069026947021
0.012445958189753133,0.02243999367266408,-0.08662908566292038, ,0.013051332751916257,0.02239030559895025,-0.08721322865575323, ,0.0008427160264640206, ,0.009945427195782978,0.005053184100781081,-0.025488059265359814,0.019895958559321268,-0.005065475778394764,0.006054815839955362, ,0.0278224254294535, ,0.02053040318740034, ,0.0004476888786943923, ,0.1623627359476961,-0.24751358861889552,0.09700267699000001,-4.529512469209211,0.1936139201676291,-1.1082113110732708, ,0.07227489836898002,0.0194620470792598,0.027182272218430035,0.008412472196774505,0.07202721264411407,-0.027956121978295882, ,1.6143138408660889
0.012445958189753133,0.02243999367266408,-0.08662908566292038, ,0.013076775433350278,0.02239187635225904,-0.08726906001357136, ,0.0008998960166783753, ,0.009945427195782978,0.005053184100781081,-0.025488059265359814,0.019895958559321268,-0.005065475778394764,0.006054815839955362, ,0.0278224254294535, ,0.02053040318740034, ,0.0004507238259291842, ,0.1623627359476961,-0.24751358861889552,0.09700267699000001,-4.529512469209211,0.1936139201676291,-1.1082113110732708, ,0.07227489836898002,0.0194620470792598,0.027182272218430035,0.008412472196774505,0.07202721264411407,-0.027956121978295882, ,1.616593837738037
0.01254435163542393,0.02248436573799567,-0.08686859084836657, ,0.013102297382229115,0.02239327343850217,-0.08732496646455265, ,0.0007265534849233314, ,0.010111716879847129,0.004219301954741207,-0.023488401996248215,0.036597932113908604,-0.013395615010207333,0.0038126315223617623, ,0.025918224390972956, ,0.03897234900737749, ,0.0004525626903224785, ,0.16309639557074743,-0.24729735209841724,0.09725804612000001,-4.529512469209211,0.19429710266645633,-1.1085233643713313, ,0.07734062066705036,0.02298303258863424,0.025084742551181104,0.008412472196774505,0.07130040257538628,-0.04845215140971121, ,1.6190738677978516
0.01254435163542393,0.02248436573799567,-0.08686859084836657, ,0.013127898259857093,0.022394498011922778,-0.08738094737399449, ,0.0007817365799490055, ,0.010111716879847129,0.004219301954741207,-0.023488401996248215,0.036597932113908604,-0.013395615010207333,0.0038126315223617623, ,0.025918224390972956, ,0.03897234900737749, ,0.00045474264985642904, ,0.16309639557074743,-0.24729735209841724,0.09725804612000001,-4.529512469209211,0.19429710266645633,-1.1085233643713313, ,0.07734062066705036,0.02298303258863424,0.025084742551181104,0.008412472196774505,0.07130040257538628,-0.04845215140971121, ,1.6214478015899658
0.01254435163542393,0.02248436573799567,-0.08686859084836657, ,0.013153577728326772,0.022395551224019743,-0.0874370021085398, ,0.0008379354455196224, ,0.010111716879847129,0.004219301954741207,-0.023488401996248215,0.036597932113908604,-0.013395615010207333,0.0038126315223617623, ,0.025918224390972956, ,0.03897234900737749, ,0.0004572636550910553, ,0.16309639557074743,-0.24729735209841724,0.09725804612000001,-4.529512469209211,0.19429710266645633,-1.1085233643713313, ,0.07734062066705036,0.02298303258863424,0.025084742551181104,0.008412472196774505,0.07130040257538628,-0.04845215140971121, ,1.6238439083099365
0.01254435163542393,0.02248436573799567,-0.08686859084836657, ,0.013179335450512248,0.02239643422355106,-0.08749313003617842, ,0.0008949779850752377, ,0.010111716879847129,0.004219301954741207,-0.023488401996248215,0.036597932113908604,-0.013395615010207333,0.0038126315223617623, ,0.025918224390972956, ,0.03897234900737749, ,0.0004601245330648081, ,0.16309639557074743,-0.24729735209841724,0.09725804612000001,-4.529512469209211,0.19429710266645633,-1.1085233643713313, ,0.07734062066705036,0.02298303258863424,0.025084742551181104,0.008412472196774505,0.07130040257538628,-0.04845215140971121, ,1.6262400150299072
0.01254435163542393,0.02248436573799567,-0.08686859084836657, ,0.013205171090074783,0.022397148156535696,-0.08754933052624418, ,0.0009527306897532468, ,0.010111716879847129,0.004219301954741207,-0.023488401996248215,0.036597932113908604,-0.013395615010207333,0.0038126315223617623, ,0.025918224390972956, ,0.03897234900737749, ,0.0004633232743420058, ,0.16309639557074743,-0.24729735209841724,0.09725804612000001,-4.529512469209211,0.19429710266645633,-1.1087759393422798, ,0.08090105844711916,0.026013415997387823,0.024244766392694066,0.009673284850511539,0.06822409844943361,-0.04050479257554456, ,1.6295149326324463
0.012600508477294308,0.02250633233380399,-0.0869933419244716, ,0.013231084311457272,0.02239769416625671,-0.08760560294941476, ,0.0008856024484738054, ,0.010348630591752929,0.0037399520337283183,-0.022703815934026185,0.025523261918203425,-0.018587265185151674,0.0018449131726340794, ,0.02522983658895345, ,0.03157399711076594, ,0.000466047656110598, ,0.1635365913445782,-0.24716606563955543,0.09739156399000001,-4.529302779265726,0.19470701216575265,-1.1087759393422798, ,0.08090105844711916,0.026013415997387823,0.024244766392694066,0.009673284850511539,0.06822409844943361,-0.04050479257554456, ,1.6319589614868164
0.012600508477294308,0.02250633233380399,-0.0869933419244716, ,0.01325707477988424,0.022398073393263607,-0.08766194667771103, ,0.0009433088698607161, ,0.010348630591752929,0.0037399520337283183,-0.022703815934026185,0.025523261918203425,-0.018587265185151674,0.0018449131726340794, ,0.02522983658895345, ,0.03157399711076594, ,0.0004691070228654065, ,0.1635365913445782,-0.24716606563955543,0.09739156399000001,-4.529302779265726,0.19470701216575265,-1.1087759393422798, ,0.08090105844711916,0.026013415997387823,0.024244766392694066,0.009673284850511539,0.06822409844943361,-0.04050479257554456, ,1.6342508792877197
0.012600508477294308,0.02250633233380399,-0.0869933419244716, ,0.0132831421613629,0.022398286975375013,-0.0877183610844951, ,0.0010016562925995562, ,0.010348630591752929,0.0037399520337283183,-0.022703815934026185,0.025523261918203425,-0.018587265185151674,0.0018449131726340794, ,0.02522983658895345, ,0.03157399711076594, ,0.00047249905643059216, ,0.1635365913445782,-0.24716606563955543,0.09739156399000001,-4.529302779265726,0.19470701216575265,-1.1087759393422798, ,0.08090105844711916,0.026013415997387823,0.024244766392694066,0.009673284850511539,0.06822409844943361,-0.04050479257554456, ,1.6364829540252686
0.012752809844148944,0.022548146267620202,-0.08730216327467731, ,0.013309286122680095,0.022398336047681107,-0.0877748455444699, ,0.0007453438661063479, ,0.010715600672959309,0.0020516345547489266,-0.019292966724124755,-0.0006661975008286124,-0.04519726356431016,-0.00967696327353898, ,0.022164202380116252, ,0.04520214353142697, ,0.0004742259223146159, ,0.16476450587157992,-0.24671042439997617,0.09772082165000001,-4.529093089322242,0.19566346766411072,-1.1096375434082955, ,0.08835841858330612,0.03458343351256224,0.020579859844961242,0.014818328394481802,0.04478158463126343,-0.025066796968744885, ,1.6392359733581543
0.012752809844148944,0.022548146267620202,-0.08730216327467731, ,0.013335506331404935,0.022398221742545906,-0.0878313994336776, ,0.0008013135912191946, ,0.010715600672959309,0.0020516345547489266,-0.019292966724124755,-0.0006661975008286124,-0.04519726356431016,-0.00967696327353898, ,0.022164202380116252, ,0.04520214353142697, ,0.0004762830774649592, ,0.16476450587157992,-0.24671042439997617,0.09772082165000001,-4.529093089322242,0.19566346766411072,-1.1096375434082955, ,0.08835841858330612,0.03458343351256224,0.020579859844961242,0.014818328394481802,0.04478158463126343,-0.025066796968744885, ,1.6415929794311523
0.012752809844148944,0.022548146267620202,-0.08730216327467731, ,0.013361802455882709,0.02239794518961077,-0.08788802212949959, ,0.0008582907215828316, ,0.010715600672959309,0.0020516345547489266,-0.019292966724124755,-0.0006661975008286124,-0.04519726356431016,-0.00967696327353898, ,0.022164202380116252, ,0.04520214353142697, ,0.0004786706252406959, ,0.16476450587157992,-0.24671042439997617,0.09772082165000001,-4.529093089322242,0.19566346766411072,-1.1096375434082955, ,0.08835841858330612,0.03458343351256224,0.020579859844961242,0.014818328394481802,0.04478158463126343,-0.025066796968744885, ,1.643824815750122
0.012752809844148944,0.022548146267620202,-0.08730216327467731, ,0.013388174165240166,0.022397507515795775,-0.08794471301065415, ,0.0009161058985023727, ,0.010715600672959309,0.0020516345547489266,-0.019292966724124755,-0.0006661975008286124,-0.04519726356431016,-0.00967696327353898, ,0.022164202380116252, ,0.04520214353142697, ,0.00048138761451561315, ,0.16476450587157992,-0.24671042439997617,0.09772082165000001,-4.529093089322242,0.19566346766411072,-1.1096375434082955, ,0.08835841858330612,0.03458343351256224,0.020579859844961242,0.014818328394481802,0.04478158463126343,-0.025066796968744885, ,1.6460909843444824
