NicholasDascanio/dvrk_moveit_final/test/execution/third_experiment_notsharpbends/old_data/thirdexp_400vel3.0.csv
Current Position (x),Current Position (y),Current Position (z), ,Planned Position (x),Planned Position (y),Planned Position (z), ,Position Error,,Cartesian linear Velocity(x),Cartesian linear Velocity(y),Cartesian linear Velocity(z),Cartesian Angular Velocity(x),Cartesian Angular Velocity(y),Cartesian Angular Velocity(z), ,Total Linear Velocity, ,Total Angular Velocity, ,MSE, ,Joint 1 Position,Joint 2 Position,Joint 3 Position,Joint 4 Position,Joint 5 Position,Joint 6 Position, ,Joint 1 Velocity,Joint 2 Velocity,Joint 3 Velocity,Joint 4 Velocity,Joint 5 Velocity,Joint 6 Velocity, ,Time Stamp
0.009749698919086705,0.020170608768601925,-0.07853940596560312, ,0.009989440746452158,0.020166160708494776,-0.07855845359137477, ,0.00024053843991092132, ,8.848752122102233e-06,7.26543914653339e-07,-1.2685682268879506e-05,0.09591208726923602,-0.013353373331401715,-0.002886223506013435, ,1.548401804459335e-05, ,0.09683718843331489, ,2.0044869992576776e-05, ,0.14042245185202426,-0.24666408800273085,0.08826308981000001,-4.536222547400715,0.15002687674245363,-1.3199105461995941, ,9.421088890496619e-05,0.0,1.3436709450893811e-05,-0.0019671330293102203,0.0,-0.09714173043430296, ,0.03044915199279785
0.009772193056604053,0.020170834590170404,-0.07855141410604163, ,0.010016470553023349,0.02018145036336525,-0.07866324878762684, ,0.0002688702027050762, ,0.0009446223809535738,0.00013123340615920682,-0.0009727197569631611,0.1579608522077111,-0.10683595975861739,-0.02888749983600001, ,0.0013622471784067007, ,0.19069754358074567, ,2.315493830072716e-05, ,0.1404378973177727,-0.24666408800273085,0.08827475642,-4.536222547400715,0.14784069274620656,-1.323600335329869, ,0.00034244812871950557,0.0,0.000741615175013643,-0.0019671330293102203,-0.15439364243231732,-0.15016868203218536, ,0.059823036193847656
0.009812538516117521,0.020177812789378004,-0.07859865344364479, ,0.010043636378933393,0.02019655616880667,-0.07876806492874958, ,0.00028715464083987755, ,0.001813824119611886,0.00011965254045649267,-0.0012426451825793498,0.15984253207138147,-0.17501846077109243,-0.046518090982076786, ,0.0022019177362270353, ,0.23702551902626448, ,2.4892602607996097e-05, ,0.14047651098214384,-0.24665636526985663,0.08832142286000001,-4.536222547400715,0.144561416751836,-1.3307277544580225, ,0.0032644566025422125,6.498985731593468e-07,0.001308278487324028,-0.0019671330293102203,-0.15163884278867587,-0.22209831600327268, ,0.08835506439208984
0.009857490273204917,0.020197142564299324,-0.07869562797939485, ,0.010070937569309466,0.020211479091793116,-0.07887290048566081, ,0.00027783236980729985, ,0.0004517473084600426,0.0008843656607647458,-0.0034798585026847213,-0.12300527038932042,0.028581751621484776,0.010619801101144286, ,0.0036187834214481403, ,0.12628227535482484, ,2.5580848887218452e-05, ,0.14051512464651494,-0.24664091980410816,0.08842253348000001,-4.536222547400715,0.14128214075746542,-1.331892625555915, ,0.0010571378381926452,0.00022309364627639294,0.003635055116385213,-0.0019671330293102203,0.013920473399629634,0.1257005437921905, ,0.1161661148071289
0.009865956797260277,0.020213095789291875,-0.07876363536583521, ,0.010098373471034983,0.020226220097337256,-0.07897775393460295, ,0.00031628550267331803, ,0.00034811167657406534,0.0008404886463349179,-0.003602594012458465,-0.09573320043537312,0.059115408439234275,0.019542273998677133, ,0.003715681165356723, ,0.1125143421077063, ,2.6743868383394097e-05, ,0.1405923519752572,-0.24661002887261127,0.08849382943,-4.536222547400715,0.14210195975605808,-1.328885589671768, ,0.0038133590310143006,0.0017859726814251542,0.0037737056432125093,-0.0019671330293102203,0.052135772482495825,0.10199182521231369, ,0.14467406272888184
0.009877134304496724,0.02023555264888675,-0.07885474672429353, ,0.010125943432750313,0.02024078014849115,-0.07908262375713558, ,0.000337433328453669, ,0.0007052849906248752,0.0005386894763906773,-0.0024475653376131745,0.008042440873433586,-0.0133100747481984,-0.0008533060383863363, ,0.002603495602427683, ,0.015551171818145028, ,2.787281426435745e-05, ,0.14070819296837056,-0.24657913794111436,0.08858975489000001,-4.536222547400715,0.14333168825394704,-1.329316599624052, ,0.0035530922967001726,0.0009344644503433743,0.0025621379314782053,-0.0019671330293102203,-0.008251147153486776,-0.010492119690350044, ,0.17319798469543457
0.009904898431395711,0.020255449812500725,-0.07895011682604719, ,0.010153646804843108,0.020255160206349675,-0.07918750844013138, ,0.00034384679088504655, ,0.0011969354353964837,0.00088455527481261,-0.0038612781138890745,-0.009438699462020545,-0.0075118598459869654,0.002031701854552724, ,0.004138183314391153, ,0.01206304625796345, ,2.8777239934377897e-05, ,0.1408703703587293,-0.2465250788109948,0.08868956922000001,-4.536222547400715,0.1431950517541816,-1.3296135754210583, ,0.008086721597239874,0.0013536797926784934,0.004075949723643808,-0.0019671330293102203,0.0,0.007908331456287184, ,0.20162200927734375
0.009949250240488688,0.020286823874213482,-0.07910515684372108, ,0.01018148293945666,0.0202693612300495,-0.07929240647576737, ,0.0002988300438587428, ,0.001179194498240862,0.000802898517988385,-0.004241734190501142,-0.015172761893666589,-0.006093558621339647,0.0018923368813177886, ,0.004475204424128114, ,0.016350662334610667, ,2.8912089257731117e-05, ,0.14113294327645293,-0.24642468328362988,0.08885160547000001,-4.536222547400715,0.14305841525441615,-1.3298288724779241, ,0.007165724955265303,0.0034224164973432284,0.004419759023307436,-0.0019671330293102203,0.0,0.011630253606109793, ,0.23189020156860352
0.00997312985451421,0.02030306418759458,-0.07918560504327914, ,0.010209451190476731,0.02028338417677343,-0.0793973163615206, ,0.00031789425746397174, ,0.00116705871202244,0.0006270581064459333,-0.003912345714015943,-0.013015026547169564,-0.006927246732230557,0.0015364370979818749, ,0.004130578275755824, ,0.014743732987141154, ,2.922484322389047e-05, ,0.1412873979339374,-0.2463706241535103,0.08893586432,-4.536222547400715,0.14305841525441615,-1.3298288724779241, ,0.0075803477075624326,0.004515771441146457,0.00405829592866242,-0.0019005214013164393,0.0,0.008366836102459422, ,0.26029014587402344
0.009999519225320138,0.020314329958677345,-0.07926161720594178, ,0.010237550913539962,0.020297230001749416,-0.07950223660015929, ,0.0003388940630895074, ,0.0010458076694033066,0.0003918534728569132,-0.0027355477487302103,-0.009861845843588813,-0.00777849006201877,0.0014200564220064357, ,0.0029547392966479667, ,0.012560291037012155, ,2.997603603650921e-05, ,0.14148046625579302,-0.2462702286261454,0.08901493801,-4.536222547400715,0.14305841525441615,-1.3298288724779241, ,0.008137431722327068,0.0037776063291251718,0.002854114230424656,-0.0017781974401934338,0.0,0.005937048865832968, ,0.2868490219116211
0.010037667700431062,0.02033810773665616,-0.07939342801895485, ,0.010265781466023489,0.020310899658254108,-0.0796071656997392, ,0.000313783310216082, ,0.0013281179471103756,0.0008768812734857728,-0.005086771549506544,-0.009584017615055247,-0.007271729648381735,0.0010483905139262906, ,0.005329921467160273, ,0.012030438159896992, ,3.0376026817304655e-05, ,0.14173531644064244,-0.2461466649001578,0.08915234475000001,-4.536222547400715,0.1431950517541816,-1.3299402903816206, ,0.007455984929709853,0.005061958971368579,0.0052692065894806486,-0.0016483029160931939,0.0,0.004390027001910148, ,0.31176114082336426
0.010063214931643054,0.02035533394726994,-0.07949362213527421, ,0.010294142207049852,0.020324394097612865,-0.07971210217359453, ,0.00031940289286113387, ,0.0011599476119632775,0.0006956390728889365,-0.004362036747830337,-0.007674564365119157,-0.006683668361219402,0.0009114917184440563, ,0.004566919834160805, ,0.010176952361973975, ,3.0762738174492826e-05, ,0.14187432563237848,-0.2460462693727929,0.08925604795000001,-4.536222547400715,0.1431950517541816,-1.32985861164148, ,0.006638328896946635,0.004996033345504893,0.0045073037691001705,-0.001576629881345992,0.0,0.0025373691361930744, ,0.33680200576782227
0.010084356403269904,0.02036702461318413,-0.07957136075945313, ,0.010322632497476504,0.020337714269203142,-0.07981704454033421, ,0.0003435041681299633, ,0.001075708616572601,0.0006290539926223214,-0.004052381261834644,-0.007192118026375481,-0.006202241520997688,0.0008600416851789736, ,0.004239652325919092, ,0.009497071153638667, ,3.128335946011414e-05, ,0.14201333482411452,-0.24594587384542796,0.08933641793000001,-4.536222547400715,0.14333168825394704,-1.3299700295451764, ,0.006130470945762747,0.004832195702573873,0.004182986218487396,-0.001513100933978049,0.0,0.0022226232668622224, ,0.36125802993774414
0.010115425452019853,0.02038508405264727,-0.07969203776356382, ,0.010351251699903752,0.020350861120453947,-0.0799219913238332, ,0.0003311553535117153, ,0.0009995826533991255,0.00043106078143080546,-0.0037132015214320275,-0.005259181160094553,-0.003610661494176972,0.0012725432868296912, ,0.00386947598739536, ,0.006379330857882097, ,3.164544061610456e-05, ,0.14219868041309588,-0.24579141918794348,0.08946086177000001,-4.536222547400715,0.14346832475371246,-1.3301631261890132, ,0.006110264452343353,0.006177135932047424,0.0038025331869181197,-0.0014265824183050933,0.003069072286832538,-0.000629626796289156, ,0.38642311096191406
0.010139512009167047,0.020396791747420356,-0.07978556652530569, ,0.010379999178665517,0.020363835596848713,-0.0800269410532273, ,0.0003423183449411784, ,0.0008897836501039313,0.0005723008907765079,-0.003743189614817237,-0.0032060825222036,-0.002021378843426812,0.0014865777513039607, ,0.0038898215570963503, ,0.0037901103985194485, ,3.20393404749829e-05, ,0.14234541233770617,-0.24564468726333322,0.08955678723,-4.536222547400715,0.1436049612534779,-1.3302745440927097, ,0.004718803744617442,0.004564412518756602,0.003853123251088535,-0.0013624137932559037,0.0033178713682756656,-0.0010469924850988474, ,0.4117732048034668
0.010174186592307852,0.02041558412483164,-0.0799178835853742, ,0.010408874299828048,0.02037663864192718,-0.08013189226290686, ,0.000319991851082216, ,0.001139658201338657,0.0005005265082379216,-0.003995135594128007,-0.004684018324961388,-0.004631508375307446,0.0011761436186955017, ,0.004184549679092823, ,0.00658717666996479, ,3.2243455228578835e-05, ,0.1425384806595618,-0.24546706440722604,0.08969289768000001,-4.536222547400715,0.1436049612534779,-1.3303562228328503, ,0.007327685717419479,0.0062111855466636025,0.004108540500386898,-0.0012899833108319949,0.0033178713682756656,-0.0011907729170014046, ,0.44139909744262695
0.010193617563290167,0.020423736478650596,-0.07998729504392238, ,0.010437876431190745,0.02038927119728588,-0.08023684349250935, ,0.0003508912628718299, ,0.0008586167464849606,0.00040018450279331934,-0.0029392296730450245,-0.0021715830578644467,-0.0026944103804986187,0.0015184294471895033, ,0.003088112922891376, ,0.0034605808842414695, ,3.261357819086311e-05, ,0.14266976711842358,-0.24535122341411267,0.08976419363,-4.536222547400715,0.14374159775324336,-1.3304676407365466, ,0.005776682800887228,0.00421667719050439,0.003034637363307297,-0.0012471530527918351,0.0037770786835213603,-0.001663748020883548, ,0.4665951728820801
0.01021824793950682,0.02043597006711455,-0.08007521671024123, ,0.01046700494228403,0.020401734202579836,-0.08034179328691392, ,0.000366217438254474, ,0.0010151102829857477,0.0005736750621753349,-0.0038453835691676405,-0.001687510302641621,-0.0022016885815798765,0.0016181320132648213, ,0.004018274101851408, ,0.002774008433831795, ,3.3033781858705336e-05, ,0.1428319445087823,-0.24522765968812507,0.08985493393,-4.536222547400715,0.14387823425300877,-1.330579058640243, ,0.00620475064259562,0.0048865555998364694,0.003969302646399203,-0.001196541998472418,0.004867477157192432,-0.0026617877363468677, ,0.49160099029541016
0.010256683087076014,0.020458589908923033,-0.08021937417650239, ,0.010496259204363161,0.02041402859552545,-0.08044674019623486, ,0.0003332832632387794, ,0.0013788339309298804,0.0009116616811759575,-0.005277899629034085,-0.0009580643802595671,-0.0030636486983264114,-0.00030746356738794664, ,0.005530690239397453, ,0.0032099574152925276, ,3.341506919776134e-05, ,0.14306362649500903,-0.24505775956489215,0.09000400728,-4.536222547400715,0.14401487075277425,-1.3306904765439396, ,0.008182137027580444,0.005253063169429639,0.005475700075627365,0.0009213637270970089,0.005595404660352655,-0.0033667369262136066, ,0.513808012008667
0.01026996652408371,0.02046831115636969,-0.0802718056948823, ,0.010525638590412513,0.020426155311899813,-0.08055168277581433, ,0.00038141381877802735, ,0.001242733729858682,0.0009774287864006566,-0.005363887371769635,-0.00012848451971275433,-0.0007828685840903396,-0.0020287842347050827, ,0.005592051671152807, ,0.0007933391781610215, ,3.401873726758111e-05, ,0.14313313109087705,-0.2450114231676468,0.09005845146000001,-4.536012857457231,0.14401487075277425,-1.3306904765439396, ,0.006350339377644892,0.004709018676440914,0.0055578546824843,0.0027931291040017825,0.005595404660352655,-0.0033980041118951403, ,0.5359690189361572
0.010314152903204268,0.020497796782206066,-0.0804414391501152, ,0.010555142475135657,0.020438115285544848,-0.08065661958621789, ,0.0003285429574724452, ,0.0013857907825250296,0.0007702432141614366,-0.004718712524953096,0.003975050125993779,-3.307431970045899e-05,-0.0008672671402602569, ,0.004977945218164046, ,0.0039751874264386785, ,3.4304996452006474e-05, ,0.14341887220722338,-0.24484152304441387,0.09023474690000001,-4.536012857457231,0.14442478025207056,-1.3310247302550289, ,0.009742178249482324,0.005378800188292922,0.004910237829839705,0.002653399588442866,0.010545304928414477,-0.007532834701100165, ,0.5579040050506592
0.010342383913888345,0.020510390150957864,-0.08053165206009143, ,0.010584770234960605,0.02044990944836706,-0.08076154919322587, ,0.00033950218828787617, ,0.001335280583151953,0.0004648288121213207,-0.004146297499981093,0.0009538650721727408,-0.0013972500408769317,-0.0013484137081672407, ,0.004380733159948252, ,0.0016917934351370386, ,3.46223731186983e-05, ,0.14360421779620475,-0.24471795931842627,0.09032807978000001,-4.536012857457231,0.14442478025207056,-1.3310247302550289, ,0.009970485422769798,0.007217668858626935,0.004277339291084856,0.002566609960380784,0.009236086436029977,-0.00651601760393795, ,0.5795090198516846
0.01036950877845692,0.020521391431546618,-0.080618364324162, ,0.010614521248033254,0.020461538730339575,-0.08086647016782847, ,0.0003537936768105438, ,0.0013998627204688467,0.0005050049876152234,-0.004477214884323221,-0.0010599512609570897,-0.002847197312239393,-0.001722540245320235, ,0.004718060914621608, ,0.00303809601747417, ,3.4983005474853034e-05, ,0.14378184065231192,-0.24458667285956445,0.09041752379000001,-4.536012857457231,0.14442478025207056,-1.3310247302550289, ,0.00996956298962355,0.00755976163933015,0.004607697865201043,0.002485679599457495,0.0075796375219758004,-0.0052116044287346345, ,0.6018400192260742
0.010409231797996833,0.020538861170142277,-0.08075538250034026, ,0.010644394894220637,0.020473004059503256,-0.0809713810862182, ,0.0003260279588448745, ,0.0014012213931217537,0.0005871534925722297,-0.004979184782624588,-0.00017359540912656528,-0.0026056683548202064,0.009823039534319539, ,0.0052058094198599025, ,0.002611444022162733, ,3.519189196827407e-05, ,0.14405213630290978,-0.24437043633908617,0.0905588194,-4.535593477570262,0.14469805325160143,-1.3312475660624217, ,0.009416651717768901,0.00801896724567432,0.0051185126992287925,-0.008906824670085673,0.010455083498941224,-0.007615600862246531, ,0.6295571327209473
0.010438868201577273,0.020546341482328753,-0.08084130628408695, ,0.010674390555097783,0.020484306361970305,-0.08107628052978523, ,0.00033842581359465297, ,0.0012067426024099989,0.00011004583560905705,-0.00309199883300474,-0.0019672379815001634,-0.0048257288312528145,0.008323431428192814, ,0.0033209628991768075, ,0.005211303459406829, ,3.544032287590927e-05, ,0.14426065009051384,-0.24420053621585322,0.09064696712,-4.535593477570262,0.14469805325160143,-1.3312475660624217, ,0.010131634428573453,0.008030357291348074,0.0031604784761904764,-0.007843664461716226,0.00837647331909555,-0.005961192802935122, ,0.6528301239013672
0.010462633489141115,0.020550996864296206,-0.08091219390823422, ,0.0107045076139604,0.02049544656192264,-0.08118116708510906, ,0.0003659719910444423, ,0.0012634109911823007,0.0002815281979396841,-0.003578467920804564,-0.005722012407412045,-0.00797790377720647,0.006470606796107054, ,0.0038053775264883707, ,0.009817758098575697, ,3.5788210673534455e-05, ,0.14445371841236945,-0.24403835882549452,0.09071955936000001,-4.535593477570262,0.1449713262511323,-1.3314704018698145, ,0.009417864462887547,0.007371098910885967,0.0036719252005532506,-0.006963572801015178,0.0035588542965859296,-0.002067833584535918, ,0.6753461360931396
0.010489489643420167,0.020560783526058102,-0.08100445168653327, ,0.010734745455812461,0.020506425581615823,-0.08128603934395294, ,0.000377355016459691, ,0.001364993571853116,0.0006217222340320098,-0.005211380415215859,-0.0009900100135969044,-0.0018904477873252106,0.006971576705409845, ,0.005422935719661953, ,0.0021339889455659062, ,3.615984059627492e-05, ,0.14463134126847663,-0.24387618143513579,0.09081418853,-4.535593477570262,0.14510796275089774,-1.331581819773511, ,0.008370843022439628,0.008234186858802455,0.0053452387651006725,-0.006251099832083324,0.009317021061946035,-0.006796962052113271, ,0.6975719928741455
0.01051756011171155,0.020574457543601245,-0.08110516169136968, ,0.010765103467365752,0.02051724434138021,-0.08139089590325821, ,0.0003823546825664453, ,0.0013988200750047908,0.0007079778342311275,-0.005183232800509033,-0.0014101744453115035,-0.0034586090642488095,0.006245447999049186, ,0.005415148426430407, ,0.0037350454996394546, ,3.652772975752491e-05, ,0.14479351865883533,-0.24373717224339975,0.09091789173,-4.535593477570262,0.14510796275089774,-1.331581819773511, ,0.008622954761947802,0.0071321794690256644,0.0053416537625754525,-0.00573503563704033,0.007617590641900317,-0.005439233684149121, ,0.7200150489807129
0.010552023750149906,0.02059404266123263,-0.08123554861772755, ,0.010795581037042153,0.020527903759621657,-0.08149573536513645, ,0.0003624798612776132, ,0.0013469818967021855,0.0006861512461328101,-0.004948466613200233,0.0012832381508049832,-0.0013856218911057346,0.006298930935841442, ,0.005174213523287419, ,0.001888556382411996, ,3.69384441920439e-05, ,0.1450097551793136,-0.24357499485304104,0.09105270589000002,-4.535593477570262,0.14538123575042863,-1.3318046555809038, ,0.00863080915610276,0.006728437600590413,0.005107025174735492,-0.005186840458477273,0.009924251574491644,-0.007353999036589805, ,0.7390060424804688
0.010579046146463243,0.020606249245066,-0.08133254665247623, ,0.010826177554965715,0.020538404752824178,-0.08160055633686425, ,0.00037081801348064463, ,0.0012674632028843776,0.0005949079177674755,-0.0043592938773934714,0.0011893530803923013,-0.0020098566802941448,0.005842122023154727, ,0.004578626596564582, ,0.002335397835677286, ,3.735885207270434e-05, ,0.14517965530254656,-0.24342826292843078,0.09115252022,-4.535593477570262,0.14551787225019408,-1.3319160734846003, ,0.008593183757556019,0.006053715151820466,0.0045073037691001705,-0.004821949981202968,0.009040758893085893,-0.006658777008245278, ,0.7594001293182373
0.010608098744899808,0.020619840901364695,-0.0814304401630391, ,0.01085689241296586,0.020548748235550626,-0.08170535743087637, ,0.00037753405218260536, ,0.0015379147805823022,0.0008143878551495513,-0.005668381833099716,-0.001705112670108095,-0.004221197273402294,0.004949409065938317, ,0.005929499309112321, ,0.0045525717772332925, ,3.778229034888564e-05, ,0.1453572781586537,-0.24329697646956897,0.09125363084,-4.535593477570262,0.14551787225019408,-1.3319160734846003, ,0.00932370911791861,0.007288731793858683,0.005851877854518736,-0.004515418803501513,0.007206272735316226,-0.005185900710993788, ,0.7793149948120117
0.010634719528196522,0.020636559322697187,-0.08153695296161349, ,0.010887725004571469,0.020558935120444793,-0.08181013726475893, ,0.00038035108956869227, ,0.0016359828296172241,0.001024274464127445,-0.006458144614537274,0.003526833557471632,6.645499309151936e-05,0.005956981914532893, ,0.00674041614879547, ,0.003527458004583576, ,3.819465710022547e-05, ,0.14551945554901244,-0.24317341274358137,0.09136381549000001,-4.535593477570262,0.14579114524972495,-1.332138909291993, ,0.009669531493175077,0.007231202409673887,0.006681548456375841,-0.004276870149274647,0.012615543705397905,-0.00961612201668626, ,0.7999410629272461
0.010671154847837573,0.02065314601977335,-0.08166276355539275, ,0.010918674725014208,0.020568966318232147,-0.08191489446124367, ,0.00036321110312641984, ,0.0013257691058341159,0.0003904572593147951,-0.003946011027560666,0.0007328262990870819,-0.002769281968364316,0.005010662323511246, ,0.004181043365353461, ,0.002864603995006435, ,3.852746440378395e-05, ,0.14573569206949072,-0.2429957898874742,0.09149344449,-4.535593477570262,0.14579114524972495,-1.332138909291993, ,0.010014519249781135,0.00722749328992437,0.004068661946360154,-0.004008181347529452,0.009598457680830869,-0.007178953089176719, ,0.8200840950012207
0.010697282385662423,0.020659901368999044,-0.08174742492194154, ,0.010949740971216015,0.020578842737723483,-0.08201962764820173, ,0.00038000021487818645, ,0.0014856972043068542,0.0005009772413100398,-0.004647817856484336,0.004239415576600418,-3.5715541358203565e-05,0.005706553639078609, ,0.004905148846492883, ,0.004239565763387442, ,3.890138970565411e-05, ,0.14594420585709478,-0.24281816703136702,0.09158029592000001,-4.535593477570262,0.14620105474902126,-1.3324731630030824, ,0.011160604159105308,0.008063158454402166,0.004796390099367661,-0.003792988299077102,0.014122377461425133,-0.010887672685142583, ,0.839616060256958
0.010721198342893243,0.02067014531489967,-0.08182643510460855, ,0.010980923141798913,0.020588565285813775,-0.08212433545863618, ,0.00040355531621084337, ,0.0017432523726016009,0.0007927569290846337,-0.0057706562894408045,0.0037345242623705124,-0.0015943234278222923,0.00542304821062371, ,0.006080120590420516, ,0.004060607375692929, ,3.933597774628744e-05, ,0.1461063832474535,-0.24270232603825367,0.09166196219000002,-4.535593477570262,0.14633769124878673,-1.3325845809067787, ,0.011983450127348248,0.008004782110758078,0.005939154183445191,-0.0036524954796963863,0.01343399628346516,-0.010339936698827181, ,0.8589861392974854
0.01075816936711211,0.0206837868005581,-0.08194616173862249, ,0.011012220637076346,0.02059813486748571,-0.0822290165306765, ,0.0003897244344372075, ,0.0016356635960046648,0.000689048682445854,-0.005799176732408017,0.0024109230318914415,-0.0003223717401590174,0.0050400722697478565, ,0.006064703971322739, ,0.00243237884500894, ,3.97061155786926e-05, ,0.14633806523368023,-0.24250925771639806,0.09178510974000001,-4.535593477570262,0.14633769124878673,-1.3325845809067787, ,0.010778685312808872,0.009146693162262244,0.005968082248032972,-0.003475833366758864,0.0132451759675872,-0.010203687566604565, ,0.8786489963531494
0.01079230799792964,0.020697564880828228,-0.08206335390421413, ,0.011043632859051758,0.020607552385810284,-0.08233366950757233, ,0.0003799170442298126, ,0.0016332894914525865,0.0005760471088855821,-0.005245998889597531,-0.004297405442720531,-0.006792089240939153,0.003227365030876797, ,0.005524488137755698, ,0.008037422834640495, ,4.0028818854575404e-05, ,0.1465543017541585,-0.24232391212741666,0.09190566471000002,-4.535593477570262,0.14647432774855218,-1.3326959988104752, ,0.010884961089535405,0.008728520853308754,0.0053995971254237295,-0.0033183519341746463,0.005684120912641216,-0.004054733678760084, ,0.8985621929168701
0.010823369014812664,0.020705914624460073,-0.08215923522698204, ,0.011075159211421156,0.020616818741947967,-0.08243829303768542, ,0.00038627663805013704, ,0.0017340702185936038,0.0003980897859611495,-0.004883635857653223,-0.005570943627943083,-0.008350848460218985,-0.00028760210491279197, ,0.0051976315943760565, ,0.010038529779472836, ,4.0482557130732807e-05, ,0.14678598374038526,-0.24213856653843527,0.09200418275000001,-4.5358031675137465,0.14674760074808305,-1.332918834617868, ,0.012610889243650602,0.009795678741384964,0.005020110784746298,0.0,0.0049419211784415456,-0.0034649803823790077, ,0.9155881404876709
0.010859435985232702,0.020716375852194286,-0.08226621312750915, ,0.011106799099559878,0.020625934835153004,-0.08254288577448679, ,0.00038198932115795744, ,0.0017513600706697,0.0006713401389337104,-0.005769398512823531,-0.005815340281128498,-0.007066579126688945,-0.004803262071483874, ,0.006066623350682823, ,0.009151760308642112, ,4.090662413796927e-05, ,0.14704083392523468,-0.24193777548370543,0.09211436740000001,-4.5353837876267775,0.1468842372478485,-1.3330302525215645, ,0.011038401397201027,0.009175964028117474,0.005939154183445191,0.004417467061241029,0.003355119681827255,-0.002186182494825245, ,0.9321751594543457
0.010875884751317347,0.020724042885046225,-0.08232392618666558, ,0.01113855193053677,0.02063490156277016,-0.08264744637654522, ,0.0004261520100104846, ,0.0017225234469392618,0.0008013349746579882,-0.006367315078661084,0.0037667753812047405,0.0018889031884766659,-0.0010378819011761195, ,0.0066446915713079145, ,0.00421385115563708, ,4.144767882414493e-05, ,0.1471489521854738,-0.24185282542208897,0.09217399674000001,-4.535174097683293,0.1470208737476139,-1.3331416704252608, ,0.010766470219824785,0.009509417492814616,0.006555066469135804,0.0029678180268184785,0.01402879901409788,-0.01089655045576956, ,0.9484779834747314
0.010912301522516854,0.020740710029959468,-0.08245488556600483, ,0.011170417113093706,0.020643719820242046,-0.08275197350752675, ,0.00040532950037913256, ,0.0019228172908662708,0.0009001287313840478,-0.00695841875803181,-0.008685899564416621,-0.012383661634522529,0.02059056183634963, ,0.007275097915440474, ,0.015126133359446674, ,4.190839478718688e-05, ,0.14736518870595208,-0.24165975710023335,0.09230881090000001,-4.534964407739808,0.14715751024737936,-1.3332530883289573, ,0.01113651571058277,0.009520714899600553,0.007162235395683454,-0.021785158336412536,0.004603880937802844,-0.003224765471927616, ,0.9665560722351074
0.010951853512509215,0.020757799088703073,-0.08259323026227106, ,0.011202394057663623,0.020652390501104807,-0.082856465836182, ,0.00037838406742086165, ,0.0018806511093002226,0.0007011314540010457,-0.006231536185379532,-0.001965426202561866,-0.006731863746448313,0.015893923345874347, ,0.006546791362216782, ,0.007012908117304589, ,4.22752551880474e-05, ,0.1476200388908015,-0.2414512433126293,0.09245140280000001,-4.534964407739808,0.14743078324691022,-1.33347592413635, ,0.012557488627559982,0.009932117928351268,0.0064177322804190185,-0.015413472601708812,0.011158473048392167,-0.00858283965493525, ,0.9834480285644531
0.010970806869032524,0.020764617458251512,-0.08265502715961065, ,0.011234482176349772,0.020660914496994604,-0.08296092203634545, ,0.00041695401122293256, ,0.0019234031568393225,0.000617673965886739,-0.006287161311058956,-0.0028172026229832266,-0.00668646257844127,0.013999501914497354, ,0.006603741226240645, ,0.0072557151686230064, ,4.273918268831629e-05, ,0.14773587988391487,-0.2413508477852644,0.09251492101000001,-4.534964407739808,0.14743078324691022,-1.33347592413635, ,0.012942845275296069,0.01105752992883101,0.006456753757600325,-0.013614589109609861,0.011158473048392167,-0.008588904867062418, ,1.000887155532837
0.011011944053518252,0.020777467445534485,-0.08279016825637858, ,0.011266680882937105,0.02066929269764583,-0.083065340786925, ,0.00039027240475142844, ,0.0016336821376046174,0.0005753523504543413,-0.006079132717096435,-0.00018540298160570748,-0.0012748699549571722,0.011754829176141339, ,0.00632106021534157, ,0.0012882776739334269, ,4.311302991910269e-05, ,0.14801389826738695,-0.2411037203332892,0.09265362404000001,-4.534964407739808,0.14770405624644115,-1.333698759943743, ,0.01005811220383789,0.010904247952205487,0.006212484992199689,-0.010746187178718093,0.01333238456798534,-0.010375417087540945, ,1.0174272060394287
0.011028458968465746,0.020783765672245394,-0.08285224235426061, ,0.01129898959287906,0.020677525990895607,-0.08316972077189873, ,0.00043042564317749814, ,0.0017459430438963456,0.0006850819622330395,-0.006479270004890054,-0.0032628916239393043,-0.004307036922571671,0.010164636356699643, ,0.006745264576262007, ,0.0054034264483666244, ,4.3584863610484233e-05, ,0.14811429379475188,-0.24099560207305004,0.09271714225000001,-4.534964407739808,0.14784069274620656,-1.3338101778474394, ,0.010286033434595172,0.010740369111067185,0.006634240533111204,-0.009905898605560685,0.009780770982548337,-0.007484876350428704, ,1.033898115158081
0.011053153898967688,0.020791600997521652,-0.0829345675170182, ,0.01133140772330756,0.020685615262682276,-0.08327406068030542, ,0.00045156812849000445, ,0.0018165079039111928,0.000510255832186738,-0.006004187673948174,-0.004819920253168476,-0.00654097043427033,0.008894933589198848, ,0.006293673935249872, ,0.0081250180101787, ,4.409853643974666e-05, ,0.14826102571936214,-0.24084887014843978,0.09280140110000001,-4.534964407739808,0.14784069274620656,-1.3338101778474394, ,0.011817804493008123,0.01140592116861962,0.006143004828384112,-0.008947641668337926,0.008680376201893231,-0.006595159207353244, ,1.0515060424804688
0.011109149056170853,0.02081148764944945,-0.08311983010157929, ,0.011363934693023343,0.020693561397048504,-0.0833783592062399, ,0.00038165379561623, ,0.0020375040140850494,0.0007599294693814902,-0.006776492767960607,-0.0001962943994557178,-0.004377855530513029,0.008534983786451735, ,0.007116865155394581, ,0.0043822524171414955, ,4.4409873080644925e-05, ,0.14862399416445068,-0.24053996083347082,0.09299195573,-4.534964407739808,0.14811396574573746,-1.3340330136548322, ,0.013431980404596006,0.010839550951532747,0.0069801978615249794,-0.007533430192082465,0.012743458695876984,-0.009922837618094416, ,1.0685641765594482
0.011127875022850908,0.020817375016651665,-0.08318304740839876, ,0.011396569922495523,0.020701365276143087,-0.08348261504884662, ,0.0004188030326912608, ,0.0018745392643704777,0.0004636613993006549,-0.0061730273301527265,-0.0029511326095538076,-0.004380764131343542,0.007612121657327105, ,0.006468009412924548, ,0.0052820705305648774, ,4.4926286905547907e-05, ,0.14874755789043828,-0.24042411984035744,0.09305677023000002,-4.534964407739808,0.14825060224550288,-1.3341444315585287, ,0.012416190181665676,0.012425944946768465,0.006305942802850357,-0.007130634569873294,0.011425840222115655,-0.008853509396883426, ,1.0823841094970703
0.011167270735011336,0.020828732163537936,-0.08331335988420785, ,0.011429312833855636,0.020709027780222985,-0.08358682691231369, ,0.0003972145722560752, ,0.0019286339852072664,0.0004869593957511447,-0.006308547466437982,-0.007248875105849206,-0.00805039463097864,0.006214791082763399, ,0.006614720677270347, ,0.010833052848704179, ,4.537339347997365e-05, ,0.14901013080816192,-0.24017699238838225,0.0931902881,-4.534964407739808,0.14852387524503374,-1.3343672673659215, ,0.013787148272333396,0.011427859050875575,0.007017097585903085,-0.006440457532687971,0.015368063846005775,-0.012078195229485337, ,1.0963211059570312
0.011187708692016294,0.020835189947717245,-0.08337889130437075, ,0.011462162850904838,0.02071654978765279,-0.08369099350586448, ,0.00043221332358983557, ,0.002022895149478765,0.0005354671946571502,-0.006597733687276676,-0.00010767707358851335,-0.0030592809231733947,0.007226635612472208, ,0.006921626955460992, ,0.0030611732419499006, ,4.589857597662318e-05, ,0.14914913999989796,-0.24006115139526887,0.09325769518,-4.534964407739808,0.14866051174479922,-1.3343153277893367, ,0.013642458533420181,0.012841264080983865,0.006755221170483461,-0.006159502407806608,0.014231704602488047,-0.011605000827436259, ,1.1111631393432617
0.01120660862202292,0.02083944187850211,-0.08343844105158339, ,0.011495119399101828,0.020723932174908685,-0.08379511354375416, ,0.00047307105891844644, ,0.0020577589466478645,0.0004889867544657649,-0.006214543988007187,-0.004231077946422378,-0.007793573738343685,0.005943864684841437, ,0.0065646048553914165, ,0.008868021365243494, ,4.651367238832856e-05, ,0.14928042645875977,-0.2399375876692813,0.09331862081,-4.534964407739808,0.14879714824456466,-1.3344267456930332, ,0.01417853601650542,0.012228987314235926,0.006374074237695079,-0.005915731409841593,0.009202702888523394,-0.0075041871384326836, ,1.1251790523529053
0.011250511884574252,0.020850835560278294,-0.08358023900129383, ,0.01152818190557013,0.020731175816577834,-0.08389918574525951, ,0.00043948392497180223, ,0.0020668206609461607,0.0005480873862676027,-0.007114613469939612,0.0022739692152316518,0.0003725732046907989,0.00716505771002821, ,0.0074289886427525076, ,0.0023042848252633596, ,4.702967129862821e-05, ,0.1495738903079803,-0.2396595692858092,0.09346380529000001,-4.534964407739808,0.14907042124409553,-1.3346495815004262, ,0.01356833593915796,0.0141341884954529,0.007266793576642336,-0.005422319748306067,0.01798602365386571,-0.014666396276164203, ,1.1394951343536377
0.011279204034069389,0.02085943019959414,-0.08367375073323426, ,0.011561349799088225,0.020738281585361926,-0.08400320883467675, ,0.0004503619211862227, ,0.002390094415688882,0.0007210776524057401,-0.007717520840813542,-0.008122821875263425,-0.010747065278160035,0.00440182483647453, ,0.008111265759737966, ,0.013471437188848464, ,4.755975397028605e-05, ,0.1497592358969617,-0.23948966916257627,0.09355973075000001,-4.534964407739808,0.14920705774386098,-1.3347609994041225, ,0.015055837150320604,0.013719378568522593,0.007916904333996026,-0.005176228806656635,0.006539048760872226,-0.005332155802847508, ,1.153386116027832
0.011305645482687986,0.020867325237807585,-0.08375712976320315, ,0.0115946225100915,0.02074525035207735,-0.08410718154131218, ,0.00047004919684040644, ,0.0025202544527613735,0.0007697442409599781,-0.007626632493737978,-0.007426430907922009,-0.012421719632638436,0.004305048439623446, ,0.008069058922680795, ,0.014472420974369741, ,4.812484016733952e-05, ,0.1499214132873204,-0.239342937237966,0.09364528589000001,-4.534964407739808,0.14920705774386098,-1.3347609994041225, ,0.016698388449493364,0.01295344547617674,0.007858318460779478,-0.004980438079650532,0.006445351041056118,-0.005255751595033588, ,1.1678199768066406
0.011354606579949772,0.02088309487311261,-0.08392102498774925, ,0.011627999470669271,0.020752082985657526,-0.08421110259947628, ,0.0004195864728226654, ,0.0023191871280149687,0.0005804846227706578,-0.007474698757455938,0.00657690812109625,0.0021987613524857806,0.007462388344523758, ,0.007847720232445654, ,0.006934713302339194, ,4.8555037936536554e-05, ,0.1502612135337863,-0.23904947338874546,0.09381380359000001,-4.534964407739808,0.1497536037429227,-1.3352066710189083, ,0.016299715142300032,0.014832282206700654,0.007661766002886004,-0.004647276056682691,0.02314315250806966,-0.018871689056747163, ,1.1818430423736572
0.01137315702874999,0.020887745957602125,-0.08397797703613799, ,0.011661480114564407,0.020758780353153695,-0.08431497074847845, ,0.000461873457887872, ,0.0021339788073493167,0.0006013136671622463,-0.007046123229740219,0.008044926754823855,0.003652286856246834,0.007570566627127294, ,0.007386697248785607, ,0.008835158651814898, ,4.907546137645387e-05, ,0.15037705452689965,-0.23894135512850634,0.09387213664,-4.534964407739808,0.1497536037429227,-1.3352066710189083, ,0.014874128770920186,0.013363884179477648,0.007230509087607809,-0.004532149223496145,0.02314315250806966,-0.018871689056747163, ,1.197200059890747
0.011394258844027278,0.020892649679516692,-0.08403855922022736, ,0.011695063877164272,0.02076534331973835,-0.08441878473262011, ,0.0005012604287941462, ,0.0023130581960834184,0.0006130019940129929,-0.0072736618939894734,0.0044413169715319155,-0.0008665421518281728,0.006511812082635496, ,0.007657164423675851, ,0.004525060373418852, ,4.979301098419112e-05, ,0.15051606371863568,-0.23882551413539296,0.09393435856000001,-4.534964407739808,0.1497536037429227,-1.3352883497590486, ,0.01613893563919571,0.01382531199861171,0.007471299962476548,-0.004414278169167316,0.019337462173047593,-0.016213023950666865, ,1.2084081172943115
0.011430437259475512,0.020901667147457628,-0.08414591102038341, ,0.011728750195510276,0.02077177274870391,-0.0845225433011875, ,0.0004977097925266916, ,0.002467437498766821,0.0006082768453548406,-0.007336584816541223,-0.0012966460069662768,-0.005888401898909615,0.005272112941750445, ,0.007764259481832039, ,0.006029473155678102, ,5.0488903172046424e-05, ,0.15074774570486243,-0.23862472308066313,0.09404454321000001,-4.534964407739808,0.1497536037429227,-1.3353700284991894, ,0.01728226945155177,0.013986284680688396,0.007545623647560399,-0.004236132697475801,0.014537203379157431,-0.011230382812069457, ,1.2202000617980957
0.011477944262601285,0.02091510380231486,-0.08429841555885799, ,0.011762538508288907,0.02077806950146601,-0.08462624520844492, ,0.00045524121456204695, ,0.002595429799818089,0.000793868051257692,-0.00859798029418955,-0.0037015519396305947,-0.005930228504952789,0.004572185642606172, ,0.009016193624133372, ,0.006990640163479285, ,5.10738583726789e-05, ,0.1510875459513283,-0.23833898196431683,0.0942013943,-4.534964407739808,0.1503001497419845,-1.3358973788541155, ,0.01634744901954708,0.015276391107287634,0.008819939933554817,-0.004005911439516102,0.013315509816954651,-0.010229166372995839, ,1.2316792011260986
0.011508885557229249,0.020924658698026486,-0.08440076548539277, ,0.01179642825582578,0.02078423443756603,-0.08472988921363175, ,0.0004590448833523469, ,0.002805307623948665,0.0011197447465817693,-0.009942257324337308,0.015399380327785924,0.0096767694063049,0.005099482088878211, ,0.010390960488127208, ,0.01818737703674123, ,5.165680905886113e-05, ,0.15128061427318393,-0.23816135910820965,0.09430639379000001,-4.535174097683293,0.15043678624174994,-1.3360904754979526, ,0.018408718052079685,0.01570101614137505,0.010243608694533763,0.0,0.03308413890160605,-0.026572241428609998, ,1.2434861660003662
0.011508885557229249,0.020924658698026486,-0.08440076548539277, ,0.011830418880093677,0.02079026841467012,-0.08483347408095107, ,0.0005555908158374137, ,0.002805307623948665,0.0011197447465817693,-0.009942257324337308,0.015399380327785924,0.0096767694063049,0.005099482088878211, ,0.010390960488127208, ,0.01818737703674123, ,5.244810969287919e-05, ,0.15128061427318393,-0.23816135910820965,0.09430639379000001,-4.535174097683293,0.15043678624174994,-1.3360904754979526, ,0.018408718052079685,0.01570101614137505,0.010243608694533763,0.0,0.03308413890160605,-0.026572241428609998, ,1.2557740211486816
0.011569032807113112,0.020946709105258633,-0.08459704724437911, ,0.011864509824701922,0.020796172288572893,-0.0849369985795671, ,0.00047490516042379775, ,0.002745640990324211,0.0007960681504173206,-0.00858228972459089,-0.014584993509447074,-0.016082003017942804,-0.004699762191330853, ,0.009045881154684476, ,0.021710661210092734, ,5.30438686179405e-05, ,0.15164358271827247,-0.23785244979324066,0.09450861503,-4.534754717796323,0.15057342274151536,-1.3362018934016489, ,0.016587474490206394,0.015027227483526648,0.00881018336283186,0.002505577550875983,-0.00010067318843533961,8.485091164216711e-05, ,1.2667810916900635
0.01159697667517701,0.02095312573161289,-0.08468305529725928, ,0.011898700534898325,0.020801946913198203,-0.08504046148359717, ,0.0004915602757495633, ,0.002940985441233986,0.0005814082667655038,-0.008522895979219593,-0.007935992929476925,-0.016259190240287352,-0.004382605728290354, ,0.00903477652246092, ,0.01809257322978718, ,5.366610648270175e-05, ,0.15182892830725386,-0.23768254967000774,0.09459676275000001,-4.534754717796323,0.1507100592412808,-1.3364766687856262, ,0.019315477622322566,0.017348618200817328,0.008732901052631581,0.002501894193353848,0.0037600401529761423,-0.008402612988440663, ,1.2779791355133057
0.011622710609537713,0.02095840912883563,-0.08476677245429895, ,0.011932990457566245,0.02080759314060053,-0.08514386157210543, ,0.0005110922120009369, ,0.002812130089098378,0.0004740584571618032,-0.008573807471758553,0.024211244992787345,-0.010569473789470535,-0.0032250218679880822, ,0.009035650592049357, ,0.026417761335063936, ,5.43204724563665e-05, ,0.15200655116336104,-0.23750492681390056,0.09468231789,-4.534754717796323,0.15098333224081167,-1.336944540813441, ,0.018724731957077894,0.01876175198862609,0.008752094241758242,0.0024301447561016834,0.013672108397872883,-0.040890861468366686, ,1.2888741493225098
0.011649333108050797,0.02096395525759865,-0.08484373699567804, ,0.011967379041221813,0.020813111820967102,-0.08524719762909719, ,0.0005354320131449142, ,0.0026810463521694944,0.0006649165005259136,-0.008113205142470768,0.03778585893800546,0.002733726876133675,0.0010986199179151676, ,0.00857054380882375, ,0.03788461908430849, ,5.50166434045491e-05, ,0.1521918967523424,-0.23735047215641608,0.09476139158,-4.534754717796323,0.15111996874057715,-1.336974279976997, ,0.01965146853561209,0.015644072132949355,0.008357193871983212,0.0023644868972273613,0.029734150424428778,-0.049232582250261524, ,1.3003201484680176
0.011679724795347622,0.020969813743238735,-0.08492835695289325, ,0.012001865736015882,0.02081850380261826,-0.0853504684435108, ,0.0005521300519774062, ,0.0029403464113044193,0.0006789680545380334,-0.008952147306725456,-0.0002845153415407583,0.0018520893886867264,0.000937829130692514, ,0.00944709352334705, ,0.0018738000393480952, ,5.5858121930122485e-05, ,0.15239268780707224,-0.23718057203318313,0.09484824301000001,-4.534754717796323,0.15111996874057715,-1.3370559587171376, ,0.020607370588158695,0.0176782678015035,0.009196773394919169,0.002298952091194773,0.024810764119146053,-0.01351970908575401, ,1.3086950778961182
0.011717189686799759,0.020978116198025774,-0.08504489009786236, ,0.012036449993723084,0.020823769932011245,-0.08545367280921379, ,0.0005411591434219997, ,0.0032258237335861706,0.0005796966264963719,-0.009868860502919902,-0.0008439570883055029,-0.013595401425963004,-0.003616538144413923, ,0.01039886506139163, ,0.013621567820453625, ,5.6665000499521255e-05, ,0.1526320925261732,-0.2369488900469564,0.09496750169000001,-4.534754717796323,0.1512566052403426,-1.3371673766208338, ,0.020625286146157527,0.020967066186140252,0.010075149601518027,0.002224515770620128,0.009390051714715356,-0.018420669390596053, ,1.3172101974487305
0.011748282229973307,0.02098457010929103,-0.08514506370906211, ,0.01207113126775117,0.020828911053739105,-0.08555680952499403, ,0.00054588997032997, ,0.0032054812287101576,0.0007157758941195641,-0.010051231662605308,0.0003399956889078904,-0.011420638880669408,-0.0029354709588425955, ,0.010574247158714198, ,0.011425694154981087, ,5.747164206353715e-05, ,0.15284060631377727,-0.23674037625935235,0.0950699086,-4.534754717796323,0.15152987823987346,-1.3373902124282266, ,0.0202080369587885,0.0199279591680955,0.010283286972240156,0.002165044363337705,0.011227880523283147,-0.01832818829354442, ,1.3252780437469482
0.011748282229973307,0.02098457010929103,-0.08514506370906211, ,0.012105909013129959,0.02083392801053437,-0.08565987739455497, ,0.0006446883655841224, ,0.0032054812287101576,0.0007157758941195641,-0.010051231662605308,0.0003399956889078904,-0.011420638880669408,-0.0029354709588425955, ,0.010574247158714198, ,0.011425694154981087, ,5.847862167844869e-05, ,0.15284060631377727,-0.23674037625935235,0.0950699086,-4.534754717796323,0.15152987823987346,-1.3373902124282266, ,0.0202080369587885,0.0199279591680955,0.010283286972240156,0.002165044363337705,0.011227880523283147,-0.01832818829354442, ,1.3337411880493164
0.011748282229973307,0.02098457010929103,-0.08514506370906211, ,0.012140782686513493,0.020838821643269338,-0.0857628752265084, ,0.0007463178242687349, ,0.0032054812287101576,0.0007157758941195641,-0.010051231662605308,0.0003399956889078904,-0.011420638880669408,-0.0029354709588425955, ,0.010574247158714198, ,0.011425694154981087, ,5.968811735479062e-05, ,0.15308773376575247,-0.2365086942731256,0.09519824131000001,-4.534754717796323,0.15193978773916977,-1.337724466139316, ,0.02403671265412127,0.02280080287325103,0.013110132938271608,0.002105234227360764,0.04871567843366123,-0.04760463017629855, ,1.3422110080718994
0.011826743987219545,0.021008893543144367,-0.08540631769155407, ,0.012175751746177013,0.02084359279095851,-0.0858658018343686, ,0.0006002136552792832, ,0.003964051468298242,0.0013960917047276958,-0.012989090650231572,0.014202373264046525,-0.0013354805924804022,0.0011053699742739655, ,0.013652078669977703, ,0.01426501121648674, ,6.057474746682201e-05, ,0.15333486121772763,-0.2362847350197731,0.09533824063000002,-4.534754717796323,0.1520764242389352,-1.3378358840430122, ,0.025393883210722713,0.020625286146157527,0.01339681372582002,0.002051592356156064,0.028928222636547447,-0.03054581886339987, ,1.350404977798462
0.01186384912993863,0.021020614463325763,-0.08552336716639403, ,0.012210815652014187,0.02084824229075959,-0.0859686560365455, ,0.0005902373346351115, ,0.003553157776599335,0.0010703773381069736,-0.011427487266972625,-0.006281028807142431,-0.0136391582010869,-0.003004196260947456, ,0.012014911696228264, ,0.015015917036148844, ,6.14293773668945e-05, ,0.15356654320395438,-0.23609166669791748,0.09545879560000001,-4.534754717796323,0.15221306073870067,-1.3380289806868495, ,0.021363561809651235,0.01956637970277748,0.011738254620486369,0.0020023483126003837,0.009209037103601419,-0.011586648883265178, ,1.3591890335083008
0.011916056120811026,0.02103073352700937,-0.08568431455409371, ,0.012245973865537536,0.020852770977974933,-0.08607143665633799, ,0.0005388691020927864, ,0.004293804757584692,0.0009212570024193133,-0.013893413062154492,-0.013212730403555924,-0.012801741011253094,-0.002784587023955898, ,0.014570943698896397, ,0.018397290560734594, ,6.216655194068265e-05, ,0.15390634345042026,-0.23575958918432582,0.09562342443,-4.534754717796323,0.15248633373823153,-1.3383334952343828, ,0.025956493861726142,0.027894456660338265,0.01418415985752449,0.0019417390783937924,0.014969082562338205,-0.012094399595833758, ,1.3702311515808105
0.011954672555903812,0.021042565762452666,-0.08581691105610958, ,0.012281225849874625,0.020857179686053422,-0.08617414252192847, ,0.0005182850290110668, ,0.0038909257061187797,0.0010573211525362566,-0.012673805641213913,0.03349900569332632,0.022875390948159345,0.00979420173844411, ,0.013299721061037413, ,0.0405643509313545, ,6.285205891008146e-05, ,0.15415347090239545,-0.23552018446522488,0.09575953488000001,-4.534545027852839,0.15289624323752785,-1.338667748945472, ,0.028059415008418326,0.023783694626183155,0.013045709680589684,0.0,0.06011836710655013,-0.0490918475018009, ,1.3792810440063477
0.011998719172963787,0.021051405627186773,-0.08594156876903128, ,0.012316571069764562,0.020861469246592355,-0.08627677246637591, ,0.0004994668914819786, ,0.0038909257061187797,0.0010573211525362566,-0.012673805641213913,0.03349900569332632,0.022875390948159345,0.00979420173844411, ,0.013299721061037413, ,0.0405643509313545, ,6.349047926891458e-05, ,0.15446238021736441,-0.2352730570132497,0.09588786759000001,-4.534545027852839,0.15316951623705874,-1.338890584752865, ,0.029047120158699348,0.023837463340484998,0.011170274558204768,0.0,0.03177088149861913,-0.02611174125017826, ,1.3875741958618164
0.011998719172963787,0.021051405627186773,-0.08594156876903128, ,0.012352008991557426,0.020865640489338595,-0.08637932532760954, ,0.0005924130205692345, ,0.0039585005385614856,0.0005745566499428629,-0.010869750237306328,0.0067348500280428715,-0.002149681657730786,0.0034280724383892957, ,0.011582370745197466, ,0.007069595772786511, ,6.444228307674978e-05, ,0.15446238021736441,-0.2352730570132497,0.09588786759000001,-4.534545027852839,0.15316951623705874,-1.338890584752865, ,0.029047120158699348,0.023837463340484998,0.011170274558204768,0.0,0.03177088149861913,-0.02611174125017826, ,1.3930552005767822
0.012040975721460128,0.021055118440706563,-0.08605595212050614, ,0.012387539083214053,0.020869694242189846,-0.08648179994842226, ,0.000579512441321689, ,0.004323425907583696,0.00044400358675057206,-0.012616681881751725,-0.010573661556721342,-0.012331800230106183,-0.00022939619233026942, ,0.013344280140522212, ,0.016244238853936912, ,6.536005878992329e-05, ,0.1547403986008365,-0.23500276136265183,0.09600453369,-4.534545027852839,0.15316951623705874,-1.338890584752865, ,0.028765365734607695,0.029618271397774898,0.01285618363196126,0.0,0.019436560110912847,-0.016137590604296554, ,1.398665189743042
0.012040975721460128,0.021055118440706563,-0.08605595212050614, ,0.012423160814301263,0.02087363133119684,-0.08658419517646432, ,0.0006767892894219124, ,0.004323425907583696,0.00044400358675057206,-0.012616681881751725,-0.010573661556721342,-0.012331800230106183,-0.00022939619233026942, ,0.013344280140522212, ,0.016244238853936912, ,6.646770416891327e-05, ,0.1547403986008365,-0.23500276136265183,0.09600453369,-4.534545027852839,0.15316951623705874,-1.338890584752865, ,0.028765365734607695,0.029618271397774898,0.01285618363196126,0.0,0.019436560110912847,-0.016137590604296554, ,1.4043841361999512
0.012084455331830531,0.0210611220948594,-0.08618000730932686, ,0.01245887365599087,0.02087745258056432,-0.08668650986423697, ,0.0006561009145542292, ,0.004810141329141717,0.0008040740659481716,-0.013136668754593205,-0.014368930589534503,-0.021084196946944734,-0.007837331783011024, ,0.01401271068272492, ,0.02551488067696442, ,6.752460418147167e-05, ,0.15504158518293126,-0.23472474297917975,0.09613157011000001,-4.534335337909355,0.15344278923658963,-1.339113420560258, ,0.03247670826778603,0.02710566739744952,0.013498992813559325,0.006510197898901892,0.011712410664002712,-0.00989524378811459, ,1.4110190868377686
0.012084455331830531,0.0210611220948594,-0.08618000730932686, ,0.01249467708105908,0.02088115881265273,-0.08678874286908582, ,0.0007557960361088058, ,0.004810141329141717,0.0008040740659481716,-0.013136668754593205,-0.014368930589534503,-0.021084196946944734,-0.007837331783011024, ,0.01401271068272492, ,0.02551488067696442, ,6.877359176244926e-05, ,0.15504158518293126,-0.23472474297917975,0.09613157011000001,-4.534335337909355,0.15344278923658963,-1.339113420560258, ,0.03247670826778603,0.02710566739744952,0.013498992813559325,0.006510197898901892,0.011712410664002712,-0.00989524378811459, ,1.4164690971374512
0.012131322326164581,0.0210712567668094,-0.08632375158181504, ,0.012530570563878955,0.020884750847981026,-0.08689089305319547, ,0.0007182151917326771, ,0.00463617882040066,0.0010043025120455831,-0.014477129073848764,0.038036645910947756,0.026263203384209136,0.004646533173158505, ,0.015234501757895133, ,0.04622273951445196, ,6.993725510555103e-05, ,0.15537366269652292,-0.23443900186283345,0.09627934717000002,-4.534335337909355,0.1539893352356514,-1.3395590921750435, ,0.03385549110184473,0.029226036821210586,0.01488673973831776,0.006510197898901892,0.06921277114728622,-0.05682508914098044, ,1.4219660758972168
0.012131322326164581,0.0210712567668094,-0.08632375158181504, ,0.01256655358042474,0.020888229505226428,-0.08699295928358221, ,0.000819001936061156, ,0.005636387722354571,0.0015491127016502258,-0.018281945682794603,0.007143217636211579,0.0011342198066856487,0.009318289730759311, ,0.018887358617315577, ,0.007232563204236168, ,7.12927988697228e-05, ,0.15573663114161146,-0.23411464708211602,0.09645434632000001,-4.534125647965871,0.1543992447349477,-1.3399750246262734, ,0.035810166625838025,0.032711803363829985,0.018783975849056604,-0.004575113787908915,0.04452385631803985,-0.03426301217133079, ,1.4288530349731445
0.012186464902967337,0.021084364809824757,-0.08649404304145498, ,0.012602625608267281,0.02089159560122665,-0.08709494043208735, ,0.0007559281543163143, ,0.005636387722354571,0.0015491127016502258,-0.018281945682794603,0.007143217636211579,0.0011342198066856487,0.009318289730759311, ,0.019193700911178533, ,0.007232563204236168, ,7.2512167769478e-05, ,0.15573663114161146,-0.23411464708211602,0.09645434632000001,-4.534125647965871,0.1543992447349477,-1.3399750246262734, ,0.035810166625838025,0.032711803363829985,0.018783975849056604,-0.004575113787908915,0.04452385631803985,-0.03426301217133079, ,1.4346730709075928
0.012247712343623391,0.021103219133932653,-0.08669050671415425, ,0.012638786126573886,0.020894849950981276,-0.08719683537537071, ,0.0006728485217969082, ,0.006328113171176717,0.0020661214579208043,-0.02030235752388311,-0.023724552141699138,-0.028068219470117877,0.0018337593202788615, ,0.021365851146483122, ,0.036751542406215774, ,7.355736417790959e-05, ,0.15610732231957425,-0.23379029230139858,0.09665656756,-4.534125647965871,0.1546725177344786,-1.340197860433666, ,0.03645675818612016,0.03180192411476903,0.020903952125984254,-0.0044736943585239365,0.010819022117486888,-0.006923606405461119, ,1.4407930374145508
0.012247712343623391,0.021103219133932653,-0.08669050671415425, ,0.012675034616101904,0.020897993367654064,-0.08729864299490576, ,0.0007710717707626958, ,0.006328113171176717,0.0020661214579208043,-0.02030235752388311,-0.023724552141699138,-0.028068219470117877,0.0018337593202788615, ,0.021365851146483122, ,0.036751542406215774, ,7.47880486796983e-05, ,0.15610732231957425,-0.23379029230139858,0.09665656756,-4.534125647965871,0.1546725177344786,-1.340197860433666, ,0.03645675818612016,0.03180192411476903,0.020903952125984254,-0.0044736943585239365,0.010819022117486888,-0.006923606405461119, ,1.4463281631469727
0.012314007657605918,0.02112388722544013,-0.08690060209487113, ,0.012711370559201001,0.02090102666257376,-0.08740036217697139, ,0.0006762575291307571, ,0.006360530387436141,0.0017869134226038193,-0.019453330737370926,-0.018230022302655653,-0.024863931645271,0.0028862089244439853, ,0.020544621757699038, ,0.03083092642280246, ,7.582278626667543e-05, ,0.15650890442903392,-0.2334504920549327,0.09687304799000002,-4.534125647965871,0.15494579073400946,-1.340420696241059, ,0.03879678722750236,0.032633061058621314,0.020036240905660377,-0.0042204166783752235,0.017309376631047223,-0.012347689462197699, ,1.452010154724121
0.012314007657605918,0.02112388722544013,-0.08690060209487113, ,0.012747793439806834,0.020903950645236483,-0.0875019918126472, ,0.0007734415277175868, ,0.006360530387436141,0.0017869134226038193,-0.019453330737370926,-0.018230022302655653,-0.024863931645271,0.0028862089244439853, ,0.020544621757699038, ,0.03083092642280246, ,7.703960809678157e-05, ,0.15650890442903392,-0.2334504920549327,0.09687304799000002,-4.534125647965871,0.15494579073400946,-1.340420696241059, ,0.03879678722750236,0.032633061058621314,0.020036240905660377,-0.0042204166783752235,0.017309376631047223,-0.012347689462197699, ,1.4577569961547852
0.012375890867896406,0.0211383472298701,-0.08709377484191172, ,0.01278430274344406,0.02090676612330597,-0.08760353079780551, ,0.0006930232345131128, ,0.005800671479949676,0.0010541117442091452,-0.017797207311235876,-0.0003053464107995538,-0.004362404489147985,0.0071011804095052625, ,0.018748320705244216, ,0.004372873638675101, ,7.809018123190739e-05, ,0.15690276380561935,-0.23308752360984414,0.09707138036000001,-4.534125647965871,0.15535570023330578,-1.340754949952148, ,0.03755320204134183,0.03637291742371437,0.018225184805491994,-0.003992747769642796,0.03997972704466575,-0.03094899718169708, ,1.463287115097046
0.012375890867896406,0.0211383472298701,-0.08709377484191172, ,0.012820897957222556,0.0209094739026159,-0.08770497803310519, ,0.0007899263575827936, ,0.005800671479949676,0.0010541117442091452,-0.017797207311235876,-0.0003053464107995538,-0.004362404489147985,0.0071011804095052625, ,0.018748320705244216, ,0.004372873638675101, ,7.932075597971124e-05, ,0.15690276380561935,-0.23308752360984414,0.09707138036000001,-4.534125647965871,0.15535570023330578,-1.340754949952148, ,0.03755320204134183,0.03637291742371437,0.018225184805491994,-0.003992747769642796,0.03997972704466575,-0.03094899718169708, ,1.4688010215759277
0.012436224520875791,0.02114733183649838,-0.08726845285486937, ,0.01285757856982803,0.02091207478717315,-0.08780633242398816, ,0.0007226337555782211, ,0.006231402085658151,0.0009272241311899667,-0.01837390321982777,-0.007620869524570674,-0.011697203472607106,0.005359090427825148, ,0.01942396550846925, ,0.013960663567441979, ,8.056748659908819e-05, ,0.1572966231822048,-0.23271683243188138,0.09725026838,-4.534125647965871,0.15562897323283667,-1.340977785759541, ,0.04069337116572503,0.0391166288369624,0.018806152916174736,-0.003805410595758312,0.034990095052553044,-0.026973144700469187, ,1.4716391563415527
0.012436224520875791,0.02114733183649838,-0.08726845285486937, ,0.012894344071536439,0.020914569579154916,-0.08790759288066721, ,0.0008200925336314249, ,0.006231402085658151,0.0009272241311899667,-0.01837390321982777,-0.007620869524570674,-0.011697203472607106,0.005359090427825148, ,0.01942396550846925, ,0.013960663567441979, ,8.199790255079484e-05, ,0.1572966231822048,-0.23271683243188138,0.09725026838,-4.534125647965871,0.15562897323283667,-1.340977785759541, ,0.04069337116572503,0.0391166288369624,0.018806152916174736,-0.003805410595758312,0.034990095052553044,-0.026973144700469187, ,1.4745161533355713
0.012436224520875791,0.02114733183649838,-0.08726845285486937, ,0.012931193954195376,0.02091695907891492,-0.08800875831812503, ,0.0009198470124338645, ,0.006231402085658151,0.0009272241311899667,-0.01837390321982777,-0.007620869524570674,-0.011697203472607106,0.005359090427825148, ,0.01942396550846925, ,0.013960663567441979, ,8.361537187489343e-05, ,0.1572966231822048,-0.23271683243188138,0.09725026838,-4.534125647965871,0.15562897323283667,-1.340977785759541, ,0.04069337116572503,0.0391166288369624,0.018806152916174736,-0.003805410595758312,0.034990095052553044,-0.026973144700469187, ,1.4774880409240723
0.01250374633788163,0.021158580693471492,-0.08746405390316735, ,0.012968127711227889,0.020919244084983312,-0.08810982765610613, ,0.0008306357878506208, ,0.0067104900782832206,0.001056438217851823,-0.018576295834267214,0.009957372935719954,-0.00259815980343638,0.005178229700224725, ,0.01977942126860867, ,0.010290651004278955, ,8.505471757041506e-05, ,0.15775998715465828,-0.2323152503224217,0.09745119333,-4.534335337909355,0.15617551923189843,-1.3414234573743267, ,0.047212408735557605,0.03860738061776679,0.019122222713085234,0.00041839728947615093,0.05225730835673814,-0.041142366027758455, ,1.480323076248169
0.01250374633788163,0.021158580693471492,-0.08746405390316735, ,0.013005144837640351,0.020921425394065468,-0.0882107998191073, ,0.0009302002765908319, ,0.0067104900782832206,0.001056438217851823,-0.018576295834267214,0.009957372935719954,-0.00259815980343638,0.005178229700224725, ,0.01977942126860867, ,0.010290651004278955, ,0.0004744589336382763, ,0.15775998715465828,-0.2323152503224217,0.09745119333,-4.534335337909355,0.15617551923189843,-1.3414234573743267, ,0.047212408735557605,0.03860738061776679,0.019122222713085234,0.00041839728947615093,0.05225730835673814,-0.041142366027758455, ,1.483091115951538
0.01250374633788163,0.021158580693471492,-0.08746405390316735, ,0.013042244829998011,0.020923503801049795,-0.08831167373637773, ,0.001031358886621847, ,0.0067104900782832206,0.001056438217851823,-0.018576295834267214,0.009957372935719954,-0.00259815980343638,0.005178229700224725, ,0.01977942126860867, ,0.010290651004278955, ,0.0004802599748151885, ,0.15775998715465828,-0.2323152503224217,0.09745119333,-4.534335337909355,0.15617551923189843,-1.3414234573743267, ,0.047212408735557605,0.03860738061776679,0.019122222713085234,0.00041839728947615093,0.05225730835673814,-0.041142366027758455, ,1.4858171939849854
0.01250374633788163,0.021158580693471492,-0.08746405390316735, ,0.013079427186446155,0.020925480099002622,-0.0884124483419059, ,0.0011336650025364292, ,0.0067104900782832206,0.001056438217851823,-0.018576295834267214,0.009957372935719954,-0.00259815980343638,0.005178229700224725, ,0.01977942126860867, ,0.010290651004278955, ,0.00048699610912159307, ,0.15775998715465828,-0.2323152503224217,0.09745119333,-4.534335337909355,0.15617551923189843,-1.3414234573743267, ,0.047212408735557605,0.03860738061776679,0.019122222713085234,0.00041839728947615093,0.05225730835673814,-0.041142366027758455, ,1.488558053970337
0.012573557471870073,0.021172284114470908,-0.08767045139540043, ,0.01311669140669327,0.020927355079174557,-0.08851312257441818, ,0.0010320268501521131, ,0.007621965203145601,0.001993614296214737,-0.02440333210946781,0.06755200130509813,0.04656618305139633,0.018627641600430348, ,0.025643546353127853, ,0.0820467770831189, ,0.0004925576472953739, ,0.15825424205860866,-0.2319059454800878,0.09766378489000001,-4.534335337909355,0.15699533823049108,-1.3420102860563647, ,0.05331288851599482,0.044427407096662354,0.025163999241706165,0.00041839728947615093,0.11762483941944639,-0.09591516946965656, ,1.4913530349731445
0.012573557471870073,0.021172284114470908,-0.08767045139540043, ,0.013154036992016999,0.02092912953099889,-0.08861369537736857, ,0.001133926732329992, ,0.007621965203145601,0.001993614296214737,-0.02440333210946781,0.06755200130509813,0.04656618305139633,0.018627641600430348, ,0.025643546353127853, ,0.0820467770831189, ,0.0004990361229017841, ,0.15825424205860866,-0.2319059454800878,0.09766378489000001,-4.534335337909355,0.15699533823049108,-1.3420102860563647, ,0.05331288851599482,0.044427407096662354,0.025163999241706165,0.00041839728947615093,0.11762483941944639,-0.09591516946965656, ,1.4942162036895752
0.012573557471870073,0.021172284114470908,-0.08767045139540043, ,0.013191463445256582,0.02093080424209541,-0.08871416569893541, ,0.0012367133330374973, ,0.007621965203145601,0.001993614296214737,-0.02440333210946781,0.06755200130509813,0.04656618305139633,0.018627641600430348, ,0.025643546353127853, ,0.0820467770831189, ,0.0005064128950031413, ,0.15825424205860866,-0.2319059454800878,0.09766378489000001,-4.534335337909355,0.15699533823049108,-1.3420102860563647, ,0.05331288851599482,0.044427407096662354,0.025163999241706165,0.00041839728947615093,0.11762483941944639,-0.09591516946965656, ,1.4972541332244873
0.012603673960387923,0.02118162331473058,-0.08777219412557112, ,0.013228970270814015,0.020932379998270755,-0.08881453249201332, ,0.0012408009416460678, ,0.007995890278772379,0.002469399805567158,-0.027445737265994065,0.09066658309978289,0.07076191605698742,0.014812288898804152, ,0.02869321680857476, ,0.11501157542598141, ,0.0005136840637817841, ,0.15846275584621272,-0.23172832262398063,0.09776878438000002,-4.534125647965871,0.15754188422955284,-1.342537636411291, ,0.05463266641247599,0.04759124451277371,0.028292738046181175,0.010125073008466491,0.14490994448489336,-0.11704497784447628, ,1.5003211498260498
0.012603673960387923,0.02118162331473058,-0.08777219412557112, ,0.01326655697465026,0.02093385758352049,-0.0889147947142072, ,0.0013440006894756803, ,0.007995890278772379,0.002469399805567158,-0.027445737265994065,0.09066658309978289,0.07076191605698742,0.014812288898804152, ,0.02869321680857476, ,0.11501157542598141, ,0.0005218244228572145, ,0.15846275584621272,-0.23172832262398063,0.09776878438000002,-4.534125647965871,0.15754188422955284,-1.342537636411291, ,0.05463266641247599,0.04759124451277371,0.028292738046181175,0.010125073008466491,0.14490994448489336,-0.11704497784447628, ,1.5031051635742188
0.012603673960387923,0.02118162331473058,-0.08777219412557112, ,0.013304223064285834,0.020935237780029953,-0.08901495132782569, ,0.0014477293747235667, ,0.007995890278772379,0.002469399805567158,-0.027445737265994065,0.09066658309978289,0.07076191605698742,0.014812288898804152, ,0.02869321680857476, ,0.11501157542598141, ,0.0005308137913219364, ,0.15846275584621272,-0.23172832262398063,0.09776878438000002,-4.534125647965871,0.15754188422955284,-1.342537636411291, ,0.05463266641247599,0.04759124451277371,0.028292738046181175,0.010125073008466491,0.14490994448489336,-0.11704497784447628, ,1.5058372020721436
0.012603673960387923,0.02118162331473058,-0.08777219412557112, ,0.013341968048796176,0.02093652136817665,-0.08911500129987462, ,0.0015518647597468212, ,0.007995890278772379,0.002469399805567158,-0.027445737265994065,0.09066658309978289,0.07076191605698742,0.014812288898804152, ,0.02869321680857476, ,0.11501157542598141, ,0.0005406315890952526, ,0.15846275584621272,-0.23172832262398063,0.09776878438000002,-4.534125647965871,0.15754188422955284,-1.342537636411291, ,0.05463266641247599,0.04759124451277371,0.028292738046181175,0.010125073008466491,0.14490994448489336,-0.11704497784447628, ,1.5085930824279785
0.01275309714596553,0.021240131339715636,-0.08830768121557227, ,0.013379791438809645,0.020937709126531808,-0.08921494360205194, ,0.0011433853110964754, ,0.01058997639542921,0.004329020035457282,-0.0371044567914736,0.020774771911273013,0.014105535285698122,-0.0601632109182272, ,0.03882819501745439, ,0.02510949910527454, ,0.0005463721007333595, ,0.1593431473938743,-0.23092515840506128,0.09832100392000001,-4.533286888191932,0.15931815872650357,-1.3439860691593446, ,0.057513297914224715,0.05168678734121502,0.03829041230769231,0.06910446725224977,0.06564292702817166,-0.05245063138679529, ,1.511329174041748
0.01275309714596553,0.021240131339715636,-0.08830768121557227, ,0.013417692746509618,0.02093880183186043,-0.08931477721073841, ,0.0012436756522689117, ,0.01058997639542921,0.004329020035457282,-0.0371044567914736,0.020774771911273013,0.014105535285698122,-0.0601632109182272, ,0.03882819501745439, ,0.02510949910527454, ,0.0005529504361252043, ,0.1593431473938743,-0.23092515840506128,0.09832100392000001,-4.533286888191932,0.15931815872650357,-1.3439860691593446, ,0.057513297914224715,0.05168678734121502,0.03829041230769231,0.06910446725224977,0.06564292702817166,-0.05245063138679529, ,1.514106035232544
0.01275309714596553,0.021240131339715636,-0.08830768121557227, ,0.013455671485624056,0.020939800259125604,-0.08941450110699484, ,0.0013449385609624177, ,0.01058997639542921,0.004329020035457282,-0.0371044567914736,0.020774771911273013,0.014105535285698122,-0.0601632109182272, ,0.03882819501745439, ,0.02510949910527454, ,0.000560352194301253, ,0.1593431473938743,-0.23092515840506128,0.09832100392000001,-4.533286888191932,0.15931815872650357,-1.3439860691593446, ,0.057513297914224715,0.05168678734121502,0.03829041230769231,0.06910446725224977,0.06564292702817166,-0.05245063138679529, ,1.517782211303711
0.012859228316907091,0.021280623786961893,-0.088686671225189, ,0.013493727171431082,0.020940705181487773,-0.08951411427655358, ,0.0010967203189470175, ,0.011457719109639945,0.004269478435005307,-0.040832747337277354,0.021334510657191566,0.007368119822463309,0.04398224063403804, ,0.042624183609921665, ,0.022568496236527555, ,0.0005653185658257508, ,0.15992235235944113,-0.23036912163811712,0.09871118721000001,-4.533286888191932,0.1601379777250962,-1.344654576581523, ,0.06284565666123892,0.06017561290962003,0.04202852643799473,-0.03472825080486568,0.09197811084309782,-0.07397077899956536, ,1.521301031112671
0.012859228316907091,0.021280623786961893,-0.088686671225189, ,0.013531859320756894,0.020941517370306407,-0.08961361570981118, ,0.0011944252620940275, ,0.011457719109639945,0.004269478435005307,-0.040832747337277354,0.021334510657191566,0.007368119822463309,0.04398224063403804, ,0.042624183609921665, ,0.022568496236527555, ,0.0005710901868924323, ,0.15992235235944113,-0.23036912163811712,0.09871118721000001,-4.533286888191932,0.1601379777250962,-1.344654576581523, ,0.06284565666123892,0.06017561290962003,0.04202852643799473,-0.03472825080486568,0.09197811084309782,-0.07397077899956536, ,1.5240590572357178
0.012859228316907091,0.021280623786961893,-0.088686671225189, ,0.013570067451966934,0.020942237595143274,-0.08971300440182454, ,0.0012935058098860399, ,0.011457719109639945,0.004269478435005307,-0.040832747337277354,0.021334510657191566,0.007368119822463309,0.04398224063403804, ,0.042624183609921665, ,0.022568496236527555, ,0.0005776576016469197, ,0.15992235235944113,-0.23036912163811712,0.09871118721000001,-4.533286888191932,0.1601379777250962,-1.344654576581523, ,0.06284565666123892,0.06017561290962003,0.04202852643799473,-0.03472825080486568,0.09197811084309782,-0.07397077899956536, ,1.526818037033081
0.012859228316907091,0.021280623786961893,-0.088686671225189, ,0.013608351084968063,0.020942866623762994,-0.08981227935230339, ,0.001393649338515777, ,0.012317642749525235,0.004105611899830355,-0.041441472174909934,0.02540533816497622,0.011657956307838047,-0.00864615000294429, ,0.0434278250434073, ,0.027950258014862527, ,0.0005850088785556481, ,0.16060195285237291,-0.22974358027530495,0.09915451839000002,-4.533496578135416,0.1610944332234543,-1.3454345019073979, ,0.07034613903518962,0.06394672611756791,0.04270458852546917,0.019152870212949903,0.09134706009813541,-0.07349749142530702, ,1.5296170711517334
0.012981994958217058,0.021326409983313557,-0.0891169080223027, ,0.013646709741210872,0.020943405222133248,-0.08991143956560245, ,0.0011044540565888592, ,0.012317642749525235,0.004105611899830355,-0.041441472174909934,0.02540533816497622,0.011657956307838047,-0.00864615000294429, ,0.0434278250434073, ,0.027950258014862527, ,0.0005896467819309447, ,0.16060195285237291,-0.22974358027530495,0.09915451839000002,-4.533496578135416,0.1610944332234543,-1.3454345019073979, ,0.07034613903518962,0.06394672611756791,0.04270458852546917,0.019152870212949903,0.09134706009813541,-0.07349749142530702, ,1.5325419902801514
0.012981994958217058,0.021326409983313557,-0.0891169080223027, ,0.013685142943679835,0.02094385415442876,-0.09001048405071753, ,0.0011996850295939022, ,0.012317642749525235,0.004105611899830355,-0.041441472174909934,0.02540533816497622,0.011657956307838047,-0.00864615000294429, ,0.0434278250434073, ,0.027950258014862527, ,0.0005950453504943337, ,0.16060195285237291,-0.22974358027530495,0.09915451839000002,-4.533496578135416,0.1610944332234543,-1.3454345019073979, ,0.07034613903518962,0.06394672611756791,0.04270458852546917,0.019152870212949903,0.09134706009813541,-0.07349749142530702, ,1.5354561805725098
0.012981994958217058,0.021326409983313557,-0.0891169080223027, ,0.01372365021689479,0.020944214183031527,-0.09010941182127757, ,0.0012966070890817777, ,0.012317642749525235,0.004105611899830355,-0.041441472174909934,0.02540533816497622,0.011657956307838047,-0.00864615000294429, ,0.0434278250434073, ,0.027950258014862527, ,0.00060119940083282, ,0.16060195285237291,-0.22974358027530495,0.09915451839000002,-4.533496578135416,0.1610944332234543,-1.3454345019073979, ,0.07034613903518962,0.06394672611756791,0.04270458852546917,0.019152870212949903,0.09134706009813541,-0.07349749142530702, ,1.5385041236877441
0.013112285152358141,0.02136275948788169,-0.08952955442251492, ,0.013762231086910534,0.02094448606853226,-0.09020822189553834, ,0.0010285776150176706, ,0.012777485361278467,0.003074415767977282,-0.03842614431971494,0.012023328859048535,-0.006970999613162649,-0.006727447864282072, ,0.04061138672529705, ,0.01389501686492267, ,0.0006049157331300796, ,0.16137422613979535,-0.2290639797823732,0.09957970151000001,-4.533496578135416,0.16191425222204694,-1.3461030093295765, ,0.07901493884968425,0.06678180264494778,0.03962390925373134,0.014221889291004814,0.08092941768202458,-0.06504249106353864, ,1.5413830280303955
0.013112285152358141,0.02136275948788169,-0.08952955442251492, ,0.013800885081313882,0.020944670569731965,-0.09030691329637582, ,0.0011194887334885202, ,0.012777485361278467,0.003074415767977282,-0.03842614431971494,0.012023328859048535,-0.006970999613162649,-0.006727447864282072, ,0.04061138672529705, ,0.01389501686492267, ,0.0006093517072711006, ,0.16137422613979535,-0.2290639797823732,0.09957970151000001,-4.533496578135416,0.16191425222204694,-1.3461030093295765, ,0.07901493884968425,0.06678180264494778,0.03962390925373134,0.014221889291004814,0.08092941768202458,-0.06504249106353864, ,1.5442790985107422
0.013112285152358141,0.02136275948788169,-0.08952955442251492, ,0.013839611729215785,0.020944768443645182,-0.09040548505128174, ,0.0012128375525507146, ,0.012777485361278467,0.003074415767977282,-0.03842614431971494,0.012023328859048535,-0.006970999613162649,-0.006727447864282072, ,0.04061138672529705, ,0.01389501686492267, ,0.0006145097059487041, ,0.16137422613979535,-0.2290639797823732,0.09957970151000001,-4.533496578135416,0.16191425222204694,-1.3461030093295765, ,0.07901493884968425,0.06678180264494778,0.03962390925373134,0.014221889291004814,0.08092941768202458,-0.06504249106353864, ,1.5471701622009277
0.013193583447568628,0.021378480302232522,-0.08977001291484854, ,0.013878410561260192,0.020944780445498648,-0.09050393619235446, ,0.001093493081204966, ,0.012663630743009704,0.001779450754338223,-0.035786682216372045,0.013252036523043347,-0.003839485369884361,-0.003968953018423709, ,0.03800290268700556, ,0.013794905729736025, ,0.0006185688870949435, ,0.16189937197524262,-0.22860833854279394,0.0998272929,-4.533496578135416,0.16259743472087412,-1.3466600988480586, ,0.08287942494189587,0.07367774965719781,0.036787093579676675,0.012114002499494615,0.08972857772599628,-0.0722408801679405, ,1.552739143371582
0.013193583447568628,0.021378480302232522,-0.08977001291484854, ,0.013917281109612824,0.020944707328735265,-0.09060226575629436, ,0.0011851337859834776, ,0.012663630743009704,0.001779450754338223,-0.035786682216372045,0.013252036523043347,-0.003839485369884361,-0.003968953018423709, ,0.03800290268700556, ,0.013794905729736025, ,0.0006233299366654354, ,0.16189937197524262,-0.22860833854279394,0.0998272929,-4.533496578135416,0.16259743472087412,-1.3466600988480586, ,0.08287942494189587,0.07367774965719781,0.036787093579676675,0.012114002499494615,0.08972857772599628,-0.0722408801679405, ,1.555483102798462
0.013193583447568628,0.021378480302232522,-0.08977001291484854, ,0.013956222907962307,0.020944549845014742,-0.09070047278439705, ,0.0012789332105669262, ,0.012663630743009704,0.001779450754338223,-0.035786682216372045,0.013252036523043347,-0.003839485369884361,-0.003968953018423709, ,0.03800290268700556, ,0.013794905729736025, ,0.0006287932972812812, ,0.16189937197524262,-0.22860833854279394,0.0998272929,-4.533496578135416,0.16259743472087412,-1.3466600988480586, ,0.08287942494189587,0.07367774965719781,0.036787093579676675,0.012114002499494615,0.08972857772599628,-0.0722408801679405, ,1.558251142501831
0.013358038832276965,0.02138752026323443,-0.0902021843828611, ,0.013995235491520036,0.02094430874421483,-0.09079855632254626, ,0.0009788337568688741, ,0.012212506369719557,-0.0003026749031210435,-0.029571101431266365,0.012632292826318246,-0.006038366880194135,-0.0013375286973051639, ,0.03199510843528529, ,0.01400050301618917, ,0.0006316861936415092, ,0.16303461370775363,-0.2275889378033963,0.10027062408000001,-4.533496578135416,0.16382716321876312,-1.347581181241186, ,0.08868873042847737,0.07967837242524835,0.030282911634980987,0.009324673288050556,0.09484303650834901,-0.077301806606761, ,1.561028003692627
0.013358038832276965,0.02138752026323443,-0.0902021843828611, ,0.014034318397015525,0.020943984774433443,-0.09089651542120869, ,0.0010659143353580328, ,0.012212506369719557,-0.0003026749031210435,-0.029571101431266365,0.012632292826318246,-0.006038366880194135,-0.0013375286973051639, ,0.03199510843528529, ,0.01400050301618917, ,0.0006352454407047594, ,0.16303461370775363,-0.2275889378033963,0.10027062408000001,-4.533496578135416,0.16382716321876312,-1.347581181241186, ,0.08868873042847737,0.07967837242524835,0.030282911634980987,0.009324673288050556,0.09484303650834901,-0.077301806606761, ,1.563791036605835
0.013358038832276965,0.02138752026323443,-0.0902021843828611, ,0.0140734711626959,0.020943578681989837,-0.09099434913542602, ,0.0011560504064152515, ,0.012212506369719557,-0.0003026749031210435,-0.029571101431266365,0.012632292826318246,-0.006038366880194135,-0.0013375286973051639, ,0.03199510843528529, ,0.01400050301618917, ,0.0006394796274178528, ,0.16303461370775363,-0.2275889378033963,0.10027062408000001,-4.533496578135416,0.16382716321876312,-1.347581181241186, ,0.08868873042847737,0.07967837242524835,0.030282911634980987,0.009324673288050556,0.09484303650834901,-0.077301806606761, ,1.566533088684082
0.013358038832276965,0.02138752026323443,-0.0902021843828611, ,0.014112693328319832,0.020943091211427334,-0.09109205652481075, ,0.0012485563741801748, ,0.012212506369719557,-0.0003026749031210435,-0.029571101431266365,0.012632292826318246,-0.006038366880194135,-0.0013375286973051639, ,0.03199510843528529, ,0.01400050301618917, ,0.000644391536665936, ,0.16303461370775363,-0.2275889378033963,0.10027062408000001,-4.533496578135416,0.16382716321876312,-1.347581181241186, ,0.08868873042847737,0.07967837242524835,0.030282911634980987,0.009324673288050556,0.09484303650834901,-0.077301806606761, ,1.56935715675354
0.013451383367434256,0.021380622064135022,-0.09041510136994496, ,0.014151984435163823,0.020942523105512343,-0.09118963665353734, ,0.001132553512722296, ,0.01220975817992602,-0.0014650280239768805,-0.0264420062909264,-0.0038565536401854775,-0.022124306815430032,0.004344263226200582, ,0.02916169059935825, ,0.022457627475062625, ,0.0006482968324743869, ,0.16372965966643382,-0.2269633964405841,0.10048840080000002,-4.533286888191932,0.1645103457175903,-1.3482199494998084, ,0.09267279449069411,0.08360964013962183,0.02699798562711865,0.0,0.08307089974290366,-0.06769623045793167, ,1.5722761154174805
0.013451383367434256,0.021380622064135022,-0.09041510136994496, ,0.014191344026012638,0.02094187510523838,-0.09128708859033714, ,0.0012249091324306831, ,0.01220975817992602,-0.0014650280239768805,-0.0264420062909264,-0.0038565536401854775,-0.022124306815430032,0.004344263226200582, ,0.02916169059935825, ,0.022457627475062625, ,0.0006528731205692781, ,0.16372965966643382,-0.2269633964405841,0.10048840080000002,-4.533286888191932,0.1645103457175903,-1.3482199494998084, ,0.09267279449069411,0.08360964013962183,0.02699798562711865,0.0,0.08307089974290366,-0.06769623045793167, ,1.5751781463623047
0.013451383367434256,0.021380622064135022,-0.09041510136994496, ,0.014230771645157089,0.020941147949827543,-0.09138441140849289, ,0.001319145759735404, ,0.01220975817992602,-0.0014650280239768805,-0.0264420062909264,-0.0038565536401854775,-0.022124306815430032,0.004344263226200582, ,0.02916169059935825, ,0.022457627475062625, ,0.0006581193618225548, ,0.16372965966643382,-0.2269633964405841,0.10048840080000002,-4.533286888191932,0.1645103457175903,-1.3482199494998084, ,0.09267279449069411,0.08360964013962183,0.02699798562711865,0.0,0.08307089974290366,-0.06769623045793167, ,1.5780270099639893
0.013613870830846907,0.02135606575514353,-0.09075054340632907, ,0.014270266838399848,0.02094034237672962,-0.09148160418582965, ,0.0010668324654861763, ,0.012127305674242047,-0.0023552481553306952,-0.025427047255342963,-0.016154296465504068,-0.02729390172437204,0.0017661925296636322, ,0.028269302589825875, ,0.03171604857083035, ,0.0006613124329449268, ,0.16497301965918398,-0.22584360017382157,0.10083062136000001,-4.533286888191932,0.1654668012159484,-1.3489998748256835, ,0.09222248936683264,0.08969465175658865,0.025816550275526744,0.0,0.07642765219047697,-0.062267325338832856, ,1.580766201019287
0.013613870830846907,0.02135606575514353,-0.09075054340632907, ,0.014309829153046462,0.020939459121625995,-0.09157866600471035, ,0.0011591833812125633, ,0.012127305674242047,-0.0023552481553306952,-0.025427047255342963,-0.016154296465504068,-0.02729390172437204,0.0017661925296636322, ,0.028269302589825875, ,0.03171604857083035, ,0.0006651718976601799, ,0.16497301965918398,-0.22584360017382157,0.10083062136000001,-4.533286888191932,0.1654668012159484,-1.3489998748256835, ,0.09222248936683264,0.08969465175658865,0.025816550275526744,0.0,0.07642765219047697,-0.062267325338832856, ,1.5835239887237549
0.013613870830846907,0.02135606575514353,-0.09075054340632907, ,0.014349458137898959,0.020938498918432188,-0.09167559595203137, ,0.0012534643839086574, ,0.012127305674242047,-0.0023552481553306952,-0.025427047255342963,-0.016154296465504068,-0.02729390172437204,0.0017661925296636322, ,0.028269302589825875, ,0.03171604857083035, ,0.0006696972244774758, ,0.16497301965918398,-0.22584360017382157,0.10083062136000001,-4.533286888191932,0.1654668012159484,-1.3489998748256835, ,0.09222248936683264,0.08969465175658865,0.025816550275526744,0.0,0.07642765219047697,-0.062267325338832856, ,1.5862832069396973
0.013613870830846907,0.02135606575514353,-0.09075054340632907, ,0.01438915334327025,0.020937462499294793,-0.0917723931192099, ,0.0013492473811689424, ,0.012127305674242047,-0.0023552481553306952,-0.025427047255342963,-0.016154296465504068,-0.02729390172437204,0.0017661925296636322, ,0.028269302589825875, ,0.03171604857083035, ,0.0006748846302537465, ,0.16497301965918398,-0.22584360017382157,0.10083062136000001,-4.533286888191932,0.1654668012159484,-1.3489998748256835, ,0.09222248936683264,0.08969465175658865,0.025816550275526744,0.0,0.07642765219047697,-0.062267325338832856, ,1.5890681743621826
0.013739116966372877,0.02133048723912688,-0.09101758242701827, ,0.014428914320964908,0.020936350594598047,-0.09186905660218447, ,0.0011645481338002236, ,0.013284304353989968,-0.0021191238977266358,-0.029414849603925892,0.008233025629939012,-0.0067781019510697055,0.007606408358677868, ,0.03234496568996375, ,0.010663177588263874, ,0.0006785942022503107, ,0.16593063853558782,-0.22489370403029194,0.10110154597000001,-4.533286888191932,0.16642325671430647,-1.3497798001515582, ,0.10010225902792276,0.09703163758534844,0.029941375037593993,0.0,0.10982272807484354,-0.0894915919278561, ,1.591926097869873
0.013739116966372877,0.02133048723912688,-0.09101758242701827, ,0.014468740624284587,0.020935163932963078,-0.09196558550140443, ,0.0012598972289938441, ,0.013284304353989968,-0.0021191238977266358,-0.029414849603925892,0.008233025629939012,-0.0067781019510697055,0.007606408358677868, ,0.03234496568996375, ,0.010663177588263874, ,0.0006829649016995103, ,0.16593063853558782,-0.22489370403029194,0.10110154597000001,-4.533286888191932,0.16642325671430647,-1.3497798001515582, ,0.10010225902792276,0.09703163758534844,0.029941375037593993,0.0,0.10982272807484354,-0.0894915919278561, ,1.5948410034179688
0.013739116966372877,0.02133048723912688,-0.09101758242701827, ,0.014508631808027165,0.020933903241249226,-0.09206197892182476, ,0.0013565382402508717, ,0.013284304353989968,-0.0021191238977266358,-0.029414849603925892,0.008233025629939012,-0.0067781019510697055,0.007606408358677868, ,0.03234496568996375, ,0.010663177588263874, ,0.0006879915684051173, ,0.16593063853558782,-0.22489370403029194,0.10110154597000001,-4.533286888191932,0.16642325671430647,-1.3497798001515582, ,0.10010225902792276,0.09703163758534844,0.029941375037593993,0.0,0.10982272807484354,-0.0894915919278561, ,1.5979762077331543
0.013878877849667322,0.021317449083957437,-0.09134600476041163, ,0.014548587428482865,0.0209325692445562,-0.09215823597289909, ,0.0011208759758660435, ,0.01379029807327085,-0.0008282193416692744,-0.033684620925101244,0.039257851276096656,0.018298935292866306,0.014293538617658488, ,0.03640758101131331, ,0.04331266042134008, ,0.0006911981195714946, ,0.1669654847407339,-0.22392063968813966,0.10143728508000001,-4.5330771982484475,0.16778962171196088,-1.3508939791885224, ,0.09989151742996924,0.09367911308832258,0.034477947012987016,-6.470967004625674e-05,0.13908201021023203,-0.11334436739749433, ,1.6008131504058838
0.013878877849667322,0.021317449083957437,-0.09134600476041163, ,0.01458860704342949,0.020931162666226282,-0.09225435576857485, ,0.0012157443312773477, ,0.01379029807327085,-0.0008282193416692744,-0.033684620925101244,0.039257851276096656,0.018298935292866306,0.014293538617658488, ,0.03640758101131331, ,0.04331266042134008, ,0.0006950550770105082, ,0.1669654847407339,-0.22392063968813966,0.10143728508000001,-4.5330771982484475,0.16778962171196088,-1.3508939791885224, ,0.09989151742996924,0.09367911308832258,0.034477947012987016,-6.470967004625674e-05,0.13908201021023203,-0.11334436739749433, ,1.603675127029419
0.013878877849667322,0.021317449083957437,-0.09134600476041163, ,0.014628690212136617,0.02092968422784418,-0.092350337427285, ,0.0013119696140906998, ,0.01379029807327085,-0.0008282193416692744,-0.033684620925101244,0.039257851276096656,0.018298935292866306,0.014293538617658488, ,0.03640758101131331, ,0.04331266042134008, ,0.0006995581028286119, ,0.1669654847407339,-0.22392063968813966,0.10143728508000001,-4.5330771982484475,0.16778962171196088,-1.3508939791885224, ,0.09989151742996924,0.09367911308832258,0.034477947012987016,-6.470967004625674e-05,0.13908201021023203,-0.11334436739749433, ,1.6064491271972656
0.013878877849667322,0.021317449083957437,-0.09134600476041163, ,0.014668836495355627,0.02092813464924094,-0.09244618007194323, ,0.0014092501932162303, ,0.01379029807327085,-0.0008282193416692744,-0.033684620925101244,0.039257851276096656,0.018298935292866306,0.014293538617658488, ,0.03640758101131331, ,0.04331266042134008, ,0.0007047007991357686, ,0.1669654847407339,-0.22392063968813966,0.10143728508000001,-4.5330771982484475,0.16778962171196088,-1.3508939791885224, ,0.09989151742996924,0.09367911308832258,0.034477947012987016,-6.470967004625674e-05,0.13908201021023203,-0.11334436739749433, ,1.609147071838379
0.014017502897709781,0.02130920079103624,-0.09168156349548351, ,0.014709045455327238,0.02092651464849254,-0.09254188282993567, ,0.0011682590251837458, ,0.01532275610929053,-0.0010229529477968039,-0.036184755219816504,0.003301466164589726,-0.013588573801862545,-0.0029808089034122644, ,0.039308647875960376, ,0.013981665960526619, ,0.0007080357504023008, ,0.16795399454863463,-0.2229861890103585,0.10178080193000001,-4.5326578183614785,0.16901935020984984,-1.3518150615816498, ,0.10796011553864708,0.10095419314730934,0.037043747720930234,0.009645725593600529,0.10833279282212678,-0.08696484831711461, ,1.6119201183319092
0.014017502897709781,0.02130920079103624,-0.09168156349548351, ,0.014749316655772568,0.02092482494192342,-0.09263744483311552, ,0.001263726751123179, ,0.01532275610929053,-0.0010229529477968039,-0.036184755219816504,0.003301466164589726,-0.013588573801862545,-0.0029808089034122644, ,0.039308647875960376, ,0.013981665960526619, ,0.0007120049718360214, ,0.16795399454863463,-0.2229861890103585,0.10178080193000001,-4.5326578183614785,0.16901935020984984,-1.3518150615816498, ,0.10796011553864708,0.10095419314730934,0.037043747720930234,0.009645725593600529,0.10833279282212678,-0.08696484831711461, ,1.6147980690002441
0.014017502897709781,0.02130920079103624,-0.09168156349548351, ,0.014789649661885701,0.020923066244110302,-0.09273286521779976, ,0.0013603476853739133, ,0.01532275610929053,-0.0010229529477968039,-0.036184755219816504,0.003301466164589726,-0.013588573801862545,-0.0029808089034122644, ,0.039308647875960376, ,0.013981665960526619, ,0.0007166031471093397, ,0.16795399454863463,-0.2229861890103585,0.10178080193000001,-4.5326578183614785,0.16901935020984984,-1.3518150615816498, ,0.10796011553864708,0.10095419314730934,0.037043747720930234,0.009645725593600529,0.10833279282212678,-0.08696484831711461, ,1.617650032043457
0.014155610874650405,0.021302799595013286,-0.09201046379238978, ,0.014830044040352796,0.020921239267876385,-0.09282814312475457, ,0.0011265202478520733, ,0.01532275610929053,-0.0010229529477968039,-0.036184755219816504,0.003301466164589726,-0.013588573801862545,-0.0029808089034122644, ,0.039308647875960376, ,0.013981665960526619, ,0.0007194898872554153, ,0.16890389069216424,-0.2221057974626969,0.10211783733000002,-4.5326578183614785,0.1698391692084425,-1.3524018902636878, ,0.11008925934857398,0.10084690920135046,0.03894574943765281,0.009645725593600529,0.09185121484325802,-0.07358818247962368, ,1.6204991340637207
0.014155610874650405,0.021302799595013286,-0.09201046379238978, ,0.014870499359324564,0.020919344724301427,-0.09292327769919809, ,0.0012212012167759287, ,0.01605111750073725,-0.0006808589923763698,-0.03797260911127782,-0.01212534007487933,-0.029720065459108932,-0.006622128780739992, ,0.0412313107323533, ,0.032097152721299885, ,0.0007229983580912231, ,0.16890389069216424,-0.2221057974626969,0.10211783733000002,-4.5326578183614785,0.1698391692084425,-1.3524018902636878, ,0.11008925934857398,0.10084690920135046,0.03894574943765281,0.009645725593600529,0.09185121484325802,-0.07358818247962368, ,1.6239640712738037
0.014155610874650405,0.021302799595013286,-0.09201046379238978, ,0.014911015188428136,0.020917383322718676,-0.09301826809078906, ,0.0013171373823924136, ,0.01605111750073725,-0.0006808589923763698,-0.03797260911127782,-0.01212534007487933,-0.029720065459108932,-0.006622128780739992, ,0.0412313107323533, ,0.032097152721299885, ,0.0007271243235377592, ,0.16890389069216424,-0.2221057974626969,0.10211783733000002,-4.5326578183614785,0.1698391692084425,-1.3524018902636878, ,0.11008925934857398,0.10084690920135046,0.03894574943765281,0.009645725593600529,0.09185121484325802,-0.07358818247962368, ,1.6267549991607666
0.014155610874650405,0.021302799595013286,-0.09201046379238978, ,0.014951591098763503,0.020915355770717063,-0.09311311345362133, ,0.0014140486234845244, ,0.01605111750073725,-0.0006808589923763698,-0.03797260911127782,-0.01212534007487933,-0.029720065459108932,-0.006622128780739992, ,0.0412313107323533, ,0.032097152721299885, ,0.0007318617325029093, ,0.16890389069216424,-0.2221057974626969,0.10211783733000002,-4.5326578183614785,0.1698391692084425,-1.3524018902636878, ,0.11008925934857398,0.10084690920135046,0.03894574943765281,0.009645725593600529,0.09185121484325802,-0.07358818247962368, ,1.6295461654663086
0.01434264138894368,0.021297320903877186,-0.09245227498542462, ,0.014992226662901238,0.020913262774142714,-0.09320781294621693, ,0.001067847969214651, ,0.016308561789359622,-0.0007408324322778644,-0.03863312015936222,-0.027048395231283575,-0.03975451406175502,0.018815090586374917, ,0.04194086305237167, ,0.048082751724012725, ,0.0007341630080968253, ,0.17017041888353707,-0.22096283299731168,0.10257153883000002,-4.532448128417994,0.17079562470680054,-1.352936779369141, ,0.11008925934857398,0.10160272115467964,0.03962390925373134,-0.018129581527863942,0.08648626449864,-0.06462126040283728, ,1.6323280334472656
0.01434264138894368,0.021297320903877186,-0.09245227498542462, ,0.01503292145488066,0.02091110503710059,-0.09330236573151998, ,0.0011611647349867853, ,0.016308561789359622,-0.0007408324322778644,-0.03863312015936222,-0.027048395231283575,-0.03975451406175502,0.018815090586374917, ,0.04194086305237167, ,0.048082751724012725, ,0.000737067781749138, ,0.17017041888353707,-0.22096283299731168,0.10257153883000002,-4.532448128417994,0.17079562470680054,-1.352936779369141, ,0.11008925934857398,0.10160272115467964,0.03962390925373134,-0.018129581527863942,0.08648626449864,-0.06462126040283728, ,1.6351971626281738
0.01434264138894368,0.021297320903877186,-0.09245227498542462, ,0.015073675050201366,0.020908883261957837,-0.09339677097689277, ,0.0012559325990876575, ,0.016308561789359622,-0.0007408324322778644,-0.03863312015936222,-0.027048395231283575,-0.03975451406175502,0.018815090586374917, ,0.04194086305237167, ,0.048082751724012725, ,0.0007405736251095334, ,0.17017041888353707,-0.22096283299731168,0.10257153883000002,-4.532448128417994,0.17079562470680054,-1.352936779369141, ,0.11008925934857398,0.10160272115467964,0.03962390925373134,-0.018129581527863942,0.08648626449864,-0.06462126040283728, ,1.638132095336914
0.014519745148565516,0.021286499054015886,-0.0928627514951159, ,0.01511448702583203,0.020906598149342245,-0.09349102785410493, ,0.0009448670706564285, ,0.015860527325245635,-0.0011410277173092478,-0.03705752129505288,-0.007192588931462629,-0.012407587500709026,0.02546823605534755, ,0.040325155372544184, ,0.014339165891653087, ,0.0007419447220595126, ,0.17017041888353707,-0.22096283299731168,0.10257153883000002,-4.532448128417994,0.17079562470680054,-1.352936779369141, ,0.11008925934857398,0.10160272115467964,0.03962390925373134,-0.018129581527863942,0.08648626449864,-0.06462126040283728, ,1.6416411399841309
0.014519745148565516,0.021286499054015886,-0.0928627514951159, ,0.015155356960202001,0.020904250398145512,-0.09358513553932948, ,0.0010353526536117511, ,0.015860527325245635,-0.0011410277173092478,-0.03705752129505288,-0.007192588931462629,-0.012407587500709026,0.02546823605534755, ,0.040325155372544184, ,0.014339165891653087, ,0.0007439007749365275, ,0.17139061067766453,-0.21985075946342333,0.10299283308000001,-4.532448128417994,0.17188871670492406,-1.3536647651184313, ,0.11008925934857398,0.10160272115467964,0.03801625661097852,-0.018129581527863942,0.11713197860887589,-0.08035849809185656, ,1.6447300910949707
0.014519745148565516,0.021286499054015886,-0.0928627514951159, ,0.015196284433198483,0.02090184070552534,-0.09367909321313737, ,0.0011278657940098243, ,0.015860527325245635,-0.0011410277173092478,-0.03705752129505288,-0.007192588931462629,-0.012407587500709026,0.02546823605534755, ,0.040325155372544184, ,0.014339165891653087, ,0.0007464435896323771, ,0.17139061067766453,-0.21985075946342333,0.10299283308000001,-4.532448128417994,0.17188871670492406,-1.3536647651184313, ,0.11008925934857398,0.10160272115467964,0.03801625661097852,-0.018129581527863942,0.11713197860887589,-0.08035849809185656, ,1.6475460529327393
0.014519745148565516,0.021286499054015886,-0.0928627514951159, ,0.015237269026166077,0.020899369766906085,-0.09377290006048956, ,0.0012219165318943953, ,0.015860527325245635,-0.0011410277173092478,-0.03705752129505288,-0.007192588931462629,-0.012407587500709026,0.02546823605534755, ,0.040325155372544184, ,0.014339165891653087, ,0.0007495717010946272, ,0.17139061067766453,-0.21985075946342333,0.10299283308000001,-4.532448128417994,0.17188871670492406,-1.3536647651184313, ,0.11008925934857398,0.10160272115467964,0.03801625661097852,-0.018129581527863942,0.11713197860887589,-0.08035849809185656, ,1.6506471633911133
0.0146795598492498,0.021273973010953393,-0.0932285950160796, ,0.015278310321906755,0.020896838275980226,-0.0938665552707305, ,0.0009527465682669517, ,0.015412641257583556,-0.0013349410422149265,-0.034181475073241624,0.002610445264139947,-0.007915359490095628,0.027292233288150548, ,0.03751939253644434, ,0.008331907304981906, ,0.0007508996414029431, ,0.17252585241017554,-0.2188313587240257,0.10336875718,-4.532448128417994,0.1732550817025785,-1.354697265415255, ,0.11021712143840974,0.0963420726481937,0.03516293933774835,-0.018129581527863942,0.12243792594888459,-0.08428864060157448, ,1.6534152030944824
0.0146795598492498,0.021273973010953393,-0.0932285950160796, ,0.01531940790467407,0.020894246924710622,-0.09396005803758269, ,0.0010433770106868872, ,0.015412641257583556,-0.0013349410422149265,-0.034181475073241624,0.002610445264139947,-0.007915359490095628,0.027292233288150548, ,0.03751939253644434, ,0.008331907304981906, ,0.0007527988450995921, ,0.17252585241017554,-0.2188313587240257,0.10336875718,-4.532448128417994,0.1732550817025785,-1.354697265415255, ,0.11021712143840974,0.0963420726481937,0.03516293933774835,-0.018129581527863942,0.12243792594888459,-0.08428864060157448, ,1.6562821865081787
0.0146795598492498,0.021273973010953393,-0.0932285950160796, ,0.015360561360177492,0.02089159640333043,-0.09405340755913857, ,0.0011359096175006472, ,0.015412641257583556,-0.0013349410422149265,-0.034181475073241624,0.002610445264139947,-0.007915359490095628,0.027292233288150548, ,0.03751939253644434, ,0.008331907304981906, ,0.0007552705275021796, ,0.17252585241017554,-0.2188313587240257,0.10336875718,-4.532448128417994,0.1732550817025785,-1.354697265415255, ,0.11021712143840974,0.0963420726481937,0.03516293933774835,-0.018129581527863942,0.12243792594888459,-0.08428864060157448, ,1.6593220233917236
0.0146795598492498,0.021273973010953393,-0.0932285950160796, ,0.01540177027556676,0.020888887400348662,-0.09414660303785831, ,0.0012298851797732234, ,0.015412641257583556,-0.0013349410422149265,-0.034181475073241624,0.002610445264139947,-0.007915359490095628,0.027292233288150548, ,0.03751939253644434, ,0.008331907304981906, ,0.0007583129291193017, ,0.17252585241017554,-0.2188313587240257,0.10336875718,-4.532448128417994,0.1732550817025785,-1.354697265415255, ,0.11021712143840974,0.0963420726481937,0.03516293933774835,-0.018129581527863942,0.12243792594888459,-0.08428864060157448, ,1.6621181964874268
0.014864481085755136,0.021248954920174246,-0.09362265242421605, ,0.01544303423944796,0.020886120602546167,-0.09423964368055733, ,0.0009203535755882818, ,0.014669934161189946,-0.002368761641613964,-0.03033121067317505,-0.011975958112107199,-0.012655014222961343,-0.007586827105443871, ,0.03377573597879042, ,0.01742260848251837, ,0.0007593450351477666, ,0.17386188519741638,-0.21762661239564668,0.10377319966000001,-4.5326578183614785,0.1746214467002329,-1.355484729491657, ,0.10674571603877478,0.0974301248033581,0.031110960000000003,0.013813543736689296,0.10431795260312766,-0.0677797993047001, ,1.6649341583251953
0.014864481085755136,0.021248954920174246,-0.09362265242421605, ,0.01548435284186879,0.02088329669498125,-0.09433252869840439, ,0.001010876479266499, ,0.014669934161189946,-0.002368761641613964,-0.03033121067317505,-0.011975958112107199,-0.012655014222961343,-0.007586827105443871, ,0.03377573597879042, ,0.01742260848251837, ,0.0007609370063130749, ,0.17386188519741638,-0.21762661239564668,0.10377319966000001,-4.5326578183614785,0.1746214467002329,-1.355484729491657, ,0.10674571603877478,0.0974301248033581,0.031110960000000003,0.013813543736689296,0.10431795260312766,-0.0677797993047001, ,1.6677181720733643
0.014864481085755136,0.021248954920174246,-0.09362265242421605, ,0.015525725674318347,0.02088041636099052,-0.0944252573069147, ,0.0011032858529144009, ,0.014669934161189946,-0.002368761641613964,-0.03033121067317505,-0.011975958112107199,-0.012655014222961343,-0.007586827105443871, ,0.03377573597879042, ,0.01742260848251837, ,0.0007630901437130832, ,0.17386188519741638,-0.21762661239564668,0.10377319966000001,-4.5326578183614785,0.1746214467002329,-1.355484729491657, ,0.10674571603877478,0.0974301248033581,0.031110960000000003,0.013813543736689296,0.10431795260312766,-0.0677797993047001, ,1.6704230308532715
0.014864481085755136,0.021248954920174246,-0.09362265242421605, ,0.015567152329729493,0.02087748028218925,-0.09451782872594125, ,0.0011971135681066167, ,0.014669934161189946,-0.002368761641613964,-0.03033121067317505,-0.011975958112107199,-0.012655014222961343,-0.007586827105443871, ,0.03377573597879042, ,0.01742260848251837, ,0.0007658027901155429, ,0.17386188519741638,-0.21762661239564668,0.10377319966000001,-4.5326578183614785,0.1746214467002329,-1.355484729491657, ,0.10674571603877478,0.0974301248033581,0.031110960000000003,0.013813543736689296,0.10431795260312766,-0.0677797993047001, ,1.673201084136963
0.01501826653789538,0.021224890686823917,-0.09393973807617453, ,0.015608632402472561,0.020874489138474114,-0.09461024217967087, ,0.0009596295389103711, ,0.01444263663296643,-0.002271523065430562,-0.02973178466976574,-0.03354492250522997,-0.02295822003797149,-0.008572485024538857, ,0.03313198740791147, ,0.04064872027770511, ,0.0007670066829652001, ,0.1749662359984305,-0.2166226571219975,0.10409856845000001,-4.5326578183614785,0.17557790219859098,-1.3561012973372508, ,0.10314884952007694,0.09414379122864167,0.030514964597701155,0.011837053846621587,0.08716235159083938,-0.0454569818134649, ,1.6759400367736816
0.01501826653789538,0.021224890686823917,-0.09393973807617453, ,0.015650165488357508,0.020871443608023336,-0.09470249689661583, ,0.0010516758717726705, ,0.01444263663296643,-0.002271523065430562,-0.02973178466976574,-0.03354492250522997,-0.02295822003797149,-0.008572485024538857, ,0.03313198740791147, ,0.04064872027770511, ,0.000768763900180061, ,0.1749662359984305,-0.2166226571219975,0.10409856845000001,-4.5326578183614785,0.17557790219859098,-1.3561012973372508, ,0.10314884952007694,0.09414379122864167,0.030514964597701155,0.011837053846621587,0.08716235159083938,-0.0454569818134649, ,1.6786670684814453
