NicholasDascanio/dvrk_moveit_final/test/execution/third_experiment_notsharpbends/old_data/thirdexp_700vel4.0.csv
Current Position (x),Current Position (y),Current Position (z), ,Planned Position (x),Planned Position (y),Planned Position (z), ,Position Error,,Cartesian linear Velocity(x),Cartesian linear Velocity(y),Cartesian linear Velocity(z),Cartesian Angular Velocity(x),Cartesian Angular Velocity(y),Cartesian Angular Velocity(z), ,Total Linear Velocity, ,Total Angular Velocity, ,MSE, ,Joint 1 Position,Joint 2 Position,Joint 3 Position,Joint 4 Position,Joint 5 Position,Joint 6 Position, ,Joint 1 Velocity,Joint 2 Velocity,Joint 3 Velocity,Joint 4 Velocity,Joint 5 Velocity,Joint 6 Velocity, ,Time Stamp
0.00907684926078502,0.020302267392228925,-0.08049266612533283, ,0.009294133888956651,0.02023361555411335,-0.08066685677299235, ,0.00028682410332531703, ,-3.606251129802286e-05,-3.3653407849785036e-05,0.00014216426338326945,0.06567360149416243,-0.008570349858642965,-0.003611680410945553, ,0.0001504783518129156, ,0.06623045243627432, ,2.3902008610443087e-05, ,0.1281510293148815,-0.24288767162723504,0.09009215500000001,-4.537690377005107,0.14387823425300877,-1.3846503846132954, ,-0.00021727392222626669,-2.7393828300810963e-05,-0.00014915010222260516,0.0,0.0,-0.06633058075931059, ,0.0189669132232666
0.009087494918909901,0.020302144966817797,-0.08049415544910048, ,0.00933019641175086,0.020242896582764344,-0.0807087148140169, ,0.00032931763802370617, ,0.0020895725072408943,-0.0002026893381076969,-0.0003746284052695251,0.07859337371194536,-0.22827196109636275,-0.0632244591113076, ,0.002132543709478031, ,0.2414228792268969, ,2.800644278859196e-05, ,0.12815875204775573,-0.2428953943601093,0.09009345129000002,-4.537480687061622,0.14278514225488526,-1.387107869729487, ,0.0006100253328468256,1.3388278243293595e-05,0.0002820270234682793,0.0,-0.22267762720394327,-0.11144843185121323, ,0.03546500205993652
0.009148239439358673,0.020299649862865227,-0.08051885027392132, ,0.009366248023967265,0.020252091905212002,-0.08075057131718885, ,0.0003216895152039942, ,0.0023904352446514764,0.00013922221625297981,-0.0015222098220625654,0.283791973004889,-0.23023615952840049,-0.06399950012808761, ,0.0028373731208204012, ,0.36544024558932553, ,2.9307226767281794e-05, ,0.12823597937649797,-0.24288767162723504,0.09011678451,-4.537900066948591,0.1370464092647368,-1.3936183051734945, ,0.005978502559355605,1.8118325674933583e-05,0.0015516104245789863,0.0,-0.1905550870010413,-0.31404454851436037, ,0.05260181427001953
0.009192913750443068,0.020311489416150755,-0.0805827862959852, ,0.00940228866438839,0.020261201854931226,-0.08079242647963113, ,0.0003005257060587625, ,0.0018466489417340625,0.000874305871410457,-0.0038356749071578006,0.3521513360096106,-0.12936162710422078,-0.05164035994820398, ,0.004345909003210989, ,0.37515995791072226, ,2.948468958599476e-05, ,0.12835182036961135,-0.24287994889436082,0.09018289530000001,-4.537690377005107,0.13404040626989708,-1.3983548404245427, ,0.0077911380576725295,0.0001770291887998738,0.004026494317492417,0.015395099186674012,-0.07942586651390691,-0.3654161692486937, ,0.07107996940612793
0.009213463282922945,0.020321008311585544,-0.08062603080411869, ,0.009438318272016334,0.020270226764886167,-0.0808342804976989, ,0.00031065489933626073, ,0.0022987240170569017,0.0008354656712162841,-0.003937310638612439,0.20533096944562143,-0.14527853902422821,-0.02288605744320176, ,0.004635142938389903, ,0.25152864829586846, ,2.9788689652846936e-05, ,0.12844449316410206,-0.2428722261614866,0.09022826545000001,-4.537480687061622,0.13322058727130442,-1.4007901251277053, ,0.010358391563278469,0.00015209319995913699,0.0041373536415584425,-0.014721813010740534,-0.10561328321972348,-0.2246256186013718, ,0.08885383605957031
0.009255577473635195,0.02033729518467995,-0.08070619541128335, ,0.009474336786072443,0.020279166967530845,-0.08087613356698076, ,0.00028304328850687786, ,0.001544310038008464,0.0004912239505726935,-0.002449500392162132,-0.1450663212541136,-0.02644869048503658,-0.014529601987797205, ,0.0029370472645690237, ,0.14745769152705046, ,2.954927662024062e-05, ,0.12866845241745456,-0.24284905796286393,0.0903125243,-4.537690377005107,0.1317175857738846,-1.4019332116511212, ,0.010670811689545277,0.001230739814644616,0.0026091419361179364,0.010647044869176687,-0.03920184465368896,0.1410367711266457, ,0.10535192489624023
0.009280925833751409,0.02034558585499051,-0.08073974475436352, ,0.009510344145997576,0.02028802279480698,-0.08091798588229873, ,0.0002961691536591705, ,0.0011938222854572145,0.0003362718258821371,-0.001277016657323765,-0.1580835337129049,0.05370846303372643,0.010399357231772167, ,0.0017801859265870956, ,0.16695808645465754, ,2.955867089047346e-05, ,0.1289696389995493,-0.2428336124971155,0.09035011671000001,-4.537690377005107,0.1321274952731809,-1.3983468858354633, ,0.017864635082543445,0.0011662758981162865,0.0014970110249631055,0.009429050484291055,0.04885903057003126,0.16672781265846012, ,0.12206387519836426
0.00929172081353841,0.020349613763984354,-0.08075301994548452, ,0.009546340291451556,0.020296794578146465,-0.08095983763771014, ,0.00033225668201388006, ,0.0009835405376199147,0.0005333763582355372,-0.0016854083497248621,-0.026882321560554527,0.07122425039653364,0.017804068149146726, ,0.002022978901024071, ,0.07612852984932507, ,3.000586568448743e-05, ,0.12913953912278225,-0.24282588976424127,0.09036567219000001,-4.537480687061622,0.1326740412722427,-1.3974040188678594, ,0.01881382663728604,0.0006362779573073451,0.001956403813499585,0.006417427964937961,0.08693403359087964,0.039809255277317185, ,0.13989686965942383
0.009320392911357209,0.020358715246770624,-0.08079104433705848, ,0.009582325162313002,0.020305482648471155,-0.08100168902650741, ,0.0003403136770767749, ,0.001671660352465645,0.0005165943532418145,-0.0022536582071984107,0.046348420947118246,-0.005698312652068995,-0.013427916093229015, ,0.0028531199369601773, ,0.046697397050733606, ,3.0443420252225482e-05, ,0.1295025075678708,-0.24279499883274436,0.09040844976000001,-4.537061307174653,0.13335722377106987,-1.397471035945498, ,0.01846962661706321,0.001503334900005724,0.002500205857793125,0.01594641678448262,0.015614062811270974,-0.04406672223133378, ,0.15703892707824707
0.009360510449402493,0.020370859543864892,-0.08084118426936213, ,0.00961829869867937,0.02031408733619197,-0.0810435402412191, ,0.0003326045766003135, ,0.0021565740410269324,0.0006101504727467633,-0.0026455066916415354,0.023483372760428407,-0.014764817416290892,-0.0130807696207518, ,0.003467246868820343, ,0.027739297565224245, ,3.0719600390245666e-05, ,0.1299118124102047,-0.24277955336699591,0.09046419023,-4.537061307174653,0.13335722377106987,-1.3979611083863417, ,0.02290536846692512,0.0015370070678168576,0.002947051160037003,0.014540022220476196,0.008024335314251221,-0.022264134053909777, ,0.17368292808532715
0.009406699896446687,0.020385489381612384,-0.08090342905253699, ,0.009654260840866253,0.020322608971211787,-0.08108539147361193, ,0.0003136091355453649, ,0.002158052587399717,0.0007168401157578855,-0.0028570822301022003,-0.00323596166942166,-0.013806322972408615,-0.009429976711223401, ,0.0036515708388456815, ,0.014180479602398764, ,3.0776860494200205e-05, ,0.13037517638265816,-0.24275638516837325,0.09053289360000001,-4.537061307174653,0.13335722377106987,-1.3981244658666228, ,0.022265823922682025,0.0008111672732450518,0.003174967414789716,0.011321467229081507,0.0053400212162946275,0.004667134584654108, ,0.19243478775024414
0.009429878723930269,0.02039139798734097,-0.08093018092981426, ,0.009690211529407845,0.020331047882922167,-0.08112724291469, ,0.0003320372427821246, ,0.0022711695097993407,0.0005751292529226974,-0.0025343802667581647,-0.0028423545619603867,-0.016786726428776023,-0.008699964804626148, ,0.0034513863788835325, ,0.01702566191212271, ,3.097578375518482e-05, ,0.13061458110175914,-0.24274093970262478,0.09056270827000001,-4.537061307174653,0.13335722377106987,-1.3981244658666228, ,0.024061090658841475,0.0015395438714692778,0.002841893223907226,0.010199497128389967,0.004578192217749279,0.0032895095723887617, ,0.2089548110961914
0.009469403485601305,0.020402802916889232,-0.08097350459526066, ,0.009726150705055928,0.020339404400208136,-0.0811690947546965, ,0.0003289285896409414, ,0.0021550872749510363,0.0005498045598688137,-0.0021585193570539747,-0.002355207399316223,-0.01774677105864025,-0.011791121071578653, ,0.0030993373536104657, ,0.017902370928308, ,3.112101672555673e-05, ,0.13105477687558992,-0.24272549423687634,0.09061196729000001,-4.536641927287684,0.13363049677060077,-1.3983473016740156, ,0.02289984110966959,0.0007100667251258273,0.002458149925925926,0.012759395561478103,0.0016778272364861711,0.0035449271424555155, ,0.22587299346923828
0.00950490639029133,0.020409818464125953,-0.0810012095448977, ,0.009762078308780509,0.02034767885144409,-0.08121094718311471, ,0.0003376219838939783, ,0.0021642734700593265,0.000370204295360446,-0.0015424782598431471,-0.0039505971289198055,-0.023449316087643748,0.005338735138021513, ,0.0026833505279025152, ,0.023779773813990025, ,3.130701543427794e-05, ,0.13144091351930115,-0.2427100487711279,0.09064437454,-4.536222547400715,0.13363049677060077,-1.3983473016740156, ,0.024006309526554716,0.0007810690616059828,0.001822488479537073,-0.005138297419621765,0.001480285270814179,0.002762142687069353, ,0.24604487419128418
0.00953585557988925,0.02041557537866134,-0.08102825607070685, ,0.0097979942817689,0.0203558715644976,-0.08125280038866796, ,0.0003502875892427053, ,0.0021445999583389387,0.0004397334138328527,-0.00210650952237825,-0.0026864493514949066,-0.023631329913797187,0.004827084306852048, ,0.003038100858170893, ,0.023783539761175067, ,3.176081974112697e-05, ,0.13178843649864125,-0.2426868805725052,0.09067548550000001,-4.536222547400715,0.1337671332703662,-1.3983770408375715, ,0.022708050145602003,0.0015512442551920114,0.0023799210398924254,-0.005138297419621765,0.0002496385197793205,0.0005342957785960504, ,0.2615349292755127
0.009579430163413706,0.020426158005812767,-0.08107799485820463, ,0.009833898565425912,0.020363982866727394,-0.08129465455932162, ,0.0003399431447036918, ,0.002168206237158936,0.0006635635206749472,-0.0027164703655696153,0.009387845121412294,-0.012556808057119472,0.008053269555124712, ,0.003538452497892739, ,0.01567817159170819, ,3.2098918285086646e-05, ,0.13226724593684316,-0.2426482669081341,0.09073122597000001,-4.536222547400715,0.13404040626989708,-1.3985181979048238, ,0.023477719336583564,0.0009606748500135293,0.0030404297614048488,-0.005138297419621765,0.014017860728592606,-0.009092933429682457, ,0.277695894241333
0.00962528471256424,0.020438435157359394,-0.08113524525886953, ,0.00986979110137358,0.020372013084985055,-0.08133650988228305, ,0.00032357798828856277, ,0.0023444871203762915,0.0005862925996414069,-0.002872881875496102,0.0002266057904252933,-0.01939404234631404,0.006367604535591233, ,0.0037541722310728627, ,0.01939536616099777, ,3.230417108818004e-05, ,0.1327460553750451,-0.24260965324376296,0.09079474418000001,-4.536222547400715,0.13417704276966252,-1.398466258328239, ,0.02456560744459508,0.0022250542252441456,0.003185762304000001,-0.005138297419621765,0.007005173535169765,-0.0021162602215856175, ,0.2928628921508789
0.009647048797199213,0.020444252665019372,-0.08116467813207182, ,0.009905671831450993,0.02037996254561405,-0.08137836654400277, ,0.0003415872226713405, ,0.002194403328842567,0.0006019402008498473,-0.0029137088545060346,0.0046225538930021026,-0.013202825971532217,-0.007901644151254623, ,0.0036969497242810003, ,0.01398866033322237, ,3.258984346389757e-05, ,0.13297773736127183,-0.2425864850451403,0.09082715143,-4.5364322373442,0.13431367926942794,-1.398495997491795, ,0.02274615090087986,0.0023442222636947205,0.003213397522695179,0.009879097745009764,0.008152578642611943,-0.004562067968173447, ,0.30770182609558105
0.00969057608010171,0.020454672198660852,-0.08121710955956687, ,0.009941540697713809,0.0203878315744519,-0.08142022473017528, ,0.0003297069621180473, ,0.0021604196939282836,0.00038338196697608484,-0.002349917202029915,0.0009163985989324506,-0.010785220258661327,-0.007194912698930519, ,0.0032150436766724857, ,0.010824082517622747, ,3.278448715877976e-05, ,0.13344882406659953,-0.24253242591502072,0.09088548448000001,-4.536012857457231,0.13458695226895884,-1.398637154559047, ,0.023530111965899023,0.00330736093058091,0.0026172874663161357,0.009919689896123223,0.011036780860155335,-0.0013548118127106757, ,0.3248260021209717
0.00971207542713236,0.02045910670827866,-0.08123883594900322, ,0.009977397642434339,0.020395620496829213,-0.08146208462574012, ,0.00035251432402347814, ,0.002110451883214835,0.0004692193602452777,-0.002232191885873594,0.005375823808110353,-0.00918599097448565,-0.008641198196585544, ,0.0031075480003941924, ,0.010643397565803838, ,3.307761950364945e-05, ,0.1336882287857005,-0.24250925771639806,0.09091011399000001,-4.5358031675137465,0.13472358876872428,-1.398666893722603, ,0.023236273643112336,0.002020258870444388,0.0025207804272827984,0.011828050285085677,0.012321513185186123,-0.004132913825962034, ,0.33932995796203613
0.009748946306806526,0.020467161974990416,-0.08128456086083065, ,0.01001324260810133,0.020403329637569353,-0.08150394641488196, ,0.00034936674642150673, ,0.002082455872438188,0.0005499771725289144,-0.0028605405019034623,0.005226040503968815,-0.008000975736740155,-0.008814388907954832, ,0.0035807526183730294, ,0.009556521956103887, ,3.332965936164293e-05, ,0.13408981089516017,-0.24245519858627848,0.0909606693,-4.5358031675137465,0.13499686176825518,-1.3985630145694337, ,0.021830444342873425,0.0028541483398870364,0.0031430172691397002,0.011828050285085677,0.012190610241712795,-0.004831754806214749, ,0.3556239604949951
0.00977835169441627,0.020476005964685514,-0.08132709071309076, ,0.010049075537419542,0.02041095932099097,-0.08154581028103264, ,0.0003540631503377159, ,0.002266988749045158,0.0006976963282650877,-0.003438947237200491,-0.021959594499569968,-0.00709666258974655,-0.008183846331788047, ,0.0041776041285670916, ,0.023077833737534185, ,3.3582445418105216e-05, ,0.13439099747725491,-0.2424243076547816,0.09100733574000001,-4.5358031675137465,0.1351334982680206,-1.3983477175125678, ,0.02289431641941394,0.0028164914005412755,0.003755909342136289,0.011828050285085677,0.010355248858472811,0.022410362354185816, ,0.370175838470459
0.009823075247435616,0.020488566321356542,-0.08139208714747828, ,0.010084896373309794,0.02041850987090601,-0.08158767640687085, ,0.00033423549571146, ,0.0022252629768750466,0.000611479338006501,-0.002895789201432595,-0.03858574784572994,0.004452354865907166,-0.0045446695389155505, ,0.0037028769080531543, ,0.03884177390983313, ,3.3725913969443835e-05, ,0.13486980691545683,-0.2423625257917878,0.09107863169000001,-4.5358031675137465,0.1355434077673169,-1.398110220042673, ,0.024432786189101642,0.002461208449544473,0.003219893171619163,0.011828050285085677,0.021374929380102988,0.041151631364543376, ,0.38549089431762695
0.00984657142641193,0.0204933584607481,-0.08141883806724474, ,0.010120705058908523,0.020425981610621684,-0.08162954497432375, ,0.00035225883819931707, ,0.002233848301970243,0.0004160235895251805,-0.0024581396823804514,-0.01607604245001735,-0.0031252656615792275,-0.005689784625386539, ,0.0033474773429181294, ,0.016377009074322955, ,3.3935938161143504e-05, ,0.13512465710030624,-0.24233163486029088,0.09110844636000001,-4.5358031675137465,0.13568004426708236,-1.3980582804660884, ,0.024829131752608785,0.00339112988667428,0.00274824215320911,0.01085239300150995,0.017584505957329112,0.016807363632257134, ,0.4014148712158203
0.009890273596642404,0.020499921671515195,-0.08146121547358759, ,0.010156501537567725,0.020433374862939745,-0.08167141616456729, ,0.0003456734365687596, ,0.002150655235116148,0.0003133198424560734,-0.002077719294880767,0.02119701038877166,-0.009715702747358713,-0.004074598054717225, ,0.003006726580906389, ,0.02331754981249118, ,3.410295058072221e-05, ,0.13562663473713085,-0.24226213026442286,0.09115640909000002,-4.535593477570262,0.1360899537663787,-1.3979024617363343, ,0.024313846158972786,0.0033985861846859144,0.0023469591159569767,0.007290350271449577,0.016515251440993927,-0.02147555820328805, ,0.41703081130981445
0.009936233698489848,0.020509442997811392,-0.08151078559528684, ,0.010192285752854677,0.020440689950157753,-0.08171329015802734, ,0.0003336131502756349, ,0.0023525365620768366,0.0004871872008258271,-0.002716635532052684,0.02108539032808052,-0.009026230627000063,-0.0032356063292075213, ,0.0036265532201482957, ,0.022936140138901776, ,3.420969696091875e-05, ,0.13612861237395543,-0.2422080711343033,0.09121214956000001,-4.5353837876267775,0.13636322676590956,-1.397961940063446, ,0.025921043856452004,0.0033113806968357983,0.003031749432813095,0.007093908206431274,0.0188970674161217,-0.02095400908239513, ,0.4342358112335205
0.009960547857485045,0.02051500204038578,-0.08153872087988917, ,0.01022805764855182,0.02044792719406789,-0.08175516713438061, ,0.00035058451820998884, ,0.002304378035142456,0.0006055466992214993,-0.002881131756436269,0.00869778409857257,-0.010240187631332297,-0.0031845644419669977, ,0.0037386849468403456, ,0.013435508578083214, ,3.437455119088678e-05, ,0.13637573982593063,-0.24218490293568062,0.09124326052000001,-4.5353837876267775,0.13636322676590956,-1.3978802613233055, ,0.024578332441976374,0.002311312982888703,0.0032088661402095093,0.0065432109878014915,0.014526248023151174,-0.00813909700387579, ,0.45066094398498535
0.01001000884786834,0.02052642957143624,-0.0815994653521374, ,0.010263817168656427,0.02045508691595923,-0.08179704727255502, ,0.00032946479852587326, ,0.002504466865552936,0.0005564009551126242,-0.002940804562204441,0.011660755947732316,-0.01710051905103094,-0.003699788412320733, ,0.0039025975678495524, ,0.020697849667714114, ,3.444952819763265e-05, ,0.1369008856613779,-0.24212312107268683,0.0913106676,-4.5353837876267775,0.13663649976544046,-1.3981030971306982, ,0.026374914274171976,0.003015097094858124,0.0032741647523124363,0.005611290575201714,0.010098547091222421,-0.01259599692191166, ,0.46591782569885254
0.010034801399383097,0.02053238885831699,-0.08162975984405857, ,0.010299564257380343,0.020462169436616925,-0.08183893075073138, ,0.00034464852583043017, ,0.0024116409307835106,0.0005752129531555575,-0.0029687167920393765,0.009920551553699468,-0.017633314402748488,0.0016221141794497025, ,0.0038678367741988365, ,0.02023242743037015, ,3.469971769128979e-05, ,0.1371634585791015,-0.24209223014118994,0.09134437114,-4.535174097683293,0.13677313626520587,-1.3981328362942542, ,0.02513826266449557,0.002753271299337204,0.003294480148914168,0.0,0.00948798514562006,-0.011413487443740863, ,0.4789597988128662
0.010058672436627713,0.020537973958697296,-0.08165756433478694, ,0.010335298859150034,0.02046917507632232,-0.08188081774634301, ,0.00036207395601585223, ,0.0025793746537853784,0.0005991208412113415,-0.002944210595152291,0.001011147252349381,-0.017169951085726193,-0.012764017153994783, ,0.003959860529813043, ,0.017199698800587575, ,3.499716915074589e-05, ,0.13741830876395092,-0.24206133920969303,0.0913754821,-4.534754717796323,0.13690977276497132,-1.3982442541979507, ,0.026822199422970826,0.0026250135387664996,0.0032937989081885865,0.014622120568521059,0.006539461917578838,-0.0007410395770690286, ,0.4932727813720703
0.010107281718340034,0.020550286215046277,-0.08171545525748931, ,0.010371020918606203,0.02047610415485366,-0.08192270843607803, ,0.0003435334391970982, ,0.002390156554085767,0.0006092193466590351,-0.0029882258548600917,0.0014000574798158968,-0.015581049769618858,0.011397787513099106, ,0.0038747245482791595, ,0.015643825383577368, ,3.521482697948264e-05, ,0.13793573186652397,-0.24201500281244767,0.09144029660000001,-4.534545027852839,0.13718304576450221,-1.3983854112652028, ,0.02515825598050657,0.00234088929806643,0.003324042470784642,-0.00890568809858837,0.012705734528549804,-0.0031253174235459863, ,0.5065178871154785
0.010133080296905671,0.02055661151403211,-0.08174820330800797, ,0.01040673038060354,0.02048295699148643,-0.08196460299587868, ,0.00035656441481143837, ,0.002578695297010302,0.0006898631113341248,-0.0034179182817064804,0.0005263782859157456,-0.01666106962288164,0.011482786714442122, ,0.004336789818244139, ,0.01666938255041078, ,3.5464312976067905e-05, ,0.13820602751712183,-0.2419841118809508,0.09147659272000001,-4.534545027852839,0.13731968226426766,-1.3984151504287587, ,0.026731532833372047,0.0026950375886455958,0.0037808714740090203,-0.00890568809858837,0.013137032402216866,-0.0025378770775757098, ,0.5206058025360107
0.010182887927914304,0.020568710270388788,-0.08181000452319255, ,0.010442427190210445,0.020489733904994527,-0.08200650160094378, ,0.0003349761133706168, ,0.002403206745607056,0.0005931028832189178,-0.0028345469529869618,0.002631675176979784,-0.005996768508365474,-0.013112330416210231, ,0.003763220711159727, ,0.006548812609707906, ,3.5630746773347366e-05, ,0.1387311733525691,-0.2419300527508312,0.09154529609,-4.534754717796323,0.13759295526379853,-1.39839295001573, ,0.025836357625502526,0.0025491541281918804,0.003179403497005989,0.017652171205882992,0.01640113829995987,-0.00045553500234237106, ,0.5352969169616699
0.010209481325539914,0.020574097449100163,-0.08183883315166167, ,0.01047811129270914,0.02049643521364835,-0.08204840442572778, ,0.0003494475654377985, ,0.002670581586248548,0.0005564146100706759,-0.002764781840369497,-0.003542687081939169,-0.015129440654718568,-0.012639874167827421, ,0.003884021350603889, ,0.015538680964729299, ,3.5834549277306286e-05, ,0.1390169144689154,-0.24189916181933432,0.09157770334000001,-4.534754717796323,0.13772959176356397,-1.398341010439145, ,0.02839525480504811,0.0027054365128492495,0.0031282033621366856,0.015448043105015805,0.009389753681064294,0.0043220969461465275, ,0.5485079288482666
0.010237334498333448,0.020580119726702407,-0.08186733799967601, ,0.01051378263359504,0.02050306123521789,-0.08209031164394354, ,0.00036342651064200565, ,0.0027274827557746462,0.0005059313387630152,-0.0024909844280875362,-0.0035574842261612803,-0.014834341128881906,-0.010176561368887255, ,0.0037282880955694917, ,0.0152549457767478, ,3.607143235268763e-05, ,0.13931810105101017,-0.24187599362071163,0.09161011059000002,-4.534754717796323,0.1378662282633294,-1.3983707496027011, ,0.029757585938686354,0.0025486234945142267,0.0028623201293800538,0.013504445134389259,0.01157944012592526,0.0045477611438579126, ,0.5616838932037354
0.010262419370395943,0.020585303630240942,-0.08189354172133712, ,0.010549441158577087,0.020509612286969712,-0.08213222342856091, ,0.0003808932182386178, ,0.0025233434738963756,0.0004936496962535622,-0.0027364718838591897,0.005784751518052936,-0.007142643136813253,0.004282574589825888, ,0.003754894230337058, ,0.00919133836565902, ,3.634950994129341e-05, ,0.13988958328370277,-0.2418064890248436,0.09167233251000001,-4.534335337909355,0.13827613776262573,-1.3984599670933684, ,0.028747937460912077,0.0034067181875340755,0.0036317399726402194,0.007885159686642539,0.02133549455199649,-0.010139333973241401, ,0.5744638442993164
0.010319375950417823,0.020597621684233933,-0.08195852742967574, ,0.010585086813576776,0.020516088685671386,-0.08217413995181022, ,0.0003517650527787931, ,0.0028381569158897123,0.0006582516918771697,-0.0033932041723457812,0.0016120152225040881,-0.009033104974377443,-0.010934626217712112, ,0.004472389129346482, ,0.00917581484697004, ,3.652883045084766e-05, ,0.14019076986579754,-0.24177559809334673,0.09171251750000001,-4.534125647965871,0.13827613776262573,-1.3982966096130875, ,0.03020271851001616,0.003524389077393676,0.0037907690433127083,0.015749628319450135,0.018260802995841048,-0.00036379537141790954, ,0.5914828777313232
0.010345777782805734,0.020603620146562415,-0.08198988569223506, ,0.010620719544728706,0.02052249074758788,-0.08221606138518048, ,0.0003651443494107737, ,0.0026937759213453076,0.0005843335971846885,-0.003072188902475825,-0.0063629899045578005,-0.015211248598568039,-0.013171619383649009, ,0.004127495502082852, ,0.016488472463489903, ,3.6738352593962585e-05, ,0.14046878824926962,-0.24174470716184981,0.09174751733000001,-4.534125647965871,0.13841277426239118,-1.3983263487766435, ,0.027935514147327284,0.0032392038382740174,0.003435895496117343,0.015749628319450135,0.008425815424426992,0.0065651797310807124, ,0.6058340072631836
0.010383348375722207,0.020611127654814425,-0.08203528369597249, ,0.010656339298379886,0.020528818788484546,-0.08225798789942196, ,0.0003617954609500557, ,0.0025482884715408143,0.0005620645568295839,-0.002947704179765874,0.008399666432015757,-0.005548150923330898,-0.009204167159644694, ,0.003936832563323091, ,0.010066596972892276, ,3.692905102148605e-05, ,0.1408703703587293,-0.24168292529885604,0.09179677635000001,-4.534125647965871,0.1388226837616875,-1.398578923747592, ,0.027514335041597792,0.003295773276368264,0.003308164386292835,0.014459957535547411,0.020548651020838745,-0.006797823082665285, ,0.6187269687652588
0.010418574165453253,0.02061660240899131,-0.08206983770650872, ,0.010691946021089645,0.020535073123626447,-0.08229991966454664, ,0.00036649270557645826, ,0.002592903189463534,0.00044032867091196105,-0.002748198493343653,0.009660697626788181,-0.008411040739208533,-0.008055765882218296, ,0.00380389685022788, ,0.012809164094354265, ,3.7124271618751354e-05, ,0.1411638342079498,-0.24165203436735913,0.09182788731000001,-4.534125647965871,0.1388226837616875,-1.3984155662673108, ,0.028687104461448235,0.003596565723353037,0.0030602903976945247,0.012938910623403913,0.020548651020838745,-0.011211220555563213, ,0.633469820022583
0.010472316124223016,0.02062402263936315,-0.08212394359156154, ,0.010727539659629502,0.020541254067778472,-0.08234185684982895, ,0.0003456528281328992, ,0.002606052151614105,0.00034562979067183597,-0.002386008309196428,-0.0006496206492533896,-0.014328730496827993,-0.007386727095788607, ,0.003550211743077694, ,0.014343448837756312, ,3.725507445526449e-05, ,0.14184343470088157,-0.24154391610711998,0.09189788697000001,-4.534125647965871,0.1392325932609838,-1.3985047837579785, ,0.028361309491473634,0.004001171911075321,0.0027140588720395305,0.01034429177011813,0.01211970557114867,-0.00016901325403331086, ,0.6469838619232178
0.01050749275400149,0.020629423330305527,-0.08216086546762588, ,0.010763120160982796,0.02054736193520659,-0.08238379962380625, ,0.00034896859709352497, ,0.0023333932554654947,0.0003507838649879102,-0.002756579005644281,0.010191407083250443,-0.0019311623551948743,0.004498126047686429, ,0.0036285673783115185, ,0.010372760780982197, ,3.738909551171557e-05, ,0.1422295713445928,-0.2414821342441262,0.09193936825000001,-4.533915958022385,0.1395058662605147,-1.3986459408252307, ,0.026006287080973085,0.005006343804741546,0.003055593999616344,0.0012633859172350784,0.026506107965648954,-0.011314812671548291, ,0.6609299182891846
0.010530014236581182,0.020633468954339554,-0.08218643209350326, ,0.010798687472344658,0.020553397039676975,-0.08242574815428028, ,0.0003686041183697948, ,0.0023467208904739546,0.0004824357930136287,-0.002965001018665224,0.01723909454418587,2.403408613520881e-05,-0.006578242301173269, ,0.003811964621143981, ,0.017239111291233174, ,3.766527238455223e-05, ,0.14246897606369374,-0.24144352057975507,0.09196788663000001,-4.533706268078901,0.13964250276028015,-1.3985940012486462, ,0.025717328335628935,0.00425013055006938,0.00328971737298637,0.012606404914176732,0.026110874904793874,-0.016151596387965803, ,0.6731538772583008
0.010559897503098159,0.020639661888154952,-0.08222262992502939, ,0.010834241541121746,0.020559359694456665,-0.08246770260831723, ,0.0003765285030455829, ,0.0026874256341258905,0.0005655317451413787,-0.003440040526331774,-0.00926445090290417,-0.018783371673088817,-0.006508995955734533, ,0.004401813434997511, ,0.020943855935810187, ,3.795174851742968e-05, ,0.14277788537866273,-0.24139718418250972,0.09200807162,-4.533496578135416,0.1397791392600456,-1.3985420616720614, ,0.02673906496434792,0.0042931335715317214,0.0037862637318754467,0.007843953625455407,0.00536358208822284,0.006934872354493535, ,0.6843688488006592
0.010584605425225409,0.02064507288427979,-0.08225817421659895, ,0.010869782314931943,0.020565250212314288,-0.08250966315224964, ,0.00038851538211134124, ,0.002669360990619275,0.0004541312928692056,-0.003451234011533164,-0.0003718776019973576,-0.012276479575039426,0.0106878408286319, ,0.004386654708518356, ,0.012282110698800633, ,3.825811545630583e-05, ,0.14304045829638637,-0.24134312505239014,0.09204696032000001,-4.533286888191932,0.14005241225957646,-1.3986015399991731, ,0.02794374015267102,0.005607803092641211,0.0037835656817102143,-0.007071231604720862,0.018675131434926065,-0.0035268396952827337, ,0.6969277858734131
0.010637191829395893,0.020655555565195525,-0.08232504280473175, ,0.01090530974160411,0.020571068905520552,-0.08255162995167623, ,0.0003610636310546424, ,0.0025768229669203883,0.0005378004638080996,-0.0033728506465184,0.012176370416104844,0.0018663129412292718,0.01485252365001124, ,0.004278477232081549, ,0.012318568101378172, ,3.848668610057176e-05, ,0.14359649506333053,-0.24125045225789946,0.09212084885,-4.533286888191932,0.14046232175887277,-1.3986090787497, ,0.028739231241208592,0.004713940029148157,0.0037374029845143137,-0.007071231604720862,0.03565526462340343,-0.012869202620142836, ,0.708270788192749
0.010658620939634596,0.02065947283923386,-0.08235226493524718, ,0.010940823769177996,0.02057681608584849,-0.08259360317146384, ,0.0003804138800604969, ,0.002682281600957612,0.0005577070312209646,-0.003723702934380543,-0.0059740300365685554,-0.0041216034214032115,0.013048854869885522, ,0.004622946599629213, ,0.007257868070253717, ,3.87541730339609e-05, ,0.14380500885093458,-0.24121183859352835,0.09215066352000001,-4.533286888191932,0.14046232175887277,-1.398445721269419, ,0.02841225795163796,0.005330259003833803,0.004083263655472956,-0.007071231604720862,0.026676421381234928,0.003555658928736393, ,0.7218790054321289
0.010697580673968513,0.020667890704034048,-0.08240522415168311, ,0.010976324345904244,0.020582492064571824,-0.08263558297574636, ,0.0003715590802147292, ,0.0026603957785173524,0.0005291410518999545,-0.003374037229765536,0.022196090985839807,-0.014303449019352274,-0.009738268914119956, ,0.00432918273800063, ,0.026405588583927057, ,3.8991803055233416e-05, ,0.14422203642614273,-0.2411423339976603,0.09220899657,-4.533496578135416,0.1408722312581691,-1.398453260019946, ,0.027300616098524386,0.0047234638754138905,0.003723424852734923,0.012272249879708057,0.013905200409005943,-0.02341713466610812, ,0.7332189083099365
0.010724125819183474,0.020672887653909563,-0.0824390926612373, ,0.011011811420243461,0.020588097152469148,-0.08267756952792776, ,0.00038317574314961696, ,0.00255293879708895,0.0004947230073926716,-0.0033971628244388813,0.04251100769229553,0.009077349520257823,-0.0026297987331751985, ,0.0042781961866510025, ,0.043469346082899304, ,3.92487567190166e-05, ,0.14452322300823747,-0.24108827486754075,0.09224658898000002,-4.533496578135416,0.14128214075746542,-1.3987058349908947, ,0.02903823181103757,0.005660095724239095,0.0037576814154281677,0.011830436228443465,0.042797847900089586,-0.04078441874589897, ,0.7452068328857422
0.010741348068772593,0.02067583755845099,-0.08245900807724926, ,0.011047284940866776,0.020593631659820817,-0.08271956299068185, ,0.0004101756238371936, ,0.002676623287661855,0.0005274426057383912,-0.0035891565192711136,0.0220416420857746,0.004253211962425913,0.0016496142543712816, ,0.004508275994904061, ,0.022448247086111265, ,3.95593859089342e-05, ,0.14469312313147042,-0.24105738393604384,0.09226862591000001,-4.533286888191932,0.14128214075746542,-1.3987058349908947, ,0.029544502353197624,0.00567635522365667,0.0039594361222967936,0.006511807423420293,0.03687151354043782,-0.02171730233284815, ,0.7573308944702148
0.010797631966189903,0.02068889667105046,-0.08253173312410717, ,0.011082744856655204,0.020599095896410576,-0.08276156352595303, ,0.0003770617363881314, ,0.003391628980508597,0.0006633973531151989,-0.0038633571213719624,-0.016758412642548234,-0.022906308955644324,-0.03333949386625189, ,0.005183509567542197, ,0.02838209617714496, ,3.9785449193416356e-05, ,0.14524915989841458,-0.24097243387442738,0.09234899589000001,-4.5326578183614785,0.14141877725723084,-1.3985722166741694, ,0.033508807047482624,0.004883313060035609,0.004305084194594595,0.034600946525870695,0.0,0.01696414586134042, ,0.7693209648132324
0.010826615961955433,0.020693658874703286,-0.08256413240255273, ,0.01111819111669961,0.020604490171526376,-0.08280357129495716, ,0.00038768300412347917, ,0.0030726265975081235,0.0003453296121571773,-0.003194236430171497,-0.016116515286402948,-0.026048210655219534,0.03990251867762011, ,0.004445608295900767, ,0.03063088870703916, ,4.0028082215126495e-05, ,0.1455657919462578,-0.2409183747443078,0.09238529201000001,-4.532448128417994,0.14169205025676176,-1.3987133737414217, ,0.032689266813114286,0.00573420205013594,0.003562695486468352,-0.03798575598421074,0.015370064127308507,0.007366117771523204, ,0.7814178466796875
0.010872571545656242,0.020699925186601274,-0.08261379270679817, ,0.011153623670300285,0.02060981479395969,-0.0828455864581829, ,0.00037528458909200584, ,0.0029987490527464394,0.0004038897589205644,-0.0033631449307085543,0.0137344413543072,-0.013412006558507213,0.031232215143216325, ,0.004523976861530043, ,0.019196791367572012, ,4.023615226673726e-05, ,0.14608321504883082,-0.24082570194981712,0.09244103248,-4.532448128417994,0.1422385962558235,-1.3989956878759262, ,0.03297322500294329,0.005944647511572056,0.0037479556517647063,-0.02612967613639794,0.029781116094439758,-0.019251325772262608, ,0.794313907623291
0.010920783568607501,0.02070618869717939,-0.08265840254563003, ,0.011189042466967083,0.020615070072005963,-0.08288760917539172, ,0.00036441887921635064, ,0.002850427308275876,0.0003372715595200596,-0.0027925133831674747,-0.0028900710717025798,-0.020782900835179773,0.02142008597802721, ,0.004004599722793204, ,0.02098288535341584, ,4.0414526864472585e-05, ,0.1465774699527812,-0.2407561973539491,0.09249158779000001,-4.532448128417994,0.1422385962558235,-1.3987506516555046, ,0.030621794630032523,0.004911338379471043,0.003148608721091125,-0.01899609680625695,0.015398147529734459,-0.002489920979451208, ,0.8058798313140869
0.010953132875242234,0.020709912577099025,-0.08269209340194343, ,0.011224447456418745,0.020620256313466333,-0.08292963960561966, ,0.0003715885445604471, ,0.003413738617605432,0.0004489865766019046,-0.0036615460797250273,-0.016248858970778123,-0.03265685995879573,-0.0005523578426456358, ,0.0050261436498819905, ,0.036475963586483716, ,4.06028216765939e-05, ,0.14691727019924708,-0.2406944154909553,0.0925291802,-4.5326578183614785,0.14237523275558894,-1.3987803908190606, ,0.03406207521840301,0.006239560166312695,0.004066584508552465,0.0,0.0,0.01018043557473257, ,0.8174278736114502
0.010983614271964648,0.020715804636287603,-0.08272919227581235, ,0.011259838588583121,0.020625373825646037,-0.08297167790717777, ,0.00037851933375102406, ,0.0033294590949314307,0.0006792122540728788,-0.004024233221611246,0.0004041429389696452,-0.017544566675817285,0.003807436627713469, ,0.005266980175852574, ,0.017549220789024246, ,4.080010113687605e-05, ,0.14725707044571296,-0.24064035636083572,0.09257066148000001,-4.5326578183614785,0.14278514225488526,-1.3989512870498686, ,0.03429596731422869,0.004930937070016034,0.004481939088351154,0.0,0.017928691505994562,-0.00275634001621098, ,0.8290698528289795
0.011014701252021215,0.020721973805623337,-0.08277017345986148, ,0.011295215813596679,0.02063042291535552,-0.0830137242376522, ,0.00038260549672889874, ,0.0031344150661655403,0.0005289477320133046,-0.00391289084155024,0.0244633752394229,0.006443868741786124,0.010308837385047408, ,0.005041334966860989, ,0.0252978293841374, ,4.1084821983792665e-05, ,0.14759687069217883,-0.24057857449784192,0.09261603163000001,-4.5326578183614785,0.1431950517541816,-1.3991221832806768, ,0.03525146417476626,0.006783805413444631,0.004348569893529894,0.0,0.0471985759273216,-0.02470656166408143, ,0.8391728401184082
0.011040573028135464,0.020725825311007372,-0.08279944414328982, ,0.011330579081804432,0.020635403888911365,-0.08305577875390661, ,0.0003974757569193043, ,0.0033052354822899685,0.0006021596936244523,-0.0043156051458586005,0.008811257157091943,-0.008668835951921184,0.006024095413345816, ,0.005469152188865814, ,0.012360702567118548, ,4.1392917545050924e-05, ,0.14785172087702825,-0.24053223810059657,0.09264843888,-4.5326578183614785,0.1431950517541816,-1.3990405045405363, ,0.03458343351256224,0.006784614464851808,0.004754869110447762,0.0,0.028784877036448588,-0.01154364364092095, ,0.8504979610443115
0.011107238372304552,0.020737974499078153,-0.0828814726529389, ,0.011365928343759492,0.020640317052135974,-0.08309784161208152, ,0.00035110255589369246, ,0.0032019035273213115,0.0004875207115462826,-0.003351768601549029,-0.01190104337442247,-0.022549941299446173,-0.00496741208122632, ,0.004660924307558446, ,0.025497738832793077, ,4.160006482453355e-05, ,0.14852359863708578,-0.240408674374609,0.09273917918,-4.53223843847451,0.14346832475371246,-1.3990183041275073, ,0.032734371010165846,0.005103757450132463,0.003763896862003782,0.006774366250599704,0.007667033568948691,0.009012034484692007, ,0.8614678382873535
0.011107238372304552,0.020737974499078153,-0.0828814726529389, ,0.011401263550223344,0.020645162710357358,-0.08313991296759582, ,0.00040231359611092067, ,0.0028028909022238127,0.0004241849456010554,-0.0036602846105096374,0.027214546644707696,0.013404070382288953,0.0048809426621442015, ,0.004660924307558446, ,0.025497738832793077, ,4.19042744005569e-05, ,0.14884795341780319,-0.2403468925116152,0.09277547530000001,-4.53223843847451,0.14387823425300877,-1.3993525578385966, ,0.0318981316162927,0.007276139570369144,0.004043871926884997,0.006186420434516377,0.049728887618628315,-0.026706978155048255, ,0.872452974319458
0.011167732992688143,0.020747462056081935,-0.08295486280029686, ,0.011436584652164992,0.02064994116841102,-0.08318199297514785, ,0.00036521179425563283, ,0.00332052741562088,0.0006193224422859361,-0.004037521650056826,0.005033617267561401,-0.010858114104452391,-0.00017941968080868145, ,0.005264128007570341, ,0.011968121975843288, ,4.2128262880581094e-05, ,0.1491954763971433,-0.24027738791574718,0.09282084545000001,-4.53223843847451,0.14428814375230511,-1.399441775329264, ,0.034633920276814154,0.005823369012275591,0.0044920506260575305,0.005612451500159963,0.024432850567999254,-0.006570062968654966, ,0.8821489810943604
0.011202410814888408,0.020753702370156283,-0.08299848270169516, ,0.011471891600761423,0.020654652730637872,-0.08322408178871542, ,0.00036513788232370425, ,0.003357528214466177,0.0006978360753891296,-0.004526239311687007,-0.007864333520084074,-0.01665092275620406,-0.0017253117107586256, ,0.0056786277572765595, ,0.01841469436207077, ,4.2346878260036776e-05, ,0.14952755391073497,-0.24021560605275338,0.09286880818000001,-4.53223843847451,0.14428814375230511,-1.3991967391088425, ,0.033203968354958285,0.006111584488993012,0.004976198537956889,0.005147341594005933,0.015348063745463034,0.004798765749902785, ,0.8945939540863037
0.011250364302887937,0.020763503592661294,-0.0830633267775626, ,0.011507184347396563,0.02065929770088831,-0.08326617956155752, ,0.0004164862020250645, ,0.0033960367141886603,0.0005597501106045098,-0.004511036276145216,-0.025359081389640693,-0.01831375880100846,0.0020842458038008334, ,0.005666517376991712, ,0.03128061330089159, ,4.265919543785378e-05, ,0.15000636334893688,-0.24012293325826267,0.09294010413,-4.532028748531025,0.144561416751836,-1.3991745386958137, ,0.0333556912332059,0.007516528315553889,0.004931520594427244,0.0007822549722993282,0.012648526676914167,0.0200460758217958, ,0.9056758880615234
0.01127942694610378,0.020769724064723365,-0.08310567398473576, ,0.011542462843662029,0.02066387638251771,-0.08330828644621444, ,0.0003484873380469255, ,0.0027916319979546735,0.0006475192078175193,-0.0042354510233278036,0.02726480287539916,0.027739383199452888,0.00241056904679375, ,0.00511385722400475, ,0.03889528062319972, ,4.2835112102149983e-05, ,0.15033071812965432,-0.24005342866239465,0.09298677057000002,-4.531819058587541,0.14510796275089774,-1.3994568528303182, ,0.03194107760298579,0.006642554474014698,0.0046684676201641274,0.0124694575014043,0.062728012725222,-0.023315648747799463, ,0.9158899784088135
0.011297284675478282,0.020773609077877193,-0.08313158870948692, ,0.011577727041356041,0.020668389078391518,-0.08335040259450956, ,0.00037094296751600517, ,0.002978221156132743,0.0006587966257918575,-0.004091222406553187,0.015082238168305959,0.010102014354265809,-0.0021608738385355056, ,0.005103127965167466, ,0.018152812482727966, ,4.3049270551215966e-05, ,0.1505237864515099,-0.24001481499802355,0.09301528895000001,-4.531819058587541,0.14538123575042863,-1.3995980098975704, ,0.03231084152484534,0.005830155374131126,0.004534247514944492,0.0124694575014043,0.04316553167284131,-0.013012283968795698, ,0.9259757995605469
0.01134487974874495,0.02077908070750799,-0.08318168810662455, ,0.011612976892483752,0.020672836090882017,-0.08339252815754891, ,0.0003572359502019546, ,0.0032733308115466928,0.0002748372778052557,-0.0034297371211067062,-0.016960761749547693,-0.00995916298216801,-0.007381917220530457, ,0.00474903430720285, ,0.019668562884860994, ,4.323317450455177e-05, ,0.1509948731568376,-0.23992214220353283,0.09307102942,-4.531819058587541,0.14538123575042863,-1.3993529736771488, ,0.03454566492845678,0.008032855436646467,0.0038189430640134265,0.0124694575014043,0.020616222552485436,0.013918546924283768, ,0.9357597827911377
0.011376993807526072,0.02078234869462254,-0.0832154000779158, ,0.01164821234925695,0.02067721772186972,-0.08343466328572252, ,0.00036426415292789034, ,0.003428905169555523,0.0004459351884607701,-0.0036670631150609928,0.004837336339523489,-0.03223084932868187,-0.012751978566684313, ,0.005040198482595002, ,0.03259183134846441, ,4.3425941243339595e-05, ,0.15132695067042926,-0.23985263760766481,0.09310862183000002,-4.531819058587541,0.14551787225019408,-1.3992193553604235, ,0.033747134266881494,0.006425834895648143,0.004085358173890742,0.011930656281497042,0.0,-0.009539763571275235, ,0.946638822555542
0.011409581130620685,0.020788314764243823,-0.08325459743627132, ,0.011683433364093587,0.02068153427274492,-0.08347680812870623, ,0.00036847620136888496, ,0.003030151771657631,0.00046240579048065087,-0.0033836054029557482,0.031699386730888776,0.010203924908208093,0.00012982098559270044, ,0.004565569449396346, ,0.033301219229981534, ,4.362216043226477e-05, ,0.15169764184839205,-0.23979085574467102,0.09315269569000001,-4.531819058587541,0.14606441824925584,-1.3995833482350686, ,0.03464656500856911,0.0061907765345908874,0.0038226089560835135,0.010869084003399379,0.04851242658590797,-0.029625351452334463, ,0.9565680027008057
0.011437148101891071,0.02079170180811406,-0.08328736834979406, ,0.011718639889617771,0.02068578604440667,-0.08351896283546084, ,0.00037959423250433677, ,0.0031632603915996795,0.0004595305114895635,-0.004089516967224704,0.013366120887242218,0.008496103471633588,0.0053115021352744506, ,0.005190523443861125, ,0.01583783320499527, ,4.38341411335431e-05, ,0.15199110569761257,-0.239721351148803,0.09318899181000001,-4.531609368644055,0.14633769124878673,-1.3996428265621805, ,0.03465921897679722,0.008053511610181929,0.004516249367734619,0.0050437807394881065,0.04595973266630809,-0.014186691187326215, ,0.9663448333740234
0.011474360871741928,0.020796690619894045,-0.08333205120841203, ,0.011753831878659617,0.020689973337263093,-0.08356112755423428, ,0.0003767872003332895, ,0.0031839912861151734,0.00036725106517998383,-0.003806860274809569,-0.021113533935395102,-0.007114115304571792,-0.001163811757081513, ,0.004976430347835322, ,0.02227985527350421, ,4.403660083733674e-05, ,0.15236179687557536,-0.23963640108718653,0.09323825083000001,-4.531399678700571,0.14647432774855218,-1.3995092082454552, ,0.032927460637914914,0.007923862545203107,0.00419842159198735,0.006714394307060874,0.02278377096306643,0.017698344931267235, ,0.9792687892913818
0.011508931031053802,0.020800818353769734,-0.08336786700233167, ,0.011789009284254798,0.020694096451232734,-0.08360330243256174, ,0.00038113414200889253, ,0.00350353862710887,0.0004144559461000299,-0.0035604429798875093,-0.02538514446708342,-0.02644303359963492,-0.014639362208405251, ,0.005012315917411015, ,0.03665568966741662, ,4.432046527794029e-05, ,0.15271704258778968,-0.23956689649131852,0.09327843582,-4.531189988757087,0.1466109642483176,-1.3994572686688704, ,0.03486294693551461,0.006590131759519845,0.003991183041844149,0.015463376782949064,0.001834681998948469,0.021639854334308768, ,0.98750901222229
0.011542940499148462,0.020804640887217698,-0.0834075300275377, ,0.011824172059644419,0.020698155685744027,-0.08364548761726662, ,0.00038347633989787964, ,0.003615936409031117,0.00034654569596155924,-0.003913871708767846,-0.009361004969376975,-0.010897360894250247,-0.008777437399569796, ,0.0053398016616949045, ,0.014365962814160168, ,4.460346180505249e-05, ,0.15308773376575247,-0.23948194642970205,0.09332250968000001,-4.531189988757087,0.1470208737476139,-1.3993831286792568, ,0.037807546437637764,0.008730462534961908,0.004356895929978119,0.014346251541252169,0.02368813760689665,0.0062983298231124064, ,1.0007789134979248
0.011574060900099414,0.020807569314916608,-0.08344106582417415, ,0.011859320158275075,0.020702151339735107,-0.08368768325446174, ,0.00039154303823200497, ,0.0030993707390424316,0.0003478840556466344,-0.0034094317679040603,0.009960877889263293,0.012776706041196628,-0.0015252471248486683, ,0.004620751808331517, ,0.016200719278083718, ,4.489553412603471e-05, ,0.15343525674509256,-0.2394047191009598,0.09336010209000001,-4.531189988757087,0.14743078324691022,-1.3996357036502054, ,0.03521222321279064,0.007581368245330773,0.003833648981949459,0.013039936839360585,0.04824846185195038,-0.008733462160542563, ,1.009382963180542
0.011610180349216197,0.02081106968005721,-0.08347813856056274, ,0.011894453533798088,0.02070608371165622,-0.08372988948954989, ,0.000393969322764241, ,0.0034815048615558105,0.00035837051652019174,-0.003806233954151151,-0.020153075256958173,-0.007359486723547391,-0.005634663738883396, ,0.005170756467083012, ,0.021454801009280364, ,4.518675689602452e-05, ,0.15380594792305533,-0.23932749177221754,0.09340158337000001,-4.531189988757087,0.1475674197466757,-1.3995020853334803, ,0.03649882367633492,0.008234070555265025,0.004242027035952064,0.011894146921197979,0.02500629509017203,0.01752495518408645, ,1.0177018642425537
0.011646089988986405,0.020815620406572845,-0.08352153596051409, ,0.011929572140069898,0.020709953099466705,-0.08377210646722395, ,0.0003928273012493193, ,0.0038825045033510875,0.0004195706006537546,-0.004515469166215404,0.025118985842721094,-0.028955497011358865,-0.009957592476462112, ,0.005969869554564527, ,0.03833254824642393, ,4.547107293822076e-05, ,0.15417663910101811,-0.23924254171060108,0.0934495461,-4.531189988757087,0.14784069274620656,-1.3994798849204515, ,0.038482133640904616,0.009355709052499661,0.004977753600000001,0.010943288565446258,0.011794501510401454,-0.031372284720814624, ,1.026418924331665
0.011646089988986405,0.020815620406572845,-0.08352153596051409, ,0.011964675931151275,0.020713759800639452,-0.08381433433146948, ,0.0004445261202902761, ,0.0038825045033510875,0.0004195706006537546,-0.004515469166215404,0.025118985842721094,-0.028955497011358865,-0.009957592476462112, ,0.005969869554564527, ,0.03833254824642393, ,4.583791543078693e-05, ,0.15417663910101811,-0.23924254171060108,0.0934495461,-4.531189988757087,0.14784069274620656,-1.3994798849204515, ,0.038482133640904616,0.009355709052499661,0.004977753600000001,0.010943288565446258,0.011794501510401454,-0.031372284720814624, ,1.0344948768615723
0.011682248464471587,0.020820911507679042,-0.0835699232195187, ,0.011999764861307587,0.020717504112157184,-0.08385657322556363, ,0.0004400886020722276, ,0.0035435556711391147,0.00064685526169587,-0.005008760925571462,0.050230690853458396,0.0026004857574210716,-0.0007740935107566299, ,0.006169513314158362, ,0.05029796046200864, ,4.619118012914253e-05, ,0.15455505301185513,-0.2391498689161104,0.09350269399000001,-4.531189988757087,0.14825060224550288,-1.3997324598914, ,0.037214486885674816,0.008634303708516075,0.0055040813821700075,0.010132320913699372,0.04654717695646894,-0.051148041808503186, ,1.0427827835083008
0.01171738105325276,0.020827250585061432,-0.08361565647741105, ,0.012034838885008175,0.020721186330516277,-0.08389882329207764, ,0.00043842051270839177, ,0.003984359899714883,0.000630381092794824,-0.005225756987246772,0.013584327335048867,-0.012370217928801407,-0.009343954584252323, ,0.006601593763809437, ,0.018372703580438434, ,4.653580573057555e-05, ,0.15491029872406945,-0.23907264158736816,0.09355324930000002,-4.530770608870118,0.14852387524503374,-1.3998736169586525, ,0.03992298761399696,0.009291972410985052,0.005746324502164502,0.0150510362781703,0.027532550339539434,-0.016755946779880012, ,1.0520908832550049
0.01176610380430787,0.020834790498533155,-0.08367686672753868, ,0.012069897956926524,0.02072480675172391,-0.08394108467287584, ,0.0004173708595070723, ,0.004206230411563473,0.0005702901315134083,-0.005022514237168104,-0.02058146467635763,-0.030650267768533558,-0.013092626773626288, ,0.006575960338370306, ,0.03691931201026057, ,4.6840075633136004e-05, ,0.15538138542939714,-0.238964523327129,0.09362065638000001,-4.5303512289831485,0.14866051174479922,-1.3998216773820675, ,0.04043329423028154,0.009054317309619937,0.005540456180869566,0.013943120501840033,0.004669613022076612,0.01454896850242282, ,1.060119867324829
0.01180255426351178,0.02083992064999159,-0.08372268992562716, ,0.012104942031939748,0.02072836567130112,-0.08398335750911867, ,0.00041452438390133514, ,0.004040794882231706,0.0005444171994603359,-0.004815238642231556,-0.018252469225783045,-0.01575855742722252,-0.009058752816382437, ,0.006309590838475834, ,0.024113995157096703, ,4.713472270133152e-05, ,0.1557520766073599,-0.23887957326551254,0.09367121169,-4.5303512289831485,0.14893378474433008,-1.3997994769690387, ,0.04046777891619223,0.009002026629102286,0.005332712259792435,0.013943120501840033,0.020298199285873602,0.014507044533307515, ,1.0682199001312256
0.011840275206618504,0.020846711248483925,-0.08377413156729169, ,0.01213997106512846,0.02073186338428095,-0.08402564194126158, ,0.0004077561866293132, ,0.003653375446867802,0.0006279767125207191,-0.005529248227647285,0.037075325674464386,0.022877666032783496,0.047820626167850884, ,0.0066568831197629935, ,0.043565667351792965, ,4.741362476473939e-05, ,0.15616910418256805,-0.23878690047102183,0.09372824845000001,-4.530141539039664,0.1496169672431573,-1.4001932090072398, ,0.04100991424307294,0.010247639185357774,0.006061191598173516,-0.03127120153339053,0.0805366515221891,-0.04083821074817186, ,1.0781378746032715
0.01187695110203677,0.020852771884141447,-0.08382706188991218, ,0.012174985011776588,0.02073530018521075,-0.08406793810905706, ,0.00040080564411445097, ,0.0035750591099494135,0.0005913447731482324,-0.004824668853743044,0.029047991472701224,0.03559857349202858,0.007810017436740091, ,0.006033917950108391, ,0.04594610147391496, ,4.767686836649301e-05, ,0.15658613175777616,-0.23868650494365692,0.09378658150000001,-4.5303512289831485,0.15043678624174994,-1.4005350014688562, ,0.04129544889402558,0.009388385897869903,0.005366850242587601,0.01129837272691932,0.08133434615440685,-0.025272963163654096, ,1.0865058898925781
0.01187695110203677,0.020852771884141447,-0.08382706188991218, ,0.012209983827371243,0.02073867636815039,-0.08411024615155466, ,0.00045179852695086055, ,0.0035750591099494135,0.0005913447731482324,-0.004824668853743044,0.029047991472701224,0.03559857349202858,0.007810017436740091, ,0.006033917950108391, ,0.04594610147391496, ,4.801724186747929e-05, ,0.15658613175777616,-0.23868650494365692,0.09378658150000001,-4.5303512289831485,0.15043678624174994,-1.4005350014688562, ,0.04129544889402558,0.009388385897869903,0.005366850242587601,0.01129837272691932,0.08133434615440685,-0.025272963163654096, ,1.0949327945709229
0.01187695110203677,0.020852771884141447,-0.08382706188991218, ,0.01224496746760224,0.020741992226674433,-0.08415256620710256, ,0.0005036479309419424, ,0.0035750591099494135,0.0005913447731482324,-0.004824668853743044,0.029047991472701224,0.03559857349202858,0.007810017436740091, ,0.006033917950108391, ,0.04594610147391496, ,4.843426990799281e-05, ,0.15658613175777616,-0.23868650494365692,0.09378658150000001,-4.5303512289831485,0.15043678624174994,-1.4005350014688562, ,0.04129544889402558,0.009388385897869903,0.005366850242587601,0.01129837272691932,0.08133434615440685,-0.025272963163654096, ,1.1035149097442627
0.011955052504822221,0.020860562321365395,-0.08391562358381888, ,0.01227993588836204,0.020745248053872085,-0.0841948984133481, ,0.00044366769501100103, ,0.004272799369264911,0.0004582256851726542,-0.004979988127125964,-0.07105456453830673,-0.02276425137219591,-0.005489123391697296, ,0.00657777066906852, ,0.07461207864147708, ,4.882724257368311e-05, ,0.15740474144244396,-0.2384934366218013,0.09388509954,-4.5303512289831485,0.15111996874057715,-1.400030267365511, ,0.041403552163381666,0.010155889068247938,0.005492693627586208,0.008502114997831267,0.008119287931800728,0.06412892884287992, ,1.1105918884277344
0.011987250885967273,0.02086555405803621,-0.08395780488649536, ,0.012314889045745696,0.02074844414234587,-0.0842372429072384, ,0.0004462590094695873, ,0.004177289993640846,0.0006190647422409402,-0.005358310423680239,0.01691620723947944,0.0016639468315003915,0.0030215438793760835, ,0.006822351753067126, ,0.016997846393292156, ,4.9219352009893826e-05, ,0.15774454168890983,-0.23841620929305907,0.09393176598000001,-4.5303512289831485,0.15152987823987346,-1.4001194848561784, ,0.043751471442356284,0.01005680475904098,0.005932518256983241,0.0075399803326594616,0.04840833686615999,-0.019002193695945514, ,1.1214208602905273
0.012032633939565685,0.02087369610434935,-0.08402257350571003, ,0.012349826896050424,0.020751580784213818,-0.08427959982502116, ,0.00042612914928922483, ,0.004113608123584849,0.0007795583912485059,-0.005969452816798614,-0.020206719940856106,0.009471963896181091,0.012319448274386169, ,0.0072913544703144244, ,0.022316577319084804, ,4.957533297456719e-05, ,0.15822335112711175,-0.2383003682999457,0.09400306193,-4.530141539039664,0.15221306073870067,-1.4002681806739579, ,0.04213896161566198,0.009808999717915781,0.006555066469135804,0.0,0.051398195879697926,0.01802298067494519, ,1.127964973449707
0.012032633939565685,0.02087369610434935,-0.08402257350571003, ,0.01238474939577527,0.0207546582711099,-0.08432196930224632, ,0.00047727679938126745, ,0.004113608123584849,0.0007795583912485059,-0.005969452816798614,-0.020206719940856106,0.009471963896181091,0.012319448274386169, ,0.0072913544703144244, ,0.022316577319084804, ,5.000585067130021e-05, ,0.15822335112711175,-0.2383003682999457,0.09400306193,-4.530141539039664,0.15221306073870067,-1.4002681806739579, ,0.04213896161566198,0.009808999717915781,0.006555066469135804,0.0,0.051398195879697926,0.01802298067494519, ,1.134436845779419
0.01207840773408808,0.020879822201927856,-0.08407885697806772, ,0.01241965650162126,0.020757676894182283,-0.08436435147376574, ,0.00046138628568808, ,0.004382558674627781,0.00032912933937199237,-0.004856078243566306,-0.03417440950802936,-0.03229999613181696,-0.008660133776493231, ,0.006549552852388373, ,0.04702318590480101, ,5.040671398878929e-05, ,0.158678992366691,-0.23819225003970657,0.09406528385000001,-4.5299318490961795,0.15248633373823153,-1.4000826227806478, ,0.042364706052888744,0.011221645814250978,0.0053578242583249246,0.009299604285903467,0.004551915588197479,0.025430073836155132, ,1.1412138938903809
0.012110262251417701,0.020882257680244803,-0.0841152961359754, ,0.012454548170490805,0.0207606369440964,-0.08440674647373485, ,0.00046719128514280427, ,0.004530360195941325,0.00035859278722037073,-0.005079604603720119,-0.04714973694498942,-0.023872333272942844,-0.005926135483092948, ,0.006815800409500752, ,0.05284870846571694, ,5.081153781377046e-05, ,0.15899562441453421,-0.23810729997809008,0.09410546884000001,-4.5299318490961795,0.15262297023799698,-1.3999490044639227, ,0.0445734812393005,0.011706999945530566,0.005612689048625793,0.009299604285903467,0.013664182960996843,0.03936911963619688, ,1.1488609313964844
0.012110262251417701,0.020882257680244803,-0.0841152961359754, ,0.012489424359487779,0.020763538711032807,-0.08444915443561304, ,0.0005189599811968555, ,0.004530360195941325,0.00035859278722037073,-0.005079604603720119,-0.04714973694498942,-0.023872333272942844,-0.005926135483092948, ,0.006815800409500752, ,0.05284870846571694, ,5.128989210156102e-05, ,0.15899562441453421,-0.23810729997809008,0.09410546884000001,-4.5299318490961795,0.15262297023799698,-1.3999490044639227, ,0.0445734812393005,0.011706999945530566,0.005612689048625793,0.009299604285903467,0.013664182960996843,0.03936911963619688, ,1.1553997993469238
0.012168866556614907,0.020890152593555145,-0.08419399175939854, ,0.012524285025917181,0.020766382484688727,-0.08449157549216459, ,0.00047978891835571817, ,0.00417041376002703,0.0006388704051993079,-0.005628325756595464,0.04198293733048053,0.021143364640518508,0.008108700113816335, ,0.007034099597448007, ,0.047006477102299056, ,5.170349052015963e-05, ,0.1596288885102206,-0.23794512258773137,0.09419232027,-4.5299318490961795,0.15357942573635508,-1.4004838935693757, ,0.04553596044072494,0.010982658799904437,0.006234368500978474,0.00807353333299813,0.07378113505540593,-0.04150268281879693, ,1.1618998050689697
0.012200183393481952,0.020894592154527526,-0.08423385352450237, ,0.01255913012728484,0.020769168554278572,-0.0845340097754599, ,0.0004844250325861063, ,0.004771903611443668,0.000679834482448192,-0.006198420089361112,0.010011245734364245,-0.01111443880407176,0.0013814740335184338, ,0.007851983864261957, ,0.014958468569129017, ,5.211907595504805e-05, ,0.15994552055806383,-0.23786789525898913,0.09423639413000001,-4.529722159152695,0.15385269873588595,-1.400625050636628, ,0.04778295143931056,0.011611029188605258,0.006833466975546976,0.006555491478637022,0.03893416327928081,-0.01506771068663867, ,1.1693508625030518
0.012223600556236353,0.02089762616683994,-0.08426342041467066, ,0.012593959621297248,0.020771897208534135,-0.08457645741687586, ,0.0005009648418592457, ,0.005123800353911484,0.0007821234047710724,-0.006908995868403152,-0.0022452844976653917,-0.02120006531707577,-0.001041720647549418, ,0.00863708695085594, ,0.02131863166765636, ,5.255432675570141e-05, ,0.1601617570785421,-0.23781383612886955,0.09426880138,-4.529722159152695,0.15385269873588595,-1.400461693156347, ,0.04942549039503686,0.0123084775628779,0.007577931265461467,0.006555491478637022,0.02862239077439107,-0.004863876868289341, ,1.1820478439331055
0.012313216059602691,0.020911464032831326,-0.08438667270277314, ,0.012628773465861533,0.02077456873570368,-0.08461891854709623, ,0.0004150360601511864, ,0.004619074252136294,0.0004321977414301542,-0.005303799174217725,0.01404232872828628,-0.03282160025888472,-0.00425755187617074, ,0.00704648334383034, ,0.03569936183561704, ,5.285731307689723e-05, ,0.1610112576947068,-0.23759759960839127,0.09440361554000001,-4.529722159152695,0.15426260823518226,-1.4002241956864525, ,0.04499617902250867,0.011430645296638134,0.005866965569060774,0.005666442545834877,0.01461216674009195,-0.022594158953596725, ,1.1887738704681396
0.012353576067950943,0.0209125446283648,-0.08443104244783722, ,0.012663571619084858,0.020777183423553926,-0.08466139329611397, ,0.00040924492763195835, ,0.004176218018389908,9.412160647476615e-05,-0.00451936573418942,0.048494349288867554,0.023239782378944605,0.011819887738398715, ,0.006154211765392494, ,0.053775360492385946, ,5.3148218481786014e-05, ,0.1614514534685376,-0.23746631314952946,0.09445287456000001,-4.529722159152695,0.15480915423424405,-1.4004248310808163, ,0.048146596427433165,0.01410687402385473,0.005055160748968582,0.0052226008452096895,0.08072629644783369,-0.050644622093290056, ,1.1976850032806396
0.012353576067950943,0.0209125446283648,-0.08443104244783722, ,0.012698354039274499,0.020779741559370384,-0.08470388179323078, ,0.00045929273131534214, ,0.004176218018389908,9.412160647476615e-05,-0.00451936573418942,0.048494349288867554,0.023239782378944605,0.011819887738398715, ,0.006154211765392494, ,0.053775360492385946, ,5.350889078790911e-05, ,0.1614514534685376,-0.23746631314952946,0.09445287456000001,-4.529722159152695,0.15480915423424405,-1.4004248310808163, ,0.048146596427433165,0.01410687402385473,0.005055160748968582,0.0052226008452096895,0.08072629644783369,-0.050644622093290056, ,1.204463005065918
0.012400443378489341,0.020916443352452834,-0.08448803856611595, ,0.012733120684937602,0.02078224342995531,-0.08474638416705804, ,0.0004420704230664428, ,0.004338131319719731,0.0002564805402519418,-0.005015569728154637,0.024666828265339353,0.009602791682917503,0.010984816279778879, ,0.006636347286922405, ,0.026470096743368633, ,5.384033680522715e-05, ,0.16198432203685909,-0.2373195812249192,0.09451639277000001,-4.529512469209211,0.15576560973260212,-1.4012047564066914, ,0.04718893165513216,0.013305796629062085,0.005573412008397481,0.002216675031542223,0.06303507216009197,-0.028780391273907607, ,1.2108988761901855
0.012400443378489341,0.020916443352452834,-0.08448803856611595, ,0.012767871514780885,0.020784689321630835,-0.08478890054551823, ,0.0004928290683658787, ,0.004338131319719731,0.0002564805402519418,-0.005015569728154637,0.024666828265339353,0.009602791682917503,0.010984816279778879, ,0.006636347286922405, ,0.026470096743368633, ,5.431979853887432e-05, ,0.16198432203685909,-0.2373195812249192,0.09451639277000001,-4.529512469209211,0.15576560973260212,-1.4012047564066914, ,0.04718893165513216,0.013305796629062085,0.005573412008397481,0.002216675031542223,0.06303507216009197,-0.028780391273907607, ,1.216216802597046
0.012447250319586996,0.020919008803901514,-0.08453546114943714, ,0.012802606487710462,0.020787079520237818,-0.08483143105584502, ,0.0004809173812730228, ,0.005230406175523277,0.0003371578886218836,-0.0050578857122941705,-0.03861687902724451,-0.03714354309602197,-0.011607693918188586, ,0.007283751236927405, ,0.05358083739753186, ,5.477795125595847e-05, ,0.162463131475061,-0.2371960174989316,0.09456954066,-4.529302779265726,0.15603888273213298,-1.401019198513381, ,0.05157442476003847,0.01202427978273576,0.005690893719185424,0.01314552645153875,0.0074981065775778415,0.030192069726217356, ,1.2218379974365234
0.012447250319586996,0.020919008803901514,-0.08453546114943714, ,0.012837325562831353,0.020789414311137504,-0.08487397582458535, ,0.0005324900123360116, ,0.005230406175523277,0.0003371578886218836,-0.0050578857122941705,-0.03861687902724451,-0.03714354309602197,-0.011607693918188586, ,0.007283751236927405, ,0.05358083739753186, ,5.530615234429152e-05, ,0.162463131475061,-0.2371960174989316,0.09456954066,-4.529302779265726,0.15603888273213298,-1.401019198513381, ,0.05157442476003847,0.01202427978273576,0.005690893719185424,0.01314552645153875,0.0074981065775778415,0.030192069726217356, ,1.2266638278961182
0.012502208518853865,0.02092222127015239,-0.08459247055345767, ,0.01287202869944789,0.02079169397920931,-0.08491653497759874, ,0.00050874560504187, ,0.0054512109278622494,0.00028673017217094505,-0.005998026824260348,-0.06641337897263047,-0.041174589074682105,-0.012220110501450616, ,0.008110131969100421, ,0.07814143385085753, ,5.5795905412875794e-05, ,0.16300372277625672,-0.23705700830719556,0.09463305887000001,-4.529302779265726,0.15617551923189843,-1.4007222227163747, ,0.051490472902046,0.014984516273246611,0.006606723981750311,0.012078879735866153,0.0,0.05408272623422503, ,1.231557846069336
0.012502208518853865,0.02092222127015239,-0.08459247055345767, ,0.012906715857062918,0.020793918808853264,-0.08495910864005886, ,0.000560812976657073, ,0.0054512109278622494,0.00028673017217094505,-0.005998026824260348,-0.06641337897263047,-0.041174589074682105,-0.012220110501450616, ,0.008110131969100421, ,0.07814143385085753, ,5.635554305216235e-05, ,0.16300372277625672,-0.23705700830719556,0.09463305887000001,-4.529302779265726,0.15617551923189843,-1.4007222227163747, ,0.051490472902046,0.014984516273246611,0.006606723981750311,0.012078879735866153,0.0,0.05408272623422503, ,1.2370879650115967
0.012556222507669206,0.02092619838923042,-0.08466081942397838, ,0.012941386995377743,0.020796089083990502,-0.08500169693645472, ,0.0005305446186833418, ,0.004898634041168364,0.0004986815602808244,-0.006746241542549272,0.06726262921606545,0.038585588325188075,0.011421160994306324, ,0.008352070025944179, ,0.07754423835131244, ,5.6867551535911434e-05, ,0.16356748227607512,-0.2368871081839626,0.09470824369000001,-4.529302779265726,0.15685870173072564,-1.4008709185341541, ,0.05438220146617236,0.016263400438469716,0.007432949846010267,0.0109766418944279,0.10431611816415895,-0.06743690695258954, ,1.2430830001831055
0.012603660124258715,0.020933917839616966,-0.08473134385143798, ,0.012976042074292189,0.020798205088061298,-0.08504429999059031, ,0.0005050027848226943, ,0.0051184767483497574,0.000926130270105581,-0.007784751955087025,0.03077860508303526,0.035250030076596495,0.011423805707622737, ,0.009362632349015644, ,0.046796229791167585, ,5.7339201931137055e-05, ,0.1640926281115224,-0.23674809899222657,0.09478602109,-4.529302779265726,0.15795179372884915,-1.4014355468031634, ,0.05388809855676932,0.014167951860028482,0.008554678582169711,0.010127310660667268,0.09509069697222364,-0.02995386348159465, ,1.2480080127716064
0.012603660124258715,0.020933917839616966,-0.08473134385143798, ,0.01301068105390384,0.020800267104028384,-0.08508691792558726, ,0.0005567418418797609, ,0.0051184767483497574,0.000926130270105581,-0.007784751955087025,0.03077860508303526,0.035250030076596495,0.011423805707622737, ,0.009362632349015644, ,0.046796229791167585, ,5.7879544959348216e-05, ,0.1640926281115224,-0.23674809899222657,0.09478602109,-4.529302779265726,0.15795179372884915,-1.4014355468031634, ,0.05388809855676932,0.014167951860028482,0.008554678582169711,0.010127310660667268,0.09509069697222364,-0.02995386348159465, ,1.2529098987579346
0.012603660124258715,0.020933917839616966,-0.08473134385143798, ,0.013045303894508281,0.02080227541437522,-0.08512955086388385, ,0.0006090548191130658, ,0.0051184767483497574,0.000926130270105581,-0.007784751955087025,0.03077860508303526,0.035250030076596495,0.011423805707622737, ,0.009362632349015644, ,0.046796229791167585, ,5.8488518643593004e-05, ,0.1640926281115224,-0.23674809899222657,0.09478602109,-4.529302779265726,0.15795179372884915,-1.4014355468031634, ,0.05388809855676932,0.014167951860028482,0.008554678582169711,0.010127310660667268,0.09509069697222364,-0.02995386348159465, ,1.2586288452148438
0.012673576923617749,0.020945851853630505,-0.08483711665607896, ,0.013079910556598823,0.020804230301106178,-0.08517219892723672, ,0.0005453840975635826, ,0.0051184767483497574,0.000926130270105581,-0.007784751955087025,0.03077860508303526,0.035250030076596495,0.011423805707622737, ,0.009362632349015644, ,0.046796229791167585, ,5.900372552608995e-05, ,0.1640926281115224,-0.23674809899222657,0.09478602109,-4.529302779265726,0.15795179372884915,-1.4014355468031634, ,0.05388809855676932,0.014167951860028482,0.008554678582169711,0.010127310660667268,0.09509069697222364,-0.02995386348159465, ,1.2652668952941895
0.012673576923617749,0.020945851853630505,-0.08483711665607896, ,0.01311450100086589,0.020806132045749375,-0.08521486223672212, ,0.0005971828784442001, ,0.006484594126532585,0.001149568931793991,-0.010068606930127991,-0.08322792734404574,-0.02150299314029868,-0.0063373100650824035, ,0.01203113939858683, ,0.08596084283265114, ,5.958648794199277e-05, ,0.16476450587157992,-0.23655503067037095,0.09490139090000001,-4.528883399378757,0.15863497622767636,-1.401094170180099, ,0.05779350886630376,0.01697012545752339,0.010910144876712331,0.01279957285355361,0.024318049245038983,0.0727264247188602, ,1.2702739238739014
0.012744748247904223,0.020958153780642755,-0.08495084841450136, ,0.01314907518819737,0.020807980929353487,-0.08525754091273574, ,0.0005292376105157429, ,0.00578589979327437,0.0010185140881885484,-0.009052717069242693,0.00019420003626716533,0.007791595903790919,0.0013363166029825842, ,0.01079192724685489, ,0.007794011777210473, ,6.007057377996205e-05, ,0.165420938165889,-0.23635423961564112,0.09502453845000002,-4.528883399378757,0.15918152222673815,-1.4005596969131981, ,0.055625405368388496,0.01615542076242267,0.00985693782178218,0.01279957285355361,0.06393787732811732,-0.0050472846782780864, ,1.275221824645996
0.012744748247904223,0.020958153780642755,-0.08495084841450136, ,0.01318363307967799,0.020809777232490338,-0.08530023507499394, ,0.0005802641933920055, ,0.00578589979327437,0.0010185140881885484,-0.009052717069242693,0.00019420003626716533,0.007791595903790919,0.0013363166029825842, ,0.01079192724685489, ,0.007794011777210473, ,6.062085228347254e-05, ,0.165420938165889,-0.23635423961564112,0.09502453845000002,-4.528883399378757,0.15918152222673815,-1.4005596969131981, ,0.055625405368388496,0.01615542076242267,0.00985693782178218,0.01279957285355361,0.06393787732811732,-0.0050472846782780864, ,1.2800369262695312
0.012802887199054569,0.02096660122721853,-0.0850358680434542, ,0.013218174636589227,0.02081152123525519,-0.08534294484253521, ,0.000539267670285632, ,0.005604812674466581,0.0008302059908326987,-0.00852177699214396,0.007657609990632726,0.04294126851701514,0.011359768998217567, ,0.0102334671645005, ,0.043618705708413634, ,6.11104483292742e-05, ,0.1660233113300785,-0.2361843394924082,0.09511787133,-4.528883399378757,0.1601379777250962,-1.4008495497982298, ,0.05857835898671035,0.01746676634612015,0.00933146544815466,0.01279957285355361,0.10423838426900446,-0.00811359296702438, ,1.285064935684204
0.012802887199054569,0.02096660122721853,-0.0850358680434542, ,0.013252699820409178,0.020813213217265657,-0.08538567033371984, ,0.0005901024641554172, ,0.005604812674466581,0.0008302059908326987,-0.00852177699214396,0.007657609990632726,0.04294126851701514,0.011359768998217567, ,0.0102334671645005, ,0.043618705708413634, ,6.174963079853222e-05, ,0.1660233113300785,-0.2361843394924082,0.09511787133,-4.528883399378757,0.1601379777250962,-1.4008495497982298, ,0.05857835898671035,0.01746676634612015,0.00933146544815466,0.01279957285355361,0.10423838426900446,-0.00811359296702438, ,1.288769006729126
0.012802887199054569,0.02096660122721853,-0.0850358680434542, ,0.013287208592812077,0.02081485345766354,-0.08542841166623172, ,0.0006416269116857782, ,0.005604812674466581,0.0008302059908326987,-0.00852177699214396,0.007657609990632726,0.04294126851701514,0.011359768998217567, ,0.0102334671645005, ,0.043618705708413634, ,6.245552677957951e-05, ,0.1660233113300785,-0.2361843394924082,0.09511787133,-4.528883399378757,0.1601379777250962,-1.4008495497982298, ,0.05857835898671035,0.01746676634612015,0.00933146544815466,0.01279957285355361,0.10423838426900446,-0.00811359296702438, ,1.2920608520507812
0.012871190571308793,0.02097446298181456,-0.08513546537832536, ,0.013321700915668392,0.02081644223511464,-0.08547116895707892, ,0.0005836326066546889, ,0.006084579276197873,0.0004605206335953413,-0.007912693587279182,0.012245970597367213,-0.0058466708413610746,0.0013780756699067955, ,0.009992242192244582, ,0.013570089343119164, ,6.307878975932887e-05, ,0.16672608002163294,-0.23596038023905566,0.09522675969000001,-4.528673709435273,0.1612310697232197,-1.4011691418468173, ,0.06032863417576019,0.0191982483428021,0.008671100446379969,0.00992330625665433,0.05768113833297643,-0.02160475480303727, ,1.2953429222106934
0.012871190571308793,0.02097446298181456,-0.08513546537832536, ,0.013356176751044453,0.020817979827808034,-0.08551394232259411, ,0.0006347782048601148, ,0.006084579276197873,0.0004605206335953413,-0.007912693587279182,0.012245970597367213,-0.0058466708413610746,0.0013780756699067955, ,0.009992242192244582, ,0.013570089343119164, ,6.376797759854494e-05, ,0.16672608002163294,-0.23596038023905566,0.09522675969000001,-4.528673709435273,0.1612310697232197,-1.4011691418468173, ,0.06032863417576019,0.0191982483428021,0.008671100446379969,0.00992330625665433,0.05768113833297643,-0.02160475480303727, ,1.2986578941345215
0.012871190571308793,0.02097446298181456,-0.08513546537832536, ,0.013390636061202159,0.02081946651345823,-0.0855567318784357, ,0.0006865223858613073, ,0.006084579276197873,0.0004605206335953413,-0.007912693587279182,0.012245970597367213,-0.0058466708413610746,0.0013780756699067955, ,0.009992242192244582, ,0.013570089343119164, ,6.452336466701011e-05, ,0.16672608002163294,-0.23596038023905566,0.09522675969000001,-4.528673709435273,0.1612310697232197,-1.4011691418468173, ,0.06032863417576019,0.0191982483428021,0.008671100446379969,0.00992330625665433,0.05768113833297643,-0.02160475480303727, ,1.3019797801971436
0.012931671515056645,0.020978288629542954,-0.08520863876453814, ,0.013425078808598926,0.020820902569304314,-0.08559953773958912, ,0.0006488629577761843, ,0.007174887034636033,0.00046817471020167364,-0.008547275012697801,-0.06161510693834588,-0.03449843024295376,-0.004642057878081911, ,0.011169337565932408, ,0.07061560058962552, ,6.522392562178391e-05, ,0.16730528498719976,-0.23578275738294852,0.09530712967,-4.528673709435273,0.16150434272275063,-1.4009019052133667, ,0.06822210032959797,0.020598424475465765,0.009403076458087368,0.00992330625665433,0.026067003533961106,0.04708616553233498, ,1.3055109977722168
0.012931671515056645,0.020978288629542954,-0.08520863876453814, ,0.013459504955887346,0.020822288272110457,-0.08564236002036663, ,0.0007007555783122086, ,0.007174887034636033,0.00046817471020167364,-0.008547275012697801,-0.06161510693834588,-0.03449843024295376,-0.004642057878081911, ,0.011169337565932408, ,0.07061560058962552, ,6.599046826569338e-05, ,0.16730528498719976,-0.23578275738294852,0.09530712967,-4.528673709435273,0.16150434272275063,-1.4009019052133667, ,0.06822210032959797,0.020598424475465765,0.009403076458087368,0.00992330625665433,0.026067003533961106,0.04708616553233498, ,1.312403917312622
0.013012613164826735,0.020986022755237872,-0.08532282570648805, ,0.013493914465914936,0.020823623898166273,-0.08568519883440927, ,0.0006239700433889129, ,0.00739946749095774,0.0009934070587298738,-0.011506026814138664,0.04318455204494383,0.01629597808096978,0.012667568552014462, ,0.013715962590418242, ,0.0461569521878838, ,6.664997108989917e-05, ,0.16809300374037067,-0.23552018446522488,0.09543157351,-4.528464019491787,0.16232416172134326,-1.4009986614545613, ,0.07227489836898002,0.023843452652882107,0.012502991773940349,0.007131179462793347,0.0984156528913166,-0.052091262645990816, ,1.3163368701934814
0.013012613164826735,0.020986022755237872,-0.08532282570648805, ,0.013528307301724178,0.020824909723286843,-0.08572805429468643, ,0.0006753577278658318, ,0.00739946749095774,0.0009934070587298738,-0.011506026814138664,0.04318455204494383,0.01629597808096978,0.012667568552014462, ,0.013715962590418242, ,0.0461569521878838, ,6.737464727397141e-05, ,0.16809300374037067,-0.23552018446522488,0.09543157351,-4.528464019491787,0.16232416172134326,-1.4009986614545613, ,0.07227489836898002,0.023843452652882107,0.012502991773940349,0.007131179462793347,0.0984156528913166,-0.052091262645990816, ,1.3196899890899658
0.013012613164826735,0.020986022755237872,-0.08532282570648805, ,0.013562683426551826,0.020826146022814754,-0.08577092651349848, ,0.0007272772481303099, ,0.00739946749095774,0.0009934070587298738,-0.011506026814138664,0.04318455204494383,0.01629597808096978,0.012667568552014462, ,0.013715962590418242, ,0.0461569521878838, ,6.816468454541457e-05, ,0.16867993143881174,-0.23535028434199193,0.09553527671,-4.528044639604819,0.16328061721970133,-1.4014518718198739, ,0.0741382355925553,0.02004582626921647,0.013240907331670824,0.015659729979519695,0.10349606328845057,-0.024567877423511478, ,1.3232269287109375
0.013071690205782239,0.020997334364299194,-0.08541764510342646, ,0.013597042803829335,0.020827333071616768,-0.08581381560247531, ,0.0006795931548398208, ,0.007636097716183202,0.0015077431888574334,-0.012100455016168205,0.02183203822332846,0.025061354688889717,0.007346943578877755, ,0.014387643637960823, ,0.03323716492729474, ,6.88871097924212e-05, ,0.16867993143881174,-0.23535028434199193,0.09553527671,-4.528044639604819,0.16328061721970133,-1.4014518718198739, ,0.0741382355925553,0.02004582626921647,0.013240907331670824,0.015659729979519695,0.10349606328845057,-0.024567877423511478, ,1.3267369270324707
0.013071690205782239,0.020997334364299194,-0.08541764510342646, ,0.01363138539718184,0.02082847114408865,-0.08585672167257913, ,0.000731137283958757, ,0.007636097716183202,0.0015077431888574334,-0.012100455016168205,0.02183203822332846,0.025061354688889717,0.007346943578877755, ,0.014387643637960823, ,0.03323716492729474, ,6.967406345869961e-05, ,0.16867993143881174,-0.23535028434199193,0.09553527671,-4.528044639604819,0.16328061721970133,-1.4014518718198739, ,0.0741382355925553,0.02004582626921647,0.013240907331670824,0.015659729979519695,0.10349606328845057,-0.024567877423511478, ,1.3299999237060547
0.013071690205782239,0.020997334364299194,-0.08541764510342646, ,0.013665711170428727,0.02082956051415165,-0.08589964483410448, ,0.0007831556113612126, ,0.007636097716183202,0.0015077431888574334,-0.012100455016168205,0.02183203822332846,0.025061354688889717,0.007346943578877755, ,0.014387643637960823, ,0.03323716492729474, ,7.052566066034486e-05, ,0.16867993143881174,-0.23535028434199193,0.09553527671,-4.528044639604819,0.16328061721970133,-1.4014518718198739, ,0.0741382355925553,0.02004582626921647,0.013240907331670824,0.015659729979519695,0.10349606328845057,-0.024567877423511478, ,1.3332338333129883
0.013168819319235026,0.021012483995027795,-0.08556771291669589, ,0.013700020087582896,0.0208306014552552,-0.08594258519667873, ,0.0006751183161987469, ,0.0082483348683052,0.0012950066494395959,-0.01333406607277108,-0.032781958560657895,0.008255733756055428,-0.03496850042222132, ,0.0157324311012258, ,0.033805525072221315, ,7.123023453221566e-05, ,0.16959121391797025,-0.23506454322564563,0.09569860925000001,-4.52762525971785,0.16423707271805943,-1.4012516522640621, ,0.0749580896986341,0.025738253745177863,0.014428271304347828,0.05181034781607743,0.07063176941107151,0.026245397290128702, ,1.337007999420166
0.013168819319235026,0.021012483995027795,-0.08556771291669589, ,0.013734312112850706,0.02083159424037665,-0.08598554286926388, ,0.0007260062480667697, ,0.0082483348683052,0.0012950066494395959,-0.01333406607277108,-0.032781958560657895,0.008255733756055428,-0.03496850042222132, ,0.0157324311012258, ,0.033805525072221315, ,7.199805792563979e-05, ,0.16959121391797025,-0.23506454322564563,0.09569860925000001,-4.52762525971785,0.16423707271805943,-1.4012516522640621, ,0.0749580896986341,0.025738253745177863,0.014428271304347828,0.05181034781607743,0.07063176941107151,0.026245397290128702, ,1.340695858001709
0.013168819319235026,0.021012483995027795,-0.08556771291669589, ,0.013768587210631797,0.020832539142020427,-0.08602851796015631, ,0.0007774592990973459, ,0.0082483348683052,0.0012950066494395959,-0.01333406607277108,-0.032781958560657895,0.008255733756055428,-0.03496850042222132, ,0.0157324311012258, ,0.033805525072221315, ,7.282937443908606e-05, ,0.16959121391797025,-0.23506454322564563,0.09569860925000001,-4.52762525971785,0.16423707271805943,-1.4012516522640621, ,0.0749580896986341,0.025738253745177863,0.014428271304347828,0.05181034781607743,0.07063176941107151,0.026245397290128702, ,1.344066858291626
0.013225234823811388,0.021021025647992835,-0.08566006594853282, ,0.013802845345518856,0.02083343643221987,-0.08607151057698798, ,0.0007335600254553772, ,0.008521269784792876,0.0012191420581137173,-0.013394074788850654,-0.01733983720226737,0.006094502605979491,-0.025163960085467885, ,0.0159216703128915, ,0.018379675871182954, ,7.359887872779968e-05, ,0.17010863702054327,-0.23488692036953845,0.09579842358000001,-4.52762525971785,0.16478361871712116,-1.401125572697864, ,0.07842722442848825,0.02673906496434792,0.014520338669097542,0.04241088047943528,0.07678955358981242,0.008990639406283796, ,1.3472747802734375
0.013225234823811388,0.021021025647992835,-0.08566006594853282, ,0.013837086482297126,0.020834286382537717,-0.08611452082672845, ,0.0007847058312324907, ,0.008521269784792876,0.0012191420581137173,-0.013394074788850654,-0.01733983720226737,0.006094502605979491,-0.025163960085467885, ,0.0159216703128915, ,0.018379675871182954, ,7.443113469878779e-05, ,0.17010863702054327,-0.23488692036953845,0.09579842358000001,-4.52762525971785,0.16478361871712116,-1.401125572697864, ,0.07842722442848825,0.02673906496434792,0.014520338669097542,0.04241088047943528,0.07678955358981242,0.008990639406283796, ,1.3506247997283936
0.013225234823811388,0.021021025647992835,-0.08566006594853282, ,0.013871310585944837,0.02083508926406433,-0.08615754881568315, ,0.0008363464786754589, ,0.008521269784792876,0.0012191420581137173,-0.013394074788850654,-0.01733983720226737,0.006094502605979491,-0.025163960085467885, ,0.0159216703128915, ,0.018379675871182954, ,7.532629642961838e-05, ,0.17010863702054327,-0.23488692036953845,0.09579842358000001,-4.52762525971785,0.16478361871712116,-1.401125572697864, ,0.07842722442848825,0.02673906496434792,0.014520338669097542,0.04241088047943528,0.07678955358981242,0.008990639406283796, ,1.3539109230041504
0.013346499338248816,0.021032212015596328,-0.08583499744751108, ,0.013905517621632217,0.020835845347420005,-0.08620059464949675, ,0.0006962202407481045, ,0.008537095701164357,0.0005283910552291908,-0.010961161289204454,0.011879714135908138,0.016521408225320725,-0.00596673019828563, ,0.013903533972556741, ,0.020349063356104924, ,7.603482584246106e-05, ,0.1712824924174254,-0.23448533826007878,0.09598897821,-4.52762525971785,0.16614998371477557,-1.4011779281130008, ,0.0857244277854298,0.028150976433838855,0.012067281454545456,0.02804927931259805,0.10308521589648574,-0.020528883640864033, ,1.3582048416137695
0.013346499338248816,0.021032212015596328,-0.08583499744751108, ,0.013939707554721825,0.020836554902755048,-0.08624365843315271, ,0.000746445909012878, ,0.008537095701164357,0.0005283910552291908,-0.010961161289204454,0.011879714135908138,0.016521408225320725,-0.00596673019828563, ,0.013903533972556741, ,0.020349063356104924, ,7.680474327423302e-05, ,0.1712824924174254,-0.23448533826007878,0.09598897821,-4.52762525971785,0.16614998371477557,-1.4011779281130008, ,0.0857244277854298,0.028150976433838855,0.012067281454545456,0.02804927931259805,0.10308521589648574,-0.020528883640864033, ,1.3616399765014648
0.013346499338248816,0.021032212015596328,-0.08583499744751108, ,0.013973880350767907,0.020837218199749905,-0.0862867402709747, ,0.0007973086614597347, ,0.008537095701164357,0.0005283910552291908,-0.010961161289204454,0.011879714135908138,0.016521408225320725,-0.00596673019828563, ,0.013903533972556741, ,0.020349063356104924, ,7.773683113734493e-05, ,0.1712824924174254,-0.23448533826007878,0.09598897821,-4.52762525971785,0.16614998371477557,-1.4011779281130008, ,0.0857244277854298,0.028150976433838855,0.012067281454545456,0.02804927931259805,0.10308521589648574,-0.020528883640864033, ,1.364837884902954
0.013444980861041714,0.021038134841001047,-0.08595950912785602, ,0.014008035975516819,0.020837835507613527,-0.08632984026662581, ,0.0007030619014244668, ,0.008537095701164357,0.0005283910552291908,-0.010961161289204454,0.011879714135908138,0.016521408225320725,-0.00596673019828563, ,0.013903533972556741, ,0.020349063356104924, ,7.854474466484767e-05, ,0.17227872495820037,-0.2341687062122356,0.09612638495,-4.52762525971785,0.16737971221266457,-1.4012822231047224, ,0.0921329529693891,0.029416286905911585,0.013088587937551356,0.022420095594682724,0.1178096493371523,-0.010269492971504503, ,1.3676269054412842
0.013444980861041714,0.021038134841001047,-0.08595950912785602, ,0.014042174394905937,0.02083840709508799,-0.08637295852311239, ,0.0007533071696290989, ,0.00915195467595048,0.0006580305340725558,-0.01186773411792375,0.0016397320789950786,0.024300638009326556,0.0032969634118973513, ,0.015001146345134931, ,0.02435589237809922, ,7.941540585834994e-05, ,0.17227872495820037,-0.2341687062122356,0.09612638495,-4.52762525971785,0.16737971221266457,-1.4012822231047224, ,0.0921329529693891,0.029416286905911585,0.013088587937551356,0.022420095594682724,0.1178096493371523,-0.010269492971504503, ,1.370283842086792
0.013444980861041714,0.021038134841001047,-0.08595950912785602, ,0.014076295575064119,0.02083893323044438,-0.08641609514278176, ,0.0008041830256946022, ,0.00915195467595048,0.0006580305340725558,-0.01186773411792375,0.0016397320789950786,0.024300638009326556,0.0032969634118973513, ,0.015001146345134931, ,0.02435589237809922, ,8.034938474989149e-05, ,0.17227872495820037,-0.2341687062122356,0.09612638495,-4.52762525971785,0.16737971221266457,-1.4012822231047224, ,0.0921329529693891,0.029416286905911585,0.013088587937551356,0.022420095594682724,0.1178096493371523,-0.010269492971504503, ,1.372013807296753
0.013444980861041714,0.021038134841001047,-0.08595950912785602, ,0.014110399482311296,0.020839414181485907,-0.08645925022732534, ,0.0008555775876852127, ,0.00915195467595048,0.0006580305340725558,-0.01186773411792375,0.0016397320789950786,0.024300638009326556,0.0032969634118973513, ,0.015001146345134931, ,0.02435589237809922, ,8.134710444478895e-05, ,0.17227872495820037,-0.2341687062122356,0.09612638495,-4.52762525971785,0.16737971221266457,-1.4012822231047224, ,0.0921329529693891,0.029416286905911585,0.013088587937551356,0.022420095594682724,0.1178096493371523,-0.010269492971504503, ,1.3736848831176758
0.013444980861041714,0.021038134841001047,-0.08595950912785602, ,0.014144486083158133,0.020839850215546896,-0.08650242387777793, ,0.0009074033139362013, ,0.00915195467595048,0.0006580305340725558,-0.01186773411792375,0.0016397320789950786,0.024300638009326556,0.0032969634118973513, ,0.015001146345134931, ,0.02435589237809922, ,8.240887335159024e-05, ,0.17227872495820037,-0.2341687062122356,0.09612638495,-4.52762525971785,0.16737971221266457,-1.4012822231047224, ,0.0921329529693891,0.029416286905911585,0.013088587937551356,0.022420095594682724,0.1178096493371523,-0.010269492971504503, ,1.3754007816314697
0.013537228781451338,0.02104492648552311,-0.08607814309840506, ,0.01417855534430585,0.020840241599493905,-0.08654561619451949, ,0.0008195893840103008, ,0.009763231014522923,0.0006783270391242734,-0.012649594075427796,0.008207230365537742,0.01076597260633223,0.00876705228329591, ,0.015993531120051238, ,0.01353752091611252, ,8.335518979659502e-05, ,0.17319773017023307,-0.23387524236301505,0.09625731024,-4.5272058798308805,0.16847280421078806,-1.4013567789328882, ,0.09663639669905374,0.03113416717797598,0.013935968083989503,0.014381328071244242,0.11183636125856743,-0.020781954630736156, ,1.3772838115692139
0.013537228781451338,0.02104492648552311,-0.08607814309840506, ,0.014212607232646168,0.020840588599725485,-0.08658882727727568, ,0.0008710271835363893, ,0.009763231014522923,0.0006783270391242734,-0.012649594075427796,0.008207230365537742,0.01076597260633223,0.00876705228329591, ,0.015993531120051238, ,0.01353752091611252, ,0.0004634135213738303, ,0.17319773017023307,-0.23387524236301505,0.09625731024,-4.5272058798308805,0.16847280421078806,-1.4013567789328882, ,0.09663639669905374,0.03113416717797598,0.013935968083989503,0.014381328071244242,0.11183636125856743,-0.020781954630736156, ,1.3790209293365479
0.013537228781451338,0.02104492648552311,-0.08607814309840506, ,0.014246641715260782,0.02084089148217282,-0.08663205722511859, ,0.0009228856120999449, ,0.009763231014522923,0.0006783270391242734,-0.012649594075427796,0.008207230365537742,0.01076597260633223,0.00876705228329591, ,0.015993531120051238, ,0.01353752091611252, ,0.0004666266129173695, ,0.17319773017023307,-0.23387524236301505,0.09625731024,-4.5272058798308805,0.16847280421078806,-1.4013567789328882, ,0.09663639669905374,0.03113416717797598,0.013935968083989503,0.014381328071244242,0.11183636125856743,-0.020781954630736156, ,1.38075590133667
0.013537228781451338,0.02104492648552311,-0.08607814309840506, ,0.014280658759421461,0.020841150512300392,-0.08667530613646789, ,0.0009750981865617181, ,0.009763231014522923,0.0006783270391242734,-0.012649594075427796,0.008207230365537742,0.01076597260633223,0.00876705228329591, ,0.015993531120051238, ,0.01353752091611252, ,0.00047015766551212194, ,0.17319773017023307,-0.23387524236301505,0.09625731024,-4.5272058798308805,0.16847280421078806,-1.4013567789328882, ,0.09663639669905374,0.03113416717797598,0.013935968083989503,0.014381328071244242,0.11183636125856743,-0.020781954630736156, ,1.3824257850646973
0.013537228781451338,0.02104492648552311,-0.08607814309840506, ,0.01431465833258969,0.020841365955104232,-0.0867185741090906, ,0.0010276115394327295, ,0.009763231014522923,0.0006783270391242734,-0.012649594075427796,0.008207230365537742,0.01076597260633223,0.00876705228329591, ,0.015993531120051238, ,0.01353752091611252, ,0.0004740021749874365, ,0.17319773017023307,-0.23387524236301505,0.09625731024,-4.5272058798308805,0.16847280421078806,-1.4013567789328882, ,0.09663639669905374,0.03113416717797598,0.013935968083989503,0.014381328071244242,0.11183636125856743,-0.020781954630736156, ,1.3840649127960205
0.013537228781451338,0.02104492648552311,-0.08607814309840506, ,0.014348640402416383,0.02084153807511564,-0.08676186124010374, ,0.0010803824144316196, ,0.009763231014522923,0.0006783270391242734,-0.012649594075427796,0.008207230365537742,0.01076597260633223,0.00876705228329591, ,0.015993531120051238, ,0.01353752091611252, ,0.00047815546429869803, ,0.17319773017023307,-0.23387524236301505,0.09625731024,-4.5272058798308805,0.16847280421078806,-1.4013567789328882, ,0.09663639669905374,0.03113416717797598,0.013935968083989503,0.014381328071244242,0.11183636125856743,-0.020781954630736156, ,1.385788917541504
0.013652403784344262,0.02105449327863384,-0.0862338448730849, ,0.014382604936741638,0.02084166713639955,-0.08680516762597386, ,0.0009512614665534412, ,0.011420334582273152,0.0013429375217206573,-0.016763889448448553,0.025355898586609218,0.043740262345098216,-0.046453007420651796, ,0.0203286869373827, ,0.0505581924043497, ,0.0004813738724773017, ,0.17432524916986986,-0.23349682845217806,0.09642842052000002,-4.526367120056943,0.1698391692084425,-1.4014091343480253, ,0.10996169357876104,0.036696419782857995,0.01835116534562212,0.07968985138221116,0.14546346925366854,-0.027572811797815414, ,1.3875398635864258
0.013652403784344262,0.02105449327863384,-0.0862338448730849, ,0.014416551903594886,0.020841753402553405,-0.08684849336251754, ,0.0010034806269135512, ,0.011420334582273152,0.0013429375217206573,-0.016763889448448553,0.025355898586609218,0.043740262345098216,-0.046453007420651796, ,0.0203286869373827, ,0.0505581924043497, ,0.0004849016208180872, ,0.17432524916986986,-0.23349682845217806,0.09642842052000002,-4.526367120056943,0.1698391692084425,-1.4014091343480253, ,0.10996169357876104,0.036696419782857995,0.01835116534562212,0.07968985138221116,0.14546346925366854,-0.027572811797815414, ,1.3894338607788086
0.013652403784344262,0.02105449327863384,-0.0862338448730849, ,0.01445048127119411,0.020841797136710645,-0.0868918385449037, ,0.001055993842765749, ,0.011420334582273152,0.0013429375217206573,-0.016763889448448553,0.025355898586609218,0.043740262345098216,-0.046453007420651796, ,0.0203286869373827, ,0.0505581924043497, ,0.0004887344545224339, ,0.17432524916986986,-0.23349682845217806,0.09642842052000002,-4.526367120056943,0.1698391692084425,-1.4014091343480253, ,0.10996169357876104,0.036696419782857995,0.01835116534562212,0.07968985138221116,0.14546346925366854,-0.027572811797815414, ,1.3912758827209473
0.013652403784344262,0.02105449327863384,-0.0862338448730849, ,0.014484393007945953,0.020841798601539455,-0.0869352032676535, ,0.0011087599792044586, ,0.011420334582273152,0.0013429375217206573,-0.016763889448448553,0.025355898586609218,0.043740262345098216,-0.046453007420651796, ,0.0203286869373827, ,0.0505581924043497, ,0.000492867958020314, ,0.17432524916986986,-0.23349682845217806,0.09642842052000002,-4.526367120056943,0.1698391692084425,-1.4014091343480253, ,0.10996169357876104,0.036696419782857995,0.01835116534562212,0.07968985138221116,0.14546346925366854,-0.027572811797815414, ,1.39296293258667
0.013652403784344262,0.02105449327863384,-0.0862338448730849, ,0.014518287082445586,0.020841758059241815,-0.08697858762464043, ,0.0011617452067880915, ,0.011420334582273152,0.0013429375217206573,-0.016763889448448553,0.025355898586609218,0.043740262345098216,-0.046453007420651796, ,0.0203286869373827, ,0.0505581924043497, ,0.0004972976086744053, ,0.17432524916986986,-0.23349682845217806,0.09642842052000002,-4.526367120056943,0.1698391692084425,-1.4014091343480253, ,0.10996169357876104,0.036696419782857995,0.01835116534562212,0.07968985138221116,0.14546346925366854,-0.027572811797815414, ,1.394636869430542
0.013652403784344262,0.02105449327863384,-0.0862338448730849, ,0.014552163463476188,0.020841675771556763,-0.08702199170909286, ,0.0012149214816684437, ,0.011420334582273152,0.0013429375217206573,-0.016763889448448553,0.025355898586609218,0.043740262345098216,-0.046453007420651796, ,0.0203286869373827, ,0.0505581924043497, ,0.0005020188183651556, ,0.17432524916986986,-0.23349682845217806,0.09642842052000002,-4.526367120056943,0.1698391692084425,-1.4014091343480253, ,0.10996169357876104,0.036696419782857995,0.01835116534562212,0.07968985138221116,0.14546346925366854,-0.027572811797815414, ,1.396317958831787
0.013773880823175228,0.021073558975129515,-0.08643680794907693, ,0.014586022120008991,0.020841551999757797,-0.08706541561359349, ,0.001052876212350207, ,0.012671740077965662,0.002392764640104169,-0.022637760556055028,0.05561592919036199,0.07143933573304835,-0.012392779252721049, ,0.02605314802897598, ,0.09053565222869411, ,0.0005056191934892409, ,0.17546821363525508,-0.2331029690755926,0.09664878982000001,-4.526157430113458,0.1716154437053932,-1.4018774222143917, ,0.11658100928559063,0.04102764442648974,0.024505863876923082,0.05451353334423232,0.1921333649313289,-0.059953379694738185, ,1.3980038166046143
0.013773880823175228,0.021073558975129515,-0.08643680794907693, ,0.014619863021202946,0.020841387004654495,-0.08710885943008075, ,0.001105098591245813, ,0.012671740077965662,0.002392764640104169,-0.022637760556055028,0.05561592919036199,0.07143933573304835,-0.012392779252721049, ,0.02605314802897598, ,0.09053565222869411, ,0.0005095119168512965, ,0.17546821363525508,-0.2331029690755926,0.09664878982000001,-4.526157430113458,0.1716154437053932,-1.4018774222143917, ,0.11658100928559063,0.04102764442648974,0.024505863876923082,0.05451353334423232,0.1921333649313289,-0.059953379694738185, ,1.399702787399292
0.013773880823175228,0.021073558975129515,-0.08643680794907693, ,0.014653686136404396,0.020841181046593892,-0.0871523232498495, ,0.0011575919127639266, ,0.012671740077965662,0.002392764640104169,-0.022637760556055028,0.05561592919036199,0.07143933573304835,-0.012392779252721049, ,0.02605314802897598, ,0.09053565222869411, ,0.000513693078115249, ,0.17546821363525508,-0.2331029690755926,0.09664878982000001,-4.526157430113458,0.1716154437053932,-1.4018774222143917, ,0.11658100928559063,0.04102764442648974,0.024505863876923082,0.05451353334423232,0.1921333649313289,-0.059953379694738185, ,1.4013338088989258
0.013773880823175228,0.021073558975129515,-0.08643680794907693, ,0.014687491435147103,0.02084093438545872,-0.08719580716355234, ,0.001210321592636194, ,0.012671740077965662,0.002392764640104169,-0.022637760556055028,0.05561592919036199,0.07143933573304835,-0.012392779252721049, ,0.02605314802897598, ,0.09053565222869411, ,0.0005181586455160243, ,0.17546821363525508,-0.2331029690755926,0.09664878982000001,-4.526157430113458,0.1716154437053932,-1.4018774222143917, ,0.11658100928559063,0.04102764442648974,0.024505863876923082,0.05451353334423232,0.1921333649313289,-0.059953379694738185, ,1.4029958248138428
0.013773880823175228,0.021073558975129515,-0.08643680794907693, ,0.01472127888715188,0.020840647280668718,-0.08723931126119927, ,0.0012632586888720106, ,0.012671740077965662,0.002392764640104169,-0.022637760556055028,0.05561592919036199,0.07143933573304835,-0.012392779252721049, ,0.02605314802897598, ,0.09053565222869411, ,0.0005229045056647885, ,0.17546821363525508,-0.2331029690755926,0.09664878982000001,-4.526157430113458,0.1716154437053932,-1.4018774222143917, ,0.11658100928559063,0.04102764442648974,0.024505863876923082,0.05451353334423232,0.1921333649313289,-0.059953379694738185, ,1.4046218395233154
0.013773880823175228,0.021073558975129515,-0.08643680794907693, ,0.014755048462326236,0.02084031999118195,-0.08728283563215998, ,0.001316378820967933, ,0.012671740077965662,0.002392764640104169,-0.022637760556055028,0.05561592919036199,0.07143933573304835,-0.012392779252721049, ,0.02605314802897598, ,0.09053565222869411, ,0.0005279264950021502, ,0.17546821363525508,-0.2331029690755926,0.09664878982000001,-4.526157430113458,0.1716154437053932,-1.4018774222143917, ,0.11658100928559063,0.04102764442648974,0.024505863876923082,0.05451353334423232,0.1921333649313289,-0.059953379694738185, ,1.4063658714294434
0.013897308159423276,0.021097600255637564,-0.08665971771736847, ,0.014788800130764513,0.020839952775492665,-0.08732638036516321, ,0.001142619466382227, ,0.014253226022285608,0.0029387149729434418,-0.02596718753274633,0.02050311645030197,0.06456959697660924,0.008007205898505555, ,0.029767185390886016, ,0.06774657800438295, ,0.0005317924885328426, ,0.17658800990201765,-0.23271683243188138,0.09688989976000001,-4.526157430113458,0.17339171820234395,-1.4021823526004775, ,0.12754965263235318,0.043751471442356284,0.028093142010582012,0.034990015317293545,0.19677660605792086,-0.029864271849065774, ,1.4082138538360596
0.013897308159423276,0.021097600255637564,-0.08665971771736847, ,0.01482253386274733,0.020839545891633678,-0.0873699455482986, ,0.001194595424694349, ,0.014253226022285608,0.0029387149729434418,-0.02596718753274633,0.02050311645030197,0.06456959697660924,0.008007205898505555, ,0.029767185390886016, ,0.06774657800438295, ,0.000535935006883852, ,0.17658800990201765,-0.23271683243188138,0.09688989976000001,-4.526157430113458,0.17339171820234395,-1.4021823526004775, ,0.12754965263235318,0.043751471442356284,0.028093142010582012,0.034990015317293545,0.19677660605792086,-0.029864271849065774, ,1.4100828170776367
0.013897308159423276,0.021097600255637564,-0.08665971771736847, ,0.01485624962874147,0.020839099597177085,-0.08741353126901782, ,0.0012468465032444281, ,0.014253226022285608,0.0029387149729434418,-0.02596718753274633,0.02050311645030197,0.06456959697660924,0.008007205898505555, ,0.029767185390886016, ,0.06774657800438295, ,0.0005403506062401288, ,0.17658800990201765,-0.23271683243188138,0.09688989976000001,-4.526157430113458,0.17339171820234395,-1.4021823526004775, ,0.12754965263235318,0.043751471442356284,0.028093142010582012,0.034990015317293545,0.19677660605792086,-0.029864271849065774, ,1.4118738174438477
