NicholasDascanio/dvrk_moveit_final/test/execution/third_experiment_notsharpbends/old_data/thirdexp_600vel3.0.csv
Current Position (x),Current Position (y),Current Position (z), ,Planned Position (x),Planned Position (y),Planned Position (z), ,Position Error,,Cartesian linear Velocity(x),Cartesian linear Velocity(y),Cartesian linear Velocity(z),Cartesian Angular Velocity(x),Cartesian Angular Velocity(y),Cartesian Angular Velocity(z), ,Total Linear Velocity, ,Total Angular Velocity, ,MSE, ,Joint 1 Position,Joint 2 Position,Joint 3 Position,Joint 4 Position,Joint 5 Position,Joint 6 Position, ,Joint 1 Velocity,Joint 2 Velocity,Joint 3 Velocity,Joint 4 Velocity,Joint 5 Velocity,Joint 6 Velocity, ,Time Stamp
0.007975271470381216,0.02007695854375807,-0.07335282336567442, ,0.007988452769080296,0.020095629916061754,-0.07340874429654325, ,6.041123478570355e-05, ,9.690631398909023e-05,1.82429619993325e-05,1.083168656102672e-05,-0.11544350300528461,0.02876644767131416,0.10716977685116905, ,9.920163701883937e-05, ,0.11897357226610292, ,5.0342695654752954e-06, ,0.1871295402753341,-0.2200592732510274,0.08571976883000001,-4.165700417263561,0.8442769320506565,-1.3846808078983401, ,0.001049118605987412,0.00020275739662154992,4.524178582730436e-06,0.005673008404838015,0.0,0.1643949965353, ,0.0209958553314209
0.007969210348876325,0.020082371197212033,-0.07336017404872962, ,0.008045145900286745,0.02009860784460589,-0.0735827176652065, ,0.00023570213813457365, ,-0.0012810828490130192,0.001092666537440478,-0.0007893103348049382,-0.2079952224502961,0.33415641077893915,0.41936490462095494, ,0.001859597868547757, ,0.3936019809741955, ,1.345969876910351e-05, ,0.18714498574108254,-0.22004382778527895,0.08573791689,-4.165700417263561,0.8459165700478418,-1.3741744054223157, ,0.0011721940401861557,0.0001936038973964219,0.0028122901694915257,0.005189152685251753,0.2846709578022605,0.5129942112829742, ,0.0421450138092041
0.007948221725341513,0.020110746989290742,-0.07341412338142995, ,0.008101763021396573,0.020101579188564932,-0.07375623412159772, ,0.0003750983027188384, ,-0.00014524020198953817,0.001462316945010055,-0.004510493977588374,0.03365309485777105,0.22742566957462393,0.1467565803216087, ,0.004743840373136357, ,0.2299020790969609, ,2.0975364863722363e-05, ,0.18721449033695056,-0.21998204592228515,0.08583902751000001,-4.165700417263561,0.8528850315358792,-1.3671148350489057, ,0.0039550768852143914,0.0044883922339669395,0.006308440205940595,0.004758808727448837,0.2523278192241858,0.11799626742287617, ,0.06104087829589844
0.007978018722788574,0.020139452987821875,-0.07355288468664646, ,0.008158304148976926,0.020104543943578662,-0.07392929430065451, ,0.00041881460550412686, ,0.0027081476932512426,0.0014190021731898057,-0.009661140147039738,0.4046752480501226,-0.17515896867578573,-0.46206394651965915, ,0.010133373576293457, ,0.44095659719276925, ,2.5953006693886724e-05, ,0.18734577679581238,-0.21987392766204603,0.08599198973000001,-4.165490727320076,0.8542513965335337,-1.3733747747147254, ,0.006604751387542642,0.00732262661717472,0.009498396851520574,0.0,-0.07330223612510212,-0.6363320992648985, ,0.08128499984741211
0.008091373948113316,0.020168425811355653,-0.0738873458185369, ,0.008214769299713027,0.02010750210534946,-0.07410189883684037, ,0.00025489430831832435, ,0.0027310072524736003,0.001047784654022918,-0.009950033546895231,0.01187702801481303,-0.06498712755566578,-0.03760729893279535, ,0.010371085810010918, ,0.0660635333968333, ,2.5863857489645512e-05, ,0.18758518151491335,-0.2195881865456997,0.08629143272,-4.166329487094014,0.8475562080450271,-1.383515936800448, ,0.00931465328391744,0.011837623589086172,0.009863041188854489,-0.026851703907543135,-0.04515906587255153,-0.07062716564388949, ,0.10606884956359863
0.008134097483365682,0.020181378322066033,-0.07404468141228007, ,0.00827115849040599,0.020110453669635917,-0.07427404836414438, ,0.00027645112512116575, ,0.0018896530708039142,0.0004999823724153468,-0.006631346069599736,-0.13308210287898106,0.06815191762539666,0.12723668170324262, ,0.006913430537404756, ,0.14951765771937103, ,2.6151156686818262e-05, ,0.1877936953025174,-0.21929472269647918,0.08645346897,-4.166539177037499,0.8479661175443234,-1.3805830409059148, ,0.010458403493357665,0.016535448955997695,0.007010920563380283,0.02282859169167086,0.04648140855130703,0.2026631127787737, ,0.1257338523864746
0.008157283432857921,0.020186581950721066,-0.07414484109279916, ,0.00832747173797446,0.02011339863225856,-0.07444574351608184, ,0.0003533583530030291, ,0.001750635567245458,0.0004038946520101288,-0.006516844040306104,-0.08577042883769151,0.07497414571342989,0.10131874679970587, ,0.006759963907070835, ,0.11391966018517653, ,2.7426806494246685e-05, ,0.18797131815862456,-0.21900125884725866,0.08656494991000001,-4.166539177037499,0.8497423920412741,-1.3787643240483458, ,0.010679694435263279,0.01769804952601096,0.006998599086115994,0.01633332428611897,0.06819113714969474,0.14715049591394863, ,0.1488969326019287
0.008204009242754925,0.020194253073179912,-0.07431659667126367, ,0.008383709059453964,0.020116336989097865,-0.07461698492569509, ,0.0003586029052875948, ,0.002031875772529277,0.00013664528854880675,-0.007247451433651053,0.033326114819030014,-0.011167387091168018,-0.04646002104691358, ,0.007528130137889802, ,0.03514741019449257, ,2.8455280156992146e-05, ,0.1882030001448513,-0.21855334034055363,0.08674254164,-4.166329487094014,0.8505622110398667,-1.3786977228092592, ,0.00938448840691243,0.01966368453345851,0.0073067942752293585,0.0,0.01159969873780333,-0.06685864811900152, ,0.16803288459777832
0.00824884503412831,0.020195855561428316,-0.07447670768775765, ,0.008439870471995958,0.02011926873609238,-0.07478777322555305, ,0.0003729852926477234, ,0.0025034956417752273,0.00026636950999850206,-0.008675525435616692,0.031829730393366264,-0.02161848049370739,-0.040784921345434245, ,0.00903344810846205, ,0.038477141092163235, ,2.941650288609869e-05, ,0.18841151393245537,-0.21814403549821973,0.08690198531000001,-4.166748866980983,0.8505622110398667,-1.379841225171227, ,0.012197550328852285,0.020980973150225686,0.008737691453647835,-0.011890110917141903,0.00677360918715754,-0.07288686645185771, ,0.188215970993042
0.008299440774506863,0.02020031085063246,-0.07465824824472551, ,0.008495955992868566,0.020122193869240804,-0.07495810904775232, ,0.00036692914169002153, ,0.002715508015982121,0.0006719526133332769,-0.008976378957678404,0.030709543361647083,-0.009980760067289204,-0.07871783913506168, ,0.009402174391664951, ,0.03229073499819273, ,3.0129876541285304e-05, ,0.1886509186515563,-0.2177270079230116,0.08708346591,-4.167377936811437,0.8505622110398667,-1.3807396913127734, ,0.011699251522462293,0.020324896457158015,0.009143979058553388,0.03706208711462796,0.004610206343252682,-0.05910737354171757, ,0.2082979679107666
0.008354306307092284,0.02020874452809461,-0.0748435844835138, ,0.008551965639455757,0.02012511238460057,-0.07512799302391747, ,0.0003563029117904108, ,0.0026827217676118355,0.000587116896934194,-0.008749096715297024,-0.006560651372304318,-0.006274340912620762,-0.030936982163604836, ,0.009169972500869629, ,0.009077965028148142, ,3.062098499108493e-05, ,0.18890576883640572,-0.21730225761492925,0.08727013167000001,-4.167377936811437,0.8505622110398667,-1.3812297637536166, ,0.012387017564087036,0.019506051707804888,0.008893808777219432,0.022531988349023417,0.003489004632793781,-0.009651887842819772, ,0.23069095611572266
0.008393970459982525,0.020213365121212253,-0.07496794745192219, ,0.008607899429257927,0.020128024278289358,-0.075297425785201, ,0.0004020007903800837, ,0.0025579526819598094,0.00016702076901350894,-0.007927285145658205,-0.0244177263586367,-0.008962975209610464,0.0031178344371965926, ,0.0083314385097053, ,0.026010771880659877, ,3.140615663427537e-05, ,0.189122005356884,-0.2169779028342118,0.08739716809,-4.167168246867953,0.8508354840393977,-1.3815342783011502, ,0.013869766378028468,0.02071985623547397,0.00798436667669173,0.0,0.004117680116114228,0.008535164805329891, ,0.24990606307983398
0.008457271031087874,0.020220346596950933,-0.07515804996680567, ,0.008663757379890532,0.020130929546482174,-0.07546640796228418, ,0.00038172853512923646, ,0.0027734848051912536,0.0003831982914235774,-0.007943452430251524,0.0032668755324318337,0.00014318676840320002,-0.006507543679240978, ,0.00842243999128789, ,0.003270007120616898, ,3.1918785185688124e-05, ,0.18950041926772102,-0.21650681612888412,0.08759161159000001,-4.167168246867953,0.851245393538694,-1.3818685320122392, ,0.01795250502430397,0.018821289480061638,0.008210727587628867,0.0,0.024612922309924002,-0.014267026969569543, ,0.26891088485717773
0.008522439555923491,0.020227865784574323,-0.07536209611779857, ,0.008719539509085147,0.020133828185414062,-0.07563494018537727, ,0.000349478678612936, ,0.0031278310714525285,0.0005299047095811719,-0.00973892779399285,-0.02022300322388919,-0.016529265881074194,0.011612048955193325, ,0.010246680759910833, ,0.020284997405918766, ,3.213210086706879e-05, ,0.1897166557881993,-0.21625968867690895,0.08770049995000001,-4.167587626754922,0.8513820300384595,-1.3819799499159358, ,0.017418675029087883,0.020884010026071917,0.009918313524283935,-0.00804132945364961,0.008682247756495834,-0.0024896690983311374, ,0.2889070510864258
0.008583286283130894,0.020238824349866916,-0.07554773057448812, ,0.008775245834689017,0.02013672019137974,-0.07580302308421931, ,0.0003353326619039976, ,0.0027838867793980853,0.00023996744170152684,-0.008622268294402274,0.009980903427007543,0.00363307980126862,0.002325775961140781, ,0.009063725531713708, ,0.010621565534643471, ,3.2224282796235304e-05, ,0.1902495243565208,-0.21564959277984522,0.08799086891,-4.1677973166984055,0.8520652125372866,-1.3826187181745584, ,0.017550756715086144,0.02154300602916476,0.008893808777219432,-0.014625012886880557,0.03423831508053909,-0.024940075408872494, ,0.30835700035095215
0.008634040391005522,0.020243838579556656,-0.0756872047113322, ,0.00883087637466348,0.020139605560729714,-0.07597065728807981, ,0.00036049173352690664, ,0.002698217323271419,0.00020888410800938022,-0.007525503791936554,-0.0008803560815108761,-0.00590241273287525,0.005409274969302624, ,0.00799732559151072, ,0.005967702972062279, ,3.2460387151572056e-05, ,0.19055843367148978,-0.21531751526625356,0.08813216452000001,-4.1677973166984055,0.8520652125372866,-1.382700396914699, ,0.0181377946403805,0.01845167053441003,0.007736188207867897,-0.01316297580620207,0.02086707573604202,-0.013852050550000827, ,0.3285069465637207
0.008671052668244476,0.020245099551990744,-0.07578664046533037, ,0.008886431147086536,0.020142484289876653,-0.07613784342575755, ,0.0004245719027207014, ,0.002712160183458305,-1.91376269874711e-05,-0.007724532763025077,-0.024837214298414227,-0.01822338301884982,0.008860020210663046, ,0.008186854433575275, ,0.03080550073047438, ,3.304159663532194e-05, ,0.19079783839059072,-0.2150472196156557,0.08823327514000001,-4.1677973166984055,0.852201849037052,-1.3828118148183952, ,0.016282934378598284,0.021111666642596394,0.007739947288629739,-0.011383169121962135,0.0,0.0028317562289214286, ,0.3479290008544922
0.008752502926213167,0.020247424279832078,-0.07604023721453207, ,0.00894191017014998,0.020145356375289452,-0.0763045821255817, ,0.0003408389549204955, ,0.0027172943674686565,0.0003058167118082144,-0.00868402357151872,-0.003995791421896101,-0.003923302316868953,0.0021996170795337087, ,0.009104365872008375, ,0.005599875067420777, ,3.309886580327401e-05, ,0.19129981602741533,-0.2143830645884724,0.08849253314000001,-4.16842638652886,0.8530216680356447,-1.3834803222405738, ,0.015036751950320199,0.02033360650492196,0.008869048730512249,-0.010175591945164906,0.01853260469075753,-0.012860673497518404, ,0.3713078498840332
0.008781200030206233,0.020249970436329787,-0.07612634383098421, ,0.008997313462160724,0.02014822181349582,-0.07647087401541225, ,0.000419236026245092, ,0.0028386795781994074,0.00024315628416472548,-0.008633528684216449,-0.009649076296190235,-0.00859036867152661,0.0025319084359232144, ,0.009091481962111753, ,0.012918941880647301, ,3.3734186400214456e-05, ,0.1914542706848998,-0.21417455080086834,0.08857938457,-4.16842638652886,0.8530216680356447,-1.3834803222405738, ,0.016294117712649513,0.020842728214028283,0.008785886111417542,-0.009193832221675202,0.013360847624549442,-0.008772693797742204, ,0.3880808353424072
0.008836553962867,0.020256679281510384,-0.07629608825900931, ,0.009052641041540365,0.020151080601082314,-0.07663671972263983, ,0.0004169826146169727, ,0.0028480439696749547,0.00030120310190063154,-0.009086191007135811,-0.008942291156614341,-0.006661569773952176,0.0005490421773774999, ,0.009526853876277946, ,0.011150830509505674, ,3.430106108528967e-05, ,0.19177862546561725,-0.21376524595853444,0.08875438372000001,-4.16842638652886,0.8535682140347064,-1.3839259938553596, ,0.015343078667497297,0.021426268132416073,0.009196773394919169,-0.0076568631888506,0.014119623757968007,-0.009617992736742036, ,0.40573883056640625
0.008897857785607345,0.020269025288124125,-0.07650170933213617, ,0.009107892926824762,0.020153932734693195,-0.0768021198741866, ,0.0003841972802825483, ,0.0030738513006266367,0.0008725974191351659,-0.0106996632614783,0.006384259453792202,0.003700376510509842,-0.009815119895824108, ,0.01116659222785868, ,0.0073791201955086365, ,3.466224639875829e-05, ,0.19207981204771202,-0.21335594111620054,0.08896438270000001,-4.168636076472344,0.8538414870342373,-1.3841488296627524, ,0.014397958057725804,0.019618966623624307,0.011046332538141471,0.0,0.025592855716962126,-0.01915543187432378, ,0.42355799674987793
0.008957065139708295,0.02027819993104526,-0.07670344341866038, ,0.009163069136664374,0.020156778211031397,-0.07696707509650605, ,0.0003559249112056177, ,0.0028459780495083166,0.0003356243339199955,-0.009072479193555909,-0.008130627685654585,-0.007660609796763175,0.0016058518194716665, ,0.0095143109823732, ,0.01117103341485071, ,3.486391930525734e-05, ,0.19238099862980676,-0.21293119080811818,0.08917049281000002,-4.169055456359313,0.8542513965335337,-1.3844014046337012, ,0.01507976188756885,0.020567174156582307,0.009239449837587009,-0.009466797999721215,0.013439523195900697,-0.01057529846595356, ,0.4418940544128418
0.008981269527385012,0.020280289184794402,-0.07678340089557362, ,0.00921816968982364,0.020159617026857736,-0.07713158601558331, ,0.0004380825658031906, ,0.002574555836635723,0.00025145652381378407,-0.007958400997677688,0.02935561649705678,0.017767280805948586,-0.02138522065093621, ,0.008368256364330673, ,0.03431367737848619, ,3.541152852136251e-05, ,0.19252773055441702,-0.21273812248626256,0.08925345537000001,-4.169265146302798,0.8546613060328301,-1.3847356583447905, ,0.015932998918480656,0.02083815141819736,0.00832661344485102,0.004530558869907747,0.04693660527793986,-0.037903303410241604, ,0.45986390113830566
0.009040391335041184,0.02028148203135664,-0.07695000944949858, ,0.009273194605180685,0.020162449178990093,-0.07729565325693606, ,0.0004334003047415203, ,0.0029096847847808207,0.00012631416890749407,-0.008057630433340474,-0.0058200642052659585,-0.007159593903192252,-0.012286868396007766, ,0.008567825220926627, ,0.00922674906164932, ,3.589753084360513e-05, ,0.19287525353375712,-0.21229020397955756,0.08942197307000001,-4.169265146302798,0.8547979425325954,-1.3849287549886273, ,0.017671683716661224,0.02139728107293591,0.008219200990712074,0.004530558869907747,0.013712430243015683,-0.011110415799586814, ,0.4775278568267822
0.009105394283344514,0.020291079314057287,-0.07714009841129506, ,0.009328143901727932,0.020165274664305524,-0.07745927744561405, ,0.0004090470123811302, ,0.003297125013408199,0.0004174720297524768,-0.009893460415979676,-0.008372423705097599,-0.011930290157601975,0.005402519826409589, ,0.010436755973587982, ,0.014574951360362408, ,3.6248425679477306e-05, ,0.1932459447117199,-0.21185773093860097,0.08961771286,-4.169055456359313,0.8552078520318918,-1.385181329959576, ,0.01884745611886212,0.02129644110378608,0.010113531123809524,-0.014316149210581797,0.014330993857618166,-0.01194548788584058, ,0.4982328414916992
0.009154574568827789,0.02029003343706074,-0.07728911566974297, ,0.009383017598571321,0.020168093479738112,-0.07762245920620002, ,0.0004221060107697336, ,0.0028504607590452563,-7.300107184689679e-05,-0.008258792489693583,0.003988602627048233,-0.0026704537947344334,0.006562882835275458, ,0.008737168253110775, ,0.004800024579526609, ,3.6625867331660136e-05, ,0.1935548540266889,-0.21147159429488974,0.08976937879,-4.169684526189767,0.8556177615311881,-1.3855155836706654, ,0.01838019398769529,0.02289984110966959,0.008454783184713377,-0.020088213873283127,0.028672631169610944,-0.0236286373784801, ,0.517117977142334
0.009193332854410242,0.020292426606740854,-0.07739947684039643, ,0.009437815714930232,0.020170905622279783,-0.07778519916280933, ,0.00047256843817592293, ,0.0030784787642577248,0.00013168124108040686,-0.00887929579175354,-0.005744974441890612,-0.01055052542542814,0.009773056383113295, ,0.009398737426308406, ,0.012013253634902028, ,3.71693488228806e-05, ,0.19377109054716718,-0.21120129864429188,0.08988085973000001,-4.169684526189767,0.8556177615311881,-1.3855155836706654, ,0.018983184948683895,0.021641263753357075,0.009065914354012522,-0.020088213873283127,0.018217903111188514,-0.015096263010032446, ,0.5344429016113281
0.009257068431176806,0.020297681939862283,-0.07757729125193492, ,0.009492538270137511,0.020173711088979897,-0.07794749793909071, ,0.00045592522209628536, ,0.002794224840205272,0.0001972831337557743,-0.008695464210711091,0.033345157097258944,0.01610651690328843,-0.0028397969349964825, ,0.009135519193359627, ,0.037031329153630096, ,3.7615676332771626e-05, ,0.1941881181223753,-0.21075338013758688,0.09006622920000001,-4.169684526189767,0.8564375805297808,-1.3862657698329846, ,0.018075607915899194,0.02168081826787087,0.009107382229845628,-0.01825193709745213,0.05478276212097088,-0.04555851382459559, ,0.5517139434814453
0.009319910617005702,0.020302994261627672,-0.07776413445208663, ,0.009547185283639174,0.020176509876945452,-0.07810935615822653, ,0.00043223847590414855, ,0.003011077304704827,0.0005025238706177536,-0.009439343065974605,-0.0016958476939089482,-0.005610128063732375,-0.002380349293963163, ,0.009920701300443029, ,0.0058608328207899255, ,3.794911899792894e-05, ,0.19454336383458962,-0.2103209070966303,0.09025678383,-4.169894216133251,0.8567108535293115,-1.3864886056403773, ,0.015903626874220006,0.0192879962517217,0.009689058102189783,-0.007101690766893012,0.017123675265044023,-0.014839547183973657, ,0.5690779685974121
0.00938569135444459,0.02031333955458377,-0.07797211394433089, ,0.009601756774994502,0.020179301983341003,-0.07827077444293279, ,0.0003922351716600736, ,0.0036226752034631887,0.0007233902579350304,-0.011095282287262167,-0.012207263765002627,-0.014842818351176849,0.001813291758239642, ,0.011694116389411213, ,0.0192178660908632, ,3.8123922793372776e-05, ,0.19489088681392971,-0.2099116022542964,0.09046937539000001,-4.170313596020221,0.8569841265288425,-1.3867931201879107, ,0.018926394407353563,0.020500527448362667,0.011361491811697575,-0.009085851738696644,0.008739940105848523,-0.00778529319160867, ,0.5862319469451904
0.00945466299498544,0.020324754147898083,-0.07817667808581714, ,0.009656252763875467,0.02018208740538789,-0.07843175341545972, ,0.00035504317784161094, ,0.003127408109700276,0.00026107268026136834,-0.009010458921816794,0.011356922537249549,0.0013270815238656162,-0.006535052195392087, ,0.009541342170300034, ,0.011434193259481357, ,3.816381534421309e-05, ,0.1952924689233894,-0.20947912921333983,0.09068196695000001,-4.170313596020221,0.8576673090276697,-1.3873502097063928, ,0.019206019339905032,0.021465039936320013,0.00932600206088993,-0.007428503120219586,0.03183799119876555,-0.026609014822059848, ,0.6055140495300293
0.009483760291243263,0.020325414722474223,-0.07825494777549592, ,0.009710673270066765,0.02018486614036466,-0.0785922936975916, ,0.0004301693562379224, ,0.002673946471999936,-1.5345972195378207e-05,-0.0072733702650824746,0.00133685291183121,-0.004174204923862844,-0.003682830343862623, ,0.007749331600013606, ,0.0043830516879141, ,3.844529267583648e-05, ,0.19546236904662234,-0.20927833815861,0.09076104064000001,-4.170313596020221,0.8576673090276697,-1.3873502097063928, ,0.017040212167080404,0.019823885848855395,0.007457308764044945,-0.00673546666103469,0.020626850107830615,-0.01744816896598388, ,0.6224968433380127
0.009543318976633571,0.02032586427781078,-0.07841687054696446, ,0.009765018313466716,0.02018763818560886,-0.07875239591064728, ,0.0004252461853940153, ,0.0032178737442480577,0.00016299474637700942,-0.008672670230110386,-0.005502148255659557,-0.009540246221909611,-0.008749163102489023, ,0.009251836987404742, ,0.011013168678349615, ,3.869525656009985e-05, ,0.19584078295745935,-0.20885358785052763,0.09092696576,-4.170523285963705,0.8580772185269661,-1.3876844634174823, ,0.01958657204509201,0.021592023107729414,0.008878936187290971,0.0,0.014560130268887746,-0.012465257563764822, ,0.640207052230835
0.009600745629529997,0.020328879017611934,-0.07859400591736483, ,0.009819287914084473,0.020190403538511797,-0.0789120606754807, ,0.0004099939238701581, ,0.002890710414868365,0.0003426083702328159,-0.009129726890912968,0.014847845078201381,0.0055293034412484555,-0.002199856562858168, ,0.009582562303509505, ,0.015843977927986246, ,3.888463267920801e-05, ,0.19618058320392523,-0.2084288375424453,0.09110974265,-4.170942665850673,0.8587604010257932,-1.3882415529359644, ,0.01619678128664803,0.02022526461177979,0.009458914204275535,-0.012609285006085658,0.035027705092944686,-0.029123741579257834, ,0.659019947052002
0.00965950632114424,0.020332776025679802,-0.07877164167052034, ,0.00987348209204311,0.020193162196524627,-0.07907128861248043, ,0.00039378413077366685, ,0.0032385532112890365,0.00032373001070269453,-0.009469740116785233,-0.01901324655480588,-0.014401328749377716,-0.014005460022362621, ,0.010013441261705773, ,0.023851661119257808, ,3.9015445922971574e-05, ,0.1964894925188942,-0.2080195327001114,0.09128992696,-4.171152355794158,0.8588970375255587,-1.3883529708396605, ,0.016333380646896864,0.02168081826787087,0.009601453598553349,0.009802389612075633,0.0,-0.0005342630829611845, ,0.675961971282959
0.009694696794595545,0.020337333748261646,-0.07887718064016445, ,0.009927600867577458,0.020195914157154514,-0.07923008034157071, ,0.00044584975856570516, ,0.0033872596322346753,0.0005647587567292277,-0.010015093177435484,-0.004297790734974957,-0.006568755725190847,-0.017519512297261692, ,0.010587472390622028, ,0.007849806126390878, ,3.9290767856863906e-05, ,0.1966825608407498,-0.20778785071388467,0.09139881532000001,-4.171152355794158,0.8591703105250895,-1.3885758066470535, ,0.017622458970932363,0.020634255611757076,0.010289929922480621,0.009802389612075633,0.013075882906881676,-0.011182251904248774, ,0.6929459571838379
0.00976063271197344,0.020347101439982817,-0.07907829357714627, ,0.009981644261033899,0.020198659417964508,-0.07938843648221129, ,0.00040874167915831537, ,0.0030062807907517753,0.0002931514017565127,-0.008867315506061457,0.011160677165397306,0.005185758934473808,-0.022056817649606545, ,0.009367654253933206, ,0.012306614306703004, ,3.9558993812271304e-05, ,0.19704552928583838,-0.20735537767292808,0.09160751801000001,-4.171152355794158,0.8598534930239167,-1.3891328961655356, ,0.01664274667809028,0.021349143207754953,0.009170300241796202,0.009802389612075633,0.02851860202198684,-0.02374995800847305, ,0.7094039916992188
0.00981761083395978,0.02035144763460657,-0.07924787840637475, ,0.010035612292871093,0.020201397976574956,-0.07954635765339729, ,0.0003989102616704801, ,0.002975335600184528,0.00023528701516491052,-0.008948331164047495,-0.0018607030472692402,-0.005556816282153855,0.0012487570020236942, ,0.009432953542485738, ,0.005860065328165969, ,3.978798912108327e-05, ,0.1973389931350589,-0.20696151829634263,0.09177992458,-4.171152355794158,0.8599901295236821,-1.389244314069232, ,0.015005841486159199,0.021621540569257414,0.009458914204275535,-0.007874591020533494,0.0,-0.00047429567563381404, ,0.7249510288238525
0.009848547232715669,0.020352021842290836,-0.07934819551497209, ,0.010089504983660203,0.0202041298306638,-0.07970384447366033, ,0.00045433343114872026, ,0.0030546088916921575,0.00020112157077121758,-0.009405916842972878,-0.010393248821940728,-0.01028342752462688,0.005962959539118896, ,0.009891529559393488, ,0.014620821765802167, ,4.0157634550920376e-05, ,0.19750889325829182,-0.2067298363101159,0.09188233149000001,-4.171571735681128,0.860263402523213,-1.3895488286167654, ,0.015855796417455437,0.021306003942180237,0.009572603076923078,-0.014582713100278913,0.012387935620808846,-0.010564408230327013, ,0.742851972579956
0.009884709224939595,0.02035680857993879,-0.07946554174180177, ,0.010143322354083134,0.020206854977964202,-0.07986089756106787, ,0.0004956541709076341, ,0.002914084664126329,0.00034376246646903566,-0.00987199097752829,0.031133057185009635,0.014806495561680653,0.013256972804235451, ,0.010298847893014494, ,0.03447462061780842, ,4.0621445972463646e-05, ,0.1977174070458959,-0.2064749861252665,0.09200547904,-4.171781425624612,0.8609465850220402,-1.3901059181352475, ,0.01656431167018167,0.020742500887097438,0.010316587772020727,-0.03482533591196432,0.055261958174943886,-0.04551338162868848, ,0.7578580379486084
0.009951816557073466,0.020358628633803687,-0.07965951469240581, ,0.010197064424933927,0.020209573416266575,-0.08001751753322395, ,0.0004588354918693537, ,0.0030183313385075197,0.00028094059866395075,-0.008858458392103896,0.002529796131416681,0.0030646492730856244,-0.03130445292645564, ,0.009362773989242195, ,0.003973900990721624, ,4.09700499414471e-05, ,0.19807265275811023,-0.20601162215281302,0.09220121883000001,-4.171991115568097,0.8609465850220402,-1.3901875968753878, ,0.015390357048081537,0.021820405049085025,0.009107382229845628,0.023198521884756695,0.01935235878099494,-0.01464456391534126, ,0.7737679481506348
0.010009440655049866,0.020364951354323223,-0.07983061511631472, ,0.010250731217117505,0.020212285143416966,-0.0801737050072696, ,0.000446361714947446, ,0.0034000144438965365,0.00041750331690535857,-0.009991527446591257,-0.01174501798171209,-0.010987254766177394,-0.0059949303962930495, ,0.010562434755032499, ,0.01608306920679441, ,4.1272604317507996e-05, ,0.19837383934020497,-0.20561776277622756,0.09237751427,-4.171781425624612,0.8613564945213367,-1.3905218505864774, ,0.01758327618278132,0.020976335446169492,0.010217326183450932,0.0,0.00917404958825625,-0.006371688765134527, ,0.7928009033203125
0.010049759707652966,0.020370385341016872,-0.07995080379319204, ,0.010304322751651138,0.020214990157319274,-0.08032946059988255, ,0.00048200724448817234, ,0.0030690920823037743,0.0003540604656830837,-0.009234859839049097,0.026910947816125175,0.014976317450768118,-0.016398883736269878, ,0.009737932083861613, ,0.03079755070751692, ,4.1652170342378265e-05, ,0.19860552132643172,-0.20535518985850393,0.09250325440000001,-4.171781425624612,0.8619030405203983,-1.3910492009414037, ,0.017701350785015998,0.021046117001213303,0.009671409544626596,0.0,0.046433807024818974,-0.036360334403171934, ,0.8095409870147705
0.010125421265677179,0.02037318268811627,-0.08017062650958798, ,0.01035783904966213,0.020217688455932133,-0.0804847849272776, ,0.0004205852992678887, ,0.003204484774667787,0.000208020236451218,-0.008786112933396387,-0.008043742288788864,-0.010862566398673681,0.0018078023259000225, ,0.00935455907930706, ,0.013516548613308853, ,4.186630744171372e-05, ,0.19901482616876562,-0.20485321222167935,0.09272621628000001,-4.172200805511581,0.8620396770201638,-1.3911606188451002, ,0.01866580282424681,0.019778437173503707,0.009009508778280545,-0.00896578576422976,0.013439428185323695,-0.009564477374426466, ,0.8254239559173584
0.01014853684198244,0.020374586072294764,-0.08023895270399169, ,0.010411280132389107,0.02022038003727054,-0.08063967860520682, ,0.0005033833388147607, ,0.00329593888689149,0.00021046840078763009,-0.009410187964752913,-0.023495887054338256,-0.01977488575017266,0.008677431366912321, ,0.009972920716913084, ,0.030709977875498777, ,4.227124224767778e-05, ,0.19914611262762744,-0.2047064802970691,0.09279621594000001,-4.172410495455066,0.8621763135199292,-1.3912720367487963, ,0.017515123949514724,0.020544910491117296,0.009538210491017966,-0.012291779205000073,0.0,0.0013792230029461016, ,0.8449568748474121
0.010218593301507723,0.020379301696333917,-0.08044320489044104, ,0.010464646021182262,0.020223064899406704,-0.08079414224896014, ,0.00045618955180678426, ,0.0028828958734690947,0.0003682542514392405,-0.007799215889227987,0.0201938995209412,0.011030136251449493,-0.03398349159423897, ,0.008323128516234415, ,0.023009942519054125, ,4.254959039349231e-05, ,0.1995476947370871,-0.2042353935917414,0.09300751121,-4.17262018539855,0.8628594960187564,-1.3918291262672784, ,0.016900612922256593,0.01824941183816746,0.00818541188078109,0.022704977941839843,0.03305932602977061,-0.02566349110854832, ,0.8607800006866455
0.01028176748277723,0.020378492305431862,-0.08061663185837602, ,0.010517936737501407,0.020225743040467193,-0.08094817647336512, ,0.00043477590383149493, ,0.0032709870342364803,0.0003514470047109728,-0.009104432590778892,-3.716447601007046e-05,-0.001477675965989795,-0.026847011238583934, ,0.00968057663444179, ,0.0014781220867695483, ,4.276806071914869e-05, ,0.199887494983553,-0.20378747508503636,0.09318251036000001,-4.17262018539855,0.8628594960187564,-1.3919108050074191, ,0.017437879742460635,0.02083815141819736,0.009386453459045376,0.01967414669760083,0.016792043883903242,-0.012263542283383456, ,0.8760769367218018
0.010344636448551988,0.02038327662567753,-0.08079215246485975, ,0.010571152302917827,0.02022841445863558,-0.08110178189278727, ,0.0004137174225225915, ,0.0030072498132503677,8.09815839982982e-05,-0.008804583147263635,0.020450859455686705,0.010083203126543722,-0.00971511025992513, ,0.009304342741608353, ,0.02280150400426761, ,4.2930726484533695e-05, ,0.20025046342864153,-0.20336272477695402,0.09336528725000001,-4.172410495455066,0.8635426785175836,-1.3923862157857607, ,0.01761264691137171,0.022099893236718855,0.009159753605520415,-0.006781495514508717,0.04158412294744423,-0.033788386665765266, ,0.8927969932556152
0.010378760578323756,0.02038554703960599,-0.08089144978750827, ,0.010624292739113212,0.020231079152151384,-0.08125495912113041, ,0.00046506494800945957, ,0.003227043182615801,0.00032165263252048436,-0.00969752200991383,0.007899835083553181,0.0014770740294387612,-0.006362286576984, ,0.010225419367988662, ,0.008036731690930641, ,4.320219777054528e-05, ,0.20043580901762292,-0.20313104279072727,0.09346769416,-4.172410495455066,0.8638159515171145,-1.3926090515931537, ,0.017185248380744436,0.021022804953139296,0.010024425122718693,-0.006143541049912605,0.028463964183137107,-0.02308977693708521, ,0.908735990524292
0.010441655886616762,0.02038969697047395,-0.08108322019165866, ,0.010677358067879545,0.02023373711930939,-0.08140770877183684, ,0.00043031596774156247, ,0.0033056728656197043,0.00024639998784168195,-0.010052486579371436,-0.01821480186971858,-0.015135229116453484,0.007313923227772764, ,0.01058492666374905, ,0.02368235767208625, ,4.338793984417949e-05, ,0.20076788653121458,-0.20273718341414182,0.09366343395000001,-4.173039565285519,0.8640892245166454,-1.3928318874005465, ,0.016051580101229836,0.02132994865328631,0.010210776615384616,-0.013509926227649306,0.005172880690840936,-0.004097460081890631, ,0.9265909194946289
0.010441655886616762,0.02038969697047395,-0.08108322019165866, ,0.010730348311118782,0.020236388358460186,-0.08156003145788751, ,0.0005780967307338823, ,0.0033056728656197043,0.00024639998784168195,-0.010052486579371436,-0.01821480186971858,-0.015135229116453484,0.007313923227772764, ,0.01058492666374905, ,0.02368235767208625, ,4.3885770042413214e-05, ,0.20076788653121458,-0.20273718341414182,0.09366343395000001,-4.173039565285519,0.8640892245166454,-1.3928318874005465, ,0.016051580101229836,0.02132994865328631,0.010210776615384616,-0.013509926227649306,0.005172880690840936,-0.004097460081890631, ,0.9436290264129639
0.010546301295916207,0.0204017672197561,-0.08139949953157562, ,0.010783263490843404,0.02023903286801027,-0.08171192779180168, ,0.000424552669112723, ,0.003033748296151003,0.00021705873977092134,-0.00934705884997403,0.005137118889547637,0.0002783125116267303,0.0012765987039757422, ,0.009829458396360805, ,0.005144645468116505, ,4.4041419425407736e-05, ,0.20130075509953607,-0.2020653056540843,0.09399009903000001,-4.173039565285519,0.864909043515238,-1.393500394822725, ,0.015721825970588268,0.02051382221324487,0.009630478548972188,-0.013509926227649306,0.026739560651305855,-0.021683641482992302, ,0.9606750011444092
0.010608403433063324,0.020408106504742222,-0.08157418412724324, ,0.010836103629175923,0.020241670646421725,-0.0818633983856385, ,0.00040397173354545093, ,0.0030383648093343933,0.0002607064830107683,-0.00859666873368083,-0.011635553944663913,-0.013231550369225891,0.005468339958704825, ,0.009121531773859642, ,0.017619874966096807, ,4.414900354653729e-05, ,0.2016251098802535,-0.20170233720899575,0.09416898705000001,-4.173039565285519,0.8650456800150035,-1.3936118127264214, ,0.016271766385197322,0.01762573208738313,0.008795588912203204,-0.011570951310836478,0.007637195176985783,-0.006106943306112024, ,0.9765238761901855
0.010648900590386482,0.020410254816403395,-0.08169450045187514, ,0.010888868748347904,0.020244301692211152,-0.08201444385099568, ,0.00043299992483298715, ,0.0031800007678281,0.0003134341636669419,-0.009640315819806707,0.01087912806074427,0.0037260463697668224,-0.006084120074048575, ,0.010156098412478897, ,0.011499511539535509, ,4.431254431797313e-05, ,0.201849069133606,-0.2014320415583979,0.09429343089000002,-4.1732492552290035,0.8654555895142998,-1.3939460664375107, ,0.016948909012050508,0.021567486717834268,0.009967967158948689,-0.007181745926860881,0.020055328318025985,-0.01623309821181396, ,0.9919888973236084
0.010679841151589577,0.02041440306109655,-0.08179004599531822, ,0.010941558870702259,0.02024692600395262,-0.08216506479901081, ,0.0004870152279858981, ,0.00282790736620455,0.0005857047579436054,-0.009299923786868438,0.04036324515752707,0.022721128323447554,-0.009935287922353039, ,0.009738002494191154, ,0.04631890718023491, ,4.466977142455916e-05, ,0.20201896925683896,-0.2012466959694165,0.09439324522,-4.173458945172489,0.8658654990135961,-1.3942803201486, ,0.014916212128021184,0.017172808823465578,0.00984475372064277,-0.010112169150613543,0.05667543559902235,-0.046094340218092764, ,1.0065560340881348
0.010735957790279426,0.020424629954630593,-0.08195641839174077, ,0.010994174018689355,0.020249543580272554,-0.08231526184036045, ,0.0004754991900280768, ,0.003370351157183672,0.0006851234273314382,-0.01036258014386587,0.0036608399510642234,-0.0027982151428958685,-0.0010154343530304137, ,0.010918412351228125, ,0.004607780120736239, ,4.4994095707539567e-05, ,0.20228926490743682,-0.20095323212019597,0.0945643555,-4.173458945172489,0.8660021355133616,-1.3943100593121558, ,0.01651817955761023,0.017498975024611983,0.010740938314227916,-0.008733195741690706,0.02195847172329355,-0.01728566704315075, ,1.0243868827819824
0.010808252117841153,0.020437209075489415,-0.08217411582175785, ,0.011046714214870738,0.020252154419855162,-0.08246503558526178, ,0.0004955275263969662, ,0.003243194442383317,0.0004773181434347304,-0.009295883551191278,0.019815553788820467,0.006945189560639683,-0.014019863015633398, ,0.00985841686403025, ,0.020997422712700917, ,4.534884788130026e-05, ,0.2026676788182738,-0.20055937274361052,0.09479120625000001,-4.173668635115973,0.8666853180121887,-1.3948671488306377, ,0.018003593541732265,0.01835175818187406,0.009736437359413203,-0.00033875994736952094,0.03588085170842986,-0.029750476981020815, ,1.0391719341278076
0.010843718458887576,0.020442443579212065,-0.08227100608448612, ,0.011099179481917455,0.020254758521439806,-0.08261438664347193, ,0.0004673288173094542, ,0.0029864122756909145,0.0004986023448859204,-0.008468377546184114,0.031178418590732906,0.013758880422104297,-0.01611968676652595, ,0.008993368714972073, ,0.034079327058165784, ,4.563932633506063e-05, ,0.20286846987300364,-0.20037402715462913,0.09489231687,-4.173668635115973,0.8669585910117197,-1.3950899846380307, ,0.01748929995548669,0.016370008893991855,0.008968925405405406,-0.0004475322059476613,0.044914726785688405,-0.03711699635974744, ,1.0523159503936768
0.010843718458887576,0.020442443579212065,-0.08227100608448612, ,0.011151569842608322,0.020257355883819,-0.08276331562428746, ,0.0006094248209780271, ,0.0029864122756909145,0.0004986023448859204,-0.008468377546184114,0.031178418590732906,0.013758880422104297,-0.01611968676652595, ,0.008993368714972073, ,0.034079327058165784, ,4.619372315462584e-05, ,0.2030383699962366,-0.20021957249714464,0.09497139056000001,-4.173878325059457,0.867095227511485,-1.3952014025417268, ,0.019932144834797473,0.01845884877620517,0.008844426163242644,-0.0010861157704118445,0.019651097242442503,-0.0165162004647739, ,1.0662260055541992
0.010945729753474399,0.020453410911924378,-0.08255537538050302, ,0.011203885319832246,0.020259946505841786,-0.08291182313654599, ,0.0004807575019180694, ,0.0036030454720133893,0.0006162669185449125,-0.011056377353616455,-0.009108846324468498,-0.011776784018267754,0.005943865127634274, ,0.011644964653181726, ,0.014888369889114251, ,4.6490707003372415e-05, ,0.20342450663994782,-0.1998257131205592,0.09518527841,-4.174088015002941,0.867368500511016,-1.3954242383491198, ,0.016879569825412805,0.018968007507189844,0.011361491811697575,-0.013939753157672414,0.011366236781154388,-0.009760452281830739, ,1.080448865890503
0.010984366286465885,0.02046274662164837,-0.0826802541269171, ,0.011256125936587447,0.020262530386412382,-0.08305990978862594, ,0.0005080140448391643, ,0.003800351448395818,0.0008343532455684171,-0.01227013380753833,0.04520612742841876,0.023597919785377102,-0.010981085796483311, ,0.012872256994195301, ,0.05099466145727792, ,4.6830705319602505e-05, ,0.2036175749618034,-0.1996094766000809,0.09531749999000001,-4.174088015002941,0.8680516830098431,-1.3959813278676019, ,0.019426190697742228,0.021191813657541487,0.012960790496338487,-0.012939532229213731,0.06524250718773293,-0.053692938242663385, ,1.09391188621521
0.011033558091748965,0.020473295389419714,-0.08283299970921461, ,0.011308291715979866,0.020265107524488544,-0.08320757618844572, ,0.0005090464518890418, ,0.004161159676643003,0.0009830607006408787,-0.012763775442924582,0.010329483574964247,-0.001177213461498578,-0.001497358966893615, ,0.013460892308947014, ,0.01039633222326712, ,4.716385148624189e-05, ,0.20384153421515594,-0.1993546264152315,0.09547564737000001,-4.174088015002941,0.868324956009374,-1.3961224849348544, ,0.020233889458096115,0.0195583144184812,0.013296169883138568,-0.011642107941987183,0.030490523577086294,-0.024766688968860757, ,1.108048915863037
0.011120535090643204,0.020485071267986342,-0.0830788262095622, ,0.01136038268122533,0.020267677919084213,-0.08335482294346551, ,0.00042539503050721065, ,0.004123022406155526,0.00043883240576677554,-0.01103099400859089,-0.008237061295970073,-0.013915518819260087,-0.005029978212932711, ,0.011784511719183773, ,0.01617067343897623, ,4.7336715497319055e-05, ,0.2042740072561125,-0.19891443064140069,0.09572712763,-4.174297704946426,0.868324956009374,-1.3961224849348544, ,0.022450187262472384,0.021665968392344925,0.011377722514285715,-0.0032079673134562223,0.013079000426353647,-0.010592587768472748, ,1.1222808361053467
0.011158578309331708,0.02048451307642967,-0.08318030700177849, ,0.011412398855647831,0.020270241569267575,-0.083501650660686, ,0.00046216760556512326, ,0.00379413528086068,-0.0002735023467419444,-0.009438385188635864,-0.02670266670035435,-0.02412003050931245,0.005533515317353144, ,0.010176118171100704, ,0.035983443495296925, ,4.757114309065935e-05, ,0.20449024377659078,-0.19867502592229974,0.09583083083,-4.174507394889911,0.8684615925091395,-1.3962339028385509, ,0.021951640425276607,0.024999194298859533,0.009543925416417017,-0.011023314113200866,0.0,4.216470713040059e-05, ,1.1374149322509766
0.011226256908243517,0.020482402662511483,-0.08335770072469408, ,0.011464340262679873,0.020272798474161514,-0.08364805994664992, ,0.0004300303212662118, ,0.0031555895341826355,-0.0004181088813892943,-0.008240983475620816,0.014288474850976587,0.007032518585836275,-0.004792680110495051, ,0.008834385603447188, ,0.015925350646606034, ,4.774288170947634e-05, ,0.20489182588605045,-0.19820393921697205,0.09601490401000001,-4.174507394889911,0.8691447750079667,-1.3968726710971735, ,0.01975373471242106,0.02502556475698069,0.008536340578778135,-0.01091722009653124,0.04075695738755848,-0.030954938225077774, ,1.151190996170044
0.011265147054248269,0.020477800481879985,-0.08345556778651145, ,0.011516206925862348,0.020275348632943585,-0.08379405140744108, ,0.000467534995385668, ,0.0035597086152161467,-0.00021522261235033937,-0.009356879844312169,0.002552361501889904,-0.002025172613761696,-0.002536242442283256, ,0.010013443294841504, ,0.003258189931447505, ,4.797598454762203e-05, ,0.20510806240652876,-0.19791819810062575,0.09611342205000001,-4.174507394889911,0.8691447750079667,-1.3968726710971735, ,0.020976335446169492,0.024999194298859533,0.009642137723970946,-0.0098412467561518,0.029273444014592885,-0.02161889138555612, ,1.1648468971252441
0.011300461368095888,0.020475696819379496,-0.08354926410522429, ,0.011567998868843942,0.02027789204484525,-0.08393962564868462, ,0.000512918295391962, ,0.0035884417963704973,-2.8432050014074183e-05,-0.00988862031111415,-0.004807337166279199,-0.0048981260670933465,-0.0040765707439050424, ,0.010519626160885474, ,0.0068630922364290555, ,4.828183325843137e-05, ,0.20530113072838438,-0.197686516114399,0.09620805122000001,-4.174717084833396,0.8691447750079667,-1.3966276348767517, ,0.019276242445352584,0.024103871363594303,0.010152206195028681,-0.00490801521170812,0.02110952712230565,-0.013988695684313919, ,1.1805980205535889
0.0113743899785658,0.020472842105883047,-0.08374516528470577, ,0.011619716115382903,0.020280428709154148,-0.08408478327554866, ,0.00046102950919710213, ,0.003807966593129317,-0.00021054769116949696,-0.010177999473239694,-0.030940577497772057,-0.008518003847685255,0.011776853926951148, ,0.010869066803636512, ,0.03209167518566641, ,4.849182758673868e-05, ,0.20571043557071828,-0.19717681574470017,0.09640897617000001,-4.174717084833396,0.8695546845072629,-1.3964718161469976, ,0.02048724990467849,0.026500123305911973,0.010363572882238128,-0.004512432037678431,0.012376485516218491,0.013933226199950594, ,1.1941330432891846
0.011411973735111717,0.02047306105693263,-0.08385306185548994, ,0.01167135868934403,0.02028295862521073,-0.08422952489274227, ,0.0004951200939630002, ,0.0034735739860267557,0.0003894677194822487,-0.010562055122383274,0.03264159714208098,0.03531836956624162,-0.003887194289822952, ,0.011125394813182284, ,0.04809221310523267, ,4.875435254602338e-05, ,0.20592667209119656,-0.19692196555985078,0.09652175340000001,-4.17492677477688,0.8701012305063248,-1.3968358090216428, ,0.019078597016178284,0.022546196616410257,0.01121747290140845,-0.0026378232811975237,0.07155696097723714,-0.03081912386690537, ,1.207352876663208
0.011488079569590852,0.02048136603367283,-0.08408109727390994, ,0.011722926614700572,0.02028548179241029,-0.08437385110451778, ,0.00042335396054286574, ,0.0038221711852334545,0.0004516309776893439,-0.011418954020551425,-0.017609601223816853,0.023740320029304828,0.02653712503612194, ,0.012050123403214803, ,0.02955842783722174, ,4.889114170055788e-05, ,0.2063128087349078,-0.1964508788545231,0.09676027076,-4.17492677477688,0.8710576860046828,-1.3970439831665338, ,0.01947003314699852,0.022916431190164403,0.011949596039009755,-0.0026378232811975237,0.04705546381299883,0.02345145345948616, ,1.2218708992004395
0.0115268613169391,0.020485303043996626,-0.08419289540634482, ,0.01177441991553355,0.020287998210202385,-0.08451776251466907, ,0.0004536001490824026, ,0.003880011440743112,0.00043095288325533504,-0.011943033214711464,-0.021941499917582624,0.0071672955324588,0.015395875215633324, ,0.012564881676147404, ,0.02308244573049803, ,4.9074604891955736e-05, ,0.20649043159101493,-0.19623464233404478,0.09687434428000001,-4.17492677477688,0.8710576860046828,-1.396390553245409, ,0.017619187069898026,0.02359446582756608,0.012328801486068113,-0.0026378232811975237,0.02686151110445189,0.015321641011068303, ,1.2349839210510254
0.01157112959328995,0.020488620220048367,-0.08432151970127458, ,0.01182583861603163,0.020290507878090856,-0.08466125972653289, ,0.00046855999729429734, ,0.004037799029017621,0.00046602804573392224,-0.011174780240214179,-0.031495172875458,-0.002598291260080928,0.02448128623300923, ,0.011891035133882477, ,0.031602165395243145, ,4.927824945718473e-05, ,0.206698945378619,-0.1959875148820696,0.09700526957000001,-4.175136464720365,0.8710576860046828,-1.3957371233242846, ,0.020884010026071917,0.02089320597940792,0.011559369753265604,-0.006767576891403326,0.017987519362367102,0.025506978167139926, ,1.2478389739990234
0.011607389427080301,0.020493441606337166,-0.08442756252682665, ,0.011877182740491212,0.020293010795633958,-0.08480434334298942, ,0.0005049007083265636, ,0.0039050229379908514,0.00028927553539525886,-0.011212156081448437,-0.018369454629888073,-0.014178585039846033,0.0022461318365572876, ,0.011876250606836067, ,0.023204933956790828, ,4.9615719153287084e-05, ,0.20687656823472617,-0.19578672382733978,0.09711545422000001,-4.175136464720365,0.8713309590042138,-1.3957966016513965, ,0.018578101323114875,0.022508762229238796,0.011467826868250543,-0.006767576891403326,0.007260515250672502,-0.0023080631700475376, ,1.2596089839935303
0.011646989823205806,0.02049794753265244,-0.08454655186398868, ,0.011928452313315498,0.0202955069624431,-0.08494701396646073, ,0.0005296916209661665, ,0.0032437645135859495,0.00040393620280224025,-0.010458471916593576,0.05528674737710498,0.04160477760960726,-0.014106120740472971, ,0.010957408795226647, ,0.06919235384318519, ,4.998632187860089e-05, ,0.20708508202233022,-0.19553959637536458,0.09724119435,-4.175136464720365,0.8720141415030409,-1.3962720124297379, ,0.017185248380744436,0.02184552061659088,0.011170274558204768,-0.006430980882886048,0.08272874830457874,-0.055570964761146015, ,1.2709040641784668
0.01168186784426823,0.020502699660959738,-0.08465228100787979, ,0.011979647359015869,0.020297996378184868,-0.08508927219891287, ,0.0005670426566164609, ,0.0038485365322716795,0.0005090983812821084,-0.011286912615837325,-0.003792749313306871,0.0035773242351364747,0.005297985756698452, ,0.011935862390275852, ,0.00521363720044172, ,5.040898758326047e-05, ,0.20744032773454454,-0.19511484606728224,0.09746545252000001,-4.175346154663849,0.8725606875021027,-1.3966360053043831, ,0.0181447306995164,0.022498089511254336,0.011626869722627739,-0.003008621215453277,0.01728943429097646,0.005346044956630857, ,1.2844898700714111
0.01175991027026458,0.020508125089908423,-0.08487627119545427, ,0.012030767902210443,0.020300479042579252,-0.0852311186418549, ,0.0004923387532703443, ,0.004029812946760651,0.00038949456160939955,-0.01163528597354932,-0.022126379814348427,-0.008516794244156783,0.006044672597722741, ,0.012319536439561215, ,0.023708906652098898, ,5.070661270515825e-05, ,0.20762567332352594,-0.19489088681392971,0.09758082233000001,-4.175346154663849,0.8725606875021027,-1.3965543265642426, ,0.018877450081255374,0.022524790305832133,0.011949596039009755,-0.003008621215453277,0.011561237437468116,0.006870414031855417, ,1.2958910465240479
0.011801221756598926,0.020513213489357075,-0.08499540459797694, ,0.012081813967624467,0.020302954955400222,-0.08537255389633938, ,0.0005149584772048775, ,0.004262808302092083,0.0006797513442592458,-0.012308845238053917,-0.021483776684096643,-0.01177275511148586,0.0055018208226422635, ,0.013043821050779945, ,0.024497961976108283, ,5.103381581226062e-05, ,0.20781101891250733,-0.19467465029345143,0.09770267359000001,-4.175346154663849,0.8725606875021027,-1.3965543265642426, ,0.01969633490213175,0.020674714936486007,0.012682174777070065,-0.003008621215453277,0.008714439728104824,0.006644016096017934, ,1.307908058166504
0.011840858962811684,0.020518273901416757,-0.08511024191922865, ,0.012132785580089286,0.02030542411647445,-0.08551357856296223, ,0.0005414855759883091, ,0.00425834546174593,0.00046062112461578897,-0.012091649767395483,-0.018807177427050133,-0.01784851466850694,0.0011628342162587112, ,0.01282784751972714, ,0.025928346267433722, ,5.139578916782176e-05, ,0.20801180996723717,-0.1944738592387216,0.09782193227000001,-4.1755558446073335,0.8728339605016335,-1.3966954836314946, ,0.020033131002421527,0.022198114984437606,0.012395962272373542,-0.0067416660897140135,0.004740233356377256,-0.0029194258816204145, ,1.3196709156036377
0.011887769120757376,0.020523381360666726,-0.08524282036773716, ,0.012183682764545355,0.020307886525685097,-0.08565419324186413, ,0.0005506637359143279, ,0.004490930554626547,0.0004634799247968184,-0.0123653337110083,-0.009789462378985508,-0.016800104866013132,-0.004129806594444437, ,0.013163766507795794, ,0.019444197285853212, ,5.176513215700987e-05, ,0.2082434919534639,-0.19421900905387218,0.09795933901000001,-4.1755558446073335,0.8731072335011645,-1.3968366406987471, ,0.022307696652202814,0.02296078915036796,0.012732862925659475,-0.0067416660897140135,0.010716946199881252,-0.012766610377849132, ,1.331514835357666
0.0119706951277452,0.020534496632315477,-0.08547796503600678, ,0.012234505546037108,0.020310342182965818,-0.08579439853272847, ,0.00046901099327213133, ,0.004156657595841265,0.0005291621545238129,-0.011976760108155236,-0.007266672951102383,-0.006296672806729974,0.0013555780636274682, ,0.012688601090866707, ,0.009615215950850662, ,5.2004437595574934e-05, ,0.20864507406292357,-0.19379425874578984,0.09820304153000001,-4.1755558446073335,0.8735171430004608,-1.3969258581894146, ,0.019823885848855395,0.021455333836416634,0.012386323110419907,-0.0067416660897140135,0.019355875658300093,-0.008568407514116718, ,1.3433809280395508
0.012016123045818974,0.020538498542141556,-0.08560610592146478, ,0.012285253949717374,0.020312791088305884,-0.08593419503478388, ,0.000480643073838229, ,0.004514045959445228,0.00043543857500975695,-0.01234576838352005,-0.02028379127059614,-0.011368802270537335,0.006155825567678233, ,0.013152346355541036, ,0.023252560430372115, ,5.225685742830664e-05, ,0.20886131058340188,-0.19356257675956312,0.09833396682000001,-4.175765534550818,0.8735171430004608,-1.3967625007091335, ,0.022508762229238796,0.023270461392464633,0.012732862925659475,-0.004847506434990283,0.013491024499465598,0.003974068836643611, ,1.3548240661621094
0.012057365927350763,0.020543497911146742,-0.08572376876777987, ,0.01233592800084513,0.020315233241747836,-0.08607358334680283, ,0.0005020675530068474, ,0.004161635019251898,0.00029318609486745023,-0.011373704798795925,-0.026023742445575142,-0.0035551187292393637,0.01590649392580213, ,0.012114715224463215, ,0.026265449733852198, ,5.253657020046838e-05, ,0.20906982437100594,-0.1933386175062106,0.09845711437000002,-4.175765534550818,0.8739270524997571,-1.3969333969399416, ,0.02108352400765847,0.02275160430555521,0.01174691115044248,-0.004847506434990283,0.018550042001679756,0.016111895136355255, ,1.3666088581085205
0.01209679038527464,0.02054850272075313,-0.08583270318335129, ,0.012386527724784473,0.020317668643386327,-0.0862125640671023, ,0.0005305906031811343, ,0.004017597941956136,0.0005910371781123486,-0.011714226283171262,0.041060601415104606,0.03859404848787187,-0.0034786169043097125, ,0.012398125486639567, ,0.05635133846390273, ,5.2853292526907086e-05, ,0.20928606089148422,-0.19313010371860653,0.09857248418,-4.175765534550818,0.8744735984988189,-1.3972157110744465, ,0.022187734757650405,0.022135978903305525,0.012532503162863888,-0.004847506434990283,0.08077937904705493,-0.03679007094978889, ,1.3795390129089355
0.012144843080077294,0.020553499837548794,-0.08596589046458877, ,0.012437053147008038,0.020320097293371846,-0.08635113779354403, ,0.0005369161715864976, ,0.004440063910600827,0.00030936784271376634,-0.011465705728741397,-0.01911565118298544,0.002638138695993256,0.01739026665120979, ,0.012299279810233548, ,0.019296831288435984, ,5.317369546630222e-05, ,0.20954091107633363,-0.1928675308008829,0.0987124835,-4.175765534550818,0.8750201444978807,-1.3971713102483885, ,0.024571968295823608,0.02312303644212251,0.01195856720720721,-0.004847506434990283,0.03052085909542166,0.013724110083811383, ,1.3911809921264648
0.0122288200949162,0.02055591192297895,-0.08618402403381609, ,0.012487504293092571,0.02032251919190599,-0.08648930512353482, ,0.00046323452488313894, ,0.004487344015779603,0.00025346066282599033,-0.011839167314320857,-0.031603054318536605,-0.005510699463074025,0.020006048279980506, ,0.01266358485264092, ,0.032079909885079146, ,5.338206591729257e-05, ,0.20999655231591285,-0.19240416682842942,0.09893803796000002,-4.1759752244943025,0.875430053997177,-1.3967704552982128, ,0.023385150704403838,0.02396992714283172,0.01223411023041475,-0.00559311218030683,0.017964505844597797,0.02169886928949493, ,1.403090000152588
0.012273393815638751,0.020558949477525734,-0.08630646684615424, ,0.01253788118872204,0.02032493433924518,-0.08662706665402622, ,0.0004769705360633064, ,0.004185187137266581,0.00033217996102197466,-0.011550869948685243,0.04955371857898592,0.025176036176047516,-0.020315776172309598, ,0.012290188422961059, ,0.055582403842575435, ,5.3606533167377884e-05, ,0.21024367976788805,-0.1921415939107058,0.09906766696000001,-4.1759752244943025,0.8761132364960041,-1.3971641873364138, ,0.023670975694305506,0.02406719288827562,0.012281273338473403,-0.00559311218030683,0.07115473115103207,-0.05802191212845793, ,1.4147088527679443
0.012316645119112589,0.020559854619031957,-0.0864225543425224, ,0.012588183859685648,0.020327342735698136,-0.08676442298151489, ,0.0004946405056705555, ,0.004390477478846775,0.0003360488350895857,-0.012049960244264437,-0.01564593032779953,0.0038505885115977297,0.015234836694545714, ,0.012829293168377564, ,0.016112787271382198, ,5.385227365980159e-05, ,0.21046763902124055,-0.19190218919160484,0.09918692564,-4.176184914437787,0.8762498729957696,-1.3970305690196885, ,0.022460814570052258,0.02369461711821992,0.012532503162863888,-0.006797287753910869,0.031096574997359242,0.00783275318890091, ,1.4273948669433594
0.012364447443096544,0.020563204415846765,-0.08654636589596865, ,0.012638412331878512,0.020329744381627032,-0.08690137470204323, ,0.0005055606791016264, ,0.0044718812212222216,0.0002486097646527755,-0.011893999721157211,-0.02476442886497346,-0.006698892074992168,0.014651125180272853, ,0.012709317756618113, ,0.025654470448761575, ,5.410924131774922e-05, ,0.21070704374034152,-0.19166278447250387,0.09931396206000001,-4.176184914437787,0.8762498729957696,-1.3967038540591261, ,0.022944134806206665,0.023867440029796474,0.012290749629629632,-0.006797287753910869,0.018291049252319436,0.012048742608260181, ,1.4388389587402344
0.012403741457682051,0.020565926010801375,-0.08664956273793357, ,0.012688566631300698,0.020332139277446322,-0.08703792241119829, ,0.0005353548842011187, ,0.004616305476782853,0.00018636033757243612,-0.011805098859971457,-0.042672314394760165,-0.01513742109312594,0.02303144433670432, ,0.012676961999000189, ,0.04527767334885251, ,5.440351427346796e-05, ,0.21091555752794558,-0.1914542706848998,0.09942155413,-4.176184914437787,0.8765231459953005,-1.3965182961658162, ,0.02401238399758876,0.023951777273718017,0.012131615780654989,-0.006797287753910869,0.006018103198620851,0.02913926943939104, ,1.450118064880371
0.012450616815018387,0.020567852414295956,-0.08677506258231057, ,0.012738646784060427,0.020334527423626077,-0.08717406670411434, ,0.0005446155557398772, ,0.004281501131374925,0.0002659339052283701,-0.011824126834287222,0.007051781667547577,0.01395865258313107,0.0043835994045879996, ,0.0125782331101481, ,0.015638777941358584, ,5.4705722680807394e-05, ,0.21116268497992077,-0.19118397503430196,0.09955247942,-4.176184914437787,0.8769330554945969,-1.3968525498769053, ,0.02253013807181168,0.024307618227067312,0.012395962272373542,-0.006689512095393638,0.04766507822066858,-0.014134485464254307, ,1.4612829685211182
0.012495103872385147,0.020571217053146202,-0.08689559812317359, ,0.012788652816368212,0.020336908820686287,-0.08730980817546972, ,0.0005591433606287669, ,0.004222090595552678,0.00031837153888106327,-0.011855892257140985,0.02487619490050913,0.020329398681506104,-0.0051667926217462525, ,0.012589264896996943, ,0.03212645777601786, ,5.5022905406829266e-05, ,0.2116106034866258,-0.19071288832897426,0.09980007081000002,-4.176394604381271,0.8776162379934239,-1.397164603174966, ,0.023541786543902453,0.023408224360747604,0.012981916479217606,-0.00445801014265828,0.023936416580336756,0.006006111734661835, ,1.4732210636138916
0.012587222300232015,0.020577280532482648,-0.08714414371075103, ,0.012838584754541664,0.020339283469201636,-0.08744514741949007, ,0.0004587253189454552, ,0.004311282784578015,0.00029391887971627314,-0.011992004689206985,-0.02176515195548927,-0.0075112439703380884,0.008074574375521377, ,0.012746831921007461, ,0.02302477747174397, ,5.5273397619532275e-05, ,0.21185000820572675,-0.1904657608769991,0.09993488497000001,-4.176394604381271,0.8776162379934239,-1.3970012456946848, ,0.020294469965455683,0.023253354951842872,0.012357495360744767,-0.00445801014265828,0.014697231280556356,0.006977248318668843, ,1.4837489128112793
0.0126307833600635,0.020578730792116143,-0.08726304494663897, ,0.012888442625002314,0.020341651369798323,-0.08758008502994633, ,0.00047234453920723396, ,0.004311282784578015,0.00029391887971627314,-0.011992004689206985,-0.02176515195548927,-0.0075112439703380884,0.008074574375521377, ,0.012746831921007461, ,0.02302477747174397, ,5.553894985680812e-05, ,0.21207396745907925,-0.19022635615789812,0.10005803252,-4.176604294324757,0.8778895109929549,-1.3970607240217965, ,0.02281724971350584,0.02433878983289838,0.012262364526558892,-0.00795784264061011,0.006045022687946417,0.013498742792441332, ,1.4933369159698486
0.0126307833600635,0.020578730792116143,-0.08726304494663897, ,0.012938226454279217,0.020344012523157668,-0.08771462160015665, ,0.0005945884256912712, ,0.004566190910525868,0.00014019277668852226,-0.011950085090773109,-0.03219845530644305,-0.016858971918288307,0.013349529958217504, ,0.012793525203114364, ,0.03634508515003023, ,5.596545547781382e-05, ,0.21207396745907925,-0.19022635615789812,0.10005803252,-4.176604294324757,0.8778895109929549,-1.3970607240217965, ,0.02281724971350584,0.02433878983289838,0.012262364526558892,-0.00795784264061011,0.006045022687946417,0.013498742792441332, ,1.5030269622802734
0.01267406243275966,0.020582068725526367,-0.0873832823258917, ,0.012987936269002824,0.020346366930010313,-0.08784875772298474, ,0.0006088837875871068, ,0.004436853845688384,0.00042067698629790406,-0.01249255123142465,-0.0025711622730676884,0.010945072403661783,0.011218037570660129, ,0.013263727886403958, ,0.01124300587424264, ,5.640537059839943e-05, ,0.21229020397955756,-0.18998695143879715,0.10018377265000002,-4.176604294324757,0.8782994204922512,-1.3972316202526047, ,0.022038305053058704,0.02345450854139169,0.013067113634126335,-0.00795784264061011,0.04161719539593948,-0.0037495801975422766, ,1.5130078792572021
0.012708854494164427,0.020585933030796096,-0.08748006278656187, ,0.013037572095911764,0.02034871459114273,-0.08798249399084163, ,0.0006455733613185306, ,0.0044825864950912295,0.0005662366744049577,-0.013141607983902643,0.013677841357171027,0.020638576256956705,0.005351562829129967, ,0.013896620670507962, ,0.02475951902088248, ,5.688816808621686e-05, ,0.21246010410279048,-0.18980932858269,0.10028488327000001,-4.176604294324757,0.8785726934917821,-1.3974544560599975, ,0.021735442409177914,0.023629716523523598,0.013827093333333334,-0.00795784264061011,0.055627630384460225,-0.017728578720416853, ,1.5234229564666748
0.012771470847313263,0.020593065088086608,-0.08765381076899877, ,0.013087133961847696,0.02035105550739234,-0.088115830995685, ,0.0006096511534415334, ,0.004846311143990928,0.00045678902851774956,-0.013530582305664406,-0.01359570183540092,-0.003007382201453906,0.008839234622803586, ,0.014379570419567602, ,0.013924331315986863, ,5.731720543847339e-05, ,0.21275356795201103,-0.18950041926772102,0.10046506758000001,-4.176604294324757,0.8788459664913129,-1.3973505769068282, ,0.023033238242347275,0.02468060898789877,0.01403419517180617,-0.00783722273087962,0.02554415775299692,-0.0003959175297298268, ,1.533370018005371
0.012816767621500063,0.02059717478271157,-0.08778610689894095, ,0.013136621893756634,0.02035338967964886,-0.08824876932901933, ,0.0006130207632389836, ,0.005076249146904029,0.0006931686804941929,-0.014699304782976668,-0.04444639964657926,-0.017343709373823592,0.01967205150951575, ,0.015566577958045329, ,0.04771043921548555, ,5.774503602306922e-05, ,0.21295435900674087,-0.1892687372814943,0.10060117803000002,-4.176813984268241,0.8789826029910783,-1.3971352798499623, ,0.021187082285883185,0.023849444975740333,0.015084101818181822,-0.005720797991220625,0.0,0.028135034504880838, ,1.543463945388794
0.012870626698979851,0.02060542808510577,-0.08794473598646078, ,0.013186035918690239,0.020355717108855535,-0.08838130958189623, ,0.0005936624055552072, ,0.005028013738356906,0.0006828318024505588,-0.014765875939345245,-0.014397596268754795,-0.008998516671513121,0.0053168302005693596, ,0.015613400452165391, ,0.016978320843708004, ,5.8142089702027375e-05, ,0.2131937637258418,-0.1890216098295191,0.10076580686000002,-4.177023674211725,0.8792558759906093,-1.3970314006967928, ,0.021547897719907082,0.024345033750249045,0.015257482298850577,-0.009029593547995393,0.017748309888239368,-0.004273454403099732, ,1.5529799461364746
0.012916441513950471,0.02061154941864284,-0.08808522224681867, ,0.013235376063804052,0.020358037796007422,-0.08851345234491506, ,0.00059107394361213, ,0.004642247795830691,0.0005549081445237788,-0.013503586396318948,0.029860071862878132,0.030886776807890856,0.006182726469724162, ,0.014290039650385994, ,0.042960638079961505, ,5.853065825972724e-05, ,0.2134177229791943,-0.1887744823775439,0.10091488021000002,-4.177233364155209,0.8800756949892019,-1.3974548718985496, ,0.023582738955882403,0.02442649718364756,0.014324470791366908,-0.013677317806102027,0.07398329096002332,-0.0313655047719263, ,1.562729835510254
0.012965053671894152,0.02061602773815622,-0.08821865080272684, ,0.013284642356357845,0.020360351742151974,-0.08864519820822202, ,0.0005911428180267987, ,0.0048407920550566285,0.0003363285586629915,-0.013375787527761274,-0.02972155305763991,0.004220916207812077,0.032176411490148556, ,0.014228776356647318, ,0.03001976718165263, ,5.891432089048324e-05, ,0.21364940496542106,-0.18852735492556874,0.10105358324000001,-4.177233364155209,0.8803489679887329,-1.3973509927453804, ,0.02358860093424578,0.0251449235714019,0.013899486492146597,-0.013677317806102027,0.03107277203855047,0.023592171297012982, ,1.5728788375854492
0.013014070700212217,0.020618492401099246,-0.08835071971178586, ,0.013333834823715501,0.020362658948388925,-0.08877654776151123, ,0.0005907870835913868, ,0.004959010789817442,0.00042274542483391065,-0.013494682138263063,-0.03282264117251739,-0.014264742564507962,0.019218805863234125, ,0.014383217571896072, ,0.035788380886129026, ,5.9292629292959574e-05, ,0.213888809684522,-0.18828022747359355,0.10118969369000001,-4.177443054098694,0.8804856044884982,-1.397054016948374, ,0.023219217410929967,0.02392158849469896,0.013911625781659389,-0.01096874186666804,0.009636706384431995,0.016403860396475893, ,1.5823400020599365
0.01306679038546672,0.02062384202881994,-0.08849268958960725, ,0.013382953493344393,0.020364959415869653,-0.08890750159402458, ,0.0005822785562594233, ,0.005045747143585365,0.0003081447926804675,-0.013150657116352452,-0.0226230731488197,-0.016915774546489737,0.010077628123940885, ,0.014088800518217558, ,0.02824794636592985, ,5.965533920386646e-05, ,0.21414365986937142,-0.18802537728874413,0.10133747075,-4.177443054098694,0.8807588774880291,-1.3969501377952045, ,0.025012372577351286,0.024464279855238663,0.013579549462915603,-0.01096874186666804,0.011493261155536155,0.002482657914781524, ,1.5929648876190186
0.013114014982220753,0.020627373476687694,-0.08862195048116905, ,0.013431998392817102,0.02036725314579871,-0.0890380602945518, ,0.0005847421763048284, ,0.004558660674543521,0.0001834423098056884,-0.012555324489590989,0.007094065697398129,0.016182524954801426,0.008994994390760088, ,0.01335856321860924, ,0.017669170043962627, ,6.001658192806003e-05, ,0.2143830645884724,-0.18777052710389472,0.10147358120000001,-4.177443054098694,0.8813054234870908,-1.3971507731895685, ,0.02329330916997319,0.025661693228358783,0.013175195632754346,-0.01096874186666804,0.05212453683304625,-0.014497682869451016, ,1.6025078296661377
0.013160830347736534,0.02062941082168351,-0.08874582750488179, ,0.013480969549809641,0.020369540139432558,-0.08916822445143074, ,0.0005902889636876693, ,0.004490708960656417,0.00022536165355227698,-0.012546045930854234,-0.0027337583799406156,0.008768093041989548,0.01097940985437906, ,0.01332743498739783, ,0.009184366044245794, ,6.038024866245523e-05, ,0.21462246930757334,-0.18751567691904533,0.10160321020000002,-4.177443054098694,0.8817153329863873,-1.3973216694203767, ,0.021835467454779284,0.02472562312623001,0.013088587937551356,-0.01096874186666804,0.040115846071494286,-0.007206849062228951, ,1.6126160621643066
0.013212815615232163,0.020630007881563554,-0.08888049851015707, ,0.013529866992100872,0.020371820398078864,-0.08929799465254779, ,0.0005843675051828498, ,0.0050538471200942455,4.997317181869476e-05,-0.012524221859095004,-0.045350596261053706,-0.006024690481218457,0.03459224579128954, ,0.013505554457593352, ,0.045749023688856465, ,6.0732012375868146e-05, ,0.21488504222529697,-0.18724538126844747,0.10174191323000001,-4.177652744042178,0.8818519694861527,-1.3970246936233703, ,0.026731532833372047,0.02605627170743294,0.012971344885993488,-0.009895172482425713,0.018924944727603237,0.03751375426927133, ,1.6225180625915527
0.013246572913751612,0.020630489489589014,-0.08897003526162228, ,0.013578690747574108,0.02037409392309805,-0.08942737148533725, ,0.0006206427020283366, ,0.004833558681821826,6.165431731269016e-05,-0.012696533072866214,-0.03171564537358479,-0.009482979854941695,0.019112325661068068, ,0.013585618972127992, ,0.033103001955400224, ,6.11243176235773e-05, ,0.21505494234852993,-0.18705231294659186,0.10183524611000001,-4.177652744042178,0.8821252424856835,-1.3970024932103415, ,0.023688702336113525,0.02605627170743294,0.013088587937551356,-0.009895172482425713,0.015646827499548564,0.016137480245747366, ,1.6322510242462158
0.013310739841289426,0.020634633956822065,-0.08913368689101599, ,0.013627440844216215,0.020376360715902375,-0.0895563555367823, ,0.0005879229340176541, ,0.005174525367124099,0.0003258195624573592,-0.013332673746022419,-0.013809892001465207,0.009725067251346257,0.020964463394438998, ,0.014305315808473652, ,0.016890518903822465, ,6.14715517513753e-05, ,0.2153947425949958,-0.1867511263644971,0.10200635639000001,-4.177862433985664,0.8825351519849798,-1.3968466744805872, ,0.027253573106970352,0.025503074861185374,0.013997198172231988,-0.008213094888287016,0.043413097556650765,0.010287172749271996, ,1.6417958736419678
0.013358439519015722,0.020637342955454916,-0.08926029450462826, ,0.013676117310116148,0.020378620777954992,-0.0896849473934145, ,0.0005900732327798334, ,0.005180919526506217,0.0002772923073476337,-0.013529854592201157,0.006401883961829278,0.010894210713971512,0.004521529577866784, ,0.01449054117174215, ,0.012635960270502053, ,6.181716969027866e-05, ,0.215641870046971,-0.18649627617964767,0.10213987426000001,-4.177862433985664,0.8830816979840417,-1.3970473098749516, ,0.027113411873848796,0.026566892933502458,0.014222153142857146,-0.007827911408355558,0.049837698258724965,-0.015376292426770122, ,1.6545829772949219
0.013427125741146675,0.020639519147425386,-0.08943707476560248, ,0.01372472017346734,0.0203808741107718,-0.08981314764131453, ,0.0005448765997729431, ,0.004889907763266983,8.654566203351752e-05,-0.011969894267745676,-0.03873895632252715,-0.0006431342412600693,0.03127153368540922, ,0.012930470094543598, ,0.038744291358659366, ,6.217922312216654e-05, ,0.21599711575918532,-0.18614875320030758,0.10232394744000001,-4.178072123929148,0.883491607483338,-1.3970548486254784, ,0.02610644884689705,0.02459744467560155,0.012463858779342725,-0.0066219033332784024,0.02439326150095829,0.034726155979852534, ,1.6624228954315186
0.013471658921678616,0.020639458031463116,-0.0895487811249151, ,0.013773249462567323,0.02038312071592136,-0.08994095686611268, ,0.0005571960926608961, ,0.0047076260567465965,-0.00010184393145435141,-0.012135246102172382,-0.0476485744465182,-0.018385556744365004,0.020655046609572052, ,0.013016770461094548, ,0.051072645128401935, ,6.25526846235857e-05, ,0.21622107501253782,-0.18590934848120663,0.10243931725000001,-4.178072123929148,0.8836282439831034,-1.3970029090488936, ,0.02232869213140489,0.02606342805780576,0.012395962272373542,-0.0064255530898411585,0.0,0.029388485950126546, ,1.6706140041351318
0.013471658921678616,0.020639458031463116,-0.0895487811249151, ,0.013821705205814192,0.02038536059502156,-0.09006837565298718, ,0.0006760742428504034, ,0.005175245532813055,0.0001509371004475177,-0.01345832194316517,-0.022867282004406974,-0.017687576229739377,0.0022615700266231716, ,0.014419860535354496, ,0.028909557202206723, ,6.306577318305083e-05, ,0.21648364793026145,-0.18563133009773453,0.10258061286,-4.1782818138726325,0.8837648804828687,-1.396950969472309, ,0.02463575845235482,0.02641161746687191,0.01386319540469974,-0.005451184162145026,0.009332288272203773,0.0003424073946165021, ,1.6786508560180664
0.01352466719670636,0.020639385644815992,-0.08968600907435118, ,0.013870087431709767,0.020387593749742892,-0.09019540458666629, ,0.0006649797629560555, ,0.005175245532813055,0.0001509371004475177,-0.01345832194316517,-0.022867282004406974,-0.017687576229739377,0.0022615700266231716, ,0.014419860535354496, ,0.028909557202206723, ,6.356063729602907e-05, ,0.21648364793026145,-0.18563133009773453,0.10258061286,-4.1782818138726325,0.8837648804828687,-1.396950969472309, ,0.02463575845235482,0.02641161746687191,0.01386319540469974,-0.005451184162145026,0.009332288272203773,0.0003424073946165021, ,1.6865580081939697
0.013573749761060055,0.020642756305144606,-0.0898175381553129, ,0.013918396168860396,0.020389820181808564,-0.09032204425142798, ,0.0006612747007977989, ,0.005151646214195127,0.0003691217644862375,-0.013733646792393313,0.032071368360368904,0.015210907051652544,-0.014724536678984185, ,0.014672721758810243, ,0.03549568809401489, ,6.404635585404063e-05, ,0.21673077538223665,-0.18537647991288514,0.10271931589000001,-4.1782818138726325,0.8843114264819306,-1.3973149623469543, ,0.02639692393837852,0.026113632789892892,0.014507114316939893,-0.005451184162145026,0.059450215936744016,-0.04399944231800937, ,1.696065902709961
0.013621071708823401,0.02064723360061677,-0.08994422460191477, ,0.013966631445972837,0.020392039892991442,-0.09044829523109954, ,0.0006622858593968899, ,0.005668582833820096,0.0007540406861655817,-0.016120485226068685,0.015317138010865674,0.005176557565508626,-0.010045366640140548, ,0.017104720185497677, ,0.016168190264133884, ,6.452866040983723e-05, ,0.21695473463558915,-0.1851525206595326,0.10285153747,-4.1782818138726325,0.8845846994814615,-1.3976194768944876, ,0.02535995231386178,0.026323700848396886,0.016873741016949155,-0.005451184162145026,0.043671922486499065,-0.03096488150472453, ,1.707226037979126
0.013690855723740568,0.020655588587608895,-0.09014353540072642, ,0.014014793291857919,0.02039425288511717,-0.09057415810905821, ,0.0005988888163637985, ,0.005815210653394789,0.0007672488615900955,-0.016540567385488095,-0.011504609325177127,-0.00952694138121771,0.004951223318493013, ,0.017549806699586182, ,0.014937115173844127, ,6.493146676293941e-05, ,0.21724047575193545,-0.18484361134456365,0.10305635129000001,-4.178491503816117,0.8845846994814615,-1.3972927619339253, ,0.02486165615888676,0.025928126108871796,0.017164667586206897,-0.010736258233798621,0.022153702870946545,-0.008226967805399242, ,1.7153539657592773
0.013690855723740568,0.020655588587608895,-0.09014353540072642, ,0.014062881735428145,0.02039645916006195,-0.09069963346823112, ,0.0007174931876160474, ,0.005815210653394789,0.0007672488615900955,-0.016540567385488095,-0.011504609325177127,-0.00952694138121771,0.004951223318493013, ,0.017549806699586182, ,0.014937115173844127, ,6.547001655183858e-05, ,0.21737948494367149,-0.18468915668707914,0.10315616562,-4.178491503816117,0.8847213359812269,-1.397322501097481, ,0.02264843473949183,0.02699002888466177,0.016540821931464174,-0.010736258233798621,0.0,0.014615114233040957, ,1.7233190536499023
0.01374667034331297,0.02066189542765419,-0.09030158095218498, ,0.014110896805698558,0.02039865871975353,-0.09082472189109521, ,0.0006896600048227935, ,0.005654892539216401,0.00043699746054032794,-0.015745698056584823,-0.04475944344322194,-0.021735332809730525,0.01995197755471133, ,0.01673606237141052, ,0.04975772806151119, ,6.597092982890584e-05, ,0.2174721577381622,-0.18458103842684,0.10321968383,-4.178491503816117,0.8847213359812269,-1.3971591436172, ,0.023730167931600595,0.02703616568617401,0.016154981257606494,-0.010736258233798621,0.0,0.022672027155211414, ,1.731328010559082
0.01374667034331297,0.02066189542765419,-0.09030158095218498, ,0.01415883853178606,0.020400851566170643,-0.0909494239596782, ,0.0008110037457159452, ,0.005654892539216401,0.00043699746054032794,-0.015745698056584823,-0.04475944344322194,-0.021735332809730525,0.01995197755471133, ,0.01673606237141052, ,0.04975772806151119, ,6.660859885734443e-05, ,0.2174721577381622,-0.18458103842684,0.10321968383,-4.178491503816117,0.8847213359812269,-1.3971591436172, ,0.023730167931600595,0.02703616568617401,0.016154981257606494,-0.010736258233798621,0.0,0.022672027155211414, ,1.7426738739013672
0.013849192810369153,0.020664617867343308,-0.09057503571609687, ,0.014206706942910876,0.02040303770134397,-0.09107374025555795, ,0.0006670432938650864, ,0.005028987796565372,-0.00022708354088977085,-0.012163181576791337,0.024408193290673598,0.022681628161623002,-0.004857760148147767, ,0.01316378635737236, ,0.03331990230417718, ,6.707334235901e-05, ,0.217981858107861,-0.18403272439277008,0.10350616392,-4.1787011937596015,0.8856777914795849,-1.3977757114627938, ,0.028844055184945525,0.029181101340243164,0.012908275137763372,-0.005069945051294829,0.0684656044452534,-0.03144771116059706, ,1.7512240409851074
0.013849192810369153,0.020664617867343308,-0.09057503571609687, ,0.014254502068394664,0.020405217127354974,-0.09119767135986327, ,0.0007869177107144568, ,0.005028987796565372,-0.00022708354088977085,-0.012163181576791337,0.024408193290673598,0.022681628161623002,-0.004857760148147767, ,0.01316378635737236, ,0.03331990230417718, ,6.76722157323107e-05, ,0.217981858107861,-0.18403272439277008,0.10350616392,-4.1787011937596015,0.8856777914795849,-1.3977757114627938, ,0.028844055184945525,0.029181101340243164,0.012908275137763372,-0.005069945051294829,0.0684656044452534,-0.03144771116059706, ,1.758565902709961
0.01396418619768433,0.020664741935874247,-0.09085484456933698, ,0.014302223937659493,0.020407389846335104,-0.09132121785327287, ,0.0006308753059098254, ,0.004912343744021544,-0.00033949769023879767,-0.012156264560476738,-0.05162072072740516,-0.009224333485575425,0.03401734806095988, ,0.013115683276345453, ,0.05243841026584302, ,6.808622313803551e-05, ,0.2185765085391763,-0.18346124216007745,0.10379653288000001,-4.178910883703086,0.8860877009788813,-1.3972114990323368, ,0.02462936453632774,0.028076018212565317,0.012493185505882354,-0.0106116978497358,0.012419226852011791,0.03903204219152527, ,1.7662739753723145
0.014017179705428946,0.020664704787365373,-0.09099496075433844, ,0.014349872580231775,0.020409555860468588,-0.0914443803160172, ,0.0006146246547777645, ,0.005800952004409796,0.0003033051554819822,-0.016004967865178184,-0.05065462343507011,-0.007770291430715868,0.033717378899631674, ,0.017026509758027168, ,0.05124711947087494, ,6.847784757994127e-05, ,0.21882363599115148,-0.18316777831085693,0.10394171736,-4.178910883703086,0.8863609739784122,-1.3971076198791674, ,0.02503216606659741,0.028993871542459755,0.016506540435233162,-0.0106116978497358,0.014822628198254294,0.03797130799148431, ,1.7737419605255127
0.014017179705428946,0.020664704787365373,-0.09099496075433844, ,0.014397448025736904,0.02041171517198879,-0.0915671593278771, ,0.0007321331494188068, ,0.005800952004409796,0.0003033051554819822,-0.016004967865178184,-0.05065462343507011,-0.007770291430715868,0.033717378899631674, ,0.017026509758027168, ,0.05124711947087494, ,6.899974024406318e-05, ,0.21882363599115148,-0.18316777831085693,0.10394171736,-4.178910883703086,0.8863609739784122,-1.3971076198791674, ,0.02503216606659741,0.028993871542459755,0.016506540435233162,-0.0106116978497358,0.014822628198254294,0.03797130799148431, ,1.7827329635620117
0.014067934382871617,0.020671618153985955,-0.09114710282390935, ,0.014444950303904643,0.020413867783181806,-0.09168955546818526, ,0.0007091058663161537, ,0.005494909974896323,0.0008498812469266378,-0.01686527218386036,0.05036849555596831,0.0503210817214976,-0.0015307307813173607, ,0.017758202037418843, ,0.07119828119915889, ,6.949079115714697e-05, ,0.21903987251162976,-0.1829129281260075,0.10410245732000001,-4.178910883703086,0.8870441564772393,-1.3975013519173685, ,0.024239320960018077,0.02735570526332395,0.01797834257336343,-0.010368049310647744,0.09992450811849353,-0.04664824027001591, ,1.7910568714141846
0.014119054532778444,0.020680020621769463,-0.09130057644870411, ,0.01449237944456401,0.02041601369638317,-0.091811569315825, ,0.0006857002673618064, ,0.005860709301769332,0.000986377029996593,-0.017014360344822663,0.0195510646841884,0.021663076409992425,0.0007367923824724582, ,0.018022466843044115, ,0.02918101410106231, ,6.995099104736504e-05, ,0.2192715544978565,-0.1826812461397808,0.10426578986000001,-4.17912057364657,0.8878639754758321,-1.3979248231191255, ,0.025489374579229326,0.025332872813259688,0.01795807386696731,-0.0065715896193465845,0.06203709463726697,-0.023993915498113933, ,1.7985708713531494
0.014216256628548756,0.020692066507618012,-0.09156240245089962, ,0.014539735477646492,0.020418152913979817,-0.09193320144923187, ,0.00056316881994441, ,0.006796766025799661,0.0006225363885110184,-0.01795631731208001,-0.055672658855176894,-0.02450524921255309,0.02481321250550117, ,0.01920970877906766, ,0.060827216903483215, ,7.026937852574139e-05, ,0.21969630480593885,-0.18227194129744687,0.10453801076000001,-4.17912057364657,0.8881372484753629,-1.397249192784972, ,0.029673840387264155,0.029154206315966442,0.018521873860465117,-0.0065715896193465845,0.0,0.03639564881462164, ,1.8064320087432861
0.014216256628548756,0.020692066507618012,-0.09156240245089962, ,0.014587018433183718,0.020420285438408604,-0.09205445244639214, ,0.0006733813655136053, ,0.006796766025799661,0.0006225363885110184,-0.01795631731208001,-0.055672658855176894,-0.02450524921255309,0.02481321250550117, ,0.01920970877906766, ,0.060827216903483215, ,7.078737766340811e-05, ,0.21969630480593885,-0.18227194129744687,0.10453801076000001,-4.17912057364657,0.8881372484753629,-1.397249192784972, ,0.029673840387264155,0.029154206315966442,0.018521873860465117,-0.0065715896193465845,0.0,0.03639564881462164, ,1.8126029968261719
0.014281068974850757,0.0206972031879282,-0.09173426757380804, ,0.014634228341309816,0.020422411272158266,-0.09217532288484448, ,0.0006283008216481407, ,0.006222617574539095,0.0003948679591688656,-0.015542357895832857,-0.05182125725213158,-0.0092533746377794,0.038502508405850226, ,0.016746396004701996, ,0.052640922659336356, ,7.125159494985667e-05, ,0.2199974913880336,-0.18198620018110057,0.10471689878000001,-4.179330263590055,0.8884105214748937,-1.3968185986712403, ,0.03026050432349196,0.0270053903125984,0.01617138225380711,-0.009749776903967538,0.017707423136418907,0.04448631091045053, ,1.8184280395507812
0.014326072076563424,0.020699467124927793,-0.09185247627322633, ,0.014681365232259542,0.020424530417767588,-0.09229581334167988, ,0.0006311665197818954, ,0.006222617574539095,0.0003948679591688656,-0.015542357895832857,-0.05182125725213158,-0.0092533746377794,0.038502508405850226, ,0.016746396004701996, ,0.052640922659336356, ,7.171590166279586e-05, ,0.2202446188400088,-0.18176224092774806,0.10484393520000002,-4.179539953533539,0.8892303404734865,-1.3974054273532783, ,0.02944366787417647,0.027051579691696342,0.015802392380952386,-0.013039845755118256,0.11293550677638513,-0.06874109024470004, ,1.8245129585266113
0.014326072076563424,0.020699467124927793,-0.09185247627322633, ,0.014728429136367101,0.02042664287782501,-0.09241592439354031, ,0.0007441760931838729, ,0.005451048742226575,0.0004482990944314076,-0.014613289346867371,0.07168442353236847,0.05188755454507153,-0.010667617139004121, ,0.01560330509871115, ,0.08849279195182054, ,7.230240763640505e-05, ,0.2202446188400088,-0.18176224092774806,0.10484393520000002,-4.179539953533539,0.8892303404734865,-1.3974054273532783, ,0.02944366787417647,0.027051579691696342,0.015802392380952386,-0.013039845755118256,0.11293550677638513,-0.06874109024470004, ,1.8306849002838135
0.014326072076563424,0.020699467124927793,-0.09185247627322633, ,0.014775420084068968,0.02042874865497042,-0.09253565661662103, ,0.0008613579415238203, ,0.005451048742226575,0.0004482990944314076,-0.014613289346867371,0.07168442353236847,0.05188755454507153,-0.010667617139004121, ,0.01560330509871115, ,0.08849279195182054, ,7.301450787796816e-05, ,0.2202446188400088,-0.18176224092774806,0.10484393520000002,-4.179539953533539,0.8892303404734865,-1.3974054273532783, ,0.02944366787417647,0.027051579691696342,0.015802392380952386,-0.013039845755118256,0.11293550677638513,-0.06874109024470004, ,1.8407959938049316
0.01444776332503793,0.020711096789660835,-0.09217410029806454, ,0.014822338105902576,0.020430847751894392,-0.09265501058666906, ,0.0006709101991432937, ,0.006669379524763004,0.000573153882298146,-0.018342016543384337,-0.05085985916050703,-0.018600734020571434,0.02776538869702316, ,0.01952533481136511, ,0.05415450585031822, ,7.351215840165691e-05, ,0.22081610107270142,-0.18121392689367813,0.10518226689000001,-4.179539953533539,0.8901867959718445,-1.3972868865376071, ,0.027538288322249208,0.029832424256042368,0.01891782840855107,-0.011569355205841863,0.006542390994408871,0.03142722149308528, ,1.8465259075164795
0.014515352082729933,0.020718570314972626,-0.09235348687613454, ,0.014869183232503705,0.02043294017133632,-0.09277398687898421, ,0.0006193555633886711, ,0.0066981946123596935,0.0007204004963101842,-0.018138642530259447,-0.06957920966067019,-0.013651135275297044,0.047390082932876706, ,0.01934929303051316, ,0.07090569756965648, ,7.394994005718239e-05, ,0.22110184218904771,-0.18093590851020605,0.10536763636000002,-4.179539953533539,0.8901867959718445,-1.3968784928369042, ,0.028176051531612463,0.02791086516425611,0.018761851024734984,-0.01050096918749068,0.006812108804818653,0.06095959315076005, ,1.8523130416870117
0.014515352082729933,0.020718570314972626,-0.09235348687613454, ,0.01491595549461219,0.02043502591608836,-0.09289258606841941, ,0.0007290462666199889, ,0.0066981946123596935,0.0007204004963101842,-0.018138642530259447,-0.06957920966067019,-0.013651135275297044,0.047390082932876706, ,0.01934929303051316, ,0.07090569756965648, ,7.450485958283712e-05, ,0.22110184218904771,-0.18093590851020605,0.10536763636000002,-4.179539953533539,0.8901867959718445,-1.3968784928369042, ,0.028176051531612463,0.02791086516425611,0.018761851024734984,-0.01050096918749068,0.006812108804818653,0.06095959315076005, ,1.8583028316497803
0.014581650635582928,0.020724295043066207,-0.0925390660658242, ,0.014962654923064323,0.020437104988990165,-0.09301080872937943, ,0.0006709571781101936, ,0.0072528760435995165,0.0005587221290060001,-0.019529930832372942,-0.013257210055093673,-0.003827229637510376,-0.0005484501167154986, ,0.020840695277234204, ,0.013798494987927585, ,7.499280134877135e-05, ,0.22139530603826824,-0.18062699919523706,0.10556207986,-4.179749643477024,0.8907333419709063,-1.3970791282312682, ,0.031812585168780015,0.03347334799240592,0.02016305255696203,-0.0017225072277281814,0.03439940517025284,-0.004396745392167979, ,1.8642909526824951
0.014581650635582928,0.020724295043066207,-0.0925390660658242, ,0.015009281548798617,0.020439177392932998,-0.09312865543582274, ,0.0007821610432452199, ,0.0072528760435995165,0.0005587221290060001,-0.019529930832372942,-0.013257210055093673,-0.003827229637510376,-0.0005484501167154986, ,0.020840695277234204, ,0.013798494987927585, ,7.559843465224841e-05, ,0.22139530603826824,-0.18062699919523706,0.10556207986,-4.179749643477024,0.8907333419709063,-1.3970791282312682, ,0.031812585168780015,0.03347334799240592,0.02016305255696203,-0.0017225072277281814,0.03439940517025284,-0.004396745392167979, ,1.8699028491973877
0.01465364586799996,0.02073196722641744,-0.09274244512240655, ,0.015055835402854137,0.020441243130858665,-0.09324612676126118, ,0.0007070870632418409, ,0.006967066284884523,0.0009380558923364533,-0.01941581717424975,0.024311864146171855,0.021426697866421738,-0.00891798440329025, ,0.020649307930751898, ,0.0324062858185169, ,7.611879408809359e-05, ,0.22170421535323723,-0.18028719894877118,0.10577596771000002,-4.179749643477024,0.8914165244697335,-1.3973911815293287, ,0.030631679005316582,0.03027015679696038,0.02050040092664093,-0.0017225072277281814,0.06836932049628423,-0.031975307196414865, ,1.8764009475708008
0.014712294232862277,0.02073775701988552,-0.09289351354799336, ,0.015102316516368073,0.020443302205757623,-0.09336322327875918, ,0.0006778261210445271, ,0.007574971615042075,0.0007261403550084803,-0.019393414335570538,-0.0272449307452978,-0.0076943343762998625,0.02374245157703695, ,0.020832954528222297, ,0.028310533190360938, ,7.660418257489731e-05, ,0.2219822337367093,-0.18005551696254443,0.10593411509000002,-4.179959333420509,0.8916897974692644,-1.3972873023761594, ,0.03546223526101299,0.030691119520850834,0.020291479643312103,-0.013221085189943423,0.032778724589118256,0.013484765679586813, ,1.8836238384246826
0.014712294232862277,0.02073775701988552,-0.09289351354799336, ,0.015148724920579249,0.020445354620671485,-0.09347994556093489, ,0.0007873204011391375, ,0.007574971615042075,0.0007261403550084803,-0.019393414335570538,-0.0272449307452978,-0.0076943343762998625,0.02374245157703695, ,0.020832954528222297, ,0.028310533190360938, ,7.720429867114538e-05, ,0.2219822337367093,-0.18005551696254443,0.10593411509000002,-4.179959333420509,0.8916897974692644,-1.3972873023761594, ,0.03546223526101299,0.030691119520850834,0.020291479643312103,-0.013221085189943423,0.032778724589118256,0.013484765679586813, ,1.8897960186004639
0.014803585929420134,0.020742588665546256,-0.09312268960298833, ,0.015195060646826073,0.020447400378691794,-0.09359629417996065, ,0.0006816816517944885, ,0.007513875964437572,0.0002829983523553213,-0.01800800631714611,-0.03789606580310792,-0.02514350543901582,0.01583875377530014, ,0.01951478187412718, ,0.04547862987537342, ,7.768720506146839e-05, ,0.22241470677766587,-0.179661657585959,0.10617263245000001,-4.180169023363993,0.8919630704687952,-1.3970200657427085, ,0.03672482258454752,0.03211402421606456,0.018717757367802585,-0.010064659348064914,0.012797389857152053,0.014506659113778624, ,1.896148920059204
0.014803585929420134,0.020742588665546256,-0.09312268960298833, ,0.015241323726544886,0.020449439482958787,-0.0937122697075614, ,0.0007906677696679674, ,0.007513875964437572,0.0002829983523553213,-0.01800800631714611,-0.03789606580310792,-0.02514350543901582,0.01583875377530014, ,0.01951478187412718, ,0.04547862987537342, ,7.828357528016738e-05, ,0.22241470677766587,-0.179661657585959,0.10617263245000001,-4.180169023363993,0.8919630704687952,-1.3970200657427085, ,0.03672482258454752,0.03211402421606456,0.018717757367802585,-0.010064659348064914,0.012797389857152053,0.014506659113778624, ,1.9019789695739746
0.014886186076723864,0.02074809212473268,-0.09333145997212793, ,0.01528751419127398,0.020451471936664124,-0.09382787271501729, ,0.0007038987162945503, ,0.007247389507732299,0.0005281073845278276,-0.018476944734571562,0.020416611119185434,0.013397608668910533,-0.0021371225916845876, ,0.019854496689938852, ,0.024419905284581735, ,7.878362644269834e-05, ,0.222762229757006,-0.17933730280524157,0.10636318708,-4.180169023363993,0.892509616467857,-1.3973840586173538, ,0.0347735220075012,0.0314020322827501,0.01949670932680539,-0.010064659348064914,0.050807832375953856,-0.017449524004362765, ,1.9084579944610596
0.014947327858153094,0.02075183542722711,-0.09348825910438992, ,0.015333632072649043,0.020453497743047826,-0.09394310377316117, ,0.0006671731354366912, ,0.007247389507732299,0.0005281073845278276,-0.018476944734571562,0.020416611119185434,0.013397608668910533,-0.0021371225916845876, ,0.019854496689938852, ,0.024419905284581735, ,7.92414609337808e-05, ,0.22310203000347187,-0.17901294802452414,0.10655763058,-4.180169023363993,0.8930561624669188,-1.3976663727518583, ,0.032588235425299025,0.03356807271258252,0.019472874718826406,-0.009374773353408803,0.04436177982916058,-0.012557581914270427, ,1.9142320156097412
0.014947327858153094,0.02075183542722711,-0.09348825910438992, ,0.015379677402405964,0.020455516905400314,-0.09405796345238121, ,0.0007741407100220651, ,0.007123578201180731,0.0003099746709617209,-0.01862057215937364,-0.005425854041229494,0.0011673945255535124,0.00460782528404486, ,0.0199390861933895, ,0.005549816529736592, ,7.980969856854851e-05, ,0.22310203000347187,-0.17901294802452414,0.10655763058,-4.180169023363993,0.8930561624669188,-1.3976663727518583, ,0.032588235425299025,0.03356807271258252,0.019472874718826406,-0.009374773353408803,0.04436177982916058,-0.012557581914270427, ,1.919801950454712
0.015028728645399461,0.020754086253773715,-0.09368823205038314, ,0.015425650212380475,0.020457529427062072,-0.09417245232261949, ,0.0006927928650387431, ,0.007929396417444183,0.00035993174161563335,-0.019370954803092637,-0.04121016642738988,-0.022778244804005848,0.014639029158209147, ,0.020934153156673352, ,0.04708634118175682, ,8.03733068855693e-05, ,0.22348816664718307,-0.17865770231230982,0.10676503698,-4.180378713307477,0.8931927989666841,-1.3976144331752738, ,0.03727295426491389,0.03387966496196743,0.020137561972187107,-0.00556799244827661,0.014324824421061387,0.019115121088620325, ,1.923604965209961
0.015028728645399461,0.020754086253773715,-0.09368823205038314, ,0.015471550534506731,0.020459535311422583,-0.09428657095337233, ,0.0008005378978804035, ,0.007929396417444183,0.00035993174161563335,-0.019370954803092637,-0.04121016642738988,-0.022778244804005848,0.014639029158209147, ,0.020934153156673352, ,0.04708634118175682, ,8.104819220635965e-05, ,0.22348816664718307,-0.17865770231230982,0.10676503698,-4.180378713307477,0.8931927989666841,-1.3976144331752738, ,0.03727295426491389,0.03387966496196743,0.020137561972187107,-0.00556799244827661,0.014324824421061387,0.019115121088620325, ,1.9283130168914795
0.015103493947611228,0.0207587166697481,-0.09388105937532445, ,0.015517378400816581,0.020461534561920167,-0.09440031991369102, ,0.000911830138208851, ,0.008338841115543208,0.0005602059646344924,-0.021485224662264768,-0.010006226917329613,-0.027723088737894308,-0.015789685897382395, ,0.023053524256847934, ,0.02947354149131615, ,8.18373856314082e-05, ,0.22382024416077473,-0.17832562479871816,0.10696596193,-4.180378713307477,0.8934660719662151,-1.3976739115023855, ,0.036512867086752894,0.03572927016508689,0.022309259831932778,-0.00556799244827661,0.016838034666140655,-0.025785277667005474, ,1.9339630603790283
0.015103493947611228,0.0207587166697481,-0.09388105937532445, ,0.015563133843442859,0.020463527182043955,-0.09451369977218163, ,0.0008358466002962226, ,0.008338841115543208,0.0005602059646344924,-0.021485224662264768,-0.010006226917329613,-0.027723088737894308,-0.015789685897382395, ,0.023053524256847934, ,0.02947354149131615, ,8.254344847703153e-05, ,0.22382024416077473,-0.17832562479871816,0.10696596193,-4.180378713307477,0.8934660719662151,-1.3976739115023855, ,0.036512867086752894,0.03572927016508689,0.022309259831932778,-0.00556799244827661,0.016838034666140655,-0.025785277667005474, ,1.9376988410949707
0.015103493947611228,0.0207587166697481,-0.09388105937532445, ,0.015608816894616108,0.02046551317533188,-0.0946267110970049, ,0.0009472676812562549, ,0.008338841115543208,0.0005602059646344924,-0.021485224662264768,-0.010006226917329613,-0.027723088737894308,-0.015789685897382395, ,0.023053524256847934, ,0.02947354149131615, ,8.336334447734829e-05, ,0.22382024416077473,-0.17832562479871816,0.10696596193,-4.180378713307477,0.8934660719662151,-1.3976739115023855, ,0.036512867086752894,0.03572927016508689,0.022309259831932778,-0.00556799244827661,0.016838034666140655,-0.025785277667005474, ,1.9414770603179932
0.01519210339404096,0.020767825348277716,-0.09411029239507243, ,0.015654427586665354,0.02046749254537098,-0.09473935445587713, ,0.0008364583240852243, ,0.008305790836247605,0.000857540891961391,-0.0219613686673093,0.023361492863838734,0.009535079332041969,-0.013065039321865979, ,0.023495175069327644, ,0.02523235974206534, ,8.406390058104133e-05, ,0.2242218262702344,-0.1779626563536296,0.10720707187000002,-4.180378713307477,0.8940126179652769,-1.3979562256368898, ,0.03734629734689916,0.03479902514062001,0.023152342325581398,-0.00556799244827661,0.06476056443170485,-0.040427125809554335, ,1.9452638626098633
0.01519210339404096,0.020767825348277716,-0.09411029239507243, ,0.01569996595201923,0.02046946529579842,-0.0948516304160695, ,0.0009468501254620702, ,0.008305790836247605,0.000857540891961391,-0.0219613686673093,0.023361492863838734,0.009535079332041969,-0.013065039321865979, ,0.023495175069327644, ,0.02523235974206534, ,8.487676313250268e-05, ,0.2242218262702344,-0.1779626563536296,0.10720707187000002,-4.180378713307477,0.8940126179652769,-1.3979562256368898, ,0.03734629734689916,0.03479902514062001,0.023152342325581398,-0.00556799244827661,0.06476056443170485,-0.040427125809554335, ,1.9490878582000732
0.01519210339404096,0.020767825348277716,-0.09411029239507243, ,0.015745432023203592,0.020471431430299752,-0.09496353954440859, ,0.0010592698543409993, ,0.008305790836247605,0.000857540891961391,-0.0219613686673093,0.023361492863838734,0.009535079332041969,-0.013065039321865979, ,0.023495175069327644, ,0.02523235974206534, ,8.580334264091518e-05, ,0.2242218262702344,-0.1779626563536296,0.10720707187000002,-4.180378713307477,0.8940126179652769,-1.3979562256368898, ,0.03734629734689916,0.03479902514062001,0.023152342325581398,-0.00556799244827661,0.06476056443170485,-0.040427125809554335, ,1.9532239437103271
0.01519210339404096,0.020767825348277716,-0.09411029239507243, ,0.015790825832842574,0.020473390952609864,-0.09507508240727656, ,0.0011730217132370987, ,0.008305790836247605,0.000857540891961391,-0.0219613686673093,0.023361492863838734,0.009535079332041969,-0.013065039321865979, ,0.023495175069327644, ,0.02523235974206534, ,8.684431460344666e-05, ,0.22468519024268788,-0.17754562877842148,0.10748447793000002,-4.180588403250962,0.894695800464104,-1.3982682789349503, ,0.04213896161566198,0.038860336428530214,0.026592339766277135,-0.011190083041520096,0.0492174285893698,-0.012293884604828866, ,1.9576630592346191
0.01529337611778102,0.0207769699841599,-0.09437400408106454, ,0.015836147413659393,0.02047534386651312,-0.09518625957061126, ,0.0010224177105150997, ,0.009634163592441618,0.0009998499710201416,-0.025373915748552224,-0.008956290023665655,-0.004507949112266041,0.0065477791008906215, ,0.027159757151070094, ,0.010026276381719561, ,8.772473896165019e-05, ,0.22468519024268788,-0.17754562877842148,0.10748447793000002,-4.180588403250962,0.894695800464104,-1.3982682789349503, ,0.04213896161566198,0.038860336428530214,0.026592339766277135,-0.011190083041520096,0.0492174285893698,-0.012293884604828866, ,1.9617359638214111
0.01539722234827862,0.020790517367202627,-0.09466133872057708, ,0.01588139679847609,0.020477290175843467,-0.09529707159990679, ,0.0008583079083240519, ,0.010460768988063742,0.0016945748645757655,-0.028766526273239643,-0.013929967707362009,0.006653015883937755,0.017181360096540924, ,0.030656358322903827, ,0.01543654501502499, ,8.843163174674414e-05, ,0.22510994055077024,-0.17713632393608758,0.10778521721,-4.180798093194446,0.8952423464631658,-1.3983872355891738, ,0.04282352958414746,0.03838873040391213,0.03022544880455408,-0.008620697706020756,0.059518266379925855,0.00282859533619928, ,1.9660978317260742
0.01539722234827862,0.020790517367202627,-0.09466133872057708, ,0.01592657402020855,0.0204792298844814,-0.09540751906021205, ,0.0009663840793037167, ,0.010460768988063742,0.0016945748645757655,-0.028766526273239643,-0.013929967707362009,0.006653015883937755,0.017181360096540924, ,0.030656358322903827, ,0.01543654501502499, ,8.924725242423404e-05, ,0.22510994055077024,-0.17713632393608758,0.10778521721,-4.180798093194446,0.8952423464631658,-1.3983872355891738, ,0.04282352958414746,0.03838873040391213,0.03022544880455408,-0.008620697706020756,0.059518266379925855,0.00282859533619928, ,1.969897985458374
0.01539722234827862,0.020790517367202627,-0.09466133872057708, ,0.01597167911187512,0.020481162996359128,-0.09551760251613325, ,0.0010765167846262336, ,0.010460768988063742,0.0016945748645757655,-0.028766526273239643,-0.013929967707362009,0.006653015883937755,0.017181360096540924, ,0.030656358322903827, ,0.01543654501502499, ,9.01730485889534e-05, ,0.22510994055077024,-0.17713632393608758,0.10778521721,-4.180798093194446,0.8952423464631658,-1.3983872355891738, ,0.04282352958414746,0.03838873040391213,0.03022544880455408,-0.008620697706020756,0.059518266379925855,0.00282859533619928, ,1.9738249778747559
0.015494679914771211,0.020807299251804308,-0.0949292387290812, ,0.016016712106591027,0.02048308951545727,-0.09562732253183275, ,0.0009300271813783072, ,0.01062197290751474,0.001770823484253048,-0.028987385296165905,0.040151501066147996,0.02837700573116976,-0.007754055341388102, ,0.030922979005405263, ,0.049166828508198826, ,9.094432542455051e-05, ,0.22551152266022992,-0.17678107822387326,0.10806780843000001,-4.180798093194446,0.8959255289619931,-1.3986992888872343, ,0.0457114362035023,0.03898806144555085,0.030750601389961392,-0.008620697706020756,0.09908420339149347,-0.048577364201546534, ,1.9778718948364258
0.015494679914771211,0.020807299251804308,-0.0949292387290812, ,0.016061673037567076,0.02048500944580395,-0.09573667967102854, ,0.0010379367972484512, ,0.01062197290751474,0.001770823484253048,-0.028987385296165905,0.040151501066147996,0.02837700573116976,-0.007754055341388102, ,0.030922979005405263, ,0.049166828508198826, ,9.182322495884142e-05, ,0.22551152266022992,-0.17678107822387326,0.10806780843000001,-4.180798093194446,0.8959255289619931,-1.3986992888872343, ,0.0457114362035023,0.03898806144555085,0.030750601389961392,-0.008620697706020756,0.09908420339149347,-0.048577364201546534, ,1.982100009918213
0.015610486748438197,0.02082530147354515,-0.09524246196222765, ,0.016106561938113176,0.020486922791477097,-0.09584567449699595, ,0.0008511498624747475, ,0.011062246859325723,0.0017750525335144716,-0.029887404429096216,-0.017836783132444235,0.00201634731649963,0.019685274978528674, ,0.03191834990380546, ,0.017949725391116483, ,9.250714238974007e-05, ,0.22600577756418028,-0.17636405064866512,0.10839836238000002,-4.1810077831379315,0.8967453479605857,-1.398796045128429, ,0.045689427808604126,0.039100511560968595,0.03141777420118344,-0.010278491276172419,0.057236041731807956,0.005341616549771597, ,1.985929012298584
