NicholasDascanio/dvrk_moveit_final/test/execution/third_experiment_notsharpbends/old_data/thirdexp_200vel5.0.csv
Current Position (x),Current Position (y),Current Position (z), ,Planned Position (x),Planned Position (y),Planned Position (z), ,Position Error,,Cartesian linear Velocity(x),Cartesian linear Velocity(y),Cartesian linear Velocity(z),Cartesian Angular Velocity(x),Cartesian Angular Velocity(y),Cartesian Angular Velocity(z), ,Total Linear Velocity, ,Total Angular Velocity, ,MSE, ,Joint 1 Position,Joint 2 Position,Joint 3 Position,Joint 4 Position,Joint 5 Position,Joint 6 Position, ,Joint 1 Velocity,Joint 2 Velocity,Joint 3 Velocity,Joint 4 Velocity,Joint 5 Velocity,Joint 6 Velocity, ,Time Stamp
0.010064066223225724,0.01989702843591107,-0.0801794013076814, ,0.01030231935337389,0.019897068286030748,-0.08037339340372415, ,0.0003072417434862802, ,0.00284694538366781,0.0006632605748788186,-0.0030134227949369843,-0.05472840003490796,-0.22792305936037155,-0.06056704440993547, ,0.004198300793037805, ,0.23440161850619523, ,2.5603478623856686e-05, ,0.14110977507783024,-0.23867105947790848,0.08980956378,-4.538109756892076,0.1470208737476139,-1.3953808704123694, ,0.0034934470460759666,-0.002592026568282435,0.0031232963764705884,0.0013334419894086313,-0.23825589741985703,0.024616157714774378, ,0.05242204666137695
0.01012576293070289,0.01995330731682454,-0.08033876674480851, ,0.010359472284678452,0.020031205510418156,-0.08050826068820002, ,0.0002990257305771997, ,0.0017007890663448928,0.0014402945262501523,-0.0035445548559597277,-0.11538820080451517,-0.07886852170881933,-0.016908431096359672, ,0.004187003809104091, ,0.13976652174565307, ,2.7557612457430905e-05, ,0.14127195246818897,-0.2389027414641352,0.08998067406000002,-4.537690377005107,0.1441515072525397,-1.3995753936459894, ,0.004453434635551985,-0.007922693935976709,0.0038577891789779613,-0.0011553637344096322,-0.09296262533929338,0.11121279716978943, ,0.10977506637573242
0.010173935755310387,0.0200313658799015,-0.08045776926359326, ,0.010418467242517777,0.020160048276019003,-0.08064711988450562, ,0.0003349753199062563, ,0.0008877429523164637,0.0019255073715865193,-0.0034477895569863005,0.06062024607489282,0.018155680175468033,-0.0029810855282011266, ,0.004047581872758767, ,0.0632806681090461, ,3.0362670773217297e-05, ,0.1417275937077682,-0.23944333276533092,0.09012067338,-4.537480687061622,0.14483468975136687,-1.394660007575054, ,0.008173725238780846,-0.011626677475921436,0.00392722177514793,0.011121035115522189,0.03084553340066629,-0.04371462358389461, ,0.15681004524230957
0.010252953620512534,0.0201512345509,-0.08064649095498484, ,0.010479279184748419,0.02028369161942103,-0.08078989413985493, ,0.0002988856126660543, ,0.001202099730271292,0.002005018461294525,-0.0019182366584321272,0.02139715951051668,-0.008387491562918802,-0.01060033747352569, ,0.003024032848598545, ,0.02298235083298826, ,3.1003210165894766e-05, ,0.14237630326920306,-0.24026966518287293,0.09034104268000001,-4.537270997118139,0.1449713262511323,-1.3946897467386097, ,0.01125242721112828,-0.017207061026014648,0.0024768794153319862,0.013456312417356621,0.0,-0.002534338145948109, ,0.20517706871032715
0.010306281466941855,0.020244198223321797,-0.08075644353954224, ,0.010541883278739577,0.020402229799840358,-0.08093650720475538, ,0.0003360135658411749, ,0.001413059513052835,0.002351675841459579,-0.003285276118411007,-0.00018950830295117447,-0.00725479020556952,-0.0035708812217981234, ,0.004280205091457117, ,0.0072572649077330825, ,3.216616270361154e-05, ,0.1428319445087823,-0.2410110475387985,0.09047585684000001,-4.536851617231169,0.1449713262511323,-1.3939546380773447, ,0.011418233853744528,-0.01733277471387594,0.003904120470588236,0.0070732506812917,8.153286855217619e-06,0.018505602125600273, ,0.2528541088104248
0.010376987364098348,0.020365526725570588,-0.08092026573125694, ,0.010606254900594898,0.020515756301799255,-0.0810868834311426, ,0.00032077092570903856, ,0.0013811554309970265,0.002346492872469443,-0.0031976549239684424,-0.004179856798595012,-0.007085296249652842,-0.0017513552549731832, ,0.004199835251280948, ,0.008226337305738742, ,3.3279173652386034e-05, ,0.1434034267414749,-0.241922330017957,0.09067159663,-4.536641927287684,0.1449713262511323,-1.392566099494955, ,0.01111447815570369,-0.017479635579014694,0.00381619825586967,0.0053043254871392494,-0.00023966378825550428,0.022401403471728573, ,0.2960681915283203
0.010435542902279453,0.02046122009424971,-0.08106524737987977, ,0.010672369634373069,0.020624363837805935,-0.08124094777051732, ,0.0003370065420223595, ,0.001489044717482285,0.0022675948179573207,-0.003524522861676396,0.013330754095363431,-0.010333269392666395,-0.00221171732311237, ,0.004447640029450266, ,0.01686669678830407, ,3.436799138782098e-05, ,0.14384362251530572,-0.24259420777801452,0.09084141062000001,-4.5364322373442,0.14483468975136687,-1.3920462878905557, ,0.011836558987282657,-0.015544134571412084,0.0041266351088082905,0.0047361871914920126,0.0,0.002738632330622876, ,0.33888912200927734
0.01049914971537638,0.020553424695992344,-0.08121697177409379, ,0.010740203271305229,0.020728144351028044,-0.08139862577207702, ,0.00034875772344856613, ,0.0016094048797730986,0.00235529545360663,-0.004239299147254275,-0.004038816849706789,-0.008536693369920618,-0.0007901642384592207, ,0.00510972191031257, ,0.009443896116980073, ,3.537913922817712e-05, ,0.1443456001521303,-0.24319658094220403,0.09101770606000001,-4.536012857457231,0.14483468975136687,-1.391474536709572, ,0.011992536529567898,-0.014437386514296482,0.00485190725555894,0.0037751338102715477,0.0,0.019039485854583496, ,0.38276219367980957
0.010559943277704726,0.020634281185461987,-0.08134897360356559, ,0.010809731809012202,0.02082718901797038,-0.08155984358084736, ,0.00037957066474458726, ,0.0016640962393946715,0.0019971397820842205,-0.00341347600223801,-0.004986765760218023,-0.010769111129817847,-0.0009184828041527411, ,0.004290641213269374, ,0.011867669813835373, ,3.702809785501896e-05, ,0.1448475777889549,-0.24372944951052553,0.09117196457000001,-4.536012857457231,0.14483468975136687,-1.3909844642687283, ,0.014058806156810485,-0.012589140562280549,0.003978224655344656,0.0035931394872262025,0.0,0.018124251348824116, ,0.4222681522369385
0.010638731797055621,0.020733407235922662,-0.08155734615124895, ,0.010880931450717663,0.020921588251140846,-0.08172452793581066, ,0.00034931721373530515, ,0.0021717833624541097,0.002485339028546598,-0.005585786483786551,0.004575087782773097,-0.01820382310479521,0.01256105142889163, ,0.006488032344455594, ,0.018769938689643485, ,3.806396600157267e-05, ,0.1454422282202702,-0.2442314271473501,0.09140659306000001,-4.535174097683293,0.1449713262511323,-1.390115737290738, ,0.016316530529310657,-0.012007711193024266,0.0062514958869701745,-0.011033027296399971,0.0,0.00581143075188978, ,0.45934414863586426
0.01072297146109435,0.020829606416414084,-0.08174142517686599, ,0.010953778604462812,0.021011431701728332,-0.08189260616803494, ,0.00033043617220326345, ,0.0019225260789545924,0.002255566134225906,-0.003593882813318156,-0.0047406467781546694,-0.010115987034500309,-0.011302571413819027, ,0.004658291402004703, ,0.011171701972298791, ,3.874469376957538e-05, ,0.14614499691182462,-0.24477974118142007,0.09161788833000001,-4.5353837876267775,0.14510796275089774,-1.3898187614937316, ,0.017547511382853324,-0.012555827144544954,0.004201744004220523,0.013647128465143599,0.00010048468431405146,0.018753217544344995, ,0.49724316596984863
0.010787537085014962,0.020901987171085743,-0.08186415141468947, ,0.011028249882316522,0.021096808262264777,-0.08206400619879885, ,0.0003685645711192765, ,0.0024623733081164173,0.0028100732107035594,-0.005782997054697555,-0.008591685259386046,-0.013829340265283175,-0.004940692750224565, ,0.00688497267189047, ,0.0162808998922483, ,4.010565785459361e-05, ,0.1467010336787688,-0.24522765968812507,0.09176177652,-4.534964407739808,0.14510796275089774,-1.389247010312748, ,0.019252777755826896,-0.014615268990985796,0.006560466029654037,0.008381333240129686,0.00010362198570127322,0.024493042704948984, ,0.5288090705871582
0.010858533888150404,0.020989999457086704,-0.08205043696918564, ,0.011104322099587215,0.021177806069299338,-0.0822386565377177, ,0.0003620908372915381, ,0.002283518714049246,0.0026142963074351497,-0.005098062792944017,0.007206686248861862,-0.010287972605576104,-0.010924771078415286, ,0.006167596544950256, ,0.012560999306540636, ,4.125147757312169e-05, ,0.14724934771283874,-0.24566785546195588,0.0919717755,-4.534754717796323,0.14538123575042863,-1.3891431311595785, ,0.01859630444022551,-0.014157383493729789,0.005836867541223892,0.014906055754000166,0.0035668490311497546,0.009510246013868604, ,0.5615379810333252
0.010925968447230849,0.021065097348273845,-0.08219476168691851, ,0.011181972274030979,0.021254512506060086,-0.08241648628086698, ,0.00038804362756925863, ,0.00234020030581434,0.002408921742069564,-0.004574630033839169,-0.0149701540769539,-0.008531519249551983,-0.00668908874761242, ,0.005675093072122461, ,0.017230563884845996, ,4.2506252235001416e-05, ,0.1478131072126571,-0.246084883037164,0.09213770062000001,-4.534754717796323,0.14551787225019408,-1.3885194404020098, ,0.0202988110285499,-0.013250061652955987,0.005293722671984049,0.011601972134526326,0.0050436504462815475,0.030736738599238055, ,0.5942370891571045
0.010992283690010018,0.021138210311763703,-0.08235016008390822, ,0.011261177625060764,0.02132701420512312,-0.08259742510890533, ,0.0004112065795212574, ,0.0025929466115788527,0.0027619867598380602,-0.006811628976237906,-0.01808478635490954,-0.002961434180563123,-0.0027482689765344686, ,0.007794243536222285, ,0.01832565347387226, ,4.4204331878986457e-05, ,0.14836914397960127,-0.2464324060165041,0.09231399606000001,-4.534125647965871,0.1459277817494904,-1.388118585451834, ,0.019898708651388295,-0.010719932601795188,0.007570727908745247,0.008799213128613974,0.011010079532281907,0.031801186918479815, ,0.6205630302429199
0.01105080954415043,0.02119731776867476,-0.08250257320740263, ,0.011341915572953103,0.02139539705107545,-0.08278140328519681, ,0.00044913732243529304, ,0.0029312886874767892,0.0030331236956958126,-0.008284518599818252,-0.007081754789163472,-0.006311852719904525,-0.0020902475957849695, ,0.009296533824681938, ,0.009486342637033109, ,4.607413239571073e-05, ,0.14879389428768364,-0.2466486425369824,0.09248251376000001,-4.534125647965871,0.1459277817494904,-1.3876285130109907, ,0.021224992520346854,-0.009481611783409035,0.009096979737292977,0.00742730948722217,0.011010079532281907,0.01925380603210312, ,0.6468861103057861
0.011144003677398257,0.021284072135906027,-0.082747786079497, ,0.011424163738055217,0.02145974618318042,-0.08296835165393213, ,0.0003974923937624171, ,0.003398254769422522,0.0027601165801329547,-0.008621965223879008,-0.02178119343385849,-0.012623396901762545,0.004480731928881392, ,0.009669780935243918, ,0.025174798690278583, ,4.776616306380259e-05, ,0.14951983117786075,-0.24688804725608335,0.09275214208,-4.533915958022385,0.14647432774855218,-1.3877474696652141, ,0.02591396547200185,-0.005357592068348503,0.00941419120567376,0.0,0.009872627865763617,0.028740298655607073, ,0.6683871746063232
0.01121423322631244,0.02134423982452901,-0.0829264679115578, ,0.01150789993999033,0.021520145998040086,-0.08315820163824915, ,0.00041338074542477163, ,0.0035824337888960933,0.0030503393518491427,-0.009334620456711238,-0.018228627464982758,-0.008488618533511556,-0.008072023206549756, ,0.010453398542297897, ,0.020108193180671176, ,4.94762868574146e-05, ,0.15002953154755955,-0.2470270564478194,0.092943993,-4.533496578135416,0.1466109642483176,-1.3874504938682077, ,0.026844962251335442,-0.006273609807594151,0.010119956493011438,0.013729445546636517,0.011726545427817968,0.02850525005988718, ,0.689338207244873
0.011269279780585848,0.021390037006864555,-0.08307291612113686, ,0.011593102196862643,0.02157668015225734,-0.0833508852383526, ,0.00046579335668421937, ,0.003689313895552997,0.0028898615001530614,-0.009417223414202095,0.030469806159354355,-0.01853131467842784,-0.008533128208906317, ,0.010518860838654703, ,0.0356625663270931, ,5.1475452598120275e-05, ,0.15046200458851614,-0.24710428377656163,0.09310732554000001,-4.533496578135416,0.1468842372478485,-1.3874282934551787, ,0.02769904890790157,-0.004245518253391989,0.010250200463320465,0.011420269539539729,0.009994824340966853,-0.023445007864144524, ,0.71073317527771
0.011327596110641385,0.02143282141298513,-0.0832103993911638, ,0.011679748724462388,0.02162943156510008,-0.08354633502963353, ,0.0005248997699844164, ,0.0037604679668587922,0.0026219399025925326,-0.008699502567032781,-0.010886184745435288,-0.012210771065022372,-0.004598573004229767, ,0.009833464958822398, ,0.016358847712668847, ,5.417963808855864e-05, ,0.15091764582809536,-0.24717378837242965,0.09325769518,-4.533496578135416,0.1470208737476139,-1.387212996398313, ,0.030126013193165324,-0.003166179970670542,0.009509738220895524,0.009773862034019608,0.013791527861913955,0.017540187073898025, ,0.7268900871276855
0.011421200531634153,0.021494581992646644,-0.08341577508525616, ,0.011767817935468492,0.021678482421159283,-0.08374448416078775, ,0.0005118717110613004, ,0.004347724978841625,0.003111643295285867,-0.010493874449061507,-0.0031540548882876386,0.004276000783330426,-0.005167065236075687, ,0.011777369716596608, ,0.0053133904130098965, ,5.667487235138453e-05, ,0.1517208100470147,-0.24723557023542345,0.09348324964000002,-4.5330771982484475,0.14770405624644115,-1.3873616922160923, ,0.035959432193433415,-0.002874432154454367,0.011459576633093526,0.016333646219372475,0.036063269784123046,0.013568091675611496, ,0.7427291870117188
0.011466448380601882,0.02152662584710224,-0.08352924346505151, ,0.011857288438653217,0.02172391417301379,-0.08394526635193451, ,0.0006039484058502168, ,0.0049801538430302205,0.0035561768915557124,-0.012702804939766069,0.016145738392214188,0.000508232237851982,-0.0017877437859488178, ,0.014099985096517966, ,0.016153725189215984, ,5.970930444086749e-05, ,0.15207605575922906,-0.2472510157011719,0.09360639719000001,-4.532867508304963,0.147977329245972,-1.3874211705432042, ,0.039722453561519794,-0.001402871092512323,0.013779248719723186,0.012846691728268739,0.039916593092066126,-0.007355524780909015, ,0.7587881088256836
0.01151845486457921,0.02156122453348193,-0.08365765871008875, ,0.011948139038083514,0.021765807543887277,-0.0841486158927337, ,0.0006837555501034441, ,0.005085622395320438,0.0037563334259662568,-0.01374946951005019,-0.01619396324401581,-0.007305816506429463,-0.003355869570490809, ,0.015133456570216072, ,0.01776566657855281, ,6.36012833458448e-05, ,0.15245446967006604,-0.24725873843404614,0.09374510022000002,-4.532867508304963,0.147977329245972,-1.3871761343227824, ,0.03743469095008709,-0.0009514275446328886,0.014831295642458102,0.01153939530807819,0.025417624085202317,0.022612277359733167, ,0.7693991661071777
0.011578132765441859,0.021603141396677475,-0.08381248066035576, ,0.012040348732324305,0.021804242530310183,-0.08435446764050329, ,0.0007401588698643489, ,0.005857072773720035,0.004100860464041644,-0.015472213263282464,-0.01112945129050412,-0.022932646514361072,-0.0051356421460145, ,0.01704440498482379, ,0.025490587978897864, ,6.777105411572683e-05, ,0.15290238817677107,-0.24726646116692036,0.09391232163,-4.532867508304963,0.14825060224550288,-1.3871539339097536, ,0.04215768172299901,0.00011004440595383597,0.016661936736401678,0.010173329140578944,0.015442501888959716,0.01482747335252024, ,0.7801480293273926
0.011642039724255112,0.021650047504405308,-0.08399207838603256, ,0.012133896713639961,0.021839298404779398,-0.08456275701833725, ,0.0007767968219993422, ,0.006262570568742767,0.00476809669922224,-0.018017770804004792,0.0240616222287757,0.024367767030439122,0.01795893407354327, ,0.01966200907860803, ,0.034245406048346014, ,7.20747770269207e-05, ,0.15338119761497299,-0.2472510157011719,0.09410546884000001,-4.5326578183614785,0.14879714824456466,-1.387272890563977, ,0.04866509823511321,0.0009318884002786597,0.019401719269183923,0.002171000975406026,0.07796761816090787,-0.013891764279614652, ,0.7907781600952148
0.011707804100263564,0.021698703341484014,-0.08417752609936599, ,0.012228762367196118,0.021871053718418198,-0.0847734200132208, ,0.0008100566183199363, ,0.007363905398093019,0.005114948704587324,-0.019698229134906778,0.023954824520693977,-0.009046718853940207,-0.00679223972985002, ,0.02164278249241334, ,0.025606127666635097, ,7.648475758497432e-05, ,0.1538831752517976,-0.24723557023542345,0.0943050975,-4.532448128417994,0.14948033074339184,-1.3876666226021779, ,0.054790381962165575,0.0018358102091238975,0.02121013517976032,0.01876457593455994,0.04551519311387297,-0.016775413206225744, ,0.8028061389923096
0.011785589899293307,0.02175095053355231,-0.08438112823919358, ,0.012324925270259968,0.02189958630363186,-0.08498639317414781, ,0.0008242092428552584, ,0.008172110095331909,0.005445211591252176,-0.02149347754353068,-0.03633797136762486,-0.036603182986337725,-0.010622243201043192, ,0.02363055838523479, ,0.05157748133435762, ,8.140399761964723e-05, ,0.15444693475161597,-0.24721240203680078,0.09452417051,-4.53223843847451,0.1497536037429227,-1.3875627434490085, ,0.05720129087309873,0.0028051485155384625,0.02308523408695653,0.015460352194444728,0.01224402362581478,0.03796050337943314, ,0.8082771301269531
0.011886915313773404,0.02181693793623736,-0.08464792392848072, ,0.012422365191402097,0.021924973276770805,-0.0852016136102363, ,0.0007777856195246559, ,0.008716217922028334,0.005404488597852672,-0.021816399485036886,0.00905811358023917,-0.026487541255962737,-0.003325177294303177, ,0.024106767480508978, ,0.027993469261149685, ,0.00045348942267969084, ,0.1551805943746673,-0.2471583429066812,0.0948106506,-4.53223843847451,0.15016351324221905,-1.3874886034593947, ,0.06522126567592494,0.004765057019965115,0.02349382230088496,0.013041391574548582,0.038186341085296865,-0.006536375508241078, ,0.814277172088623
0.011886915313773404,0.02181693793623736,-0.08464792392848072, ,0.012521062089696812,0.021947291040788155,-0.0854190189888451, ,0.001006837453315295, ,0.008716217922028334,0.005404488597852672,-0.021816399485036886,0.00905811358023917,-0.026487541255962737,-0.003325177294303177, ,0.024106767480508978, ,0.027993469261149685, ,0.000471934357034211, ,0.1551805943746673,-0.2471583429066812,0.0948106506,-4.53223843847451,0.15016351324221905,-1.3874886034593947, ,0.06522126567592494,0.004765057019965115,0.02349382230088496,0.013041391574548582,0.038186341085296865,-0.006536375508241078, ,0.8195300102233887
0.011886915313773404,0.02181693793623736,-0.08464792392848072, ,0.01262099611392168,0.02196661528789562,-0.08563854753368862, ,0.0012420197494165894, ,0.008716217922028334,0.005404488597852672,-0.021816399485036886,0.00905811358023917,-0.026487541255962737,-0.003325177294303177, ,0.024106767480508978, ,0.027993469261149685, ,0.0004967758213046103, ,0.1551805943746673,-0.2471583429066812,0.0948106506,-4.53223843847451,0.15016351324221905,-1.3874886034593947, ,0.06522126567592494,0.004765057019965115,0.02349382230088496,0.013041391574548582,0.038186341085296865,-0.006536375508241078, ,0.8248841762542725
0.011886915313773404,0.02181693793623736,-0.08464792392848072, ,0.01272214760175794,0.021983021002222682,-0.08586013802295232, ,0.0014814383451681574, ,0.009945304232102806,0.00627108381316864,-0.027411953757608538,0.06563020384501803,0.020306353480416407,0.021037000034185557, ,0.02982701421983328, ,0.06869975379097723, ,0.0005275465251753462, ,0.1558756403333475,-0.24706567011219052,0.09505953828000001,-4.532028748531025,0.15111996874057715,-1.3879418138247077, ,0.07622244301885203,0.012161561428610848,0.02933482784530387,0.003939819535045826,0.10902563818670079,-0.062416781983757594, ,0.8309249877929688
0.0120928840820606,0.02195091285827115,-0.0852247345933924, ,0.012824497078990544,0.02199658246247586,-0.0860837297874086, ,0.0011292546361950202, ,0.011970391084942203,0.00832313342365137,-0.03565791220596167,0.051003777319042626,0.008998673530815737,-0.011200651249906783, ,0.0385233892019178, ,0.05179096232690573, ,0.0005457801042971545, ,0.15668652728514107,-0.24691893818758026,0.09541342545,-4.531399678700571,0.15221306073870067,-1.3885881208338575, ,0.08201982848614588,0.013112745828170621,0.03774599886255925,0.033743817773694104,0.09355964500854817,-0.04539318689373862, ,0.8362610340118408
0.0120928840820606,0.02195091285827115,-0.0852247345933924, ,0.012928025258707483,0.022007373244596153,-0.08630926270853173, ,0.0013699816760390547, ,0.011970391084942203,0.00832313342365137,-0.03565791220596167,0.051003777319042626,0.008998673530815737,-0.011200651249906783, ,0.0385233892019178, ,0.05179096232690573, ,0.0005700213269954457, ,0.15668652728514107,-0.24691893818758026,0.09541342545,-4.531399678700571,0.15221306073870067,-1.3885881208338575, ,0.08201982848614588,0.013112745828170621,0.03774599886255925,0.033743817773694104,0.09355964500854817,-0.04539318689373862, ,0.8415369987487793
0.012223773964066757,0.022037943179315518,-0.08560686664698922, ,0.013032713040498762,0.02201546622441447,-0.08653667721661247, ,0.0012326537787486838, ,0.014506618671492614,0.009228786075358025,-0.04182386522685334,0.022626015660710992,-0.005586131674685895,-0.05326342722960848, ,0.04521999756986739, ,0.023302649592579425, ,0.0005889536827598239, ,0.1576055324971738,-0.24675676079722153,0.09583471970000002,-4.530980298813603,0.1530328797372933,-1.3890115920356143, ,0.0978318985138874,0.02124399855797421,0.044493886927374306,0.07374885563743966,0.08084817011741134,-0.02123579075733916, ,0.8468401432037354
0.012223773964066757,0.022037943179315518,-0.08560686664698922, ,0.013138541509655911,0.02202093358031077,-0.08676591428887293, ,0.0014766449895210745, ,0.014506618671492614,0.009228786075358025,-0.04182386522685334,0.022626015660710992,-0.005586131674685895,-0.05326342722960848, ,0.04521999756986739, ,0.023302649592579425, ,0.0006136117746143031, ,0.1576055324971738,-0.24675676079722153,0.09583471970000002,-4.530980298813603,0.1530328797372933,-1.3890115920356143, ,0.0978318985138874,0.02124399855797421,0.044493886927374306,0.07374885563743966,0.08084817011741134,-0.02123579075733916, ,0.8520979881286621
0.01236130450497182,0.02212361458906212,-0.08601228337039649, ,0.013245491936371026,0.022023846795871785,-0.08699691544758162, ,0.0013271176865012023, ,0.015626928218923388,0.009936378823537288,-0.0470636350339224,0.08767501526598412,0.02709667290218385,-0.014854268965101154, ,0.05057586630291638, ,0.09176550050235785, ,0.0006328957181788139, ,0.15854770590782918,-0.2465173560781206,0.09626508798000001,-4.530980298813603,0.1541259717354168,-1.389657899044764, ,0.10626757173400983,0.02859202818875287,0.049933578432601884,0.04638409722999755,0.1407214632732979,-0.08995871207149561, ,0.8574461936950684
0.01236130450497182,0.02212361458906212,-0.08601228337039649, ,0.013353545774935156,0.02202427666254631,-0.08722962275816765, ,0.0015736346292840589, ,0.015626928218923388,0.009936378823537288,-0.0470636350339224,0.08767501526598412,0.02709667290218385,-0.014854268965101154, ,0.05057586630291638, ,0.09176550050235785, ,0.0006576520053131625, ,0.15854770590782918,-0.2465173560781206,0.09626508798000001,-4.530980298813603,0.1541259717354168,-1.389657899044764, ,0.10626757173400983,0.02859202818875287,0.049933578432601884,0.04638409722999755,0.1407214632732979,-0.08995871207149561, ,0.8628020286560059
0.012536650053254177,0.02222659640507559,-0.0865260648836932, ,0.013462684662937255,0.022022293282303537,-0.0874639788273355, ,0.0013337775039278317, ,0.01709888085779677,0.009325414319252382,-0.048542226254783424,0.046494209338279545,-0.012978909723722641,0.004327145908664073, ,0.05230375520539067, ,0.048268976320024366, ,0.0006749885565596924, ,0.1597524522362082,-0.24615438763303202,0.09680952978000001,-4.530980298813603,0.15562897323283667,-1.3906384597650028, ,0.11615292724415029,0.03841981439614202,0.05138326296774194,0.017863492267042525,0.11301028900109499,-0.06650333820328501, ,0.8680901527404785
0.012536650053254177,0.02222659640507559,-0.0865260648836932, ,0.013572890420462747,0.022017966070289878,-0.08769992680117938, ,0.0015796431611442144, ,0.01709888085779677,0.009325414319252382,-0.048542226254783424,0.046494209338279545,-0.012978909723722641,0.004327145908664073, ,0.05230375520539067, ,0.048268976320024366, ,0.0006976049216743055, ,0.1597524522362082,-0.24615438763303202,0.09680952978000001,-4.530980298813603,0.15562897323283667,-1.3906384597650028, ,0.11615292724415029,0.03841981439614202,0.05138326296774194,0.017863492267042525,0.11301028900109499,-0.06650333820328501, ,0.8734920024871826
0.012720189857697359,0.022313322415804197,-0.08701600746759434, ,0.013684145049291616,0.022011363757485337,-0.08793741036329697, ,0.0013672497719672248, ,0.01828629025120226,0.007801297099751425,-0.04721300692578186,0.040319919621576376,-0.018753912979825694,0.01767013064004569, ,0.05122808478328787, ,0.04446538632451671, ,0.0007139377229009621, ,0.16104987135907792,-0.24568330092770432,0.09732804578000001,-4.530770608870118,0.15685870173072564,-1.3913961846778489, ,0.1319846196918926,0.05126793169015169,0.049933578432601884,0.005501366259982459,0.12760998310877342,-0.07293062723746271, ,0.8811790943145752
0.012901605411626318,0.022380927752230745,-0.08745808967250454, ,0.013796430732096642,0.02200255439335948,-0.08817637373290477, ,0.0012082262802486031, ,0.018522053228335115,0.005950008348602126,-0.04270699179564589,0.09825325966925882,0.0020646404902694756,-0.012434985668904467, ,0.04692926808906228, ,0.09827422708133265, ,0.0007257064980759058, ,0.16240907234494145,-0.2451349868936344,0.09779600647000002,-4.5303512289831485,0.15822506672838005,-1.392183648754251, ,0.14465997188791277,0.05983413717431954,0.04525230545454546,0.04255130909622226,0.16128633899619585,-0.12931047290088382, ,0.8866732120513916
0.012901605411626318,0.022380927752230745,-0.08745808967250454, ,0.013909729831642292,0.02199160534853102,-0.08841676166295177, ,0.0014446240914241786, ,0.018522053228335115,0.005950008348602126,-0.04270699179564589,0.09825325966925882,0.0020646404902694756,-0.012434985668904467, ,0.04692926808906228, ,0.09827422708133265, ,0.0007424255118747029, ,0.16240907234494145,-0.2451349868936344,0.09779600647000002,-4.5303512289831485,0.15822506672838005,-1.392183648754251, ,0.14465997188791277,0.05983413717431954,0.04525230545454546,0.04255130909622226,0.16128633899619585,-0.12931047290088382, ,0.8919751644134521
0.013098221536771672,0.02243022819568589,-0.08787614842486098, ,0.014024024889982145,0.021978583317421793,-0.08865851943823364, ,0.0012935220707215244, ,0.018841870638491274,0.003392974952938236,-0.03758560264572332,0.08548853585814967,0.02039136800896082,-0.022203292224195762, ,0.04218063411603848, ,0.08788641899887707, ,0.0007549504336666761, ,0.1640076780499059,-0.2444476636678284,0.09823933765000001,-4.5299318490961795,0.16000134122533075,-1.3934687240220232, ,0.15895635101921404,0.07384975996768155,0.039822028800000006,0.058515798935992305,0.1906368687158179,-0.12357888863468416, ,0.8972551822662354
0.013098221536771672,0.02243022819568589,-0.08787614842486098, ,0.014139298627655877,0.02196355432091126,-0.08890159287350557, ,0.0015340020638242643, ,0.018841870638491274,0.003392974952938236,-0.03758560264572332,0.08548853585814967,0.02039136800896082,-0.022203292224195762, ,0.04218063411603848, ,0.08788641899887707, ,0.0007722626921146225, ,0.1640076780499059,-0.2444476636678284,0.09823933765000001,-4.5299318490961795,0.16000134122533075,-1.3934687240220232, ,0.15895635101921404,0.07384975996768155,0.039822028800000006,0.058515798935992305,0.1906368687158179,-0.12357888863468416, ,0.9030351638793945
0.013284957540822682,0.022454311383682063,-0.08823966791370765, ,0.014255533942889437,0.021946583708998872,-0.08914592831159898, ,0.001421658838355466, ,0.019945105351929837,0.0019405793398131175,-0.03820683326793361,0.08165567556382865,-0.011792648610132362,-0.014842514609365799, ,0.043143193948030414, ,0.08250233025726894, ,0.0007863799996415974, ,0.16558311555624772,-0.24365222218178328,0.09862303949000001,-4.5299318490961795,0.1617776157222815,-1.3945904418095145, ,0.1667784561660295,0.09003504891695518,0.04022427151515152,0.04192978831445336,0.17175097527377145,-0.14111813041956672, ,0.9084250926971436
0.013284957540822682,0.022454311383682063,-0.08823966791370765, ,0.014372713910790973,0.021927736163455766,-0.08939147262153346, ,0.0016694758063334385, ,0.019945105351929837,0.0019405793398131175,-0.03820683326793361,0.08165567556382865,-0.011792648610132362,-0.014842514609365799, ,0.043143193948030414, ,0.08250233025726894, ,0.0008051692721244025, ,0.16558311555624772,-0.24365222218178328,0.09862303949000001,-4.5299318490961795,0.1617776157222815,-1.3945904418095145, ,0.1667784561660295,0.09003504891695518,0.04022427151515152,0.04192978831445336,0.17175097527377145,-0.14111813041956672, ,0.9137849807739258
0.013492589084387083,0.02246733703010181,-0.08863226898425325, ,0.014490821782548872,0.021907075700481716,-0.08963817319663106, ,0.001523878132143928, ,0.020381404933537905,0.0005024054483434996,-0.03752168649195266,0.046308109903182265,-0.007393519955539821,0.005011069941802185, ,0.04270282233646566, ,0.04689382483596054, ,0.0008201423733748093, ,0.16732073045294824,-0.24266371237388254,0.09903525971,-4.5299318490961795,0.1635538902192322,-1.3957938383371462, ,0.17253989374267414,0.1027023177039727,0.039330398814814815,0.022941087484393025,0.18406331735449974,-0.11934789752052578, ,0.9200689792633057
0.013698514722615063,0.022466332057049936,-0.08900920001781389, ,0.014609840984629745,0.021884665673362783,-0.08988597795263067, ,0.0013919737370837622, ,0.02119519181728828,-0.0005520152711118585,-0.03853252209158373,0.04472609921765749,-0.0005428623214691593,0.012138037226187642, ,0.043980633644475534, ,0.04472844403568108, ,0.0008318124012056042, ,0.16906606808252297,-0.2415748070386169,0.09942933187000001,-4.5299318490961795,0.1654668012159484,-1.3971086527684746, ,0.17972905598195224,0.11601093100057551,0.04022427151515152,0.01723472804074387,0.20155934083046007,-0.12945713041097895, ,0.9256510734558105
0.013698514722615063,0.022466332057049936,-0.08900920001781389, ,0.014729755117975545,0.02186056877512565,-0.09013483532580148, ,0.001642394822610948, ,0.02119519181728828,-0.0005520152711118585,-0.03853252209158373,0.04472609921765749,-0.0005428623214691593,0.012138037226187642, ,0.043980633644475534, ,0.04472844403568108, ,0.0008480240496337112, ,0.16906606808252297,-0.2415748070386169,0.09942933187000001,-4.5299318490961795,0.1654668012159484,-1.3971086527684746, ,0.17972905598195224,0.11601093100057551,0.04022427151515152,0.01723472804074387,0.20155934083046007,-0.12945713041097895, ,0.931145191192627
0.013916247216893126,0.02246038609819644,-0.08942009741011889, ,0.01485054795720182,0.021834847041196943,-0.09038469427105805, ,0.001481439870297436, ,0.02242322379736439,-0.0008968319374928547,-0.04335432433112775,0.02456390941416261,-0.002760820392752221,0.027036512385540064, ,0.04881805722475457, ,0.024715473069310007, ,0.0008604439676859412, ,0.1708731875750915,-0.2403468925116152,0.09985710757,-4.529722159152695,0.16751634871242999,-1.398534885103499, ,0.1828457448140092,0.13107312369954527,0.04499664271186441,0.0,0.20629919811887545,-0.12623987378889429, ,0.9364330768585205
0.013916247216893126,0.02246038609819644,-0.08942009741011889, ,0.014972203449793813,0.021807561852054597,-0.09063550426007169, ,0.0017373649222499786, ,0.02242322379736439,-0.0008968319374928547,-0.04335432433112775,0.02456390941416261,-0.002760820392752221,0.027036512385540064, ,0.04881805722475457, ,0.024715473069310007, ,0.000877307832196788, ,0.1708731875750915,-0.2403468925116152,0.09985710757,-4.529722159152695,0.16751634871242999,-1.398534885103499, ,0.1828457448140092,0.13107312369954527,0.04499664271186441,0.0,0.20629919811887545,-0.12623987378889429, ,0.9416971206665039
0.014139746534510857,0.022447780237889733,-0.08984773132601911, ,0.015094705715305494,0.021778773935889638,-0.09088721527938765, ,0.001562063813808666, ,0.023948692611477935,-0.0014492415357737366,-0.046316853330658735,0.024080258880713905,-0.011804737531683361,0.012003258401893483, ,0.05216216139388612, ,0.02681412950474024, ,0.0008902277563781442, ,0.17268030706766005,-0.23901858245724858,0.10030043875000001,-4.529512469209211,0.16942925970914616,-1.3997680207946868, ,0.1917109930474157,0.1437832447855618,0.047978347951807235,0.012095591566895053,0.20450380541816762,-0.1365774282512604, ,0.9471089839935303
0.014139746534510857,0.022447780237889733,-0.08984773132601911, ,0.015218039044554854,0.021748543371255875,-0.09113977782853526, ,0.0018223696380101153, ,0.023948692611477935,-0.0014492415357737366,-0.046316853330658735,0.024080258880713905,-0.011804737531683361,0.012003258401893483, ,0.05216216139388612, ,0.02681412950474024, ,0.0009074896430750325, ,0.17268030706766005,-0.23901858245724858,0.10030043875000001,-4.529512469209211,0.16942925970914616,-1.3997680207946868, ,0.1917109930474157,0.1437832447855618,0.047978347951807235,0.012095591566895053,0.20450380541816762,-0.1365774282512604, ,0.9523530006408691
0.014387236538428685,0.02242652875524376,-0.09032458165124782, ,0.015342187898823061,0.021716929589731624,-0.09139314291814499, ,0.0015991517306145372, ,0.02490247538840136,-0.002579703447000648,-0.047673174180863614,-0.024934349154547765,-0.03802623938169291,-0.010106647880973816, ,0.053847188290786024, ,0.045469444714185424, ,0.0009200653173939326, ,0.17463415848483885,-0.2374817586152779,0.10079302895000002,-4.529302779265726,0.17134217070586233,-1.400919477745734, ,0.19406327517069688,0.157374695785192,0.049162998518518526,0.024608514584295815,0.17168466635910484,-0.10301058473391735, ,0.9576780796051025
0.014387236538428685,0.02242652875524376,-0.09032458165124782, ,0.015467136909050947,0.021683991378573006,-0.09164726206806033, ,0.0018619962543578049, ,0.02490247538840136,-0.002579703447000648,-0.047673174180863614,-0.024934349154547765,-0.03802623938169291,-0.010106647880973816, ,0.053847188290786024, ,0.045469444714185424, ,0.0009368855126968589, ,0.17463415848483885,-0.2374817586152779,0.10079302895000002,-4.529302779265726,0.17134217070586233,-1.400919477745734, ,0.19406327517069688,0.157374695785192,0.049162998518518526,0.024608514584295815,0.17168466635910484,-0.10301058473391735, ,0.9629881381988525
0.014590669689294898,0.022399375302769226,-0.09070867198768841, ,0.015592870875035603,0.02164978688336955,-0.09190208730545252, ,0.0017293149325302761, ,0.02575750998925012,-0.003622134850401143,-0.047798582042660576,-0.11827720843793364,-0.0670717696864754,-0.015208660912205161, ,0.054417585641130424, ,0.13597011003213585, ,0.0009507877832202521, ,0.1762327641898033,-0.23615344856091128,0.1011883974,-4.529302779265726,0.17284517220328216,-1.4014099660251293, ,0.19770196158014744,0.1667784561660295,0.049162998518518526,0.020856372315478895,0.13488626558213615,-0.023857020438730253, ,0.968447208404541
0.014590669689294898,0.022399375302769226,-0.09070867198768841, ,0.015719374764627994,0.021614373610700344,-0.09215757116293304, ,0.0019973761848130316, ,0.02575750998925012,-0.003622134850401143,-0.047798582042660576,-0.11827720843793364,-0.0670717696864754,-0.015208660912205161, ,0.054417585641130424, ,0.13597011003213585, ,0.0009688324108339207, ,0.1762327641898033,-0.23615344856091128,0.1011883974,-4.529302779265726,0.17284517220328216,-1.4014099660251293, ,0.19770196158014744,0.1667784561660295,0.049162998518518526,0.020856372315478895,0.13488626558213615,-0.023857020438730253, ,0.9738900661468506
0.014918268226493977,0.022343034190863274,-0.09131167335176181, ,0.01584663371293066,0.021577808430791837,-0.09241366667666939, ,0.0016315091873552537, ,0.026165323022147302,-0.0050233401349799684,-0.04893095901225712,-0.16282687157030087,-0.04642570054183058,-0.008690399628332627, ,0.05571442205411628, ,0.16931525414256013, ,0.0009800642206054687, ,0.17871948417530362,-0.2339601924246315,0.10180672773,-4.529302779265726,0.17434817370070202,-1.4014103818636818, ,0.19894537014354458,0.18214384176289977,0.05009060226415095,0.01690299196320781,0.15424155502376222,0.007968312377499585, ,0.9791991710662842
0.014918268226493977,0.022343034190863274,-0.09131167335176181, ,0.015974633021493597,0.02154014758017111,-0.09267032738449663, ,0.0018990719497717606, ,0.026165323022147302,-0.0050233401349799684,-0.04893095901225712,-0.16282687157030087,-0.04642570054183058,-0.008690399628332627, ,0.05571442205411628, ,0.16931525414256013, ,0.0009953810160915736, ,0.17871948417530362,-0.2339601924246315,0.10180672773,-4.529302779265726,0.17434817370070202,-1.4014103818636818, ,0.19894537014354458,0.18214384176289977,0.05009060226415095,0.01690299196320781,0.15424155502376222,0.007968312377499585, ,0.9855132102966309
0.015182736365401118,0.022286328869649725,-0.09181142979406882, ,0.01610335815751204,0.021501446664323083,-0.09292750732403296, ,0.0016459688980168439, ,0.025524778720059642,-0.006110272541807196,-0.049143251556789884,-0.13202682338149258,0.0071229567940495515,0.0043882878432132365, ,0.05571273582240513, ,0.13221774456233812, ,0.0010060463912051026, ,0.1806038309966144,-0.2321916865964341,0.10228116987000001,-4.529302779265726,0.17612444819765274,-1.4014702760293454, ,0.19366722767034852,0.1917109930474157,0.049777536000000004,0.014772252362545205,0.2071932433103663,-0.022479658549581408, ,0.9940080642700195
0.015440179635657946,0.02222131868860849,-0.09230489485602486, ,0.016232794753023055,0.02146176066034582,-0.09318516103079197, ,0.0014071373994792044, ,0.024759904768790558,-0.006784446508026564,-0.04744386482718126,-0.14834977571991953,0.02650340694486083,0.008844839482011344, ,0.05394443352487538, ,0.15069786380286126, ,0.0010125156010159753, ,0.1827198598041519,-0.23009110325464505,0.10282042651000001,-4.529302779265726,0.17858390519343065,-1.401678866012789, ,0.18903773218818878,0.1932727933981075,0.048269125818181824,0.012911233108188922,0.22326985493586868,-0.008629389119258285, ,0.9993669986724854
0.015440179635657946,0.02222131868860849,-0.09230489485602486, ,0.016362928604103235,0.021421143919607873,-0.09344324353629814, ,0.0016696056533181578, ,0.023831562323441614,-0.008860140369952028,-0.04327283728866802,-0.2176898922548108,-0.003546196822299747,0.009803968698150515, ,0.05018947994513266, ,0.21771842588519413, ,0.0010229456018461685, ,0.1827198598041519,-0.23009110325464505,0.10282042651000001,-4.529302779265726,0.17858390519343065,-1.401678866012789, ,0.18903773218818878,0.1932727933981075,0.048269125818181824,0.012911233108188922,0.22326985493586868,-0.008629389119258285, ,1.004913091659546
0.015680129707696847,0.02214590097108869,-0.0927523760663052, ,0.016493745670064057,0.021379650170400503,-0.09370171036619825, ,0.0014664060954344951, ,0.023831562323441614,-0.008860140369952028,-0.04327283728866802,-0.2176898922548108,-0.003546196822299747,0.009803968698150515, ,0.05018947994513266, ,0.21771842588519413, ,0.0010298746720584862, ,0.18454242476246888,-0.2281604200360889,0.10327412801000001,-4.529093089322242,0.18049681619014685,-1.4014417843814464, ,0.181447306995164,0.20147970606894008,0.043640579506849325,0.0,0.17946203894427631,0.044894614955381246, ,1.0103411674499512
0.015845650645800603,0.022078316457533345,-0.09304635020908744, ,0.016625232072651316,0.021337332520599026,-0.09396051753837746, ,0.0014115616535690257, ,0.023382128522597564,-0.010112103236304003,-0.041025360414321664,-0.22451055566996092,-0.0058062058864455784,-0.00851680515863973, ,0.04829139429788636, ,0.2245853633233331, ,0.0010357467794663406, ,0.1858089529538417,-0.22671626898860894,0.10356968213000001,-4.528883399378757,0.1817265446880358,-1.4010560069323246, ,0.17905083312919012,0.20765195089380914,0.041159719689922485,0.015224195741376003,0.1706354984241869,0.047263271724327274, ,1.0158851146697998
0.015845650645800603,0.022078316457533345,-0.09304635020908744, ,0.01675737409523921,0.021294243460312688,-0.09421962156107144, ,0.0016800523142489294, ,0.023382128522597564,-0.010112103236304003,-0.041025360414321664,-0.22451055566996092,-0.0058062058864455784,-0.00851680515863973, ,0.04829139429788636, ,0.2245853633233331, ,0.0010455089845388041, ,0.1858089529538417,-0.22671626898860894,0.10356968213000001,-4.528883399378757,0.1817265446880358,-1.4010560069323246, ,0.17905083312919012,0.20765195089380914,0.041159719689922485,0.015224195741376003,0.1706354984241869,0.047263271724327274, ,1.0211641788482666
0.016146723602200617,0.021939959451734232,-0.09356689952524537, ,0.016890158182029293,0.021250434864544667,-0.0944789794309808, ,0.0013638287595113712, ,0.02320406528790658,-0.010860840474394909,-0.03995939119927069,-0.20059422261000748,-0.012053827844607415,-0.010741791793030996, ,0.04746724604094952, ,0.20095580367075488, ,0.0010502600259563052, ,0.18810260461748637,-0.2239978670168819,0.10409079071,-4.528883399378757,0.1837760921845174,-1.4005219495039758, ,0.17671683716661224,0.21041450456423677,0.040022139497487445,0.01386625736078277,0.1658124920503008,0.01955921759820596, ,1.0264739990234375
0.016146723602200617,0.021939959451734232,-0.09356689952524537, ,0.01702357093724557,0.021205957995844387,-0.09473854863138366, ,0.0016371869209526753, ,0.02320406528790658,-0.010860840474394909,-0.03995939119927069,-0.20059422261000748,-0.012053827844607415,-0.010741791793030996, ,0.04746724604094952, ,0.20095580367075488, ,0.0010588913038238987, ,0.18810260461748637,-0.2239978670168819,0.10409079071,-4.528883399378757,0.1837760921845174,-1.4005219495039758, ,0.17671683716661224,0.21041450456423677,0.040022139497487445,0.01386625736078277,0.1658124920503008,0.01955921759820596, ,1.0317699909210205
0.016378337480907557,0.02183151016119066,-0.09397058509453471, ,0.017157599124333664,0.021160863506967883,-0.09499828713025191, ,0.0014536805419185595, ,0.023619810675364315,-0.010888713288316525,-0.04147406293164467,-0.20012809344833324,-0.024867370203165203,-0.014053544407937931, ,0.04895464665864965, ,0.20166684699585846, ,0.001064612886984691, ,0.1898479422470611,-0.22189728367509284,0.10449523319000001,-4.528883399378757,0.18541573018170268,-1.4004704257659433, ,0.17508660804145898,0.21229740840821204,0.04158958621409923,0.012460435642125081,0.15165443038556226,0.015067321787114035, ,1.037046194076538
0.016378337480907557,0.02183151016119066,-0.09397058509453471, ,0.017292229665154858,0.02111520144352797,-0.09525815337836217, ,0.0017338192492143665, ,0.023619810675364315,-0.010888713288316525,-0.04147406293164467,-0.20012809344833324,-0.024867370203165203,-0.014053544407937931, ,0.04895464665864965, ,0.20166684699585846, ,0.0010741729778736865, ,0.1898479422470611,-0.22189728367509284,0.10449523319000001,-4.528883399378757,0.18541573018170268,-1.4004704257659433, ,0.17508660804145898,0.21229740840821204,0.04158958621409923,0.012460435642125081,0.15165443038556226,0.015067321787114035, ,1.0423040390014648
0.01661631757451262,0.02172655818045019,-0.09440826511667147, ,0.017427449639185133,0.021069021246654544,-0.09551810630741044, ,0.0015238233212240058, ,0.02362941967969379,-0.010056604399607646,-0.0453082564381004,-0.1786117820611415,-0.029645501122959633,-0.01698706879910538, ,0.05207996608975446, ,0.18105478036317854, ,0.0010805060813011557, ,0.19156238894513897,-0.2197735321346811,0.1049346755,-4.528883399378757,0.1869187316791225,-1.4003891628643548, ,0.16475163465012285,0.21041450456423677,0.04551089005714286,0.011301983639369817,0.1391666134510901,-0.006667094629380352, ,1.0475530624389648
0.01661631757451262,0.02172655818045019,-0.09440826511667147, ,0.017563246282710818,0.02102237175564794,-0.09577810532812686, ,0.0018080416765677257, ,0.02362941967969379,-0.010056604399607646,-0.0453082564381004,-0.1786117820611415,-0.029645501122959633,-0.01698706879910538, ,0.05207996608975446, ,0.18105478036317854, ,0.0010906107423465246, ,0.19156238894513897,-0.2197735321346811,0.1049346755,-4.528883399378757,0.1869187316791225,-1.4003891628643548, ,0.16475163465012285,0.21041450456423677,0.04551089005714286,0.011301983639369817,0.1391666134510901,-0.006667094629380352, ,1.0528969764709473
0.016859542063481205,0.021627555883295187,-0.09488900881044177, ,0.017699606988025737,0.020975301210635434,-0.09603811032838837, ,0.0015657520665813207, ,0.024865336651733887,-0.009140756641381271,-0.05141848207034266,-0.1538571073196326,-0.019501210853755894,-0.014530433073676366, ,0.05784201498218372, ,0.1550869023563173, ,0.001097119527610015, ,0.193215053780223,-0.2176343351285209,0.10541819167000001,-4.528883399378757,0.18828509667677693,-1.4006048757597729, ,0.16475163465012285,0.21325155406397928,0.05188537954397395,0.010345407091626522,0.15353888029065016,-0.032562569488680866, ,1.058284044265747
0.016859542063481205,0.021627555883295187,-0.09488900881044177, ,0.017836519302627415,0.020927857255225973,-0.09629808167133189, ,0.0018519041614588913, ,0.024865336651733887,-0.009140756641381271,-0.05141848207034266,-0.1538571073196326,-0.019501210853755894,-0.014530433073676366, ,0.05784201498218372, ,0.1550869023563173, ,0.0011073193199593243, ,0.193215053780223,-0.2176343351285209,0.10541819167000001,-4.528883399378757,0.18828509667677693,-1.4006048757597729, ,0.16475163465012285,0.21325155406397928,0.05188537954397395,0.010345407091626522,0.15353888029065016,-0.032562569488680866, ,1.063608169555664
0.017103724660053693,0.02154410061343981,-0.09540288306649262, ,0.017973970928414604,0.020880086939167188,-0.09655798019346952, ,0.001591380564154092, ,0.024231447037515567,-0.007700314195414226,-0.05206834414372827,-0.1601769021654137,-0.02807388298643638,-0.016449616678263983, ,0.057944545266226236, ,0.16261734281467533, ,0.0011137734698819211, ,0.19480593675231325,-0.21559553364972564,0.10593800396000001,-4.528883399378757,0.18978809817419678,-1.4009320065588873, ,0.15305958315882384,0.19770196158014744,0.05274440900662252,0.009547237219560122,0.12998890418832693,-0.014137472395332681, ,1.0688831806182861
0.017103724660053693,0.02154410061343981,-0.09540288306649262, ,0.01811194972088284,0.020832036720999272,-0.09681776720280033, ,0.0018776181399253454, ,0.024231447037515567,-0.007700314195414226,-0.05206834414372827,-0.1601769021654137,-0.02807388298643638,-0.016449616678263983, ,0.057944545266226236, ,0.16261734281467533, ,0.0011238240576456505, ,0.19480593675231325,-0.21559553364972564,0.10593800396000001,-4.528883399378757,0.18978809817419678,-1.4009320065588873, ,0.15305958315882384,0.19770196158014744,0.05274440900662252,0.009547237219560122,0.12998890418832693,-0.014137472395332681, ,1.0741870403289795
0.017358431911523194,0.021454310133054523,-0.09593874437173602, ,0.01825044368832323,0.020783752470713682,-0.09707740447692674, ,0.0015943272636528875, ,0.025348377086519755,-0.00954640838300385,-0.053481397025803505,-0.17694623859707753,-0.02023365527134868,-0.0070920061041172735, ,0.05994942836897705, ,0.1780981039297445, ,0.0011299344888924976, ,0.1964277106559004,-0.21346405937643967,0.10647985318000001,-4.528673709435273,0.1911544631718512,-1.4009843619740243, ,0.16138935639195712,0.21715547267384616,0.0539959712542373,0.0,0.14908893760311304,-0.015531267199450756, ,1.0795581340789795
0.017358431911523194,0.021454310133054523,-0.09593874437173602, ,0.018389440991016248,0.020735279472404666,-0.097336854261165, ,0.0018800787419336479, ,0.025348377086519755,-0.00954640838300385,-0.053481397025803505,-0.17694623859707753,-0.02023365527134868,-0.0070920061041172735, ,0.05994942836897705, ,0.1780981039297445, ,0.0011395517229058456, ,0.1964277106559004,-0.21346405937643967,0.10647985318000001,-4.528673709435273,0.1911544631718512,-1.4009843619740243, ,0.16138935639195712,0.21715547267384616,0.0539959712542373,0.0,0.14908893760311304,-0.015531267199450756, ,1.0848519802093506
0.017604395809570496,0.021369463185635363,-0.09647257564939744, ,0.01852892994043188,0.020686662426929785,-0.09759607926666229, ,0.001607246282690904, ,0.025236771092872545,-0.007880977304538973,-0.05600127761167363,-0.14225042705264487,0.022012860343641007,0.004250036804379, ,0.06192856782300431, ,0.14394165214616053, ,0.0011454719072069223, ,0.1979722572307453,-0.21140981243189597,0.10702040611000001,-4.528673709435273,0.19279410116903647,-1.401259553196554, ,0.1571141416530973,0.20451927060015251,0.05688861257142858,0.0,0.19085930534474618,-0.03214290995489143, ,1.0910851955413818
0.01786489300479807,0.021285244881858716,-0.09703975320049764, ,0.01866889899842249,0.02063794545456008,-0.09785504266850685, ,0.0013153399191889056, ,0.024588489974835877,-0.00840036420061838,-0.05146079087402045,-0.16002927408869969,0.04134771509657309,0.01010383713303482, ,0.05764870298042535, ,0.16528351766853921, ,0.001147595257356697, ,0.1979722572307453,-0.21140981243189597,0.10702040611000001,-4.528673709435273,0.19279410116903647,-1.401259553196554, ,0.1571141416530973,0.20451927060015251,0.05688861257142858,0.0,0.19085930534474618,-0.03214290995489143, ,1.0964751243591309
0.01786489300479807,0.021285244881858716,-0.09703975320049764, ,0.01880933677642279,0.020589172097640638,-0.09811370810384473, ,0.0015905566613965993, ,0.024588489974835877,-0.00840036420061838,-0.05146079087402045,-0.16002927408869969,0.04134771509657309,0.01010383713303482, ,0.05764870298042535, ,0.16528351766853921, ,0.0011530639166658317, ,0.19962492206582935,-0.20930150635723266,0.10759725516000002,-4.528673709435273,0.1949802851652835,-1.4014086648528856, ,0.15949065808146348,0.19811470053960498,0.05239740631578948,0.0,0.20955932465273744,-0.0051673789397449765, ,1.1017520427703857
0.01811329546890074,0.021194988432788966,-0.09754908893774308, ,0.01895023203464508,0.0205403853232439,-0.09837203966999213, ,0.0013439553392189905, ,0.023832886087482304,-0.009063011061472472,-0.048151809396486,-0.19096368682359227,0.05072542911946,0.011552398149159931, ,0.05448615766334416, ,0.19758527269444798, ,0.0011553918608433094, ,0.20125441870229072,-0.20727815034418584,0.10811577116000001,-4.528673709435273,0.19716646916153055,-1.4013127402887953, ,0.1571141416530973,0.1956637970277748,0.049011727753846164,0.0,0.21196683614666484,0.028895618216588675, ,1.1070051193237305
0.01811329546890074,0.021194988432788966,-0.09754908893774308, ,0.01909157368127451,0.0204916275258235,-0.09863000192254796, ,0.001618677765020665, ,0.023832886087482304,-0.009063011061472472,-0.048151809396486,-0.19096368682359227,0.05072542911946,0.011552398149159931, ,0.05448615766334416, ,0.19758527269444798, ,0.0011609736187249643, ,0.20125441870229072,-0.20727815034418584,0.10811577116000001,-4.528673709435273,0.19716646916153055,-1.4013127402887953, ,0.1571141416530973,0.1956637970277748,0.049011727753846164,0.0,0.21196683614666484,0.028895618216588675, ,1.1122210025787354
0.018346204346429244,0.02109902949281423,-0.09802007355315115, ,0.019233350771668954,0.020442940529874463,-0.09888755987351053, ,0.0014035718802817428, ,0.023058481384191743,-0.009995711527633542,-0.046579025646740456,-0.1637535557710019,0.07272432388465372,0.014445912877147223, ,0.05292649093685022, ,0.1791754309493033, ,0.0011638616932673068, ,0.2027912425442614,-0.20530113072838438,0.10859410217000001,-4.528673709435273,0.19935265315777762,-1.4012168157247051, ,0.15305958315882384,0.19978303485993848,0.04726650302670624,0.0,0.23449571356392906,0.0005642783330654239, ,1.1174700260162354
0.018346204346429244,0.02109902949281423,-0.09802007355315115, ,0.019375552507553014,0.02039436559258493,-0.09914467898938822, ,0.0016795375066693912, ,0.023058481384191743,-0.009995711527633542,-0.046579025646740456,-0.1637535557710019,0.07272432388465372,0.014445912877147223, ,0.05292649093685022, ,0.1791754309493033, ,0.0011699284675426255, ,0.2027912425442614,-0.20530113072838438,0.10859410217000001,-4.528673709435273,0.19935265315777762,-1.4012168157247051, ,0.15305958315882384,0.19978303485993848,0.04726650302670624,0.0,0.23449571356392906,0.0005642783330654239, ,1.1228101253509521
0.018582366422066916,0.020998551676850573,-0.09849004664946055, ,0.019518168236216143,0.020345943406494378,-0.09940132518931556, ,0.0014601545011068407, ,0.023028726095060032,-0.009704800135325698,-0.04487818591493413,-0.15729595631711224,0.0835786417638736,0.018552799405853113, ,0.05136688565840165, ,0.1781213776860263, ,0.0011733031888631396, ,0.20438212551635165,-0.203293220181086,0.10907243318000001,-4.528673709435273,0.20194874665332097,-1.4012101086512825, ,0.1558242061715448,0.19209907198071008,0.04577244689655173,0.0,0.24811427650624093,0.0036168482395459722, ,1.1281750202178955
0.018582366422066916,0.020998551676850573,-0.09849004664946055, ,0.01966118744970844,0.02029771410214713,-0.09965746484316523, ,0.00173720849491085, ,0.023028726095060032,-0.009704800135325698,-0.04487818591493413,-0.15729595631711224,0.0835786417638736,0.018552799405853113, ,0.05136688565840165, ,0.1781213776860263, ,0.0011797848590475962, ,0.20438212551635165,-0.203293220181086,0.10907243318000001,-4.528673709435273,0.20194874665332097,-1.4012101086512825, ,0.1558242061715448,0.19209907198071008,0.04577244689655173,0.0,0.24811427650624093,0.0036168482395459722, ,1.1334459781646729
0.018817509733143275,0.020903466611019404,-0.09894515191370921, ,0.019804599784036866,0.020249717250748506,-0.0999130647696619, ,0.001529245006971154, ,0.024258086413242903,-0.009540111388179876,-0.04614395965735091,-0.18424921477146633,0.05614923299249075,0.012800725775687345, ,0.05299748573838638, ,0.19261438238997178, ,0.0011837559970921821, ,0.20596528575556766,-0.20138570516115253,0.10953780129000001,-4.528673709435273,0.2044082036490989,-1.4010919836741633, ,0.16138935639195712,0.1913244789485298,0.04726650302670624,0.0,0.22191241199018402,0.02799625929281259, ,1.138653039932251
0.018817509733143275,0.020903466611019404,-0.09894515191370921, ,0.01994839501836318,0.020201991866821412,-0.10016809223449692, ,0.0018073603329947477, ,0.024258086413242903,-0.009540111388179876,-0.04614395965735091,-0.18424921477146633,0.05614923299249075,0.012800725775687345, ,0.05299748573838638, ,0.19261438238997178, ,0.0011907627873832221, ,0.20596528575556766,-0.20138570516115253,0.10953780129000001,-4.528673709435273,0.2044082036490989,-1.4010919836741633, ,0.16138935639195712,0.1913244789485298,0.04726650302670624,0.0,0.22191241199018402,0.02799625929281259, ,1.1440131664276123
0.019032039634089847,0.02082236510838316,-0.09935088767412023, ,0.02009256307419995,0.02015457641086169,-0.10042251494844179, ,0.001648950189250796, ,0.025669791742789008,-0.009245774091337155,-0.0484280291224996,-0.1978653202525845,0.018441891446836008,0.004356958213459486, ,0.05558503891656341, ,0.19872222308945278, ,0.001195853758515084, ,0.2073631004058023,-0.19974076305894273,0.10995391038,-4.528673709435273,0.2060478416462842,-1.4007137449755687, ,0.1659037439833405,0.1913244789485298,0.049777536000000004,0.0,0.1861619409356358,0.036798069721287505, ,1.1494560241699219
0.019032039634089847,0.02082236510838316,-0.09935088767412023, ,0.02023709401460767,0.020107508791993856,-0.10067630106546124, ,0.0019287032615290932, ,0.025669791742789008,-0.009245774091337155,-0.0484280291224996,-0.1978653202525845,0.018441891446836008,0.004356958213459486, ,0.05558503891656341, ,0.19872222308945278, ,0.0012039070497569962, ,0.2073631004058023,-0.19974076305894273,0.10995391038,-4.528673709435273,0.2060478416462842,-1.4007137449755687, ,0.1659037439833405,0.1913244789485298,0.049777536000000004,0.0,0.1861619409356358,0.036798069721287505, ,1.154757022857666
0.019333685143346897,0.020719719440293376,-0.09992332440155263, ,0.020381978043389457,0.020060826370624722,-0.10092941918082714, ,0.0015953948684950814, ,0.026550904197647305,-0.00835901429634125,-0.04999232515762417,-0.1282182264556601,0.01615074373999543,0.0054813404368590475, ,0.05721936917150263, ,0.12923021263835768, ,0.0012081623521345841, ,0.20917021989837084,-0.19769423884727322,0.11050612992000002,-4.528673709435273,0.2080973891427658,-1.4006697599880633, ,0.16915675857124915,0.18390880146990463,0.05171692051948052,0.0,0.19460762246748567,-0.020641786764810308, ,1.1599881649017334
0.019333685143346897,0.020719719440293376,-0.09992332440155263, ,0.02052720550429006,0.020014565961101856,-0.10118183832923211, ,0.001872321977482781, ,0.026550904197647305,-0.00835901429634125,-0.04999232515762417,-0.1282182264556601,0.01615074373999543,0.0054813404368590475, ,0.05721936917150263, ,0.12923021263835768, ,0.0012153038534824143, ,0.20917021989837084,-0.19769423884727322,0.11050612992000002,-4.528673709435273,0.2080973891427658,-1.4006697599880633, ,0.16915675857124915,0.18390880146990463,0.05171692051948052,0.0,0.19460762246748567,-0.020641786764810308, ,1.1652841567993164
0.01958285640237395,0.020640118577204363,-0.10038636438834972, ,0.020672766880191543,0.01996876383436815,-0.10143352798290431, ,0.0016538360360524684, ,0.02665628588147861,-0.008418721228230524,-0.04923732959675315,-0.1161746844356049,0.011487281318465638,0.004457156491465031, ,0.056619317109384844, ,0.11673999123340524, ,0.001219969089467202, ,0.21090011206219714,-0.1958330602245851,0.11102334963000002,-4.528673709435273,0.2101469366392474,-1.4010341687012606, ,0.17067795244329276,0.1817949072001356,0.05105388307692308,0.0,0.19379134228386105,-0.035073824850380186, ,1.170598030090332
0.019867352246981253,0.020547611332210513,-0.10090376534834222, ,0.02081865279230936,0.019923455720616497,-0.10168445804971929, ,0.001379863779149695, ,0.02751699750050849,-0.008646540199990895,-0.04975031539999166,-0.1319664073583525,-0.0004966229648195458,0.001784189259961228, ,0.05750688385986234, ,0.13196618707283977, ,0.00122165219146386, ,0.2126531724246461,-0.1939641588690228,0.11154186563000001,-4.528673709435273,0.21205984763596358,-1.4012871595107614, ,0.1741228285476528,0.18355307844965332,0.05171692051948052,0.0,0.18401513713248663,-0.0230553140387859, ,1.1762762069702148
0.019867352246981253,0.020547611332210513,-0.10090376534834222, ,0.020964853999389785,0.019878676811946976,-0.10193459887131551, ,0.0016476046980466886, ,0.02751699750050849,-0.008646540199990895,-0.04975031539999166,-0.1319664073583525,-0.0004966229648195458,0.001784189259961228, ,0.05750688385986234, ,0.13196618707283977, ,0.0012260891967407644, ,0.2126531724246461,-0.1939641588690228,0.11154186563000001,-4.528673709435273,0.21205984763596358,-1.4012871595107614, ,0.1741228285476528,0.18355307844965332,0.05171692051948052,0.0,0.18401513713248663,-0.0230553140387859, ,1.1817619800567627
0.0201362541053405,0.020469845779320556,-0.1013830717217989, ,0.021111361396905826,0.019834461765020888,-0.10218392122120606, ,0.0014127657259404788, ,0.0279090582679339,-0.0077543282886122665,-0.04924521113174041,-0.1313324584908661,0.0015436516935446037,0.004726267112525688, ,0.05713261730413015, ,0.13134042751375027, ,0.0012280136970417924, ,0.21442940098571775,-0.19218793030795114,0.11206038163000001,-4.528673709435273,0.21383612213291428,-1.4013470536764254, ,0.17837770969637368,0.17253989374267414,0.0515495518446602,0.0,0.18801330406056685,-0.011317987273487859, ,1.1870851516723633
0.0201362541053405,0.020469845779320556,-0.1013830717217989, ,0.021258166016254056,0.01979084470371761,-0.10243239630289462, ,0.001679526978947158, ,0.0279090582679339,-0.0077543282886122665,-0.04924521113174041,-0.1313324584908661,0.0015436516935446037,0.004726267112525688, ,0.05713261730413015, ,0.13134042751375027, ,0.001232620975428582, ,0.21442940098571775,-0.19218793030795114,0.11206038163000001,-4.528673709435273,0.21383612213291428,-1.4013470536764254, ,0.17837770969637368,0.17253989374267414,0.0515495518446602,0.0,0.18801330406056685,-0.011317987273487859, ,1.1923530101776123
0.020419441147112992,0.02038930830026129,-0.1018777955437774, ,0.021405259023952426,0.01974785922179056,-0.10267999574798754, ,0.0014236639260028835, ,0.027951730956191752,-0.007978101332633408,-0.047683742962867585,-0.1363417616739785,0.007622964065761356,0.006620562424702401, ,0.05584522098863894, ,0.13655379539865356, ,0.0012345507022020596, ,0.21625196594403473,-0.19043486994550218,0.11257889763000001,-4.528673709435273,0.2158856696293959,-1.401466426169201, ,0.18075607915899194,0.17037152883028864,0.05009060226415095,-6.452675257142934e-05,0.1955649362948573,-0.003019288191440317, ,1.1975891590118408
0.020419441147112992,0.02038930830026129,-0.1018777955437774, ,0.021552631720834305,0.019705538385520978,-0.10292669161430831, ,0.0016887406963326226, ,0.027951730956191752,-0.007978101332633408,-0.047683742962867585,-0.1363417616739785,0.007622964065761356,0.006620562424702401, ,0.05584522098863894, ,0.13655379539865356, ,0.0012390926021433653, ,0.21625196594403473,-0.19043486994550218,0.11257889763000001,-4.528673709435273,0.2158856696293959,-1.401466426169201, ,0.18075607915899194,0.17037152883028864,0.05009060226415095,-6.452675257142934e-05,0.1955649362948573,-0.003019288191440317, ,1.202895164489746
0.020705213366130543,0.020307482835779444,-0.10236348248391165, ,0.02170027554124788,0.019663914736375812,-0.10317245638401071, ,0.001434840549315752, ,0.02833152531589983,-0.008044125083985422,-0.047691135004150245,-0.13551465332801937,0.01806466149908513,0.009118966888652125, ,0.05605200828762839, ,0.13671249595708443, ,0.0012410307006302205, ,0.21809769910097437,-0.18869725504880167,0.11308963589000001,-4.528464019491787,0.21793521712587752,-1.401504119921836, ,0.18355307844965332,0.16976197058760426,0.0502486167823344,0.0,0.20895946597607123,-0.0012649965609969616, ,1.2083001136779785
0.020705213366130543,0.020307482835779444,-0.10236348248391165, ,0.02184818205225001,0.019623020293660802,-0.10341726296169261, ,0.0016986228787948903, ,0.02833152531589983,-0.008044125083985422,-0.047691135004150245,-0.13551465332801937,0.01806466149908513,0.009118966888652125, ,0.05605200828762839, ,0.13671249595708443, ,0.0012455168984553643, ,0.21809769910097437,-0.18869725504880167,0.11308963589000001,-4.528464019491787,0.21793521712587752,-1.401504119921836, ,0.18355307844965332,0.16976197058760426,0.0502486167823344,0.0,0.20895946597607123,-0.0012649965609969616, ,1.2138950824737549
0.02098289411522678,0.020227559856692057,-0.10282281227026856, ,0.021996342952805163,0.01958288655717873,-0.10366108467251035, ,0.0014647125417141082, ,0.028032517273501263,-0.008079697404292905,-0.045628935139562996,-0.13421664411567807,0.022056923158633536,0.010471981538231263, ,0.054158131954532285, ,0.13601624031016674, ,0.001247645011496711, ,0.2199048185935429,-0.18704459021371764,0.11357444835000001,-4.528464019491787,0.21998476462235914,-1.4013784561941902, ,0.18355307844965332,0.1650381592321231,0.048269125818181824,0.0,0.21248317747182144,0.0026294790617445024, ,1.219184160232544
0.02098289411522678,0.020227559856692057,-0.10282281227026856, ,0.022144750072980224,0.019543544509882774,-0.10390389526029135, ,0.001728157021961379, ,0.028032517273501263,-0.008079697404292905,-0.045628935139562996,-0.13421664411567807,0.022056923158633536,0.010471981538231263, ,0.054158131954532285, ,0.13601624031016674, ,0.0012522653192896408, ,0.2199048185935429,-0.18704459021371764,0.11357444835000001,-4.528464019491787,0.21998476462235914,-1.4013784561941902, ,0.18355307844965332,0.1650381592321231,0.048269125818181824,0.0,0.21248317747182144,0.0026294790617445024, ,1.2245521545410156
0.021260046095686446,0.020146473225026426,-0.10326944312852414, ,0.02229339537314357,0.01950502462053526,-0.1041456688856497, ,0.0014990125479378382, ,0.027267480305474982,-0.008183024740447502,-0.04355978666386634,-0.1238192219510021,0.025813850670224632,0.010633462458772785, ,0.0520377977081447, ,0.1264808198152136, ,0.0012546152928958139, ,0.2217273835518599,-0.18541509357725625,0.1140475942,-4.528464019491787,0.22217094861860617,-1.4015275678505215, ,0.17905083312919012,0.16084227382791658,0.04617046817391306,0.0,0.21252575448789648,-0.0036748640330148685, ,1.2302370071411133
0.021260046095686446,0.020146473225026426,-0.10326944312852414, ,0.022442270943157677,0.019467356846358544,-0.10438638012409655, ,0.0017624990490300095, ,0.027267480305474982,-0.008183024740447502,-0.04355978666386634,-0.1238192219510021,0.025813850670224632,0.010633462458772785, ,0.0520377977081447, ,0.1264808198152136, ,0.0012594066490857591, ,0.2217273835518599,-0.18541509357725625,0.1140475942,-4.528464019491787,0.22217094861860617,-1.4015275678505215, ,0.17905083312919012,0.16084227382791658,0.04617046817391306,0.0,0.21252575448789648,-0.0036748640330148685, ,1.2356960773468018
0.021529628701211175,0.020064949127020962,-0.10369335806201302, ,0.022591369001580094,0.01943057063569583,-0.10462600396415801, ,0.0015490503266425146, ,0.027298566788107322,-0.00831314121865991,-0.04245974828261692,-0.13051133233383927,0.011649312901251058,0.0073349784921192575, ,0.05115809114724013, ,0.13102967738679036, ,0.0012621135993432988, ,0.22348816664718307,-0.18383965607091446,0.11449740683000001,-4.528464019491787,0.22408385961532232,-1.4014538436994601, ,0.17871363758657396,0.15869053772319527,0.04512411195467422,0.0,0.19652726769883863,0.003017079924849869, ,1.241063117980957
0.021529628701211175,0.020064949127020962,-0.10369335806201302, ,0.02274068189485685,0.01939469493066301,-0.10486451580548507, ,0.0018131467082587083, ,0.027298566788107322,-0.00831314121865991,-0.04245974828261692,-0.13051133233383927,0.011649312901251058,0.0073349784921192575, ,0.05115809114724013, ,0.13102967738679036, ,0.0012672157577591824, ,0.22348816664718307,-0.18383965607091446,0.11449740683000001,-4.528464019491787,0.22408385961532232,-1.4014538436994601, ,0.17871363758657396,0.15869053772319527,0.04512411195467422,0.0,0.19652726769883863,0.003017079924849869, ,1.2464330196380615
0.021810873941155478,0.019983029895378566,-0.10412723900880154, ,0.022890202096519943,0.019359758169805636,-0.10510189145696948, ,0.0015822023592388158, ,0.028113762666145157,-0.007955489794063271,-0.04313667091996219,-0.13540492196786896,-0.006154347890788666,0.004295062649448648, ,0.0521003440215983, ,0.13554416081665344, ,0.0012701055430938578, ,0.22534162253699697,-0.1822487730988242,0.11496018236000001,-4.528464019491787,0.22627004361156938,-1.401521276615651, ,0.1817949072001356,0.15531414330355284,0.04603702751445087,0.0,0.18039813728741724,0.009081346475327795, ,1.2525460720062256
0.02209977157652757,0.01990525690914647,-0.10456344552893121, ,0.023039922206384858,0.019325788290755243,-0.10533810713485703, ,0.0013489876538415255, ,0.02828574410626703,-0.007234398644884534,-0.04271761664560869,-0.15985699706513862,-0.04521093581238028,-0.0034040706296780093, ,0.051741807228579795, ,0.16612689723025045, ,0.001270822653191564, ,0.22718735569393664,-0.18071194925685352,0.11542684676000001,-4.528464019491787,0.2277730451089892,-1.401194977493641, ,0.17871363758657396,0.1462202489344696,0.04577244689655173,0.0,0.13300699047772285,0.036148837350537213, ,1.257986068725586
0.02209977157652757,0.01990525690914647,-0.10456344552893121, ,0.023189834949746718,0.01929281273288481,-0.10557313946086186, ,0.0016071116522657367, ,0.02828574410626703,-0.007234398644884534,-0.04271761664560869,-0.15985699706513862,-0.04521093581238028,-0.0034040706296780093, ,0.051741807228579795, ,0.16612689723025045, ,0.0012738522838138537, ,0.22718735569393664,-0.18071194925685352,0.11542684676000001,-4.528464019491787,0.2277730451089892,-1.401194977493641, ,0.17871363758657396,0.1462202489344696,0.04577244689655173,0.0,0.13300699047772285,0.036148837350537213, ,1.2632031440734863
0.02239112044678631,0.019829212205075778,-0.10500220873304374, ,0.02333993317657465,0.019260858439961805,-0.10580696546027701, ,0.0013678102896801326, ,0.028606471792300296,-0.007472723327270878,-0.04338084913061021,-0.09311709617236923,-0.01469385168167229,0.0028554147256998814, ,0.05249828467314314, ,0.09426849548915904, ,0.001274691194580517, ,0.22903308885087628,-0.17919829361350553,0.11589740003000001,-4.528464019491787,0.22927604660640907,-1.4011137145920527, ,0.18214384176289977,0.14897479051565274,0.04657547228070176,0.0,0.17696057021854092,-0.027755617881805396, ,1.2684910297393799
0.02239112044678631,0.019829212205075778,-0.10500220873304374, ,0.023490209860712367,0.019229951862808414,-0.10603956256009324, ,0.0016257962541822314, ,0.028606471792300296,-0.007472723327270878,-0.04338084913061021,-0.09311709617236923,-0.01469385168167229,0.0028554147256998814, ,0.05249828467314314, ,0.09426849548915904, ,0.0012777983190017713, ,0.22903308885087628,-0.17919829361350553,0.11589740003000001,-4.528464019491787,0.22927604660640907,-1.4011137145920527, ,0.18214384176289977,0.14897479051565274,0.04657547228070176,0.0,0.17696057021854092,-0.027755617881805396, ,1.2738840579986572
0.02239112044678631,0.019829212205075778,-0.10500220873304374, ,0.023640658099071496,0.01920011896195338,-0.10627090858710861, ,0.001888571410544187, ,0.028369946139020285,-0.006663149646486528,-0.04376813660450807,-0.06725750003389565,0.0017335318711426398,0.007055975879264674, ,0.05258232772494257, ,0.06727864317159121, ,0.0012831559776995119, ,0.23060080362434385,-0.1779317654221327,0.11630573138000001,-4.528464019491787,0.23091568460359435,-1.401470584554723, ,0.17905083312919012,0.141426142412028,0.047126661301775154,0.0,0.19298457436450797,-0.04416424709205145, ,1.2793359756469727
0.022638506698284357,0.019767528878109498,-0.10538213434300442, ,0.02379127111082954,0.0191713852102894,-0.10650098176604354, ,0.0017134971898295976, ,0.028369946139020285,-0.006663149646486528,-0.04376813660450807,-0.06725750003389565,0.0017335318711426398,0.007055975879264674, ,0.05258232772494257, ,0.06727864317159121, ,0.0012868980751962952, ,0.23060080362434385,-0.1779317654221327,0.11630573138000001,-4.528464019491787,0.23091568460359435,-1.401470584554723, ,0.17905083312919012,0.141426142412028,0.047126661301775154,0.0,0.19298457436450797,-0.04416424709205145, ,1.2846601009368896
0.022953588573259503,0.01969240200815574,-0.10585780315786944, ,0.023942042236626455,0.019143775595728597,-0.10672976071765522, ,0.001427705001428446, ,0.028123893224293657,-0.006787658510901649,-0.04073596225088718,-0.1294673885609691,-0.026147950006593618,-0.0005581028112836789, ,0.04996443033456693, ,0.13208106532331065, ,0.0012881119280086413, ,0.23259326870589378,-0.17637177338153937,0.11681906222,-4.528254329548303,0.23296523210007597,-1.4016716357876393, ,0.17837770969637368,0.1359555036654309,0.044124131634349036,0.002302741988387661,0.15419143079233613,0.019221311770997576, ,1.2900052070617676
0.022953588573259503,0.01969240200815574,-0.10585780315786944, ,0.024092964937760124,0.019117314623857126,-0.10695722445684992, ,0.0016845269936139368, ,0.028123893224293657,-0.006787658510901649,-0.04073596225088718,-0.1294673885609691,-0.026147950006593618,-0.0005581028112836789, ,0.04996443033456693, ,0.13208106532331065, ,0.0012915000909625325, ,0.23259326870589378,-0.17637177338153937,0.11681906222,-4.528254329548303,0.23296523210007597,-1.4016716357876393, ,0.17837770969637368,0.1359555036654309,0.044124131634349036,0.002302741988387661,0.15419143079233613,0.019221311770997576, ,1.2952861785888672
0.023225379132189063,0.019628751681894048,-0.10626032919921546, ,0.024244032795385152,0.019092026320593303,-0.10718335239079829, ,0.0014757036325787022, ,0.02862812521295371,-0.006346393505952983,-0.04385503667599483,-0.08223465978883135,-0.006858499279053158,0.002737599976035527, ,0.05275519411009508, ,0.0825191860451973, ,0.0012930611379253815, ,0.23429226993822316,-0.1750666315257954,0.11725461566,-4.528254329548303,0.2344682335974958,-1.4015903728860508, ,0.17671683716661224,0.1363461804001017,0.04740717714285715,0.002261179921660908,0.17859477170205984,-0.025406831046097395, ,1.300577163696289
0.023225379132189063,0.019628751681894048,-0.10626032919921546, ,0.02439523950970632,0.019067934234839597,-0.10740812431704713, ,0.0017322018197437929, ,0.02862812521295371,-0.006346393505952983,-0.04385503667599483,-0.08223465978883135,-0.006858499279053158,0.002737599976035527, ,0.05275519411009508, ,0.0825191860451973, ,0.0012967513957557885, ,0.23429226993822316,-0.1750666315257954,0.11725461566,-4.528254329548303,0.2344682335974958,-1.4015903728860508, ,0.17671683716661224,0.1363461804001017,0.04740717714285715,0.002261179921660908,0.17859477170205984,-0.025406831046097395, ,1.3058710098266602
0.023528494321155415,0.019570064997312592,-0.10673430758786469, ,0.02454657889917825,0.019045061441141976,-0.10763152042163503, ,0.001455031206222714, ,0.02851662743468986,-0.005037140912788184,-0.0449333286098868,-0.07413489658748708,0.000589836393201466,0.006289774102937786, ,0.05345628914158055, ,0.07413600767380461, ,0.001298070394176346, ,0.23614572582803706,-0.17368426234130924,0.11776794650000001,-4.528044639604819,0.23651778109397742,-1.4020364603393887, ,0.17191474920012823,0.1251938542987741,0.04871196183486239,0.0014562648025444674,0.18102191982557048,-0.02239888461982381, ,1.3111159801483154
0.023528494321155415,0.019570064997312592,-0.10673430758786469, ,0.024698044899700067,0.01902343054234327,-0.10785352127720471, ,0.00170859505604454, ,0.02851662743468986,-0.005037140912788184,-0.0449333286098868,-0.07413489658748708,0.000589836393201466,0.006289774102937786, ,0.05345628914158055, ,0.07413600767380461, ,0.0013014631599769096, ,0.23614572582803706,-0.17368426234130924,0.11776794650000001,-4.528044639604819,0.23651778109397742,-1.4020364603393887, ,0.17191474920012823,0.1251938542987741,0.04871196183486239,0.0014562648025444674,0.18102191982557048,-0.02239888461982381, ,1.31644606590271
0.02382072911005716,0.019519595833940633,-0.10718489416155756, ,0.024849631564833545,0.01900306367326154,-0.10807410784190541, ,0.001454698148681865, ,0.028661816198001323,-0.004749794813722114,-0.04509857602277289,-0.09533531508423543,0.008795568854020247,0.00839145746193794, ,0.05364645205251041, ,0.09573921754203184, ,0.0013027191844744912, ,0.23791423165623446,-0.17243317961568486,0.11825794412000001,-4.528044639604819,0.23829405559092814,-1.4020146757649121, ,0.1716038726192962,0.12197550328852286,0.049011727753846164,0.0014562648025444674,0.18561626619634047,0.002847789939113124, ,1.3219029903411865
0.024108599859271253,0.019471887666426407,-0.10764160133481442, ,0.025001333060889544,0.018983982499224995,-0.10829326145433019, ,0.0012081742145985369, ,0.028075942330871084,-0.004506676215925839,-0.044944073294281135,-0.08039718010426801,0.028635625562932844,0.01192144673142757, ,0.05318400504440508, ,0.0853435541549517, ,0.0013019505261828168, ,0.23963640108718653,-0.17120526508868317,0.11875442319000001,-4.528044639604819,0.24034360308740974,-1.4021340482576878, ,0.16648586238328208,0.11862117694808846,0.04886138503067485,0.0014562648025444674,0.20209308005750268,-0.0066055563977019255, ,1.3276851177215576
0.024108599859271253,0.019471887666426407,-0.10764160133481442, ,0.025153143672328404,0.018966208224957887,-0.10851096383642984, ,0.0014500257356802062, ,0.028075942330871084,-0.004506676215925839,-0.044944073294281135,-0.08039718010426801,0.028635625562932844,0.01192144673142757, ,0.05318400504440508, ,0.0853435541549517, ,0.0013031446810981184, ,0.23963640108718653,-0.17120526508868317,0.11875442319000001,-4.528044639604819,0.24034360308740974,-1.4021340482576878, ,0.16648586238328208,0.11862117694808846,0.04886138503067485,0.0014562648025444674,0.20209308005750268,-0.0066055563977019255, ,1.3329319953918457
0.024108599859271253,0.019471887666426407,-0.10764160133481442, ,0.02530505779679477,0.01894976159304949,-0.10872719708840253, ,0.0016978354964399766, ,0.028075942330871084,-0.004506676215925839,-0.044944073294281135,-0.08039718010426801,0.028635625562932844,0.01192144673142757, ,0.05318400504440508, ,0.0853435541549517, ,0.0013063022076208533, ,0.24127362045652212,-0.17007774608904638,0.11921460614000001,-4.528044639604819,0.2422565140841259,-1.4018969666263452, ,0.1659037439833405,0.11283821826215314,0.04603702751445087,0.0014562648025444674,0.19192115226828524,0.01886532984033057, ,1.338219165802002
0.024381160222027104,0.019427765050199514,-0.10806312261965749, ,0.0254570699453611,0.018934662887664804,-0.10894194368761914, ,0.0014741295550101097, ,0.027564122622624435,-0.004466993095836778,-0.04208780895134678,-0.1013809847660059,0.022832421267536925,0.011640856487381678, ,0.050508598729309406, ,0.103919639481347, ,0.0013076341706953713, ,0.24127362045652212,-0.17007774608904638,0.11921460614000001,-4.528044639604819,0.2422565140841259,-1.4018969666263452, ,0.1659037439833405,0.11283821826215314,0.04603702751445087,0.0014562648025444674,0.19192115226828524,0.01886532984033057, ,1.3438670635223389
0.024654370736235474,0.01938064784168538,-0.10846973608535035, ,0.025609174741724073,0.01892093193720024,-0.10915518648673735, ,0.0012620743458668583, ,0.026993136175523423,-0.004624536031092549,-0.0392305014961403,-0.10971151936204483,0.017608808580085268,0.008407782781321285, ,0.047843996297674496, ,0.11111523162095194, ,0.001307275431917194, ,0.2429340080244804,-0.1689502270894096,0.1196605299,-4.527834949661335,0.24416942508084208,-1.4016598849950028, ,0.1650381592321231,0.10895171246667139,0.04316751089430895,0.004050588140783842,0.18352308839954612,0.030605742206879075, ,1.3491291999816895
0.024654370736235474,0.01938064784168538,-0.10846973608535035, ,0.025761366921401345,0.018908588116939254,-0.10936690871181555, ,0.0015010661742167284, ,0.026993136175523423,-0.004624536031092549,-0.0392305014961403,-0.10971151936204483,0.017608808580085268,0.008407782781321285, ,0.047843996297674496, ,0.11111523162095194, ,0.001308789422091409, ,0.2429340080244804,-0.1689502270894096,0.1196605299,-4.527834949661335,0.24416942508084208,-1.4016598849950028, ,0.1650381592321231,0.10895171246667139,0.04316751089430895,0.004050588140783842,0.18352308839954612,0.030605742206879075, ,1.354384183883667
0.024923316542592118,0.01933579105469184,-0.10885516198012314, ,0.025913641330927776,0.01889765035170801,-0.10957709396042556, ,0.0013014976935003004, ,0.0272392718952473,-0.004569515663478001,-0.037482180300111335,-0.07966693267183542,0.008078547690121174,0.0036091971791396807, ,0.04655934113399839, ,0.08007502177604364, ,0.001308732897063571, ,0.24457895012669023,-0.1678844899527666,0.12008571302000001,-4.52762525971785,0.2459456995777928,-1.4014747429402452, ,0.16945882421155498,0.10532401948775891,0.04158958621409923,0.008310171782411587,0.1811155749056423,0.004585114657869177, ,1.3596420288085938
0.024923316542592118,0.01933579105469184,-0.10885516198012314, ,0.026065992927052445,0.018888137118530983,-0.10978572619976774, ,0.0015401471140921576, ,0.0272392718952473,-0.004569515663478001,-0.037482180300111335,-0.07966693267183542,0.008078547690121174,0.0036091971791396807, ,0.04655934113399839, ,0.08007502177604364, ,0.0013105130064253291, ,0.24457895012669023,-0.1678844899527666,0.12008571302000001,-4.52762525971785,0.2459456995777928,-1.4014747429402452, ,0.16945882421155498,0.10532401948775891,0.04158958621409923,0.008310171782411587,0.1811155749056423,0.004585114657869177, ,1.3649179935455322
0.025197166170456996,0.01929522665125942,-0.1092328574402902, ,0.026218416775934714,0.018880066449286644,-0.10999278976478305, ,0.0013389577776389346, ,0.027527677238634703,-0.003921185907842346,-0.03759768020193315,-0.047505852502346804,0.004697543926871648,-0.0016738459678840834, ,0.046762530616350786, ,0.04773675536028782, ,0.0013107301420834483, ,0.2462702286261454,-0.1668728119462432,0.12050571098000001,-4.527415569774365,0.24772197407474353,-1.401534637105909, ,0.17037152883028864,0.099368525192116,0.04191792505263159,0.014219067537621699,0.18104513967537028,-0.020557593503041732, ,1.3701441287994385
0.025197166170456996,0.01929522665125942,-0.1092328574402902, ,0.026370908052340977,0.01887345593336309,-0.11019826935626827, ,0.0015772066165457798, ,0.027527677238634703,-0.003921185907842346,-0.03759768020193315,-0.047505852502346804,0.004697543926871648,-0.0016738459678840834, ,0.046762530616350786, ,0.04773675536028782, ,0.0013127489032536174, ,0.2462702286261454,-0.1668728119462432,0.12050571098000001,-4.527415569774365,0.24772197407474353,-1.401534637105909, ,0.17037152883028864,0.099368525192116,0.04191792505263159,0.014219067537621699,0.18104513967537028,-0.020557593503041732, ,1.375392198562622
0.025472769050433844,0.01926134874357677,-0.10961632677112439, ,0.026523462038841268,0.018868322720313715,-0.11040215003898825, ,0.0013696508384134745, ,0.02752002049884163,-0.0030055609139194228,-0.038325454078493956,-0.03978305037660847,0.01080526311588401,0.00021478553668252483, ,0.04727816996232714, ,0.04122332011619929, ,0.0013131767373525639, ,0.24796150712560056,-0.16591519306983937,0.12093348668000001,-4.5272058798308805,0.2496348850714597,-1.4018693066555503, ,0.1676624409160261,0.09186538389009755,0.042819385806451615,0.014610791077233376,0.18444970589890836,-0.020358089532613907, ,1.3807940483093262
0.025472769050433844,0.01926134874357677,-0.10961632677112439, ,0.026676074125005583,0.018864683522512766,-0.11060441723979102, ,0.0016067386764379876, ,0.02752002049884163,-0.0030055609139194228,-0.038325454078493956,-0.03978305037660847,0.01080526311588401,0.00021478553668252483, ,0.04727816996232714, ,0.04122332011619929, ,0.0013153674980920073, ,0.24796150712560056,-0.16591519306983937,0.12093348668000001,-4.5272058798308805,0.2496348850714597,-1.4018693066555503, ,0.1676624409160261,0.09186538389009755,0.042819385806451615,0.014610791077233376,0.18444970589890836,-0.020358089532613907, ,1.38637113571167
0.025758660643475543,0.019232642965554506,-0.1100203487909092, ,0.02682873980660064,0.018862554617811125,-0.11080505674571997, ,0.001377607119186466, ,0.027626125926656264,-0.0025004679734022704,-0.039862648285194764,-0.024743432232797152,0.03385368112937237,0.004908567213180797, ,0.04856424509977089, ,0.0419309970157838, ,0.0013158285323223366, ,0.24968367655655263,-0.1649807423920582,0.1213845956,-4.5272058798308805,0.2515477960681759,-1.4019589399847703, ,0.16561420865352666,0.08935681879328698,0.044493886927374306,0.014610791077233376,0.20741167319427553,-0.0298366716094082, ,1.391632080078125
0.025758660643475543,0.019232642965554506,-0.1100203487909092, ,0.026981454684786185,0.01886195185219189,-0.11100405470212905, ,0.0016125490655355902, ,0.027626125926656264,-0.0025004679734022704,-0.039862648285194764,-0.024743432232797152,0.03385368112937237,0.004908567213180797, ,0.04856424509977089, ,0.0419309970157838, ,0.0013180103009489046, ,0.24968367655655263,-0.1649807423920582,0.1213845956,-4.5272058798308805,0.2515477960681759,-1.4019589399847703, ,0.16561420865352666,0.08935681879328698,0.044493886927374306,0.014610791077233376,0.20741167319427553,-0.0298366716094082, ,1.3970341682434082
0.026019655458406985,0.019212573873633492,-0.11039917702353605, ,0.02713421446531176,0.0188628906424258,-0.11120139761079473, ,0.001417066693096014, ,0.02808194424791671,-0.0016828637078910073,-0.04078073934627435,-0.09477594875903493,-0.015902433681591464,-0.011575648283673488, ,0.049542873600864214, ,0.09610023448933638, ,0.0013187333403076426, ,0.2512127776656491,-0.16416985544026463,0.12180718614000001,-4.526996189887396,0.25318743406536115,-1.4019074162467378, ,0.16111535069349878,0.08237581732506143,0.04551089005714286,0.021609290156621323,0.1405210745902993,0.04015144207624295, ,1.403799057006836
0.02631373696933375,0.01920033552947402,-0.1108187248636918, ,0.02728701495771305,0.018865385978727285,-0.11139707232803155, ,0.0011806553407821027, ,0.027795614135398695,-0.0011291792173809129,-0.03936727706737193,-0.046748066174092155,-0.010459215235305505,-0.00331742737351934, ,0.048204291453854686, ,0.04790284251496632, ,0.0013177327750936896, ,0.25291177889797845,-0.16336669122134528,0.12227773941000002,-4.526786499943912,0.254690435562781,-1.4016627958648682, ,0.16138935639195712,0.07507669427094206,0.044246698666666674,0.01597951913484298,0.15306823818807272,-0.0007766598028671606, ,1.409156084060669
0.02631373696933375,0.01920033552947402,-0.1108187248636918, ,0.027439852074508397,0.018869452427409793,-0.1115910660628041, ,0.0014050372896049288, ,0.027795614135398695,-0.0011291792173809129,-0.03936727706737193,-0.046748066174092155,-0.010459215235305505,-0.00331742737351934, ,0.048204291453854686, ,0.04790284251496632, ,0.0013183608651261445, ,0.25291177889797845,-0.16336669122134528,0.12227773941000002,-4.526786499943912,0.254690435562781,-1.4016627958648682, ,0.16138935639195712,0.07507669427094206,0.044246698666666674,0.01597951913484298,0.15306823818807272,-0.0007766598028671606, ,1.4143891334533691
0.026591956989169354,0.01918992353924124,-0.11119539087914976, ,0.02759272183039537,0.0188751041335414,-0.1117833663748418, ,0.001202645712241824, ,0.027411352560942574,-0.0008910063750355312,-0.03584555483990936,-0.0305605628114842,-0.02047298694343631,-0.002591236271731091, ,0.045134022016230686, ,0.03678358347858781, ,0.001317534328319828, ,0.2545567210001883,-0.1626484770640424,0.12270421882000002,-4.526576810000427,0.2561934370602008,-1.4016632117034202, ,0.16418155978974183,0.06754230715905395,0.040843106461538464,0.015449385350103264,0.14708997489175954,-0.010665656791222958, ,1.419579029083252
0.026591956989169354,0.01918992353924124,-0.11119539087914976, ,0.027745620341447293,0.018882354823600685,-0.1119739611727515, ,0.0014253804219607697, ,0.027411352560942574,-0.0008910063750355312,-0.03584555483990936,-0.0305605628114842,-0.02047298694343631,-0.002591236271731091, ,0.045134022016230686, ,0.03678358347858781, ,0.001318299194232175, ,0.2545567210001883,-0.1626484770640424,0.12270421882000002,-4.526576810000427,0.2561934370602008,-1.4016632117034202, ,0.16418155978974183,0.06754230715905395,0.040843106461538464,0.015449385350103264,0.14708997489175954,-0.010665656791222958, ,1.424835205078125
0.026867836357912053,0.019181602076101957,-0.111543496078158, ,0.027898543824309792,0.01889121780813212,-0.11216283871213278, ,0.0012370392890410748, ,0.027666408866032357,-0.0006841955501722683,-0.03420470118028262,-0.006198896795811007,-0.014172523810870835,-0.005965150885747251, ,0.0439984077658019, ,0.015467382872166585, ,0.0013177269413787165, ,0.256232554033895,-0.1619920447697333,0.12310347614000001,-4.526367120056943,0.2576964385576207,-1.4018269850222538, ,0.16976197058760426,0.06356124685764955,0.03942775128712872,0.022172842285383944,0.16060466827068473,-0.02772704127964396, ,1.4301140308380127
0.026867836357912053,0.019181602076101957,-0.111543496078158, ,0.028051488595397297,0.018901705984401794,-0.11234998759368967, ,0.0014593844613663024, ,0.027666408866032357,-0.0006841955501722683,-0.03420470118028262,-0.006198896795811007,-0.014172523810870835,-0.005965150885747251, ,0.0439984077658019, ,0.015467382872166585, ,0.0013187175534066019, ,0.256232554033895,-0.1619920447697333,0.12310347614000001,-4.526367120056943,0.2576964385576207,-1.4018269850222538, ,0.16976197058760426,0.06356124685764955,0.03942775128712872,0.022172842285383944,0.16060466827068473,-0.02772704127964396, ,1.4353680610656738
0.02715006759189095,0.01917957151616048,-0.11189369951487184, ,0.02820445107008939,0.0189138318390531,-0.11253539676134613, ,0.0012625836412767553, ,0.027930193235987007,0.00015970661196871737,-0.03448285889433973,-0.008753470786052183,-0.01587383762432551,-0.013552206395790087, ,0.044375542339541336, ,0.018126036992240514, ,0.0013183277345723667, ,0.25795472346484705,-0.16138194887266957,0.12350791862000002,-4.525947740169974,0.25933607655480595,-1.4021021762447836, ,0.16976197058760426,0.05662108684872958,0.03992183338345865,0.03118712216450888,0.15582545683636298,-0.016651426624908226, ,1.440674066543579
0.02715006759189095,0.01917957151616048,-0.11189369951487184, ,0.028357427761927474,0.01892760745076212,-0.11271905550035777, ,0.001484054235269096, ,0.027930193235987007,0.00015970661196871737,-0.03448285889433973,-0.008753470786052183,-0.01587383762432551,-0.013552206395790087, ,0.044375542339541336, ,0.018126036992240514, ,0.001319470675956482, ,0.25795472346484705,-0.16138194887266957,0.12350791862000002,-4.525947740169974,0.25933607655480595,-1.4021021762447836, ,0.16976197058760426,0.05662108684872958,0.03992183338345865,0.03118712216450888,0.15582545683636298,-0.016651426624908226, ,1.4463331699371338
0.0274302270862481,0.019183257969192152,-0.1122298221160936, ,0.028510415281811412,0.018943044492893545,-0.1129009534354273, ,0.0012941894373778447, ,0.02709745283265298,0.000450524297393594,-0.03206451453742578,-0.017393121794232688,-0.015098009528842101,-0.021087224607667834, ,0.041983425475789656, ,0.02303121107196587, ,0.0013192975167881354, ,0.2596691701629249,-0.16084908030434808,0.12389939820000001,-4.525738050226489,0.2608390780522258,-1.4021025920833359, ,0.16648586238328208,0.05045026132826729,0.03747955651764706,0.03982749768573326,0.14957138830558264,-0.0004950460605967696, ,1.451812982559204
0.0274302270862481,0.019183257969192152,-0.1122298221160936, ,0.028663410337195685,0.018960154236156074,-0.11308108052881692, ,0.0015149775877367016, ,0.02709745283265298,0.000450524297393594,-0.03206451453742578,-0.017393121794232688,-0.015098009528842101,-0.021087224607667834, ,0.041983425475789656, ,0.02303121107196587, ,0.0013206286737333637, ,0.2596691701629249,-0.16084908030434808,0.12389939820000001,-4.525738050226489,0.2608390780522258,-1.4021025920833359, ,0.16648586238328208,0.05045026132826729,0.03747955651764706,0.03982749768573326,0.14957138830558264,-0.0004950460605967696, ,1.4570410251617432
0.027702461003936696,0.01919066112288493,-0.11255876147727532, ,0.028816409731286147,0.0189789475512581,-0.11325942707846307, ,0.001332905356078304, ,0.027434883070828017,0.001257218295461097,-0.03381261303339393,-0.007178133958305794,-0.006475321499537579,0.0032203722851065824, ,0.04356083340684024, ,0.009664946898778077, ,0.0013207116242897484, ,0.261321834998009,-0.16036254813327194,0.12428310004000001,-4.525528360283005,0.2623420795496456,-1.4021846866620287, ,0.16532568215761462,0.04555782119945788,0.03942775128712872,0.017915124354480366,0.16219132624357085,-0.009825672937658778, ,1.4623119831085205
0.027974804717968996,0.019207901358599865,-0.11290261186298806, ,0.02896941036223647,0.01899943491156336,-0.1134359837160888, ,0.0011476864470877355, ,0.02749659133526757,0.002112426009978008,-0.035076026834436023,0.0015554675844054121,0.003537989917050486,0.008195217894672759, ,0.04461897059767761, ,0.003857947286037832, ,0.0013195503814897348, ,0.261321834998009,-0.16036254813327194,0.12428310004000001,-4.525528360283005,0.2623420795496456,-1.4021846866620287, ,0.16532568215761462,0.04555782119945788,0.03942775128712872,0.017915124354480366,0.16219132624357085,-0.009825672937658778, ,1.4686369895935059
0.027974804717968996,0.019207901358599865,-0.11290261186298806, ,0.029122409222344582,0.019021626395746404,-0.11361074140531813, ,0.001361301549609707, ,0.02749659133526757,0.002112426009978008,-0.035076026834436023,0.0015554675844054121,0.003537989917050486,0.008195217894672759, ,0.04461897059767761, ,0.003857947286037832, ,0.0013198287226105347, ,0.2629513316344703,-0.1599377978251896,0.12468365365000002,-4.52531867033952,0.2641183540465964,-1.402326259567833, ,0.16249476294258697,0.03988942478287969,0.040843106461538464,0.01576900986916331,0.17032312090426707,-0.01248812434726597, ,1.4740920066833496
0.028161074237372068,0.019224283345085795,-0.11313527790098944, ,0.029275403397249322,0.01904553169044836,-0.11378369143979021, ,0.0013015843222352152, ,0.027980276473816883,0.0027413714356714245,-0.034515074931009866,-0.0060461895659324515,-0.0037242237529670026,0.0026876099159147773, ,0.044516304725266354, ,0.007097694553405131, ,0.0013197078987669895, ,0.26405568243548444,-0.1596906703732144,0.12495587455000001,-4.525108980396035,0.2652114460447199,-1.4024008153959988, ,0.16648586238328208,0.033952394117520844,0.040531327022900764,0.022231880441414338,0.1638981576496036,0.001791342396402662, ,1.479466199874878
0.028161074237372068,0.019224283345085795,-0.11313527790098944, ,0.02942839006512674,0.01907116009293246,-0.1139548254412713, ,0.0015169687895304825, ,0.027980276473816883,0.0027413714356714245,-0.034515074931009866,-0.0060461895659324515,-0.0037242237529670026,0.0026876099159147773, ,0.044516304725266354, ,0.007097694553405131, ,0.0013210056677851704, ,0.26405568243548444,-0.1596906703732144,0.12495587455000001,-4.525108980396035,0.2652114460447199,-1.4024008153959988, ,0.16648586238328208,0.033952394117520844,0.040531327022900764,0.022231880441414338,0.1638981576496036,0.001791342396402662, ,1.4854390621185303
0.02853077495117877,0.019261586423958938,-0.11357300478464, ,0.029581366495886725,0.019098520513739583,-0.1141241353577706, ,0.001197529955168884, ,0.0278389315820523,0.002782943655762687,-0.03204477106950783,0.007987084428737669,0.0016647983179872814,-0.013691059255840443, ,0.04253960789568358, ,0.008156670968739317, ,0.0013201986369837566, ,0.2662875522361353,-0.1592736427980063,0.12547439055,-4.524689600509067,0.26739763004096695,-1.402223212091768, ,0.16976197058760426,0.03060204500434401,0.038198588776978425,0.04149333176149058,0.1703743045943496,-0.00307436750678651, ,1.4907710552215576
0.02853077495117877,0.019261586423958938,-0.11357300478464, ,0.02973433005036947,0.019127621479344013,-0.11429161346165186, ,0.0014081512396935025, ,0.0278389315820523,0.002782943655762687,-0.03204477106950783,0.007987084428737669,0.0016647983179872814,-0.013691059255840443, ,0.04253960789568358, ,0.008156670968739317, ,0.0013207697577805734, ,0.2662875522361353,-0.1592736427980063,0.12547439055,-4.524689600509067,0.26739763004096695,-1.402223212091768, ,0.16976197058760426,0.03060204500434401,0.038198588776978425,0.04149333176149058,0.1703743045943496,-0.00307436750678651, ,1.496047019958496
0.02881677876894769,0.01929423750822235,-0.11389924681802534, ,0.0298872781795419,0.01915847113480883,-0.11445725234774841, ,0.0012148134290638744, ,0.02822159245559087,0.003661984426873932,-0.03189451961777158,-0.010279805709140936,-0.01183971405239427,-0.011594877767690892, ,0.042744927094575176, ,0.015678655210678273, ,0.0013200861685630462, ,0.2679170488725967,-0.15901879261315688,0.12584253691000002,-4.524479910565582,0.2689006315383868,-1.4021419491901796, ,0.17037152883028864,0.023413999891061132,0.038382678361445786,0.03982402847519351,0.15667516773952947,0.017906235672211904, ,1.5013010501861572
0.02881677876894769,0.01929423750822235,-0.11389924681802534, ,0.030040208423694287,0.019191077246441753,-0.11462104493147608, ,0.0014242242366653743, ,0.02822159245559087,0.003661984426873932,-0.03189451961777158,-0.010279805709140936,-0.01183971405239427,-0.011594877767690892, ,0.042744927094575176, ,0.015678655210678273, ,0.001320753720281651, ,0.2679170488725967,-0.15901879261315688,0.12584253691000002,-4.524479910565582,0.2689006315383868,-1.4021419491901796, ,0.17037152883028864,0.023413999891061132,0.038382678361445786,0.03982402847519351,0.15667516773952947,0.017906235672211904, ,1.5065820217132568
0.029078285027479556,0.0193316152471841,-0.11418782966036958, ,0.030193118411636653,0.019225447204450394,-0.11478298444694712, ,0.0012682012252459107, ,0.028099126091932405,0.004032288606130563,-0.029916429087714164,-0.03514144603390237,-0.017733302970508978,0.006641894363805669, ,0.04124091376162363, ,0.03936200325414434, ,0.0013204189910139073, ,0.26961605010492606,-0.15883344702417548,0.12621327585,-4.524270220622098,0.2704036330358066,-1.401733971328029, ,0.17316960138407075,0.01671309291272821,0.03645036961098399,0.021297193871858067,0.1503430527148912,0.04595662545743559, ,1.5119671821594238
0.029078285027479556,0.0193316152471841,-0.11418782966036958, ,0.03034600585989525,0.019261588025598127,-0.11494306444508333, ,0.0014772946560335932, ,0.028099126091932405,0.004032288606130563,-0.029916429087714164,-0.03514144603390237,-0.017733302970508978,0.006641894363805669, ,0.04124091376162363, ,0.03936200325414434, ,0.0013214118749697282, ,0.26961605010492606,-0.15883344702417548,0.12621327585,-4.524270220622098,0.2704036330358066,-1.401733971328029, ,0.17316960138407075,0.01671309291272821,0.03645036961098399,0.021297193871858067,0.1503430527148912,0.04595662545743559, ,1.517322063446045
0.02936558254475045,0.019376131669690138,-0.11449474949442226, ,0.030498868571909088,0.019299506355859603,-0.1151012787917305, ,0.0012876670557896031, ,0.02755969109947301,0.0044505777446340496,-0.029482092765713164,0.028593598969704443,-0.006011869767474098,-0.008716219142582526, ,0.04060219217733841, ,0.029218388156837416, ,0.0013211996434025577, ,0.2713845559331235,-0.158678992366691,0.12658790366,-4.523641150791644,0.2720432710329919,-1.401600768849856, ,0.16915675857124915,0.01327229951866724,0.03620184436363637,0.03952725424183664,0.16392222612786939,-0.006653043346271398, ,1.5226211547851562
0.02936558254475045,0.019376131669690138,-0.11449474949442226, ,0.030651704437226507,0.01933920847307632,-0.11525762166577162, ,0.0014958097454468152, ,0.02755969109947301,0.0044505777446340496,-0.029482092765713164,0.028593598969704443,-0.006011869767474098,-0.008716219142582526, ,0.04060219217733841, ,0.029218388156837416, ,0.0013222909565403342, ,0.2713845559331235,-0.158678992366691,0.12658790366,-4.523641150791644,0.2720432710329919,-1.401600768849856, ,0.16915675857124915,0.01327229951866724,0.03620184436363637,0.03952725424183664,0.16392222612786939,-0.006653043346271398, ,1.527886152267456
0.02964327235102271,0.019425563927783704,-0.11479241053027718, ,0.030804511430701335,0.019380700289612113,-0.11541208755724033, ,0.0013169998344528166, ,0.028378356156874784,0.00565961488479841,-0.030774689847479608,0.009093213686757877,-0.01865350786224591,-0.03185450953615157, ,0.042242678348078606, ,0.020751199650825364, ,0.0013222580924279895, ,0.27307583443257866,-0.15858631957220032,0.12695216115000002,-4.523221770904676,0.27354627253041175,-1.4015195059482675, ,0.17067795244329276,0.005186823986106264,0.03765676482269504,0.06288872928419253,0.14330694653516401,0.022836913421999477, ,1.533588171005249
0.0299480769174127,0.019490738138191143,-0.11512852817300166, ,0.0309572876116898,0.019423987355008863,-0.1155646712654346, ,0.001101445727022299, ,0.028283591667390307,0.006352682302924634,-0.03210376792433709,0.023305295330028078,0.012270887229126627,0.009151773854359977, ,0.043254711246166665, ,0.026337755443377273, ,0.0013208950531353617, ,0.2747980038635307,-0.15856315137357763,0.12733845557,-4.522802391017706,0.2750492740278316,-1.401274885566398, ,0.16945882421155498,0.0010267387906276301,0.03894574943765281,0.028437694307348507,0.1813673083094396,0.007216130911287047, ,1.5391640663146973
0.0299480769174127,0.019490738138191143,-0.11512852817300166, ,0.031110031123246857,0.019469074858642035,-0.11571536789703066, ,0.001301916946596418, ,0.028283591667390307,0.006352682302924634,-0.03210376792433709,0.023305295330028078,0.012270887229126627,0.009151773854359977, ,0.043254711246166665, ,0.026337755443377273, ,0.0013207786230338958, ,0.2747980038635307,-0.15856315137357763,0.12733845557,-4.522802391017706,0.2750492740278316,-1.401274885566398, ,0.16945882421155498,0.0010267387906276301,0.03894574943765281,0.028437694307348507,0.1813673083094396,0.007216130911287047, ,1.5444481372833252
0.030232768491883937,0.01955229453364022,-0.11543412273408293, ,0.03126274019132254,0.019515967632376213,-0.11586417286419642, ,0.0011167383130395933, ,0.0289455764337344,0.006140518430254132,-0.03037008091360995,-0.0630623202625819,-0.05264694658366418,0.007868407312991661, ,0.04240158223902342, ,0.08214944543463316, ,0.0013195344748022234, ,0.276597400623225,-0.15856315137357763,0.12773900918,-4.522592701074221,0.27655227552525147,-1.4007035502239664, ,0.1716038726192962,-0.0003940842400279555,0.03747955651764706,0.01722295332134667,0.10808547225133519,0.08394143755281985, ,1.5496962070465088
