NicholasDascanio/dvrk_moveit_final/test/execution/third_experiment_notsharpbends/old_data/thirdexp_600vel5.0.csv
Current Position (x),Current Position (y),Current Position (z), ,Planned Position (x),Planned Position (y),Planned Position (z), ,Position Error,,Cartesian linear Velocity(x),Cartesian linear Velocity(y),Cartesian linear Velocity(z),Cartesian Angular Velocity(x),Cartesian Angular Velocity(y),Cartesian Angular Velocity(z), ,Total Linear Velocity, ,Total Angular Velocity, ,MSE, ,Joint 1 Position,Joint 2 Position,Joint 3 Position,Joint 4 Position,Joint 5 Position,Joint 6 Position, ,Joint 1 Velocity,Joint 2 Velocity,Joint 3 Velocity,Joint 4 Velocity,Joint 5 Velocity,Joint 6 Velocity, ,Time Stamp
0.009093922277417024,0.019946727406762205,-0.07825360049874039, ,0.009263863996499208,0.019939198259330538,-0.07840428517717003, ,0.00022725040871052576, ,-4.822713689634435e-05,3.2855779161942475e-05,2.770370113332094e-06,0.138347223872632,-0.029227933972480722,-0.14358338589757516, ,5.842117688066473e-05, ,0.14140094227961797, ,1.893753405921048e-05, ,0.1936861404855507,-0.20425083905748984,0.09088289190000001,-4.1818465429118685,0.8979750764584746,-1.1610518488308332, ,-0.000648680771619697,-0.00033000815517649705,0.0,0.0011540286849972665,0.0,-0.2005347703140029, ,0.019308090209960938
0.009113782727525914,0.01994626267135913,-0.07827855032764144, ,0.00932986796813665,0.01996791689246553,-0.07854909596188912, ,0.0003469245980209582, ,0.0019487768173115237,-9.994361512005658e-05,-0.002778901604823027,0.0284141354859447,-0.25689883784570994,-0.22718341506479564, ,0.0033955874218140948, ,0.25846542511857223, ,2.609886394234018e-05, ,0.19370158595129916,-0.20425083905748984,0.09089196593000001,-4.181636852968385,0.8953789829629313,-1.1641623480295973, ,0.0009564191520263617,-0.00032000980008915883,0.0011357721570632116,0.0015209336821861723,-0.2642829071490213,-0.21810749235440507, ,0.03833723068237305
0.009153276818936087,0.01995717581734189,-0.07836099807818411, ,0.0093957776183528,0.019996286105749803,-0.07869352438978006, ,0.0004134126271422988, ,0.0022628337160054014,0.0008350520302553545,-0.0059579133068954305,0.09367796490528006,-0.16889296422826178,-0.21011154726658163, ,0.006427632479537551, ,0.19313310039218218, ,3.086211355855571e-05, ,0.19378653601291562,-0.20425856179036406,0.09095807672,-4.1814271630249005,0.8922363434683261,-1.171564542541728, ,0.004067362996429222,0.00020968440525211764,0.005217429256469047,0.0009373303939771781,-0.15223318907709937,-0.2378834660196829, ,0.0569920539855957
0.009207127444220982,0.019984689789133217,-0.07851649329698375, ,0.009461592847427995,0.020024307850928125,-0.07883757109775778, ,0.00041159833138580985, ,0.0027155145412019305,0.0017088534599347567,-0.008907222890158547,0.06939026149242898,-0.08888191596935413,-0.12382659234288838, ,0.0094674610633461, ,0.11276082351731673, ,3.331395155379982e-05, ,0.19388693154028053,-0.20425083905748984,0.09110326120000001,-4.1810077831379315,0.8895036134730173,-1.1741552301360927, ,0.00758321975788109,4.568591880084155e-05,0.008878936187290971,0.0016535335038172145,-0.06978052347389183,-0.14667218449477692, ,0.07569313049316406
0.009270773150062129,0.020020610744442585,-0.0787028020187796, ,0.009527313557305416,0.02005198407510942,-0.07898123672204593, ,0.00037989886865939787, ,0.0034225565639133208,0.0017492103025771397,-0.009279526378627709,-0.11491490629989215,-0.08722738138769123,0.02341328294054756, ,0.010044064910556665, ,0.14427075824594637, ,3.421316988305751e-05, ,0.19411089079363306,-0.20424311632461561,0.09128863067000001,-4.180798093194446,0.8878639754758321,-1.1779639759205913, ,0.012273272317443193,0.00028516924606072095,0.009065914354012522,0.01495467000016327,-0.11009828704394826,0.0958585307081139, ,0.09514212608337402
0.009326156519368288,0.02005300301956314,-0.07886022217445522, ,0.009592939651587688,0.02007931672076948,-0.0791245218981767, ,0.00037645716152999616, ,0.0028309731537234225,0.0016686574515430077,-0.007062465534678688,-0.16243910509760176,0.04689361714503178,0.1729621129867733, ,0.007789560072059081, ,0.1690723933002787, ,3.4766806378209464e-05, ,0.19439663190997936,-0.2042353935917414,0.09145325950000001,-4.180798093194446,0.8875907024763011,-1.1735755243660295, ,0.01886244117640047,0.0003513650014559875,0.007736188207867897,0.01495467000016327,0.026984671258556407,0.25597592503838423, ,0.11562418937683105
0.009375503122316203,0.020086859450304556,-0.07897948959593325, ,0.009658471035534584,0.020106307725757402,-0.07926742726099262, ,0.0004041746828898336, ,0.002445105314768216,0.0014837515538166303,-0.005682381565687329,0.03771379098880829,0.03845827995491377,-0.002691378434436464, ,0.006361565761023321, ,0.0538643604056851, ,3.555162053248361e-05, ,0.1947904912865648,-0.20422767085886717,0.09159325882000001,-4.180169023363993,0.8892303404734865,-1.1721354620456077, ,0.019749623633396624,0.0005268161483448757,0.00657129188118812,0.016624480229904367,0.06615591831481607,-0.006328824907172362, ,0.1359241008758545
0.009435282193731687,0.020115207313805637,-0.07910776977633105, ,0.009723907616060323,0.02013295902330082,-0.07940995344464849, ,0.000418251989836474, ,0.003091522856722435,0.0014638255788669834,-0.006009282245993965,0.045062991783903786,-0.015761883016694754,-0.057309407893549054, ,0.006914605701773657, ,0.04774002698901432, ,3.631669107530846e-05, ,0.19521524159464715,-0.2042122253931187,0.09173196185000002,-4.179959333420509,0.8893669769732518,-1.1717568075084606, ,0.02308928018454277,0.0005590048470303859,0.006601248039784502,0.025597389896972408,0.011912486804199004,-0.0508592711593191, ,0.15749216079711914
0.009499501058981986,0.020141318588282595,-0.07923296774357949, ,0.009789249301729934,0.020159272542008104,-0.07955210108261114, ,0.00043141914272710596, ,0.0035900786055184696,0.0017009140181149102,-0.007341482778750131,0.014074868261620913,-0.01654935054099469,-0.02899533036756678, ,0.008347403325675955, ,0.02172516740060333, ,3.746580011980659e-05, ,0.1957017737657233,-0.20419677992737026,0.09186677601000001,-4.179959333420509,0.8893669769732518,-1.1720018437288824, ,0.02564089207199967,0.0008888417987168697,0.00797237813813814,0.024368486802567906,0.0068203397201051464,-0.010308299656107502, ,0.17549800872802734
0.009577083300759223,0.020176670139106404,-0.07939174306660521, ,0.00985449600275626,0.02018525020587315,-0.07969387080766208, ,0.00041025918233617166, ,0.0037970894429199074,0.0016977122366112136,-0.007999615453820223,0.006407955791774095,-0.022616662702774133,-0.009972699080789155, ,0.009016316458780304, ,0.023506920182794266, ,3.8196469932385714e-05, ,0.19625008779979325,-0.2041736117287476,0.09203788629000001,-4.179539953533539,0.8893669769732518,-1.1720018437288824, ,0.027113411873848796,0.0012443668369423286,0.008619486753246754,0.007139316338376277,0.004703291143813714,-0.005889383604787897, ,0.1921701431274414
0.009618849006341683,0.020198464605325633,-0.0794764175822521, ,0.009919647630998212,0.02021089393428304,-0.07983526325189753, ,0.00046840635716957364, ,0.004033110168918576,0.0020712071646853754,-0.008560119387488076,0.010892199295637516,-0.01511996297631131,-0.04217679598692112, ,0.009686667160676456, ,0.01863473208658743, ,3.933993899457014e-05, ,0.19652810618326533,-0.20416588899587337,0.09212992288,-4.178910883703086,0.8893669769732518,-1.172083522469023, ,0.026921118172615822,0.0009093946942211717,0.009277117949912638,0.04313486043527738,0.004064133840653872,-0.0023772280886518193, ,0.20984101295471191
0.0096967300487649,0.020236888755645773,-0.07964814422714422, ,0.009984704099956056,0.020236205642017686,-0.07997627904673066, ,0.00043657986741110354, ,0.003717513348158452,0.0015680594334220555,-0.008339888498817548,-0.006035009169885597,-0.030448645612023633,0.021383039912830953, ,0.009264580727328647, ,0.031040961888142912, ,4.003926455779024e-05, ,0.1970532520187126,-0.20414272079725068,0.09231529235000001,-4.178491503816117,0.8895036134730173,-1.1721949403727192, ,0.026142408142829414,0.001268533341447588,0.008878936187290971,-0.021900135928615703,0.0,0.0008544145836643465, ,0.22707605361938477
0.009771908547836834,0.020268283887504394,-0.07981348599444318, ,0.010049665324770082,0.020261187239259307,-0.0801169188228919, ,0.00041142517050983866, ,0.003776236954932231,0.001717227275315268,-0.008649623141255306,-0.0011367833446614293,-0.02349953511040121,-0.006300269896351059, ,0.009592956558883287, ,0.023527013800353217, ,4.04414046325125e-05, ,0.19757839785415984,-0.20410410713287958,0.09249158779000001,-4.1787011937596015,0.8895036134730173,-1.1720315828924381, ,0.024732067124959806,0.0023514029925110775,0.009223399837869139,0.006080766092630835,0.0,0.0, ,0.24481821060180664
0.009847456649805925,0.020304169432394874,-0.07997440259286001, ,0.010114531222216639,0.02028584063159378,-0.08025718321043043, ,0.0003893965200675022, ,0.003862844989810084,0.0016499630993621077,-0.007902987609839937,0.002736773132927503,-0.020351408504501907,-0.025958502796248076, ,0.008949925296103932, ,0.02053459823004664, ,4.0628344914680806e-05, ,0.1980958209567329,-0.20405777073563422,0.09266658694,-4.178072123929148,0.8897768864725483,-1.1720910612195499, ,0.026641477136010883,0.0029168856805321256,0.008504437544046985,0.02676414745358227,0.001018615474591394,5.056415989972791e-05, ,0.2621891498565674
0.009886201262563607,0.0203231927160201,-0.08005873908466533, ,0.010179301710704735,0.020310167720014673,-0.08039707283871524, ,0.0004478250242572102, ,0.003918445641371978,0.002029360216870593,-0.008554666763356058,0.009113855215945111,-0.01207122842559203,-0.0543435431147192, ,0.009625738546536205, ,0.015125371624664593, ,4.1195034018302065e-05, ,0.1983429484087081,-0.20403460253701156,0.09275732724,-4.177652744042178,0.8897768864725483,-1.1720093824794093, ,0.024332549117556605,0.002230588595071982,0.00923409363478261,0.05646330634112447,0.0009623854321263475,6.094051695313318e-05, ,0.27918004989624023
0.009959633607145716,0.020356360974696782,-0.08022148388051784, ,0.01024397671027421,0.020334170400930288,-0.08053658833643616, ,0.0004250108704497006, ,0.0035750975691675063,0.0014311614215427218,-0.007921293576080539,-0.014076470909529947,-0.02768199682328083,0.03016947474831856, ,0.008807748722689267, ,0.03105543350532196, ,4.154734287729546e-05, ,0.19883720331265844,-0.2039882661397662,0.09293232639000001,-4.177443054098694,0.8899135229723137,-1.1717940854225437, ,0.025124951431948844,0.001731806603066085,0.008432404192694549,-0.02316773680915795,0.0003709525778941556,0.011627819970799367, ,0.29724907875061035
0.01002899183836263,0.020386422128785622,-0.08038053312492832, ,0.010308556142592058,0.020357850566167356,-0.08067573033160554, ,0.0004075707609971099, ,0.0034502813092241323,0.0016056047584704796,-0.00788324703233853,-0.005276496407297394,-0.010680944244150817,0.012601658139912934, ,0.008753741572954886, ,0.011913184034388149, ,4.2011491136423524e-05, ,0.19931601275086036,-0.20394192974252084,0.09310343667000001,-4.177652744042178,0.8901867959718445,-1.1716085275292334, ,0.023304749891569443,0.001666276420483271,0.008504437544046985,0.0,0.012456011842144387,0.01359069932725816, ,0.31337404251098633
0.010067081810114275,0.0204056205157778,-0.0804639320260559, ,0.010373039930949107,0.020381210102973935,-0.08081449945155852, ,0.0004659439448920635, ,0.003919503139446689,0.0018757796218931751,-0.008673526432754397,-0.007851581476860648,-0.01374888865943044,-0.0025346859337466257, ,0.00970108833223012, ,0.01583285261627971, ,4.277532652348632e-05, ,0.19956314020283555,-0.20391876154389818,0.09319417697000001,-4.177233364155209,0.8903234324716099,-1.1714749092125083, ,0.02586452481833491,0.0016484154600438735,0.009353383159130946,0.01767919836919718,0.006703926308747028,0.01841954875302888, ,0.3292851448059082
0.010145961827656253,0.02044406515340329,-0.08063706305212841, ,0.0104374280002574,0.020404250894025904,-0.08095289632295447, ,0.00043161135293365207, ,0.0034212400328245615,0.0013846818122749606,-0.008072147320992323,-0.007969488601895447,-0.01882508622625766,0.05047611608796059, ,0.008875910626817397, ,0.020442519065157014, ,4.327762281981082e-05, ,0.20007284057253438,-0.20385697968090438,0.09338213902,-4.176394604381271,0.8905967054711408,-1.1714527087994795, ,0.024439078433806535,0.001644770278331086,0.008652260467137426,-0.04297279276224249,0.015587445216581054,0.007571637428746244, ,0.34559202194213867
0.010180102933617225,0.020457923860809073,-0.08071423136761735, ,0.010501720277047094,0.02042697481743058,-0.08109092157177816, ,0.0004962772096234572, ,0.003551931654774947,0.0012455203465419579,-0.00809022471552734,-0.012741220047522935,-0.01877063286396542,0.03847320601073247, ,0.008922963373317843, ,0.022686456571162115, ,4.408437672876228e-05, ,0.2003045225587611,-0.20381836601653325,0.09346510158000002,-4.176394604381271,0.8907333419709063,-1.1713190904827542, ,0.02506522492299809,0.004293774565496085,0.008628825308775734,-0.028524988828734377,0.01202796607099609,0.012355829786644396, ,0.360828161239624
0.010256466396462861,0.020488374219579518,-0.08088924223402887, ,0.010565916689463172,0.020449383746731376,-0.08122857582334071, ,0.0004608980642681859, ,0.0038172247553790424,0.0015861118907081542,-0.008828732832375038,-0.007115308620039188,-0.015311205265789317,0.009238105034166113, ,0.009748511639649477, ,0.016883736843754556, ,4.4642227504216336e-05, ,0.20081422292845993,-0.203741138687791,0.09365176734000001,-4.176604294324757,0.8908699784706717,-1.1711037934258883, ,0.024913872816610862,0.004154840270190496,0.009442093372851216,0.0,0.009410534333827561,0.01068928222866345, ,0.37808918952941895
0.010337308365659253,0.020524918556555777,-0.08107366267765208, ,0.01063001716726193,0.020471479550911036,-0.08136585970228052, ,0.0004170291009770073, ,0.004022291508770303,0.0016221332911291893,-0.009492434142041593,-0.005051491900276282,-0.0058980769044151525,-0.00380423536617514, ,0.010436304486584905, ,0.007765616815069497, ,4.493871899403454e-05, ,0.20133164603103296,-0.2036407431604261,0.093851396,-4.1759752244943025,0.891279887969968,-1.1709479746961342, ,0.02529910465435105,0.0068551671181565745,0.010165163701340142,0.017038359996999094,0.016444291028585172,0.013438730132564506, ,0.3935530185699463
0.010379727292814441,0.02054240080229752,-0.08116761180930648, ,0.010694021641809505,0.020493264094399877,-0.08150277383256445, ,0.00046209191261871435, ,0.004027495225061798,0.0018265190503700018,-0.008734539476302082,0.007594698784380093,0.007774294017799523,-0.02903355660058349, ,0.009790253801221884, ,0.010868258658188976, ,4.542720547339853e-05, ,0.20160966441450506,-0.20358668403030653,0.09395250662000001,-4.175765534550818,0.8914165244697335,-1.170814356379409, ,0.026492725169869006,0.005160349145504105,0.009555375836832634,0.046461029311081765,0.02710491736694073,0.013092274042708239, ,0.4085421562194824
0.010457870475716814,0.020570709373310195,-0.08133881401253779, ,0.010757930046076739,0.020514739237075752,-0.08163931883748901, ,0.00042833579319693924, ,0.0040569790377678544,0.0015051651606417939,-0.008672207164790233,-0.012130479419056341,-0.014970046758811016,-0.005417757378298753, ,0.009691840804652989, ,0.019267869156865732, ,4.572499514959005e-05, ,0.2021348102499523,-0.20347856577006737,0.09413528351000001,-4.175765534550818,0.8915531609694989,-1.1703540231021214, ,0.026799475164775707,0.006059006205316677,0.009282524195804198,0.01952896776254309,0.005924354489175237,0.018412332830575515, ,0.4240281581878662
0.010496471293116767,0.020585273360321305,-0.08142362752089484, ,0.010821742314637088,0.020535906834271044,-0.08177549533968109, ,0.0004817149086675013, ,0.004154053415737601,0.0017890339473224661,-0.009439978503157096,-0.005674619187022915,-0.007803539342322528,0.000521954202392852, ,0.010467568790580816, ,0.009648650383370283, ,4.644339489456947e-05, ,0.20240510590055016,-0.20342450663994782,0.09422732010000001,-4.175765534550818,0.8918264339690297,-1.1704135014292332, ,0.026807045637986096,0.004625058727108474,0.010171654865900383,0.01510641673564891,0.01585873542066863,0.016557287907059553, ,0.43771815299987793
0.010587767738696068,0.020623987806011802,-0.08162750963798115, ,0.010885458383663962,0.020556768736777548,-0.08191130396109877, ,0.0004167461351997264, ,0.004447240525637755,0.0018043261527830134,-0.009923991325936186,0.004205237703923092,-0.0039512017157287554,-0.01733796195261183, ,0.011008959636311572, ,0.003983744832519138, ,4.683840511412871e-05, ,0.20299203359899123,-0.20330094291396023,0.0944476894,-4.175136464720365,0.8922363434683261,-1.1703393614396198, ,0.028756648957112357,0.006774781667229169,0.010719254051144012,0.027723476301055098,0.021565385272178803,0.0067472112984114825, ,0.45249319076538086
0.01063114662668373,0.02064031335932292,-0.08172115199946016, ,0.010949078190926343,0.020577326790849358,-0.08204674532303288, ,0.0004594113621853093, ,0.004447746627623093,0.0017792443481428517,-0.009758094444691865,-0.002246389773837842,-0.008441553878973001,-0.014065039279550762, ,0.010870536679734682, ,0.008735331157528468, ,4.738879225382079e-05, ,0.2032700519824633,-0.20323916105096643,0.09454750373000001,-4.17492677477688,0.8922363434683261,-1.1701760039593387, ,0.028782815152705726,0.0063777525415658586,0.010514067009900992,0.026670423998941595,0.015488944790135097,0.012224997898398387, ,0.46587610244750977
0.010679021055764987,0.020659529492620378,-0.08182327453176241, ,0.011012601675786764,0.020597582838208627,-0.08218182004610797, ,0.0004936276976672195, ,0.004321896079608789,0.0013058286317556944,-0.009577154523424789,-0.03377155266822079,-0.0329515608891933,0.056495614596946325, ,0.010588005615034715, ,0.047183927921326495, ,4.8046947342806456e-05, ,0.2035789612974323,-0.2031696564550984,0.09465768838000001,-4.174507394889911,0.8923729799680916,-1.1699607069024727, ,0.02962751843848604,0.006085417094223924,0.010107113908629443,-0.03906206598214408,0.0,0.028882737312075756, ,0.4788491725921631
0.010759693806532192,0.020687860867324746,-0.08200139973364085, ,0.011076028779197267,0.02061753871604879,-0.08231652875028207, ,0.0004520169432890309, ,0.004220607409592738,0.0016754472819619642,-0.00960873358395356,0.0030624613349787915,0.0043356015453381875,0.01244085808254255, ,0.010627719020934826, ,0.005308109670997932, ,4.8504213397705216e-05, ,0.20415816626299912,-0.2030383699962366,0.09485213188000001,-4.174717084833396,0.8931927989666841,-1.1702208206239484, ,0.02839525480504811,0.006193893888961226,0.010451976062992127,0.004658621505186564,0.03553732126725783,0.012043156414032115, ,0.49242520332336426
0.01080748762157625,0.020704600611760993,-0.08210639759713761, ,0.011139359443697285,0.020637196257041444,-0.08245087205484997, ,0.0004830578695863608, ,0.004829676919959842,0.0017094692278819697,-0.010312903652220023,-0.0009306883685271492,-0.01198572452461451,0.005108123504128174, ,0.011515383012832931, ,0.012021799223238991, ,4.9056245612329926e-05, ,0.20446707557796812,-0.20296886540036857,0.09496361282000002,-4.174717084833396,0.8931927989666841,-1.1699757844035268, ,0.033007631846424614,0.007224696037345737,0.011131244947589101,0.005078016514223886,0.022348360197676637,0.007604552570340647, ,0.5065832138061523
0.010859704775131245,0.02072423225908129,-0.0822154406706627, ,0.011202593613409459,0.020656557289338174,-0.08258485057844177, ,0.0005085433481138548, ,0.004757823697814388,0.001681407017065897,-0.009848609013960166,-0.019878785419618364,-0.00968391697081021,0.005743627176658586, ,0.011066124678783446, ,0.02211208413968657, ,4.967478354801362e-05, ,0.20479915309155977,-0.20289163807162633,0.09508027892000001,-4.174297704946426,0.8931927989666841,-1.1696490694429644, ,0.03202731743451596,0.007377190411388959,0.010619207680000001,0.021863090655967202,0.014869577055670952,0.03443685688921452, ,0.519740104675293
0.010957825154302388,0.02076096656746388,-0.08242220839129515, ,0.011265731234037192,0.02067562363657674,-0.08271846493902538, ,0.0004357264185966892, ,0.004535871468008049,0.0015176047780035271,-0.01022531336460257,0.020819003614041775,-0.0015767046778239996,0.028013941328416683, ,0.011288679623447047, ,0.020878620580336706, ,4.999596213838075e-05, ,0.20546330811874308,-0.2027294606812676,0.09530583338000001,-4.173668635115973,0.8938759814655114,-1.1696344077804626, ,0.03248782662049667,0.00739039385207434,0.011131244947589101,-0.029938411202127188,0.04717545428950234,-0.017267205272414075, ,0.5332250595092773
0.010991208927239083,0.02077233613476733,-0.08249455851648821, ,0.011328772252860976,0.02069439711788486,-0.08285171575390672, ,0.0004975789197684541, ,0.004421205598563266,0.001455316341612137,-0.00997503901259968,0.02597867971384994,-0.0030448399800479154,0.020809960230731294, ,0.011007561396686193, ,0.026156504954231385, ,5.052125461097786e-05, ,0.20568726737209558,-0.20267540155114802,0.09538361078,-4.173668635115973,0.8940126179652769,-1.169745825684159, ,0.03155867693996368,0.0074900062183769125,0.010850689046321525,-0.028960413569413666,0.0456476818471392,-0.025581629315482017, ,0.5487980842590332
0.011051233932127227,0.020790658774322308,-0.08262566336672772, ,0.011391716618735595,0.020712879547885206,-0.08298460363973122, ,0.0005008155224521614, ,0.004467152874624959,0.0016467828037986625,-0.010093828105257354,-0.0033967863910974792,-0.0022220595436445176,-5.312540131443266e-05, ,0.01116031873320114, ,0.004059014858555509, ,5.121006295518098e-05, ,0.20608112674868104,-0.20257500602378312,0.09552231381000001,-4.173878325059457,0.8940126179652769,-1.1694191107235967, ,0.028497580047588827,0.008102131595807248,0.010880335737704918,0.016076881960258846,0.02465110772360728,0.014649112465590445, ,0.5603251457214355
0.011148659304647224,0.02082392510423625,-0.08282977819116832, ,0.0114545642820864,0.02073107273669883,-0.08311712921248428, ,0.0004298488418394179, ,0.004954881914070201,0.0016110163058779049,-0.010300510664988258,0.006611693214110263,-0.020495528577430797,-0.02114895044743249, ,0.011543255532115769, ,0.021535576678362853, ,5.162845361766675e-05, ,0.20639003606365003,-0.20249777869504088,0.09562731330000002,-4.173878325059457,0.8941492544650423,-1.1692854924068716, ,0.03385549110184473,0.0075470862018830465,0.010910144876712331,0.01294638932245892,0.0,0.017899429615321906, ,0.5729122161865234
0.011200250742827936,0.020842213840039817,-0.08293363039606905, ,0.01151731519490729,0.020748978489952018,-0.08324929308749246, ,0.0004570181966126164, ,0.004731221578352774,0.0016166093020943987,-0.009643360896072648,0.0438188034439414,0.01215973632742769,-0.03671557642973827, ,0.010862425724993111, ,0.04547468130087263, ,5.212092008892634e-05, ,0.20708508202233022,-0.20231243310605948,0.09585675663000001,-4.173039565285519,0.8948324369638695,-1.169597545704932, ,0.033615636400450156,0.00927317077657938,0.010668996329537843,0.028431558497018776,0.05363666117368383,-0.03177869898126636, ,0.5848891735076904
0.011251909279835298,0.020857796679213413,-0.08303463912599657, ,0.01157996931075554,0.020766598608777248,-0.08338109587942444, ,0.00048577026868104026, ,0.0048948458258814675,0.0013115834651425242,-0.010906578727244586,-0.0072198185033249705,-0.020652377485046895,0.05225386674560433, ,0.012026355490287513, ,0.021877987125842924, ,5.268827991891808e-05, ,0.20744032773454454,-0.2022197603115688,0.09596564499000002,-4.1728298753420345,0.8949690734636349,-1.1694639273882066, ,0.0340987932297775,0.009395318568643134,0.011660916193265009,-0.04764439934945964,0.02709471825232243,0.0015421906978506095, ,0.5967180728912354
0.01130124939994364,0.020871315459459663,-0.08314412016945948, ,0.011642526584751026,0.0207839348898218,-0.0835125382022912, ,0.0005097424131224371, ,0.005038685954174643,0.0016605321157343298,-0.01061890267942619,-0.009910662224828521,-0.011769288270016082,-0.00038462194275351797, ,0.011870417733479589, ,0.015386267809230096, ,5.331082890158344e-05, ,0.20775695978238776,-0.20211936478420386,0.0960810148,-4.173039565285519,0.8949690734636349,-1.169055533687504, ,0.03304211057049818,0.009082745718307712,0.01142669406025825,0.01694254937385924,0.017812225531065345,0.01833661681974945, ,0.6088461875915527
0.011349374161714831,0.020886513132427915,-0.08324701678346984, ,0.011704986973570808,0.020800989125248467,-0.08364362066944864, ,0.0005395085450052011, ,0.00488353605728717,0.0015190628949249192,-0.01063720576542985,-0.03439874246314731,-0.021324617501759825,0.01290859780309058, ,0.011802822670770565, ,0.04047236907390796, ,5.4003710830907425e-05, ,0.20807359183023097,-0.2020344147225874,0.09619119945000001,-4.173039565285519,0.8951057099634003,-1.1689219153707786, ,0.030221955910341013,0.009810844586641877,0.011273044246284503,0.013244425498892612,0.0,0.039465427745718054, ,0.6204700469970703
0.011397399947811403,0.020903325807624253,-0.0833587808261804, ,0.011767350435446862,0.020817763102741835,-0.08377434389359631, ,0.000562918291378627, ,0.004834917388742574,0.001755387722994862,-0.010970412857774364,0.05194604795178302,0.010086257149443218,-0.029607963219887304, ,0.012116425648021263, ,0.05291620094259358, ,5.474332701169127e-05, ,0.20839022387807418,-0.20193401919522247,0.09631305071000001,-4.173039565285519,0.8956522559624621,-1.1692042295052834, ,0.03214666041953617,0.009543086344148298,0.012021744543396226,0.010681464554878742,0.05652291481153239,-0.047009800367128894, ,0.6324610710144043
0.011505417619385129,0.02094015349137329,-0.08359217534721193, ,0.011829616930164231,0.020834258605515226,-0.08390470848678021, ,0.00046259689070392784, ,0.005281192468528502,0.0017440302392233856,-0.011526984478453328,-0.013385051678675068,-0.009039898605684252,0.012148394008158162, ,0.012798593927907538, ,0.01615175444758971, ,5.515103804097328e-05, ,0.20906982437100594,-0.20174095087336685,0.09656323468000001,-4.17262018539855,0.8959255289619931,-1.1690186716119733, ,0.03390387336851403,0.00982032975926293,0.012395962272373542,0.00895535221744655,0.02303029126263097,0.02348626523060081, ,0.6439712047576904
0.011505417619385129,0.02094015349137329,-0.08359217534721193, ,0.011891786419054664,0.020850477412309245,-0.0840347150603924, ,0.0005942760690590073, ,0.005634056152132272,0.0016857760969889732,-0.011770654036908725,-0.03126114027957396,-0.028166387892617988,0.009906377966980913, ,0.013157990964853051, ,0.04207854646433849, ,5.610469336688388e-05, ,0.20943279281609448,-0.20164055534600195,0.09668897481000001,-4.172410495455066,0.8960621654617585,-1.1687216958149669, ,0.03583721357948292,0.010570771756859634,0.012512813448546743,0.011831163996782438,0.0,0.03349619286062886, ,0.6546900272369385
0.01161637824117814,0.02097511043139384,-0.08382905306949315, ,0.011953858864996038,0.02086642129740155,-0.0841643642251726, ,0.00048799597377805983, ,0.005518855466281555,0.0017785571293505282,-0.01182018799549478,-0.016795273803391114,-0.014712366901133252,0.008527313468441489, ,0.013165784267141411, ,0.02232789132956697, ,5.671670666170287e-05, ,0.20979576126118302,-0.20152471435288857,0.09681860381000001,-4.172410495455066,0.8964720749610547,-1.1688109133056344, ,0.03525146417476626,0.010130171866020962,0.012682174777070065,0.011831163996782438,0.01696844845190952,0.024731593827999332, ,0.6640491485595703
0.01166794706237384,0.020993616240203444,-0.08394922611966893, ,0.01201583423240825,0.020882092030609353,-0.08429365659120869, ,0.00050209110938677, ,0.005363065707645723,0.0020884516480820783,-0.012820356320737839,0.035264221224537345,0.015160903832217994,-0.011018663192972377, ,0.014052958416703044, ,0.038385126771245726, ,5.735190310379083e-05, ,0.21012783877477467,-0.20142431882552367,0.09694952910000001,-4.172410495455066,0.8970186209601165,-1.1690115486999983, ,0.03339090132247389,0.01013227794361748,0.01398490914837577,0.010308893008019283,0.05944908863539409,-0.02197173999060892, ,0.6742620468139648
0.011728941114665811,0.021016129766128995,-0.08408736216682318, ,0.012077712487250031,0.020897491377294273,-0.08442259276793793, ,0.0004980924548347767, ,0.005866981345351796,0.002150622687149881,-0.013842942770820408,-0.026473747226421155,-0.015037530891322159,0.023121670635024176, ,0.015187946293208925, ,0.030446446741617512, ,5.795744161185908e-05, ,0.21049080721986324,-0.20132392329815874,0.09709730616000001,-4.172200805511581,0.897155257459882,-1.168551215422711, ,0.03430836643473275,0.010003393320216956,0.014762568600556072,0.0039486800987230605,0.015333993484201086,0.03540321705922883, ,0.6836950778961182
0.011728941114665811,0.021016129766128995,-0.08408736216682318, ,0.012139493597014992,0.020912621098365548,-0.08455117336414716, ,0.0006280033533575653, ,0.005866981345351796,0.002150622687149881,-0.013842942770820408,-0.026473747226421155,-0.015037530891322159,0.023121670635024176, ,0.015187946293208925, ,0.030446446741617512, ,5.89128544516847e-05, ,0.21083060746632912,-0.20123125050366805,0.09723730548000001,-4.171991115568097,0.8972918939596475,-1.168172560885564, ,0.0384665348838552,0.010527390070621841,0.015141455817490494,0.020414264614341655,0.0,0.07158934089668918, ,0.6931121349334717
0.011786458410863052,0.021037714783549908,-0.08421813221500907, ,0.012201177530730118,0.020927482950287464,-0.08467939898797487, ,0.0006300079692273746, ,0.006458566795083668,0.002255535518285938,-0.014230605466557026,-0.05598523868967085,-0.02306165035968094,0.02832817784386607, ,0.01578957432819547, ,0.06054903867816093, ,5.9847238008701274e-05, ,0.21083060746632912,-0.20123125050366805,0.09723730548000001,-4.171991115568097,0.8972918939596475,-1.168172560885564, ,0.0384665348838552,0.010527390070621841,0.015141455817490494,0.020414264614341655,0.0,0.07158934089668918, ,0.7026660442352295
0.011848329570510243,0.021059808209779058,-0.08436319084647459, ,0.012262764258950568,0.020942078685080558,-0.0848072702469108, ,0.0006187268103615278, ,0.0057769230645785775,0.002206097593402698,-0.013370535384198856,0.08184767066360363,0.03225113635012389,-0.04327052871451076, ,0.014731290613717142, ,0.08797258983127124, ,6.072495949309144e-05, ,0.21122446684291457,-0.20110768677768046,0.09739545286000001,-4.171991115568097,0.8979750764584746,-1.168402935443484, ,0.037852788814707126,0.011814858261761799,0.014817499088372096,0.019883299428649987,0.09130005776118548,-0.06699068390584882, ,0.7117922306060791
0.011907107981613572,0.021079897926898898,-0.08448954280294294, ,0.012324253753757673,0.020956410050328386,-0.08493478774779772, ,0.0006224973187061424, ,0.005879908307447885,0.0019521834392108501,-0.012914632505673214,0.006197507465335898,0.002543089893793058,0.007039726586011646, ,0.0143238289099289, ,0.006698958555600324, ,6.158911266718543e-05, ,0.21160288075375155,-0.2009995685174413,0.09753285960000001,-4.171781425624612,0.8983849859577709,-1.168410474194011, ,0.037852788814707126,0.011313556737489997,0.014021841126760566,0.008602312026247933,0.044595318552683186,0.007676971968217254, ,0.7223532199859619
0.011971940907980597,0.021097433623182244,-0.08462520487377889, ,0.012385645988755363,0.020970478789180885,-0.08506195209683137, ,0.0006148313269338358, ,0.006458331561465206,0.0019047260021181477,-0.013487619654755041,-0.02243807246730735,-0.016528335293111016,0.01792206433732962, ,0.015074943172440056, ,0.027868486095563097, ,6.257698096816425e-05, ,0.21201218559608548,-0.20086828205857948,0.09767674779,-4.171781425624612,0.8983849859577709,-1.1679204017531675, ,0.04167630283639472,0.012519385429877412,0.014493914030937218,0.008098632765337005,0.022028069335858283,0.031798020955943224, ,0.7297301292419434
0.012036396589238245,0.02111901011288059,-0.08476068859416928, ,0.012446940939066236,0.020984286640358937,-0.08518876389956216, ,0.0006082314890822298, ,0.006523289543404479,0.0020229250285610043,-0.013686133080951056,-0.03061995767136433,-0.021096056925549018,0.0039054140659559515, ,0.015295612797392971, ,0.03718366503483016, ,6.352638034537797e-05, ,0.21241376770554513,-0.20074471833259191,0.09782322856,-4.171362045737643,0.8986582589573018,-1.1676531651197168, ,0.04033019190755239,0.012424318088304633,0.014640451764705886,0.02526510332589458,0.009319356491129359,0.040251643351188256, ,0.7376701831817627
0.012104785300967922,0.02114214563610013,-0.08490446313221461, ,0.012508138581330323,0.020997835338160832,-0.0853152237608964, ,0.0005935011583354253, ,0.006635442602941112,0.0022994238255440776,-0.014583795471569287,0.05793931281937257,0.022696397680899507,-0.044991484347900026, ,0.016186523370476148, ,0.06222611813347366, ,6.44171825421074e-05, ,0.21286168621225016,-0.20060570914085588,0.09798137594,-4.170942665850673,0.899341441456129,-1.1679652184177773, ,0.042612007884360474,0.014304633940076994,0.01604109921450151,0.03609506682178812,0.07690501922474868,-0.040882675377510974, ,0.7468931674957275
0.012173659496708964,0.02116442659880549,-0.08505656226411938, ,0.012569238893698584,0.02101112661246269,-0.0854413322850952, ,0.0005727407041385406, ,0.007360306773726922,0.0025229763107918043,-0.016188914271446423,-0.0023072744049666117,-0.005049573988702901,-0.015599414805015834, ,0.01796163886053911, ,0.005551630453173507, ,6.523555130566613e-05, ,0.21327871378745827,-0.20046669994911984,0.09814470848000001,-4.17073297590719,0.8996147144556599,-1.1679430180047485, ,0.044385847314532635,0.014246650887024589,0.017465802105263162,0.036036168631167396,0.03499252542681498,0.0175473895906769, ,0.7542650699615479
0.012173659496708964,0.02116442659880549,-0.08505656226411938, ,0.012630241855833215,0.02102416218872787,-0.0855670900757776, ,0.0006991281727082846, ,0.007360306773726922,0.0025229763107918043,-0.016188914271446423,-0.0023072744049666117,-0.005049573988702901,-0.015599414805015834, ,0.01796163886053911, ,0.005551630453173507, ,6.636199338146464e-05, ,0.21327871378745827,-0.20046669994911984,0.09814470848000001,-4.17073297590719,0.8996147144556599,-1.1679430180047485, ,0.044385847314532635,0.014246650887024589,0.017465802105263162,0.036036168631167396,0.03499252542681498,0.0175473895906769, ,0.7617092132568359
0.01224011126489326,0.021184892465761176,-0.08520674430311935, ,0.012691147448900913,0.02103694378800641,-0.08569249773591975, ,0.0006791751232273901, ,0.007791647509909847,0.0024644424078241857,-0.017212070128860956,-0.02416204608581825,-0.02701185752950713,-0.010989750831861, ,0.019053571985876934, ,0.03624145978836606, ,6.741473422039984e-05, ,0.21368029589691795,-0.20032769075738377,0.09830544844000001,-4.17073297590719,0.8998879874551907,-1.1677574601114387, ,0.04538352059228636,0.016081501704536653,0.018330047779056387,0.030773552392263398,0.009385311824490216,0.02759516682795296, ,0.769841194152832
0.012323520062192589,0.02120950064185232,-0.08539360728773418, ,0.012751955655573109,0.021049473126944794,-0.0858175558678571, ,0.0006236170794574445, ,0.007126579162044298,0.0021940504767511675,-0.01577743996905897,0.04750744170790211,0.02521491496961121,-0.02249025707933502, ,0.017450776487729008, ,0.05378427257950103, ,6.83063164435128e-05, ,0.21420544173236522,-0.20013462243552818,0.09850766968,-4.17073297590719,0.900571169954018,-1.1678244771890771, ,0.045733465811311214,0.017453916049010625,0.017295126514657984,0.022735213937833204,0.08458178328794919,-0.02909931613348129, ,0.7777621746063232
0.012399505060037546,0.021229880974011885,-0.08555431861648173, ,0.012812666460019601,0.021061751917785917,-0.08594226507328356, ,0.0005911617167304241, ,0.007407239622379324,0.001969518292630172,-0.01647451987591198,0.03026865146054357,0.010333285260836598,0.0005371439767375905, ,0.01817019554848461, ,0.03198385267528727, ,6.909917542345388e-05, ,0.2146996966363156,-0.19994155411367256,0.09868266883000001,-4.170523285963705,0.9012543524528451,-1.1679731730068565, ,0.04730655112585781,0.019550255780484298,0.01787745400673401,0.0,0.07278487289599944,-0.022005130755676908, ,0.7853891849517822
0.012399505060037546,0.021229880974011885,-0.08555431861648173, ,0.01287327984790668,0.02107378186837575,-0.08606662595325404, ,0.0007150442557713329, ,0.007407239622379324,0.001969518292630172,-0.01647451987591198,0.03026865146054357,0.010333285260836598,0.0005371439767375905, ,0.01817019554848461, ,0.03198385267528727, ,7.018225580389219e-05, ,0.2146996966363156,-0.19994155411367256,0.09868266883000001,-4.170523285963705,0.9012543524528451,-1.1679731730068565, ,0.04730655112585781,0.019550255780484298,0.01787745400673401,0.0,0.07278487289599944,-0.022005130755676908, ,0.793309211730957
0.012449024492820409,0.02124356238817313,-0.08566189557307616, ,0.012933795806394543,0.021085564682168212,-0.08619063910818424, ,0.000734531297825898, ,0.007671270862398745,0.001877370020824731,-0.016077929305452467,-0.01681464962718019,-0.01237875931835098,0.008105611599822132, ,0.017912920632618977, ,0.02087977609996462, ,7.146653161373098e-05, ,0.21500860595128457,-0.19981026765481075,0.09879933493000001,-4.170313596020221,0.9016642619521416,-1.1678173542771024, ,0.048367452374348,0.019554284269208896,0.017257650617551468,0.015105725453951457,0.0346778260271481,0.024529655298055477, ,0.7989180088043213
0.012550245402488336,0.021265578974507177,-0.08585490837800042, ,0.012994214324131956,0.02109710205822785,-0.08631430513785168, ,0.0006607104189175711, ,0.007868918724915717,0.0013662669540678565,-0.014992000591193936,-0.04726086670604842,-0.030032637690419403,0.011733717624251936, ,0.01698666091424287, ,0.05599596495372294, ,7.255244602754212e-05, ,0.21567276097846788,-0.19955541746996133,0.09900674133000001,-4.169894216133251,0.9019375349516724,-1.1670600452028086, ,0.05137896132023322,0.02250342460480692,0.015960732985971945,0.02246179775478822,0.010661843304273569,0.050193328690873826, ,0.8044800758361816
0.012550245402488336,0.021265578974507177,-0.08585490837800042, ,0.013054535391256108,0.02110839569123777,-0.08643762464139734, ,0.0007864942599523701, ,0.007868918724915717,0.0013662669540678565,-0.014992000591193936,-0.04726086670604842,-0.030032637690419403,0.011733717624251936, ,0.01698666091424287, ,0.05599596495372294, ,7.392644825428063e-05, ,0.21567276097846788,-0.19955541746996133,0.09900674133000001,-4.169894216133251,0.9019375349516724,-1.1670600452028086, ,0.05137896132023322,0.02250342460480692,0.015960732985971945,0.02246179775478822,0.010661843304273569,0.050193328690873826, ,0.8105130195617676
0.012632823352724596,0.021283545787906543,-0.08602454762443469, ,0.013114758999385127,0.021119447271498774,-0.08656059821732442, ,0.0007392837944570208, ,0.008534005485352643,0.0024208333420886394,-0.018816504367545023,0.054277567366705234,0.025198550309143877,-0.04770317489888879, ,0.020802656568526, ,0.05984161510278678, ,7.516746611925468e-05, ,0.2162133522796636,-0.19931601275086036,0.09919081451000002,-4.169684526189767,0.9026207174504995,-1.1672087410205878, ,0.052720523088039324,0.023419778272080645,0.02052681896907217,0.04312133456187559,0.08971700476687632,-0.0374428433720582, ,0.8164172172546387
0.012632823352724596,0.021283545787906543,-0.08602454762443469, ,0.013174885141618926,0.02113025848493946,-0.08668322646350154, ,0.0008667097514535657, ,0.008534005485352643,0.0024208333420886394,-0.018816504367545023,0.054277567366705234,0.025198550309143877,-0.04770317489888879, ,0.020802656568526, ,0.05984161510278678, ,7.669415029329229e-05, ,0.2162133522796636,-0.19931601275086036,0.09919081451000002,-4.169684526189767,0.9026207174504995,-1.1672087410205878, ,0.052720523088039324,0.023419778272080645,0.02052681896907217,0.04312133456187559,0.08971700476687632,-0.0374428433720582, ,0.8220670223236084
0.012717506103991172,0.02130519826408482,-0.08621577709282376, ,0.013234913812533333,0.021140831013117263,-0.08680550997716244, ,0.0008015685902777772, ,0.009415352652273192,0.00250637260976715,-0.020747035638133737,0.009320102625156798,-0.007408124021669728,-0.025561140742800567, ,0.02292095672077521, ,0.011905493290555378, ,7.804518135569869e-05, ,0.21673077538223665,-0.19908433076463364,0.09939692462000001,-4.169684526189767,0.9033038999493268,-1.1672757580982267, ,0.05588748030534204,0.024946619757747313,0.022278058069930072,0.032646355957299075,0.050872233830666365,-0.004299019029979881, ,0.8280911445617676
0.012717506103991172,0.02130519826408482,-0.08621577709282376, ,0.013294845008176997,0.021151166533223097,-0.08692744935490607, ,0.0009292595939865789, ,0.009415352652273192,0.00250637260976715,-0.020747035638133737,0.009320102625156798,-0.007408124021669728,-0.025561140742800567, ,0.02292095672077521, ,0.011905493290555378, ,7.967692795175381e-05, ,0.21673077538223665,-0.19908433076463364,0.09939692462000001,-4.169684526189767,0.9033038999493268,-1.1672757580982267, ,0.05588748030534204,0.024946619757747313,0.022278058069930072,0.032646355957299075,0.050872233830666365,-0.004299019029979881, ,0.8341941833496094
0.012825109586028192,0.02133291724177155,-0.08646313066573713, ,0.013354678726069751,0.021161266718088254,-0.08704904519269896, ,0.0008082098794682042, ,0.010149958811150371,0.0027619656610695592,-0.02305422946022852,-0.041908444115918694,-0.02259354558373303,0.011161284557970368, ,0.025340631684822798, ,0.04761070759484167, ,8.100368575038537e-05, ,0.21730998034780347,-0.19882175784691,0.09964192343000002,-4.169684526189767,0.9037138094486231,-1.1671199393684726, ,0.05648627473718499,0.025752222946667784,0.0244682204608295,0.025902591524817588,0.025793175375974153,0.04936292361239154, ,0.8407270908355713
0.012825109586028192,0.02133291724177155,-0.08646313066573713, ,0.013414414965197541,0.02117113323618654,-0.08717029808587501, ,0.0009346339681851509, ,0.0096907121256139,0.002438828971709845,-0.023003215946455602,0.02852871411889231,-0.0013626504455194954,-0.010426104686345012, ,0.025079986685284363, ,0.028561125759852903, ,8.279632286566237e-05, ,0.21730998034780347,-0.19882175784691,0.09964192343000002,-4.169684526189767,0.9037138094486231,-1.1671199393684726, ,0.05648627473718499,0.025752222946667784,0.0244682204608295,0.025902591524817588,0.025793175375974153,0.04936292361239154, ,0.8448691368103027
0.012919072774570143,0.02135808911083153,-0.08668119840866645, ,0.01347405372600946,0.02118076775163899,-0.08729120862913634, ,0.0008435396789506114, ,0.0096907121256139,0.002438828971709845,-0.023003215946455602,0.02852871411889231,-0.0013626504455194954,-0.010426104686345012, ,0.025079986685284363, ,0.028561125759852903, ,8.436202040196556e-05, ,0.2178814625804961,-0.1985360167305637,0.09989340369000001,-4.169474836246282,0.9042603554476848,-1.1672388960226958, ,0.05523686935883049,0.028809029009857556,0.024619492302936634,0.0,0.07057053017234917,-0.03390915579715341, ,0.8487820625305176
0.012919072774570143,0.02135808911083153,-0.08668119840866645, ,0.013533595010415471,0.02119017192421996,-0.08741177741655459, ,0.000969319063402093, ,0.0096907121256139,0.002438828971709845,-0.023003215946455602,0.02852871411889231,-0.0013626504455194954,-0.010426104686345012, ,0.025079986685284363, ,0.028561125759852903, ,8.620246872977743e-05, ,0.2178814625804961,-0.1985360167305637,0.09989340369000001,-4.169474836246282,0.9042603554476848,-1.1672388960226958, ,0.05523686935883049,0.028809029009857556,0.024619492302936634,0.0,0.07057053017234917,-0.03390915579715341, ,0.8525810241699219
0.013021420793862933,0.021387507969216173,-0.0869098032212906, ,0.013593038821781981,0.02119934740936017,-0.08753200504157102, ,0.0008656134652878551, ,0.01052960945852815,0.0028607410863820126,-0.023663050017719414,0.02600749167053949,0.009972893532918234,-0.014222403594860454, ,0.02605756034346904, ,0.027853919100754593, ,8.778875826714197e-05, ,0.21847611301181138,-0.19825799834709162,0.10014099508,-4.168845766415829,0.9050801744462775,-1.1675806884843123, ,0.06235015871121602,0.027755759449684343,0.02556791576243981,0.022986557244010854,0.08328733117306078,-0.013220411232810592, ,0.8572871685028076
0.013021420793862933,0.021387507969216173,-0.0869098032212906, ,0.013652385164928973,0.021208295858151566,-0.08765189209699814, ,0.0009904185568515322, ,0.01052960945852815,0.0028607410863820126,-0.023663050017719414,0.02600749167053949,0.009972893532918234,-0.014222403594860454, ,0.02605756034346904, ,0.027853919100754593, ,8.964488819952749e-05, ,0.21847611301181138,-0.19825799834709162,0.10014099508,-4.168845766415829,0.9050801744462775,-1.1675806884843123, ,0.06235015871121602,0.027755759449684343,0.02556791576243981,0.022986557244010854,0.08328733117306078,-0.013220411232810592, ,0.8611321449279785
0.013021420793862933,0.021387507969216173,-0.0869098032212906, ,0.013711634046126565,0.021217018917351893,-0.08777143917501967, ,0.0011170843151546445, ,0.011781189418796785,0.0031331089954617377,-0.025645256924419758,0.03310580587951698,0.006464610054625933,-0.059556447708495046, ,0.02839528127732691, ,0.03373091272766884, ,9.177140642799822e-05, ,0.2191402680389947,-0.19794908903212263,0.10041321598000001,-4.16842638652886,0.9058999934448702,-1.1675957659853662, ,0.06901595749706967,0.03194107760298579,0.02770228090434783,0.06327116967578576,0.07888478777505385,-0.019856106240299334, ,0.8650360107421875
0.01313480498628492,0.021417662689369364,-0.08716205348250537, ,0.013770785473091459,0.021225518229388736,-0.08789064686719204, ,0.0009860218016398568, ,0.011781189418796785,0.0031331089954617377,-0.025645256924419758,0.03310580587951698,0.006464610054625933,-0.059556447708495046, ,0.02839528127732691, ,0.03373091272766884, ,9.35828714139663e-05, ,0.2191402680389947,-0.19794908903212263,0.10041321598000001,-4.16842638652886,0.9058999934448702,-1.1675957659853662, ,0.06901595749706967,0.03194107760298579,0.02770228090434783,0.06327116967578576,0.07888478777505385,-0.019856106240299334, ,0.8691110610961914
0.01313480498628492,0.021417662689369364,-0.08716205348250537, ,0.01382983945498513,0.021233795432365955,-0.0880095157644446, ,0.001111338112452275, ,0.011781189418796785,0.0031331089954617377,-0.025645256924419758,0.03310580587951698,0.006464610054625933,-0.059556447708495046, ,0.02839528127732691, ,0.03373091272766884, ,9.565966325581874e-05, ,0.2191402680389947,-0.19794908903212263,0.10041321598000001,-4.16842638652886,0.9058999934448702,-1.1675957659853662, ,0.06901595749706967,0.03194107760298579,0.02770228090434783,0.06327116967578576,0.07888478777505385,-0.019856106240299334, ,0.8731122016906738
0.013258307925798046,0.02144767060300765,-0.08743693660439118, ,0.01388879600240741,0.02124185216006449,-0.0881280464570809, ,0.0009578670443683331, ,0.012686478873201144,0.003498539507479355,-0.028461018792493797,0.023540986733567845,0.012964115123983388,-0.0209871438874382, ,0.03135627713221482, ,0.026874293715354144, ,9.737453510784713e-05, ,0.21987392766204603,-0.19761701151853098,0.10070877010000001,-4.16842638652886,0.9067198124434628,-1.1675291647462795, ,0.073506538774958,0.03296177198974323,0.030750601389961392,0.03868589800419873,0.09482585320082772,-0.004329339080640075, ,0.8780810832977295
0.013258307925798046,0.02144767060300765,-0.08743693660439118, ,0.013947655127397221,0.021249690041951534,-0.08824623953477931, ,0.0010813727849560088, ,0.012686478873201144,0.003498539507479355,-0.028461018792493797,0.023540986733567845,0.012964115123983388,-0.0209871438874382, ,0.03135627713221482, ,0.026874293715354144, ,9.934919816962956e-05, ,0.21987392766204603,-0.19761701151853098,0.10070877010000001,-4.16842638652886,0.9067198124434628,-1.1675291647462795, ,0.073506538774958,0.03296177198974323,0.030750601389961392,0.03868589800419873,0.09482585320082772,-0.004329339080640075, ,0.8820841312408447
0.013391316598943642,0.021484836679389177,-0.08774870079711149, ,0.01400641684342589,0.021257310703181088,-0.08836409558659357, ,0.0008993481681380481, ,0.013157463396509403,0.0038398151622983465,-0.03111426989914766,0.024826744603339904,0.029243180712594245,-0.0008905176401748928, ,0.033999423743176986, ,0.03836015778226538, ,0.00010090274533548054, ,0.22063847821659424,-0.19726948853919088,0.10104580550000002,-4.16842638652886,0.9079495409413517,-1.1676334597380011, ,0.07316649310599135,0.0347607844536523,0.03360508759493671,0.027568540286397505,0.11529782124984304,0.0016701262570502362, ,0.8859870433807373
0.013391316598943642,0.021484836679389177,-0.08774870079711149, ,0.014065081165395022,0.021264715764600022,-0.0884816152009539, ,0.001019595719632404, ,0.013157463396509403,0.0038398151622983465,-0.03111426989914766,0.024826744603339904,0.029243180712594245,-0.0008905176401748928, ,0.033999423743176986, ,0.03836015778226538, ,0.00010270802177910404, ,0.22063847821659424,-0.19726948853919088,0.10104580550000002,-4.16842638652886,0.9079495409413517,-1.1676334597380011, ,0.07316649310599135,0.0347607844536523,0.03360508759493671,0.027568540286397505,0.11529782124984304,0.0016701262570502362, ,0.8897271156311035
0.013391316598943642,0.021484836679389177,-0.08774870079711149, ,0.014123648109633445,0.021271906842752687,-0.08859879896566743, ,0.0011420663085221529, ,0.013157463396509403,0.0038398151622983465,-0.03111426989914766,0.024826744603339904,0.029243180712594245,-0.0008905176401748928, ,0.033999423743176986, ,0.03836015778226538, ,0.00010499735721245876, ,0.22063847821659424,-0.19726948853919088,0.10104580550000002,-4.16842638652886,0.9079495409413517,-1.1676334597380011, ,0.07316649310599135,0.0347607844536523,0.03360508759493671,0.027568540286397505,0.11529782124984304,0.0016701262570502362, ,0.8916831016540527
0.013391316598943642,0.021484836679389177,-0.08774870079711149, ,0.014182117693893614,0.021278885549885215,-0.08871564746791946, ,0.0012660047802850742, ,0.013157463396509403,0.0038398151622983465,-0.03111426989914766,0.024826744603339904,0.029243180712594245,-0.0008905176401748928, ,0.033999423743176986, ,0.03836015778226538, ,0.00010754902187855242, ,0.22063847821659424,-0.19726948853919088,0.10104580550000002,-4.16842638652886,0.9079495409413517,-1.1676334597380011, ,0.07316649310599135,0.0347607844536523,0.03360508759493671,0.027568540286397505,0.11529782124984304,0.0016701262570502362, ,0.8936221599578857
0.013527769025509333,0.021522548032436445,-0.08806334238817734, ,0.014240489937348626,0.021285653493950396,-0.08883216129427383, ,0.0010747895751769094, ,0.01369591433174282,0.0036540035400951204,-0.03149539776693894,0.015597548195843131,0.024755599912916273,0.0186711869466894, ,0.03453823811011743, ,0.0292590540820669, ,0.00010967016344280322, ,0.22140302877114246,-0.1968987973612281,0.10138543348000001,-4.168007006641891,0.9090426329394753,-1.1674629793457454, ,0.07829780656639503,0.03661147436669397,0.03403592205128206,0.013350932481976142,0.11789332360761116,0.009753538361000097, ,0.8955399990081787
0.013527769025509333,0.021522548032436445,-0.08806334238817734, ,0.014298764860588245,0.021292212278611417,-0.08894834103067398, ,0.0011961236284013723, ,0.01369591433174282,0.0036540035400951204,-0.03149539776693894,0.015597548195843131,0.024755599912916273,0.0186711869466894, ,0.03453823811011743, ,0.0292590540820669, ,0.00011204752332236245, ,0.22140302877114246,-0.1968987973612281,0.10138543348000001,-4.168007006641891,0.9090426329394753,-1.1674629793457454, ,0.07829780656639503,0.03661147436669397,0.03403592205128206,0.013350932481976142,0.11789332360761116,0.009753538361000097, ,0.8975751399993896
0.013527769025509333,0.021522548032436445,-0.08806334238817734, ,0.014356942485616059,0.02129856350324691,-0.08906418726244365, ,0.0013188586575546184, ,0.01369591433174282,0.0036540035400951204,-0.03149539776693894,0.015597548195843131,0.024755599912916273,0.0186711869466894, ,0.03453823811011743, ,0.0292590540820669, ,0.0006252925811413602, ,0.22140302877114246,-0.1968987973612281,0.10138543348000001,-4.168007006641891,0.9090426329394753,-1.1674629793457454, ,0.07829780656639503,0.03661147436669397,0.03403592205128206,0.013350932481976142,0.11789332360761116,0.009753538361000097, ,0.8995962142944336
0.013527769025509333,0.021522548032436445,-0.08806334238817734, ,0.014415022835845307,0.021304708762954504,-0.08917970057428697, ,0.0014425425023125334, ,0.01369591433174282,0.0036540035400951204,-0.03149539776693894,0.015597548195843131,0.024755599912916273,0.0186711869466894, ,0.03453823811011743, ,0.0292590540820669, ,0.0006349072860963151, ,0.22140302877114246,-0.1968987973612281,0.10138543348000001,-4.168007006641891,0.9090426329394753,-1.1674629793457454, ,0.07829780656639503,0.03661147436669397,0.03403592205128206,0.013350932481976142,0.11789332360761116,0.009753538361000097, ,0.9017841815948486
0.013527769025509333,0.021522548032436445,-0.08806334238817734, ,0.014473005936098191,0.021310649648558506,-0.08929488155029136, ,0.0015668638900843157, ,0.01369591433174282,0.0036540035400951204,-0.03149539776693894,0.015597548195843131,0.024755599912916273,0.0186711869466894, ,0.03453823811011743, ,0.0292590540820669, ,0.00064574399079385, ,0.22140302877114246,-0.1968987973612281,0.10138543348000001,-4.168007006641891,0.9090426329394753,-1.1674629793457454, ,0.07829780656639503,0.03661147436669397,0.03403592205128206,0.013350932481976142,0.11789332360761116,0.009753538361000097, ,0.9040021896362305
0.013670222397487965,0.021560644298910085,-0.08840184281401274, ,0.014530891812598304,0.021316387746608996,-0.08940973077392503, ,0.001347683659166549, ,0.015731327989480886,0.003920029362861576,-0.03773605768285055,0.04680391941933383,0.05201513363571127,0.0010212180269115701, ,0.04107129605894786, ,0.0699721693160949, ,0.000653812262844111, ,0.22218302479143914,-0.19647404705314575,0.10175098726000001,-4.167587626754922,0.9104089979371297,-1.1674336560207417, ,0.0866638735693797,0.049245947876736265,0.04073864838874681,0.021007990416225107,0.16406299580316755,-0.01925014241116505, ,0.9059171676635742
0.013670222397487965,0.021560644298910085,-0.08840184281401274, ,0.014588680492971537,0.0213219246393918,-0.0895242488280408, ,0.0014698121000067317, ,0.015731327989480886,0.003920029362861576,-0.03773605768285055,0.04680391941933383,0.05201513363571127,0.0010212180269115701, ,0.04107129605894786, ,0.0699721693160949, ,0.0006630849882664135, ,0.22218302479143914,-0.19647404705314575,0.10175098726000001,-4.167587626754922,0.9104089979371297,-1.1674336560207417, ,0.0866638735693797,0.049245947876736265,0.04073864838874681,0.021007990416225107,0.16406299580316755,-0.01925014241116505, ,0.9078500270843506
0.013670222397487965,0.021560644298910085,-0.08840184281401274, ,0.014646372006239168,0.021327261904928854,-0.08963843629487504, ,0.0015926389538739414, ,0.015731327989480886,0.003920029362861576,-0.03773605768285055,0.04680391941933383,0.05201513363571127,0.0010212180269115701, ,0.04107129605894786, ,0.0699721693160949, ,0.0006735294148462733, ,0.22218302479143914,-0.19647404705314575,0.10175098726000001,-4.167587626754922,0.9104089979371297,-1.1674336560207417, ,0.0866638735693797,0.049245947876736265,0.04073864838874681,0.021007990416225107,0.16406299580316755,-0.01925014241116505, ,0.9097311496734619
0.013670222397487965,0.021560644298910085,-0.08840184281401274, ,0.014703966382817015,0.021332401116985006,-0.08975229375604935, ,0.0017159368648487108, ,0.015731327989480886,0.003920029362861576,-0.03773605768285055,0.04680391941933383,0.05201513363571127,0.0010212180269115701, ,0.04107129605894786, ,0.0699721693160949, ,0.0006851117198463004, ,0.22218302479143914,-0.19647404705314575,0.10175098726000001,-4.167587626754922,0.9104089979371297,-1.1674336560207417, ,0.0866638735693797,0.049245947876736265,0.04073864838874681,0.021007990416225107,0.16406299580316755,-0.01925014241116505, ,0.9115760326385498
0.013670222397487965,0.021560644298910085,-0.08840184281401274, ,0.014761463654511638,0.02133734384507249,-0.08986582179257062, ,0.0018395393508631585, ,0.015731327989480886,0.003920029362861576,-0.03773605768285055,0.04680391941933383,0.05201513363571127,0.0010212180269115701, ,0.04107129605894786, ,0.0699721693160949, ,0.0006977977377695625, ,0.22218302479143914,-0.19647404705314575,0.10175098726000001,-4.167587626754922,0.9104089979371297,-1.1674336560207417, ,0.0866638735693797,0.049245947876736265,0.04073864838874681,0.021007990416225107,0.16406299580316755,-0.01925014241116505, ,0.9134831428527832
0.01385139422055297,0.02161408431753886,-0.08884135164800849, ,0.014818863854516078,0.021342091654454304,-0.08997902098483263, ,0.0015179818909863182, ,0.019324948593475055,0.006181362647151884,-0.04766040443877673,0.09281901268253008,0.08273469347168359,-0.041831387155508507, ,0.05179939221249441, ,0.12433886239698529, ,0.0007067127829132228, ,0.22218302479143914,-0.19647404705314575,0.10175098726000001,-4.167587626754922,0.9104089979371297,-1.1674336560207417, ,0.0866638735693797,0.049245947876736265,0.04073864838874681,0.021007990416225107,0.16406299580316755,-0.01925014241116505, ,0.9156250953674316
0.01385139422055297,0.02161408431753886,-0.08884135164800849, ,0.01487616701740703,0.02134664610614901,-0.09009189191261599, ,0.001638759724757746, ,0.019324948593475055,0.006181362647151884,-0.04766040443877673,0.09281901268253008,0.08273469347168359,-0.041831387155508507, ,0.05179939221249441, ,0.12433886239698529, ,0.0007167347930405833, ,0.22315608913359145,-0.1959566239505727,0.10222802198000001,-4.1669585569244685,0.9124585454336113,-1.1678797434740797, ,0.10116944729048058,0.05096505991324961,0.05171692051948052,0.06280145390105167,0.21259786535363617,-0.04193183756018677, ,0.9175581932067871
0.01385139422055297,0.02161408431753886,-0.08884135164800849, ,0.014933373179141441,0.021351008756935547,-0.09020443515508964, ,0.0017600806415308265, ,0.019324948593475055,0.006181362647151884,-0.04766040443877673,0.09281901268253008,0.08273469347168359,-0.041831387155508507, ,0.05179939221249441, ,0.12433886239698529, ,0.0007278342169606923, ,0.22315608913359145,-0.1959566239505727,0.10222802198000001,-4.1669585569244685,0.9124585454336113,-1.1678797434740797, ,0.10116944729048058,0.05096505991324961,0.05171692051948052,0.06280145390105167,0.21259786535363617,-0.04193183756018677, ,0.9194531440734863
0.01385139422055297,0.02161408431753886,-0.08884135164800849, ,0.014990482377054404,0.02135518115935873,-0.09031665129081089, ,0.001881770897226959, ,0.019324948593475055,0.006181362647151884,-0.04766040443877673,0.09281901268253008,0.08273469347168359,-0.041831387155508507, ,0.05179939221249441, ,0.12433886239698529, ,0.0007399809188582319, ,0.22315608913359145,-0.1959566239505727,0.10222802198000001,-4.1669585569244685,0.9124585454336113,-1.1678797434740797, ,0.10116944729048058,0.05096505991324961,0.05171692051948052,0.06280145390105167,0.21259786535363617,-0.04193183756018677, ,0.9216492176055908
0.01385139422055297,0.02161408431753886,-0.08884135164800849, ,0.015047494649852588,0.021359164861730673,-0.0904285408977265, ,0.002003699049343664, ,0.019324948593475055,0.006181362647151884,-0.04766040443877673,0.09281901268253008,0.08273469347168359,-0.041831387155508507, ,0.05179939221249441, ,0.12433886239698529, ,0.0007531446493841219, ,0.22315608913359145,-0.1959566239505727,0.10222802198000001,-4.1669585569244685,0.9124585454336113,-1.1678797434740797, ,0.10116944729048058,0.05096505991324961,0.05171692051948052,0.06280145390105167,0.21259786535363617,-0.04193183756018677, ,0.9238550662994385
0.013950048136462372,0.021644966067232922,-0.08908921983269874, ,0.01510441003761521,0.02136296140813935,-0.0905401045531743, ,0.0018754051558778177, ,0.021137365364038197,0.0070016699383068405,-0.052682655703527634,0.08827551302912041,0.08109552750220775,-0.023010560332879862, ,0.05719505055889245, ,0.11986928279122777, ,0.0007647143453273559, ,0.22367351223616447,-0.1957017737657233,0.10249635401000001,-4.1669585569244685,0.9135516374317348,-1.168035978042386, ,0.10882676784228298,0.05245823192839733,0.057092514408602156,0.05007920705505373,0.22150254737700953,-0.03545517670744171, ,0.9257771968841553
0.013950048136462372,0.021644966067232922,-0.08908921983269874, ,0.015161228581786751,0.021366572338449342,-0.09065134283388197, ,0.0019961686827991007, ,0.021137365364038197,0.0070016699383068405,-0.052682655703527634,0.08827551302912041,0.08109552750220775,-0.023010560332879862, ,0.05719505055889245, ,0.11986928279122777, ,0.0007772802059138023, ,0.22367351223616447,-0.1957017737657233,0.10249635401000001,-4.1669585569244685,0.9135516374317348,-1.168035978042386, ,0.10882676784228298,0.05245823192839733,0.057092514408602156,0.05007920705505373,0.22150254737700953,-0.03545517670744171, ,0.9277200698852539
0.013950048136462372,0.021644966067232922,-0.08908921983269874, ,0.015217950325176526,0.021369999188309285,-0.09076225631596974, ,0.0021171286732286554, ,0.021137365364038197,0.0070016699383068405,-0.052682655703527634,0.08827551302912041,0.08109552750220775,-0.023010560332879862, ,0.05719505055889245, ,0.11986928279122777, ,0.0007908140288159724, ,0.22367351223616447,-0.1957017737657233,0.10249635401000001,-4.1669585569244685,0.9135516374317348,-1.168035978042386, ,0.10882676784228298,0.05245823192839733,0.057092514408602156,0.05007920705505373,0.22150254737700953,-0.03545517670744171, ,0.9296071529388428
0.013950048136462372,0.021644966067232922,-0.08908921983269874, ,0.015274575311953666,0.021373243489154637,-0.0908728455749505, ,0.0022381970839216968, ,0.021137365364038197,0.0070016699383068405,-0.052682655703527634,0.08827551302912041,0.08109552750220775,-0.023010560332879862, ,0.05719505055889245, ,0.11986928279122777, ,0.0008052878593670297, ,0.22367351223616447,-0.1957017737657233,0.10249635401000001,-4.1669585569244685,0.9135516374317348,-1.168035978042386, ,0.10882676784228298,0.05245823192839733,0.057092514408602156,0.05007920705505373,0.22150254737700953,-0.03545517670744171, ,0.9315211772918701
0.013950048136462372,0.021644966067232922,-0.08908921983269874, ,0.015331103587644616,0.021376306768212918,-0.09098311118573031, ,0.002359304226944432, ,0.021137365364038197,0.0070016699383068405,-0.052682655703527634,0.08827551302912041,0.08109552750220775,-0.023010560332879862, ,0.05719505055889245, ,0.11986928279122777, ,0.0008206741600361129, ,0.22367351223616447,-0.1957017737657233,0.10249635401000001,-4.1669585569244685,0.9135516374317348,-1.168035978042386, ,0.10882676784228298,0.05245823192839733,0.057092514408602156,0.05007920705505373,0.22150254737700953,-0.03545517670744171, ,0.9334230422973633
0.01429372885774048,0.021753980072872797,-0.08995819491856963, ,0.015387535199128348,0.021379190548506906,-0.09109305372260856, ,0.0016201185157695742, ,0.025568360933078883,0.008270292284663316,-0.0653270571926208,0.028427297955835443,0.056353079676797056,0.02794970690839342, ,0.07063825604250083, ,0.06310777354169207, ,0.0008285118497982055, ,0.22541112713286499,-0.1948445504166844,0.10343357168000002,-4.1669585569244685,0.9168309134261053,-1.1683413242670238, ,0.12308293327946923,0.06351870251571003,0.07017097585903086,0.027418630085528868,0.20452350042483652,0.016593925520147226, ,0.9357080459594727
0.01429372885774048,0.021753980072872797,-0.08995819491856963, ,0.01544387019463507,0.021381896348861246,-0.0912026737592806, ,0.0017349348626058822, ,0.025568360933078883,0.008270292284663316,-0.0653270571926208,0.028427297955835443,0.056353079676797056,0.02794970690839342, ,0.07063825604250083, ,0.06310777354169207, ,0.0008373120732235228, ,0.22541112713286499,-0.1948445504166844,0.10343357168000002,-4.1669585569244685,0.9168309134261053,-1.1683413242670238, ,0.12308293327946923,0.06351870251571003,0.07017097585903086,0.027418630085528868,0.20452350042483652,0.016593925520147226, ,0.9375991821289062
0.01429372885774048,0.021753980072872797,-0.08995819491856963, ,0.015500108623742521,0.021384425683906264,-0.09131197186883694, ,0.0018505768336652842, ,0.025568360933078883,0.008270292284663316,-0.0653270571926208,0.028427297955835443,0.056353079676797056,0.02794970690839342, ,0.07063825604250083, ,0.06310777354169207, ,0.0008470550036123859, ,0.22541112713286499,-0.1948445504166844,0.10343357168000002,-4.1669585569244685,0.9168309134261053,-1.1683413242670238, ,0.12308293327946923,0.06351870251571003,0.07017097585903086,0.027418630085528868,0.20452350042483652,0.016593925520147226, ,0.9397621154785156
0.01429372885774048,0.021753980072872797,-0.08995819491856963, ,0.015556250537370787,0.021386780064080957,-0.09142094862376421, ,0.001966836353145257, ,0.025568360933078883,0.008270292284663316,-0.0653270571926208,0.028427297955835443,0.056353079676797056,0.02794970690839342, ,0.07063825604250083, ,0.06310777354169207, ,0.0008577195878936514, ,0.22541112713286499,-0.1948445504166844,0.10343357168000002,-4.1669585569244685,0.9168309134261053,-1.1683413242670238, ,0.12308293327946923,0.06351870251571003,0.07017097585903086,0.027418630085528868,0.20452350042483652,0.016593925520147226, ,0.9419682025909424
0.01429372885774048,0.021753980072872797,-0.08995819491856963, ,0.015612295987780054,0.02138896099563856,-0.09152960459594645, ,0.0020835514338070097, ,0.025568360933078883,0.008270292284663316,-0.0653270571926208,0.028427297955835443,0.056353079676797056,0.02794970690839342, ,0.07063825604250083, ,0.06310777354169207, ,0.0008692840392701925, ,0.22541112713286499,-0.1948445504166844,0.10343357168000002,-4.1669585569244685,0.9168309134261053,-1.1683413242670238, ,0.12308293327946923,0.06351870251571003,0.07017097585903086,0.027418630085528868,0.20452350042483652,0.016593925520147226, ,0.943939208984375
0.01429372885774048,0.021753980072872797,-0.08995819491856963, ,0.015668245028568444,0.021390969980652246,-0.09163794035666524, ,0.002200594412363296, ,0.026344031107110078,0.007520439566702116,-0.06525420676040965,0.03223280737627008,0.05606648294610786,0.03506533743394807, ,0.07077200354786554, ,0.06466236327082497, ,0.0008817261922897542, ,0.22672399172148316,-0.19414178172512994,0.10415949408000001,-4.166539177037499,0.9190170974223525,-1.1681637209627929, ,0.13071204071414708,0.07008636747302126,0.07017097585903086,0.0153287155368979,0.2178595156064372,0.007182854420657511, ,0.9460721015930176
0.014562962493758708,0.02183580770374921,-0.09063347487510025, ,0.015724097714667245,0.021392808517017668,-0.09174595647660101, ,0.0016679624079567353, ,0.026344031107110078,0.007520439566702116,-0.06525420676040965,0.03223280737627008,0.05606648294610786,0.03506533743394807, ,0.07077200354786554, ,0.06466236327082497, ,0.0008890061572496337, ,0.22672399172148316,-0.19414178172512994,0.10415949408000001,-4.166539177037499,0.9190170974223525,-1.1681637209627929, ,0.13071204071414708,0.07008636747302126,0.07017097585903086,0.0153287155368979,0.2178595156064372,0.007182854420657511, ,0.9483160972595215
0.014562962493758708,0.02183580770374921,-0.09063347487510025, ,0.015779854102338762,0.021394478098459617,-0.0918536535258344, ,0.0017788853103123396, ,0.026344031107110078,0.007520439566702116,-0.06525420676040965,0.03223280737627008,0.05606648294610786,0.03506533743394807, ,0.07077200354786554, ,0.06466236327082497, ,0.0008971701861768144, ,0.22672399172148316,-0.19414178172512994,0.10415949408000001,-4.166539177037499,0.9190170974223525,-1.1681637209627929, ,0.13071204071414708,0.07008636747302126,0.07017097585903086,0.0153287155368979,0.2178595156064372,0.007182854420657511, ,0.9502730369567871
0.014562962493758708,0.02183580770374921,-0.09063347487510025, ,0.01583551424916914,0.02139598021453203,-0.09196103207384386, ,0.0018908316441199212, ,0.026344031107110078,0.007520439566702116,-0.06525420676040965,0.03223280737627008,0.05606648294610786,0.03506533743394807, ,0.07077200354786554, ,0.06466236327082497, ,0.0009062034721581154, ,0.22672399172148316,-0.19414178172512994,0.10415949408000001,-4.166539177037499,0.9190170974223525,-1.1681637209627929, ,0.13071204071414708,0.07008636747302126,0.07017097585903086,0.0153287155368979,0.2178595156064372,0.007182854420657511, ,0.9521820545196533
0.014562962493758708,0.02183580770374921,-0.09063347487510025, ,0.015891078214071378,0.021397316350628897,-0.09206809268951122, ,0.002003570389761296, ,0.026344031107110078,0.007520439566702116,-0.06525420676040965,0.03223280737627008,0.05606648294610786,0.03506533743394807, ,0.07077200354786554, ,0.06466236327082497, ,0.000916089660604991, ,0.22672399172148316,-0.19414178172512994,0.10415949408000001,-4.166539177037499,0.9190170974223525,-1.1681637209627929, ,0.13071204071414708,0.07008636747302126,0.07017097585903086,0.0153287155368979,0.2178595156064372,0.007182854420657511, ,0.9540441036224365
0.014830300543453218,0.021904267542179504,-0.0912728785790823, ,0.015946546057276755,0.021398487987983782,-0.09217483594111855, ,0.0015216254754390124, ,0.02626048684400472,0.00570237540050887,-0.060820087396992156,0.04531207387401644,0.060731808837047103,-0.017888254047327908, ,0.06649220469701872, ,0.07576743646867933, ,0.0009214962303802946, ,0.22807546997447245,-0.1933695084377075,0.10484782407000001,-4.165910107207045,0.9212032814185995,-1.1682311538789838, ,0.13733276636537015,0.08194899961871396,0.06555066469135803,0.057291490181943946,0.2249449771058055,-0.009952268950596227, ,0.955930233001709
0.014830300543453218,0.021904267542179504,-0.0912728785790823, ,0.016001917840334685,0.021399496603677272,-0.09228126239635101, ,0.0016261361301064805, ,0.02626048684400472,0.00570237540050887,-0.060820087396992156,0.04531207387401644,0.060731808837047103,-0.017888254047327908, ,0.06649220469701872, ,0.07576743646867933, ,0.0009277319817053052, ,0.22807546997447245,-0.1933695084377075,0.10484782407000001,-4.165910107207045,0.9212032814185995,-1.1682311538789838, ,0.13733276636537015,0.08194899961871396,0.06555066469135803,0.057291490181943946,0.2249449771058055,-0.009952268950596227, ,0.9578630924224854
0.014830300543453218,0.021904267542179504,-0.0912728785790823, ,0.016057193626106758,0.021400343670638988,-0.09238737262229633, ,0.0017324268749159548, ,0.02626048684400472,0.00570237540050887,-0.060820087396992156,0.04531207387401644,0.060731808837047103,-0.017888254047327908, ,0.06649220469701872, ,0.07576743646867933, ,0.0009347907088387319, ,0.22807546997447245,-0.1933695084377075,0.10484782407000001,-4.165910107207045,0.9212032814185995,-1.1682311538789838, ,0.13733276636537015,0.08194899961871396,0.06555066469135803,0.057291490181943946,0.2249449771058055,-0.009952268950596227, ,0.9597451686859131
0.014830300543453218,0.021904267542179504,-0.0912728785790823, ,0.0161123734787644,0.02140103065765342,-0.09249316718544617, ,0.0018401257175058553, ,0.02626048684400472,0.00570237540050887,-0.060820087396992156,0.04531207387401644,0.060731808837047103,-0.017888254047327908, ,0.06649220469701872, ,0.07576743646867933, ,0.0009426631871749677, ,0.22807546997447245,-0.1933695084377075,0.10484782407000001,-4.165910107207045,0.9212032814185995,-1.1682311538789838, ,0.13733276636537015,0.08194899961871396,0.06555066469135803,0.057291490181943946,0.2249449771058055,-0.009952268950596227, ,0.9616482257843018
0.014830300543453218,0.021904267542179504,-0.0912728785790823, ,0.0161674574637882,0.021401559029366194,-0.0925986466516977, ,0.001948939573414493, ,0.02626048684400472,0.00570237540050887,-0.060820087396992156,0.04531207387401644,0.060731808837047103,-0.017888254047327908, ,0.06649220469701872, ,0.07576743646867933, ,0.0009513379836080672, ,0.22807546997447245,-0.1933695084377075,0.10484782407000001,-4.165910107207045,0.9212032814185995,-1.1682311538789838, ,0.13733276636537015,0.08194899961871396,0.06555066469135803,0.057291490181943946,0.2249449771058055,-0.009952268950596227, ,0.9635920524597168
0.015082245489058947,0.021947207554298055,-0.09182998085970208, ,0.01622244564795865,0.021401930246283996,-0.09270381158635227, ,0.0015365428350124079, ,0.027017963105947247,0.004007522739540274,-0.05627151931764275,0.033523131035923026,0.024412197947216146,-0.023954100014381814, ,0.06255009556521957, ,0.04146313434743357, ,0.0009563397344747709, ,0.22946556189183287,-0.19255862148591393,0.10544800634000001,-4.165910107207045,0.9232528289150811,-1.1683505263717597, ,0.15380379507045505,0.0885232663791705,0.06079699053435115,0.049888642760198346,0.20452283191877238,-0.0183015201507995, ,0.9660060405731201
0.015082245489058947,0.021947207554298055,-0.09182998085970208, ,0.016277338099359138,0.021402145764784008,-0.09280866255411803, ,0.0016380343587871576, ,0.027017963105947247,0.004007522739540274,-0.05627151931764275,0.033523131035923026,0.024412197947216146,-0.023954100014381814, ,0.06255009556521957, ,0.04146313434743357, ,0.0009621168075621641, ,0.22946556189183287,-0.19255862148591393,0.10544800634000001,-4.165910107207045,0.9232528289150811,-1.1683505263717597, ,0.15380379507045505,0.0885232663791705,0.06079699053435115,0.049888642760198346,0.20452283191877238,-0.0183015201507995, ,0.9681980609893799
0.015082245489058947,0.021947207554298055,-0.09182998085970208, ,0.016332134887367667,0.021402207037114707,-0.09291320011910999, ,0.0017414399316906881, ,0.027017963105947247,0.004007522739540274,-0.05627151931764275,0.033523131035923026,0.024412197947216146,-0.023954100014381814, ,0.06255009556521957, ,0.04146313434743357, ,0.0009686657413783702, ,0.22946556189183287,-0.19255862148591393,0.10544800634000001,-4.165910107207045,0.9232528289150811,-1.1683505263717597, ,0.15380379507045505,0.0885232663791705,0.06079699053435115,0.049888642760198346,0.20452283191877238,-0.0183015201507995, ,0.970149040222168
0.015082245489058947,0.021947207554298055,-0.09182998085970208, ,0.016386836082657005,0.021402115511402895,-0.09301742484485079, ,0.0018463762265578483, ,0.027017963105947247,0.004007522739540274,-0.05627151931764275,0.033523131035923026,0.024412197947216146,-0.023954100014381814, ,0.06255009556521957, ,0.04146313434743357, ,0.0009759799954215325, ,0.22946556189183287,-0.19255862148591393,0.10544800634000001,-4.165910107207045,0.9232528289150811,-1.1683505263717597, ,0.15380379507045505,0.0885232663791705,0.06079699053435115,0.049888642760198346,0.20452283191877238,-0.0183015201507995, ,0.9721431732177734
0.015082245489058947,0.021947207554298055,-0.09182998085970208, ,0.016441441757189357,0.021401872631656885,-0.09312133729427144, ,0.0019525383771530264, ,0.027017963105947247,0.004007522739540274,-0.05627151931764275,0.033523131035923026,0.024412197947216146,-0.023954100014381814, ,0.06255009556521957, ,0.04146313434743357, ,0.0009840507258490655, ,0.22946556189183287,-0.19255862148591393,0.10544800634000001,-4.165910107207045,0.9232528289150811,-1.1683505263717597, ,0.15380379507045505,0.0885232663791705,0.06079699053435115,0.049888642760198346,0.20452283191877238,-0.0183015201507995, ,0.9740591049194336
0.015359648838974813,0.021974484303974886,-0.09238081423365743, ,0.016495951984212512,0.021401479837770403,-0.09322493802971168, ,0.0015271096683710742, ,0.027656310101975508,0.0019557666590191676,-0.05123654813895968,0.019295738462325754,-0.011443003921819893,-0.023840901030222256, ,0.05825701997937326, ,0.022425761085451846, ,0.000988502028656623, ,0.2311182267269169,-0.19160100260951007,0.10604300345,-4.165910107207045,0.9253023764115627,-1.1686332563448163, ,0.17037152883028864,0.09733019647022642,0.05550108543554008,0.03589041911084754,0.1863060711368808,-0.026910988922288756, ,0.9759671688079834
0.015359648838974813,0.021974484303974886,-0.09238081423365743, ,0.016550366838259965,0.021400938565529888,-0.09332822761292214, ,0.0016261476498521997, ,0.027656310101975508,0.0019557666590191676,-0.05123654813895968,0.019295738462325754,-0.011443003921819893,-0.023840901030222256, ,0.05825701997937326, ,0.022425761085451846, ,0.0009936861393980503, ,0.2311182267269169,-0.19160100260951007,0.10604300345,-4.165910107207045,0.9253023764115627,-1.1686332563448163, ,0.17037152883028864,0.09733019647022642,0.05550108543554008,0.03589041911084754,0.1863060711368808,-0.026910988922288756, ,0.9778602123260498
0.015359648838974813,0.021974484303974886,-0.09238081423365743, ,0.016604686395142662,0.02140025024661521,-0.09343120660506304, ,0.0017271906098654166, ,0.027656310101975508,0.0019557666590191676,-0.05123654813895968,0.019295738462325754,-0.011443003921819893,-0.023840901030222256, ,0.05825701997937326, ,0.022425761085451846, ,0.0009996014980308517, ,0.2311182267269169,-0.19160100260951007,0.10604300345,-4.165910107207045,0.9253023764115627,-1.1686332563448163, ,0.17037152883028864,0.09733019647022642,0.05550108543554008,0.03589041911084754,0.1863060711368808,-0.026910988922288756, ,0.9797170162200928
0.015359648838974813,0.021974484303974886,-0.09238081423365743, ,0.01665891073194904,0.02139941630860677,-0.09353387556670648, ,0.0018298456502132928, ,0.027656310101975508,0.0019557666590191676,-0.05123654813895968,0.019295738462325754,-0.011443003921819893,-0.023840901030222256, ,0.05825701997937326, ,0.022425761085451846, ,0.0010062434512483113, ,0.2311182267269169,-0.19160100260951007,0.10604300345,-4.165910107207045,0.9253023764115627,-1.1686332563448163, ,0.17037152883028864,0.09733019647022642,0.05550108543554008,0.03589041911084754,0.1863060711368808,-0.026910988922288756, ,0.9816310405731201
0.015359648838974813,0.021974484303974886,-0.09238081423365743, ,0.016713039927040884,0.021398438174989418,-0.09363623505783665, ,0.0019337988586610121, ,0.027656310101975508,0.0019557666590191676,-0.05123654813895968,0.019295738462325754,-0.011443003921819893,-0.023840901030222256, ,0.05825701997937326, ,0.022425761085451846, ,0.001013605002100793, ,0.2311182267269169,-0.19160100260951007,0.10604300345,-4.165910107207045,0.9253023764115627,-1.1686332563448163, ,0.17037152883028864,0.09733019647022642,0.05550108543554008,0.03589041911084754,0.1863060711368808,-0.026910988922288756, ,0.9835271835327148
0.015359648838974813,0.021974484303974886,-0.09238081423365743, ,0.01676707406004928,0.021397317265156375,-0.09373828563785039, ,0.002038797723369496, ,0.027656310101975508,0.0019557666590191676,-0.05123654813895968,0.019295738462325754,-0.011443003921819893,-0.023840901030222256, ,0.05825701997937326, ,0.022425761085451846, ,0.00102167738573283, ,0.2311182267269169,-0.19160100260951007,0.10604300345,-4.165910107207045,0.9253023764115627,-1.1686332563448163, ,0.17037152883028864,0.09733019647022642,0.05550108543554008,0.03589041911084754,0.1863060711368808,-0.026910988922288756, ,0.9855990409851074
0.0156449806679684,0.021983781786598437,-0.09287970913088846, ,0.016821013211872377,0.021396054994414628,-0.09384002786555881, ,0.0016280931787618304, ,0.02817508698790611,-2.7037116372395816e-05,-0.04669026120351354,-0.06176638973222956,-0.08436115216787023,-0.0066423843761140855, ,0.05453271265061055, ,0.10455462213034034, ,0.001026415009115869, ,0.23292534621948544,-0.19058932460298667,0.10658096380000001,-4.165910107207045,0.9266687414092171,-1.1686039330198126, ,0.18110103350853202,0.10497449287441457,0.0502486167823344,0.02811774212201784,0.10494008257229587,0.021815962872125373, ,0.9881901741027832
0.0156449806679684,0.021983781786598437,-0.09287970913088846, ,0.01687485746467134,0.02139465277398884,-0.09394146229918665, ,0.0017282909821433135, ,0.02817508698790611,-2.7037116372395816e-05,-0.04669026120351354,-0.06176638973222956,-0.08436115216787023,-0.0066423843761140855, ,0.05453271265061055, ,0.10455462213034034, ,0.0010318559081315855, ,0.23292534621948544,-0.19058932460298667,0.10658096380000001,-4.165910107207045,0.9266687414092171,-1.1686039330198126, ,0.18110103350853202,0.10497449287441457,0.0502486167823344,0.02811774212201784,0.10494008257229587,0.021815962872125373, ,0.9902000427246094
0.0156449806679684,0.021983781786598437,-0.09287970913088846, ,0.016928606901865872,0.021393112011025214,-0.09404258949637385, ,0.0018299939444044572, ,0.02817508698790611,-2.7037116372395816e-05,-0.04669026120351354,-0.06176638973222956,-0.08436115216787023,-0.0066423843761140855, ,0.05453271265061055, ,0.10455462213034034, ,0.0010379954314875307, ,0.23292534621948544,-0.19058932460298667,0.10658096380000001,-4.165910107207045,0.9266687414092171,-1.1686039330198126, ,0.18110103350853202,0.10497449287441457,0.0502486167823344,0.02811774212201784,0.10494008257229587,0.021815962872125373, ,0.9923760890960693
0.0156449806679684,0.021983781786598437,-0.09287970913088846, ,0.016982261608133653,0.021391434108597715,-0.09414341001417635, ,0.0019329086908037628, ,0.02817508698790611,-2.7037116372395816e-05,-0.04669026120351354,-0.06176638973222956,-0.08436115216787023,-0.0066423843761140855, ,0.05453271265061055, ,0.10455462213034034, ,0.0010448268304136088, ,0.23292534621948544,-0.19058932460298667,0.10658096380000001,-4.165910107207045,0.9266687414092171,-1.1686039330198126, ,0.18110103350853202,0.10497449287441457,0.0502486167823344,0.02811774212201784,0.10494008257229587,0.021815962872125373, ,0.9945201873779297
0.01592281500445124,0.021974061752077792,-0.09333324710151611, ,0.017035821669404674,0.021389620465711214,-0.09424392440906722, ,0.001552317175041595, ,0.02847753975556003,-0.001465372184177532,-0.046069244646917605,-0.043508437629390564,-0.09006788012347854,-0.03250465970609358, ,0.05418018907779125, ,0.10002499516140179, ,0.001048671454236548, ,0.23473246571205397,-0.1894926965348468,0.10706836884000001,-4.165910107207045,0.9277618334073406,-1.1686784888479784, ,0.1842659059387782,0.11730153468290579,0.04946835875776398,0.023326316740437697,0.11061950997016023,-0.01940107560141286, ,0.9964981079101562
0.01592281500445124,0.021974061752077792,-0.09333324710151611, ,0.017089287172858618,0.021387672477306392,-0.09434413323693598, ,0.0016511815406005663, ,0.02847753975556003,-0.001465372184177532,-0.046069244646917605,-0.043508437629390564,-0.09006788012347854,-0.03250465970609358, ,0.05418018907779125, ,0.10002499516140179, ,0.0010532016052618414, ,0.23473246571205397,-0.1894926965348468,0.10706836884000001,-4.165910107207045,0.9277618334073406,-1.1686784888479784, ,0.1842659059387782,0.11730153468290579,0.04946835875776398,0.023326316740437697,0.11061950997016023,-0.01940107560141286, ,0.998427152633667
0.01592281500445124,0.021974061752077792,-0.09333324710151611, ,0.017142658206921103,0.02138559153426396,-0.09444403705309057, ,0.0017516189518227356, ,0.02847753975556003,-0.001465372184177532,-0.046069244646917605,-0.043508437629390564,-0.09006788012347854,-0.03250465970609358, ,0.05418018907779125, ,0.10002499516140179, ,0.0010584136750122959, ,0.23473246571205397,-0.1894926965348468,0.10706836884000001,-4.165910107207045,0.9277618334073406,-1.1686784888479784, ,0.1842659059387782,0.11730153468290579,0.04946835875776398,0.023326316740437697,0.11061950997016023,-0.01940107560141286, ,1.0003511905670166
0.01592281500445124,0.021974061752077792,-0.09333324710151611, ,0.017195934861261447,0.02138337902340975,-0.09454363641225796, ,0.001853316632232416, ,0.02847753975556003,-0.001465372184177532,-0.046069244646917605,-0.043508437629390564,-0.09006788012347854,-0.03250465970609358, ,0.05418018907779125, ,0.10002499516140179, ,0.0010643018450657783, ,0.23473246571205397,-0.1894926965348468,0.10706836884000001,-4.165910107207045,0.9277618334073406,-1.1686784888479784, ,0.1842659059387782,0.11730153468290579,0.04946835875776398,0.023326316740437697,0.11061950997016023,-0.01940107560141286, ,1.0022470951080322
0.01592281500445124,0.021974061752077792,-0.09333324710151611, ,0.017249117226788624,0.02138103632751935,-0.09464293186858456, ,0.0019560242657597465, ,0.02847753975556003,-0.001465372184177532,-0.046069244646917605,-0.043508437629390564,-0.09006788012347854,-0.03250465970609358, ,0.05418018907779125, ,0.10002499516140179, ,0.001070858627570881, ,0.23473246571205397,-0.1894926965348468,0.10706836884000001,-4.165910107207045,0.9277618334073406,-1.1686784888479784, ,0.1842659059387782,0.11730153468290579,0.04946835875776398,0.023326316740437697,0.11061950997016023,-0.01940107560141286, ,1.0041110515594482
0.016209516227416464,0.021955144632379166,-0.09379662686927252, ,0.017302205395645847,0.021378564825320294,-0.09474192397563698, ,0.00155563508303679, ,0.0277370187635446,-0.001962318510562144,-0.04483433065763841,-0.001199338189932628,-0.07287755533433532,-0.05696371858661063, ,0.05275708586857859, ,0.07288618063322162, ,0.0010743971418443548, ,0.2365936443347421,-0.18828795020646777,0.1075661442,-4.165910107207045,0.9289915619052296,-1.1691094988002622, ,0.17905083312919012,0.11906768075090436,0.048269125818181824,0.019829646741099678,0.13462861749903354,-0.06762154760998468, ,1.005998134613037
0.016209516227416464,0.021955144632379166,-0.09379662686927252, ,0.017355199461211824,0.02137596589150056,-0.0948406132864029, ,0.001654673902990632, ,0.0277370187635446,-0.001962318510562144,-0.04483433065763841,-0.001199338189932628,-0.07287755533433532,-0.05696371858661063, ,0.05275708586857859, ,0.07288618063322162, ,0.0010786020459106322, ,0.2365936443347421,-0.18828795020646777,0.1075661442,-4.165910107207045,0.9289915619052296,-1.1691094988002622, ,0.17905083312919012,0.11906768075090436,0.048269125818181824,0.019829646741099678,0.13462861749903354,-0.06762154760998468, ,1.0078721046447754
0.016209516227416464,0.021955144632379166,-0.09379662686927252, ,0.017408099518093283,0.021373240896709743,-0.09493900035329193, ,0.001755058699664016, ,0.0277370187635446,-0.001962318510562144,-0.04483433065763841,-0.001199338189932628,-0.07287755533433532,-0.05696371858661063, ,0.05275708586857859, ,0.07288618063322162, ,0.0010834686405419515, ,0.2365936443347421,-0.18828795020646777,0.1075661442,-4.165910107207045,0.9289915619052296,-1.1691094988002622, ,0.17905083312919012,0.11906768075090436,0.048269125818181824,0.019829646741099678,0.13462861749903354,-0.06762154760998468, ,1.0097670555114746
0.016209516227416464,0.021955144632379166,-0.09379662686927252, ,0.017460905662123383,0.02137039120756492,-0.09503708572813635, ,0.0018565156249441693, ,0.0277370187635446,-0.001962318510562144,-0.04483433065763841,-0.001199338189932628,-0.07287755533433532,-0.05696371858661063, ,0.05275708586857859, ,0.07288618063322162, ,0.001088990404716253, ,0.2365936443347421,-0.18828795020646777,0.1075661442,-4.165910107207045,0.9289915619052296,-1.1691094988002622, ,0.17905083312919012,0.11906768075090436,0.048269125818181824,0.019829646741099678,0.13462861749903354,-0.06762154760998468, ,1.011850118637085
0.016209516227416464,0.021955144632379166,-0.09379662686927252, ,0.017513617990357742,0.021367418186654812,-0.09513486996219128, ,0.0019588257602081655, ,0.0277370187635446,-0.001962318510562144,-0.04483433065763841,-0.001199338189932628,-0.07287755533433532,-0.05696371858661063, ,0.05275708586857859, ,0.07288618063322162, ,0.001095159449790664, ,0.2365936443347421,-0.18828795020646777,0.1075661442,-4.165910107207045,0.9289915619052296,-1.1691094988002622, ,0.17905083312919012,0.11906768075090436,0.048269125818181824,0.019829646741099678,0.13462861749903354,-0.06762154760998468, ,1.0140061378479004
0.016415328813286896,0.021935609398487703,-0.09412885546878491, ,0.017566236601072205,0.02136432319254494,-0.09523235360613633, ,0.0016937133181927208, ,0.02856292420819058,-0.0028348504035115136,-0.04538638349355404,-0.02049189164269991,-0.086354343695671,-0.05500879957547518, ,0.053701031859332865, ,0.08875132512135532, ,0.0010993746178780022, ,0.23792195438910868,-0.18736894499443504,0.10792262395,-4.165910107207045,0.9299480174035877,-1.169562709165575, ,0.1842659059387782,0.12789345223513582,0.04871196183486239,0.017896829867609303,0.12382529411342429,-0.06003126752199091, ,1.0161070823669434
0.016415328813286896,0.021935609398487703,-0.09412885546878491, ,0.01761876159375756,0.02136110757978082,-0.09532953721007541, ,0.001794418970217727, ,0.02856292420819058,-0.0028348504035115136,-0.04538638349355404,-0.02049189164269991,-0.086354343695671,-0.05500879957547518, ,0.053701031859332865, ,0.08875132512135532, ,0.001104235067894364, ,0.23792195438910868,-0.18736894499443504,0.10792262395,-4.165910107207045,0.9299480174035877,-1.169562709165575, ,0.1842659059387782,0.12789345223513582,0.04871196183486239,0.017896829867609303,0.12382529411342429,-0.06003126752199091, ,1.0180420875549316
0.016415328813286896,0.021935609398487703,-0.09412885546878491, ,0.01767119306911776,0.021357772698893607,-0.09542642132353815, ,0.001895987190856761, ,0.02856292420819058,-0.0028348504035115136,-0.04538638349355404,-0.02049189164269991,-0.086354343695671,-0.05500879957547518, ,0.053701031859332865, ,0.08875132512135532, ,0.0011097333465260473, ,0.23792195438910868,-0.18736894499443504,0.10792262395,-4.165910107207045,0.9299480174035877,-1.169562709165575, ,0.1842659059387782,0.12789345223513582,0.04871196183486239,0.017896829867609303,0.12382529411342429,-0.06003126752199091, ,1.0199801921844482
0.016415328813286896,0.021935609398487703,-0.09412885546878491, ,0.017723531129068087,0.021354319896405672,-0.0955230064954811, ,0.0019982361896142475, ,0.02856292420819058,-0.0028348504035115136,-0.04538638349355404,-0.02049189164269991,-0.086354343695671,-0.05500879957547518, ,0.053701031859332865, ,0.08875132512135532, ,0.0011158609523404487, ,0.23792195438910868,-0.18736894499443504,0.10792262395,-4.165910107207045,0.9299480174035877,-1.169562709165575, ,0.1842659059387782,0.12789345223513582,0.04871196183486239,0.017896829867609303,0.12382529411342429,-0.06003126752199091, ,1.0218851566314697
0.016415328813286896,0.021935609398487703,-0.09412885546878491, ,0.0177757758767246,0.021350750514829965,-0.09561929327428623, ,0.0021010190332972295, ,0.02856292420819058,-0.0028348504035115136,-0.04538638349355404,-0.02049189164269991,-0.086354343695671,-0.05500879957547518, ,0.053701031859332865, ,0.08875132512135532, ,0.001122608610429194, ,0.23792195438910868,-0.18736894499443504,0.10792262395,-4.165910107207045,0.9299480174035877,-1.169562709165575, ,0.1842659059387782,0.12789345223513582,0.04871196183486239,0.017896829867609303,0.12382529411342429,-0.06003126752199091, ,1.023733139038086
0.016415328813286896,0.021935609398487703,-0.09412885546878491, ,0.01782792741641171,0.021347065892682288,-0.09571528220776478, ,0.0022042159762432983, ,0.03160412145769773,-0.002281898313777048,-0.05238098265524295,-0.04963815161619559,-0.10735902908233277,-0.028296472460458563, ,0.061219236331043786, ,0.11827727120523641, ,0.0011299664836660244, ,0.24030827884724407,-0.18570083469360257,0.10858243556000001,-4.165700417263561,0.9315876554007729,-1.1702462940888074, ,0.19526119662236785,0.13328222128998704,0.05608736450704226,0.0,0.11205167539487053,-0.03941101445730909, ,1.0258581638336182
0.016793238319998467,0.021901985587422665,-0.09474379209082326, ,0.017879985853648857,0.021343267364478797,-0.09581097384315561, ,0.0016223634448100414, ,0.03160412145769773,-0.002281898313777048,-0.05238098265524295,-0.04963815161619559,-0.10735902908233277,-0.028296472460458563, ,0.061219236331043786, ,0.11827727120523641, ,0.0011332934901602408, ,0.24030827884724407,-0.18570083469360257,0.10858243556000001,-4.165700417263561,0.9315876554007729,-1.1702462940888074, ,0.19526119662236785,0.13328222128998704,0.05608736450704226,0.0,0.11205167539487053,-0.03941101445730909, ,1.0281851291656494
0.016793238319998467,0.021901985587422665,-0.09474379209082326, ,0.017931951295154003,0.02133935626074526,-0.09590636872712684, ,0.0017218604572682378, ,0.03160412145769773,-0.002281898313777048,-0.05238098265524295,-0.04963815161619559,-0.10735902908233277,-0.028296472460458563, ,0.061219236331043786, ,0.11827727120523641, ,0.001137243604033449, ,0.24030827884724407,-0.18570083469360257,0.10858243556000001,-4.165700417263561,0.9315876554007729,-1.1702462940888074, ,0.19526119662236785,0.13328222128998704,0.05608736450704226,0.0,0.11205167539487053,-0.03941101445730909, ,1.030090093612671
0.016793238319998467,0.021901985587422665,-0.09474379209082326, ,0.01798382384883617,0.02133533390801869,-0.09600146740577697, ,0.0018221787028425693, ,0.03160412145769773,-0.002281898313777048,-0.05238098265524295,-0.04963815161619559,-0.10735902908233277,-0.028296472460458563, ,0.061219236331043786, ,0.11827727120523641, ,0.0011418098380255096, ,0.24030827884724407,-0.18570083469360257,0.10858243556000001,-4.165700417263561,0.9315876554007729,-1.1702462940888074, ,0.19526119662236785,0.13328222128998704,0.05608736450704226,0.0,0.11205167539487053,-0.03941101445730909, ,1.032013177871704
0.016793238319998467,0.021901985587422665,-0.09474379209082326, ,0.018035603623793924,0.02133120162885318,-0.09609627042463473, ,0.0019231389754420963, ,0.03160412145769773,-0.002281898313777048,-0.05238098265524295,-0.04963815161619559,-0.10735902908233277,-0.028296472460458563, ,0.061219236331043786, ,0.11827727120523641, ,0.001146984203173964, ,0.24030827884724407,-0.18570083469360257,0.10858243556000001,-4.165700417263561,0.9315876554007729,-1.1702462940888074, ,0.19526119662236785,0.13328222128998704,0.05608736450704226,0.0,0.11205167539487053,-0.03941101445730909, ,1.033980131149292
0.017084749274347628,0.02188129513788031,-0.09522832499494864, ,0.018087290730311283,0.021326960741823872,-0.09619077832866046, ,0.0014962260568343222, ,0.03160412145769773,-0.002281898313777048,-0.05238098265524295,-0.04963815161619559,-0.10735902908233277,-0.028296472460458563, ,0.061219236331043786, ,0.11827727120523641, ,0.0011492818469480454, ,0.24209223014118994,-0.18448064289947508,0.10910095156,-4.165700417263561,0.9325441108991311,-1.170372789493558, ,0.19852916644031546,0.1338461799132169,0.057297883165467633,0.0,0.1171078375247372,-0.018921436830906573, ,1.0363881587982178
0.017084749274347628,0.02188129513788031,-0.09522832499494864, ,0.018138885279855837,0.02132261256153249,-0.09628499166224695, ,0.0015936980218983657, ,0.032368315486222606,-0.0022442890272034574,-0.05338892549931251,-0.062049478988888004,-0.1031607575394653,-0.012914716089163312, ,0.0624749713615333, ,0.1203820832703729, ,0.0011521865278300736, ,0.24209223014118994,-0.18448064289947508,0.10910095156,-4.165700417263561,0.9325441108991311,-1.170372789493558, ,0.19852916644031546,0.1338461799132169,0.057297883165467633,0.0,0.1171078375247372,-0.018921436830906573, ,1.0386221408843994
0.017084749274347628,0.02188129513788031,-0.09522832499494864, ,0.018190387385072386,0.021318158398609795,-0.09637891096921897, ,0.0016921603656837132, ,0.032368315486222606,-0.0022442890272034574,-0.05338892549931251,-0.062049478988888004,-0.1031607575394653,-0.012914716089163312, ,0.0624749713615333, ,0.1203820832703729, ,0.0011556928514524997, ,0.24209223014118994,-0.18448064289947508,0.10910095156,-4.165700417263561,0.9325441108991311,-1.170372789493558, ,0.19852916644031546,0.1338461799132169,0.057297883165467633,0.0,0.1171078375247372,-0.018921436830906573, ,1.0405189990997314
0.017084749274347628,0.02188129513788031,-0.09522832499494864, ,0.018241797159782285,0.021313599559721893,-0.09647253679283582, ,0.0017913964041080036, ,0.032368315486222606,-0.0022442890272034574,-0.05338892549931251,-0.062049478988888004,-0.1031607575394653,-0.012914716089163312, ,0.0624749713615333, ,0.1203820832703729, ,0.0011597941646954385, ,0.24209223014118994,-0.18448064289947508,0.10910095156,-4.165700417263561,0.9325441108991311,-1.170372789493558, ,0.19852916644031546,0.1338461799132169,0.057297883165467633,0.0,0.1171078375247372,-0.018921436830906573, ,1.0424370765686035
0.017084749274347628,0.02188129513788031,-0.09522832499494864, ,0.01829311471898062,0.021308937347574993,-0.09656586967579124, ,0.0018912340577402391, ,0.032368315486222606,-0.0022442890272034574,-0.05338892549931251,-0.062049478988888004,-0.1031607575394653,-0.012914716089163312, ,0.0624749713615333, ,0.1203820832703729, ,0.0011644828819585462, ,0.24209223014118994,-0.18448064289947508,0.10910095156,-4.165700417263561,0.9325441108991311,-1.170372789493558, ,0.19852916644031546,0.1338461799132169,0.057297883165467633,0.0,0.1171078375247372,-0.018921436830906573, ,1.0443692207336426
0.017449169195755267,0.02185151660876092,-0.09582139315651658, ,0.018344340178828335,0.021304173060917253,-0.0966589101602133, ,0.0013425165845468085, ,0.031915084400784256,-0.003098176101042153,-0.05103992381625697,-0.04471587225226144,-0.07212382071732766,-0.006348025158069584, ,0.060276406085893734, ,0.08485875540164128, ,0.001165616854586497, ,0.24434726814046348,-0.1829438190575044,0.10974002253000001,-4.165700417263561,0.9341837488963164,-1.1707296594562282, ,0.19894537014354458,0.13733276636537015,0.055116994878892746,0.0,0.1552935152686857,-0.022996441459658422, ,1.0462779998779297
0.017449169195755267,0.02185151660876092,-0.09582139315651658, ,0.018395473656655302,0.021299307994546993,-0.09675165878766653, ,0.0014372962919419888, ,0.031915084400784256,-0.003098176101042153,-0.05103992381625697,-0.04471587225226144,-0.07212382071732766,-0.006348025158069584, ,0.060276406085893734, ,0.08485875540164128, ,0.0011673363446963417, ,0.24434726814046348,-0.1829438190575044,0.10974002253000001,-4.165700417263561,0.9341837488963164,-1.1707296594562282, ,0.19894537014354458,0.13733276636537015,0.055116994878892746,0.0,0.1552935152686857,-0.022996441459658422, ,1.0481581687927246
0.017449169195755267,0.02185151660876092,-0.09582139315651658, ,0.018446515270949787,0.021294343439313298,-0.09684411609915165, ,0.0015333308031375236, ,0.031915084400784256,-0.003098176101042153,-0.05103992381625697,-0.04471587225226144,-0.07212382071732766,-0.006348025158069584, ,0.060276406085893734, ,0.08485875540164128, ,0.0011696381966362236, ,0.24434726814046348,-0.1829438190575044,0.10974002253000001,-4.165700417263561,0.9341837488963164,-1.1707296594562282, ,0.19894537014354458,0.13733276636537015,0.055116994878892746,0.0,0.1552935152686857,-0.022996441459658422, ,1.0500340461730957
0.017449169195755267,0.02185151660876092,-0.09582139315651658, ,0.018497465141362524,0.021289280682124323,-0.09693628263510727, ,0.0016303411226641328, ,0.031915084400784256,-0.003098176101042153,-0.05103992381625697,-0.04471587225226144,-0.07212382071732766,-0.006348025158069584, ,0.060276406085893734, ,0.08485875540164128, ,0.001172517589923898, ,0.24434726814046348,-0.1829438190575044,0.10974002253000001,-4.165700417263561,0.9341837488963164,-1.1707296594562282, ,0.19894537014354458,0.13733276636537015,0.055116994878892746,0.0,0.1552935152686857,-0.022996441459658422, ,1.0519301891326904
0.017764519957952366,0.02181483967425694,-0.09632174725616993, ,0.01854832338869815,0.021284121005949192,-0.09702815893540954, ,0.0011811128580729864, ,0.031915084400784256,-0.003098176101042153,-0.05103992381625697,-0.04471587225226144,-0.07212382071732766,-0.006348025158069584, ,0.060276406085893734, ,0.08485875540164128, ,0.0011725709766825878, ,0.24631656502339075,-0.18153828167439556,0.11028057546000002,-4.165700417263561,0.9358233868935015,-1.1712498868991796, ,0.1932727933981075,0.14291708066034756,0.05274440900662252,0.0,0.16542062824879952,-0.06448478394179051, ,1.0563640594482422
0.017764519957952366,0.02181483967425694,-0.09632174725616993, ,0.018599090134913104,0.021278865689823238,-0.09711974553937354, ,0.001273018755658345, ,0.03097544393594016,-0.004209017904199922,-0.048850670295847866,-0.016409310074369063,-0.06446890593411045,-0.03417219713818801, ,0.05799639598371679, ,0.06652238038685902, ,0.0011731910247009569, ,0.24631656502339075,-0.18153828167439556,0.11028057546000002,-4.165700417263561,0.9358233868935015,-1.1712498868991796, ,0.1932727933981075,0.14291708066034756,0.05274440900662252,0.0,0.16542062824879952,-0.06448478394179051, ,1.0590341091156006
0.017764519957952366,0.02181483967425694,-0.09632174725616993, ,0.018649765503112994,0.021273516008852595,-0.09721104298575393, ,0.0013665788965917327, ,0.03097544393594016,-0.004209017904199922,-0.048850670295847866,-0.016409310074369063,-0.06446890593411045,-0.03417219713818801, ,0.05799639598371679, ,0.06652238038685902, ,0.0011743774533628634, ,0.24631656502339075,-0.18153828167439556,0.11028057546000002,-4.165700417263561,0.9358233868935015,-1.1712498868991796, ,0.1932727933981075,0.14291708066034756,0.05274440900662252,0.0,0.16542062824879952,-0.06448478394179051, ,1.0610170364379883
