NicholasDascanio/dvrk_moveit_final/test/execution/third_experiment_notsharpbends/old_data/thirdexp_700vel5.0.csv
Current Position (x),Current Position (y),Current Position (z), ,Planned Position (x),Planned Position (y),Planned Position (z), ,Position Error,,Cartesian linear Velocity(x),Cartesian linear Velocity(y),Cartesian linear Velocity(z),Cartesian Angular Velocity(x),Cartesian Angular Velocity(y),Cartesian Angular Velocity(z), ,Total Linear Velocity, ,Total Angular Velocity, ,MSE, ,Joint 1 Position,Joint 2 Position,Joint 3 Position,Joint 4 Position,Joint 5 Position,Joint 6 Position, ,Joint 1 Velocity,Joint 2 Velocity,Joint 3 Velocity,Joint 4 Velocity,Joint 5 Velocity,Joint 6 Velocity, ,Time Stamp
0.00925911991933482,0.020247929825932254,-0.07849217634461175, ,0.009467071687174072,0.020244459709927203,-0.07854014202632606, ,0.00021344012292649392, ,3.4697541806844334e-05,-9.858947204142426e-06,1.5497777614750621e-06,0.012449849958599012,-0.0021294096584029303,-0.0006794291956389579, ,3.6104294183957405e-05, ,0.012630643272807902, ,1.778667691054116e-05, ,0.133912188039053,-0.24796150712560056,0.08817494209000001,-4.5353837876267775,0.14606441824925584,-1.3277060569113739, ,0.00043775411167325316,0.0001247562941581652,0.0,0.0,0.0,-0.01270407800253101, ,0.016219139099121094
0.009270832788676695,0.02024655834369885,-0.07849770409772935, ,0.009505144538298671,0.020260877854473315,-0.07865550159822104, ,0.0002828552554950272, ,0.0014364001573182648,-0.0001728051546497003,-0.00023062707761172804,0.13017767626618817,-0.16658988307111153,-0.04802602625743352, ,0.0014650241917269382, ,0.21142000033041128, ,2.2558880837341868e-05, ,0.13394307897054988,-0.2479460616598521,0.08818012725,-4.535593477570262,0.14510796275089774,-1.3301932811911215, ,0.0005112066807471917,0.0003544701730692731,0.00016365055442105339,0.0,-0.15256438674037442,-0.1537725641834533, ,0.03264594078063965
0.00930967959716259,0.020252684627240114,-0.07854111814284195, ,0.009543249946613389,0.02027708392570522,-0.07877048578714338, ,0.00032826810713278707, ,0.002509539605038335,0.0005665604222067089,-0.003225554805541048,0.24599048094914058,-0.214317763944407,-0.060546628479540884, ,0.004125891848414832, ,0.3262566791030812, ,2.576760892357213e-05, ,0.13400486083354368,-0.2479383389269779,0.08822420111000001,-4.5358031675137465,0.14196532325629263,-1.3360435796405818, ,0.005820258267932187,0.0003792622601878263,0.003324042470784642,0.0,-0.1799440229067889,-0.2746770723709814, ,0.049848079681396484
0.009334844148997361,0.020262630768874513,-0.0785915624943474, ,0.009581387679761922,0.02029307901242629,-0.07888509595641569, ,0.00038454219723073004, ,0.002465624274753462,0.0013380374412320674,-0.006362943628450713,0.13775919739514053,-0.17841867499583733,-0.05023699966192315, ,0.0069538981066186115, ,0.22541255520443704, ,2.8788230542500908e-05, ,0.1340357517650406,-0.24793061619410367,0.08827605271000001,-4.5358031675137465,0.1401890487593419,-1.3382706901988535, ,0.00198536865620528,0.0009101015886607144,0.006552370020567668,0.0,-0.16189017574852138,-0.16327505599168013, ,0.06626701354980469
0.009384122973666878,0.020295234665635396,-0.07873899251383398, ,0.00961955750587899,0.02030886420123983,-0.07899933346661554, ,0.00035127282117171994, ,0.0027065531003715626,0.001592519363144308,-0.00725768298958147,0.20117449811983984,-0.1508745455329439,-0.04094146080547628, ,0.007907939680117741, ,0.2514643258265574, ,3.000727892224535e-05, ,0.13414387002527972,-0.24790744799548098,0.08842901493000001,-4.536012857457231,0.1378662282633294,-1.343155921267681, ,0.008378191355855394,0.001474718415253155,0.00755636220113852,0.0,-0.11801847891270743,-0.22158130916941243, ,0.08275914192199707
0.00943909067804231,0.020327059306512425,-0.07889112023223346, ,0.009657759193589893,0.020324440576551386,-0.0791131996755784, ,0.0003116762047298222, ,0.002129978600947866,0.001481240195008913,-0.00646717155210914,-0.12942305756123632,-0.042109461861332284,-0.008527356940767413, ,0.006968155368547376, ,0.13610119248352395, ,3.0194430785267426e-05, ,0.13432921561426112,-0.2478533888653614,0.08858716231000001,-4.536012857457231,0.13568004426708236,-1.3448854206345824, ,0.00997200786794611,0.0014961427356334745,0.006778217668085108,0.0,-0.050968822718849616,0.12195522948189819, ,0.1015920639038086
0.009455600053813663,0.020340164052000807,-0.07894909704490302, ,0.009695992512010131,0.02033980922056929,-0.07922669593839887, ,0.0003672190157565453, ,0.0016082800432734186,0.0012550569965838194,-0.005605978088003621,-0.16320939355447658,0.026122870792661554,0.01096440585162547, ,0.005965628473634801, ,0.1652867523951431, ,3.110102395059897e-05, ,0.13443733387450027,-0.24783022066673874,0.08864808794000001,-4.536012857457231,0.13568004426708236,-1.343660239532474, ,0.012507834659084062,0.002709049692038539,0.00590831287833828,0.0,0.017130801660860045,0.164606766667956, ,0.11784911155700684
0.009483489915956766,0.020364416607739626,-0.07906206455221562, ,0.009734257230745053,0.020354971213307704,-0.07933982360743402, ,0.0003743308087747003, ,0.0008073852972369857,0.0011044361206175792,-0.005232119886834072,-0.0353821494501085,0.10471858290976896,0.03237232711963624, ,0.005408024470444253, ,0.1105345109113848, ,3.187322601485154e-05, ,0.1347307977237208,-0.24774527060512228,0.08876734662,-4.5358031675137465,0.13690977276497132,-1.3407424211389947, ,0.014378324478556179,0.0049877267994160365,0.005530837333333334,0.0,0.11803736263801891,0.047640526467111005, ,0.1343851089477539
0.009514959259162221,0.02038795531735662,-0.0791833292372748, ,0.009772553119889393,0.02036992763258704,-0.07945258403230526, ,0.0003730653282595164, ,0.002034556063034461,0.0012705202391834639,-0.006836113894969533,0.02427612936006662,-0.002647469516882007,0.0025857815770794533, ,0.007244728651702602, ,0.0244200642222736, ,3.246380284214503e-05, ,0.13500881610719287,-0.24763715234488312,0.08889438304000001,-4.5358031675137465,0.13772959176356397,-1.3405941411597677, ,0.01571141416530973,0.006306140950353346,0.00714616936742934,0.0,0.017692943701690274,-0.02830532352289243, ,0.15203595161437988
0.009543416604982802,0.02040560161357529,-0.07927372763761248, ,0.00981087995002695,0.020384679554036184,-0.07956497855990023, ,0.00039598165772044153, ,0.0022660484581605634,0.0013550957975802926,-0.006861552272997557,0.03395111600854746,-0.012690220723808151,0.00045789956989535584, ,0.007352017398675657, ,0.03624527507186867, ,3.316325018821357e-05, ,0.1352096071619227,-0.2475676477490151,0.08898901221000001,-4.5358031675137465,0.13772959176356397,-1.3408391773801895, ,0.017724494127469327,0.0053238357360493385,0.007210869859665008,0.0,0.010666081161919375,-0.03810075858880081, ,0.16906094551086426
0.009569196343564679,0.02041815396062645,-0.07934419607456858, ,0.009849237492230215,0.02039922805109516,-0.07967700853437594, ,0.0004353680838101545, ,0.0023454569240676,0.0010732286514197286,-0.006462572479721684,0.030547781685139924,-0.016445220673306452,-0.000482793049884028, ,0.0069582922456980015, ,0.034693115132602856, ,3.4089460741142306e-05, ,0.13541039821665254,-0.24749814315314708,0.08906290074,-4.5358031675137465,0.13772959176356397,-1.341084213600611, ,0.019051785095055365,0.007428519360263139,0.006763826547770702,0.0,0.007988578823020514,-0.03715220337579419, ,0.1851949691772461
0.009593120179554647,0.02042880867876135,-0.07940998287732198, ,0.00988762551805984,0.020413574195015292,-0.0797886752971603, ,0.0004799723249793338, ,0.002083352389338353,0.0008438435662529678,-0.005745184219711245,0.016975123679972604,-0.013775522939996922,-0.0065446520434308915, ,0.006169243945645809, ,0.021861378043516247, ,3.5229442032682556e-05, ,0.13595098951784826,-0.2472819066326688,0.08926771456,-4.535593477570262,0.13772959176356397,-1.341410928561173, ,0.016552754501739188,0.007910715780957474,0.00598377592787378,0.005957688864036239,0.004727224773726411,-0.023598581014381108, ,0.2021031379699707
0.00966061749675953,0.020459210368901463,-0.07959730348519607, ,0.009926043799564443,0.020427719054862438,-0.07989998018695442, ,0.00040380194510168237, ,0.002307120633543268,0.0008895034243347109,-0.0060127892184456445,0.005261762366183019,-0.018572823271480188,-0.007359212737860131, ,0.006501358023142584, ,0.01930377941265875, ,3.56196505537042e-05, ,0.13612861237395543,-0.24719695657105234,0.08932734390000001,-4.535593477570262,0.1378662282633294,-1.3416040252050103, ,0.018316336915358188,0.008141411551994581,0.0062736555809373784,0.005957688864036239,0.0,-0.012671634182113652, ,0.21880412101745605
0.009707110847527569,0.020480131167883966,-0.07972609814787424, ,0.009964492109280076,0.020441663697516866,-0.08001092453973532, ,0.0003858120444962316, ,0.00264765453145889,0.0010531993107866567,-0.006761862207630443,-0.009413269500817186,-0.018815281532290177,-0.006094955613788059, ,0.007337716526357306, ,0.021038641774083006, ,3.582821068721962e-05, ,0.13651474901766666,-0.24704250191356783,0.08946215806,-4.535593477570262,0.1381395012628603,-1.3419085397525436, ,0.021291662902955075,0.008529232134829801,0.0070763267525544215,0.005471079226138793,0.000932617704829366,0.0018358015585486667, ,0.23601508140563965
0.009732799954804845,0.02049011732231881,-0.07979451517041974, ,0.010002970220229938,0.0204554091876775,-0.08012150968875832, ,0.00042558435351129045, ,0.0025733231833173506,0.0009677748089491441,-0.0069629639350581906,-0.01053991528774851,-0.017666009226681347,-0.006111003321339547, ,0.007486083558681143, ,0.020571282893952998, ,3.651119384832104e-05, ,0.13692405386000056,-0.246841710858838,0.08960734254000001,-4.535593477570262,0.13827613776262573,-1.3420199576562402, ,0.019128591324021525,0.009186503454284666,0.006441088362312981,0.0050043656624568725,0.0006590789896352973,0.0012158354143821735, ,0.25278210639953613
0.0097805553569697,0.020508749945637485,-0.07992641529064293, ,0.010041477905923834,0.020468956587861246,-0.08023173696455836, ,0.000403590649592323, ,0.0022463297716209672,0.0008842210018562628,-0.006343183676562393,0.003355817348735029,-0.005669973039819386,0.0012609647207549987, ,0.006787033474029873, ,0.006588633703671334, ,3.6979880754305e-05, ,0.13710939944898196,-0.24675676079722153,0.08967086075000001,-4.5353837876267775,0.13841277426239118,-1.3421313755599364, ,0.018484016665070272,0.009283062884100541,0.006601248039784502,0.0009206279177865128,0.014672088576877327,-0.010458096566575684, ,0.2676050662994385
0.009803710784214706,0.02051792662691378,-0.07999383114286757, ,0.010080014940357998,0.020482306958406468,-0.08034160769495347, ,0.00044560215177598026, ,0.0024680181678130384,0.0010113870126085326,-0.007061307189611763,-0.002185103421839551,-0.01116708941238071,-7.126102839474118e-05, ,0.007548249902592733, ,0.01137886397459088, ,3.7647237115176215e-05, ,0.13748781335981894,-0.24656369247536591,0.08982123039,-4.535174097683293,0.13854941076215663,-1.3422427934636327, ,0.019090110955234517,0.0091818168133193,0.007717447441860466,0.005157013448459984,0.00866093193217027,-0.0059049252449704815, ,0.2830381393432617
0.009856741765774934,0.020540685115777405,-0.08014437307006429, ,0.010118581098014535,0.020495461357473554,-0.0804511232050459, ,0.00040583330264289287, ,0.002607529077551855,0.0009826437699917195,-0.007169319940602716,-0.005358257125990437,-0.017731096164212135,0.0071033044609863545, ,0.007691810260251204, ,0.018523030844662995, ,3.8023687500604906e-05, ,0.13770404988029722,-0.2464555742151268,0.0898977115,-4.534964407739808,0.13868604726192205,-1.342272532627189, ,0.02042551475645088,0.010324074828341854,0.007453819148338794,-0.007591494930444515,0.005495760161778432,-0.00515120549191134, ,0.29900193214416504
0.009881587119706532,0.02055158485736885,-0.08022309520611076, ,0.01015717615386109,0.02050842084104763,-0.08056028481722587, ,0.0004376177348956231, ,0.002480286181082454,0.0010452164913146696,-0.007739033727662965,0.0012597031226962295,-0.008653149687486341,0.008983929435891148, ,0.008193713449449502, ,0.008744359536893807, ,3.853387224600693e-05, ,0.13809018652400845,-0.24623161496177426,0.0900532663,-4.534964407739808,0.13895932026145294,-1.3424953684345815, ,0.017711261955668304,0.009845361869634249,0.006925570226086957,-0.007591494930444515,0.014038920810784658,-0.011845918216790919, ,0.3142521381378174
0.009922438624607934,0.020566284155628223,-0.08033556589650483, ,0.010195799883350409,0.02052118646293909,-0.08066909385117192, ,0.00043359090882024955, ,0.0023074985366192823,0.0007548247889779011,-0.005967678759066605,0.0017327249607463902,-0.010934089777918,0.008795080169778889, ,0.006442631429002469, ,0.011070530587662082, ,3.89766582593038e-05, ,0.13821375024999605,-0.24616983309878046,0.09009604387,-4.534964407739808,0.13895932026145294,-1.3424953684345815, ,0.01945406756016211,0.00946226011671674,0.006214908903628561,-0.007591494930444515,0.012352497483691447,-0.010473865389661404, ,0.3298771381378174
0.009953982512058295,0.02057747700896826,-0.08042550015811531, ,0.010234452062420116,0.020533759274786907,-0.0807775516238551, ,0.0004522329526821824, ,0.0024941404181017036,0.0008855181371029226,-0.006993306269641836,0.003285672863510138,-0.00902459906128116,0.009322767491851486, ,0.007477379980806016, ,0.009604114621144856, ,3.9471502300027935e-05, ,0.13847632316771968,-0.2460231011741702,0.09018937675000001,-4.534964407739808,0.1392325932609838,-1.3427182042419745, ,0.02030315394918074,0.011018814352820514,0.007260169334548771,-0.007591494930444515,0.015618272985000086,-0.013134677885156208, ,0.3446159362792969
0.010004827917045576,0.020599714986628735,-0.08057623371856179, ,0.010273132467492068,0.020546140326058445,-0.0808856594495397, ,0.00041303977900043396, ,0.002629674135575058,0.0010853855859562617,-0.007651638986896076,0.00018585355919629445,-0.014500113811447212,0.007833147937193427, ,0.008163383313020531, ,0.014501303936610472, ,3.974157827339327e-05, ,0.13887018254430514,-0.24582231011944036,0.09034622784000002,-4.534964407739808,0.1395058662605147,-1.342777682569086, ,0.02006277834217141,0.010496305391785714,0.00795247704443335,-0.007591494930444515,0.00923924738597414,-0.010396639230104532, ,0.35942506790161133
0.010057875007702378,0.020619271211558522,-0.08072886932462642, ,0.010311840875472232,0.02055833066405347,-0.08099341863978678, ,0.0003717509280070803, ,0.0024417373038807004,0.0010669019292025945,-0.007306514905335624,0.009799565263912001,-0.003537505909299696,-0.003228583335953918, ,0.00777724378231713, ,0.010418512686396934, ,3.980470259422978e-05, ,0.1392717646537648,-0.24559062813321364,0.09050437522,-4.535174097683293,0.13964250276028015,-1.3428891004727825, ,0.019113180575724222,0.009957743784699173,0.007603251322195704,0.00589651092704939,0.017168141973281554,-0.01660686029552617, ,0.3751859664916992
0.010083902236995077,0.020630369630312416,-0.08080482443616721, ,0.010350577063750052,0.020570331333903725,-0.0811008305034556, ,0.0004029139512749459, ,0.0026860282512949037,0.0010525078475549122,-0.007555762757309615,0.0005212901760675839,-0.011548335640434948,-0.011688535563349959, ,0.008087772955558658, ,0.01156009406907814, ,3.999725271460425e-05, ,0.13947255570849465,-0.24548250987297449,0.09058344891,-4.534754717796323,0.1397791392600456,-1.343000518376479, ,0.020553810170775566,0.010825897214144547,0.007858318460779478,0.01228805983508599,0.007528933020155511,-0.008604758150845113, ,0.3897531032562256
0.010130576028610833,0.02064562987933532,-0.08093205423338277, ,0.010389340810198246,0.020582143378576567,-0.08120789634670589, ,0.0003835083042792341, ,0.002338141380172987,0.0007163487724706817,-0.006175904037003681,0.008586622264401362,-0.0030983906408206677,-0.008351629117344092, ,0.006642428121686817, ,0.009128532055591226, ,4.009490014135859e-05, ,0.1398664150850801,-0.2452662733524962,0.09071567049000001,-4.534545027852839,0.1401890487593419,-1.3434164508277089, ,0.019618966623624307,0.01074208058929476,0.0064177322804190185,0.011026897114393072,0.016709414301578518,-0.01551909662936573, ,0.40485310554504395
0.010155859896740282,0.02065302625579235,-0.0809982539322972, ,0.010428131893172259,0.02059376783887418,-0.0813146174730008, ,0.00042157975509174493, ,0.0024769978289874337,0.0008538998139175428,-0.006845709469585373,0.015194655312665619,0.0036150644814035,-0.0061908057230151805, ,0.007329965980752416, ,0.0156187780008811, ,4.033780275663666e-05, ,0.14007492887268416,-0.24515043235938283,0.09078437386,-4.534545027852839,0.14032568525910732,-1.3434461899912646, ,0.021154021747318497,0.011282237065947288,0.007123797638640431,0.011026897114393072,0.026183089630059216,-0.021375634709038156, ,0.41977810859680176
0.010207523079842002,0.020667750772260757,-0.08112949414439273, ,0.010466950091510092,0.020605205753438476,-0.08142099518310869, ,0.00039520514841661486, ,0.002333222765020479,0.0007424486617123434,-0.006365370207161327,-0.0009608190118795489,0.002848780853140524,-0.006716207735158947, ,0.006820051052646547, ,0.00300644558785953, ,4.046199165087174e-05, ,0.14047651098214384,-0.24492647310603033,0.09092048431000001,-4.534545027852839,0.14032568525910732,-1.3432828325109836, ,0.02093930749304298,0.011847873552462994,0.00735062829718505,0.011026897114393072,0.017055316409205105,-2.735260105999303e-05, ,0.4357180595397949
0.010232290858679915,0.020677638194643883,-0.08120421869148417, ,0.010505795184531638,0.02061645815875073,-0.08152703077510526, ,0.0004274988355344157, ,0.0027181728046255104,0.001006539481020755,-0.0073260176355308395,0.012635495817755022,-0.00868209724717388,-0.009298215190887478, ,0.007878586137040587, ,0.01533083644381815, ,4.069833833250073e-05, ,0.14069274750262212,-0.24481063211291695,0.09099826171000001,-4.534545027852839,0.14073559475840366,-1.3434537287417916, ,0.021795347165473305,0.010699724460431067,0.007639717755395685,0.011026897114393072,0.013778109553790123,-0.0199785060049839, ,0.4512970447540283
0.010284990521357706,0.020696852387585854,-0.0813538822237759, ,0.010544666952038519,0.02062752608913345,-0.08163272554437649, ,0.00038728746655656334, ,0.0028312224506816183,0.0007775891233825442,-0.007125447998686917,-0.01678085957175356,-0.027675762175828154,-0.013718092355141131, ,0.007706651321555806, ,0.03236580049391573, ,4.0921891810386806e-05, ,0.14111749781070446,-0.24457895012669023,0.09115381651000001,-4.534545027852839,0.14114550425769998,-1.343787982452881, ,0.020819864317347694,0.012297128619731862,0.007377865456229736,0.00986533204941916,-0.01032640561131055,0.004535508307485394, ,0.46534299850463867
0.010313089158021068,0.020704127899902218,-0.0814213995955335, ,0.010583565174313574,0.020638410576752905,-0.08173808078361973, ,0.00042161951667241284, ,0.00273467504116996,0.0008639287988256692,-0.00701527974546666,0.0036497265041715785,-0.010610961127880035,-0.007764071323028038, ,0.007578850206818515, ,0.011221095428762637, ,4.125373822654638e-05, ,0.14132601159830852,-0.24446310913357686,0.09122381617000001,-4.534545027852839,0.14100886775793453,-1.3436765645491846, ,0.022172182607119343,0.011331959564160938,0.0073067942752293585,0.00905184202825363,0.011537408409402582,-0.012120151768276605, ,0.4789309501647949
0.01034170244549892,0.0207128036582925,-0.08149641209231066, ,0.01062248963212053,0.020649112651620397,-0.08184309778284747, ,0.00045065392101341763, ,0.002786614686157537,0.0010340673709694644,-0.007907205496126841,9.931575141396858e-05,-0.01141257993490231,-0.007668226806266063, ,0.008447391046636298, ,0.011413010710494676, ,4.166683416901572e-05, ,0.14154224811878682,-0.24433954540758926,0.09130159357,-4.534545027852839,0.14100886775793453,-1.3436765645491846, ,0.020980973150225686,0.011856806006890689,0.008210727587628867,0.008362253960320164,0.009250415854664455,-0.009478971801185539, ,0.4918060302734375
0.010370607211583357,0.020724562629454192,-0.08158105291318915, ,0.010661440106703522,0.020659633341593986,-0.0819477778293886, ,0.0004725322734665887, ,0.0028606843263903206,0.0011434371165464227,-0.008447433325504797,0.002592603672630901,-0.009306409821146066,-0.0028304279302317635, ,0.008991667978945857, ,0.009660787470339742, ,4.213082616939726e-05, ,0.14177393010501355,-0.24421598168160166,0.09138974129,-4.534335337909355,0.14128214075746542,-1.3438994003565774, ,0.02134434133119001,0.012150696742441841,0.008771371982378857,0.004255954001349718,0.013277860823083763,-0.012280202079472238, ,0.50543212890625
0.01042515605493922,0.02074664252766824,-0.0817499135900666, ,0.010700416379786871,0.020669973672380576,-0.0820521222078908, ,0.0004159043261299083, ,0.002394537777776227,0.0009293980929191658,-0.007470687620522662,0.023933170942743193,0.010862044387230813,-0.0008920727893207836, ,0.007899921867192728, ,0.026282706412665936, ,4.238685771736716e-05, ,0.14218323494734744,-0.24396113149675225,0.09156474044000001,-4.534125647965871,0.14169205025676176,-1.3441519753275262, ,0.019598707467672612,0.01205699799416991,0.007747476420233463,0.007226625059232069,0.03439071507638978,-0.0303031122589862, ,0.5187671184539795
0.010454741873481938,0.02075491437476459,-0.08182623005736803, ,0.010739418233574502,0.020680134667536938,-0.08215613220032299, ,0.0004421176976042464, ,0.0026682027919807823,0.0007939012282811824,-0.007393099842221221,0.01239582929865566,-0.0003633482050089485,-0.0029600563337264414, ,0.007899842439976372, ,0.012401152520338193, ,4.2712879349852313e-05, ,0.14240719420069997,-0.24382984503789046,0.09164381413000001,-4.534125647965871,0.14169205025676176,-1.3441519753275262, ,0.02184552061659088,0.013259318367817631,0.007661766002886004,0.0067107231084502115,0.023854604340566122,-0.02143058606441218, ,0.5325579643249512
0.01050931250225528,0.02077191772675819,-0.08197613250766285, ,0.010778445450749692,0.020690117348471718,-0.08225980908597771, ,0.00039949498987788953, ,0.0027782406400206783,0.0009467519351984427,-0.007345835827594752,0.002647332005220061,-0.010642568614275708,-0.004612892981062452, ,0.00791051605691052, ,0.010966887072713935, ,4.2891249581577844e-05, ,0.14284738997453075,-0.24357499485304104,0.09179936893000001,-4.534125647965871,0.14210195975605808,-1.3444862290386155, ,0.021880779699901032,0.011148932427239393,0.007654402460355599,0.005907533044598997,0.011885571196203646,-0.01129607988775993, ,0.5456950664520264
0.010535502867098498,0.020781120354909484,-0.0820496091161708, ,0.010817497814474596,0.020699922734448456,-0.08236315414147342, ,0.00042944695458950683, ,0.0026666874350101846,0.0010761909682250703,-0.008272519088796611,0.03097533637192163,0.015674448290132918,0.00270632032480936, ,0.008758080894273284, ,0.03471541089791579, ,4.315124041873713e-05, ,0.14306362649500903,-0.24345915385992767,0.09187585004000001,-4.534125647965871,0.14237523275558894,-1.3447090648460083, ,0.022312941819532278,0.012792793415808948,0.008600870151187908,0.0055862210544618774,0.04364389800449996,-0.03705473495895741, ,0.5598349571228027
0.01056655345271713,0.020789580720573384,-0.08213509805740833, ,0.010856575108389943,0.02070955184258517,-0.08246616864075607, ,0.000447353230936651, ,0.002609876155657335,0.0007257152807423467,-0.0072904547352622565,0.015211150575610443,0.005393350855078693,1.9894304704391448e-05, ,0.00777745758352172, ,0.01613899980433535, ,4.345166191163935e-05, ,0.14327986301548734,-0.2433124219353174,0.09196140518000001,-4.534125647965871,0.14237523275558894,-1.3447907435861488, ,0.02163632958469466,0.013920631004616515,0.007592379180171592,0.005270105490778574,0.0310132284152043,-0.024267420879482648, ,0.5735499858856201
0.01062304682613122,0.020802858253595864,-0.08226980996418518, ,0.010895677116614542,0.02071900568785726,-0.08256885385510235, ,0.0004132623582723805, ,0.003044861390008221,0.0006295720587023994,-0.007253629575250112,-0.013651400810468332,-0.023092856076564493,-0.004867526264208184, ,0.007891937903734715, ,0.026826120214827352, ,4.364030864433839e-05, ,0.1437432269879408,-0.24304984901759377,0.09210399708000001,-4.533706268078901,0.1425118692553544,-1.344820482749705, ,0.023795622256386855,0.014244512392445327,0.007510047864214994,0.0029414080591287457,0.0,-3.759853657364865e-05, ,0.5899670124053955
0.0106523747506724,0.02081022356428779,-0.08234214071926306, ,0.010934803623744908,0.020728285283099265,-0.08267121105312136, ,0.0004413244100372778, ,0.002949162323505282,0.0008239042896450643,-0.006973041168252779,-0.0017370464093165727,-0.01814548796437488,-0.0031243486576584523, ,0.007615752085186774, ,0.01822844061370996, ,4.389930286030067e-05, ,0.14398263170704176,-0.24291856255873195,0.0921791819,-4.533706268078901,0.1426485057551198,-1.3448502219132608, ,0.023771778947512718,0.011317293351842892,0.0072834071879286704,0.0029414080591287457,0.006327482562648456,-0.008238825140859317, ,0.6029801368713379
0.01070511182012898,0.020823074020365918,-0.08247556990151558, ,0.010973954414855122,0.02073739163900712,-0.08277324150075725, ,0.0004101538640674889, ,0.002676121826447074,0.0006952597849243645,-0.007101724081813777,0.024384391801000972,0.007567408699721368,0.0034005967392095934, ,0.0076209906923400215, ,0.02553163175100902, ,4.406127934707287e-05, ,0.144438272946621,-0.24266371237388254,0.09231788493000001,-4.533706268078901,0.1431950517541816,-1.3452142147879056, ,0.023419778272080645,0.013545095854763172,0.007377865456229736,0.0029414080591287457,0.03634935886388201,-0.03255062570808835, ,0.6161861419677734
0.010735340379500033,0.02082988168181897,-0.08254941826034806, ,0.011013129275495939,0.020746325764137943,-0.08287494646129097, ,0.00043602393481008346, ,0.0027379643973577945,0.0006950128570556082,-0.006820713445111726,0.012648797916638688,-0.0024612734134842763,0.000804716269854863, ,0.007382521507791176, ,0.012886036659491465, ,4.4285832304152174e-05, ,0.14466995493284773,-0.2425247031821465,0.09239436604000001,-4.533706268078901,0.1431950517541816,-1.3451325360477653, ,0.02329902812631249,0.012544209062587016,0.007101565546143559,0.0029414080591287457,0.02413785506151835,-0.021444170528524455, ,0.62996506690979
0.010763963508851632,0.020837502493112083,-0.08262040402220834, ,0.011052327991694899,0.020755088664914153,-0.0829763271953432, ,0.0004654325076937484, ,0.0029762226158389065,0.0008777693110696583,-0.007702252179169853,-0.010388819871795588,-0.021508940199924886,-0.00469989311675403, ,0.008303798447338027, ,0.023886440918335018, ,4.4578321381153575e-05, ,0.14490163691907448,-0.2424011394561589,0.09246825457,-4.533706268078901,0.14333168825394704,-1.3452439539514616, ,0.02199233871575221,0.012547526320041092,0.007996391325301206,0.0029414080591287457,0.0,-0.001631361918852618, ,0.642704963684082
0.010791866027476824,0.020846682252987796,-0.08269512689665118, ,0.011091550349955613,0.020763681345623456,-0.08307738496087592, ,0.000492768780898025, ,0.003284732802317686,0.0010433848910583949,-0.008446484631868702,-0.0038703375363747447,-0.01838752227007003,-0.0030772327048186865, ,0.009122566757766418, ,0.01879043493074473, ,4.504529949802683e-05, ,0.14511787343955276,-0.24228529846304556,0.09254603197000001,-4.533706268078901,0.14346832475371246,-1.3453553718551579, ,0.025105010994304438,0.012962292249483783,0.008800448353591162,0.0029414080591287457,0.007374768913228986,-0.007574050045013915, ,0.6548449993133545
0.010823289661301944,0.020857930367472965,-0.08278335236411709, ,0.011130796137257546,0.02077210480842164,-0.08317812101319536, ,0.0005077091151793373, ,0.00287022018505406,0.001100799457509794,-0.008187451106644225,0.024206152261785775,0.010308636955870767,0.001141534078126337, ,0.008745529085197497, ,0.026309803617996303, ,4.553360411399929e-05, ,0.1456275738092516,-0.24202272554532192,0.09272880886000001,-4.533496578135416,0.14401487075277425,-1.3458827222100842, ,0.023518448961207132,0.01325561413025154,0.009730489627367138,0.006173420440697175,0.03234427111883517,-0.025072151907700915, ,0.6660621166229248
0.010855674635780419,0.020869532954380446,-0.08287034001979048, ,0.011170065141055598,0.020780360053334036,-0.08327853660495396, ,0.000522893534313962, ,0.003069817314466021,0.0012722588930456713,-0.009351929029879181,0.017160556892307173,0.005437501813783925,-0.0004310219952343999, ,0.009924766879631286, ,0.018001418480111088, ,4.604272707039821e-05, ,0.1456275738092516,-0.24202272554532192,0.09272880886000001,-4.533496578135416,0.14401487075277425,-1.3458827222100842, ,0.023518448961207132,0.01325561413025154,0.009730489627367138,0.006173420440697175,0.03234427111883517,-0.025072151907700915, ,0.6786379814147949
0.010876890394380315,0.020876695499742876,-0.08293042846793716, ,0.011209357149279592,0.02078844807825682,-0.08337863298615246, ,0.0005649858765144495, ,0.0031876942461206872,0.001175897650972741,-0.0092417588958643,0.00644900464177148,-0.0016014224873155411,-0.001996157747617676, ,0.009846534282761681, ,0.006644858721966039, ,4.6637547626823846e-05, ,0.1462067787748184,-0.2417060934974787,0.09295047445000001,-4.533286888191932,0.1441515072525397,-1.3457491038933589, ,0.025482529956624804,0.013232458901210095,0.008938727003367005,0.002848632052703151,0.0,0.005380027107377555, ,0.6900050640106201
0.010964498786817179,0.020907704474684388,-0.08317182737424673, ,0.011248671950333985,0.020796369878958946,-0.08347841140414239, ,0.00043260090898604984, ,0.003357098151983383,0.0011142106261284518,-0.009349604321342027,0.01321428724199229,-0.007963698987774905,-0.008721230364821147, ,0.009996333042025227, ,0.015428474242053293, ,4.6893302025855856e-05, ,0.14644618349391939,-0.24156708430574267,0.09304251104000001,-4.5330771982484475,0.144561416751836,-1.3460016788643077, ,0.025285622584191522,0.014860153704740177,0.009712689951219513,0.010945875160473281,0.018819375704233237,-0.023933199850050598, ,0.702639102935791
0.010998638478920224,0.020918841129846488,-0.08326372590011172, ,0.011288009333097558,0.020804126449084175,-0.08357787310362849, ,0.0004422481370307039, ,0.0030768859601810316,0.0010367057229081435,-0.008223893992104036,0.032509156185949836,0.009144969901989326,-0.002779663228602266, ,0.008841629847558338, ,0.03377092940405224, ,4.7163432411755656e-05, ,0.14673192461026568,-0.2414203523811324,0.0931384365,-4.5330771982484475,0.1449713262511323,-1.3461725750951157, ,0.02610644884689705,0.012884852893207165,0.008600870151187908,0.01014567012661119,0.03987652313913886,-0.0385419212224866, ,0.7138259410858154
0.011030828061194974,0.02092781061163391,-0.08334327944316773, ,0.011327369086922858,0.020811718780152935,-0.0836770193266706, ,0.0004612983883744447, ,0.003513762476420799,0.0008149110844226271,-0.00833536231210068,-0.01895850565331383,-0.018434717333511076,-0.009510182041794869, ,0.009082338448340608, ,0.026443594678796624, ,4.7469153534114996e-05, ,0.1469867747951151,-0.2412890659222706,0.09322139906000002,-4.5330771982484475,0.14510796275089774,-1.3462839929988122, ,0.027450662874883073,0.015188370928052303,0.008671100446379969,0.009493128639592197,0.0061709015456868944,0.006223298703023199, ,0.7260050773620605
0.011064844712918494,0.020933679641190445,-0.08342218168402107, ,0.011366751001635955,0.020819147861563816,-0.08377585131268633, ,0.0004789020170680177, ,0.0030250747929457494,0.00038613176038192833,-0.006689721478475438,-0.018016507810808345,-0.015973193974600133,-0.009048122167700151, ,0.007352043845004395, ,0.024077737976170306, ,4.78054332183563e-05, ,0.14724934771283874,-0.24112688853191186,0.09330306533,-4.5330771982484475,0.14510796275089774,-1.3462839929988122, ,0.024502179591652667,0.015278850677583446,0.006922560417209909,0.008894157855593804,0.005977253866932619,0.005070007432989794, ,0.7372009754180908
0.01109439075195945,0.0209366622757435,-0.08348336274623872, ,0.011406154867535845,0.020826414680594225,-0.08387437029845297, ,0.0005120920834048468, ,0.003125216348300908,0.00024235491752083298,-0.00626496467968257,-0.0229780126090087,-0.022548693890749573,-0.010011293519991287, ,0.00700539046502077, ,0.032193674067851084, ,4.82060066966325e-05, ,0.14750419789768812,-0.2409801566073016,0.09336658354,-4.5330771982484475,0.14524459925066321,-1.3463954109025087, ,0.025752222946667784,0.01562861356364802,0.006485672442996744,0.00837555844326222,0.0,0.008803620648917144, ,0.7491500377655029
0.011156020415070496,0.0209481907045091,-0.08363310688063438, ,0.011445580475394365,0.020833520222404683,-0.08397257751811002, ,0.0004606893331833683, ,0.0032893435702469635,0.0008020293864047646,-0.00833130291182938,0.017726076602199294,0.000712617064644751,0.005328923418135928, ,0.008992977286107118, ,0.017740393869614, ,4.847988955509237e-05, ,0.14803706646600961,-0.24066352455945839,0.09352213834,-4.532867508304963,0.1459277817494904,-1.3467891429407095, ,0.027530299262683716,0.015488320802753515,0.008671100446379969,0.0,0.033647472371306046,-0.02855601116098624, ,0.7607629299163818
0.01118225886215288,0.020954202246829465,-0.08369411733130817, ,0.01148502761645552,0.020840465470037945,-0.08407047420316124, ,0.0004962352949639156, ,0.003512646225456015,0.0010051663248090684,-0.00919371951566271,-0.0033828936728949035,-0.0063962257906562256,0.0034222153729445053, ,0.009893104739080545, ,0.007235717537582138, ,4.8823163227036064e-05, ,0.14823785752073945,-0.24055540629921926,0.09358565655000001,-4.532867508304963,0.1459277817494904,-1.3467891429407097, ,0.027514335041597792,0.015435416649068116,0.009566853765765769,0.0,0.02333991599823148,-0.008657195472205372, ,0.7765219211578369
0.011233031512763588,0.02096703094139401,-0.08382153965746111, ,0.011524496082435283,0.02084725140442226,-0.08416806158247742, ,0.0004683761067433699, ,0.0036174292288806875,0.0009309197097321952,-0.009316725507732007,-0.013802631168982882,-0.011176943480207693,-0.008418017144002216, ,0.01003761823932114, ,0.017760535536691074, ,4.909603814978201e-05, ,0.14860854869870224,-0.24033144704586673,0.09371787813000002,-4.5326578183614785,0.1459277817494904,-1.346707464200569, ,0.027474505373037285,0.016578780845295384,0.009671409544626596,0.010113662067252276,0.01440372517896496,0.0009173847433796411, ,0.7883551120758057
0.011296723835601033,0.020981708051662107,-0.08399170897414968, ,0.011563985665521078,0.020853879004372702,-0.08426534088229774, ,0.00040329092751992365, ,0.0029278064285612328,0.0005345899249257571,-0.007692707961284557,0.026164371130189358,0.019505578477212307,-0.0006467039566172538, ,0.008248369090224287, ,0.0326349794151775, ,4.9222617046748994e-05, ,0.1491259718012753,-0.23999936953227508,0.09389417357,-4.5326578183614785,0.1466109642483176,-1.3471828749789103, ,0.025871576215504573,0.01693076566609648,0.007968389954977489,0.010113662067252276,0.04994259055227252,-0.03470602341615034, ,0.8012809753417969
0.011331221243922242,0.020987266515361824,-0.08406634434269306, ,0.011603496158371437,0.020860349246592542,-0.08436231332623306, ,0.00042170992562171847, ,0.0033225293100565645,0.0005910165309692393,-0.007443955382173568,-6.895240080140373e-06,-0.005178212712395038,-0.005738635924962738, ,0.008173186238417347, ,0.005178215096166585, ,4.938402208083785e-05, ,0.1494117129176216,-0.2398449148747906,0.09397195097000001,-4.5326578183614785,0.14674760074808305,-1.3472126141424665, ,0.028059415008418326,0.015254290557542322,0.007762578713450294,0.009405333890279179,0.023115083038262107,-0.010542346954803166, ,0.8126490116119385
0.011363806916616032,0.020992363104998267,-0.08413747155495364, ,0.011643027354115681,0.020866663105676007,-0.08445898013526726, ,0.0004439958443075655, ,0.0033348341284343357,0.0004624788292777533,-0.0073740210701060205,-0.011382328338367935,-0.010503907419033811,-0.0068893833351167414, ,0.00810624401767354, ,0.015488364912629265, ,4.9689170245760446e-05, ,0.149666563102471,-0.23969818295018033,0.0940458395,-4.5326578183614785,0.14674760074808305,-1.3471309354023258, ,0.027514335041597792,0.016333380646896864,0.007658082461538462,0.00882277054982938,0.01578725113416965,-0.0012624906508442515, ,0.824958086013794
0.011395255735062783,0.02099673314839968,-0.08421262811436553, ,0.011682579046353463,0.020872821554109015,-0.08455534252776083, ,0.00046407104796526445, ,0.0031111580916733652,0.00043197869522800544,-0.007239233359541684,-0.014003021789954983,-0.010706017797124144,-0.007090832611758283, ,0.007891286960845912, ,0.017626781227443773, ,5.0027815197782285e-05, ,0.14992913602019464,-0.23952828282694738,0.09412361690000001,-4.5326578183614785,0.1470208737476139,-1.3473537712097186, ,0.024757876743665738,0.01613344807182434,0.007488862961918196,0.008264439888723135,0.01250199486178377,0.001034201102022775, ,0.8345620632171631
0.011425216225123477,0.02100251868714155,-0.08429014953266376, ,0.011722151029154236,0.020878825562270657,-0.08465140171945093, ,0.00048370797951204796, ,0.0030159195734788167,0.0006784348538679765,-0.008521938357042043,0.024549687578692275,0.023029194944876468,0.002505905388490098, ,0.00906528974086653, ,0.03366052487817783, ,5.039785771456728e-05, ,0.15018398620504403,-0.23936610543658868,0.09420398688,-4.5326578183614785,0.14743078324691022,-1.3476880249208079, ,0.025647822042829938,0.017515123949514724,0.008819939933554817,0.0077895686234286665,0.053785837566127065,-0.03344404073173503, ,0.8469381332397461
0.011457395270841846,0.021009518387489025,-0.08437800804177034, ,0.01176174309705719,0.020884676098436868,-0.08474715892345637, ,0.0004944548208960653, ,0.0031438466329456564,0.0009180013582865711,-0.009019287399626808,0.014060978756551455,0.008135716110725534,0.004394362175662791, ,0.009595522046369683, ,0.016245028179171294, ,5.07804626440666e-05, ,0.15043111365701922,-0.2391884825804815,0.09429472718000001,-4.532448128417994,0.14770405624644115,-1.3478291819880603, ,0.024489533305411815,0.015818793391977126,0.009353383159130946,0.0019668845783859614,0.037143236785333926,-0.024386945638097453, ,0.8565421104431152
0.01149569089076983,0.021020224292144913,-0.0844765709515658, ,0.011801355045070648,0.02089037412877984,-0.08484261535027791, ,0.0004942470454933278, ,0.0035668608214021054,0.0009792667929435874,-0.009482583509741543,-0.005117591777969972,-0.006487335277910228,-0.0016482221717489165, ,0.010178450254839268, ,0.008262880123937824, ,5.1153620655147166e-05, ,0.15070140930761708,-0.2390263051901228,0.09439713409000001,-4.53223843847451,0.14770405624644115,-1.3477475032479198, ,0.02686015894663764,0.016252259215357216,0.009850842003710576,0.004580317982291069,0.0212337986703569,-0.007337947652309213, ,0.8669400215148926
0.011531634258110473,0.02102895951684763,-0.08456768079399715, ,0.011840986668671503,0.020895920617370493,-0.08493777220780067, ,0.0005003657834675528, ,0.003745570323999367,0.0008624345602199245,-0.009320344462573517,-0.023591560289988385,-0.024800841115015366,-0.006636139077089138, ,0.010081761320508996, ,0.03422927645445174, ,5.1529970965529795e-05, ,0.15097170495821494,-0.2388641277997641,0.09449176326000001,-4.53223843847451,0.14784069274620656,-1.3477772424114756, ,0.0269517016638656,0.016760321716437793,0.009665540970873788,0.004580317982291069,0.0,0.007770103187270432, ,0.8768479824066162
0.011558982777419388,0.021037102347640464,-0.08464511203824905, ,0.011880637763805288,0.02090131652618144,-0.08503263070129782, ,0.0005216037133565319, ,0.0035615851144717935,0.001014188498176911,-0.009470029111097247,-0.0048588567145002376,-0.01298620594243958,-0.003567355169763473, ,0.010168329174573899, ,0.013865423079960453, ,5.193847844161317e-05, ,0.151180218745819,-0.23873284134090228,0.09457213324000001,-4.53223843847451,0.14811396574573746,-1.3479183994787278, ,0.02591396547200185,0.015631187869950713,0.009838672958616432,0.004580317982291069,0.013551417536833837,-0.008080163672589909, ,0.888024091720581
0.011599641316326023,0.021048811372255363,-0.08475990498349903, ,0.011920308126885383,0.020906562815087053,-0.08512719203343135, ,0.0005078992345522504, ,0.003269709442547791,0.0008637290526488227,-0.009405428311612096,0.02810586066582242,0.013836615499914008,0.0033494741987590312, ,0.009994954198992118, ,0.03132716486783523, ,5.2311612213291063e-05, ,0.15150457352653643,-0.23853205028617244,0.09469139192,-4.53223843847451,0.14866051174479922,-1.348282392353373, ,0.025942302230309123,0.017554003247959818,0.00974239236697248,0.004580317982291069,0.04602478055444176,-0.0386414474281807, ,0.8978300094604492
0.011635573452210323,0.021056485755093533,-0.08484990619258365, ,0.011959997554792925,0.020911660441866445,-0.08522145740425513, ,0.0005140774966699074, ,0.0036395962889580833,0.0006518464365789843,-0.008688089043257503,-0.016341788281243316,-0.022813343141936664,-0.006186817511796564, ,0.009442163742863668, ,0.028062477083088958, ,5.268794270838535e-05, ,0.1517748691771343,-0.2383621501629395,0.09478472480000001,-4.53223843847451,0.14879714824456466,-1.3483121315169289, ,0.02699002888466177,0.017316960138407077,0.008999328542372884,0.004580317982291069,0.0031870117261196713,0.00035297417670920785, ,0.9085719585418701
0.011673467265856068,0.02106329610015671,-0.08494001494830494, ,0.01199970584487598,0.020916610362203863,-0.08531542801121654, ,0.0005185395683690589, ,0.0038202343948707694,0.0007035799114507738,-0.008869059194836212,-0.021321050216707788,-0.022330759473241382,-0.005555975698987127, ,0.009682428751354666, ,0.030874746089943197, ,5.306417302830867e-05, ,0.15205288756060636,-0.23818452730683232,0.09487805768,-4.53223843847451,0.14879714824456466,-1.3483121315169289, ,0.028870380760106718,0.01728856650728198,0.00921273078079815,0.004580317982291069,0.004897757621265608,0.005658703175231361, ,0.9182090759277344
0.011706613087217037,0.021070110392344583,-0.08502603493818214, ,0.012039432794949664,0.020921413529691745,-0.0854091050491594, ,0.0005287933667720829, ,0.0034424711221742507,0.000488791590171578,-0.008305763307496127,0.008981480187175903,0.005607131692229209,0.0003658248989285845, ,0.009004178405927722, ,0.010588053297905124, ,5.34509530441216e-05, ,0.1523386286769527,-0.23800690445072517,0.09496750169000001,-4.532028748531025,0.1493436942436264,-1.3487578031317145, ,0.02882653145761567,0.01859630444022551,0.00861016838918919,0.005913495001057455,0.037626188923555313,-0.021360116200250034, ,0.928318977355957
0.011741847678109762,0.02107395591568241,-0.08510458150917884, ,0.012079178203295533,0.020926070895832555,-0.08550248971032648, ,0.0005422110279758723, ,0.0033644206634889508,0.00042137026989612955,-0.007885048048460255,0.020959541423294367,0.014066932570168368,0.0030944938227601246, ,0.008583173191296483, ,0.025242443188565996, ,5.385368997086913e-05, ,0.15264753799192166,-0.23782155886174378,0.09504916796000001,-4.532028748531025,0.1497536037429227,-1.3490920568428038, ,0.029785606264428992,0.01836596507808608,0.008193833086419754,0.005737987557623809,0.048992153251231026,-0.0316250953626354, ,0.9383039474487305
0.011781535543863407,0.021078731326431486,-0.0851922215458186, ,0.012118941868660972,0.020930583410038273,-0.08559558318436032, ,0.000546343705548179, ,0.0038735487070212025,0.0005550751529215198,-0.009118616156556564,-0.0014880053608135034,-0.00681017826194604,-0.002061987672028335, ,0.009922784318006255, ,0.006970841044605705, ,5.425516760706152e-05, ,0.15294872457401643,-0.23762849053988816,0.09513990826,-4.532028748531025,0.1497536037429227,-1.3489286993625225, ,0.031022210381978024,0.01988203259134104,0.009453300605341247,0.00539901133273507,0.0259768336409177,-0.013813569580823208, ,0.9487259387969971
0.011822977813243186,0.021084087185618956,-0.08529006688457968, ,0.01215872359025934,0.020934952019635914,-0.08568838665830736, ,0.0005418719098268838, ,0.0042285830392194265,0.0006545751655788668,-0.009702936882667273,-0.028047150495210872,-0.028860869995112184,-0.0076032342119996205, ,0.01060454465387325, ,0.04024415959828572, ,5.464011583514784e-05, ,0.1532653566218596,-0.23741225401940988,0.09524101888000001,-4.532028748531025,0.14989024024268818,-1.3489584385260784, ,0.03131912262655801,0.019944712391439846,0.01005606787878788,0.0050911685924434945,0.0,0.009184724946047553, ,0.9585440158843994
0.011861111308781777,0.021092372183668186,-0.0853859403652986, ,0.012198523167768911,0.020939177669865274,-0.08578090131661881, ,0.0005415805339118311, ,0.004117868209919447,0.00080975521460394,-0.010195673239849653,-0.007594628116135686,-0.01353251656563,-0.0001868359740835832, ,0.011025619933392851, ,0.015517966060258716, ,5.5113449088650645e-05, ,0.1535742659368286,-0.23722690843042848,0.09534083321,-4.531819058587541,0.1503001497419845,-1.349211013497027, ,0.031083177713223314,0.019749623633396624,0.010576900079681276,0.001825161834632216,0.01920150361172952,-0.009013916497592082, ,0.9669430255889893
0.011903872961196275,0.021102579478414454,-0.08549819683251342, ,0.012238340401333137,0.02094326130388364,-0.08587312834115339, ,0.0005270904907305591, ,0.004305230102520058,0.000966121390847518,-0.011319455692255518,0.013012557502436243,0.009649031367985986,-0.0025113172468275917, ,0.012149011233282889, ,0.016199699789178148, ,5.5553175041950134e-05, ,0.15390634345042026,-0.23701839464282443,0.09545749931000001,-4.531609368644055,0.1507100592412808,-1.3494635884679758, ,0.033952394117520844,0.02162646799418204,0.011755580457564578,0.010623840481641778,0.04678883304343305,-0.026412671478633413, ,0.9759700298309326
0.011951965696271506,0.021111337246854874,-0.08561579102366604, ,0.012278175091559646,0.020947203862765433,-0.08596506891117973, ,0.0005053190873625658, ,0.004818696076208194,0.0009246537407815681,-0.011344337813269344,-0.010922557185645856,-0.01580459497450156,-0.008094246198896789, ,0.012359968318599295, ,0.019211644643162846, ,5.594754802661706e-05, ,0.15426158916263458,-0.2367867126565977,0.09557935057000001,-4.531609368644055,0.15084669574104626,-1.3494116488913912, ,0.03699685830739601,0.021800354137025222,0.011807866212008898,0.010177432098158296,0.020562322313453493,-0.00623809494369579, ,0.9844789505004883
0.011999331821054173,0.021121243185885635,-0.085731665418995, ,0.012318027039520348,0.020951006285505957,-0.08605672420337862, ,0.0004860148740820982, ,0.004806110329908893,0.0009798690241642504,-0.011942515905932862,-0.016426331659432938,-0.02117480377556808,-0.009530146827132654, ,0.01291055870097158, ,0.026799187371833205, ,5.630197609182155e-05, ,0.15462455760772315,-0.2365704761361194,0.09569990554,-4.531609368644055,0.15111996874057715,-1.3495528059586435, ,0.034850143796720814,0.022540841225289973,0.012386323110419907,0.009494276977172282,0.01236076399169262,-0.0026944225727529242, ,0.9925310611724854
0.011999331821054173,0.021121243185885635,-0.085731665418995, ,0.012357896046750978,0.020954669509022007,-0.0861480953918454, ,0.00057422035496976, ,0.004806110329908893,0.0009798690241642504,-0.011942515905932862,-0.016426331659432938,-0.02117480377556808,-0.009530146827132654, ,0.01291055870097158, ,0.026799187371833205, ,5.6800631073952134e-05, ,0.15462455760772315,-0.2365704761361194,0.09569990554,-4.531609368644055,0.15111996874057715,-1.3495528059586435, ,0.034850143796720814,0.022540841225289973,0.012386323110419907,0.009494276977172282,0.01236076399169262,-0.0026944225727529242, ,1.0012481212615967
0.012052333689391482,0.021130698715599232,-0.08586400588762964, ,0.012397781915250183,0.02095819446815246,-0.0862391836480914, ,0.0005383776964930831, ,0.004322329746108904,0.000721099521435004,-0.010924832124500723,0.0511319463499649,0.023278879443845848,0.0034522056335649022, ,0.01177091652771502, ,0.0561816874975625, ,5.723031779882261e-05, ,0.15504930791580548,-0.23630018048552154,0.09583731228,-4.531609368644055,0.1516665147396389,-1.3499167988332885, ,0.03691051791461329,0.023483529215162283,0.011353393813257305,0.008825068813616976,0.06993127639505285,-0.06371968726149675, ,1.009347915649414
0.012098968356116905,0.021135922053180663,-0.0859687993393211, ,0.012437684447479906,0.020961582095662974,-0.08632999014104735, ,0.000524958861804572, ,0.004514799122115554,0.0005558890887202796,-0.010065083098884157,0.0007037513035919839,-0.003079597855037336,-0.0029003183413415555, ,0.011045285038397929, ,0.0031589690643101203, ,5.763032998108469e-05, ,0.15543544455951672,-0.2360607757664206,0.09594620064,-4.531609368644055,0.1520764242389352,-1.3502510525443778, ,0.03706911779627765,0.02245549965889039,0.01047259140039448,0.008310166652621765,0.03590572448206885,-0.016707989305775998, ,1.0174870491027832
0.012098968356116905,0.021135922053180663,-0.0859687993393211, ,0.012477603446364505,0.020964833322245226,-0.08642051603706546, ,0.0006137457620554151, ,0.004514799122115554,0.0005558890887202796,-0.010065083098884157,0.0007037513035919839,-0.003079597855037336,-0.0029003183413415555, ,0.011045285038397929, ,0.0031589690643101203, ,5.8171183987978366e-05, ,0.15543544455951672,-0.2360607757664206,0.09594620064,-4.531609368644055,0.1520764242389352,-1.3502510525443778, ,0.03706911779627765,0.02245549965889039,0.01047259140039448,0.008310166652621765,0.03590572448206885,-0.016707989305775998, ,1.026015043258667
0.012165425775685997,0.021140278951397026,-0.08610888457480896, ,0.012517538715290277,0.02096794907651881,-0.08651076249992014, ,0.000561415153610921, ,0.004767834995177437,0.00014539465349165274,-0.009653966283643862,-0.027774308304101755,-0.030533317071884416,-0.002640055754371718, ,0.010768122173909203, ,0.04127584728783333, ,5.861691583916622e-05, ,0.15595286766208974,-0.23572097551995472,0.09608619996000001,-4.531399678700571,0.15234969723846611,-1.3503105308714898, ,0.03774739123248639,0.025205030958425176,0.00997420884157796,0.0005854195731603803,0.006679408015746786,0.003970833356586115, ,1.0351760387420654
0.01220724016510103,0.021141749623553523,-0.08619907201041498, ,0.01255749005810554,0.02097093028503468,-0.08660073069081284, ,0.0005596283851813085, ,0.004570294617567804,0.00027880748747280426,-0.009728311385618102,0.0063110304790999616,-0.002866473321258531,0.005130681962593291, ,0.01075199371846854, ,0.006931499684461002, ,5.905244493391373e-05, ,0.15632355884005253,-0.23547384806797952,0.09618471800000002,-4.531399678700571,0.15275960673776243,-1.3506447845825789, ,0.03860738061776679,0.024464279855238663,0.010100704831959418,0.0005854195731603803,0.04079408380254341,-0.02484448926930061, ,1.0433709621429443
0.012252000383418586,0.021146817554928008,-0.08630105955485325, ,0.012597457279119866,0.0209737778722752,-0.086690421768372, ,0.0005485308850706305, ,0.004448989163681343,0.00037365534731065016,-0.010509068168181314,0.03824992591821601,0.02224657752055208,0.003684797753959233, ,0.011418127546170153, ,0.04424891994101908, ,5.9462928986427614e-05, ,0.15671741821663798,-0.23523444334887855,0.09629101378,-4.531189988757087,0.15344278923658963,-1.3511201953609204, ,0.03860738061776679,0.0259707010285908,0.010895219917920657,0.00829831424533511,0.06926716329820284,-0.05333391454968037, ,1.0517849922180176
0.012301440192668303,0.02114995757060287,-0.08641261989072045, ,0.012637440183103707,0.020976492760656787,-0.08677983688865713, ,0.00052709995013835, ,0.005139029767216267,0.0004325428329204708,-0.01112305974343677,-0.020090819811435325,-0.01961227179201969,-0.007114031839914517, ,0.012260472189386076, ,0.028076361503517413, ,5.9832358737563004e-05, ,0.15711900032609766,-0.23495642496540647,0.09640638359,-4.531189988757087,0.15385269873588595,-1.351209412851588, ,0.040193537297107486,0.02622186834995048,0.01153425888486604,0.00829831424533511,0.019747841572284715,-0.0017557560527047406, ,1.06028413772583
0.01235405140101176,0.02115404143722674,-0.08652383243957786, ,0.012677438575288275,0.020979075870531366,-0.08686897720515975, ,0.0005042986448763902, ,0.005234297922858346,0.0003194222109429265,-0.0109781463671842,-0.04842246977499186,-0.026570611181041186,-0.009064763603224762, ,0.012129155696501113, ,0.05523343913053507, ,6.015953074902804e-05, ,0.15752830516843155,-0.23469385204768284,0.09652175340000001,-4.531189988757087,0.1539893352356514,-1.350994115794722, ,0.040313059285671526,0.02685255844891646,0.011369601370449681,0.00829831424533511,0.008801400609077279,0.024669503496548877, ,1.0686709880828857
0.01235405140101176,0.02115404143722674,-0.08652383243957786, ,0.01271745226136471,0.020981528120187696,-0.08695784386880585, ,0.0005917659592791797, ,0.005234297922858346,0.0003194222109429265,-0.0109781463671842,-0.04842246977499186,-0.026570611181041186,-0.009064763603224762, ,0.012166330710341657, ,0.05523343913053507, ,6.061992363753126e-05, ,0.15752830516843155,-0.23469385204768284,0.09652175340000001,-4.531189988757087,0.1539893352356514,-1.350994115794722, ,0.040313059285671526,0.02685255844891646,0.011369601370449681,0.00829831424533511,0.008801400609077279,0.024669503496548877, ,1.0771219730377197
0.012399257515477451,0.02115716960204577,-0.08663155998305964, ,0.012757481047484198,0.020983850425853882,-0.0870464380279594, ,0.0005748803596045614, ,0.004166803922836254,0.000396176322666477,-0.010125324259376768,0.028887782965022018,0.037606646901368675,0.007484237567047659, ,0.010956340719762635, ,0.0474211323080036, ,6.11425661926483e-05, ,0.1579144418121428,-0.23442355639708498,0.09663323434000001,-4.531189988757087,0.1546725177344786,-1.3511428116125015, ,0.037083603578925664,0.02468060898789877,0.010514067009900992,0.00829831424533511,0.08190952080976287,-0.04077131843656441, ,1.0839121341705322
0.012443097410893902,0.021161120527424335,-0.08672983292007336, ,0.012797524740257185,0.020986043701698813,-0.08713476082842277, ,0.0005658950765521298, ,0.0048565296603957035,0.0002058880276652342,-0.010353792083835854,-0.013900371713344625,0.00432608487877823,0.0004932443908359547, ,0.011438062805280494, ,0.01455799523152758, ,6.164463621105695e-05, ,0.158300578455854,-0.23418415167798404,0.09673564125,-4.530980298813603,0.15535570023330578,-1.351618222390843, ,0.04074578856095783,0.026867763748151408,0.010740938314227916,0.007073819639179802,0.04611836660485769,-0.0050409292326176105, ,1.09033203125
0.012443097410893902,0.021161120527424335,-0.08672983292007336, ,0.012837583146753144,0.020988108859833467,-0.08722281341344046, ,0.0006546615917857493, ,0.0048565296603957035,0.0002058880276652342,-0.010353792083835854,-0.013900371713344625,0.00432608487877823,0.0004932443908359547, ,0.011438062805280494, ,0.01455799523152758, ,6.227830553860589e-05, ,0.158300578455854,-0.23418415167798404,0.09673564125,-4.530980298813603,0.15535570023330578,-1.351618222390843, ,0.04074578856095783,0.026867763748151408,0.010740938314227916,0.007073819639179802,0.04611836660485769,-0.0050409292326176105, ,1.0967590808868408
0.012496629957116341,0.0211641641281587,-0.08684748058052315, ,0.012877656074500237,0.020990046810313547,-0.08731059692370041, ,0.000624479375015795, ,0.005484211581472214,0.0007031212922789996,-0.012885141237187776,-0.03017120267086582,-0.0017887705205202019,-0.00048749295784974214, ,0.01402133449156274, ,0.03022417600867984, ,6.285757429302158e-05, ,0.15873305149681058,-0.2338906878287635,0.09685749251,-4.530980298813603,0.15576560973260212,-1.35162576114137, ,0.04247848771641485,0.027984942954429604,0.013374316977329978,0.006700040799894808,0.03956983762914484,0.009285955661726027, ,1.1034629344940186
0.012550162667229555,0.02117460104855309,-0.08698063430494588, ,0.012917743331484799,0.020991858461140354,-0.08739811249733724, ,0.0005854899137568383, ,0.005425696523804994,0.0011116249372324209,-0.013372855491271363,0.016017184956217418,0.012284792278844932,0.0042909126791559745, ,0.014474362050188368, ,0.020185784789654743, ,6.336993566815157e-05, ,0.1591500790720187,-0.2336358376439141,0.09699619554000001,-4.530980298813603,0.15631215573166388,-1.351989754016015, ,0.04293979256039402,0.02509173494406948,0.013960395723049959,0.0062259221483685085,0.06073212951104277,-0.03152484895644112, ,1.1104440689086914
0.012550162667229555,0.02117460104855309,-0.08698063430494588, ,0.012957844726151017,0.020993544718262976,-0.08748536126993359, ,0.0006735988161289125, ,0.005425696523804994,0.0011116249372324209,-0.013372855491271363,0.016017184956217418,0.012284792278844932,0.0042909126791559745, ,0.014474362050188368, ,0.020185784789654743, ,6.401036108500569e-05, ,0.1591500790720187,-0.2336358376439141,0.09699619554000001,-4.530980298813603,0.15631215573166388,-1.351989754016015, ,0.04293979256039402,0.02509173494406948,0.013960395723049959,0.0062259221483685085,0.06073212951104277,-0.03152484895644112, ,1.1168920993804932
0.012606785132759214,0.02118668621802319,-0.08712369453204016, ,0.012997960067400532,0.02099510648557978,-0.08757234437452244, ,0.000625305768831615, ,0.005734128698402296,0.001208772202934721,-0.014838006412064163,0.009853747988431204,-0.0004946895498014991,0.0007102879931515038, ,0.01595330048776383, ,0.009866121219794036, ,6.456985248575053e-05, ,0.15958255211297526,-0.23337326472619047,0.09714526889000001,-4.530980298813603,0.15685870173072564,-1.3521087106702385, ,0.04217641847043145,0.027530299262683716,0.01541995306873185,0.005818519939264579,0.046432104639238046,-0.029844760955703806, ,1.1237001419067383
0.012606785132759214,0.02118668621802319,-0.08712369453204016, ,0.013038089164592002,0.020996544664940466,-0.08765906294159054, ,0.0007132995948606912, ,0.005734128698402296,0.001208772202934721,-0.014838006412064163,0.009853747988431204,-0.0004946895498014991,0.0007102879931515038, ,0.01595330048776383, ,0.009866121219794036, ,6.525512384857838e-05, ,0.15958255211297526,-0.23337326472619047,0.09714526889000001,-4.530980298813603,0.15685870173072564,-1.3521087106702385, ,0.04217641847043145,0.027530299262683716,0.01541995306873185,0.005818519939264579,0.046432104639238046,-0.029844760955703806, ,1.1307740211486816
0.012647719105244652,0.021195385191735826,-0.08722978368474169, ,0.013078231827540823,0.020997860156147418,-0.08774551809907909, ,0.0007002423365342922, ,0.005718241747405198,0.0012636848063354092,-0.015257278588266579,-0.01104411065886787,0.0037190015668524907,-0.004941955214346478, ,0.016342574396083026, ,0.011653434091644033, ,6.591264157483582e-05, ,0.1598760159621958,-0.23317247367146063,0.09725545354000001,-4.530560918926633,0.15713197473025653,-1.3523315464776313, ,0.04097449980935698,0.02800145811698754,0.015833808667992052,0.01204697217179249,0.04500748596380169,-0.008413475319396544, ,1.1375019550323486
0.012733707431742293,0.021210905385559833,-0.08744815212379277, ,0.013118387866518713,0.020999053856958102,-0.08783171097238716, ,0.0005830758933498483, ,0.005401130964236969,0.0007010513316317646,-0.012677537136894396,0.006910597420958651,-0.0014901925728942804,-0.008349064794234001, ,0.013797957693795071, ,0.00706942028363393, ,6.638797688294669e-05, ,0.16052472552363065,-0.23274000063050404,0.09748230429000002,-4.5303512289831485,0.15795179372884915,-1.352591660199107, ,0.041584987536577904,0.0272770743197674,0.013175195632754346,0.014272561577349793,0.04218046368974074,-0.025872440126957184, ,1.1439909934997559
0.012789775313850761,0.02121398271805754,-0.08757337878511023, ,0.013158557092252951,0.021000126663085327,-0.08791764268437316, ,0.0005479525934471648, ,0.005562781578670098,0.0002438027086575905,-0.012141527133881747,-0.013421165663323808,0.0010332164666794603,-0.007491049801866389, ,0.01335741965334349, ,0.01346086773479492, ,6.680572937690435e-05, ,0.16096492129746146,-0.23243109131553508,0.09761193329000001,-4.5303512289831485,0.1583617032281455,-1.3528442351700556, ,0.04455255472228675,0.030860794002754727,0.012581999620853082,0.014272561577349793,0.04541036633243403,-0.00843485293842523, ,1.154083013534546
0.012789775313850761,0.02121398271805754,-0.08757337878511023, ,0.01319873931592687,0.021001079468201688,-0.08800331435535817, ,0.0006304156909196593, ,0.005562781578670098,0.0002438027086575905,-0.012141527133881747,-0.013421165663323808,0.0010332164666794603,-0.007491049801866389, ,0.01335741965334349, ,0.01346086773479492, ,6.733983639662794e-05, ,0.16096492129746146,-0.23243109131553508,0.09761193329000001,-4.5303512289831485,0.1583617032281455,-1.3528442351700556, ,0.04455255472228675,0.030860794002754727,0.012581999620853082,0.014272561577349793,0.04541036633243403,-0.00843485293842523, ,1.160444974899292
0.012845138622684972,0.02121719990642907,-0.0876915450818942, ,0.013238934349178414,0.02100191316393802,-0.08808872710312676, ,0.0005993137856643156, ,0.005312815512644595,0.0002716580563794467,-0.010624615666121273,0.017324414869456187,0.01599561606967751,-0.0024415118041584602, ,0.011882014342012153, ,0.02357954513204047, ,6.782222592890543e-05, ,0.16143600800278915,-0.23213762746631453,0.09773508084000002,-4.5303512289831485,0.15904488572697267,-1.3533196459483974, ,0.04649531678514002,0.026974684922817165,0.011123471731843576,0.014272561577349793,0.06654233535190715,-0.03257758887510069, ,1.167222023010254
0.012900643205319603,0.02121886344916908,-0.08779810052224264, ,0.013279142004100596,0.021002628639888138,-0.0881738820429307, ,0.0005755263544913008, ,0.005409406309759919,-0.00012581069128539678,-0.010166934551134238,-0.008480705262819318,0.0067016302537790985,-0.004991197858141346, ,0.011517120435298022, ,0.010808982430510683, ,6.826443152596311e-05, ,0.16191481744099107,-0.23185960908284245,0.09784656178000001,-4.5303512289831485,0.15959143172603446,-1.3535202813427614, ,0.04707189561432083,0.029832424256042368,0.01059096510638298,0.014051206937140735,0.054405360565302784,-0.011131835584717281, ,1.1761620044708252
0.012900643205319603,0.02121886344916908,-0.08779810052224264, ,0.01331936209324033,0.021003226783607404,-0.08825878028749011, ,0.0006588251093762221, ,0.005409406309759919,-0.00012581069128539678,-0.010166934551134238,-0.008480705262819318,0.0067016302537790985,-0.004991197858141346, ,0.011517120435298022, ,0.010808982430510683, ,6.892149638095346e-05, ,0.16191481744099107,-0.23185960908284245,0.09784656178000001,-4.5303512289831485,0.15959143172603446,-1.3535202813427614, ,0.04707189561432083,0.029832424256042368,0.01059096510638298,0.014051206937140735,0.054405360565302784,-0.011131835584717281, ,1.1811740398406982
0.012954738288417728,0.021216359668722772,-0.08790064005597954, ,0.013359594429598975,0.02100370848061829,-0.08834342294699644, ,0.0006365419950260181, ,0.005453569652353381,-0.0002173652655670724,-0.010652350081498736,-0.006672941602052438,-0.0035174577361135094,-0.007113888920867239, ,0.011969178412512322, ,0.007543243426394831, ,6.954077232603006e-05, ,0.16237045868057032,-0.23155069976787349,0.09795285756000001,-4.5303512289831485,0.16000134122533075,-1.3537728563137101, ,0.0454487268000339,0.031748725847598115,0.011031032908587259,0.012747098957146884,0.04314407480842195,-0.016688341917120937, ,1.1861200332641602
0.012954738288417728,0.021216359668722772,-0.08790064005597954, ,0.01339983882663105,0.021004074614408764,-0.08842781112911427, ,0.0007218647891072893, ,0.005453569652353381,-0.0002173652655670724,-0.010652350081498736,-0.006672941602052438,-0.0035174577361135094,-0.007113888920867239, ,0.011969178412512322, ,0.007543243426394831, ,7.027713168346076e-05, ,0.16237045868057032,-0.23155069976787349,0.09795285756000001,-4.5303512289831485,0.16000134122533075,-1.3537728563137101, ,0.0454487268000339,0.031748725847598115,0.011031032908587259,0.012747098957146884,0.04314407480842195,-0.016688341917120937, ,1.1909301280975342
0.013012979647221309,0.021214777765815315,-0.0880182943563231, ,0.013440095098244384,0.02100432606643566,-0.0885119459389841, ,0.0006858639889497966, ,0.005804569646574,0.0001392547375394829,-0.012176081976178034,-0.006051346218968288,-0.005616886919125057,-0.00627087462930542, ,0.01348960314295654, ,0.008256387956739756, ,7.095574967474564e-05, ,0.16285699085164645,-0.2312108995214076,0.09807470882000001,-4.5303512289831485,0.16054788722439253,-1.3539734917080741, ,0.0463590334921694,0.031748725847598115,0.012631888596352102,0.011588834162485651,0.042311743245755914,-0.017614642211871683, ,1.1959710121154785
0.013012979647221309,0.021214777765815315,-0.0880182943563231, ,0.013480363058799594,0.021004463716126437,-0.08859582847922433, ,0.0007721560179331479, ,0.005804569646574,0.0001392547375394829,-0.012176081976178034,-0.006051346218968288,-0.005616886919125057,-0.00627087462930542, ,0.01348960314295654, ,0.008256387956739756, ,7.175132402596742e-05, ,0.16285699085164645,-0.2312108995214076,0.09807470882000001,-4.5303512289831485,0.16054788722439253,-1.3539734917080741, ,0.0463590334921694,0.031748725847598115,0.012631888596352102,0.011588834162485651,0.042311743245755914,-0.017614642211871683, ,1.2010600566864014
0.013073700983096853,0.02121991967552459,-0.08815413457079875, ,0.013520642523109526,0.021004488440879897,-0.08867945984993295, ,0.0007225884070111123, ,0.006446617788398675,0.0007898168295218223,-0.015139625010420944,-0.0006077931538904053,0.00767705804009763,0.005404101645539137, ,0.016473947219475288, ,0.007701028326609945, ,7.246992804145357e-05, ,0.16333580028984837,-0.2308942674735644,0.09821600443,-4.530141539039664,0.1610944332234543,-1.3542558058425787, ,0.04991948530166796,0.032543532770394644,0.015755501008902082,0.00433677013091014,0.06231054506203584,-0.022179145760065872, ,1.2058570384979248
0.013073700983096853,0.02121991967552459,-0.08815413457079875, ,0.013560933306439127,0.021004401116069184,-0.08876284114869078, ,0.0008089297153327138, ,0.006446617788398675,0.0007898168295218223,-0.015139625010420944,-0.0006077931538904053,0.00767705804009763,0.005404101645539137, ,0.016473947219475288, ,0.007701028326609945, ,7.330422977799568e-05, ,0.16333580028984837,-0.2308942674735644,0.09821600443,-4.530141539039664,0.1610944332234543,-1.3542558058425787, ,0.04991948530166796,0.032543532770394644,0.015755501008902082,0.00433677013091014,0.06231054506203584,-0.022179145760065872, ,1.2106869220733643
0.013139266509254264,0.0212297905314835,-0.08831349120549493, ,0.013601235224505003,0.02100420261504311,-0.08884597347056349, ,0.0007401637416996798, ,0.007046389494740189,0.0011623449344689539,-0.017285140063131966,0.055035024334458824,0.012751375651454587,0.007500207921576464, ,0.018702371979520682, ,0.05649291939264598, ,7.403491945828458e-05, ,0.16383777792667298,-0.23056991269284696,0.09838192955000001,-4.530141539039664,0.1617776157222815,-1.3546495378807797, ,0.054195854687875945,0.03429596731422869,0.01801901755656109,0.00433677013091014,0.08002021026026779,-0.07759589267652409, ,1.2160189151763916
0.013139266509254264,0.0212297905314835,-0.08831349120549493, ,0.013641548093474742,0.02100389380912701,-0.08892885790810338, ,0.0008258282495153786, ,0.007046389494740189,0.0011623449344689539,-0.017285140063131966,0.055035024334458824,0.012751375651454587,0.007500207921576464, ,0.018702371979520682, ,0.05649291939264598, ,7.487928797736224e-05, ,0.16383777792667298,-0.23056991269284696,0.09838192955000001,-4.530141539039664,0.1617776157222815,-1.3546495378807797, ,0.054195854687875945,0.03429596731422869,0.01801901755656109,0.00433677013091014,0.08002021026026779,-0.07759589267652409, ,1.221269130706787
0.01321586978138543,0.021242903326900927,-0.08850002071517293, ,0.01368187172996696,0.02100347556762604,-0.08901149555135228, ,0.0007321816550814863, ,0.007611294052325553,0.0014331553471522685,-0.01873767320622497,0.034295008127363025,0.000937773062329744,-0.0032307101204857606, ,0.020275259026294058, ,0.0343077934433483, ,7.558617348035583e-05, ,0.16440926015936558,-0.23020694424775842,0.09857637305000001,-4.5299318490961795,0.16246079822110868,-1.355124948659121, ,0.05601944602034875,0.034927103996492743,0.01954455401226994,0.012156747698753809,0.0649395933416555,-0.05816648034902805, ,1.226243019104004
0.01321586978138543,0.021242903326900927,-0.08850002071517293, ,0.013722205951050422,0.021002948757825032,-0.08909388748784286, ,0.0008164755082749315, ,0.007611294052325553,0.0014331553471522685,-0.01873767320622497,0.034295008127363025,0.000937773062329744,-0.0032307101204857606, ,0.020275259026294058, ,0.0343077934433483, ,7.640408885876618e-05, ,0.16440926015936558,-0.23020694424775842,0.09857637305000001,-4.5299318490961795,0.16246079822110868,-1.355124948659121, ,0.05601944602034875,0.034927103996492743,0.01954455401226994,0.012156747698753809,0.0649395933416555,-0.05816648034902805, ,1.2313129901885986
0.013294718264461571,0.021257081992710036,-0.08869553350586226, ,0.013762550574244237,0.021002314244992455,-0.0891760348026025, ,0.0007173947111059044, ,0.007757526290752915,0.0013137752085969545,-0.01940190657875675,0.0029039598275100273,-0.00871401964923488,-0.0006415262523318866, ,0.020936551729959046, ,0.00918500799278866, ,7.70783740031441e-05, ,0.16497301965918398,-0.22983625306979563,0.09877989058000002,-4.529722159152695,0.16300734422017046,-1.355570620273907, ,0.054822034406973294,0.03739044190641086,0.02016305255696203,0.006425395646153054,0.05119323916854057,-0.031793619832471656, ,1.2361559867858887
0.013294718264461571,0.021257081992710036,-0.08869553350586226, ,0.0138029054175169,0.021001572892380117,-0.08925793857815383, ,0.0007998990862734898, ,0.0075185889455983805,0.0009684375067121023,-0.017318614290598604,0.013067585511668402,-0.0031532560478080454,0.0020850845474222903, ,0.018905064186185858, ,0.013442591149554987, ,7.78605802813615e-05, ,0.16497301965918398,-0.22983625306979563,0.09877989058000002,-4.529722159152695,0.16300734422017046,-1.355570620273907, ,0.054822034406973294,0.03739044190641086,0.02016305255696203,0.006425395646153054,0.05119323916854057,-0.031793619832471656, ,1.242711067199707
0.013370984756304851,0.02126786681540271,-0.08887873534080153, ,0.013843270299286432,0.021000725561226702,-0.08933959989451823, ,0.0007119088569926864, ,0.0075185889455983805,0.0009684375067121023,-0.017318614290598604,0.013067585511668402,-0.0031532560478080454,0.0020850845474222903, ,0.018905064186185858, ,0.013442591149554987, ,7.85158229062226e-05, ,0.16552905642612814,-0.22946556189183287,0.09897044521000001,-4.529722159152695,0.1635538902192322,-1.3559346131485521, ,0.05665489048266912,0.03586430142043491,0.018059877006802724,0.005857403766813469,0.06012937265947153,-0.03934507782785126, ,1.248901128768921
0.013370984756304851,0.02126786681540271,-0.08887873534080153, ,0.013883645038419285,0.02099977311075736,-0.08942101982921735, ,0.0007929484634606039, ,0.006941195994808955,0.00022611286168735156,-0.015269739084997413,0.0037441063520062246,-0.0018488781368048324,0.0016738035370262652, ,0.016774869912713777, ,0.004175626011390783, ,7.938456172814632e-05, ,0.1660850931930723,-0.2291025934467443,0.09913766662000001,-4.529722159152695,0.16423707271805943,-1.3564100239268937, ,0.05361409127597219,0.038311240031679766,0.015833808667992052,0.0053857341463982265,0.05748464764883228,-0.0328185784381557, ,1.2526819705963135
0.013442447727378537,0.021274078410237283,-0.0890392785667722, ,0.013924029454230703,0.020998716398187508,-0.08950219945727578, ,0.0007225240121841218, ,0.006941195994808955,0.00022611286168735156,-0.015269739084997413,0.0037441063520062246,-0.0018488781368048324,0.0016738035370262652, ,0.016774869912713777, ,0.004175626011390783, ,8.015262015965563e-05, ,0.1660850931930723,-0.2291025934467443,0.09913766662000001,-4.529722159152695,0.16423707271805943,-1.3564100239268937, ,0.05361409127597219,0.038311240031679766,0.015833808667992052,0.0053857341463982265,0.05748464764883228,-0.0328185784381557, ,1.2561860084533691
0.013442447727378537,0.021274078410237283,-0.0890392785667722, ,0.013964423366483993,0.02099755627872371,-0.08958313985122329, ,0.0008029372041206907, ,0.006941195994808955,0.00022611286168735156,-0.015269739084997413,0.0037441063520062246,-0.0018488781368048324,0.0016738035370262652, ,0.016774869912713777, ,0.004175626011390783, ,8.102576141482053e-05, ,0.1660850931930723,-0.2291025934467443,0.09913766662000001,-4.529722159152695,0.16423707271805943,-1.3564100239268937, ,0.05361409127597219,0.038311240031679766,0.015833808667992052,0.0053857341463982265,0.05748464764883228,-0.0328185784381557, ,1.259580135345459
0.01351382098938695,0.021273978625259662,-0.08918667584261772, ,0.014004826595389921,0.02099629360556487,-0.08966384208109687, ,0.0007388390179420602, ,0.00772685892616517,-8.412800327123419e-05,-0.015365151453621861,-0.0015803431043897986,-0.007504096393730418,0.0021734764629186758, ,0.017198816981947647, ,0.007668643334975583, ,8.180731628624658e-05, ,0.1666488526928907,-0.22870873407015885,0.09929062884,-4.529722159152695,0.16478361871712116,-1.3566923380613982, ,0.0621053282450725,0.04200838493070862,0.01597674174523571,0.004985983786128429,0.060244255660820444,-0.030789315895325933, ,1.2642240524291992
0.01351382098938695,0.021273978625259662,-0.08918667584261772, ,0.014045238961606702,0.020994929229905,-0.08974430721444314, ,0.0008192840612936737, ,0.00772685892616517,-8.412800327123419e-05,-0.015365151453621861,-0.0015803431043897986,-0.007504096393730418,0.0021734764629186758, ,0.017198816981947647, ,0.007668643334975583, ,8.269335605478872e-05, ,0.1666488526928907,-0.22870873407015885,0.09929062884,-4.529722159152695,0.16478361871712116,-1.3566923380613982, ,0.0621053282450725,0.04200838493070862,0.01597674174523571,0.004985983786128429,0.060244255660820444,-0.030789315895325933, ,1.2677381038665771
0.01351382098938695,0.021273978625259662,-0.08918667584261772, ,0.014085660286239664,0.02099346400093523,-0.08982453631632122, ,0.0009014181159695719, ,0.00772685892616517,-8.412800327123419e-05,-0.015365151453621861,-0.0015803431043897986,-0.007504096393730418,0.0021734764629186758, ,0.017198816981947647, ,0.007668643334975583, ,8.36853121246809e-05, ,0.1666488526928907,-0.22870873407015885,0.09929062884,-4.529722159152695,0.16478361871712116,-1.3566923380613982, ,0.0621053282450725,0.04200838493070862,0.01597674174523571,0.004985983786128429,0.060244255660820444,-0.030789315895325933, ,1.2710940837860107
0.013597672597807213,0.02127286552095159,-0.08935738609116356, ,0.0141260903908402,0.020991898765843228,-0.08990453044930305, ,0.000810885090573164, ,0.007890720739995208,0.00022551330858812879,-0.01710139152683998,0.05848033077576757,0.01751346790834596,0.009202238195343418, ,0.0188353901526678, ,0.06104645102799305, ,8.455025092350322e-05, ,0.1673438986515709,-0.22823764736483115,0.09946822057000002,-4.529722159152695,0.16574007421547926,-1.3572272271668513, ,0.06398984595985892,0.04347088481835583,0.01779755477094972,0.0046114687787293315,0.0965700492754019,-0.0877677081790117, ,1.2747929096221924
0.013597672597807213,0.02127286552095159,-0.08935738609116356, ,0.01416652909740597,0.02099023436981713,-0.08998429067347842, ,0.0008924614501784992, ,0.007890720739995208,0.00022551330858812879,-0.01710139152683998,0.05848033077576757,0.01751346790834596,0.009202238195343418, ,0.0188353901526678, ,0.06104645102799305, ,8.55199036692559e-05, ,0.1673438986515709,-0.22823764736483115,0.09946822057000002,-4.529722159152695,0.16574007421547926,-1.3572272271668513, ,0.06398984595985892,0.04347088481835583,0.01779755477094972,0.0046114687787293315,0.0965700492754019,-0.0877677081790117, ,1.2780930995941162
0.013597672597807213,0.02127286552095159,-0.08935738609116356, ,0.014206976228380642,0.020988471656047496,-0.09006381804645483, ,0.0009752829805147306, ,0.007890720739995208,0.00022551330858812879,-0.01710139152683998,0.05848033077576757,0.01751346790834596,0.009202238195343418, ,0.0188353901526678, ,0.06104645102799305, ,8.65950950772455e-05, ,0.1673438986515709,-0.22823764736483115,0.09946822057000002,-4.529722159152695,0.16574007421547926,-1.3572272271668513, ,0.06398984595985892,0.04347088481835583,0.01779755477094972,0.0046114687787293315,0.0965700492754019,-0.0877677081790117, ,1.281299114227295
0.013680158520126547,0.021275695504338266,-0.0895315370633413, ,0.014247431606652705,0.02098661146572676,-0.09014311362336136, ,0.0008828330673705095, ,0.008796296727591116,0.00035917943459381574,-0.018691893740922706,0.03494256617305841,0.015857111833822154,-0.0008498206888721522, ,0.020661334361749502, ,0.03837223794264557, ,8.754128558020019e-05, ,0.16800033094588,-0.22779745159100037,0.09964970117000001,-4.529302779265726,0.1665598932140719,-1.3578140558488894, ,0.0705553468836214,0.04622354678931845,0.01949670932680539,0.015241331120605932,0.09595160590332177,-0.0650344914509009, ,1.2850959300994873
0.013680158520126547,0.021275695504338266,-0.0895315370633413, ,0.014287895055556214,0.020984654638054323,-0.09022217845685003, ,0.0009649010398849434, ,0.008796296727591116,0.00035917943459381574,-0.018691893740922706,0.03494256617305841,0.015857111833822154,-0.0008498206888721522, ,0.020661334361749502, ,0.03837223794264557, ,8.859157609712113e-05, ,0.16800033094588,-0.22779745159100037,0.09964970117000001,-4.529302779265726,0.1665598932140719,-1.3578140558488894, ,0.0705553468836214,0.04622354678931845,0.01949670932680539,0.015241331120605932,0.09595160590332177,-0.0650344914509009, ,1.2888829708099365
0.013680158520126547,0.021275695504338266,-0.0895315370633413, ,0.014328366398869277,0.02098260201023469,-0.09030101359709854, ,0.0010479367282202896, ,0.008796296727591116,0.00035917943459381574,-0.018691893740922706,0.03494256617305841,0.015857111833822154,-0.0008498206888721522, ,0.020661334361749502, ,0.03837223794264557, ,8.97464216886676e-05, ,0.16800033094588,-0.22779745159100037,0.09964970117000001,-4.529302779265726,0.1665598932140719,-1.3578140558488894, ,0.0705553468836214,0.04622354678931845,0.01949670932680539,0.015241331120605932,0.09595160590332177,-0.0650344914509009, ,1.2923381328582764
0.013776446668774672,0.0212807481221442,-0.08974569477473156, ,0.01436884546081448,0.02098045441748229,-0.09037962009181216, ,0.000918136125803545, ,0.009712291353383093,0.0005698385842783235,-0.022289692783151877,0.02365390791827826,0.015166225065941317,-0.0013419978600723913, ,0.02432043839474168, ,0.02809833163302336, ,9.072346306753826e-05, ,0.16875715876755398,-0.22728002848842732,0.09987266305,-4.529093089322242,0.16765298521219543,-1.3585420415981795, ,0.07367774965719781,0.05277916660649098,0.023152342325581398,0.015187089443930164,0.09776495728445184,-0.05988047267395781, ,1.295607089996338
0.013776446668774672,0.0212807481221442,-0.08974569477473156, ,0.014409332066057892,0.020978212693020477,-0.09045799898622658, ,0.000999724412867349, ,0.009712291353383093,0.0005698385842783235,-0.022289692783151877,0.02365390791827826,0.015166225065941317,-0.0013419978600723913, ,0.02432043839474168, ,0.02809833163302336, ,9.180298481784469e-05, ,0.16875715876755398,-0.22728002848842732,0.09987266305,-4.529093089322242,0.16765298521219543,-1.3585420415981795, ,0.07367774965719781,0.05277916660649098,0.023152342325581398,0.015187089443930164,0.09776495728445184,-0.05988047267395781, ,1.2988269329071045
0.013776446668774672,0.0212807481221442,-0.08974569477473156, ,0.014449826039709021,0.0209758776680852,-0.09053615132310866, ,0.0010822233253032039, ,0.009712291353383093,0.0005698385842783235,-0.022289692783151877,0.02365390791827826,0.015166225065941317,-0.0013419978600723913, ,0.02432043839474168, ,0.02809833163302336, ,9.298537607530194e-05, ,0.16875715876755398,-0.22728002848842732,0.09987266305,-4.529093089322242,0.16765298521219543,-1.3585420415981795, ,0.07367774965719781,0.05277916660649098,0.023152342325581398,0.015187089443930164,0.09776495728445184,-0.05988047267395781, ,1.302098035812378
0.013871913073674387,0.02129100879524065,-0.08997502588657244, ,0.014490327207320767,0.02097345017192713,-0.09061407814276172, ,0.000944281370183162, ,0.009973276576439951,0.0014117864015724215,-0.02438750309737958,0.011559918437445697,0.015736461833151284,0.0006365312651548394, ,0.026385785829467528, ,0.01952586281744504, ,9.398053436668326e-05, ,0.16945992745910843,-0.22678577358447696,0.10011118041000001,-4.528883399378757,0.16860944071055353,-1.3590769307036328, ,0.07194612703447369,0.04876512926951222,0.02540480306220096,0.013561917281474196,0.09470786289706085,-0.04434766433870008, ,1.3053429126739502
0.013871913073674387,0.02129100879524065,-0.08997502588657244, ,0.014530835394888066,0.02097093103181106,-0.0906917804830243, ,0.0010248734319761542, ,0.009973276576439951,0.0014117864015724215,-0.02438750309737958,0.011559918437445697,0.015736461833151284,0.0006365312651548394, ,0.026385785829467528, ,0.01952586281744504, ,9.507596939710577e-05, ,0.16945992745910843,-0.22678577358447696,0.10011118041000001,-4.528883399378757,0.16860944071055353,-1.3590769307036328, ,0.07194612703447369,0.04876512926951222,0.02540480306220096,0.013561917281474196,0.09470786289706085,-0.04434766433870008, ,1.3091299533843994
0.013871913073674387,0.02129100879524065,-0.08997502588657244, ,0.01457135042884839,0.020968321073019835,-0.09076925937927457, ,0.0011064116868574252, ,0.009973276576439951,0.0014117864015724215,-0.02438750309737958,0.011559918437445697,0.015736461833151284,0.0006365312651548394, ,0.026385785829467528, ,0.01952586281744504, ,9.627213094810212e-05, ,0.16945992745910843,-0.22678577358447696,0.10011118041000001,-4.528883399378757,0.16860944071055353,-1.3590769307036328, ,0.07194612703447369,0.04876512926951222,0.02540480306220096,0.013561917281474196,0.09470786289706085,-0.04434766433870008, ,1.3128221035003662
0.013978189820772815,0.0213030386973151,-0.09022778420451306, ,0.014611872136081063,0.020965621118855665,-0.09084651586443263, ,0.0009477514262583132, ,0.010849894693249349,0.0009454627183524671,-0.026036856683444545,0.015170083362659952,0.00831254677081963,0.048271417988852545, ,0.028222898868837443, ,0.017297915979068795, ,9.725547361003196e-05, ,0.17023220074653087,-0.22625290501615547,0.10037432728000001,-4.528673709435273,0.16956589620891158,-1.359611819809086, ,0.07941166657612617,0.057029411994273305,0.02704382261460102,-0.034680411427731435,0.10861915083978553,-0.06224014127519967, ,1.3170640468597412
0.013978189820772815,0.0213030386973151,-0.09022778420451306, ,0.014652400343906488,0.020962831990639957,-0.09092355096896108, ,0.0010268358307350765, ,0.010849894693249349,0.0009454627183524671,-0.026036856683444545,0.015170083362659952,0.00831254677081963,0.048271417988852545, ,0.028222898868837443, ,0.017297915979068795, ,9.833641501719432e-05, ,0.17023220074653087,-0.22625290501615547,0.10037432728000001,-4.528673709435273,0.16956589620891158,-1.359611819809086, ,0.07941166657612617,0.057029411994273305,0.02704382261460102,-0.034680411427731435,0.10861915083978553,-0.06224014127519967, ,1.3203239440917969
0.014092663900025854,0.021312640073290062,-0.09049975826118213, ,0.014692934880086614,0.020959954507718592,-0.09100036572086956, ,0.0008575081261190892, ,0.01105281731066616,0.000736168816151348,-0.025778619636031994,-0.002773083703082819,6.574795522989465e-05,0.038338440400626506, ,0.02805786779796443, ,0.002771810225944432, ,9.919241928673408e-05, ,0.17106625589694713,-0.22565053185196596,0.10065691850000001,-4.528673709435273,0.17065898820703512,-1.3602581268182359, ,0.08042113691395829,0.05825472164424235,0.02677111179831933,-0.027046614587059203,0.09687593371510383,-0.04577515561844735, ,1.3236629962921143
0.014092663900025854,0.021312640073290062,-0.09049975826118213, ,0.014733475572823503,0.020956989487459977,-0.0910769611457151, ,0.0009328934071522796, ,0.01105281731066616,0.000736168816151348,-0.025778619636031994,-0.002773083703082819,6.574795522989465e-05,0.038338440400626506, ,0.02805786779796443, ,0.002771810225944432, ,0.00010027094579108796, ,0.17106625589694713,-0.22565053185196596,0.10065691850000001,-4.528673709435273,0.17065898820703512,-1.3602581268182359, ,0.08042113691395829,0.05825472164424235,0.02677111179831933,-0.027046614587059203,0.09687593371510383,-0.04577515561844735, ,1.3253381252288818
0.014092663900025854,0.021312640073290062,-0.09049975826118213, ,0.014774022250759963,0.020953937745259877,-0.09115333826660577, ,0.001009991775084796, ,0.01105281731066616,0.000736168816151348,-0.025778619636031994,-0.002773083703082819,6.574795522989465e-05,0.038338440400626506, ,0.02805786779796443, ,0.002771810225944432, ,0.00010144629569973616, ,0.17106625589694713,-0.22565053185196596,0.10065691850000001,-4.528673709435273,0.17065898820703512,-1.3602581268182359, ,0.08042113691395829,0.05825472164424235,0.02677111179831933,-0.027046614587059203,0.09687593371510383,-0.04577515561844735, ,1.326970100402832
0.014092663900025854,0.021312640073290062,-0.09049975826118213, ,0.014814574742978174,0.02095080009454024,-0.09122949810420145, ,0.0010883949990162832, ,0.01105281731066616,0.000736168816151348,-0.025778619636031994,-0.002773083703082819,6.574795522989465e-05,0.038338440400626506, ,0.02805786779796443, ,0.002771810225944432, ,0.00010271977789756395, ,0.17106625589694713,-0.22565053185196596,0.10065691850000001,-4.528673709435273,0.17065898820703512,-1.3602581268182359, ,0.08042113691395829,0.05825472164424235,0.02677111179831933,-0.027046614587059203,0.09687593371510383,-0.04577515561844735, ,1.3286559581756592
0.014092663900025854,0.021312640073290062,-0.09049975826118213, ,0.014855132879000213,0.020947577346754134,-0.09130544167671817, ,0.0011677994281013594, ,0.01105281731066616,0.000736168816151348,-0.025778619636031994,-0.002773083703082819,6.574795522989465e-05,0.038338440400626506, ,0.02805786779796443, ,0.002771810225944432, ,0.00010409230321999152, ,0.17106625589694713,-0.22565053185196596,0.10065691850000001,-4.528673709435273,0.17065898820703512,-1.3602581268182359, ,0.08042113691395829,0.05825472164424235,0.02677111179831933,-0.027046614587059203,0.09687593371510383,-0.04577515561844735, ,1.3304691314697266
0.014092663900025854,0.021312640073290062,-0.09049975826118213, ,0.014895696488787065,0.02094427031138459,-0.09138116999992835, ,0.0012479760708036245, ,0.01105281731066616,0.000736168816151348,-0.025778619636031994,-0.002773083703082819,6.574795522989465e-05,0.038338440400626506, ,0.02805786779796443, ,0.002771810225944432, ,0.00010556448310105153, ,0.17106625589694713,-0.22565053185196596,0.10065691850000001,-4.528673709435273,0.17065898820703512,-1.3602581268182359, ,0.08042113691395829,0.05825472164424235,0.02677111179831933,-0.027046614587059203,0.09687593371510383,-0.04577515561844735, ,1.3323979377746582
0.01420284863509442,0.021315894363182278,-0.09074167102042982, ,0.014936265402738355,0.020940879795948178,-0.09145668408716431, ,0.00109077026284187, ,0.012110505906112888,-2.814747794223924e-05,-0.02527695103655832,-0.001082338671454455,-0.005090467833238245,0.009597809585722221, ,0.02802836775995128, ,0.0052032683092258355, ,0.00010683081443747931, ,0.17189258831448914,-0.2250636041535249,0.10090839876,-4.528883399378757,0.1716154437053932,-1.360793015923689, ,0.09222248936683264,0.06553656184977263,0.02628516752475248,0.0015354141972963337,0.09768793730089158,-0.049842762371008355, ,1.3344011306762695
0.01420284863509442,0.021315894363182278,-0.09074167102042982, ,0.014976839451692097,0.020937406605995808,-0.09153198494931981, ,0.0011691496365799894, ,0.012110505906112888,-2.814747794223924e-05,-0.02527695103655832,-0.001082338671454455,-0.005090467833238245,0.009597809585722221, ,0.02802836775995128, ,0.0052032683092258355, ,0.00010819450997296392, ,0.17189258831448914,-0.2250636041535249,0.10090839876,-4.528883399378757,0.1716154437053932,-1.360793015923689, ,0.09222248936683264,0.06553656184977263,0.02628516752475248,0.0015354141972963337,0.09768793730089158,-0.049842762371008355, ,1.336210012435913
0.01420284863509442,0.021315894363182278,-0.09074167102042982, ,0.015017418466924093,0.020933851545114828,-0.09160707359485301, ,0.0012483598606100026, ,0.012110505906112888,-2.814747794223924e-05,-0.02527695103655832,-0.001082338671454455,-0.005090467833238245,0.009597809585722221, ,0.02802836775995128, ,0.0052032683092258355, ,0.0006023372051376683, ,0.17189258831448914,-0.2250636041535249,0.10090839876,-4.528883399378757,0.1716154437053932,-1.360793015923689, ,0.09222248936683264,0.06553656184977263,0.02628516752475248,0.0015354141972963337,0.09768793730089158,-0.049842762371008355, ,1.337913990020752
0.01420284863509442,0.021315894363182278,-0.09074167102042982, ,0.015058002280147765,0.020930215414930876,-0.09168195102978827, ,0.0013282177922959205, ,0.012110505906112888,-2.814747794223924e-05,-0.02527695103655832,-0.001082338671454455,-0.005090467833238245,0.009597809585722221, ,0.02802836775995128, ,0.0052032683092258355, ,0.000607413293159754, ,0.17189258831448914,-0.2250636041535249,0.10090839876,-4.528883399378757,0.1716154437053932,-1.360793015923689, ,0.09222248936683264,0.06553656184977263,0.02628516752475248,0.0015354141972963337,0.09768793730089158,-0.049842762371008355, ,1.3395929336547852
0.01420284863509442,0.021315894363182278,-0.09074167102042982, ,0.015098590723513692,0.02092649901510951,-0.0917566182577182, ,0.0014085810308767323, ,0.012110505906112888,-2.814747794223924e-05,-0.02527695103655832,-0.001082338671454455,-0.005090467833238245,0.009597809585722221, ,0.02802836775995128, ,0.0052032683092258355, ,0.0006129769580050108, ,0.17189258831448914,-0.2250636041535249,0.10090839876,-4.528883399378757,0.1716154437053932,-1.360793015923689, ,0.09222248936683264,0.06553656184977263,0.02628516752475248,0.0015354141972963337,0.09768793730089158,-0.049842762371008355, ,1.341275930404663
0.01420284863509442,0.021315894363182278,-0.09074167102042982, ,0.01513918362960896,0.0209227031433575,-0.09183107627980674, ,0.001489337562964804, ,0.013083909130869336,0.0006261362476132791,-0.028614048900360952,0.046592000828530815,0.03450555120297878,0.02044239976830921, ,0.02802836775995128, ,0.0052032683092258355, ,0.0006190208242461128, ,0.17287337538951564,-0.2244071718592158,0.10118710111000001,-4.528883399378757,0.17284517220328216,-1.361387383356254, ,0.10063302392202628,0.06622256912663697,0.02933482784530387,0.002547180950328065,0.148730160897767,-0.08749050908385021, ,1.343662977218628
0.01432990615563766,0.021319161926343744,-0.09100870738559595, ,0.01517978083145726,0.020918828595425498,-0.0919053260947908, ,0.001298645005427501, ,0.013083909130869336,0.0006261362476132791,-0.028614048900360952,0.046592000828530815,0.03450555120297878,0.02044239976830921, ,0.03146973973863891, ,0.05797782699367461, ,0.0006236757843911909, ,0.17287337538951564,-0.2244071718592158,0.10118710111000001,-4.528883399378757,0.17284517220328216,-1.361387383356254, ,0.10063302392202628,0.06622256912663697,0.02933482784530387,0.002547180950328065,0.148730160897767,-0.08749050908385021, ,1.3455400466918945
0.01432990615563766,0.021319161926343744,-0.09100870738559595, ,0.01522038216251807,0.020914876165108866,-0.09197936869898217, ,0.0013778889218190266, ,0.013083909130869336,0.0006261362476132791,-0.028614048900360952,0.046592000828530815,0.03450555120297878,0.02044239976830921, ,0.03146973973863891, ,0.05797782699367461, ,0.0006288064860063463, ,0.17287337538951564,-0.2244071718592158,0.10118710111000001,-4.528883399378757,0.17284517220328216,-1.361387383356254, ,0.10063302392202628,0.06622256912663697,0.02933482784530387,0.002547180950328065,0.148730160897767,-0.08749050908385021, ,1.3471620082855225
0.01432990615563766,0.021319161926343744,-0.09100870738559595, ,0.015260987456686559,0.020910846644250154,-0.0920532050862711, ,0.0014576039261300542, ,0.013083909130869336,0.0006261362476132791,-0.028614048900360952,0.046592000828530815,0.03450555120297878,0.02044239976830921, ,0.03146973973863891, ,0.05797782699367461, ,0.0006344064687098848, ,0.17287337538951564,-0.2244071718592158,0.10118710111000001,-4.528883399378757,0.17284517220328216,-1.361387383356254, ,0.10063302392202628,0.06622256912663697,0.02933482784530387,0.002547180950328065,0.148730160897767,-0.08749050908385021, ,1.3488690853118896
0.01432990615563766,0.021319161926343744,-0.09100870738559595, ,0.015301596548293068,0.0209067408227405,-0.09212683624812736, ,0.0015376883751599044, ,0.013083909130869336,0.0006261362476132791,-0.028614048900360952,0.046592000828530815,0.03450555120297878,0.02044239976830921, ,0.03146973973863891, ,0.05797782699367461, ,0.000640468763384046, ,0.17287337538951564,-0.2244071718592158,0.10118710111000001,-4.528883399378757,0.17284517220328216,-1.361387383356254, ,0.10063302392202628,0.06622256912663697,0.02933482784530387,0.002547180950328065,0.148730160897767,-0.08749050908385021, ,1.3505620956420898
0.01432990615563766,0.021319161926343744,-0.09100870738559595, ,0.015342209272102602,0.020902559488521308,-0.09220026317360289, ,0.0016180606869759414, ,0.013083909130869336,0.0006261362476132791,-0.028614048900360952,0.046592000828530815,0.03450555120297878,0.02044239976830921, ,0.03146973973863891, ,0.05797782699367461, ,0.0006469860428746586, ,0.17287337538951564,-0.2244071718592158,0.10118710111000001,-4.528883399378757,0.17284517220328216,-1.361387383356254, ,0.10063302392202628,0.06622256912663697,0.02933482784530387,0.002547180950328065,0.148730160897767,-0.08749050908385021, ,1.3523240089416504
0.014456713677768114,0.021326065603627348,-0.09129574160995522, ,0.015382825463314377,0.020898303427585124,-0.09227348684933355, ,0.0014130284044232956, ,0.014744098943641258,0.0010166046866150063,-0.03498469432087271,0.09285349798154864,0.07112475912976178,0.0281420070723658, ,0.03797829347763843, ,0.11696346028371901, ,0.000652059171096835, ,0.17384643973166794,-0.22373529409915827,0.1014865441,-4.528673709435273,0.17448481020046747,-1.36256104072033, ,0.11164346065702443,0.07941166657612617,0.03645036961098399,0.00455247184457405,0.2098600234699024,-0.14190162976953521, ,1.3540809154510498
0.014456713677768114,0.021326065603627348,-0.09129574160995522, ,0.015423444957562043,0.0208939734239799,-0.09234650825954309, ,0.00149177195674493, ,0.014744098943641258,0.0010166046866150063,-0.03498469432087271,0.09285349798154864,0.07112475912976178,0.0281420070723658, ,0.03797829347763843, ,0.11696346028371901, ,0.0006575835973182041, ,0.17384643973166794,-0.22373529409915827,0.1014865441,-4.528673709435273,0.17448481020046747,-1.36256104072033, ,0.11164346065702443,0.07941166657612617,0.03645036961098399,0.00455247184457405,0.2098600234699024,-0.14190162976953521, ,1.3559811115264893
0.014456713677768114,0.021326065603627348,-0.09129574160995522, ,0.015464067590912647,0.020889570259808213,-0.09241932838604328, ,0.0015709033499561097, ,0.014744098943641258,0.0010166046866150063,-0.03498469432087271,0.09285349798154864,0.07112475912976178,0.0281420070723658, ,0.03797829347763843, ,0.11696346028371901, ,0.0006635530074661642, ,0.17384643973166794,-0.22373529409915827,0.1014865441,-4.528673709435273,0.17448481020046747,-1.36256104072033, ,0.11164346065702443,0.07941166657612617,0.03645036961098399,0.00455247184457405,0.2098600234699024,-0.14190162976953521, ,1.3577821254730225
0.014456713677768114,0.021326065603627348,-0.09129574160995522, ,0.01550469319986621,0.02088509471522967,-0.09249194820823718, ,0.0016503413673917536, ,0.014744098943641258,0.0010166046866150063,-0.03498469432087271,0.09285349798154864,0.07112475912976178,0.0281420070723658, ,0.03797829347763843, ,0.11696346028371901, ,0.0006699607240890576, ,0.17384643973166794,-0.22373529409915827,0.1014865441,-4.528673709435273,0.17448481020046747,-1.36256104072033, ,0.11164346065702443,0.07941166657612617,0.03645036961098399,0.00455247184457405,0.2098600234699024,-0.14190162976953521, ,1.359687089920044
0.014456713677768114,0.021326065603627348,-0.09129574160995522, ,0.01554532162135593,0.020880547568463442,-0.09256436870312194, ,0.0017300197328398998, ,0.014744098943641258,0.0010166046866150063,-0.03498469432087271,0.09285349798154864,0.07112475912976178,0.0281420070723658, ,0.03797829347763843, ,0.11696346028371901, ,0.0006767998144680954, ,0.17384643973166794,-0.22373529409915827,0.1014865441,-4.528673709435273,0.17448481020046747,-1.36256104072033, ,0.11164346065702443,0.07941166657612617,0.03645036961098399,0.00455247184457405,0.2098600234699024,-0.14190162976953521, ,1.3614990711212158
0.014456713677768114,0.021326065603627348,-0.09129574160995522, ,0.015585952692747252,0.020875929595789294,-0.09263659084528972, ,0.0018098839328533004, ,0.016468937570808518,0.0021324421987936135,-0.040922707981704116,0.08230386296688626,0.07131022471035553,0.015406463739026996, ,0.04416380014217769, ,0.10889884865895792, ,0.0006840631742013339, ,0.17384643973166794,-0.22373529409915827,0.1014865441,-4.528673709435273,0.17448481020046747,-1.36256104072033, ,0.11164346065702443,0.07941166657612617,0.03645036961098399,0.00455247184457405,0.2098600234699024,-0.14190162976953521, ,1.363508939743042
0.014630386961403093,0.021344087415467828,-0.0917167934321573, ,0.015626586251837615,0.020871241571549314,-0.09270861560693125, ,0.0014831410737844804, ,0.016468937570808518,0.0021324421987936135,-0.040922707981704116,0.08230386296688626,0.07131022471035553,0.015406463739026996, ,0.04416380014217769, ,0.10889884865895792, ,0.000689152842351545, ,0.17513613612166343,-0.22283945708574823,0.10192598641000002,-4.528254329548303,0.1769442671962454,-1.3641581692861628, ,0.1178843994515165,0.08180770824006102,0.04270458852546917,0.017951073606807092,0.21188658620869918,-0.13096564299225724, ,1.3652939796447754
0.014630386961403093,0.021344087415467828,-0.0917167934321573, ,0.015667222136856715,0.02086648426815125,-0.09278044395783808, ,0.0015602834319974163, ,0.016468937570808518,0.0021324421987936135,-0.040922707981704116,0.08230386296688626,0.07131022471035553,0.015406463739026996, ,0.04416380014217769, ,0.10889884865895792, ,0.0006946663270961392, ,0.17513613612166343,-0.22283945708574823,0.10192598641000002,-4.528254329548303,0.1769442671962454,-1.3641581692861628, ,0.1178843994515165,0.08180770824006102,0.04270458852546917,0.017951073606807092,0.21188658620869918,-0.13096564299225724, ,1.366960048675537
0.014630386961403093,0.021344087415467828,-0.0917167934321573, ,0.015707860186464265,0.020861658456065944,-0.09285207686540278, ,0.0016378506419679898, ,0.016468937570808518,0.0021324421987936135,-0.040922707981704116,0.08230386296688626,0.07131022471035553,0.015406463739026996, ,0.04416380014217769, ,0.10889884865895792, ,0.0007005983039192326, ,0.17513613612166343,-0.22283945708574823,0.10192598641000002,-4.528254329548303,0.1769442671962454,-1.3641581692861628, ,0.1178843994515165,0.08180770824006102,0.04270458852546917,0.017951073606807092,0.21188658620869918,-0.13096564299225724, ,1.3686449527740479
0.014630386961403093,0.021344087415467828,-0.0917167934321573, ,0.01574850023975185,0.02085676490383421,-0.09292351529462396, ,0.0017157616929281614, ,0.016468937570808518,0.0021324421987936135,-0.040922707981704116,0.08230386296688626,0.07131022471035553,0.015406463739026996, ,0.04416380014217769, ,0.10889884865895792, ,0.0007069430751005383, ,0.17513613612166343,-0.22283945708574823,0.10192598641000002,-4.528254329548303,0.1769442671962454,-1.3641581692861628, ,0.1178843994515165,0.08180770824006102,0.04270458852546917,0.017951073606807092,0.21188658620869918,-0.13096564299225724, ,1.370331048965454
0.014630386961403093,0.021344087415467828,-0.0917167934321573, ,0.015789142136241312,0.020851804378065934,-0.09299476020810717, ,0.0017939496159479172, ,0.016468937570808518,0.0021324421987936135,-0.040922707981704116,0.08230386296688626,0.07131022471035553,0.015406463739026996, ,0.04416380014217769, ,0.10889884865895792, ,0.0007136946685219506, ,0.17513613612166343,-0.22283945708574823,0.10192598641000002,-4.528254329548303,0.1769442671962454,-1.3641581692861628, ,0.1178843994515165,0.08180770824006102,0.04270458852546917,0.017951073606807092,0.21188658620869918,-0.13096564299225724, ,1.3719711303710938
0.014630386961403093,0.021344087415467828,-0.0917167934321573, ,0.015829785715884476,0.020846777643442043,-0.09306581256606719, ,0.0018723586743086432, ,0.018890047894172958,0.00218124802076397,-0.045080437809012726,0.008455177810698222,-0.008187485576328762,-0.01814451227098007, ,0.048926859958763946, ,0.011761750236045075, ,0.0007208469154712512, ,0.17637177338153937,-0.22196678827096086,0.10237450275000001,-4.528044639604819,0.17858390519343065,-1.3651684691699575, ,0.12636077437878931,0.08969465175658865,0.04698764460176992,0.03173316100752974,0.12651725867734873,-0.07405665284612918, ,1.3738970756530762
