NicholasDascanio/dvrk_moveit_final/test/execution/third_experiment_notsharpbends/thirdexp_700vel4.0/thirdexp_700vel4.0_24.csv
Current Position (x),Current Position (y),Current Position (z), ,Planned Position (x),Planned Position (y),Planned Position (z), ,Position Error,,Cartesian linear Velocity(x),Cartesian linear Velocity(y),Cartesian linear Velocity(z),Cartesian Angular Velocity(x),Cartesian Angular Velocity(y),Cartesian Angular Velocity(z), ,Total Linear Velocity, ,Total Angular Velocity, ,MSE, ,Joint 1 Position,Joint 2 Position,Joint 3 Position,Joint 4 Position,Joint 5 Position,Joint 6 Position, ,Joint 1 Velocity,Joint 2 Velocity,Joint 3 Velocity,Joint 4 Velocity,Joint 5 Velocity,Joint 6 Velocity, ,Time Stamp
0.010140429369231188,0.019778261503852878,-0.08008050376055358, ,0.010259768457818593,0.019708895745061968,-0.08016777310497385, ,0.00016330757800253785, ,-1.3825702548063937e-05,-3.160627514266103e-05,-9.556829679684135e-06,-0.013931714547728343,-7.494951833811832e-05,0.010436975520296649, ,3.579720202568388e-05, ,0.013931916152119372, ,1.3608964833544821e-05, ,0.20675300450873857,-0.222453320442037,0.09227381107,1.8029141340799404,0.8266508235809147,-1.2124228936297952, ,-0.00018513435139953877,0.00036217540458255193,0.0,-0.0003882089144872312,0.0,0.016884972077202187, ,0.0169827938079834
0.01014008325520873,0.01978029999921515,-0.08008587284635998, ,0.010273227348630032,0.01974195065250767,-0.08020732878415315, ,0.00018425408226438, ,-0.00022206457924552804,-0.0002203616801779284,0.0011132155597764002,0.12502360150098657,0.0018454341205788516,-0.09489039863460479, ,0.001156339409505106, ,0.12503722069596956, ,1.5798257284859904e-05, ,0.20674528177586435,-0.22246104317491122,0.09228029252000002,1.8029141340799404,0.8267874600806802,-1.2149846737377086, ,0.00010954043680574439,-0.00030946536290494755,-0.0011559594675593018,0.0015392660787234846,0.0,-0.15562921319986245, ,0.0330049991607666
0.010154905792228474,0.01978915551917533,-0.08010484523975346, ,0.010286775829746006,0.019774720828071652,-0.08024700935329106, ,0.00019444459951375447, ,0.0007977769106445975,0.00027518750339741824,-0.00048547004583342256,0.15326103340216943,-0.08804809415958012,-0.17581879162218889, ,0.0009735796457328222, ,0.1767524009586154, ,1.6937695618146012e-05, ,0.20675300450873857,-0.2224842113735339,0.09229325542000001,1.8035432039103938,0.8252844585832603,-1.2182514075047788, ,0.00040440697206607363,-0.0011014130378749591,8.639344421337369e-06,0.02772030477791969,-0.10086128941098078,-0.20614181003283583, ,0.050813913345336914
0.010163812710558651,0.01979225757776962,-0.08011530682662851, ,0.010300413635215765,0.019807207409843944,-0.08028681426308845, ,0.00021976831176784536, ,0.0009350297220266355,0.0004809700557372566,-0.0010145329869211293,0.015193961494043052,-0.09365559314336241,-0.07297294558125762, ,0.0014611262632436034, ,0.09488006425438601, ,1.813748979877423e-05, ,0.20675300450873857,-0.22250737957215658,0.09229844058000002,1.8035432039103938,0.8241913665851368,-1.2195653902590027, ,0.00040440697206607363,-0.0021448948966064163,0.0005610412150695508,0.02772030477791969,-0.10502537264733523,-0.03324447470688907, ,0.06757283210754395
0.010183884702204419,0.01980214063893386,-0.0801498270132022, ,0.010314140499581733,0.019839411533826207,-0.08032674296510098, ,0.00022283389866160043, ,0.001317184781954097,0.0007612533528398095,-0.0022524262407883633,0.1620652141090667,-0.10876949345707247,-0.18284274936467107, ,0.002718070342580065, ,0.19518180327855306, ,1.89347782732715e-05, ,0.20677617270736123,-0.22255371596940193,0.09232566267,1.8035432039103938,0.8224150920881861,-1.2228543244391017, ,0.0008225467353214625,-0.002783980693080346,0.0017757872374581942,0.02142151018433342,-0.12074153031229444,-0.22071697643329036, ,0.08417797088623047
0.010212373233080054,0.01981695509520647,-0.08019972575696555, ,0.010327956157879205,0.01987133433393337,-0.08036679491173768, ,0.00021030600701339535, ,0.0015614759731753514,0.0009739366476180614,-0.0037160247114951216,-0.11703798435514833,-0.11048071169735056,0.03970484246916535, ,0.0041467577051016394, ,0.16094681555830936, ,1.9272814148766346e-05, ,0.20677617270736123,-0.2226154978323957,0.09236325508000001,1.8037528938538785,0.8195457255931118,-1.2239450555473805, ,0.000718604856204222,-0.002549483029236902,0.003304047193528314,0.004897384608823914,-0.11580199940282758,0.12378649855766938, ,0.1039419174194336
0.010224766361366043,0.019839281310263343,-0.08025566409163595, ,0.010341860345635674,0.019902976941995266,-0.0804069695562622, ,0.00020164691487753832, ,0.0005568284741121707,0.0011741573628716055,-0.002629148956641659,-0.10622377674379672,0.020312279502554605,0.06763714908294595, ,0.002932767924432074, ,0.1081484139697862, ,1.9396686001403495e-05, ,0.20677617270736123,-0.22269272516113797,0.09242418071000001,1.8041722737408477,0.8195457255931118,-1.2209229421621797, ,0.0008347229191463303,-0.004254936941995053,0.002995826879819448,0.027022039440089716,0.0171606746504322,0.14802730542558257, ,0.12015390396118164
0.010227331289629316,0.019850425689385193,-0.0802839727446834, ,0.0103558527988708,0.0199343404877581,-0.08044726635279076, ,0.00022410772894390776, ,0.00030812358209789586,0.0011588957193955588,-0.002711414363365681,-0.03365148866841809,0.057933924323517676,0.033170909684864955, ,0.0029647507956224433, ,0.06699822592410337, ,1.9764257573719016e-05, ,0.20677617270736123,-0.2227390615583833,0.09245788425000001,1.8041722737408477,0.8200922715921736,-1.2196533602340134, ,0.0007006593548103671,-0.003692134666013671,0.0032876803962848303,0.021978198599889334,0.057202313121492966,0.06485999520840643, ,0.14142394065856934
0.010230144628160534,0.01986833521031698,-0.08031687947244565, ,0.01036993325409558,0.019965426098886265,-0.08048768475629249, ,0.00024112640994711175, ,0.00012323346820986033,0.0007725253684998789,-0.0014415663505150818,0.03317561459831475,0.02780396760161467,-0.008792410377513701, ,0.0016401510526778552, ,0.04328604877280123, ,2.023690794556599e-05, ,0.20678389544023548,-0.222831734352874,0.09249936553,1.8043819636843321,0.8209120905907662,-1.219423401514646, ,0.0,-0.004744971064204699,0.0017722309212283047,0.0,0.02906492835705828,-0.02894369447798181, ,0.15780282020568848
0.01023827130702,0.019892691379878234,-0.08035186604388546, ,0.010384101448312326,0.019996234900963854,-0.08052822422258857, ,0.0002511770253499033, ,0.00044875126201446346,0.001199044424979819,-0.0019411894943533105,0.01142482671139782,0.0036423549201346256,-0.015440805066312588, ,0.0023253605916550703, ,0.011991389190670703, ,2.0715417219038964e-05, ,0.2067916181731097,-0.22297074354461005,0.09254084681000001,1.8050110335147855,0.8210487270905317,-1.2194531406782019, ,0.00017330530671374236,-0.007427497816024486,0.002218188486283248,0.017224916443875502,0.0,-0.000880341092820279, ,0.17470788955688477
0.01024980626147495,0.0199188041610668,-0.08039979512649041, ,0.010398357119013974,0.02002676801749641,-0.08056888420835248, ,0.00024962906316310806, ,0.0006578187535215716,0.0014710586671557052,-0.0025838484501069497,0.009924395638590397,0.0027188131925346827,-0.013011811319403689, ,0.0030451620528009144, ,0.010290071615494415, ,2.1094657317009665e-05, ,0.20679934090598392,-0.2231483664007172,0.09259399470000002,1.8050110335147855,0.8209120905907662,-1.2192600440343648, ,0.0010723345595273165,-0.00883484320064595,0.0029302449448123627,0.017224916443875502,0.0,0.002705574326660668, ,0.1965479850769043
0.010262622963009858,0.019949447025759393,-0.08044556359924693, ,0.010412700004183869,0.020057026569912217,-0.08060966417110821, ,0.00024703334652000807, ,0.0005803756630511133,0.0014648796618134063,-0.0018968683951103237,0.012821324249250454,0.0019468707902382148,-0.01359035211464495, ,0.0024659314755736813, ,0.012968294465878806, ,2.1390450541189267e-05, ,0.2068302318374808,-0.22334915745544703,0.09264714259000001,1.8054304134017547,0.8209120905907662,-1.2192600440343648, ,0.0018762436955156276,-0.010588889735202887,0.0022555666270178422,0.017302957562987466,0.0,0.0012548018986560244, ,0.21352386474609375
0.010271642478194398,0.019973925110927403,-0.08047321899075219, ,0.010427129842295253,0.02008701167756439,-0.08065056356923134, ,0.00026156450727252796, ,0.0006794741297784505,0.0016559462278907767,-0.0020333446052906105,0.015216214801995242,0.0003183070478794452,-0.010777011883305928, ,0.0027089358217883834, ,0.015219543759338872, ,2.191755323127953e-05, ,0.20686112276897772,-0.2235267803115542,0.09268084613000001,1.8058497932887239,0.8209120905907662,-1.2192600440343648, ,0.0027898626707132754,-0.012678282105340116,0.0024456949976969142,0.01402137867295387,0.0,0.0, ,0.23310399055480957
0.01028352398336254,0.019999037741890307,-0.08051061034459987, ,0.010441646372310789,0.020116724457732188,-0.08069158186194784, ,0.0002675883836484242, ,0.0007110411812329044,0.0017386436291929885,-0.002438669817557511,0.01333737392425515,0.0009541391855245942,-0.009499599362984784, ,0.0030782416587734683, ,0.013371459333016106, ,2.2419913263900305e-05, ,0.20689973643334883,-0.22371984863340982,0.09272362370000001,1.8058497932887239,0.8207754540910007,-1.2189852686503873, ,0.002140220144430763,-0.012549185606780056,0.0028612918124663197,0.01402137867295387,0.0,0.0021839695979041914, ,0.2488088607788086
0.010295212844901043,0.02003340969485523,-0.08055558294685608, ,0.010456249333682536,0.020146166025622542,-0.08073271850933322, ,0.0002646200074470428, ,0.0004822344738176524,0.0016781330749038184,-0.0018991197796115048,0.002850173442109682,0.0024409915270716554,-0.0016708085386359741, ,0.002579793914663724, ,0.003752589540655796, ,2.284166351941668e-05, ,0.20692290463197152,-0.22398242155113346,0.09277677159000002,1.8060594832322083,0.8207754540910007,-1.2185768749496844, ,0.0007260039992877033,-0.013270443512581566,0.0022975351968844656,0.014816399958591487,0.0,0.01632928961041099, ,0.26413798332214355
0.010310361105031047,0.02007228201025858,-0.08060166980292138, ,0.010470938466351018,0.02017533749437197,-0.0807739729723127, ,0.00025708734693995173, ,0.0007658220658751605,0.0017919540588821957,-0.0024494070293912145,-0.004542050426686255,0.0008514230506801814,0.0017884919892797843, ,0.003130044341755683, ,0.004621162537892774, ,2.316769121096859e-05, ,0.20697696376209107,-0.22426043993460554,0.09283251206000001,1.8066885530626617,0.8207754540910007,-1.218086802508841, ,0.0027140390176694606,-0.012867381906233327,0.0028919410893246188,0.016882684411199115,0.0,0.025566499580381014, ,0.28122591972351074
0.010316776135951871,0.020090296863858575,-0.08062454124857045, ,0.010485713510745103,0.020204239975048003,-0.0808153447126608, ,0.00027915735902611226, ,0.0007135434408600774,0.002031114930853712,-0.002343462876607004,-0.010722878923242795,0.007738145428369518,-0.01483072154401676, ,0.003182198981579639, ,0.013223427203355476, ,2.3590733954246405e-05, ,0.20699240922783954,-0.22439172639346736,0.09285973415000001,1.8068982430061464,0.8207754540910007,-1.2178417662884193, ,0.0018221761606978229,-0.01381323749031598,0.002840879529159979,0.044329268311152734,0.0,0.04127562008194878, ,0.2962198257446289
0.010324593559474474,0.02010918403096569,-0.08065103978931368, ,0.010500574207781567,0.020232874576650926,-0.0808568331930003, ,0.0002976902159484267, ,0.0006945264868250073,0.001635145518131798,-0.0026630540401536675,-0.01813448434592144,-0.0067863268022765166,0.042288523239077724, ,0.003201237999141389, ,0.019362689736341632, ,2.4075811285838503e-05, ,0.2070155774264622,-0.22452301285232917,0.09289084511000001,1.807107932949631,0.8207754540910007,-1.2176784088081383, ,0.002022679615571964,-0.01336953248217396,0.0030520811496455263,-0.020283137283814145,0.0,0.0338377178524209, ,0.3108518123626709
0.010339717082764963,0.020143300194055743,-0.08070635194957838, ,0.010515520298864788,0.020261242406115095,-0.0808984378768021, ,0.0002858568516126421, ,0.0008608016972068202,0.0018896840950702028,-0.0029120433899161003,-0.0010958804972671602,-8.524013081334966e-05,0.002748484908765957, ,0.0035765740934348735, ,0.0010991904906728193, ,2.4449727772541724e-05, ,0.20706191382370756,-0.2247855857700528,0.09295436332000001,1.8068982430061464,0.8207754540910007,-1.217351693847576, ,0.002761014455428887,-0.01303529417011961,0.0033747482033898313,0.012705866107950456,0.0,0.020434244610358095, ,0.32869386672973633
0.01035869851311167,0.02018758272117366,-0.08077204582563177, ,0.01053055152588615,0.02028934456831093,-0.08094015822838513, ,0.0002610569123619615, ,0.0009532734754265405,0.0020380933205681423,-0.003044952395239917,0.0012675512241646606,0.003929538609886174,-0.015108366843479654, ,0.0037860652122716507, ,0.004128917476858547, ,2.4661116238567938e-05, ,0.2071082502209529,-0.22505588142065067,0.09303084443000001,1.8077370027800843,0.8207754540910007,-1.2169433001468732, ,0.0031537920812039363,-0.0128221782946184,0.0035507827730717795,0.03246685403044493,0.0,0.02216760866689325, ,0.343707799911499
0.010367209329401753,0.020204221894096423,-0.08080035053895186, ,0.01054566763122357,0.020317182166046374,-0.08098199371291508, ,0.0002785706933178076, ,0.0007952789008193331,0.001827842431532108,-0.002516960931406446,0.018073478375586587,0.004664463432653727,-0.02853917357517332, ,0.0032106960016208353, ,0.01866568615417996, ,2.494003568275856e-05, ,0.2071391411524498,-0.22517172241376404,0.09306325168000001,1.8077370027800843,0.8207754540910007,-1.2166165851863107, ,0.0025846385506135892,-0.011818564042835145,0.002970684729578516,0.03246685403044493,0.0,1.4332237064694844e-06, ,0.3589458465576172
0.010381921948700773,0.020238293100241184,-0.08084900007789753, ,0.010560868357741485,0.020344756300068458,-0.08102394379640442, ,0.0002719587006717118, ,0.0006122082786619103,0.0014869312509992864,-0.00183571616175361,0.010025823328765834,0.0024556398312507834,-0.014925010921852482, ,0.0024404133560083398, ,0.010322175176754383, ,2.516408464279103e-05, ,0.20718547754969516,-0.22543429533148765,0.09311899215000001,1.8077370027800843,0.8207754540910007,-1.2166165851863107, ,0.0028430793842642195,-0.010554191807088414,0.0022031551203319506,0.021668221331965956,0.0,0.005754717919073571, ,0.37795281410217285
0.010389021676027002,0.020252305913853064,-0.08086961516309525, ,0.010576153448790022,0.020372068069064952,-0.081066007945712, ,0.00029653229042109056, ,0.0007386476117380094,0.0016394870170722813,-0.0022511615056807805,0.006307817965183247,0.0011504873069642773,-0.008690194352132075, ,0.0028811883135494267, ,0.0064118787003155635, ,2.5481077985035244e-05, ,0.20721636848119204,-0.2255424135917268,0.09314362166000001,1.8077370027800843,0.8206388175912352,-1.2164234885424738, ,0.002844683973125606,-0.011432689465625154,0.002661900320855615,0.018227419091560306,0.0,0.010634744714145408, ,0.3924388885498047
0.010405258228385318,0.020288631960459595,-0.08091749486227288, ,0.010591522648204694,0.020399118569665968,-0.08110818562854269, ,0.00028855622198305773, ,0.0007934709392240064,0.0018106079248100479,-0.002452771307740624,0.009874188627614104,0.009966544258356152,-0.04237651568853266, ,0.0031502355906905797, ,0.014029668756556648, ,2.5738584594242812e-05, ,0.20727042761131162,-0.22575092737933086,0.09320065842000001,1.808785452497507,0.8206388175912352,-1.2160967735819117, ,0.0022771762588424415,-0.00999276358380953,0.002905127032646362,0.05513216420081521,0.0,0.013660628062713544, ,0.4078848361968994
0.010413871556231524,0.020303425684553348,-0.080946241119895, ,0.010606975700306207,0.020425908896445723,-0.08115047631344649, ,0.0003065996770045643, ,0.0009554660276597911,0.001732834022887736,-0.0028902272500213174,0.007632847883988907,0.007077980128049881,-0.03526567459033791, ,0.0035027193204216437, ,0.010409523010758192, ,2.6161656023867274e-05, ,0.2073013185428085,-0.22584360017382157,0.09323306567,1.808785452497507,0.8206388175912352,-1.216015094841771, ,0.0032806340097007226,-0.008520194280904933,0.003328905228840126,0.04666006646892539,0.0,0.012541525730337271, ,0.4212479591369629
0.010432922982056989,0.02033506377796388,-0.0810123800320782, ,0.010622512349899922,0.020452440141923777,-0.08119287946981825, ,0.00028688218180989296, ,0.0009021421040266059,0.001501110330356596,-0.0033628309772356082,-0.002011245071037035,-0.006403898758820744,0.02353092867673305, ,0.0037915464893913983, ,0.00671230404696781, ,2.647705819305002e-05, ,0.2073631004058023,-0.22602894576280294,0.09330436162000001,1.808785452497507,0.8206388175912352,-1.2157700586213493, ,0.0028640152247918,-0.009319620550350093,0.0036923531571627266,0.010446443713417491,0.0,0.009973186413243266, ,0.43419790267944336
0.010441467372707156,0.020349827553050166,-0.08104382554638422, ,0.010638132342275217,0.020478713396567094,-0.0812353945678972, ,0.00030329418213628854, ,0.0008834459321750123,0.0016057212066232294,-0.0031898426296263147,0.001554399738372116,-0.0005342805124432355,0.0004865166948050246, ,0.003678846736445738, ,0.0016436586879201157, ,2.6837206683569264e-05, ,0.207386268604425,-0.22611389582441943,0.09334195403000001,1.808785452497507,0.8206388175912352,-1.2156067011410683, ,0.0023836861196487834,-0.009195099547535357,0.003578704003594698,0.008625612100245766,0.0,0.011431495654160927, ,0.4489119052886963
0.010463069905470131,0.020385297918468697,-0.0811055115609237, ,0.01065383542320531,0.020504729748791504,-0.0812780210787667, ,0.0002835753490651963, ,0.0010261029327960772,0.0016990198107234584,-0.0029322724269883636,-0.004331575663731485,0.00290946378112482,-0.01607689671265001, ,0.0035408723687814156, ,0.005218000288187689, ,2.710009865149538e-05, ,0.20746349593316724,-0.22629151868052658,0.09341195369000001,1.8096242122714452,0.8205021810914699,-1.215086889536669, ,0.00421981406383148,-0.008929768488557742,0.003368325548741806,0.03415700152559866,-0.00038336691236824595,0.024738490056408664, ,0.46477484703063965
0.010472546364842218,0.020401047524294637,-0.0811352433137219, ,0.010669621338946968,0.020530490284962996,-0.08132075847435336, ,0.0003000164137708911, ,0.0009016104585538349,0.0016907207417616583,-0.0026471163808846673,0.007304272539681981,0.0037830629557115618,-0.024073445745041683, ,0.003267822391064834, ,0.008225810752190496, ,2.74083046683803e-05, ,0.20750210959753834,-0.2263919142078915,0.09344565723,1.8096242122714452,0.8205021810914699,-1.2150052107965283, ,0.0034433432826517264,-0.009626206502630432,0.0030756538945742426,0.03415700152559866,-0.00038336691236824595,0.01109058463846438, ,0.47788476943969727
0.010480649488507165,0.02041530020192789,-0.0811614991661047, ,0.010685489836239834,0.020555996089399835,-0.08136360622742707, ,0.00032031572713047313, ,0.0008363760486951832,0.0016523666389131474,-0.002680522468248676,-0.0002299536748299978,0.003953241545610576,-0.01664405385638513, ,0.003258073220019782, ,0.0039599238972638975, ,2.777179132227753e-05, ,0.20754072326190948,-0.22650775520100486,0.09348454593000001,1.8096242122714452,0.8205021810914699,-1.2147601745761067, ,0.0027937118315500033,-0.009399071867754101,0.0031636169851042705,0.02960801724253316,-0.00038132160673898295,0.020887886071715756, ,0.4956338405609131
0.010499764715588515,0.020447704154454387,-0.08122473786413369, ,0.010701440662306069,0.02058124824437388,-0.08140656381160018, ,0.000302601861542413, ,0.0009834618729800647,0.0016838558369705688,-0.0030064719197947583,-0.003909419749790282,0.0002910804190970409,-0.0046648694178062665, ,0.0035834956592438747, ,0.003920241107993176, ,2.8053006465508973e-05, ,0.20760250512490327,-0.22668537805711203,0.09354676785,1.8096242122714452,0.8205021810914699,-1.2145151383556851, ,0.003776365636853085,-0.009605376573567853,0.003431454442050841,0.020370005293874005,-0.000374669885466182,0.02159044616798014, ,0.5088658332824707
0.010509475859104282,0.020465431258310005,-0.08125393713398592, ,0.010717473564850146,0.020606247830112164,-0.08144963070132699, ,0.0003184153337833014, ,0.0009632342790718104,0.001622190308331212,-0.0028552243163747627,-0.0035167658467618397,-0.0039995758791574465,0.009779827497475874, ,0.0034222255287517846, ,0.0053258097078594645, ,2.8372704703805674e-05, ,0.20764111878927438,-0.22679349631735118,0.09358047139,1.8098339022149297,0.8205021810914699,-1.214351780875404, ,0.0042437740895549,-0.010615257378312553,0.003268118900287239,0.003221606551779904,-0.0003705417706991526,0.018042475018841153, ,0.5216038227081299
0.01052449133338256,0.020493724626268937,-0.08129590270178705, ,0.010733588292058158,0.020630995924798664,-0.0814928063719037, ,0.00031833316326269, ,0.0009295813092238822,0.001621026365091426,-0.0024584365418464016,0.008972074469326727,-0.002149649717816794,-0.006927138459191088, ,0.0030880022857934547, ,0.00922600206496023, ,2.867519319927668e-05, ,0.20770290065226818,-0.2269556737077099,0.09362973041000001,1.8104629720453833,0.8205021810914699,-1.2142701021352635, ,0.004652498313892202,-0.010915724008012415,0.00288095704829083,0.012812084605189645,-0.0003633324525107026,0.005251970137529389, ,0.5381739139556885
0.010538644318432152,0.02051828918225286,-0.08133441640274569, ,0.010749784592597452,0.020655493604575942,-0.08153609029946723, ,0.0003226106469080963, ,0.0009703327211131266,0.0014393989135636056,-0.0030772934570814123,-0.004980447803168819,-0.011304657690312712,0.03535611682668885, ,0.0035331501302700062, ,0.012353143144126374, ,2.8975867719644045e-05, ,0.20775695978238776,-0.22710240563232015,0.09367380427000001,1.8108823519323523,0.8203655445917044,-1.2139136480111454, ,0.004337449393507437,-0.010278435281259884,0.003437378403107467,-0.027775924883902372,-0.0006715377075070742,0.011623281125823889, ,0.5513148307800293
0.010548329562987225,0.020535644576625687,-0.0813650497501224, ,0.010766062215616538,0.020679741943546482,-0.08157948196099572, ,0.00033786496153718457, ,0.0009239511445074017,0.001644229795696207,-0.0032458310547633347,-0.011464546695000266,-0.008704866328916558,0.03588675201618424, ,0.00375401073181175, ,0.0143948090770901, ,2.9309383505115848e-05, ,0.2077955734467589,-0.22721824662543352,0.09370880410000001,1.8108823519323523,0.8203655445917044,-1.2136686117907236, ,0.0032198953723322943,-0.011669569793220706,0.0036442030473575852,-0.02083187366446132,-0.0006715377075070742,0.023134355150304268, ,0.5644528865814209
0.010557940973607398,0.020551931409133445,-0.08139999113476312, ,0.010782420910744269,0.020703742013774565,-0.08162298083430733, ,0.0003509445938624672, ,0.0010523052868827867,0.001820054301398627,-0.0034900664750598795,-0.006324430090659766,-0.003155292465542155,0.010153972559337724, ,0.004074372108334976, ,0.007067834604526488, ,2.9666651989231e-05, ,0.20782646437825578,-0.22732636488567268,0.0937476928,1.810672661988868,0.8203655445917044,-1.2135052543104425, ,0.0036250330316460523,-0.01096216180715201,0.0039388752522255205,0.005601168683711078,-0.0006715377075070742,0.022486602072516095, ,0.5786709785461426
0.010583297102219955,0.020599464980428077,-0.08148007186577848, ,0.010798860428089571,0.02072749488528783,-0.08166658639805965, ,0.0003124849992406582, ,0.0010767541261474285,0.001974237276903731,-0.00336636738327295,0.00818221770096056,0.004265275506971245,-0.027024481421021335, ,0.004048387534915073, ,0.009227202242497935, ,2.998142206525515e-05, ,0.20791141443987224,-0.2275889378033963,0.09383972939000002,1.8115114217628059,0.8203655445917044,-1.2133418968301615, ,0.003594503999143913,-0.010548227557999348,0.0038605941638390697,0.03797248915674526,-0.0006639805783614325,0.01202235808493268, ,0.5901119709014893
0.01059472997163893,0.020617787006164963,-0.08151425806883067, ,0.01081538051824106,0.02075100162607876,-0.08171029813175021, ,0.0003238278940179388, ,0.0012273511890949487,0.0021708490569535563,-0.0036469558503233303,0.009378346468265714,0.006913547183902469,-0.03989177344608475, ,0.004418061061558169, ,0.011651202362749516, ,3.0316592475729128e-05, ,0.2079577508371176,-0.22768933333076122,0.09387861809,1.8117211117062906,0.8203655445917044,-1.2130968606097396, ,0.004387012014243239,-0.010836386727308186,0.00419842159198735,0.05321992523773856,-0.0006511221272721669,0.01470876909692943, ,0.6018297672271729
0.010607175941402524,0.02063792041334711,-0.08155322693825623, ,0.010831980932266777,0.02077426330210641,-0.0817541155157147, ,0.00033088198468033016, ,0.0012274709174641745,0.0015816582559126605,-0.004052024035425471,-0.017843339262867495,-0.015090080057374762,0.05503202519109797, ,0.004519648932758244, ,0.023368681415420568, ,3.0658568952242744e-05, ,0.20800408723436295,-0.22779745159100037,0.09392269195000001,1.811930801649775,0.8203655445917044,-1.2130151818695991, ,0.005180850563874488,-0.010155950598968878,0.004445663276583869,-0.040503259246828925,-0.00063791461385212,0.02430832914455262, ,0.6134178638458252
0.010631237167626107,0.02067250042312116,-0.08162733347839293, ,0.010848661421713429,0.020797280977298004,-0.08179803803112755, ,0.00030328787857485134, ,0.001164647286474014,0.0014867664260079007,-0.003651512978995207,-0.01760710918904148,-0.01087445453037937,0.03888450997909541, ,0.0041110126177337425, ,0.0206945416639011, ,3.090907148305956e-05, ,0.20810448276172785,-0.227990519912856,0.09400565451000001,1.811930801649775,0.8203655445917044,-1.212688466909037, ,0.0050790087157756795,-0.008730625944750985,0.004028530986342944,-0.02228034911946101,-0.0006136004020645985,0.02684492348586861, ,0.6302638053894043
0.010643341832176034,0.02068816463600359,-0.08166478721494505, ,0.010865421738606204,0.020820055713550504,-0.08184206516000107, ,0.0003132765726635269, ,0.001162008500656062,0.0016175087231713363,-0.0034386810012234374,-0.009393120455746464,-0.005872484033687867,0.01521083091055285, ,0.0039738048836483325, ,0.011077760610398075, ,3.1177528746998926e-05, ,0.20815854189184743,-0.22808319270734667,0.09404713579000001,1.8117211117062906,0.8203655445917044,-1.2125251094287557, ,0.005147949977366745,-0.009083922867246035,0.0038549882671829626,0.0,-0.0006013952621265618,0.022630490856584282, ,0.6419589519500732
0.01065519066033297,0.020704569918373293,-0.08169939808023158, ,0.010882261635448295,0.02084258857073234,-0.08188619638518485, ,0.0003248137664450929, ,0.001224060150770209,0.0016778632848786332,-0.0037145091862089774,-0.023728111573445527,-0.006027930843636446,0.025794722741305242, ,0.004255716972482801, ,0.02448181423813195, ,3.146712403291224e-05, ,0.208212601021967,-0.22817586550183735,0.09408602449,1.8117211117062906,0.8203655445917044,-1.212280073208334, ,0.005189125880672919,-0.009015099877322127,0.004143811529656608,0.0,-0.000590028639790245,0.040403722184229274, ,0.6534078121185303
0.01066913659251754,0.02072640893756485,-0.08173907552428342, ,0.010899180865220697,0.020864880606684694,-0.08193043119036551, ,0.00032971466678642457, ,0.0013691331074540637,0.001812502217461882,-0.003942193445780051,-0.007473100533762477,-0.0034845852433277483,0.0018854353398546164, ,0.00454978888721029, ,0.008245578509335957, ,3.175897682906168e-05, ,0.20826666015208659,-0.22826853829632807,0.09413139464,1.812350181536744,0.8203655445917044,-1.2120350369879125, ,0.006058545576682878,-0.008788812307586342,0.004414859068736143,0.014480826181595373,-0.0005789099872035712,0.023517193998451088, ,0.6668097972869873
0.01068109374920433,0.02074195010303899,-0.08177254476392948, ,0.01091617918138124,0.020886932877223686,-0.08197476906006618, ,0.00034231539722904517, ,0.001442101006339039,0.001925398344352473,-0.0038363478714102646,0.016865789981493528,0.0019413442691102022,-0.03747428504747186, ,0.004528176132549769, ,0.016977151953142075, ,3.207311965478318e-05, ,0.20832071928220616,-0.22833804289219609,0.09416898705000001,1.8125598714802285,0.8203655445917044,-1.2117900007674909, ,0.0066847184940103475,-0.00834471934081193,0.004349757378481704,0.04046356519155985,-0.0005696440993215076,-0.0008190800680843886, ,0.6788849830627441
0.010709982210664224,0.020776031034164155,-0.08184613186188223, ,0.010933256337864876,0.020908746436141316,-0.08201920947964625, ,0.0003121226931353097, ,0.0013308393443934076,0.0013763014960897462,-0.0035208408746565906,-0.010893276316204676,-0.013205301718643056,0.033552368213063115, ,0.00400770004283965, ,0.017118512255466, ,3.229834036314263e-05, ,0.20847517393969064,-0.228507943015429,0.09425194961000001,1.8127695614237131,0.8203655445917044,-1.2117083220273503, ,0.007371870634970692,-0.00775248198429056,0.0038974336970883294,-0.022969504057059453,-0.0005484106488897559,0.01711865665610097, ,0.6906177997589111
0.010724072404013265,0.02079046609188665,-0.08188363092364481, ,0.01095041208908277,0.020930322335207453,-0.08206375193529995, ,0.00032129892728243186, ,0.001429440909978477,0.0016479483817858475,-0.00371783677580023,-0.00899493344101912,-0.005272885664752855,0.0038037800326587447, ,0.0043106084809042145, ,0.01042651188708881, ,3.253877103167908e-05, ,0.20855240126843289,-0.22858517034417125,0.09429343089000002,1.8125598714802285,0.8203655445917044,-1.2114632858069285, ,0.007361597200822,-0.007618511868028981,0.004166573769291133,0.012158620853872128,-0.0005385854308713963,0.02341259055953033, ,0.7023627758026123
0.010724072404013265,0.02079046609188665,-0.08188363092364481, ,0.010967646189921972,0.020951661624171603,-0.08210839591405701, ,0.0003685532386583046, ,0.001429440909978477,0.0016479483817858475,-0.00371783677580023,-0.00899493344101912,-0.005272885664752855,0.0038037800326587447, ,0.0043106084809042145, ,0.01042651188708881, ,3.2888105625814445e-05, ,0.20855240126843289,-0.22858517034417125,0.09429343089000002,1.8125598714802285,0.8203655445917044,-1.2114632858069285, ,0.007361597200822,-0.007618511868028981,0.004166573769291133,0.012158620853872128,-0.0005385854308713963,0.02341259055953033, ,0.7148938179016113
0.01074790223147572,0.02081905332431221,-0.08194851529966438, ,0.010984958395745205,0.020972765350764005,-0.08215314090378222, ,0.00034884760276468723, ,0.0014851033399395964,0.0016428177050110257,-0.004102126953067708,-0.006572903761471467,-0.007890083725796642,0.011606055432043304, ,0.004661740820903924, ,0.010269200742807422, ,3.317744919504368e-05, ,0.20866824226154626,-0.22871645680303307,0.09436602313,1.8127695614237131,0.8203655445917044,-1.2112999283266472, ,0.007280989652541822,-0.007435653388517088,0.0045433004905875655,0.0,-0.0005232715000765594,0.017121961084471424, ,0.7282068729400635
0.01077249174363877,0.020848095927167958,-0.08200914755925638, ,0.011002348462390153,0.020993634560697746,-0.08219798639317362, ,0.0003311732329160856, ,0.001424108526029037,0.0017511649710216734,-0.003340631892782163,0.01693434861562142,-0.002729634717815973,-0.024736584432736172, ,0.004031685167856646, ,0.017152931770168554, ,3.341469401171222e-05, ,0.20879952872040808,-0.2288477432618949,0.09443472650000001,1.813188941310682,0.8203655445917044,-1.2111365708463662, ,0.007973707956235298,-0.008787942047391022,0.0038281210093727472,0.02511333893429589,-0.000508066553547565,-0.004188553576163684, ,0.7398738861083984
0.010786347194646877,0.020864314552839887,-0.08204218566214988, ,0.011019816146169443,0.02101427029766999,-0.08224293187176368, ,0.0003424814117684424, ,0.0014123047524032186,0.001525669482257852,-0.003225075435851031,0.006412636497792252,-0.004153558115532624,-0.014690879575273022, ,0.0038371061556443, ,0.00764028478023074, ,3.375037544835092e-05, ,0.20887675604915032,-0.22892497059063713,0.09447231891,1.8133986312541668,0.8203655445917044,-1.2111365708463662, ,0.00821433911890728,-0.006889918585799064,0.0036601129411764715,0.020127640863900793,-0.0004997693662326455,0.00535204631138206, ,0.7499749660491943
0.010798931711797327,0.020878429931214398,-0.08206920290451383, ,0.011037361203869714,0.021034673603363908,-0.08228797682991781, ,0.00035933652501982935, ,0.0012469501815497036,0.001278444439261363,-0.0030262399299125927,-0.0011525854107223908,-0.015314520245152558,0.0336826086925562, ,0.003513891440119133, ,0.015357831331746776, ,3.4115956502732556e-05, ,0.20895398337789256,-0.22899447518650518,0.09450342987,1.813608321197651,0.8203655445917044,-1.2110548921062256, ,0.0077434317751445105,-0.008553243545581825,0.0033869469530087184,-0.031195712713627782,-0.0004918124598806664,0.0038905814197251337, ,0.7603888511657715
0.010813654502501352,0.02089354071849944,-0.08210643860945517, ,0.011054983392751674,0.02105484551745012,-0.0823331207588339, ,0.0003682983414039894, ,0.0015371542386748561,0.0016799079508154225,-0.0038402824053762777,0.00028190076926017603,-0.004858480388503081,-0.007386871535478627, ,0.004464605562614861, ,0.004866651712823696, ,3.4492054439255764e-05, ,0.20903893343950902,-0.22907942524812164,0.09454491115000001,1.8133986312541668,0.8203655445917044,-1.2108915346259446, ,0.00819424097564271,-0.007198779664834045,0.004307412525689562,0.017065916652155344,-0.00048366097242183925,0.012598109611594865, ,0.7701199054718018
0.010832115214860511,0.020912047085176445,-0.0821526010655938, ,0.01107268247054928,0.021074787077588197,-0.08237836315054241, ,0.0003678660471423604, ,0.0016268112403963802,0.0019025843741436157,-0.004227986449444822,0.0031727077650078417,-0.0053857321178822195,-0.004727256855373456, ,0.004913472451261378, ,0.006250774644529268, ,3.485693815922589e-05, ,0.20913160623399973,-0.2291643753097381,0.09459546646000001,1.8133986312541668,0.820228908091939,-1.2106984379821075, ,0.008380866904321315,-0.008948798636106009,0.004750614828511781,0.013372603342836369,2.6475471111177453e-05,0.010320495241169035, ,0.780113935470581
0.010848055453603962,0.020931283505804258,-0.08219534486599005, ,0.011090458195469804,0.02109449931942836,-0.08242370349790551, ,0.00037087215567006084, ,0.001746131316950626,0.0019175468167517166,-0.004888946732671041,-0.005176563060821433,-0.008097324738527664,0.010316810940866247, ,0.005534235315322725, ,0.009610591566121053, ,3.521875141809548e-05, ,0.20920883356274197,-0.22924932537135456,0.09464342919,1.813608321197651,0.820228908091939,-1.210616759241967, ,0.008353143353291646,-0.008219720255498547,0.005406928553971487,0.0014964007896616444,2.6475471111177453e-05,0.016837243379585042, ,0.7901639938354492
0.010863732465412838,0.020949930512806584,-0.08223827175980719, ,0.011108310326192904,0.02111398327661334,-0.08246914129461648, ,0.0003742090076407113, ,0.0018396805835461769,0.0022146607778971957,-0.0054013761727296295,0.005081864462012689,-0.0017523616976655412,-0.01706937435513487, ,0.006120785208612077, ,0.005375510518286492, ,3.5578346338916975e-05, ,0.20927833815861,-0.22931110723434836,0.09469139192,1.8140277010846202,0.820228908091939,-1.2105350805018265, ,0.007683330326395642,-0.00832814974297414,0.005986024622322435,0.02626957345255194,2.6475471111177453e-05,0.010438137986933802, ,0.8005669116973877
0.010876571372699963,0.020966814432250035,-0.08227395410012499, ,0.011126238621870472,0.021133239980779553,-0.08251467603520013, ,0.0003846794100781075, ,0.0019752958984293957,0.00243501387152761,-0.005338820896185437,0.012230713162690279,0.004418407341858811,-0.04793532365211928, ,0.0061914533836919215, ,0.01300433249225904, ,3.595135141962418e-05, ,0.20933239728872957,-0.22937288909734216,0.09473157691,1.8144470809715894,0.820228908091939,-1.2105350805018265, ,0.008813320421935753,-0.008514360461470713,0.005997293493975904,0.05834620286378738,2.6475471111177453e-05,0.009848008351508723, ,0.8105888366699219
0.010905287790782248,0.020998753886581848,-0.08235210208218324, ,0.01114424284212631,0.02115227046155903,-0.08256030721501083, ,0.0003521593853517477, ,0.0016543462235739412,0.0016941236406902843,-0.0045529375428752725,-0.002663163546999064,-0.015588809695375738,0.03461588341227035, ,0.0051318765190446845, ,0.01581465857488873, ,3.624479502571881e-05, ,0.2094714064804656,-0.22950417555620398,0.09481842834000001,1.8146567709150738,0.820228908091939,-1.2102900442814049, ,0.008695496590355721,-0.008970310013578581,0.005016948510236221,-0.03023567449303397,2.6475471111177453e-05,0.006622682896103481, ,0.8203558921813965
0.010922867118757347,0.02101734468987293,-0.08239478519031336, ,0.011162322747055494,0.021171075746580746,-0.08260603433023311, ,0.00035439869474505366, ,0.001737599339899367,0.0016398351415578152,-0.0040548403831743495,-0.00019881431766426638,-0.01563959631117017,0.02573104100069171, ,0.0047063830369539796, ,0.015640859912841393, ,3.6535516733979405e-05, ,0.20957180200783052,-0.22959684835069466,0.09486639107000001,1.8146567709150738,0.820228908091939,-1.2101266868011236, ,0.010747886542507901,-0.008963809879316576,0.004534247514944492,-0.02144989092372293,2.6475471111177453e-05,0.005758566499231897, ,0.8301467895507812
0.010939960402218177,0.021033689921053887,-0.08243675887615859, ,0.01118047809722396,0.021189656861472624,-0.08265185687788137, ,0.00035838749763295583, ,0.0017916933696418699,0.0018924943856602828,-0.004403057655324822,0.0018606222212411549,-0.010115597210213668,0.007273162967895168, ,0.005116504358122726, ,0.01028529145501276, ,3.682728695877832e-05, ,0.20967992026806967,-0.22968952114518537,0.09491694638,1.8144470809715894,0.820228908091939,-1.2099633293208423, ,0.010084319159830045,-0.00926226397833541,0.004939166362790698,0.0,2.6475471111177453e-05,0.008966265217270938, ,0.8454389572143555
0.010975557491449323,0.021071303063699694,-0.08252147641263911, ,0.011198708653668416,0.021208014829862714,-0.08269777435579843, ,0.00031554320301561137, ,0.0017916933696418699,0.0018924943856602828,-0.004403057655324822,0.0018606222212411549,-0.010115597210213668,0.007273162967895168, ,0.005116504358122726, ,0.01028529145501276, ,3.702310369017157e-05, ,0.20986526585705106,-0.2298594212684183,0.09500768668000001,1.8146567709150738,0.8200922715921736,-1.209688553936865, ,0.008576047441941653,-0.008406317101656992,0.0038718550121536223,0.002890316143043922,0.001454739817883653,0.01368286006383744, ,0.8555707931518555
0.010990090970210463,0.021089263046544376,-0.08255261324478694, ,0.011217014177895515,0.02122615067338114,-0.08274378626265594, ,0.00036290602511963876, ,0.0014741852575704609,0.001583965147590749,-0.0032163096554725977,0.0007344921879226989,-0.005108429040499504,-0.0021427090026496817, ,0.0038727833443633845, ,0.005160961702217453, ,3.731097158992333e-05, ,0.20995021591866753,-0.22994437133003479,0.09504398280000001,1.815076150802043,0.8200922715921736,-1.2096068751967244, ,0.009162966653091322,-0.008038926867915156,0.0036880786107895353,0.012082721485932342,0.001454739817883653,0.012266085375448899, ,0.8657197952270508
0.010990090970210463,0.021089263046544376,-0.08255261324478694, ,0.011235394431881601,0.021244065411661354,-0.08278989209795348, ,0.00037475167072834243, ,0.0014741852575704609,0.001583965147590749,-0.0032163096554725977,0.0007344921879226989,-0.005108429040499504,-0.0021427090026496817, ,0.0038764436745948637, ,0.005160961702217453, ,3.769193679797743e-05, ,0.20995021591866753,-0.22994437133003479,0.09504398280000001,1.815076150802043,0.8200922715921736,-1.2096068751967244, ,0.009162966653091322,-0.008038926867915156,0.0036880786107895353,0.012082721485932342,0.001454739817883653,0.012266085375448899, ,0.8740108013153076
0.011006163585067799,0.02110547896491931,-0.0825880234806496, ,0.011253849178072414,0.021261760062342174,-0.0828360913620179, ,0.000383809338292205, ,0.0016334453400538892,0.0017493511649137228,-0.003544287717651142,0.0026565238786818686,-0.0061442292275002966,-0.0026815364434474823, ,0.004276721712085264, ,0.006693927946936374, ,3.808341907112837e-05, ,0.21005061144603243,-0.23002932139165125,0.09508416779000001,1.815076150802043,0.8200922715921736,-1.2096068751967244, ,0.010206490262708945,-0.008986550437806107,0.004065546584992343,0.012082721485932342,0.001454739817883653,0.011027866074230265, ,0.8827838897705078
0.011023407652610806,0.02112229272627119,-0.08262581278553141, ,0.011272378179382384,0.021279235641069066,-0.08288238355600394, ,0.0003904432890536578, ,0.0019435039921704568,0.0018981456173203157,-0.004463366591739036,0.007547414074227141,-0.0074319064514311245,-0.007103072425707766, ,0.00522511300206866, ,0.010592293941317962, ,3.8480296439576815e-05, ,0.21015872970627159,-0.2301142714532677,0.09512694536,1.815076150802043,0.8200922715921736,-1.2094435177164433, ,0.011538271193922171,-0.008127017223135191,0.00502803393939394,0.012082721485932342,0.001454739817883653,0.0038968503250401167, ,0.8939177989959717
0.011055677560598968,0.02115228057154708,-0.08270933823042152, ,0.011290981199194514,0.021296493161495806,-0.082928768181892, ,0.00035258272368106656, ,0.00217297170366402,0.0021408678919071504,-0.0059716723279757185,0.0015289966241079451,-0.006751621650354187,-0.0024943370756865795, ,0.006705668627976961, ,0.00692258752143323, ,3.879499435997599e-05, ,0.2103286298295045,-0.23022238971350686,0.09521898195,1.815076150802043,0.8200922715921736,-1.2091984814960215, ,0.010459493618095572,-0.006917302994597601,0.00657129188118812,0.010485613138196419,0.001454739817883653,0.009509866966370406, ,0.9029519557952881
0.011077384457585649,0.021174471812991657,-0.08276936273312567, ,0.01130965800135987,0.02131353363528622,-0.0829752447424892, ,0.0003401126156685216, ,0.0022161219011364087,0.0021113932628759086,-0.00594239844320399,0.0015910674761433377,-0.007932312740384502,-0.0006105427202330756, ,0.006684405512011329, ,0.008090307393113519, ,3.9079308842210706e-05, ,0.21042902535686944,-0.23029189430937488,0.09528509274000001,1.8152858407455272,0.8200922715921736,-1.2090351240157404, ,0.011072788653859439,-0.00682397723040411,0.006541606373716633,0.007971538998054615,0.001454739817883653,0.008683997498685491, ,0.9110269546508789
0.011077384457585649,0.021174471812991657,-0.08276936273312567, ,0.011328408350196988,0.021330358072115602,-0.08302181274142813, ,0.0003886444739570053, ,0.0022161219011364087,0.0021113932628759086,-0.00594239844320399,0.0015910674761433377,-0.007932312740384502,-0.0006105427202330756, ,0.006684405512011329, ,0.008090307393113519, ,3.94516555276557e-05, ,0.21042902535686944,-0.23029189430937488,0.09528509274000001,1.8152858407455272,0.8200922715921736,-1.2090351240157404, ,0.011072788653859439,-0.00682397723040411,0.006541606373716633,0.007971538998054615,0.001454739817883653,0.008683997498685491, ,0.9190659523010254
0.011100009010874299,0.021197989699613756,-0.08282892238926677, ,0.011347232010491636,0.021346967479672515,-0.08306847168316671, ,0.0003750965938248285, ,0.002088617128831429,0.0020655084337184797,-0.00581851307932288,-0.0012051384083952479,-0.004750853687026421,-0.005831840746275866, ,0.0065179552817476154, ,0.004901322542940002, ,3.979104162724835e-05, ,0.2105371436171086,-0.2303613989052429,0.09535120353000001,1.8157052206324964,0.8200922715921736,-1.2089534452756, ,0.009709993721100449,-0.006048678042503868,0.006394544969891611,0.016154019266701052,0.0014286309884742826,0.013285561882524305, ,0.9272828102111816
0.011100009010874299,0.021197989699613756,-0.08282892238926677, ,0.011366128747496396,0.021363362863660314,-0.08311522107298765, ,0.00042442306005551823, ,0.002088617128831429,0.0020655084337184797,-0.00581851307932288,-0.0012051384083952479,-0.004750853687026421,-0.005831840746275866, ,0.0065179552817476154, ,0.004901322542940002, ,4.0217256848267784e-05, ,0.2105371436171086,-0.2303613989052429,0.09535120353000001,1.8157052206324964,0.8200922715921736,-1.2089534452756, ,0.009709993721100449,-0.006048678042503868,0.006394544969891611,0.016154019266701052,0.0014286309884742826,0.013285561882524305, ,0.9366419315338135
0.011146033843427102,0.021240053051617754,-0.08295323828968461, ,0.011385098326930224,0.021379545227798582,-0.08316206041699735, ,0.00034672262017886333, ,0.0020775563127787607,0.0018992189052289045,-0.00515763852883846,7.901050039445939e-05,-0.006365882786860303,-0.00665955032207356, ,0.00587575594089005, ,0.006366372802902705, ,4.048998406912457e-05, ,0.2107611028704611,-0.23047723989835628,0.09548731398000002,1.8159149105759809,0.8200922715921736,-1.2087084090551783, ,0.011207447231686875,-0.0059218361579860875,0.00571539702906351,0.015826561938968996,0.0013693602938537385,0.01143925650366858, ,0.9455528259277344
0.011167931122256551,0.021257893230807613,-0.08300626916072956, ,0.011404140514977894,0.021395515573825002,-0.08320898922212674, ,0.00034033837544458436, ,0.002212109218894568,0.0018622108568088496,-0.005321998471472737,0.0007904276604966455,-0.007525034415642964,-0.008041348551925136, ,0.0060568080869293885, ,0.007566433411695473, ,4.074580680585734e-05, ,0.2108846665964487,-0.23053129902847583,0.09554564703000001,1.8159149105759809,0.8200922715921736,-1.2087084090551783, ,0.012353551539327438,-0.005014866919880978,0.005882131285081241,0.015826561938968996,0.0013426797423794308,0.009446038986319606, ,0.9541189670562744
0.011189533014244213,0.021274745100285944,-0.08306093596249162, ,0.011423255078289753,0.021411274901496885,-0.08325600699612966, ,0.0003336451678130836, ,0.002188779833899975,0.0017783298271847514,-0.005661892328625128,0.0035245108538431726,-0.006371941386834195,-0.011788209712975246, ,0.0063253647228034395, ,0.00728174484431095, ,4.0984623228254024e-05, ,0.21100050758956204,-0.23056991269284696,0.09560527637,1.8159149105759809,0.8200922715921736,-1.208545051574897, ,0.011210506976783316,-0.003174061696131949,0.006185946221359225,0.015826561938968996,0.0013174483256792053,0.0038025127656484917, ,0.9625909328460693
0.011189533014244213,0.021274745100285944,-0.08306093596249162, ,0.011442441783981312,0.021426824208592727,-0.08330311324758279, ,0.0003817600534464656, ,0.002188779833899975,0.0017783298271847514,-0.005661892328625128,0.0035245108538431726,-0.006371941386834195,-0.011788209712975246, ,0.0063253647228034395, ,0.00728174484431095, ,4.1306730582179694e-05, ,0.21100050758956204,-0.23056991269284696,0.09560527637,1.8159149105759809,0.8200922715921736,-1.208545051574897, ,0.011210506976783316,-0.003174061696131949,0.006185946221359225,0.015826561938968996,0.0013174483256792053,0.0038025127656484917, ,0.9709417819976807
0.011211113017055508,0.02129224719178008,-0.08311543694080083, ,0.011461700399632641,0.021442164490913757,-0.08335030748588569, ,0.0003747444540414918, ,0.0020233040429531164,0.001770651793579171,-0.005058423962138333,0.0017070893668555914,-0.006280236284438634,-0.007942170173351778, ,0.005728579230932469, ,0.006508111752491599, ,4.168560496140713e-05, ,0.21111634858267542,-0.23061624909009232,0.09566490571000001,1.8159149105759809,0.8200922715921736,-1.2083000153544754, ,0.010793612871427643,-0.004821339099184747,0.005581223377715488,0.01460855839372341,0.0012923376578081894,0.007752121583780373, ,0.9802157878875732
0.01122088762604349,0.021301664623772764,-0.08314177699417342, ,0.01148103069328809,0.021457296742285727,-0.08339758922125888, ,0.00039665560285300633, ,0.0021219102669097975,0.0018269621723643343,-0.005511549421750433,-0.004121516181165493,-0.007869819971264208,-0.0010344443444117223, ,0.006182028064354363, ,0.00888374678420145, ,4.20983754874527e-05, ,0.211170407712795,-0.23063169455584076,0.09569472038000001,1.8161246005194656,0.820228908091939,-1.2083297545180312, ,0.010831676949931054,-0.004530533112929885,0.006040504937428897,0.010692047498780477,0.0006325826632420732,0.013498333307517287, ,0.9876718521118164
0.01125575803447475,0.021330350922694214,-0.08323332601694865, ,0.011500432433455903,0.021472221954560274,-0.08344495796474485, ,0.00035324358809119943, ,0.002310565454628189,0.0016631915705304576,-0.005962474591216313,-0.014785975791618378,-0.009231405092528655,0.004879246391658478, ,0.006607270402466126, ,0.017431119085039568, ,4.2427876532268005e-05, ,0.21134030783602792,-0.23067030822021187,0.09579453471,1.8165439804064347,0.820228908091939,-1.2080847182976095, ,0.011900795279467115,-0.0015033420173813324,0.0064593720681265215,0.009627811999578432,0.0006325826632420732,0.022810597235395656, ,0.9940869808197021
0.01125575803447475,0.021330350922694214,-0.08323332601694865, ,0.011519905389107783,0.02148694111761678,-0.08349241322820743, ,0.00040177169778789483, ,0.002310565454628189,0.0016631915705304576,-0.005962474591216313,-0.014785975791618378,-0.009231405092528655,0.004879246391658478, ,0.006607270402466126, ,0.017431119085039568, ,4.283860253520398e-05, ,0.21134030783602792,-0.23067030822021187,0.09579453471,1.8165439804064347,0.820228908091939,-1.2080847182976095, ,0.011900795279467115,-0.0015033420173813324,0.0064593720681265215,0.009627811999578432,0.0006325826632420732,0.022810597235395656, ,1.0006999969482422
0.011278318826247911,0.021347516455886752,-0.08328911932456635, ,0.011539449329678176,0.021501455219363787,-0.08353995452432991, ,0.0003934521319843186, ,0.0024594010539004192,0.0019863231180063693,-0.0058975446889240925,-0.004760256374173727,-0.011207056109838744,0.001455399806291477, ,0.0066914248431040315, ,0.012176129937815056, ,4.322893245057042e-05, ,0.21146387156201552,-0.230708921884583,0.09585546034,1.8165439804064347,0.820228908091939,-1.2079213608173285, ,0.013793160110242845,-0.005296843701360227,0.006496252659053834,0.009065840012187788,0.0006325826632420732,0.014812574386104924, ,1.0075647830963135
0.011303577154765739,0.02136589471947195,-0.08334961640317146, ,0.01155906402506442,0.021515765245740753,-0.08358758136661662, ,0.0003799500485150139, ,0.0025694972073932567,0.0017231409361612143,-0.006233510207387004,-0.008155856436792163,-0.012229436471474219,0.002473183732404581, ,0.0069590358592461835, ,0.014699561259295797, ,4.359024888811445e-05, ,0.21160288075375155,-0.23073209008320567,0.09592157113000001,1.816753670349919,0.820228908091939,-1.2079213608173285, ,0.014261638346629212,-0.001591346559702615,0.006769575656608585,0.006613377285946494,0.0006325826632420732,0.01390695331102843, ,1.0144648551940918
0.011303577154765739,0.02136589471947195,-0.08334961640317146, ,0.011578749245625825,0.021529872180719455,-0.08363529326939079, ,0.0004292080605934442, ,0.0025694972073932567,0.0017231409361612143,-0.006233510207387004,-0.008155856436792163,-0.012229436471474219,0.002473183732404581, ,0.0069590358592461835, ,0.014699561259295797, ,4.403192491071582e-05, ,0.21160288075375155,-0.23073209008320567,0.09592157113000001,1.816753670349919,0.820228908091939,-1.2079213608173285, ,0.014261638346629212,-0.001591346559702615,0.006769575656608585,0.006613377285946494,0.0006325826632420732,0.01390695331102843, ,1.0214488506317139
0.011333514557512542,0.021386274916323646,-0.08342107348051218, ,0.01159850476218347,0.021543777006305775,-0.08368308974779487, ,0.0004045729121444376, ,0.002793422008216503,0.0019800694171235793,-0.006938813576943207,-0.0025495861367158426,-0.013012753612103023,-0.0007814600329341474, ,0.007737636284304646, ,0.013260170811593924, ,4.4425118047551574e-05, ,0.21176505814411029,-0.23076298101470258,0.09599675595000001,1.816753670349919,0.820228908091939,-1.207839682077188, ,0.015200535248834017,-0.002543487084876352,0.0074923854750705565,0.006613377285946494,0.0006325826632420732,0.00812397606067403, ,1.029775857925415
0.01133404506407568,0.021386867901389113,-0.08342354094936809, ,0.011618330346019818,0.02155748070254125,-0.08373097031778992, ,0.0004521500481204048, ,0.002803017156938838,0.001990759789359028,-0.006983261076507905,-0.002523507218434464,-0.013012572134584123,-0.0008007212802441963, ,0.007783698669892909, ,0.013255003041577852, ,4.489426262179123e-05, ,0.2117727808769845,-0.23076298101470258,0.09600194111000002,1.816753670349919,0.820228908091939,-1.207839682077188, ,0.01507736599276625,-0.002543487084876352,0.007588762039066222,0.006613377285946494,0.0006325826632420732,0.008061542167327247, ,1.0367419719696045
0.011388751489601587,0.02142758612202652,-0.08356984891467324, ,0.011638225768878116,0.021570984247504716,-0.08377893449615516, ,0.0003556925903007187, ,0.002676576809781491,0.0019732423317936577,-0.007038235012602029,-0.0018868733431027058,-0.011347317390719164,-0.00155683575900155, ,0.0077842469649452685, ,0.011503125040943266, ,4.519327032945431e-05, ,0.21204307652758236,-0.23081704014482216,0.09616008849,1.816753670349919,0.820228908091939,-1.2076763245969067, ,0.013418685175123131,-0.002236918663734858,0.007621440918660288,0.006613377285946494,0.0006325826632420732,0.006897963167435418, ,1.0432379245758057
0.011388751489601587,0.02142758612202652,-0.08356984891467324, ,0.0116581908029621,0.021584288617313797,-0.08382698180048744, ,0.0004040674901307686, ,0.002676576809781491,0.0019732423317936577,-0.007038235012602029,-0.0018868733431027058,-0.011347317390719164,-0.00155683575900155, ,0.0077842469649452685, ,0.011503125040943266, ,4.55698207659011e-05, ,0.21204307652758236,-0.23081704014482216,0.09616008849,1.816753670349919,0.820228908091939,-1.2076763245969067, ,0.013418685175123131,-0.002236918663734858,0.007621440918660288,0.006613377285946494,0.0006325826632420732,0.006897963167435418, ,1.049729824066162
0.011415527446430353,0.02144686782083787,-0.08363393176372409, ,0.011678225220935732,0.021597394786126572,-0.08387511174920077, ,0.00038708690678404084, ,0.0025934055711778533,0.0018284523129517925,-0.006061381132171895,-0.0008788466775540856,-0.01156401542184204,-0.005757815051878741, ,0.006841734542263718, ,0.011597362457786548, ,4.59128821121665e-05, ,0.21218980845219262,-0.23084020834344482,0.09623008815,1.8169633602934034,0.820228908091939,-1.2075129671166256, ,0.014776851690823852,-0.002823026942252837,0.006634240533111204,0.011616010508126726,0.0006325826632420732,0.007632617687414717, ,1.056372880935669
0.011440027321834027,0.021464012312397775,-0.08369126365637972, ,0.011698328795922388,0.021610303726143237,-0.08392332386152554, ,0.000376792738868715, ,0.00287325020888746,0.0019268593193240717,-0.00692194022271636,-0.003175545888216467,-0.011870813166663649,-0.006097150941283289, ,0.00773832088028123, ,0.01228821716260918, ,4.623424851885543e-05, ,0.21233654037680288,-0.23085565380919326,0.09629360636,1.8171730502368881,0.8203655445917044,-1.207461027540041, ,0.01586374817092457,-0.0014683342112464183,0.007527793724007564,0.012856738183221828,0.0011669337481546656,0.009287071610104518, ,1.0665647983551025
0.011440027321834027,0.021464012312397775,-0.08369126365637972, ,0.011718501301504803,0.02162301640760768,-0.0839716176575088, ,0.00042594415783795396, ,0.00287325020888746,0.0019268593193240717,-0.00692194022271636,-0.003175545888216467,-0.011870813166663649,-0.006097150941283289, ,0.00773832088028123, ,0.01228821716260918, ,4.670981377097693e-05, ,0.21233654037680288,-0.23085565380919326,0.09629360636,1.8171730502368881,0.8203655445917044,-1.207461027540041, ,0.01586374817092457,-0.0014683342112464183,0.007527793724007564,0.012856738183221828,0.0011669337481546656,0.009287071610104518, ,1.071828842163086
0.011461361429943952,0.021479385748029975,-0.0837422807140121, ,0.011738742511724434,0.021635533798808993,-0.08401999265801334, ,0.00042242916818413957, ,0.002993707082049208,0.002002473132273139,-0.0070479012156939086,-0.008351852291354237,-0.012960676070425824,-0.0018644089066529096, ,0.007914865272685761, ,0.015418577869217681, ,4.717488745610248e-05, ,0.21245238136991626,-0.2308710992749417,0.09634934683000002,1.8173827401803726,0.8203655445917044,-1.2072976700597597, ,0.01692472651301423,-0.001937008308316658,0.007683941881331405,0.012887905242749397,0.0011669337481546656,0.01629909398107108, ,1.0769047737121582
0.011461361429943952,0.021479385748029975,-0.0837422807140121, ,0.011759052201081139,0.021647856866083195,-0.08406844838471683, ,0.000472639040126082, ,0.002993707082049208,0.002002473132273139,-0.0070479012156939086,-0.008351852291354237,-0.012960676070425824,-0.0018644089066529096, ,0.007914865272685761, ,0.015418577869217681, ,4.77176979114431e-05, ,0.21245238136991626,-0.2308710992749417,0.09634934683000002,1.8173827401803726,0.8203655445917044,-1.2072976700597597, ,0.01692472651301423,-0.001937008308316658,0.007683941881331405,0.012887905242749397,0.0011669337481546656,0.01629909398107108, ,1.0819377899169922
0.011502313208083075,0.02150542587534711,-0.08383632834205401, ,0.011779430144532707,0.02165998657381485,-0.08411698436011196, ,0.00042361610740174703, ,0.00298077110573556,0.0019655047043339344,-0.0067478118597129565,-0.01778388303894493,-0.013854837117538257,0.006381750721525444, ,0.007634210504147082, ,0.02254380166490297, ,4.817522321922028e-05, ,0.21269178608901723,-0.23090199020643862,0.09645175374,1.8173827401803726,0.8203655445917044,-1.2069709550991976, ,0.0175054310198249,-0.002386664428785375,0.007384706314325453,0.01179807211058013,0.0011669337481546656,0.0282877368999885, ,1.0867819786071777
0.011502313208083075,0.02150542587534711,-0.08383632834205401, ,0.011799876117494557,0.021671923884438435,-0.0841656001075061, ,0.0004740096703789197, ,0.00298077110573556,0.0019655047043339344,-0.0067478118597129565,-0.01778388303894493,-0.013854837117538257,0.006381750721525444, ,0.007634210504147082, ,0.02254380166490297, ,4.871009984376778e-05, ,0.21269178608901723,-0.23090199020643862,0.09645175374,1.8173827401803726,0.8203655445917044,-1.2069709550991976, ,0.0175054310198249,-0.002386664428785375,0.007384706314325453,0.01179807211058013,0.0011669337481546656,0.0282877368999885, ,1.091655969619751
0.011533195546249164,0.021525710398914592,-0.0839121588170745, ,0.01182038989583913,0.021683669758440285,-0.08421429515101977, ,0.0004457781039800604, ,0.0032975788171858305,0.0021540926005285755,-0.008328979283586781,-0.015206130405530895,-0.012684350430719221,0.004163847041719664, ,0.009213361867072323, ,0.01980199756783186, ,4.919418353431505e-05, ,0.21286940894512438,-0.23091743567218706,0.0965347163,1.8173827401803726,0.8205021810914699,-1.2070823730028941, ,0.017304329241150763,-0.0003262129602180932,0.00900441578292821,0.010468987805941809,0.0024847957644718206,0.022557829482738705, ,1.0966029167175293
0.011533195546249164,0.021525710398914592,-0.0839121588170745, ,0.011840971255895543,0.021695225154360006,-0.08426306901558728, ,0.0004965874617651191, ,0.0032975788171858305,0.0021540926005285755,-0.008328979283586781,-0.015206130405530895,-0.012684350430719221,0.004163847041719664, ,0.009213361867072323, ,0.01980199756783186, ,4.9755284677662595e-05, ,0.21286940894512438,-0.23091743567218706,0.0965347163,1.8173827401803726,0.8205021810914699,-1.2070823730028941, ,0.017304329241150763,-0.0003262129602180932,0.00900441578292821,0.010468987805941809,0.0024847957644718206,0.022557829482738705, ,1.1015307903289795
0.01156910812545314,0.02155045468594234,-0.08400721831465081, ,0.011861619974449157,0.021706591028792174,-0.08431192122695612, ,0.00045031722610724436, ,0.0037035842651583673,0.002593348479221048,-0.009925778557403545,-0.009679684197789667,-0.01358282716400064,0.0015869062081005066, ,0.010907019423949825, ,0.016679010270170228, ,5.02369668729814e-05, ,0.21304703180123155,-0.2309328811379355,0.09663712321000001,1.8173827401803726,0.8205021810914699,-1.2069190155226128, ,0.01798653175861842,-0.0009974162079949766,0.010704846451612904,0.009374939429289608,0.0024847957644718206,0.0162261411381489, ,1.1064939498901367
0.01156910812545314,0.02155045468594234,-0.08400721831465081, ,0.011882335828741344,0.021717768336387604,-0.08436085131168539, ,0.0005011604017918574, ,0.0037035842651583673,0.002593348479221048,-0.009925778557403545,-0.009679684197789667,-0.01358282716400064,0.0015869062081005066, ,0.010907019423949825, ,0.016679010270170228, ,5.079500747994464e-05, ,0.21304703180123155,-0.2309328811379355,0.09663712321000001,1.8173827401803726,0.8205021810914699,-1.2069190155226128, ,0.01798653175861842,-0.0009974162079949766,0.010704846451612904,0.009374939429289608,0.0024847957644718206,0.0162261411381489, ,1.1114277839660645
0.01160639037634521,0.021577706563303243,-0.08410682520260064, ,0.011903118596468696,0.021728758029855556,-0.08440985879714696, ,0.00045021499485126256, ,0.004111788496188503,0.002977960777116179,-0.011377983950770096,-0.002693510522586332,-0.016308566100715387,0.002857180921488586, ,0.012459276616698595, ,0.016529492929526674, ,5.1267004266650546e-05, ,0.21322465465733872,-0.23094832660368397,0.09674471528,1.8175924301238569,0.8205021810914699,-1.2067556580423315, ,0.019159487494139062,-0.0018718666726347442,0.012252931938461541,0.002365283220245473,0.0024847957644718206,0.006816102271150741, ,1.118607997894287
0.01161199369407102,0.021582150858268843,-0.08412422820191434, ,0.01192396805578308,0.02173956105996481,-0.08445894321152392, ,0.00048388026579056735, ,0.004155608683840593,0.0030085040828522645,-0.011499223911312558,-0.0022548024944907537,-0.016049821586850865,0.002746599207366646, ,0.012591756466524143, ,0.016207427500718522, ,5.1787634003228807e-05, ,0.2132555455888356,-0.23094832660368397,0.09676415963000001,1.8175924301238569,0.8206388175912352,-1.206867075946028, ,0.019390466195028766,-0.0018718666726347442,0.012386323110419907,0.002365283220245473,0.003001541512282171,0.00639473076306977, ,1.1238858699798584
0.01161199369407102,0.021582150858268843,-0.08412422820191434, ,0.011944883985290611,0.021750178375545513,-0.0845081040838101, ,0.0005351727620606925, ,0.004155608683840593,0.0030085040828522645,-0.011499223911312558,-0.0022548024944907537,-0.016049821586850865,0.002746599207366646, ,0.012591756466524143, ,0.016207427500718522, ,5.238388182120527e-05, ,0.2132555455888356,-0.23094832660368397,0.09676415963000001,1.8175924301238569,0.8206388175912352,-1.206867075946028, ,0.019390466195028766,-0.0018718666726347442,0.012386323110419907,0.002365283220245473,0.003001541512282171,0.00639473076306977, ,1.1289567947387695
0.01161199369407102,0.021582150858268843,-0.08412422820191434, ,0.01196586616405178,0.021760610923490784,-0.08455734094381019, ,0.0005870778202945871, ,0.004155608683840593,0.0030085040828522645,-0.011499223911312558,-0.0022548024944907537,-0.016049821586850865,0.002746599207366646, ,0.012591756466524143, ,0.016207427500718522, ,5.3138670642257194e-05, ,0.2132555455888356,-0.23094832660368397,0.09676415963000001,1.8175924301238569,0.8206388175912352,-1.206867075946028, ,0.019390466195028766,-0.0018718666726347442,0.012386323110419907,0.002365283220245473,0.003001541512282171,0.00639473076306977, ,1.132239818572998
0.011689143563838112,0.021636335010292454,-0.08433485497782195, ,0.01198691437158082,0.021770859648758148,-0.08460665332213878, ,0.00042501608472084824, ,0.0037744809541977765,0.0024784254632914922,-0.009423887630945609,0.0038078513309582254,-0.006723816715717406,-0.009638394698714567, ,0.01044983049294978, ,0.007727183746849509, ,5.363592297211107e-05, ,0.21363395949967262,-0.2309560493365582,0.09699230667000001,1.8178021200673418,0.8209120905907662,-1.20692655427314, ,0.02040794442117651,-0.00045548746175584295,0.010256800721184806,0.01469734578182935,0.010945389914455558,0.0021999252251675913, ,1.1355597972869873
0.011689143563838112,0.021636335010292454,-0.08433485497782195, ,0.012008028387845327,0.02178092549437142,-0.08465604075022022, ,0.0004751360220603952, ,0.0037744809541977765,0.0024784254632914922,-0.009423887630945609,0.0038078513309582254,-0.006723816715717406,-0.009638394698714567, ,0.01044983049294978, ,0.007727183746849509, ,5.4208029000285524e-05, ,0.21363395949967262,-0.2309560493365582,0.09699230667000001,1.8178021200673418,0.8209120905907662,-1.20692655427314, ,0.02040794442117651,-0.00045548746175584295,0.010256800721184806,0.01469734578182935,0.010945389914455558,0.0021999252251675913, ,1.1387929916381836
0.011689143563838112,0.021636335010292454,-0.08433485497782195, ,0.012029207993265578,0.021790809401421994,-0.08470550276028771, ,0.0005261995176009338, ,0.0037744809541977765,0.0024784254632914922,-0.009423887630945609,0.0038078513309582254,-0.006723816715717406,-0.009638394698714567, ,0.01044983049294978, ,0.007727183746849509, ,5.485575529423957e-05, ,0.21363395949967262,-0.2309560493365582,0.09699230667000001,1.8178021200673418,0.8209120905907662,-1.20692655427314, ,0.02040794442117651,-0.00045548746175584295,0.010256800721184806,0.01469734578182935,0.010945389914455558,0.0021999252251675913, ,1.1420578956604004
0.011731224610877302,0.021661980227972638,-0.08443284290045366, ,0.012050452968714527,0.02180051230907077,-0.08475503888538338, ,0.0004742448045531568, ,0.00420598252718594,0.002478849176099834,-0.010057252208685237,-0.001604614204547787,-0.010480969692726577,-0.005895086276025073, ,0.011179593205745382, ,0.010603084907219822, ,5.541917615044464e-05, ,0.21387336421877357,-0.23097149480230664,0.09709860245000002,1.8178021200673418,0.8209120905907662,-1.2066815180527182, ,0.023765825584390377,0.00122012072161234,0.010925110781893005,0.013051476411870043,0.010945389914455558,0.00646924242749991, ,1.1453068256378174
0.011731224610877302,0.021661980227972638,-0.08443284290045366, ,0.01207176309551717,0.02181003515454947,-0.08480464865935715, ,0.000525477157598962, ,0.00420598252718594,0.002478849176099834,-0.010057252208685237,-0.001604614204547787,-0.010480969692726577,-0.005895086276025073, ,0.011179593205745382, ,0.010603084907219822, ,5.6058064910534126e-05, ,0.21387336421877357,-0.23097149480230664,0.09709860245000002,1.8178021200673418,0.8209120905907662,-1.2066815180527182, ,0.023765825584390377,0.00122012072161234,0.010925110781893005,0.013051476411870043,0.010945389914455558,0.00646924242749991, ,1.14854097366333
0.011731224610877302,0.021661980227972638,-0.08443284290045366, ,0.012093138155450071,0.021819378873162397,-0.08485433161686702, ,0.0005774153490483054, ,0.00420598252718594,0.002478849176099834,-0.010057252208685237,-0.001604614204547787,-0.010480969692726577,-0.005895086276025073, ,0.011179593205745382, ,0.010603084907219822, ,5.677281025496921e-05, ,0.21387336421877357,-0.23097149480230664,0.09709860245000002,1.8178021200673418,0.8209120905907662,-1.2066815180527182, ,0.023765825584390377,0.00122012072161234,0.010925110781893005,0.013051476411870043,0.010945389914455558,0.00646924242749991, ,1.1517767906188965
0.011771224388571866,0.02168683066227936,-0.08453494502616106, ,0.012114577930741006,0.02182854439828795,-0.08490408729337792, ,0.0005236797221008405, ,0.004635607806639683,0.0030129276574064664,-0.011977901767384776,0.0037008387226776483,-0.002376756630003184,-0.004192755810452241, ,0.013192297887588156, ,0.004398287482675085, ,5.740088698022328e-05, ,0.2140973234721261,-0.23096377206943242,0.09721008339000001,1.8178021200673418,0.8211853635902971,-1.20674099637983, ,0.024552895616680667,0.0004947785843122045,0.013024375731807033,0.011852227815166578,0.020635466294982672,0.002762499047686681, ,1.155324935913086
0.011771224388571866,0.02168683066227936,-0.08453494502616106, ,0.012136082204068557,0.021837532661380485,-0.08495391522516166, ,0.0005756460246650657, ,0.004635607806639683,0.0030129276574064664,-0.011977901767384776,0.0037008387226776483,-0.002376756630003184,-0.004192755810452241, ,0.013192297887588156, ,0.004398287482675085, ,5.810446598893262e-05, ,0.2140973234721261,-0.23096377206943242,0.09721008339000001,1.8178021200673418,0.8211853635902971,-1.20674099637983, ,0.024552895616680667,0.0004947785843122045,0.013024375731807033,0.011852227815166578,0.020635466294982672,0.002762499047686681, ,1.1614429950714111
0.011810195987576395,0.02171365593789471,-0.08463667623134483, ,0.012157650758561756,0.021846344591971472,-0.0850038149492966, ,0.0005226106916438484, ,0.005217457461093091,0.003274717290377996,-0.013347876974845746,0.0034853272015178097,-0.007491068803429344,0.005909223217645307, ,0.014700729758275055, ,0.008262154308465903, ,5.872303792145314e-05, ,0.21430583725973015,-0.23096377206943242,0.09732156433000001,1.818011810010826,0.821458636589828,-1.2068821534470822, ,0.028051120768096596,0.0004947785843122045,0.014493914030937218,0.0,0.02178466032087537,0.0002630212635379445, ,1.165226936340332
0.011810195987576395,0.02171365593789471,-0.08463667623134483, ,0.012179283377799546,0.02185498111767137,-0.08505378600366618, ,0.0005746119301116341, ,0.005217457461093091,0.003274717290377996,-0.013347876974845746,0.0034853272015178097,-0.007491068803429344,0.005909223217645307, ,0.014700729758275055, ,0.008262154308465903, ,5.941676455919021e-05, ,0.21430583725973015,-0.23096377206943242,0.09732156433000001,1.818011810010826,0.821458636589828,-1.2068821534470822, ,0.028051120768096596,0.0004947785843122045,0.014493914030937218,0.0,0.02178466032087537,0.0002630212635379445, ,1.1684749126434326
0.011810195987576395,0.02171365593789471,-0.08463667623134483, ,0.012200979845810285,0.02186344316417141,-0.08510382792695964, ,0.0006271992854967459, ,0.005217457461093091,0.003274717290377996,-0.013347876974845746,0.0034853272015178097,-0.007491068803429344,0.005909223217645307, ,0.014700729758275055, ,0.008262154308465903, ,6.018585042360529e-05, ,0.21430583725973015,-0.23096377206943242,0.09732156433000001,1.818011810010826,0.821458636589828,-1.2068821534470822, ,0.028051120768096596,0.0004947785843122045,0.014493914030937218,0.0,0.02178466032087537,0.0002630212635379445, ,1.171703815460205
0.011876347634659688,0.021756736658273698,-0.08480718600474871, ,0.012222739947071543,0.021871731655244833,-0.08515394025867112, ,0.0005034381749924352, ,0.005225078443479116,0.003486984099105606,-0.014141144621064,0.007298885195068085,0.0008428153526995083,-0.00019962709255987374, ,0.015473605722060154, ,0.007347346277553406, ,6.076362791100381e-05, ,0.21465336023907025,-0.2309560493365582,0.09750693380000001,1.8182214999543107,0.8217319095893589,-1.2068599530340534, ,0.026294525230942303,0.0007711789386859275,0.015345675838150292,0.006572101634693558,0.02714891204582389,-0.0018342894414571063, ,1.1752889156341553
0.011876347634659688,0.021756736658273698,-0.08480718600474871, ,0.012244563466509567,0.021879847512748594,-0.08520412253909895, ,0.0005552457056262755, ,0.005225078443479116,0.003486984099105606,-0.014141144621064,0.007298885195068085,0.0008428153526995083,-0.00019962709255987374, ,0.015473605722060154, ,0.007347346277553406, ,6.14158361061982e-05, ,0.21465336023907025,-0.2309560493365582,0.09750693380000001,1.8182214999543107,0.8217319095893589,-1.2068599530340534, ,0.026294525230942303,0.0007711789386859275,0.015345675838150292,0.006572101634693558,0.02714891204582389,-0.0018342894414571063, ,1.1785337924957275
0.011876347634659688,0.021756736658273698,-0.08480718600474871, ,0.012266450189498915,0.02188779165662521,-0.08525437430934528, ,0.0006077275669680963, ,0.005225078443479116,0.003486984099105606,-0.014141144621064,0.007298885195068085,0.0008428153526995083,-0.00019962709255987374, ,0.015473605722060154, ,0.007347346277553406, ,6.214281645815577e-05, ,0.21465336023907025,-0.2309560493365582,0.09750693380000001,1.8182214999543107,0.8217319095893589,-1.2068599530340534, ,0.026294525230942303,0.0007711789386859275,0.015345675838150292,0.006572101634693558,0.02714891204582389,-0.0018342894414571063, ,1.1824519634246826
0.011931829691832936,0.02179263288986104,-0.08495226930780407, ,0.012288399901861794,0.021895565004903965,-0.08530469511131598, ,0.0005118019948849863, ,0.0058643940534217785,0.0037526513397753455,-0.014938122868848462,0.0027460255560149407,-0.024327615984635023,-0.015605929098756766, ,0.016480929116301054, ,0.02448209165919277, ,6.272206363598637e-05, ,0.21493137862254233,-0.23094060387080972,0.09766378489000001,1.8184311898977952,0.8218685460891243,-1.2066446559771875, ,0.029498583014756222,0.0004870254286887878,0.01610597726996967,0.017132927360932162,0.00132778295651636,0.0007333641297670602, ,1.1856989860534668
0.011931829691832936,0.02179263288986104,-0.08495226930780407, ,0.012310412389868039,0.02190316847370295,-0.08535508448771961, ,0.0005637402271589281, ,0.0058643940534217785,0.0037526513397753455,-0.014938122868848462,0.0027460255560149407,-0.024327615984635023,-0.015605929098756766, ,0.016480929116301054, ,0.02448209165919277, ,6.337526199647364e-05, ,0.21493137862254233,-0.23094060387080972,0.09766378489000001,1.8184311898977952,0.8218685460891243,-1.2066446559771875, ,0.029498583014756222,0.0004870254286887878,0.01610597726996967,0.017132927360932162,0.00132778295651636,0.0007333641297670602, ,1.1889729499816895
0.011931829691832936,0.02179263288986104,-0.08495226930780407, ,0.012332487440234395,0.02191060297723029,-0.08540554198206726, ,0.000616360032855588, ,0.0058643940534217785,0.0037526513397753455,-0.014938122868848462,0.0027460255560149407,-0.024327615984635023,-0.015605929098756766, ,0.016480929116301054, ,0.02448209165919277, ,6.41027649814107e-05, ,0.21493137862254233,-0.23094060387080972,0.09766378489000001,1.8184311898977952,0.8218685460891243,-1.2066446559771875, ,0.029498583014756222,0.0004870254286887878,0.01610597726996967,0.017132927360932162,0.00132778295651636,0.0007333641297670602, ,1.1923949718475342
0.011990369229117441,0.021830001774025,-0.08510238520815784, ,0.01235462484012418,0.021917869427785935,-0.0854560671386719, ,0.0005152608879970409, ,0.005810318082361513,0.003398442671646143,-0.014581525424157277,-0.010874609669275904,-0.016288214160600473,0.02805619272423689, ,0.01606020213154329, ,0.01958474908709172, ,6.477213905116683e-05, ,0.21524028793751132,-0.23092515840506128,0.09782711743000001,1.8186408798412796,0.8221418190886551,-1.2068674917845803, ,0.03162177326173635,0.0013049611267340864,0.015786730941526265,-0.016223935837483758,0.020251470337549572,0.012569820375283435, ,1.1941068172454834
0.011990369229117441,0.021830001774025,-0.08510238520815784, ,0.012376824377146822,0.02192496873576311,-0.08550665950264832, ,0.0005672777189754214, ,0.005810318082361513,0.003398442671646143,-0.014581525424157277,-0.010874609669275904,-0.016288214160600473,0.02805619272423689, ,0.01606020213154329, ,0.01958474908709172, ,6.551659176216572e-05, ,0.21524028793751132,-0.23092515840506128,0.09782711743000001,1.8186408798412796,0.8221418190886551,-1.2068674917845803, ,0.03162177326173635,0.0013049611267340864,0.015786730941526265,-0.016223935837483758,0.020251470337549572,0.012569820375283435, ,1.1957569122314453
0.011990369229117441,0.021830001774025,-0.08510238520815784, ,0.012399085839357499,0.021931901809650337,-0.0855573186199121, ,0.0006199978176388526, ,0.005810318082361513,0.003398442671646143,-0.014581525424157277,-0.010874609669275904,-0.016288214160600473,0.02805619272423689, ,0.01606020213154329, ,0.01958474908709172, ,6.63368302619833e-05, ,0.21524028793751132,-0.23092515840506128,0.09782711743000001,1.8186408798412796,0.8221418190886551,-1.2068674917845803, ,0.03162177326173635,0.0013049611267340864,0.015786730941526265,-0.016223935837483758,0.020251470337549572,0.012569820375283435, ,1.19757080078125
0.011990369229117441,0.021830001774025,-0.08510238520815784, ,0.012421409015256752,0.02193866955603248,-0.08560804403717953, ,0.0006732717396779967, ,0.005810318082361513,0.003398442671646143,-0.014581525424157277,-0.010874609669275904,-0.016288214160600473,0.02805619272423689, ,0.01606020213154329, ,0.01958474908709172, ,6.723333677515319e-05, ,0.21524028793751132,-0.23092515840506128,0.09782711743000001,1.8186408798412796,0.8221418190886551,-1.2068674917845803, ,0.03162177326173635,0.0013049611267340864,0.015786730941526265,-0.016223935837483758,0.020251470337549572,0.012569820375283435, ,1.1994788646697998
0.011990369229117441,0.021830001774025,-0.08510238520815784, ,0.012443793693790003,0.02194527287959264,-0.0856588353019668, ,0.0007269923519834212, ,0.005810318082361513,0.003398442671646143,-0.014581525424157277,-0.010874609669275904,-0.016288214160600473,0.02805619272423689, ,0.01606020213154329, ,0.01958474908709172, ,6.820643266779076e-05, ,0.21524028793751132,-0.23092515840506128,0.09782711743000001,1.8186408798412796,0.8221418190886551,-1.2068674917845803, ,0.03162177326173635,0.0013049611267340864,0.015786730941526265,-0.016223935837483758,0.020251470337549572,0.012569820375283435, ,1.2030088901519775
0.011990369229117441,0.021830001774025,-0.08510238520815784, ,0.012466239664347019,0.021951712683113796,-0.08570969196258993, ,0.0007810811164633581, ,0.005810318082361513,0.003398442671646143,-0.014581525424157277,-0.010874609669275904,-0.016288214160600473,0.02805619272423689, ,0.01606020213154329, ,0.01958474908709172, ,6.925632174554564e-05, ,0.21524028793751132,-0.23092515840506128,0.09782711743000001,1.8186408798412796,0.8221418190886551,-1.2068674917845803, ,0.03162177326173635,0.0013049611267340864,0.015786730941526265,-0.016223935837483758,0.020251470337549572,0.012569820375283435, ,1.2048678398132324
0.012018387783381587,0.021847128312959898,-0.08517309249628688, ,0.01248874671676181,0.02195798986748028,-0.08576061356816407, ,0.0007607291373287742, ,0.005737938599407133,0.0033449435828010045,-0.014477958565239736,0.019694955703504633,0.012755975205626737,0.018059457928799018, ,0.01592871216261649, ,0.023464985563453774, ,0.0003853691258270505, ,0.21540246532787002,-0.23091743567218706,0.09790489483,1.8186408798412796,0.8224150920881861,-1.207090327591973, ,0.03326215967699642,0.0021175575418377677,0.015865350119521913,-0.016223935837483758,0.052594411289291855,-0.018669004963244917, ,1.2068889141082764
0.012018387783381587,0.021847128312959898,-0.08517309249628688, ,0.012511314641311704,0.021964105331679463,-0.08581159966860294, ,0.0008150778608675534, ,0.005737938599407133,0.0033449435828010045,-0.014477958565239736,0.019694955703504633,0.012755975205626737,0.018059457928799018, ,0.01592871216261649, ,0.023464985563453774, ,0.0003888067957073745, ,0.21540246532787002,-0.23091743567218706,0.09790489483,1.8186408798412796,0.8224150920881861,-1.207090327591973, ,0.03326215967699642,0.0021175575418377677,0.015865350119521913,-0.016223935837483758,0.052594411289291855,-0.018669004963244917, ,1.2086827754974365
0.012018387783381587,0.021847128312959898,-0.08517309249628688, ,0.012533943228717474,0.021970059972803366,-0.0858626498146187, ,0.0008697119669593692, ,0.005737938599407133,0.0033449435828010045,-0.014477958565239736,0.019694955703504633,0.012755975205626737,0.018059457928799018, ,0.01592871216261649, ,0.023464985563453774, ,0.0003926235034157237, ,0.21540246532787002,-0.23091743567218706,0.09790489483,1.8186408798412796,0.8224150920881861,-1.207090327591973, ,0.03326215967699642,0.0021175575418377677,0.015865350119521913,-0.016223935837483758,0.052594411289291855,-0.018669004963244917, ,1.210413932800293
0.012018387783381587,0.021847128312959898,-0.08517309249628688, ,0.012556632270142613,0.021975854686050084,-0.08591376355772054, ,0.0009245924658479873, ,0.005737938599407133,0.0033449435828010045,-0.014477958565239736,0.019694955703504633,0.012755975205626737,0.018059457928799018, ,0.01592871216261649, ,0.023464985563453774, ,0.0003968122354033793, ,0.21540246532787002,-0.23091743567218706,0.09790489483,1.8186408798412796,0.8224150920881861,-1.207090327591973, ,0.03326215967699642,0.0021175575418377677,0.015865350119521913,-0.016223935837483758,0.052594411289291855,-0.018669004963244917, ,1.2121319770812988
0.012118977184904706,0.02190638075938472,-0.08542434593676207, ,0.012579381557192869,0.021981490364725728,-0.08596494045021569, ,0.0007140420623553585, ,0.007851482384606616,0.004579710012025255,-0.019947103619171774,-0.01906715137723258,-0.029748985394253854,0.030916050880806064, ,0.021920457618946006, ,0.03533490109967318, ,0.0003992905934264416, ,0.21595850209481418,-0.23087882200781595,0.09817841202000001,1.8186408798412796,0.8229616380872479,-1.2072092842461966, ,0.04086862254886769,0.002749101719859797,0.02149637182186235,-0.016223935837483758,0.015830248170082276,0.019921281693393564, ,1.2144899368286133
0.012118977184904706,0.02190638075938472,-0.08542434593676207, ,0.012602190881916026,0.021986967900245645,-0.0860161800452078, ,0.0007682820941368028, ,0.007851482384606616,0.004579710012025255,-0.019947103619171774,-0.01906715137723258,-0.029748985394253854,0.030916050880806064, ,0.021920457618946006, ,0.03533490109967318, ,0.00040215099265675453, ,0.21595850209481418,-0.23087882200781595,0.09817841202000001,1.8186408798412796,0.8229616380872479,-1.2072092842461966, ,0.04086862254886769,0.002749101719859797,0.02149637182186235,-0.016223935837483758,0.015830248170082276,0.019921281693393564, ,1.2161459922790527
0.012118977184904706,0.02190638075938472,-0.08542434593676207, ,0.012625060036801375,0.02199228818213636,-0.0860674818965969, ,0.000822875325368526, ,0.007851482384606616,0.004579710012025255,-0.019947103619171774,-0.01906715137723258,-0.029748985394253854,0.030916050880806064, ,0.021920457618946006, ,0.03533490109967318, ,0.0004053873336776143, ,0.21595850209481418,-0.23087882200781595,0.09817841202000001,1.8186408798412796,0.8229616380872479,-1.2072092842461966, ,0.04086862254886769,0.002749101719859797,0.02149637182186235,-0.016223935837483758,0.015830248170082276,0.019921281693393564, ,1.217810869216919
0.012118977184904706,0.02190638075938472,-0.08542434593676207, ,0.012647988814779092,0.021997452098036968,-0.08611884555907867, ,0.0008777682032656287, ,0.007851482384606616,0.004579710012025255,-0.019947103619171774,-0.01906715137723258,-0.029748985394253854,0.030916050880806064, ,0.021920457618946006, ,0.03533490109967318, ,0.000408993294514164, ,0.21595850209481418,-0.23087882200781595,0.09817841202000001,1.8186408798412796,0.8229616380872479,-1.2072092842461966, ,0.04086862254886769,0.002749101719859797,0.02149637182186235,-0.016223935837483758,0.015830248170082276,0.019921281693393564, ,1.2194547653198242
0.012118977184904706,0.02190638075938472,-0.08542434593676207, ,0.012670977009220206,0.02200246053370072,-0.08617027058814446, ,0.0009329194577330312, ,0.007851482384606616,0.004579710012025255,-0.019947103619171774,-0.01906715137723258,-0.029748985394253854,0.030916050880806064, ,0.021920457618946006, ,0.03533490109967318, ,0.0004129624321143069, ,0.21595850209481418,-0.23087882200781595,0.09817841202000001,1.8186408798412796,0.8229616380872479,-1.2072092842461966, ,0.04086862254886769,0.002749101719859797,0.02149637182186235,-0.016223935837483758,0.015830248170082276,0.019921281693393564, ,1.2212209701538086
0.012118977184904706,0.02190638075938472,-0.08542434593676207, ,0.012694024413936019,0.022007314372996845,-0.08622175654008002, ,0.0009882968077745114, ,0.007851482384606616,0.004579710012025255,-0.019947103619171774,-0.01906715137723258,-0.029748985394253854,0.030916050880806064, ,0.021920457618946006, ,0.03533490109967318, ,0.0004172882544876919, ,0.21595850209481418,-0.23087882200781595,0.09817841202000001,1.8186408798412796,0.8229616380872479,-1.2072092842461966, ,0.04086862254886769,0.002749101719859797,0.02149637182186235,-0.016223935837483758,0.015830248170082276,0.019921281693393564, ,1.222930908203125
0.012208296788301471,0.021958064666685626,-0.08565257271567928, ,0.012717130823177452,0.022012014497911927,-0.08627330297196606, ,0.0008044431057616022, ,0.0093938421642861,0.00536107855344126,-0.0246702138022392,-0.004338377446696873,-0.02719433754399169,0.01935421238421235, ,0.02693705408748107, ,0.027538053218126062, ,0.0004201774697957062, ,0.21642186606726765,-0.23082476287769638,0.09842470712000001,1.8186408798412796,0.8232349110867787,-1.2073504413134488, ,0.04695543867316713,0.006982242783502476,0.026503846123128123,-0.01571276381735415,0.024741250750020694,-0.001262056771846931, ,1.224618911743164
0.012208296788301471,0.021958064666685626,-0.08565257271567928, ,0.012740296031634993,0.02201656178855155,-0.08632490944167669, ,0.000859349626926639, ,0.0093938421642861,0.00536107855344126,-0.0246702138022392,-0.004338377446696873,-0.02719433754399169,0.01935421238421235, ,0.02693705408748107, ,0.027538053218126062, ,0.00042343059688556493, ,0.21642186606726765,-0.23082476287769638,0.09842470712000001,1.8186408798412796,0.8232349110867787,-1.2073504413134488, ,0.04695543867316713,0.006982242783502476,0.026503846123128123,-0.01571276381735415,0.024741250750020694,-0.001262056771846931, ,1.2262768745422363
0.012208296788301471,0.021958064666685626,-0.08565257271567928, ,0.012763519834437968,0.022020957123142042,-0.0863765755078797, ,0.000914553516834424, ,0.0093938421642861,0.00536107855344126,-0.0246702138022392,-0.004338377446696873,-0.02719433754399169,0.01935421238421235, ,0.02693705408748107, ,0.027538053218126062, ,0.00042704179482636533, ,0.21642186606726765,-0.23082476287769638,0.09842470712000001,1.8186408798412796,0.8232349110867787,-1.2073504413134488, ,0.04695543867316713,0.006982242783502476,0.026503846123128123,-0.01571276381735415,0.024741250750020694,-0.001262056771846931, ,1.2278649806976318
0.012208296788301471,0.021958064666685626,-0.08565257271567928, ,0.012786802027154322,0.022025201378031867,-0.08642830073003585, ,0.0009700152584615236, ,0.0093938421642861,0.00536107855344126,-0.0246702138022392,-0.004338377446696873,-0.02719433754399169,0.01935421238421235, ,0.02693705408748107, ,0.027538053218126062, ,0.00043100510477990663, ,0.21642186606726765,-0.23082476287769638,0.09842470712000001,1.8186408798412796,0.8232349110867787,-1.2073504413134488, ,0.04695543867316713,0.006982242783502476,0.026503846123128123,-0.01571276381735415,0.024741250750020694,-0.001262056771846931, ,1.2295219898223877
0.012208296788301471,0.021958064666685626,-0.08565257271567928, ,0.012810142405790115,0.02202929542769345,-0.08648008466839838, ,0.0010257036611502467, ,0.0093938421642861,0.00536107855344126,-0.0246702138022392,-0.004338377446696873,-0.02719433754399169,0.01935421238421235, ,0.02693705408748107, ,0.027538053218126062, ,0.00043531451460867724, ,0.21642186606726765,-0.23082476287769638,0.09842470712000001,1.8186408798412796,0.8232349110867787,-1.2073504413134488, ,0.04695543867316713,0.006982242783502476,0.026503846123128123,-0.01571276381735415,0.024741250750020694,-0.001262056771846931, ,1.2311937808990479
0.012208296788301471,0.021958064666685626,-0.08565257271567928, ,0.012833540766789043,0.022033240144724558,-0.08653192688401258, ,0.0010815937955159073, ,0.0093938421642861,0.00536107855344126,-0.0246702138022392,-0.004338377446696873,-0.02719433754399169,0.01935421238421235, ,0.02693705408748107, ,0.027538053218126062, ,0.0004399640058382257, ,0.21642186606726765,-0.23082476287769638,0.09842470712000001,1.8186408798412796,0.8232349110867787,-1.2073504413134488, ,0.04695543867316713,0.006982242783502476,0.026503846123128123,-0.01571276381735415,0.024741250750020694,-0.001262056771846931, ,1.2328898906707764
0.012304497340372814,0.02201777066267031,-0.08591999916158953, ,0.01285699690703208,0.022037036399850128,-0.08658382693871536, ,0.0008638832429625987, ,0.010118135765845516,0.006322281049249559,-0.028721365829040384,0.07151090164686238,0.036382905189055834,-0.011005569636196807, ,0.03110088043974561, ,0.08023406570655318, ,0.00044299200038911405, ,0.21688523003972113,-0.23075525828182836,0.09870340947,1.8186408798412796,0.8240547300853713,-1.2077739125152058, ,0.049245947876736265,0.008008919455816001,0.031050314853801175,-0.01373879723605036,0.09383933296655557,-0.08012400406709416, ,1.2345829010009766
0.012304497340372814,0.02201777066267031,-0.08591999916158953, ,0.012880510623837226,0.02204068506192363,-0.08663578439513445, ,0.0009190565123982004, ,0.010118135765845516,0.006322281049249559,-0.028721365829040384,0.07151090164686238,0.036382905189055834,-0.011005569636196807, ,0.03110088043974561, ,0.08023406570655318, ,0.000446368344445916, ,0.21688523003972113,-0.23075525828182836,0.09870340947,1.8186408798412796,0.8240547300853713,-1.2077739125152058, ,0.049245947876736265,0.008008919455816001,0.031050314853801175,-0.01373879723605036,0.09383933296655557,-0.08012400406709416, ,1.2362477779388428
0.012304497340372814,0.02201777066267031,-0.08591999916158953, ,0.012904081714958689,0.022044186997928872,-0.08668779881668819, ,0.0009745335065484622, ,0.010118135765845516,0.006322281049249559,-0.028721365829040384,0.07151090164686238,0.036382905189055834,-0.011005569636196807, ,0.03110088043974561, ,0.08023406570655318, ,0.0004500878174184691, ,0.21688523003972113,-0.23075525828182836,0.09870340947,1.8186408798412796,0.8240547300853713,-1.2077739125152058, ,0.049245947876736265,0.008008919455816001,0.031050314853801175,-0.01373879723605036,0.09383933296655557,-0.08012400406709416, ,1.2379028797149658
0.012304497340372814,0.02201777066267031,-0.08591999916158953, ,0.012927709978586749,0.02204754307298154,-0.08673986976758544, ,0.0010302757880399829, ,0.010118135765845516,0.006322281049249559,-0.028721365829040384,0.07151090164686238,0.036382905189055834,-0.011005569636196807, ,0.03110088043974561, ,0.08023406570655318, ,0.00045414507595428386, ,0.21688523003972113,-0.23075525828182836,0.09870340947,1.8186408798412796,0.8240547300853713,-1.2077739125152058, ,0.049245947876736265,0.008008919455816001,0.031050314853801175,-0.01373879723605036,0.09383933296655557,-0.08012400406709416, ,1.2401268482208252
0.012304497340372814,0.02201777066267031,-0.08591999916158953, ,0.012951395213347296,0.02205075415033074,-0.08679199681282403, ,0.0010862525821721354, ,0.010118135765845516,0.006322281049249559,-0.028721365829040384,0.07151090164686238,0.036382905189055834,-0.011005569636196807, ,0.03110088043974561, ,0.08023406570655318, ,0.0004585347114141301, ,0.21688523003972113,-0.23075525828182836,0.09870340947,1.8186408798412796,0.8240547300853713,-1.2077739125152058, ,0.049245947876736265,0.008008919455816001,0.031050314853801175,-0.01373879723605036,0.09383933296655557,-0.08012400406709416, ,1.2419459819793701
0.012304497340372814,0.02201777066267031,-0.08591999916158953, ,0.012975137218301373,0.022053821091360584,-0.08684417951819152, ,0.0011424389746528146, ,0.010118135765845516,0.006322281049249559,-0.028721365829040384,0.07151090164686238,0.036382905189055834,-0.011005569636196807, ,0.03110088043974561, ,0.08023406570655318, ,0.0004632512925399141, ,0.21688523003972113,-0.23075525828182836,0.09870340947,1.8186408798412796,0.8240547300853713,-1.2077739125152058, ,0.049245947876736265,0.008008919455816001,0.031050314853801175,-0.01373879723605036,0.09383933296655557,-0.08012400406709416, ,1.244391918182373
0.012304497340372814,0.02201777066267031,-0.08591999916158953, ,0.012998935792944775,0.022056744755591967,-0.08689641745026412, ,0.0011988145889952385, ,0.010118135765845516,0.006322281049249559,-0.028721365829040384,0.07151090164686238,0.036382905189055834,-0.011005569636196807, ,0.03110088043974561, ,0.08023406570655318, ,0.000468289397310156, ,0.21688523003972113,-0.23075525828182836,0.09870340947,1.8186408798412796,0.8240547300853713,-1.2077739125152058, ,0.049245947876736265,0.008008919455816001,0.031050314853801175,-0.01373879723605036,0.09383933296655557,-0.08012400406709416, ,1.2462158203125
0.012396682892313063,0.02207248950591335,-0.0861775334535654, ,0.01302279073720764,0.022059526000683987,-0.08694871017640579, ,0.0009934246945577797, ,0.011329801727058022,0.006848240854193511,-0.03181954044306084,0.0310859710871499,0.00421077582480437,-0.0016362684606209537, ,0.03446369051594847, ,0.0313693419210951, ,0.0004718617462710242, ,0.21734087127930038,-0.23066258548733765,0.09899248214,1.8184311898977952,0.8246012760844331,-1.2082195841299914, ,0.05280853731690082,0.010751146665096585,0.034255508645161296,-0.007404483442515082,0.06196487318344486,-0.03884350603353406, ,1.2486169338226318
0.012396682892313063,0.02207248950591335,-0.0861775334535654, ,0.013046701851453827,0.022062165682435644,-0.0870010572647689, ,0.0010492009798855405, ,0.011329801727058022,0.006848240854193511,-0.03181954044306084,0.0310859710871499,0.00421077582480437,-0.0016362684606209537, ,0.03446369051594847, ,0.0313693419210951, ,0.0004757626870386898, ,0.21734087127930038,-0.23066258548733765,0.09899248214,1.8184311898977952,0.8246012760844331,-1.2082195841299914, ,0.05280853731690082,0.010751146665096585,0.034255508645161296,-0.007404483442515082,0.06196487318344486,-0.03884350603353406, ,1.2502658367156982
0.012396682892313063,0.02207248950591335,-0.0861775334535654, ,0.013070668936480841,0.022064664654787507,-0.0870534582842924, ,0.0011052432877480859, ,0.011329801727058022,0.006848240854193511,-0.03181954044306084,0.0310859710871499,0.00421077582480437,-0.0016362684606209537, ,0.03446369051594847, ,0.0313693419210951, ,0.00047998738905687366, ,0.21734087127930038,-0.23066258548733765,0.09899248214,1.8184311898977952,0.8246012760844331,-1.2082195841299914, ,0.05280853731690082,0.010751146665096585,0.034255508645161296,-0.007404483442515082,0.06196487318344486,-0.03884350603353406, ,1.2519288063049316
0.012396682892313063,0.02207248950591335,-0.0861775334535654, ,0.01309469179351924,0.022067023769822974,-0.0871059128047028, ,0.0011615225008807931, ,0.011329801727058022,0.006848240854193511,-0.03181954044306084,0.0310859710871499,0.00421077582480437,-0.0016362684606209537, ,0.03446369051594847, ,0.0313693419210951, ,0.0004845309564690331, ,0.21734087127930038,-0.23066258548733765,0.09899248214,1.8184311898977952,0.8246012760844331,-1.2082195841299914, ,0.05280853731690082,0.010751146665096585,0.034255508645161296,-0.007404483442515082,0.06196487318344486,-0.03884350603353406, ,1.2537658214569092
0.012396682892313063,0.02207248950591335,-0.0861775334535654, ,0.013118770224231946,0.022069243877770404,-0.08715842039651192, ,0.0012180147141404966, ,0.011329801727058022,0.006848240854193511,-0.03181954044306084,0.0310859710871499,0.00421077582480437,-0.0016362684606209537, ,0.03446369051594847, ,0.0313693419210951, ,0.0004893884647979832, ,0.21734087127930038,-0.23066258548733765,0.09899248214,1.8184311898977952,0.8246012760844331,-1.2082195841299914, ,0.05280853731690082,0.010751146665096585,0.034255508645161296,-0.007404483442515082,0.06196487318344486,-0.03884350603353406, ,1.2554857730865479
0.012396682892313063,0.02207248950591335,-0.0861775334535654, ,0.013142904030714393,0.022071325827004228,-0.08721098063101823, ,0.0012747001255710366, ,0.011329801727058022,0.006848240854193511,-0.03181954044306084,0.0310859710871499,0.00421077582480437,-0.0016362684606209537, ,0.03446369051594847, ,0.0313693419210951, ,0.0004945549888820166, ,0.21734087127930038,-0.23066258548733765,0.09899248214,1.8184311898977952,0.8246012760844331,-1.2082195841299914, ,0.05280853731690082,0.010751146665096585,0.034255508645161296,-0.007404483442515082,0.06196487318344486,-0.03884350603353406, ,1.2571208477020264
0.01258340597239651,0.022183861907735695,-0.08669161969750475, ,0.013167093015493642,0.022073270464046866,-0.08726359308030546, ,0.0008246663460631473, ,0.012344738573419516,0.006985747213588056,-0.032493110383172784,0.007328115457990914,-0.0266249087540036,0.004954303188313808, ,0.03545413173314608, ,0.027614322762994387, ,0.0004967125794518278, ,0.21820581736121353,-0.23049268536410472,0.09954470168000001,1.8184311898977952,0.8252844585832603,-1.2086133161681925, ,0.060099393007264586,0.010877687019540437,0.034931604210526324,-0.00672907991930114,0.0369977368967427,-0.01526017494406178, ,1.258758783340454
0.01258340597239651,0.022183861907735695,-0.08669161969750475, ,0.013191336981528077,0.022075078633570253,-0.08731625731724191, ,0.000878399720282735, ,0.012344738573419516,0.006985747213588056,-0.032493110383172784,0.007328115457990914,-0.0266249087540036,0.004954303188313808, ,0.03545413173314608, ,0.027614322762994387, ,0.0004991910673793013, ,0.21820581736121353,-0.23049268536410472,0.09954470168000001,1.8184311898977952,0.8252844585832603,-1.2086133161681925, ,0.060099393007264586,0.010877687019540437,0.034931604210526324,-0.00672907991930114,0.0369977368967427,-0.01526017494406178, ,1.260490894317627
0.01258340597239651,0.022183861907735695,-0.08669161969750475, ,0.013215635732207066,0.022076751178397386,-0.08736897291548046, ,0.0009327349888535066, ,0.012344738573419516,0.006985747213588056,-0.032493110383172784,0.007328115457990914,-0.0266249087540036,0.004954303188313808, ,0.03545413173314608, ,0.027614322762994387, ,0.0005019881249371993, ,0.21820581736121353,-0.23049268536410472,0.09954470168000001,1.8184311898977952,0.8252844585832603,-1.2086133161681925, ,0.060099393007264586,0.010877687019540437,0.034931604210526324,-0.00672907991930114,0.0369977368967427,-0.01526017494406178, ,1.2621228694915771
0.01258340597239651,0.022183861907735695,-0.08669161969750475, ,0.013239989071350515,0.02207828893950386,-0.08742173944945772, ,0.0009875838544879095, ,0.012344738573419516,0.006985747213588056,-0.032493110383172784,0.007328115457990914,-0.0266249087540036,0.004954303188313808, ,0.03545413173314608, ,0.027614322762994387, ,0.000505100918075345, ,0.21820581736121353,-0.23049268536410472,0.09954470168000001,1.8184311898977952,0.8252844585832603,-1.2086133161681925, ,0.060099393007264586,0.010877687019540437,0.034931604210526324,-0.00672907991930114,0.0369977368967427,-0.01526017494406178, ,1.2637698650360107
0.01258340597239651,0.022183861907735695,-0.08669161969750475, ,0.013264396803208275,0.022079692756019693,-0.08747455649439458, ,0.0010428757125099028, ,0.012344738573419516,0.006985747213588056,-0.032493110383172784,0.007328115457990914,-0.0266249087540036,0.004954303188313808, ,0.03545413173314608, ,0.027614322762994387, ,0.0005085262352373485, ,0.21820581736121353,-0.23049268536410472,0.09954470168000001,1.8184311898977952,0.8252844585832603,-1.2086133161681925, ,0.060099393007264586,0.010877687019540437,0.034931604210526324,-0.00672907991930114,0.0369977368967427,-0.01526017494406178, ,1.2654368877410889
0.01258340597239651,0.022183861907735695,-0.08669161969750475, ,0.013288858732459958,0.022080963465230762,-0.08752742362629357, ,0.001098553546045847, ,0.012344738573419516,0.006985747213588056,-0.032493110383172784,0.007328115457990914,-0.0266249087540036,0.004954303188313808, ,0.03545413173314608, ,0.027614322762994387, ,0.0005122605853057567, ,0.21820581736121353,-0.23049268536410472,0.09954470168000001,1.8184311898977952,0.8252844585832603,-1.2086133161681925, ,0.060099393007264586,0.010877687019540437,0.034931604210526324,-0.00672907991930114,0.0369977368967427,-0.01526017494406178, ,1.267082929611206
0.012705386575421546,0.022243129430995483,-0.08699879197934257, ,0.013313374664214395,0.02208210190258048,-0.08758034042194077, ,0.0008566084123505978, ,0.012873475918581337,0.00554862367345631,-0.030417081811007485,0.015098493837100433,-0.020363438410974117,-0.005934333224538258, ,0.03349197624496733, ,0.025349716039024302, ,0.0005144262949098123, ,0.21884680418977415,-0.23032278524087177,0.09987525563,1.8182214999543107,0.8258310045823221,-1.209058987782978, ,0.0718372002713632,0.021755374039080875,0.03277533234567902,-0.003670282833933263,0.055202594317432435,-0.03299204509274885, ,1.2687578201293945
0.012705386575421546,0.022243129430995483,-0.08699879197934257, ,0.013337944404009221,0.02208310890167125,-0.087633306458904, ,0.0009101343862781368, ,0.012873475918581337,0.00554862367345631,-0.030417081811007485,0.015098493837100433,-0.020363438410974117,-0.005934333224538258, ,0.03349197624496733, ,0.025349716039024302, ,0.0005168994704808644, ,0.21884680418977415,-0.23032278524087177,0.09987525563,1.8182214999543107,0.8258310045823221,-1.209058987782978, ,0.0718372002713632,0.021755374039080875,0.03277533234567902,-0.003670282833933263,0.055202594317432435,-0.03299204509274885, ,1.2704107761383057
0.012705386575421546,0.022243129430995483,-0.08699879197934257, ,0.013362567757810414,0.022083985294266292,-0.08768632131553242, ,0.000964318697766957, ,0.012873475918581337,0.00554862367345631,-0.030417081811007485,0.015098493837100433,-0.020363438410974117,-0.005934333224538258, ,0.03349197624496733, ,0.025349716039024302, ,0.0005196784718925792, ,0.21884680418977415,-0.23032278524087177,0.09987525563,1.8182214999543107,0.8258310045823221,-1.209058987782978, ,0.0718372002713632,0.021755374039080875,0.03277533234567902,-0.003670282833933263,0.055202594317432435,-0.03299204509274885, ,1.2720627784729004
