NicholasDascanio/dvrk_moveit_final/test/execution/third_experiment_notsharpbends/thirdexp_700vel4.0/thirdexp_700vel4.0_21.csv
Current Position (x),Current Position (y),Current Position (z), ,Planned Position (x),Planned Position (y),Planned Position (z), ,Position Error,,Cartesian linear Velocity(x),Cartesian linear Velocity(y),Cartesian linear Velocity(z),Cartesian Angular Velocity(x),Cartesian Angular Velocity(y),Cartesian Angular Velocity(z), ,Total Linear Velocity, ,Total Angular Velocity, ,MSE, ,Joint 1 Position,Joint 2 Position,Joint 3 Position,Joint 4 Position,Joint 5 Position,Joint 6 Position, ,Joint 1 Velocity,Joint 2 Velocity,Joint 3 Velocity,Joint 4 Velocity,Joint 5 Velocity,Joint 6 Velocity, ,Time Stamp
0.01003613855687555,0.020032725625659737,-0.07887186653211399, ,0.010016793355565825,0.019941275721700742,-0.07887895175466893, ,9.37417843145528e-05, ,7.195989251355427e-06,-2.1405531465865284e-05,3.5316321494012116e-05,-0.06099141705778324,-0.0007565072703066282,0.04493213355117776, ,4.1919227122052166e-05, ,0.06099610854773015, ,7.811815359546067e-06, ,0.20722409121406626,-0.228507943015429,0.09105529847,1.8096242122714452,0.8103910801088273,-1.2152548748976117, ,0.0001945843538873028,0.00010405716195651414,-3.8445660011116014e-05,-0.0007131764541269052,0.0,0.07516970295823622, ,0.016849994659423828
0.010034253187230259,0.020033292803196052,-0.07887206260248525, ,0.010037115103931255,0.019963334884725924,-0.07896658482332533, ,0.0001176297205489236, ,5.685216561670329e-05,0.0003088959089030297,-0.001218632797938953,-0.407589910923334,0.02634349167421619,0.3100735235710296, ,0.0012584572887010743, ,0.40844034453035877, ,9.607795675612563e-06, ,0.20723181394694049,-0.228507943015429,0.09105789105,1.8096242122714452,0.8108009896081236,-1.2085647569566127, ,-7.456929028690267e-05,0.00016227958214920448,0.001446805141742897,-0.0007131764541269052,0.03087750339748111,0.5112474591289295, ,0.03329586982727051
0.010017485808095576,0.02003462997214693,-0.07886503053135904, ,0.01005748742043255,0.019985202919878382,-0.07905395733606402, ,0.00019934016158704, ,-0.001709585060628924,0.0003685489375052724,-0.00021368330655904385,-0.14403755289763345,0.26010347259503624,0.21659710842756652, ,0.0017618654756717022, ,0.2973224396185652, ,1.2834739576578638e-05, ,0.20723181394694049,-0.228507943015429,0.09107992798,1.8096242122714452,0.8153099941003832,-1.2030935288828517, ,-0.00048460010915118745,0.00016227958214920448,0.001089572203407841,-0.0007131764541269052,0.16494556610653124,0.15432835625329622, ,0.049939870834350586
0.010002201137531303,0.02004208043475211,-0.07888095307788942, ,0.010077910153454415,0.020006880574316606,-0.07914107020855346, ,0.0002731882261950867, ,0.00019526215542460475,0.0005778152393520037,-0.002307003064174713,-0.08134984064858533,0.037667798182869264,0.07658414504353833, ,0.0023862650519755743, ,0.08964741821954632, ,1.6283330777276266e-05, ,0.20723181394694049,-0.228507943015429,0.09109807604,1.8096242122714452,0.8162664495987413,-1.2019131644453531, ,-0.00048460010915118745,0.00016227958214920448,0.0026389681113320085,-0.0007131764541269052,0.040301445688858246,0.1100261937509911, ,0.06729984283447266
0.010016989025667108,0.020059958484815683,-0.07895828545586864, ,0.010098383151627598,0.020028368593912084,-0.07922792435465258, ,0.000283422053985904, ,0.0013170809636340551,0.0012364445679881695,-0.005133405963528631,0.4066213837796212,-0.028471457353072785,-0.31208350038852606, ,0.005441999101512786, ,0.40761694472518817, ,1.8602345127528982e-05, ,0.20722409121406626,-0.2285002202825548,0.09117974231,1.8096242122714452,0.8164030860985066,-1.2077420941588888, ,0.00039609650514669587,-0.0007264530503070404,0.005214013590834698,-0.0007131764541269052,-0.03342754708356928,-0.5123041314945493, ,0.08367180824279785
0.010040599155361164,0.020074727860818303,-0.07902736088319604, ,0.010118906263827991,0.02004966772325031,-0.07931452068641386, ,0.00029869845382167557, ,0.0030461504202305483,0.0017489768774482215,-0.00820632892537037,0.12461549862784622,-0.19395384185393258,-0.17296230264619558, ,0.008926465534123218, ,0.23053658111230363, ,2.041968387827714e-05, ,0.2072395366798147,-0.228507943015429,0.09129900099,1.8096242122714452,0.8132604466039015,-1.2124488902463813, ,-0.0007603618526291227,-3.256719430978725e-05,0.006758087195587612,-0.0007131764541269052,-0.21771126933580556,0.017269866990671894, ,0.10360598564147949
0.01009020161274998,0.020109589969826938,-0.07918262182420906, ,0.010139479339177226,0.020070778705631964,-0.07940086011408404, ,0.0002270739080515567, ,0.0010020914287039873,0.0010361232468606109,-0.004719366282071045,-0.09899759284333577,-0.0010182640271946346,0.07211370411539439, ,0.004934587796211154, ,0.09900282949523652, ,2.0737420951454712e-05, ,0.20723181394694049,-0.22851566574830323,0.09139233387000001,1.8096242122714452,0.8123039911055435,-1.2117506436606467, ,0.00013485667902730927,0.0009625350284207953,0.004931520594427244,-0.0007131764541269052,0.0,0.12132008710914896, ,0.11997199058532715
0.01010731719631701,0.02013184226776997,-0.07927524233857404, ,0.010160102227041945,0.02009170228307306,-0.07948694354610565, ,0.00022184426769795705, ,0.000539773677547203,0.0011421065923190846,-0.004527604960924829,0.00743765096438812,0.056233571188796065,0.01877138985420898, ,0.004700528669562889, ,0.05672330366446298, ,2.0913885075642636e-05, ,0.20725498214556318,-0.228507943015429,0.09149344449,1.8096242122714452,0.8129871736043707,-1.209122262313647, ,-0.000546524329127815,0.0,0.0050761030975143406,-0.0007131764541269052,0.05904178361649121,0.0042315608751495384, ,0.13652396202087402
0.01010731719631701,0.02013184226776997,-0.07927524233857404, ,0.010180774777033903,0.02011243919630666,-0.07957277188911854, ,0.00030707707305203247, ,0.000539773677547203,0.0011421065923190846,-0.004527604960924829,0.00743765096438812,0.056233571188796065,0.01877138985420898, ,0.004700528669562889, ,0.05672330366446298, ,2.1978430970160094e-05, ,0.20725498214556318,-0.228507943015429,0.09149344449,1.8096242122714452,0.8129871736043707,-1.209122262313647, ,-0.000546524329127815,0.0,0.0050761030975143406,-0.0007131764541269052,0.05904178361649121,0.0042315608751495384, ,0.15841889381408691
0.010139358073217083,0.02017259873720851,-0.07944674854296499, ,0.010201496839009547,0.02013299018478344,-0.07965834604796136, ,0.0002240615267289544, ,0.0007553316512091502,0.0009522989394598817,-0.0039781776461956676,0.023524117602746596,0.009666527311984363,-0.012682799277657376, ,0.004159723134789821, ,0.02543277134456293, ,2.2020364470428267e-05, ,0.20724725941268896,-0.2285002202825548,0.09167622138,1.8096242122714452,0.8135337196034325,-1.209322897708011, ,-0.00022245512991691347,0.0,0.00422626997081454,-0.0007131764541269052,0.009968990475465874,-0.02704764252124356, ,0.17531490325927734
0.010148451236931737,0.02018287600900736,-0.07948999368799944, ,0.010222268263070227,0.02015335598667253,-0.07974366692567328, ,0.0002658392306987537, ,0.0008698615726111461,0.0010648022785101758,-0.004461155106799779,0.028409277700242968,0.007900365606656579,-0.017024058685048513, ,0.004668229636034601, ,0.029487333456950024, ,2.242782505966462e-05, ,0.20724725941268896,-0.2285002202825548,0.09172159153000001,1.8096242122714452,0.8135337196034325,-1.2094045764481516, ,-0.00020738432672512508,0.0,0.004722446344500445,-0.0007131764541269052,0.00807516132470637,-0.033543106547447514, ,0.19196581840515137
0.010169727611730033,0.020209356229453274,-0.07959521237262819, ,0.010243088899561529,0.02017353733886263,-0.07982873542349483, ,0.00024738206637002816, ,0.0011965135205731828,0.0012871562904113597,-0.005483745921327023,0.0012626165228403598,-0.000694753173911398,-0.0004899401376435121, ,0.005758462056012068, ,0.0014411375706347134, ,2.2617200598790702e-05, ,0.20724725941268896,-0.22851566574830323,0.09183307247000001,1.8096242122714452,0.8136703561031979,-1.209515994351848, ,0.0005454993420619199,0.00015012954430817648,0.005754628439306359,-0.0007131764541269052,0.0,-0.0019254140825969775, ,0.20935583114624023
0.010189764650374505,0.020231349278472678,-0.0796905042500683, ,0.010263958599073537,0.02019353497696269,-0.07991355244087006, ,0.00023808645245411235, ,0.0009912937653886516,0.0010479110944271106,-0.004561289565318402,0.00026938686748711555,-0.000562635615873767,2.4903535581897383e-05, ,0.0047839464346713136, ,0.0006237997645159808, ,2.2707461556868017e-05, ,0.20724725941268896,-0.228507943015429,0.09193288680000002,1.8096242122714452,0.8136703561031979,-1.209515994351848, ,0.0004073036081147499,0.000381548224823173,0.004780555678271309,-0.0007131764541269052,0.0,-0.0009744537523590547, ,0.2255868911743164
0.010199637210389991,0.020242507829808458,-0.07973745603749105, ,0.010284877212440452,0.020213349635303038,-0.07999811887544739, ,0.0002757919022520977, ,0.0010887880902294683,0.0011621501788198216,-0.005042512473137239,3.473675501327127e-05,-0.000519154836090353,0.00019703193608032894, ,0.005288003837489257, ,0.0005203125270978459, ,2.3050541040554055e-05, ,0.20724725941268896,-0.228507943015429,0.09198214582000001,1.8096242122714452,0.8136703561031979,-1.209515994351848, ,0.0003619644901568523,0.000381548224823173,0.005284940783012609,-0.0007131764541269052,0.0,-0.0006834343114914265, ,0.2430880069732666
0.010222953771386666,0.020267467747270042,-0.07984232188375692, ,0.010305844590740416,0.020232982046936226,-0.08008243562308183, ,0.00025634890144730324, ,0.001140107975278202,0.0012108896608531365,-0.0052467200497135075,-0.00018769445028572296,-0.0006216177466234319,0.00036019013503311596, ,0.005504014103008794, ,0.0006493333917553931, ,2.337434257752304e-05, ,0.2072627048784374,-0.228507943015429,0.09209233047000001,1.8096242122714452,0.8136703561031979,-1.209515994351848, ,0.00046266587559581034,0.000381548224823173,0.005500280220994476,-0.0007131764541269052,0.0,-0.0004075759908669615, ,0.2590599060058594
0.010234483351154431,0.02027980088295695,-0.07989413676025031, ,0.010326860585295422,0.020252432943637634,-0.0801665035778356, ,0.0002889052453862033, ,0.0010487866484069572,0.0010928549598377482,-0.004748474046112455,-0.00024422539624832765,-0.0007852603347660968,0.000401653101345255, ,0.004984204165533576, ,0.0008223608838859919, ,2.386519359120114e-05, ,0.20727042761131162,-0.228507943015429,0.09214677465000001,1.8096242122714452,0.8136703561031979,-1.209515994351848, ,0.0006258607901391622,0.000381548224823173,0.004979309634260707,-0.0007131764541269052,0.0,-0.00033746941804179114, ,0.27513980865478516
0.010254522745423772,0.020301790820306337,-0.07998942887669079, ,0.010347925047670977,0.020271703055907107,-0.08025032363198044, ,0.0002787388329050461, ,0.0010943811647425759,0.0012318168600675557,-0.005016833671909249,0.0011673984662323074,-0.0006482456821450897,0.00018645224576288442, ,0.005280498366829824, ,0.0013353046339396346, ,2.4243608328385967e-05, ,0.20727042761131162,-0.2285002202825548,0.09224658898000002,1.8096242122714452,0.8136703561031979,-1.2094343156117076, ,0.0004931423484168928,-0.0005065420774410869,0.005277936222664017,-0.0007131764541269052,0.0,-0.001010334439833814, ,0.29227495193481445
0.01027712996818243,0.020326318292681396,-0.08009852520105942, ,0.010369037829676218,0.020290793112969174,-0.08033389667599808, ,0.0002551643090495718, ,0.0012002303145740609,0.001328209059545408,-0.005400446941014428,0.0012988957308863315,-0.0005729364613587025,-0.0012237806647245613, ,0.00568942169966273, ,0.0014196414036362255, ,2.4451315261498876e-05, ,0.20727042761131162,-0.2285002202825548,0.09236066250000001,1.8094145223279605,0.8136703561031979,-1.2094343156117076, ,0.0007683999797478952,-0.000437774239678034,0.005684800685224841,0.0008378316680896246,0.0,-0.0008712823321312684, ,0.3066229820251465
0.010289046799649097,0.020342485371228864,-0.08015200407646088, ,0.010390198783363464,0.02030970384277408,-0.08041722359858289, ,0.00028574069946686007, ,0.0012273730002427305,0.0013194657628233988,-0.005558993896412307,0.0008709124722812547,-0.00020636719622963356,-0.0024510847612682594, ,0.005843787087269459, ,0.0008950254998840583, ,2.4802539123067702e-05, ,0.20727042761131162,-0.228507943015429,0.09241769926000001,1.8098339022149297,0.8136703561031979,-1.2094343156117076, ,0.0006695223615507442,0.00019724777518205624,0.00583900715542522,0.0020220464348959864,0.0,-0.0008168669668736064, ,0.3223099708557129
0.010313014825423945,0.020367746677680574,-0.08025891860968494, ,0.010411407761027953,0.020328435971999147,-0.08050030528664241, ,0.000263617201962462, ,0.0010886600636457763,0.0012127201098387865,-0.005116428090651869,0.0007903740527489101,0.00034127661312096785,-0.002369276873818026, ,0.00536970271111876, ,0.0008609049678917653, ,2.5008632744776135e-05, ,0.20727815034418584,-0.228507943015429,0.0925291802,1.8098339022149297,0.8135337196034325,-1.209322897708011, ,0.00011491720286784343,0.00019724777518205624,0.005368659089989889,0.0019940228966152033,0.0,-0.0007238544929414838, ,0.338817834854126
0.01032532797973958,0.02038096075163082,-0.08031443931204718, ,0.01043266461520838,0.020346990226048987,-0.0805831426252991, ,0.000291335923762634, ,0.0012264363559453774,0.0013529110912498734,-0.005705311599711546,0.0007534759779381094,0.0001665434070526439,-0.0023218164873957388, ,0.00599041693088341, ,0.0007716584158518584, ,2.5331843618237837e-05, ,0.20728587307706006,-0.228507943015429,0.09258751325,1.8098339022149297,0.8135337196034325,-1.209322897708011, ,0.00028367821932769483,0.00019724777518205624,0.005988275007518798,0.00196874076489414,0.0,-0.00068435885054542, ,0.353240966796875
0.010350577967032055,0.02040738889953134,-0.08042540022821423, ,0.010453969198685539,0.020365367329057135,-0.08066573649789209, ,0.00026498505937243093, ,0.0013492002978304997,0.0014054953501472414,-0.005916075339897316,0.0006984052246074854,-0.0007924822969394261,-0.002239560380052712, ,0.006228619915381943, ,0.0010563099931132438, ,2.5504733650052278e-05, ,0.20730904127568273,-0.228507943015429,0.09270417935000001,1.8098339022149297,0.8135337196034325,-1.209322897708011, ,0.0012320110347984615,0.00019164699960259952,0.006219762405310426,0.001923286564542828,0.0,-0.0006205030172544987, ,0.3693268299102783
0.010350577967032055,0.02040738889953134,-0.08042540022821423, ,0.010475321364483278,0.02038356800388633,-0.08074808778597843, ,0.0003467789068164713, ,0.0013492002978304997,0.0014054953501472414,-0.005916075339897316,0.0006984052246074854,-0.0007924822969394261,-0.002239560380052712, ,0.006228619915381943, ,0.0010563099931132438, ,2.6030456986222687e-05, ,0.20730904127568273,-0.228507943015429,0.09270417935000001,1.8098339022149297,0.8135337196034325,-1.209322897708011, ,0.0012320110347984615,0.00019164699960259952,0.006219762405310426,0.001923286564542828,0.0,-0.0006205030172544987, ,0.38414692878723145
0.010391230555392757,0.02044815962912129,-0.08059839116231328, ,0.010496720965867656,0.020401592972129907,-0.080830197369334, ,0.00025890306653040846, ,0.001351880307231939,0.0013956132054330035,-0.005873189374209233,0.0001302551223269956,-0.0009478999787087245,-0.0017616206752489954, ,0.006186248460059194, ,0.0009568039392962676, ,2.613661626921581e-05, ,0.20737082313867652,-0.2285002202825548,0.09288695624000001,1.8098339022149297,0.8136703561031979,-1.2095976730919886, ,0.0013673930082438554,0.0001859135902784353,0.00617635188832881,0.0018539355807429745,0.0,7.39155629716498e-05, ,0.3988668918609619
0.010402354538236996,0.020459317809931474,-0.0806451811542228, ,0.010518167856347028,0.0204194429541124,-0.08091206612595639, ,0.00029364999049120944, ,0.0013124579831741764,0.001337126963471754,-0.00562210461628844,0.00012993714829361954,-0.0011121946805718675,-0.0017374616758474158, ,0.005926087646207454, ,0.0011197566937178442, ,2.637902475082688e-05, ,0.207386268604425,-0.2285002202825548,0.09293621526000001,1.8098339022149297,0.8136703561031979,-1.2095976730919886, ,0.0015276612465593687,0.00017533099068371133,0.005914894734496844,0.0018364059231214453,0.0,8.282643984465715e-05, ,0.41465282440185547
0.010433374793762266,0.020488054470942516,-0.08076824549523158, ,0.010539661889671708,0.02043711866889056,-0.08099369493206512, ,0.00025439900010829644, ,0.0012892713198686743,0.0012212233692730189,-0.005062142066638767,0.00029756806093848116,-0.0022588406564296943,-0.001661525000548023, ,0.005364595917376095, ,0.0022783556653755907, ,2.6446975860230298e-05, ,0.2074480504674188,-0.22849249754968057,0.09306584426,1.8098339022149297,0.8136703561031979,-1.2095976730919886, ,0.002663002072537721,3.89849558161489e-06,0.005343445662529353,0.0017862194767690803,0.0,7.063120999619712e-05, ,0.4301278591156006
0.010446689647412405,0.02050097404074497,-0.08082236661234522, ,0.010561202919834006,0.020454620834254367,-0.08107508466210303, ,0.0002812975683969813, ,0.0013434788600393465,0.0013297973753414937,-0.005525732568508316,0.0002949529646932022,-0.0017378042709184386,-0.0016457029742505806, ,0.005840121310855731, ,0.00176265588919634, ,2.6614059974728014e-05, ,0.20747121866604146,-0.22849249754968057,0.09312288102,1.8098339022149297,0.8136703561031979,-1.2095976730919886, ,0.0021375531138533277,5.980832954016804e-06,0.005824062712979892,0.0017666258241148625,0.0,6.652005764793713e-05, ,0.4446089267730713
0.01045974690395284,0.02051359998396102,-0.08087525164227212, ,0.010582790801067915,0.020471950166727777,-0.08115623618873911, ,0.0003095590787654118, ,0.001337436418047823,0.001302630169115407,-0.0054108282564332,0.0002008355153935304,-0.0020532097309900127,-0.0016065500057100741, ,0.005723866171603435, ,0.00206300762621072, ,2.687537541873122e-05, ,0.2075175550632868,-0.22849249754968057,0.09323436196000001,1.8098339022149297,0.8136703561031979,-1.2095976730919886, ,0.0018910360589711847,8.62127897638554e-06,0.005709251440860217,0.0017295443184686657,0.0,5.956659754015797e-05, ,0.4602799415588379
0.010487982814453966,0.02054057214428439,-0.08099105925650292, ,0.010604425387848926,0.0204891073815696,-0.08123715038286852, ,0.000277070996634475, ,0.0011698315944542802,0.0011495694302209043,-0.00476924384129956,0.0002300871449167927,-0.00164058885615405,-0.0015769928381006004, ,0.005043382064850495, ,0.0016566440238466812, ,2.700242458070196e-05, ,0.20754072326190948,-0.22848477481680635,0.09330047275000002,1.8098339022149297,0.8136703561031979,-1.2095976730919886, ,0.0019508630837306632,0.0,0.00502803393939394,0.0017075618415226237,-8.003979435840062e-05,0.00012115997541959549, ,0.4774169921875
0.010507989365308598,0.02056078173808891,-0.08107787559413047, ,0.010626106534893955,0.020506093192774605,-0.08131782811361458, ,0.00027298299277834695, ,0.0010914335599668881,0.0010551040535956404,-0.004464391143483286,5.172393914251784e-05,-0.0014047283504452475,-0.0016148864009675197, ,0.004715427876847227, ,0.001405679668703624, ,2.720229684783435e-05, ,0.20757161419340636,-0.22847705208393213,0.09339250934000001,1.8098339022149297,0.8138069926029633,-1.209709090995685, ,0.0017831116612151458,0.00024847020138668097,0.004701538229043684,0.0016719806147160246,0.0,5.054561238673381e-05, ,0.4910600185394287
0.01051656071391345,0.02056837303704661,-0.08111246254829585, ,0.010647834097161005,0.020522908313074448,-0.0813982702483306, ,0.00031778260442365106, ,0.0011337982809361622,0.00111445722845051,-0.004780622339427168,-0.00011874528468963417,-0.0011152359550927681,-0.0016396653599423732, ,0.005038041624295047, ,0.0011215387559717987, ,2.754415428688205e-05, ,0.20758705965915483,-0.2284693293510579,0.09342880546000001,1.8098339022149297,0.8138069926029633,-1.209709090995685, ,0.0014907869610824233,0.00042155689653084497,0.005026447308299148,0.0016594821762285431,0.0,4.88283119503063e-05, ,0.5063648223876953
0.01051656071391345,0.02056837303704661,-0.08111246254829585, ,0.01066960792984917,0.0205395534539382,-0.08147847765260088, ,0.0003977701286618215, ,0.0011337982809361622,0.00111445722845051,-0.004780622339427168,-0.00011874528468963417,-0.0011152359550927681,-0.0016396653599423732, ,0.005038041624295047, ,0.0011215387559717987, ,2.8133579185110506e-05, ,0.20758705965915483,-0.2284693293510579,0.09342880546000001,1.8098339022149297,0.8138069926029633,-1.209709090995685, ,0.0014907869610824233,0.00042155689653084497,0.005026447308299148,0.0016594821762285431,0.0,4.88283119503063e-05, ,0.5192878246307373
0.010559836471487965,0.020611531845180282,-0.08129342822300353, ,0.010691427888398282,0.020556029325573794,-0.08155845119024233, ,0.00030105481868122923, ,0.0014366641452921835,0.00134213496275929,-0.0057180926176884335,-9.970773507347186e-05,-0.0023828288628363137,-0.001586754387615052, ,0.0060466447976619195, ,0.0023849127675824376, ,2.837948916957764e-05, ,0.2076488415221486,-0.2284693293510579,0.09361936009,1.8098339022149297,0.8138069926029633,-1.209709090995685, ,0.002746136399606052,0.0003965555100923682,0.006024512677760969,0.0016052408734830992,0.0,4.2176929961131645e-05, ,0.5329399108886719
0.010573213107099584,0.020625616700266424,-0.08135175105869949, ,0.010713293828489066,0.020572336636928513,-0.0816381917233058, ,0.00032327948897880286, ,0.0013747009148220022,0.001340718485129687,-0.005702045684621756,0.0009824619027077113,-0.0005850056839597034,-0.0018390727552603631, ,0.006016697902595284, ,0.0011434408654634352, ,2.8683096663653925e-05, ,0.2076720097207713,-0.2284693293510579,0.09368158201000001,1.8098339022149297,0.8139436291027288,-1.2098205088993814, ,0.0021347034802690914,0.00036742505282522125,0.006008604873632592,0.0015889908790847527,0.0012507700424445128,-0.0009795054212502837, ,0.5478408336639404
0.010588669465659131,0.02064025165971321,-0.0814159063838202, ,0.010735205606042433,0.020588476095690044,-0.08171770011207796, ,0.0003394598708007695, ,0.0014846388489279754,0.001486887964938086,-0.006245216284713932,0.0009142504388590543,-0.0005333944589112314,-0.0015908705401973997, ,0.006589211999539853, ,0.0010584677668446212, ,2.9021543117474045e-05, ,0.2077106233851424,-0.22845388388530943,0.09381121101,1.8098339022149297,0.8139436291027288,-1.2099838663796627, ,0.0014538872156292834,0.0004776263933288929,0.00598377592787378,0.0015585846653599295,0.0012507700424445128,-0.00022086686398163673, ,0.5610449314117432
0.010617768330558938,0.020667463556097682,-0.081535567456328, ,0.010757163077219814,0.020604448408287433,-0.08179697721508222, ,0.00030288094397326343, ,0.0015484223503777405,0.0013527179884577911,-0.005742792311529459,0.00035467940100447057,-0.002562329842015293,-0.0013642815368192197, ,0.0060997640335351076, ,0.0025867596429865335, ,2.923388125270969e-05, ,0.20774151431663931,-0.2284461611524352,0.09387472922000001,1.8098339022149297,0.8139436291027288,-1.2099838663796627, ,0.004096879550906852,0.000392218441435424,0.006072745528021351,0.0015427838084106462,0.0012507700424445128,-0.00024244836851768006, ,0.5747668743133545
0.010631670877305405,0.020680334187872483,-0.08159230871562095, ,0.0107791660984227,0.020620254279892156,-0.08187602388908083, ,0.00032535939397339004, ,0.0014741564202452697,0.0014289970476762976,-0.006128467417958411,0.00024827153275340736,-0.0007053540800610702,-0.001386901550141591, ,0.0064632254027378435, ,0.0007477663320488554, ,2.95021755164977e-05, ,0.20776468251526198,-0.228438438419561,0.09393435856000001,1.8098339022149297,0.8139436291027288,-1.2099838663796627, ,0.002236855502347726,0.0005133380131250138,0.006454137568881686,0.001528859417822874,0.0012507700424445128,-0.00026088825452420903, ,0.5889320373535156
0.010661676935210284,0.020707532621698284,-0.08171098506441164, ,0.010801214526292506,0.02063589441441848,-0.08195484098907573, ,0.00028994565708261277, ,0.001367006846410825,0.001242569759837818,-0.00558623902083499,0.000946495687672987,0.0003382488364938595,-0.00199109613731364, ,0.0058837703663634725, ,0.0010051173673704277, ,2.9656697731255956e-05, ,0.20783418711113,-0.22842299295381255,0.09406009869000001,1.8098339022149297,0.8140802656024941,-1.2100136055432182, ,0.0024092323830651134,0.0011949011796684157,0.0058799599557032125,0.0014996606426720433,0.002533339297150189,-0.0016646634773773029, ,0.6019349098205566
0.010676514022407017,0.020720059144116607,-0.08176903436697674, ,0.010823308217710572,0.020651369514524953,-0.08203342936831032, ,0.00031011532970563825, ,0.0016427563899591132,0.0014663297620701311,-0.006403838173557453,0.0024456776428746327,-0.0008812546846902166,-0.002796833082518773, ,0.006771847228119947, ,0.002599603466394723, ,2.986079226306433e-05, ,0.2078650780426269,-0.2284075474880641,0.09412102432000001,1.8098339022149297,0.8140802656024941,-1.210095284283359, ,0.0036350968427821145,0.0008887658646622801,0.006758087195587612,0.0014863729525277744,0.002533339297150189,-0.003155510389949135, ,0.6149899959564209
0.010690352128044374,0.020732575973200263,-0.08182634795231768, ,0.010845447029797724,0.020666680281615127,-0.08211178987827097, ,0.0003314721161897221, ,0.0016860421231574883,0.0014897467357134241,-0.006635830544905518,0.0028418358544449146,-2.2983241713149276e-05,-0.0030635199425449915, ,0.007006877364299398, ,0.002841926527205433, ,3.01144519290512e-05, ,0.2078959689741238,-0.22839210202231566,0.09418194995000001,1.8098339022149297,0.8142169021022596,-1.2102067021870555, ,0.003629280870311313,0.0012626330850960823,0.006998599086115994,0.0014744024921171206,0.0034319440658287315,-0.0038960657106713453, ,0.6314918994903564
0.010725820799342131,0.02076265819170619,-0.08196057050926792, ,0.010867630819914285,0.020681827415838284,-0.08218992336868836, ,0.00028150742509996837, ,0.0015523104731611419,0.0012835983431055307,-0.005747990101977466,0.0028915594429364923,-0.000653558037485189,-0.003038293173663478, ,0.006090704616375675, ,0.0029644979078898314, ,3.022327715604197e-05, ,0.20798091903574026,-0.22836893382369297,0.09432324556,1.8098339022149297,0.8142169021022596,-1.2102067021870555, ,0.00425349594145639,0.0012208636879010991,0.006075061601830665,0.0014461841440603094,0.0034319440658287315,-0.003913739657330313, ,0.6451599597930908
0.010741419752139866,0.020774590642035032,-0.08201598085168815, ,0.010889859445659789,0.020696811616090695,-0.0822678306875391, ,0.00030250993257624606, ,0.0014597701589651121,0.0011771338612127662,-0.005268965277828239,0.0029772971293877378,-0.0007522199446610663,-0.003013136942660676, ,0.00559272457244037, ,0.003070851507459345, ,3.0382656986298956e-05, ,0.2080272554329856,-0.22835348835794453,0.09438157861,1.8098339022149297,0.8142169021022596,-1.2102067021870555, ,0.004349191701020264,0.0011372072613145046,0.005575362800140008,0.001433105070582394,0.0034319440658287315,-0.003921630980829852, ,0.6583960056304932
0.01075609614085429,0.020786865195527415,-0.08207008089977742, ,0.01091213276487295,0.020711633580016053,-0.08234551268104688, ,0.000325376535940834, ,0.0014172786547613093,0.0012128523742190689,-0.005414870055566413,0.003019608904735826,0.00011926962737380932,-0.002997294189385348, ,0.005727172721820137, ,0.0030219626944014287, ,3.05942643900276e-05, ,0.20806586909735675,-0.2283457656250703,0.09443861537,1.8098339022149297,0.8142169021022596,-1.2102067021870555, ,0.0034748985983674447,0.0010975449634363012,0.005719501443447038,0.0014206384362701239,0.0034319440658287315,-0.00392893610333242, ,0.674670934677124
0.0107862422331316,0.020810186744939493,-0.08217579840704119, ,0.010934450635631325,0.020726294004006936,-0.08242297019368455, ,0.0003001626470185309, ,0.0011545675077715256,0.0009173243252225257,-0.004089263213546802,0.0032421996684738955,-8.159561171002136e-05,-0.0029338791071659336, ,0.004347020091662083, ,0.003243226077631825, ,3.08114431685335e-05, ,0.20815854189184743,-0.22832259742644762,0.09455009631000001,1.8098339022149297,0.8142169021022596,-1.2102067021870555, ,0.0036692675896369095,0.0008778403295123629,0.004335550223189984,0.0013918499152381194,0.0034319440658287315,-0.003945215090818716, ,0.687079906463623
0.01079761362958661,0.020819171377677262,-0.08221819964565388, ,0.010956812916251233,0.020740793583205294,-0.08250020406817486, ,0.00033318761360861805, ,0.0013739317164098916,0.001041317503014376,-0.004710469837379375,0.002082361716489645,-0.0017226186991974332,-0.0026116572019226807, ,0.005016029963257995, ,0.0027025253342045645, ,3.1103025082749093e-05, ,0.20819715555621857,-0.22830715196069917,0.09459546646000001,1.8098339022149297,0.8143535386020251,-1.2103997988308925, ,0.004658569433076948,0.0011643918793167287,0.004988666307547761,0.0013801215365407487,0.002752171835255624,-0.003014772415932865, ,0.6983308792114258
0.010812307283433338,0.02083144174766906,-0.08227229648962232, ,0.010979219465287461,0.020755133011503647,-0.08257721514549235, ,0.00035589055391236545, ,0.001443129238312477,0.0012524169450074353,-0.005599072287934195,0.002127103891241008,-0.00031793534506840325,-0.0025940315133000783, ,0.005916145762920887, ,0.0021507320486334235, ,3.144002356648841e-05, ,0.20823576922058967,-0.22829942922782495,0.09465250322,1.8098339022149297,0.8143535386020251,-1.2103997988308925, ,0.003251168186859153,0.0011204664460054358,0.0059061221802002226,0.0013680732392904605,0.002752171835255624,-0.0030198393359025504, ,0.7107019424438477
0.010828343889308322,0.020844538740488,-0.08233272685158202, ,0.011001670141533504,0.020769312981545676,-0.08265400426486512, ,0.0003727198422471679, ,0.0017234335557486534,0.0015047038553341588,-0.00667586503919788,0.002049820075705372,-0.0009389118037483565,-0.0025787504631758847, ,0.007057019975522418, ,0.002254618472859504, ,3.180606595805136e-05, ,0.2082743828849608,-0.2282839837620765,0.09471602143,1.8098339022149297,0.8143535386020251,-1.2103997988308925, ,0.0038693946570496876,0.0011751320883356148,0.007041914907161805,0.0013568728294543237,0.002752171835255624,-0.0029929909819911395, ,0.7228939533233643
0.010847224436496876,0.02086150056970126,-0.0824065879001342, ,0.011024164804020619,0.020783334184727414,-0.08273057226377521, ,0.0003773377072109067, ,0.0018391967665887356,0.001707748278292868,-0.0074275776936747395,0.0023166148873526287,-0.000425950558213658,-0.0024901174672900023, ,0.007840150465636313, ,0.002355443866388342, ,3.2170913235184725e-05, ,0.20835161021370305,-0.22826081556345384,0.09486509478,1.8098339022149297,0.8144901751017904,-1.2105112167345888, ,0.004686862986491935,0.001491240186382866,0.007293411868131869,0.0013347703963734806,0.0036770581778098254,-0.0036977820324234126, ,0.7352080345153809
0.01088235315694434,0.02089149076599618,-0.08254268528248139, ,0.01104670331201847,0.02079719731119807,-0.08280691997796148, ,0.0003251495092816692, ,0.0017389773744896978,0.0014142935114395112,-0.006477548663160696,0.002256395214213057,-0.0007922742569602977,-0.002812979081207692, ,0.006854407715412172, ,0.0023914444290146107, ,3.240282301856147e-05, ,0.2083979466109484,-0.22824537009770537,0.09493768702000001,1.8098339022149297,0.8144901751017904,-1.2105112167345888, ,0.004594787994180376,0.0016946883820461972,0.006836399793991417,0.001323399814416708,0.0036770581778098254,-0.0036741402088813443, ,0.7478828430175781
0.010896581391513243,0.020902527055133374,-0.08259446511747581, ,0.0110692855250344,0.02081090304986102,-0.08288304824142, ,0.00034857122012986924, ,0.0016869738035693502,0.0014300761611533645,-0.006426017108532512,0.0025693965732305124,-0.00030433663855829077,-0.002725076467042954, ,0.006795932189168821, ,0.002587355519183717, ,3.268079438614124e-05, ,0.2084365602753195,-0.22822992463195693,0.09499213120000001,1.8098339022149297,0.8144901751017904,-1.2105112167345888, ,0.004104735701802578,0.001358943631408869,0.006783991277683136,0.001314752062671691,0.0036770581778098254,-0.003656962945184035, ,0.7619678974151611
0.010915894895791898,0.020918547385414803,-0.08266716077169894, ,0.0110919113028136,0.020824452088374364,-0.08295895788640602, ,0.00035352688245355706, ,0.0012520367290829466,0.0009876664560896163,-0.004619784102110907,0.0024154695245434394,0.00032091725426954156,-0.002723845252325986, ,0.004887277989799027, ,0.002436694236826279, ,3.296115690692903e-05, ,0.20848289667256487,-0.2282144791662085,0.09506861231000001,1.8098339022149297,0.8144901751017904,-1.2105112167345888, ,0.003476148466715189,0.0014918902187135066,0.004878655901990812,0.0013009689408347922,0.0036770581778098254,-0.003630654596077305, ,0.7740309238433838
0.010940823901681452,0.02093638537073543,-0.08275794504436199, ,0.011114580505338478,0.020837845113152422,-0.08303464974343532, ,0.0003412726624976169, ,0.0014768069765224293,0.001092014254266457,-0.005564717698850549,0.0009251435403447225,-9.722355607393735e-05,-0.002934030824860105, ,0.0058599946284384075, ,0.0009302352681439705, ,3.320572452672796e-05, ,0.2085601240013071,-0.22816814276896313,0.09516453777000002,1.8098339022149297,0.8146268116015559,-1.2106226346382853, ,0.0037486618698003536,0.002854081953750096,0.005843291093176817,0.0012810982464266203,0.0035289568230913518,-0.00347436767612518, ,0.7865009307861328
0.010956158419876256,0.02094975186807051,-0.08281886993244175, ,0.011137292992829229,0.02085108280936606,-0.08311012464128563, ,0.00035689581405251824, ,0.0017783213971471333,0.0015030806457133504,-0.0067998381200650914,0.0020207672333214183,-0.0007637434179300886,-0.0025901631403545677, ,0.007187452739194864, ,0.0021602753718199625, ,3.347686993493149e-05, ,0.20859873766567824,-0.2281526973032147,0.09522935227000001,1.8098339022149297,0.8147634481013214,-1.2107340525419816, ,0.0041973813219291145,0.0015229680889047653,0.007171909734353896,0.0012712542140086412,0.0033024069670444783,-0.003273069836442433, ,0.7990820407867432
0.010975672641769435,0.020965998561058786,-0.08289551145040827, ,0.011160048625742722,0.020864165860944056,-0.08318538340699833, ,0.00035831571762360713, ,0.0017754473200312657,0.001460736274570233,-0.006940307970064768,0.0005083862188738569,-0.0003819003015325373,-0.002251316107770335, ,0.007311213194087289, ,0.0006358366813392646, ,3.374291634711837e-05, ,0.20863735133004935,-0.22812952910459203,0.09530972225,1.8098339022149297,0.8147634481013214,-1.2108157312821222, ,0.0038076522085220936,0.0023653452515017795,0.007296752872194229,0.0012604668136090697,0.0033024069670444783,-0.002422203041520978, ,0.8111259937286377
0.01099287218626187,0.02097895898940473,-0.08296119302179468, ,0.011182847264773216,0.02087709495057364,-0.0832604268658794, ,0.00036879222647459624, ,0.0018452810881136223,0.0014376941325383967,-0.007232105183908425,-0.0005102314782018734,-0.00047210307363316465,-0.002461000674099478, ,0.007601011255352819, ,0.000695124225621698, ,3.402323730281556e-05, ,0.20867596499442048,-0.22809863817309511,0.09537842562000001,1.8098339022149297,0.8147634481013214,-1.2108157312821222, ,0.0038957215704597545,0.003408073763340505,0.0075815380866254166,0.0012512356289388089,0.0033024069670444783,-0.002426224268695156, ,0.8226778507232666
0.011031240260364436,0.021006851542832418,-0.08310275589437624, ,0.01120568877085162,0.020889870759701785,-0.08333525584150173, ,0.00031332572803140067, ,0.001942725174281156,0.0013654407710583575,-0.006705960723136899,0.0014074262455466718,-0.001428758791082446,-0.002709051173939259, ,0.007113966461989327, ,0.002005539019399353, ,3.417982702554825e-05, ,0.2087840832546596,-0.2280291335772271,0.09552749897000001,1.8098339022149297,0.8149000846010869,-1.2109271491858187, ,0.006446760058854131,0.0028999429590717924,0.007079471786666667,0.0012316978132834342,0.004982623305395764,-0.003804639830594709, ,0.8368408679962158
0.011051584534534278,0.02101973862497313,-0.08317072409428788, ,0.011228573005145412,0.02090249396853572,-0.08340987115570572, ,0.0003197851547166961, ,0.0019371540879686976,0.001246112009063575,-0.006643321561718235,0.00025773425136663033,-0.0015100418789169249,-0.0029465198736161975, ,0.0070312930867697946, ,0.0015318748253842348, ,3.434517890550279e-05, ,0.20885358785052763,-0.227990519912856,0.09559879492000001,1.8098339022149297,0.8149000846010869,-1.2109271491858187, ,0.006525840486712964,0.0040766843812716155,0.006989386362439668,0.0012223474366114472,0.004982623305395764,-0.0038085294886498673, ,0.8483319282531738
0.011069428735168967,0.02103121622138238,-0.08322997049696841, ,0.011251499829058726,0.02091496525604422,-0.08348427362860115, ,0.0003336678781820149, ,0.0017034169366090337,0.0010861027868329732,-0.005795602850204105,0.0007361094903880991,-0.0008712412846999462,-0.0028393346044804433, ,0.006137610359153374, ,0.0011405753018892825, ,3.453394737887019e-05, ,0.20891536971352143,-0.22795962898135907,0.09566101684000002,1.8098339022149297,0.8149000846010869,-1.2109271491858187, ,0.005885005713754998,0.003589037643690981,0.00610299291954023,0.0012136493314141299,0.004982623305395764,-0.0038120942075562073, ,0.8596179485321045
0.01108536896133183,0.021043410727483,-0.08328572937765095, ,0.011274469104231872,0.020927285299958142,-0.08355846407856865, ,0.00035160801476546576, ,0.0016358830460376178,0.0010857829851913313,-0.005576662197477004,0.00043609508634245755,-0.001687048895528149,-0.0013488418637033716, ,0.005912207649940364, ,0.0017425003606089341, ,3.4822756039854677e-05, ,0.208969428843641,-0.2279287380498622,0.09572064618000001,1.8100435921584141,0.8150367211008523,-1.2110385670895152, ,0.005589673983985774,0.0028906118808934575,0.005877790228782289,0.0,0.0041036503261375435,-0.0030990824978386193, ,0.8698990345001221
0.01110363619960799,0.021054395245502882,-0.08335089230111528, ,0.011297480692541238,0.02093945477677168,-0.0836324433222614, ,0.00036063551724853414, ,0.001939636595340564,0.001142372123257399,-0.006887043086039133,0.0007349639670637308,0.0013112825105529766,-0.0027756338044667792, ,0.007245589462489535, ,0.001503202701350746, ,3.512255639758078e-05, ,0.2090312107066348,-0.2278746789197426,0.09578675697000001,1.8100435921584141,0.8151733576006177,-1.2111499849932115, ,0.006152292430299795,0.005816785572495948,0.007168682052205221,0.0,0.007846427793310603,-0.006154642647230112, ,0.8801448345184326
0.011125064142624048,0.021068432899751646,-0.083423797225519, ,0.01132053445609922,0.020951474361743112,-0.08370621217460607, ,0.0003628307408848183, ,0.002031748558738674,0.0015148344651690366,-0.007177369633850962,0.004019053131375372,0.0009018073775014403,-0.0020522040047914673, ,0.007611659511809927, ,0.004118983560532254, ,3.5419617730587285e-05, ,0.20910071530250282,-0.22783606525537148,0.09586583066000001,1.8100435921584141,0.8151733576006177,-1.2111499849932115, ,0.0064910699016767675,0.0023986942734055836,0.007599623816793894,0.0,0.007772211178024936,-0.006097760987329015, ,0.8901519775390625
0.011142985605116791,0.02108105651863669,-0.0834872455479919, ,0.01134363025725402,0.020963344728895654,-0.08377977144880458, ,0.0003737455612065184, ,0.002123422322356292,0.0013312450182944731,-0.006904793750908838,-0.00010555910562580099,-0.0037699227590628505,-0.0016013256404542665, ,0.007345564130848262, ,0.003771398233992437, ,3.573086841557376e-05, ,0.20916249716549662,-0.2278051743238746,0.09593323774000001,1.8100435921584141,0.8153099941003832,-1.211261402896908, ,0.007980789743819272,0.0037320040884697035,0.0072834071879286704,0.0,0.004427465920065345,-0.003373371782372206, ,0.8999090194702148
0.011166402938076154,0.02109443441324339,-0.08356004853822692, ,0.011366767958589374,0.02097506655101832,-0.08385312195633571, ,0.0003745488704820983, ,0.00226172313439649,0.0012939727188430662,-0.007253637086244681,-0.0014367196068102415,-0.004502188038398019,-0.0018868396740187403, ,0.007707464428248672, ,0.004725869261942695, ,3.6036524255246764e-05, ,0.2092551699599873,-0.22775883792662924,0.09600971885000001,1.8100435921584141,0.8153099941003832,-1.211261402896908, ,0.00871300402244132,0.005095831920960722,0.007628741149425289,0.0,0.004427465920065345,-0.0033767526063185936, ,0.9102399349212646
0.011189067262648657,0.021108390641241006,-0.0836354926297359, ,0.011389947422924356,0.02098664049966735,-0.08392626450695614, ,0.0003737970309510017, ,0.002273218326506312,0.0013938743970310899,-0.007448715930996334,-0.0008257857124324575,-0.004139024115497262,-0.0017598478295654959, ,0.00791162286862446, ,0.0042205947141803115, ,3.6333841020189254e-05, ,0.20933239728872957,-0.22771250152938388,0.09608879254000001,1.8100435921584141,0.8153099941003832,-1.211261402896908, ,0.008349787911634047,0.0044741125355270755,0.007842841713441656,0.0,0.004427465920065345,-0.0033799773165024104, ,0.9214420318603516
0.011211831105593203,0.021122404852167705,-0.0837082185199917, ,0.011413168513313527,0.020998067245166223,-0.08399919990870264, ,0.0003750556769848162, ,0.0022117569431885737,0.0014144228845196609,-0.007106474732165142,0.0002953882455317707,-0.004254766642841308,-0.0015241442909100795, ,0.007575912089702296, ,0.004265005894007982, ,3.6626849659860296e-05, ,0.20941734735034603,-0.22767388786501278,0.09616527365000001,1.8100435921584141,0.8153099941003832,-1.211261402896908, ,0.008465488908313777,0.0033305913808155097,0.007510047864214994,0.0,0.004427465920065345,-0.0033830193954457457, ,0.9318399429321289
0.011231507664541611,0.0211330431342396,-0.08377192717042223, ,0.01143643109304623,0.02100934745660742,-0.08407192896789248, ,0.000383790712107984, ,0.002006350607453494,0.0010027055532522955,-0.006033377122050326,-0.000657187614957277,-0.0038804122577663107,-0.0003376863905533755, ,0.0064368082683448225, ,0.003935668540003437, ,3.692948732434152e-05, ,0.2095022974119625,-0.22763527420064164,0.09623268073,1.8098339022149297,0.8154466306001487,-1.2113728208006043, ,0.008839468453176555,0.004978834615433904,0.006356269561053473,-0.0018898000844744245,0.005661301870291451,-0.0043921000588350145, ,0.9422190189361572
0.011253308275686057,0.021144924628327982,-0.08383772395363359, ,0.011459735025646933,0.02102048180185281,-0.08414445248912622, ,0.00039010308207702263, ,0.0021795811146707133,0.0012332715591209802,-0.006615704813428784,0.0039522968730552385,-0.0014860902913894796,-0.001475110828424022, ,0.00707383083996152, ,0.004222452161231718, ,3.7237016809981984e-05, ,0.20960269293932743,-0.2275889378033963,0.09630268039,1.8098339022149297,0.815583267099914,-1.2115659174444413, ,0.009637617538460702,0.004003324675037257,0.007017097585903085,-0.0018898000844744245,0.00900942777556868,-0.00815224520209389, ,0.9519898891448975
0.011275443533704112,0.021157459361493464,-0.08390418049069806, ,0.011483080174874613,0.021031470947534922,-0.08421677127528761, ,0.0003958523131404756, ,0.002201797753614996,0.0012888459836373546,-0.006697207676746239,0.004196514760575563,-0.0016955633697067305,-0.001357880769472967, ,0.007166702727393605, ,0.0045261084612810065, ,3.754826268052455e-05, ,0.2096953657338181,-0.22755032413902518,0.09637268005,1.8098339022149297,0.815583267099914,-1.2115659174444413, ,0.009664440750433491,0.003590620263429718,0.007111076571428573,-0.001879821260672974,0.008815183832952747,-0.007996600778123518, ,0.9625799655914307
0.011299028954940223,0.021170865960903576,-0.0839742530416728, ,0.011506466404723033,0.021042315559057313,-0.08428888612754705, ,0.00039818272201840005, ,0.002032675944393048,0.0011225605994216422,-0.006188421151794688,0.003099394205263871,-0.0018140378316590826,-0.0013984202132910344, ,0.0066097254213974685, ,0.0035912349711781427, ,3.785700044112322e-05, ,0.20979576126118302,-0.22751171047465404,0.09644656858,1.8098339022149297,0.815583267099914,-1.2114842387043008, ,0.008874548463052127,0.004063654670391582,0.006552370020567668,-0.0018522301187085062,0.007852716599259704,-0.0074247736880070445, ,0.972383975982666
0.011319309224809074,0.021182437025296128,-0.08403898226668706, ,0.011529893579420001,0.021053016300596222,-0.08436079784536075, ,0.00040578413111633005, ,0.0021593335192897274,0.001171870804297133,-0.006938517850640458,-0.0029040003675556403,-0.006297228558690212,-0.000472466852190435, ,0.007360640759685834, ,0.006934572054091579, ,3.81726225762285e-05, ,0.2098807113227995,-0.22746537407740872,0.09651527195000001,1.8098339022149297,0.8157199035996794,-1.211595656607997, ,0.008079271353557618,0.005393572454752191,0.007270110232770426,-0.001826754482251891,0.0022993236848933393,-0.002869158269222268, ,0.9820740222930908
0.011340267514295524,0.021195463227808096,-0.08410997320115192, ,0.011553361563427952,0.02106357383510075,-0.08443250722647425, ,0.0004084508332406599, ,0.002400589527459777,0.0015056855762110096,-0.007878963314261956,0.002317128376075478,-0.002699491148861429,-0.0014021857581245482, ,0.008373050939845354, ,0.0035575702397768047, ,3.848628533459089e-05, ,0.20995793865154175,-0.22741903768016336,0.09659045677000001,1.8098339022149297,0.8158565400994449,-1.211788753251834, ,0.00886665999732981,0.004230766740287591,0.008317917242819845,-0.0018033178355430486,0.006900411747860619,-0.006865753477514389, ,0.9920928478240967
0.011366526507343428,0.021211774371295015,-0.08419239044560502, ,0.011576870221442902,0.0210739888242944,-0.08450401506692258, ,0.0004004238250088711, ,0.002645727126015357,0.0016134771915264068,-0.008323952549040243,0.0029726514288898435,-0.004404682393427728,-0.0019189291794373447, ,0.008882081215097223, ,0.005313929199997189, ,3.877954850587346e-05, ,0.21005833417890665,-0.22738042401579223,0.0966773082,1.8098339022149297,0.8158565400994449,-1.2118704319919746, ,0.010582357017182055,0.00424921307592737,0.008805313167495854,-0.0017788707606371267,0.006900411747860619,-0.007694308942392069, ,1.0073399543762207
0.011383315663433091,0.02122113704889403,-0.08424288223451887, ,0.01160041941839498,0.021084261928675532,-0.08457532216103227, ,0.00041998231354857464, ,0.002687100043609372,0.0015894925535363872,-0.008274032389083955,0.0028131687775196012,-0.004987989353251698,-0.001951552478751305, ,0.008843449847074582, ,0.005726597382469191, ,3.916734365341927e-05, ,0.21012783877477467,-0.22734953308429534,0.09673045609000001,1.8098339022149297,0.8158565400994449,-1.2118704319919746, ,0.011168624769842508,0.004398747135292042,0.008756905728422212,-0.0017648481221906869,0.006900411747860619,-0.007674153270639255, ,1.016542911529541
0.011419412300516308,0.02124189748292939,-0.08435241970591745, ,0.011624009019447854,0.0210943938075184,-0.08464642930142291, ,0.00038737422979154225, ,0.002386865366401607,0.0012118130806615696,-0.0071347072813275295,0.0016204822505532298,-0.004293273176005146,-0.002192059206487712, ,0.007620345478389942, ,0.004588914773729424, ,3.9493087720637716e-05, ,0.21027457069938496,-0.22728775122130154,0.09684582590000002,1.8098339022149297,0.8158565400994449,-1.2118704319919746, ,0.010480606203699314,0.005575594297399719,0.007527793724007564,-0.0017328242354728482,0.006900411747860619,-0.0076138682662894065, ,1.025481939315796
0.011441325353542604,0.021253727543438277,-0.08441819716503332, ,0.01164763888999879,0.0211043851188742,-0.08471733727900792, ,0.0003928781527248245, ,0.0022525807852071676,0.00117397813374551,-0.006656966894237952,0.0017623847583589872,-0.004605769971003207,-0.0018339369483242212, ,0.0071251353028119555, ,0.004931440356436293, ,3.982262012219191e-05, ,0.21037496622674987,-0.2272414148240562,0.09691582556000002,1.8098339022149297,0.8159931765992103,-1.2119818498956711, ,0.010034151222641403,0.0047094436606521075,0.00703569413427562,-0.001711412755657779,0.006097746712164218,-0.006919740191807961, ,1.033862829208374
0.011465205963393038,0.0212651942087613,-0.08448601387332791, ,0.011671308895678334,0.02111423651957187,-0.08478804688299739, ,0.00039558890473825816, ,0.0020953067915443924,0.0009093366884193269,-0.006009596900522817,-0.00011727235339657314,-0.004503345171828691,-0.0016706372067563455, ,0.0064290324832256785, ,0.004504870997389024, ,4.015117497859208e-05, ,0.21048308448698902,-0.22718735569393664,0.09698712151000001,1.8098339022149297,0.8159931765992103,-1.2120635286358117, ,0.00978754740801222,0.005935460425682417,0.006325977569499604,-0.0016889384147578115,0.005945385252102624,-0.006105225466467272, ,1.042205810546875
0.01147975516039228,0.021271389392879956,-0.08453135007707253, ,0.01169501890235006,0.021123948665218974,-0.08485855890089765, ,0.00041850073018321086, ,0.0021271047230526667,0.0010516117258742214,-0.005966324269677693,0.0007497792989529952,-0.005630114577113734,-0.002463466165322694, ,0.006420863416688925, ,0.005679819679210767, ,4.051227755784622e-05, ,0.21055258908285704,-0.2271487420295655,0.09703508424000001,1.8096242122714452,0.8161298130989758,-1.212174946539508, ,0.010139350792069098,0.004338322855918158,0.006315944298176051,-0.00023290269178912723,0.004785222205150504,-0.0051451887179589165, ,1.050412893295288
0.01147975516039228,0.021271389392879956,-0.08453135007707253, ,0.011718768776110711,0.02113352221020261,-0.08492887411851462, ,0.00048390105608753583, ,0.0021271047230526667,0.0010516117258742214,-0.005966324269677693,0.0007497792989529952,-0.005630114577113734,-0.002463466165322694, ,0.006420863416688925, ,0.005679819679210767, ,4.0975007275442117e-05, ,0.21055258908285704,-0.2271487420295655,0.09703508424000001,1.8096242122714452,0.8161298130989758,-1.212174946539508, ,0.010139350792069098,0.004338322855918158,0.006315944298176051,-0.00023290269178912723,0.004785222205150504,-0.0051451887179589165, ,1.0599379539489746
0.01150796040783833,0.021286555934287993,-0.08461693726955505, ,0.011742558383289666,0.021142957807690453,-0.08499899331995418, ,0.0004707690067270517, ,0.002204491993862708,0.001284389880683204,-0.00736823660825883,0.0050005613321931755,0.0015026577410658247,-0.004521436003919282, ,0.00779745811350672, ,0.005221453074184544, ,4.140876579151038e-05, ,0.21067615280884464,-0.2270869601665717,0.09712582454000002,1.8096242122714452,0.8162664495987413,-1.212368043183345, ,0.007932931672806192,0.005427316985884084,0.007766363490980011,-0.00023109926070204049,0.009953444634705542,-0.01054404818718429, ,1.068023920059204
0.011540660945885812,0.021304853790354263,-0.08471947196382304, ,0.011766387590448962,0.021152256109631472,-0.08506891728762339, ,0.0004431146629865076, ,0.0025145747606544425,0.001281764676868782,-0.007750331952295461,0.0030361628272818244,-0.0020243730367336633,-0.004505704580978357, ,0.008248251468315019, ,0.0036491564698542117, ,4.179075743233393e-05, ,0.2107997165348322,-0.22701745557070369,0.09723341661000001,1.8096242122714452,0.8162664495987413,-1.212368043183345, ,0.010455623037409444,0.006507995077859001,0.008168621292307693,-0.00022900526288860962,0.00889815118914073,-0.009660550319549188, ,1.076474905014038
0.011565958531503493,0.0213175118348292,-0.08480070149007293, ,0.011790256264383176,0.021161417766757073,-0.08513864680223338, ,0.0004346054130743082, ,0.0026302601681580926,0.0014129985881249263,-0.008468566448920679,-0.0019955923538106488,-0.0064893352636080145,-0.003344420979531948, ,0.008979501726823548, ,0.006789242774414736, ,4.2152959079063684e-05, ,0.21090011206219714,-0.22694022824196144,0.09731897175000001,1.8096242122714452,0.8164030860985066,-1.2124794610870413, ,0.009602879615002634,0.00682006909664179,0.008873989704735376,-0.00022747741052204262,0.003310122177501237,-0.005087845171405459, ,1.084887981414795
0.011590681728843928,0.021329868261274254,-0.08488073792627171, ,0.011814164272118954,0.021170443428581768,-0.08520818264279936, ,0.00042729470720987887, ,0.0029224935664261477,0.001614856917072262,-0.009180688328082696,0.0038328734328651045,-0.0014023858324913744,-0.004361819508528718, ,0.009769020917462108, ,0.004081364913386534, ,4.2497751932271585e-05, ,0.21100050758956204,-0.22687844637896765,0.09740323060000002,1.8094145223279605,0.8165397225982721,-1.2126725577308783, ,0.011720012542728267,0.006598926832624324,0.009694955276932442,-0.0002542981511285068,0.010890338392623338,-0.010309197227617884, ,1.0940918922424316
0.011627709301696373,0.02135067112702201,-0.08499683016790131, ,0.011838111480915202,0.021179333743404246,-0.08527752558664273, ,0.000390404270144975, ,0.0032606030154482216,0.0018552791183777187,-0.010523109672468904,0.005544857816482674,-0.0019271043330913752,-0.006396092548355932, ,0.011171814078754044, ,0.005870183155300927, ,4.27788190894337e-05, ,0.2111395167812981,-0.2268012190502254,0.09752508186000002,1.8094145223279605,0.8165397225982721,-1.212754236471019, ,0.012263755693780147,0.007444273569588764,0.011092487130919221,-0.0002542981511285068,0.010890338392623338,-0.013453820988666215, ,1.103579044342041
0.011658316921432304,0.02136832122723889,-0.08509623669342165, ,0.01186209775826276,0.021188089358308095,-0.08534667640939221, ,0.0003697704793152447, ,0.0032606030154482216,0.0018552791183777187,-0.010523109672468904,0.005544857816482674,-0.0019271043330913752,-0.006396092548355932, ,0.011171814078754044, ,0.005870183155300927, ,4.3023139440324106e-05, ,0.21125535777441146,-0.22673171445435739,0.09763008135000001,1.8094145223279605,0.8166763590980376,-1.2128656543747154, ,0.011721278455663639,0.006587226703414933,0.00932600206088993,-0.0002542981511285068,0.01002792665115442,-0.012747441868219482, ,1.1117169857025146
0.011658316921432304,0.02136832122723889,-0.08509623669342165, ,0.011886122971883975,0.021196710919163045,-0.08541563588498616, ,0.0004282073540147808, ,0.0028585238973097673,0.0015301145257464238,-0.008832812062807996,0.005652845425254963,-0.002205435050301403,-0.00602765457947352, ,0.00940909019354569, ,0.006067829216326527, ,4.335454170597443e-05, ,0.21125535777441146,-0.22673171445435739,0.09763008135000001,1.8094145223279605,0.8166763590980376,-1.2128656543747154, ,0.011721278455663639,0.006587226703414933,0.00932600206088993,-0.0002542981511285068,0.01002792665115442,-0.012747441868219482, ,1.1203019618988037
0.011685481358790016,0.021380350267613445,-0.0851755402251869, ,0.011910186989733049,0.021205199070625666,-0.08548440478567276, ,0.0004201998085528839, ,0.002489724524532472,0.0009907647920629524,-0.007349696900615703,0.0025343714325564717,-0.002621679553797007,-0.006093380531446332, ,0.007822939831813234, ,0.0036463983319042236, ,4.366847241588648e-05, ,0.21137119876752483,-0.22665448712561514,0.09771304391,1.8094145223279605,0.8166763590980376,-1.2128656543747154, ,0.011039662815085016,0.008628677883126249,0.007709976534365925,-0.0002542981511285068,0.008876245981509106,-0.011620026254290436, ,1.1284208297729492
0.011706539182691758,0.02138820205365531,-0.08523971945195812, ,0.011934289679995425,0.021213554456140097,-0.08555298388201293, ,0.00042486077187412185, ,0.0024638330030015013,0.0008503575224930129,-0.007013829774429685,-0.002315250023724636,-0.007249738587967483,-0.004968513673669454, ,0.007482472124065429, ,0.007610458284002214, ,4.3984733380350024e-05, ,0.21146387156201552,-0.22656953706399866,0.09778045099,1.8094145223279605,0.8168129955978031,-1.2130587510185524, ,0.011219785003366137,0.009233602152969296,0.007320225882352943,-0.0002542981511285068,0.004205617302632459,-0.007416355872439592, ,1.138239860534668
0.011734943535817825,0.021397627119929253,-0.08531593637423959, ,0.011958430911087784,0.02122177771793939,-0.0856213739428801, ,0.0004173268831770476, ,0.0024889698941001235,0.000865727094116378,-0.006508896165881062,0.0070773686729833415,-0.0013413055553153478,-0.007274926899205873, ,0.007022121035231816, ,0.007203348960276799, ,4.435214274055649e-05, ,0.2116106034866258,-0.22646914153663375,0.09786082097000001,1.8094145223279605,0.8169496320975684,-1.2132518476623892, ,0.013309528970332508,0.007914274936322678,0.006892605590653397,-0.0002542981511285068,0.012600943307576249,-0.015528575238750711, ,1.1464509963989258
0.011761057154589215,0.021405591735495832,-0.08538610771662863, ,0.011982610551657903,0.02122986949704599,-0.08568957573546353, ,0.00041479760280656666, ,0.002581893313085423,0.0008510065293491267,-0.0069268201491944235,0.003761853968068417,-0.00384339896305691,-0.00354188777389231, ,0.00744118421841819, ,0.005378033555087354, ,4.471127894606986e-05, ,0.21174961267836184,-0.2263841914750173,0.09793470950000001,1.8092048323844763,0.8170862685973339,-1.2133632655660858, ,0.013259318367817631,0.008855004280214414,0.007293411868131869,-0.003877984466166335,0.010772321895883926,-0.013901567491028617, ,1.1528608798980713
0.011761057154589215,0.021405591735495832,-0.08538610771662863, ,0.012006828470584254,0.021237830433272927,-0.08575759002526813, ,0.00047596901151397225, ,0.002581893313085423,0.0008510065293491267,-0.0069268201491944235,0.003761853968068417,-0.00384339896305691,-0.00354188777389231, ,0.00744118421841819, ,0.005378033555087354, ,4.515808179679121e-05, ,0.21174961267836184,-0.2263841914750173,0.09793470950000001,1.8092048323844763,0.8170862685973339,-1.2133632655660858, ,0.013259318367817631,0.008855004280214414,0.007293411868131869,-0.003877984466166335,0.010772321895883926,-0.013901567491028617, ,1.159337043762207
0.011788658745570462,0.021414412783147787,-0.08546076295769707, ,0.012031084536976266,0.021245661165224704,-0.08582541757611725, ,0.0004692764256017527, ,0.0028157365965945985,0.0009887943818481933,-0.00818151717243544,0.0014656168428440793,-0.003983480172809913,-0.003689988075453899, ,0.00870880647125843, ,0.004244538886517443, ,4.558953784823304e-05, ,0.21188089913722366,-0.22628379594765236,0.09801248690000001,1.8092048323844763,0.8170862685973339,-1.2133632655660858, ,0.012780732869827713,0.010550883234055617,0.008563877161290324,-0.003877984466166335,0.010123582921774451,-0.013258695555144865, ,1.165773868560791
0.011817274662482117,0.021426117981179136,-0.08554712224448785, ,0.012055378620173612,0.021253362330297988,-0.0858930591501532, ,0.000532875912275565, ,0.003177932879234065,0.001303164888993819,-0.009395111060767708,-0.004256007567317786,-0.00968390482062428,-0.001218666082471556, ,0.010003279859975072, ,0.010577879739731752, ,4.611036661626073e-05, ,0.21200446286321123,-0.22618340042028745,0.0981032272,1.8092048323844763,0.8172229050970993,-1.2135563622099228, ,0.01353736684143663,0.010171157510139297,0.009826533942011105,-0.003877984466166335,0.004943471036000728,-0.006898162105938961, ,1.1726739406585693
0.011817274662482117,0.021426117981179136,-0.08554712224448785, ,0.012079710589746594,0.02126093456468286,-0.08596051550783916, ,0.0005167709039688611, ,0.003177932879234065,0.001303164888993819,-0.009395111060767708,-0.004256007567317786,-0.00968390482062428,-0.001218666082471556, ,0.010003279859975072, ,0.010577879739731752, ,4.660125204831954e-05, ,0.21200446286321123,-0.22618340042028745,0.0981032272,1.8092048323844763,0.8172229050970993,-1.2135563622099228, ,0.01353736684143663,0.010171157510139297,0.009826533942011105,-0.003877984466166335,0.004943471036000728,-0.006898162105938961, ,1.1802518367767334
0.011838306369445318,0.02143590275016201,-0.08561080571736616, ,0.012104080315495341,0.021268378503363425,-0.08602778740796081, ,0.0005220860982209775, ,0.0034036070866565425,0.0015216469878074766,-0.010495066815013379,0.003495556458302938,-0.0008391505650107553,-0.0034982192154071976, ,0.01113761097396732, ,0.0035948520547192573, ,4.7094175822222185e-05, ,0.21209713565770194,-0.22612161855729365,0.09817063428000002,1.8092048323844763,0.8173595415968647,-1.213667780113619, ,0.014081754200693096,0.010748508664336279,0.011031032908587259,-0.003877984466166335,0.014806500595936483,-0.014940801368144576, ,1.1882209777832031
0.011888661796385024,0.02146091370111787,-0.08577330263525271, ,0.012128487667450298,0.021275694780118735,-0.08609487560762732, ,0.0004418502842481242, ,0.003953003654456137,0.00196863113926979,-0.012669523248020296,0.0035615562078328885,-0.0020021373594394805,-0.004330184207096125, ,0.013417099753179633, ,0.004085695802323469, ,4.74642102469802e-05, ,0.21229020397955756,-0.22596716389980914,0.09834174456000001,1.8092048323844763,0.8176328145963956,-1.2139722946611524, ,0.014918557075691051,0.011438260633316946,0.01330727779448622,-0.003877984466166335,0.01445498728991303,-0.0159400027320624, ,1.1946368217468262
0.011888661796385024,0.02146091370111787,-0.08577330263525271, ,0.012152932515871509,0.021282884027524023,-0.08616178086227289, ,0.0005024429427572619, ,0.003953003654456137,0.00196863113926979,-0.012669523248020296,0.0035615562078328885,-0.0020021373594394805,-0.004330184207096125, ,0.013417099753179633, ,0.004085695802323469, ,4.791789109134789e-05, ,0.21229020397955756,-0.22596716389980914,0.09834174456000001,1.8092048323844763,0.8176328145963956,-1.2139722946611524, ,0.014918557075691051,0.011438260633316946,0.01330727779448622,-0.003877984466166335,0.01445498728991303,-0.0159400027320624, ,1.201051950454712
0.011928208370804095,0.021478323200522294,-0.08589569581785186, ,0.01217741473124876,0.02128994687695131,-0.08622850392565856, ,0.00045645447307488506, ,0.0036999435602029338,0.0017584133109060558,-0.011363873814262203,0.013503019375008607,0.007200553528754244,-0.006545613336888222, ,0.012079703133236882, ,0.015302918474995701, ,4.8299973210697814e-05, ,0.21245238136991626,-0.2258513229066958,0.09847007727000001,1.8089951424409914,0.8177694510961611,-1.214083712564849, ,0.015943706579044148,0.010526838971049604,0.012030824410876134,-0.0038173349162385893,0.025180161024878817,-0.0246856627598089, ,1.2074449062347412
0.011966924327524917,0.021494708319390796,-0.08600857232541054, ,0.012201934184301284,0.02129688395857027,-0.08629504554987401, ,0.00042003692557987803, ,0.003622652770903655,0.0014147734247038511,-0.01054520245110195,0.007916030358102778,0.0024709149540446938,-0.005580153731186872, ,0.011239505846633593, ,0.008292697205458655, ,4.8625420890377986e-05, ,0.21261455876027496,-0.22573548191358242,0.09858803966000002,1.8089951424409914,0.8177694510961611,-1.2141653913049897, ,0.01673372272235422,0.01212275696965646,0.011123471731843576,-0.0038173349162385893,0.02104748358713598,-0.020640914177524262, ,1.2144789695739746
0.011966924327524917,0.021494708319390796,-0.08600857232541054, ,0.012226490745977491,0.021303695901349458,-0.08636140648533783, ,0.00047786233775627495, ,0.0033729244590077275,0.0008882318211624581,-0.00900133898392229,-0.003959543122680847,-0.00954622596513319,-0.0001463920665496831, ,0.009653480132976776, ,0.010334812665201719, ,4.9029644362838424e-05, ,0.21274584521913678,-0.2256350863862175,0.09866840964000001,1.808785452497507,0.8179060875959265,-1.2142768092086862, ,0.016891588031055674,0.013498853706752599,0.009403076458087368,-0.007145899679995135,0.009370684949050969,-0.011119267850415079, ,1.2227020263671875
0.01203205367583159,0.021512542334166825,-0.0861806520668275, ,0.01225108428745518,0.02131038333305692,-0.08642758748080001, ,0.00038706558776483173, ,0.002933221368214808,0.0007299706859730162,-0.007218845978997542,0.0037813747572933835,-0.0036061155568247213,-0.000847498614020263, ,0.007826134554543568, ,0.005225212422527082, ,4.930049118597811e-05, ,0.2129620817396151,-0.22548835446160723,0.09876952026000001,1.808785452497507,0.8181793605954574,-1.2144996450160788, ,0.016654429897941518,0.010706522646493303,0.007625089286740067,-0.007145899679995135,0.015359006993391131,-0.015960676279583426, ,1.2345788478851318
0.01203205367583159,0.021512542334166825,-0.0861806520668275, ,0.012275714680140755,0.021316946880261232,-0.08649358928334279, ,0.0004422193664798323, ,0.002933221368214808,0.0007299706859730162,-0.007218845978997542,0.0037813747572933835,-0.0036061155568247213,-0.000847498614020263, ,0.007826134554543568, ,0.005225212422527082, ,4.9646072852742446e-05, ,0.2129620817396151,-0.22548835446160723,0.09876952026000001,1.808785452497507,0.8181793605954574,-1.2144996450160788, ,0.016654429897941518,0.010706522646493303,0.007625089286740067,-0.007145899679995135,0.015359006993391131,-0.015960676279583426, ,1.2410788536071777
0.01205741706732814,0.02151715742422509,-0.08624546650607637, ,0.01230038179566972,0.021323387168332368,-0.08655941263838299, ,0.00044174760358955484, ,0.0026041531653133725,0.0003277075980907282,-0.006547509345077553,0.009788992463778906,0.007672979687280412,-0.003657358706764228, ,0.007053997774463495, ,0.012437804416542008, ,5.00573219890224e-05, ,0.21310881366422535,-0.22536479073561963,0.09883822363000001,1.808785452497507,0.8184526335949883,-1.2147224808234718, ,0.015283772194954224,0.013451019356268006,0.0069015647833622195,-0.007145899679995135,0.025763848254635742,-0.024350818067242472, ,1.2460918426513672
0.01205741706732814,0.02151715742422509,-0.08624546650607637, ,0.012325085505905832,0.021329704821442655,-0.08662505828967261, ,0.0005008740295466572, ,0.0026041531653133725,0.0003277075980907282,-0.006547509345077553,0.009788992463778906,0.007672979687280412,-0.003657358706764228, ,0.007053997774463495, ,0.012437804416542008, ,5.054781438563721e-05, ,0.21310881366422535,-0.22536479073561963,0.09883822363000001,1.808785452497507,0.8184526335949883,-1.2147224808234718, ,0.015283772194954224,0.013451019356268006,0.0069015647833622195,-0.007145899679995135,0.025763848254635742,-0.024350818067242472, ,1.2509679794311523
0.012084808611591377,0.021520710540907838,-0.08631247768403527, ,0.012349825682941509,0.02133590046256775,-0.08669052697930045, ,0.0004973028079687151, ,0.002672386347315073,0.00033716582378276027,-0.006837326990259546,0.00932385418367938,0.007862066637206856,-0.0037967832290124012, ,0.007348766560027252, ,0.012196160613225976, ,5.102923411378736e-05, ,0.21326326832170983,-0.2252257815438836,0.09890822329000001,1.808785452497507,0.8185892700947538,-1.2148338987271683, ,0.015338118887743783,0.014073400794671627,0.0071945851490514915,-0.007145899679995135,0.026019770704275365,-0.024470437172868967, ,1.255964994430542
0.012084808611591377,0.021520710540907838,-0.08631247768403527, ,0.012374602199097303,0.021341974713487272,-0.08675581944769402, ,0.0005589979774268573, ,0.002672386347315073,0.00033716582378276027,-0.006837326990259546,0.00932385418367938,0.007862066637206856,-0.0037967832290124012, ,0.007348766560027252, ,0.012196160613225976, ,5.159221646480747e-05, ,0.21326326832170983,-0.2252257815438836,0.09890822329000001,1.808785452497507,0.8185892700947538,-1.2148338987271683, ,0.015338118887743783,0.014073400794671627,0.0071945851490514915,-0.007145899679995135,0.026019770704275365,-0.024470437172868967, ,1.2610418796539307
0.012115868186222813,0.02152675517836,-0.08639313797651077, ,0.012399414926921907,0.021347928194786106,-0.08682093643362068, ,0.0005434973450908823, ,0.0034315300830724143,0.00082693719910424,-0.009383373134663127,-0.0009698863990362474,-0.004066545912371806,-0.0017708956589472533, ,0.010025313722104214, ,0.004180598347227269, ,5.2129123503062244e-05, ,0.21342544571206856,-0.22507904961927333,0.09899248214,1.808785452497507,0.8187259065945193,-1.2149453166308648, ,0.016873567133440747,0.01513025216174598,0.009802345550769233,-0.006938126452069304,0.015056321398005312,-0.01545077737059716, ,1.2671968936920166
0.012115868186222813,0.02152675517836,-0.08639313797651077, ,0.012424263739191813,0.02135376152585493,-0.08688587867418894, ,0.0006064882653823316, ,0.004113873415649609,0.001525385182158375,-0.011900376202556249,-0.0020061030250741454,-0.007796950184331149,-0.0011874545700966382, ,0.01268344228497548, ,0.00805087839003075, ,5.274824440385061e-05, ,0.21342544571206856,-0.22507904961927333,0.09899248214,1.808785452497507,0.8187259065945193,-1.2149453166308648, ,0.016873567133440747,0.01513025216174598,0.009802345550769233,-0.006938126452069304,0.015056321398005312,-0.01545077737059716, ,1.2741079330444336
0.012150366694779105,0.02153787945052893,-0.08648952275397216, ,0.012449148508911188,0.021359475324891432,-0.08695064690485048, ,0.0005776972278138325, ,0.004113873415649609,0.001525385182158375,-0.011900376202556249,-0.0020061030250741454,-0.007796950184331149,-0.0011874545700966382, ,0.01268344228497548, ,0.00805087839003075, ,5.33228368622099e-05, ,0.21358762310242727,-0.2249477631604115,0.09909359276000002,1.808785452497507,0.8188625430942845,-1.2150567345345609, ,0.01817949072001356,0.013943129820521713,0.012473619044635868,-0.00664733946050653,0.01244185302367188,-0.013253572165099375, ,1.279918909072876
0.012199968999090769,0.021555956123544086,-0.08664079545496349, ,0.012474069109311956,0.02136507020890103,-0.08701524185940099, ,0.0005017752610766636, ,0.004419551553075547,0.0016550508102597574,-0.013107125117343693,0.00818474001968699,0.00417752165036493,-0.0015629787066560302, ,0.013930841968687172, ,0.00918919308121893, ,5.3789148936548285e-05, ,0.21381158235577977,-0.2247778630371786,0.09925303643000001,1.808366072610538,0.819272452593581,-1.2153909882456504, ,0.01969633490213175,0.015554325775851629,0.013803129566724439,-0.009970457535675254,0.027377333964894675,-0.025284136110982992, ,1.2854478359222412
0.012199968999090769,0.021555956123544086,-0.08664079545496349, ,0.01249902541385314,0.02137054679369789,-0.08707966426998211, ,0.0005625097293384214, ,0.004419551553075547,0.0016550508102597574,-0.013107125117343693,0.00818474001968699,0.00417752165036493,-0.0015629787066560302, ,0.013930841968687172, ,0.00918919308121893, ,5.4334179211723246e-05, ,0.21381158235577977,-0.2247778630371786,0.09925303643000001,1.808366072610538,0.819272452593581,-1.2153909882456504, ,0.01969633490213175,0.015554325775851629,0.013803129566724439,-0.009970457535675254,0.027377333964894675,-0.025284136110982992, ,1.2904088497161865
0.012245600549170298,0.02157319208896408,-0.08677756664851151, ,0.01252401729622113,0.02137590569390573,-0.08714391486708274, ,0.000500648403536656, ,0.004472632198238029,0.001842933596018415,-0.013730262084026725,0.014663905616975281,0.011239728755610945,0.0010668266827732037, ,0.014557504590969937, ,0.018475961205634973, ,5.479107483540591e-05, ,0.2140123734105096,-0.22462340837969408,0.09939692462000001,1.8081563826670535,0.8195457255931118,-1.215613824053043, ,0.0193469809497392,0.014827647118511058,0.014507114316939893,-0.014355809047605823,0.03544286338304997,-0.03172905039199217, ,1.2952580451965332
0.012245600549170298,0.02157319208896408,-0.08677756664851151, ,0.012549044630329296,0.0213811475229588,-0.08720799437954058, ,0.0005605599498371394, ,0.004472632198238029,0.001842933596018415,-0.013730262084026725,0.014663905616975281,0.011239728755610945,0.0010668266827732037, ,0.014557504590969937, ,0.018475961205634973, ,5.532501920916726e-05, ,0.2140123734105096,-0.22462340837969408,0.09939692462000001,1.8081563826670535,0.8195457255931118,-1.215613824053043, ,0.0193469809497392,0.014827647118511058,0.014507114316939893,-0.014355809047605823,0.03544286338304997,-0.03172905039199217, ,1.3000810146331787
0.012292584935407741,0.021591037299284556,-0.0869148621030118, ,0.012574107290317726,0.021386272893102916,-0.0872719035345432, ,0.00049866008681563, ,0.004895941166376673,0.0016544827636303693,-0.01418028672452268,-0.0032195889954801603,-0.007945564567887423,0.004385174405354099, ,0.015092650022757632, ,0.00857304941344448, ,5.577157629532582e-05, ,0.21421316446523944,-0.22446123098933538,0.09954081281,1.8081563826670535,0.8196823620928773,-1.2157252419567395, ,0.021695688513596427,0.017800964464166343,0.014845117912395157,-0.014355809047605823,0.017769549359224937,-0.01719963532831002, ,1.3049979209899902
0.012292584935407741,0.021591037299284556,-0.0869148621030118, ,0.012599205150553404,0.021391282415396024,-0.08733564305762995, ,0.0005576509497370641, ,0.004895941166376673,0.0016544827636303693,-0.01418028672452268,-0.0032195889954801603,-0.007945564567887423,0.004385174405354099, ,0.015092650022757632, ,0.00857304941344448, ,5.62934161627738e-05, ,0.21421316446523944,-0.22446123098933538,0.09954081281,1.8081563826670535,0.8196823620928773,-1.2157252419567395, ,0.021695688513596427,0.017800964464166343,0.014845117912395157,-0.014355809047605823,0.017769549359224937,-0.01719963532831002, ,1.3102798461914062
0.012292584935407741,0.021591037299284556,-0.0869148621030118, ,0.01262433808562952,0.021396176699709554,-0.08739921367269358, ,0.0006185687100088471, ,0.004895941166376673,0.0016544827636303693,-0.01418028672452268,-0.0032195889954801603,-0.007945564567887423,0.004385174405354099, ,0.015092650022757632, ,0.00857304941344448, ,5.689220239648955e-05, ,0.21421316446523944,-0.22446123098933538,0.09954081281,1.8081563826670535,0.8196823620928773,-1.2157252419567395, ,0.021695688513596427,0.017800964464166343,0.014845117912395157,-0.014355809047605823,0.017769549359224937,-0.01719963532831002, ,1.3154699802398682
0.012359180007856553,0.02161504279255535,-0.08709805215900752, ,0.012649505970365774,0.02140095635472891,-0.08746261610198115, ,0.0005128635645906201, ,0.00470438825491273,0.0015119963754158178,-0.012505190197397915,-0.004341078120676204,-0.013489643149697311,0.004416581524633481, ,0.01344608432835851, ,0.014170925366612887, ,5.734603125245925e-05, ,0.21452979651308265,-0.2242449944688571,0.09973396002000001,1.8081563826670535,0.8199556350924082,-1.2159480777641325, ,0.023173856302434865,0.015161677833275409,0.01314258376237624,-0.01263547672910126,0.01309828936287033,-0.013241000931291205, ,1.3211610317230225
0.012359180007856553,0.02161504279255535,-0.08709805215900752, ,0.01267470867980801,0.021405621987954593,-0.08752585106609596, ,0.0005713381845537205, ,0.00470438825491273,0.0015119963754158178,-0.012505190197397915,-0.004341078120676204,-0.013489643149697311,0.004416581524633481, ,0.01344608432835851, ,0.014170925366612887, ,5.795006051442856e-05, ,0.21452979651308265,-0.2242449944688571,0.09973396002000001,1.8081563826670535,0.8199556350924082,-1.2159480777641325, ,0.023173856302434865,0.015161677833275409,0.01314258376237624,-0.01263547672910126,0.01309828936287033,-0.013241000931291205, ,1.324462890625
0.012408546151827675,0.021630832354522272,-0.08723104592623211, ,0.012699946089227835,0.02141017420570322,-0.08758891928399878, ,0.0005115440180045713, ,0.004709238688409598,0.0013795308126463455,-0.012642773545612305,0.017246911763085283,0.01192369713070158,-0.0031906685872000393, ,0.013561701855338391, ,0.02096736024447174, ,5.847201816215377e-05, ,0.21478464669793207,-0.22406737161274992,0.09987525563,1.8081563826670535,0.8203655445917044,-1.2162823314752216, ,0.02472562312623001,0.017377209587707523,0.013419386284751476,-0.011573221475571686,0.04115240731725576,-0.03601385418335424, ,1.327737808227539
0.012408546151827675,0.021630832354522272,-0.08723104592623211, ,0.012725218074122928,0.021414613613108143,-0.08765182147300932, ,0.0005692835069405548, ,0.004709238688409598,0.0013795308126463455,-0.012642773545612305,0.017246911763085283,0.01192369713070158,-0.0031906685872000393, ,0.013561701855338391, ,0.02096736024447174, ,5.906720167612252e-05, ,0.21478464669793207,-0.22406737161274992,0.09987525563,1.8081563826670535,0.8203655445917044,-1.2162823314752216, ,0.02472562312623001,0.017377209587707523,0.013419386284751476,-0.011573221475571686,0.04115240731725576,-0.03601385418335424, ,1.3313429355621338
0.012408546151827675,0.021630832354522272,-0.08723104592623211, ,0.012750524510216295,0.02141894081412073,-0.08771455834880798, ,0.0006289924365881511, ,0.004709238688409598,0.0013795308126463455,-0.012642773545612305,0.017246911763085283,0.01192369713070158,-0.0031906685872000393, ,0.013561701855338391, ,0.02096736024447174, ,5.973761904257384e-05, ,0.21478464669793207,-0.22406737161274992,0.09987525563,1.8081563826670535,0.8203655445917044,-1.2162823314752216, ,0.02472562312623001,0.017377209587707523,0.013419386284751476,-0.011573221475571686,0.04115240731725576,-0.03601385418335424, ,1.3345990180969238
0.01245295729125622,0.021644086436598105,-0.0873505693740547, ,0.01277586527345657,0.0214231564115108,-0.08777713062543663, ,0.0005788213386998531, ,0.004747163573070118,0.0013502623483049407,-0.01305165152467475,0.01951047206706745,0.016472825015094863,-0.005134692646811349, ,0.01395365106057474, ,0.025534527713075322, ,6.033885739416377e-05, ,0.2150163286841588,-0.223897471489517,0.10000229205000001,1.8081563826670535,0.8207754540910007,-1.2166165851863107, ,0.024357531200839524,0.018772886559539223,0.013839106446568205,-0.010778941086913147,0.04535256441253201,-0.03935495699283735, ,1.338136911392212
0.01245295729125622,0.021644086436598105,-0.0873505693740547, ,0.012801240240017648,0.021427261006868013,-0.08783953901530116, ,0.000638283314395949, ,0.004747163573070118,0.0013502623483049407,-0.01305165152467475,0.01951047206706745,0.016472825015094863,-0.005134692646811349, ,0.01395365106057474, ,0.025534527713075322, ,6.101458272002228e-05, ,0.2150163286841588,-0.223897471489517,0.10000229205000001,1.8081563826670535,0.8207754540910007,-1.2166165851863107, ,0.024357531200839524,0.018772886559539223,0.013839106446568205,-0.010778941086913147,0.04535256441253201,-0.03935495699283735, ,1.3414528369903564
0.01245295729125622,0.021644086436598105,-0.0873505693740547, ,0.01282664928629835,0.02143125520060238,-0.08790178422917176, ,0.0006991284994017559, ,0.004747163573070118,0.0013502623483049407,-0.01305165152467475,0.01951047206706745,0.016472825015094863,-0.005134692646811349, ,0.01395365106057474, ,0.025534527713075322, ,6.176601414445159e-05, ,0.2150163286841588,-0.223897471489517,0.10000229205000001,1.8081563826670535,0.8207754540910007,-1.2166165851863107, ,0.024357531200839524,0.018772886559539223,0.013839106446568205,-0.010778941086913147,0.04535256441253201,-0.03935495699283735, ,1.344696044921875
0.012510948326323726,0.021660237979458777,-0.08750729506585941, ,0.012852092288922562,0.021435139591945637,-0.08796386697618579, ,0.000612785767277378, ,0.005453496546988144,0.001727382083786955,-0.014935543338708876,0.006113594162470006,0.0006506088560287774,-0.010422877505434936, ,0.01599359022464471, ,0.006148055161423345, ,6.240140861067039e-05, ,0.21530206980050512,-0.2236812349690387,0.10016692088000001,1.8079466927235692,0.8210487270905317,-1.2168394209937037, ,0.026214624739909057,0.01988203259134104,0.015739932332015812,-0.0015369664943943988,0.028536605352380697,-0.025549318659036306, ,1.3485288619995117
0.012510948326323726,0.021660237979458777,-0.08750729506585941, ,0.012877569124738806,0.02143891477895162,-0.0880257879638475, ,0.0006724802258634246, ,0.005453496546988144,0.001727382083786955,-0.014935543338708876,0.006113594162470006,0.0006506088560287774,-0.010422877505434936, ,0.01599359022464471, ,0.006148055161423345, ,6.311083530580262e-05, ,0.21530206980050512,-0.2236812349690387,0.10016692088000001,1.8079466927235692,0.8210487270905317,-1.2168394209937037, ,0.026214624739909057,0.01988203259134104,0.015739932332015812,-0.0015369664943943988,0.028536605352380697,-0.025549318659036306, ,1.3523600101470947
0.012510948326323726,0.021660237979458777,-0.08750729506585941, ,0.012903079670820295,0.02144258135849753,-0.08808754789803099, ,0.0007333721737481485, ,0.005453496546988144,0.001727382083786955,-0.014935543338708876,0.006113594162470006,0.0006506088560287774,-0.010422877505434936, ,0.01599359022464471, ,0.006148055161423345, ,6.389526748039765e-05, ,0.21530206980050512,-0.2236812349690387,0.10016692088000001,1.8079466927235692,0.8210487270905317,-1.2168394209937037, ,0.026214624739909057,0.01988203259134104,0.015739932332015812,-0.0015369664943943988,0.028536605352380697,-0.025549318659036306, ,1.3560409545898438
0.012565100695568631,0.02167435261063512,-0.0876650550285632, ,0.0129286238044644,0.021446139926284722,-0.088149147482981, ,0.0006469741760100702, ,0.006062623983363376,0.002063225204180255,-0.017926356204650693,-0.00013771585303389182,-0.0025755167350250134,0.001515671646895673, ,0.01903592799373952, ,0.0025788371177188144, ,6.456431856422403e-05, ,0.21554919725248028,-0.22347272118143463,0.10033154971000001,1.8073176228931154,0.8213220000900625,-1.2170622568010967, ,0.025787212380019235,0.02271892304488168,0.018783975849056604,-0.01447595234054679,0.0276976512643808,-0.024790358593785658, ,1.3597469329833984
0.012565100695568631,0.02167435261063512,-0.0876650550285632, ,0.012954201403192917,0.021449591076839632,-0.08821058742131456, ,0.0007067691980334488, ,0.006062623983363376,0.002063225204180255,-0.017926356204650693,-0.00013771585303389182,-0.0025755167350250134,0.001515671646895673, ,0.01903592799373952, ,0.0025788371177188144, ,6.530678715150552e-05, ,0.21554919725248028,-0.22347272118143463,0.10033154971000001,1.8073176228931154,0.8213220000900625,-1.2170622568010967, ,0.025787212380019235,0.02271892304488168,0.018783975849056604,-0.01447595234054679,0.0276976512643808,-0.024790358593785658, ,1.3632099628448486
0.012565100695568631,0.02167435261063512,-0.0876650550285632, ,0.01297981234475165,0.021452935403514745,-0.0882718684140224, ,0.0007676156696873415, ,0.006062623983363376,0.002063225204180255,-0.017926356204650693,-0.00013771585303389182,-0.0025755167350250134,0.001515671646895673, ,0.01903592799373952, ,0.0025788371177188144, ,6.612345650456235e-05, ,0.21554919725248028,-0.22347272118143463,0.10033154971000001,1.8073176228931154,0.8213220000900625,-1.2170622568010967, ,0.025787212380019235,0.02271892304488168,0.018783975849056604,-0.01447595234054679,0.0276976512643808,-0.024790358593785658, ,1.3665030002593994
0.012628376611961449,0.021696441526916858,-0.08785271524166224, ,0.013005456507110151,0.02145617349848937,-0.08833299116047007, ,0.0006561881826095985, ,0.006369486907556637,0.0018868173517823127,-0.018172474334249587,0.011683405490917814,0.006960356667978839,0.029797170325093842, ,0.019348624411401505, ,0.013599505394049674, ,6.679345812809237e-05, ,0.21583493836882658,-0.2232410391952079,0.10052988208000001,1.807107932949631,0.8218685460891243,-1.2175079284158823, ,0.03066137045507941,0.02305002223912334,0.019168244909747296,-0.049606823534969306,0.05095699914822337,-0.04368097306061216, ,1.3697788715362549
0.012628376611961449,0.021696441526916858,-0.08785271524166224, ,0.01303113376846169,0.021459305952770746,-0.08839395635840042, ,0.0007151143643402435, ,0.006369486907556637,0.0018868173517823127,-0.018172474334249587,0.011683405490917814,0.006960356667978839,0.029797170325093842, ,0.019348624411401505, ,0.013599505394049674, ,6.753520232207712e-05, ,0.21583493836882658,-0.2232410391952079,0.10052988208000001,1.807107932949631,0.8218685460891243,-1.2175079284158823, ,0.03066137045507941,0.02305002223912334,0.019168244909747296,-0.049606823534969306,0.05095699914822337,-0.04368097306061216, ,1.3731248378753662
0.012628376611961449,0.021696441526916858,-0.08785271524166224, ,0.013056844007223152,0.02146233335619483,-0.088454764703934, ,0.0007751480500026258, ,0.006369486907556637,0.0018868173517823127,-0.018172474334249587,0.011683405490917814,0.006960356667978839,0.029797170325093842, ,0.019348624411401505, ,0.013599505394049674, ,6.834955047138816e-05, ,0.21583493836882658,-0.2232410391952079,0.10052988208000001,1.807107932949631,0.8218685460891243,-1.2175079284158823, ,0.03066137045507941,0.02305002223912334,0.019168244909747296,-0.049606823534969306,0.05095699914822337,-0.04368097306061216, ,1.3763740062713623
0.012695427084751526,0.021716217168336976,-0.08803722663153922, ,0.013082587102034618,0.02146525629742704,-0.08851541689157089, ,0.000664484885079917, ,0.006990980528933283,0.0023839274170008454,-0.019279991962613496,0.02178849459419849,0.01797078613339111,-0.042139858215684785, ,0.020646428474772424, ,0.028243317562449414, ,6.901932938526778e-05, ,0.21615929314954402,-0.22299391174323271,0.10072432558000001,1.8068982430061464,0.8222784555884206,-1.2178421821269714, ,0.03312284173070533,0.02586452481833491,0.020421553230769232,0.026104117186677964,0.047505217278429525,-0.040798669754825746, ,1.3797428607940674
0.012695427084751526,0.021716217168336976,-0.08803722663153922, ,0.013108362931759402,0.02146807536396358,-0.08857591361419206, ,0.0007226852939567974, ,0.006990980528933283,0.0023839274170008454,-0.019279991962613496,0.02178849459419849,0.01797078613339111,-0.042139858215684785, ,0.020646428474772424, ,0.028243317562449414, ,6.975938841714912e-05, ,0.21615929314954402,-0.22299391174323271,0.10072432558000001,1.8068982430061464,0.8222784555884206,-1.2178421821269714, ,0.03312284173070533,0.02586452481833491,0.020421553230769232,0.026104117186677964,0.047505217278429525,-0.040798669754825746, ,1.3829779624938965
0.012695427084751526,0.021716217168336976,-0.08803722663153922, ,0.013134171375483726,0.021470791142131913,-0.08863625556306196, ,0.0007820269482506208, ,0.006990980528933283,0.0023839274170008454,-0.019279991962613496,0.02178849459419849,0.01797078613339111,-0.042139858215684785, ,0.020646428474772424, ,0.028243317562449414, ,7.057063610833136e-05, ,0.21615929314954402,-0.22299391174323271,0.10072432558000001,1.8068982430061464,0.8222784555884206,-1.2178421821269714, ,0.03312284173070533,0.02586452481833491,0.020421553230769232,0.026104117186677964,0.047505217278429525,-0.040798669754825746, ,1.3862240314483643
0.01277091204449165,0.021738839167770252,-0.08823727029505783, ,0.013160012312516711,0.021473404217092037,-0.08869644342782791, ,0.0006577953309933187, ,0.007571565557891592,0.0018720417493733937,-0.019745176920433212,0.0036628726104328433,-0.0023319666776235263,-0.0015894729384066555, ,0.021229817637654254, ,0.004341854796656849, ,7.122133391535485e-05, ,0.2165299843275068,-0.22270817062688641,0.10093562085,1.807107932949631,0.8226883650877169,-1.2182581145782014, ,0.03852900591086918,0.029489416270500553,0.020794793107049615,-0.015229599250034875,0.04148115717264232,-0.034798146286375675, ,1.3916559219360352
0.01277091204449165,0.021738839167770252,-0.08823727029505783, ,0.013185885622390044,0.021475915172837198,-0.08875647789652338, ,0.0007147787286181379, ,0.007571565557891592,0.0018720417493733937,-0.019745176920433212,0.0036628726104328433,-0.0023319666776235263,-0.0015894729384066555, ,0.021229817637654254, ,0.004341854796656849, ,7.194034906709785e-05, ,0.2165299843275068,-0.22270817062688641,0.10093562085,1.807107932949631,0.8226883650877169,-1.2182581145782014, ,0.03852900591086918,0.029489416270500553,0.020794793107049615,-0.015229599250034875,0.04148115717264232,-0.034798146286375675, ,1.3984768390655518
0.012825108208722284,0.021753293510944675,-0.08837603401304261, ,0.01321179118485802,0.021478324592194675,-0.0888163596555681, ,0.0006473162301203432, ,0.007438073194862856,0.001826875850719649,-0.01874554076969014,0.0004983014647596408,-0.008447825531160365,-0.0020078491043945498, ,0.020249881653338006, ,0.00846237235534614, ,7.266227614495638e-05, ,0.2168080027109789,-0.22250737957215658,0.10108210162,1.807107932949631,0.8229616380872479,-1.2184809503855942, ,0.038860336428530214,0.027522314837143496,0.019762793449131517,-0.012804066328493499,0.03485094768344874,-0.029369462780168245, ,1.40065598487854
0.012825108208722284,0.021753293510944675,-0.08837603401304261, ,0.013237728879896975,0.021480633056827004,-0.08887608938977092, ,0.0007033170844755515, ,0.007438073194862856,0.001826875850719649,-0.01874554076969014,0.0004983014647596408,-0.008447825531160365,-0.0020078491043945498, ,0.020249881653338006, ,0.00846237235534614, ,7.345257039098469e-05, ,0.2168080027109789,-0.22250737957215658,0.10108210162,1.807107932949631,0.8229616380872479,-1.2184809503855942, ,0.038860336428530214,0.027522314837143496,0.019762793449131517,-0.012804066328493499,0.03485094768344874,-0.029369462780168245, ,1.4030749797821045
0.012825108208722284,0.021753293510944675,-0.08837603401304261, ,0.01326369858770537,0.02148284114723282,-0.08893566778233038, ,0.000760720682840348, ,0.007438073194862856,0.001826875850719649,-0.01874554076969014,0.0004983014647596408,-0.008447825531160365,-0.0020078491043945498, ,0.020249881653338006, ,0.00846237235534614, ,7.431273073197263e-05, ,0.2168080027109789,-0.22250737957215658,0.10108210162,1.807107932949631,0.8229616380872479,-1.2184809503855942, ,0.038860336428530214,0.027522314837143496,0.019762793449131517,-0.012804066328493499,0.03485094768344874,-0.029369462780168245, ,1.404778003692627
0.012825108208722284,0.021753293510944675,-0.08837603401304261, ,0.013289700188703924,0.02148494944274739,-0.08899509551483605, ,0.0008192016783446348, ,0.007438073194862856,0.001826875850719649,-0.01874554076969014,0.0004983014647596408,-0.008447825531160365,-0.0020078491043945498, ,0.020249881653338006, ,0.00846237235534614, ,7.524384191648845e-05, ,0.2168080027109789,-0.22250737957215658,0.10108210162,1.807107932949631,0.8229616380872479,-1.2184809503855942, ,0.038860336428530214,0.027522314837143496,0.019762793449131517,-0.012804066328493499,0.03485094768344874,-0.029369462780168245, ,1.4064538478851318
0.012825108208722284,0.021753293510944675,-0.08837603401304261, ,0.013315733563534769,0.02148695852154401,-0.08905437326727059, ,0.0008785167665961136, ,0.006797791383257955,0.0007323208637189038,-0.015328567016628528,-0.01572821984603862,-0.022784951389996536,-0.0016358568449950164, ,0.016784255369869886, ,0.027686279329337305, ,7.624667952532695e-05, ,0.21730225761492925,-0.22215985659281648,0.10131284124,1.807107932949631,0.8232349110867787,-1.2187854649331276, ,0.03878093239005753,0.030631679005316582,0.01602496128772636,-0.009832172340843024,0.019046639872499514,-0.015827719228834358, ,1.4081799983978271
0.012916932880016743,0.021773165397100617,-0.08859536905683867, ,0.01334179859306168,0.021488868960634764,-0.08911350171801084, ,0.0007278714120514198, ,0.006797791383257955,0.0007323208637189038,-0.015328567016628528,-0.01572821984603862,-0.022784951389996536,-0.0016358568449950164, ,0.016784255369869886, ,0.027686279329337305, ,7.705917919181833e-05, ,0.21730225761492925,-0.22215985659281648,0.10131284124,1.807107932949631,0.8232349110867787,-1.2187854649331276, ,0.03878093239005753,0.030631679005316582,0.01602496128772636,-0.009832172340843024,0.019046639872499514,-0.015827719228834358, ,1.4100749492645264
0.012916932880016743,0.021773165397100617,-0.08859536905683867, ,0.013367895158369955,0.021490681335871162,-0.08917248154382941, ,0.0007849987541307621, ,0.006797791383257955,0.0007323208637189038,-0.015328567016628528,-0.01572821984603862,-0.022784951389996536,-0.0016358568449950164, ,0.016784255369869886, ,0.027686279329337305, ,7.794079759149323e-05, ,0.21730225761492925,-0.22215985659281648,0.10131284124,1.807107932949631,0.8232349110867787,-1.2187854649331276, ,0.03878093239005753,0.030631679005316582,0.01602496128772636,-0.009832172340843024,0.019046639872499514,-0.015827719228834358, ,1.4117658138275146
0.012916932880016743,0.021773165397100617,-0.08859536905683867, ,0.013394023140766044,0.021492396221945514,-0.08923131341989607, ,0.0008431320652920272, ,0.006797791383257955,0.0007323208637189038,-0.015328567016628528,-0.01572821984603862,-0.022784951389996536,-0.0016358568449950164, ,0.016784255369869886, ,0.027686279329337305, ,0.00043444926391274723, ,0.21730225761492925,-0.22215985659281648,0.10131284124,1.807107932949631,0.8232349110867787,-1.2187854649331276, ,0.03878093239005753,0.030631679005316582,0.01602496128772636,-0.009832172340843024,0.019046639872499514,-0.015827719228834358, ,1.413404941558838
0.012916932880016743,0.021773165397100617,-0.08859536905683867, ,0.013420182421777406,0.021494014192391605,-0.08928999801977947, ,0.0009020503824781742, ,0.006797791383257955,0.0007323208637189038,-0.015328567016628528,-0.01572821984603862,-0.022784951389996536,-0.0016358568449950164, ,0.016784255369869886, ,0.027686279329337305, ,0.00043763022390298827, ,0.21730225761492925,-0.22215985659281648,0.10131284124,1.807107932949631,0.8232349110867787,-1.2187854649331276, ,0.03878093239005753,0.030631679005316582,0.01602496128772636,-0.009832172340843024,0.019046639872499514,-0.015827719228834358, ,1.4150969982147217
0.012916932880016743,0.021773165397100617,-0.08859536905683867, ,0.013446372883152527,0.021495535819585274,-0.08934853601544836, ,0.0009615848203737093, ,0.006797791383257955,0.0007323208637189038,-0.015328567016628528,-0.01572821984603862,-0.022784951389996536,-0.0016358568449950164, ,0.016784255369869886, ,0.027686279329337305, ,0.0004411704576629256, ,0.21730225761492925,-0.22215985659281648,0.10131284124,1.807107932949631,0.8232349110867787,-1.2187854649331276, ,0.03878093239005753,0.030631679005316582,0.01602496128772636,-0.009832172340843024,0.019046639872499514,-0.015827719228834358, ,1.4167759418487549
0.012987934010273927,0.02177656321521131,-0.0887621585275135, ,0.013472594406860362,0.02149696167474605,-0.08940692807727275, ,0.0008536981279976079, ,0.0080879904918353,0.0009667109630035235,-0.01929220700364051,0.00037606466159105615,-0.002539697741211797,-0.006321257783694492, ,0.020941331651863147, ,0.0025668690649412232, ,0.00044393909974570873, ,0.2177192851901374,-0.2217968881477279,0.10148784039000001,1.8066885530626617,0.8237814570858404,-1.2192311365479134, ,0.0451245561381221,0.03805009685584233,0.020265663511450382,-0.013297802718680758,0.047713082409104594,-0.03920575567813905, ,1.4185209274291992
0.012987934010273927,0.02177656321521131,-0.0887621585275135, ,0.013498846875090734,0.021498292327937436,-0.0894651748740263, ,0.0009125232192134721, ,0.0080879904918353,0.0009667109630035235,-0.01929220700364051,0.00037606466159105615,-0.002539697741211797,-0.006321257783694492, ,0.020941331651863147, ,0.0025668690649412232, ,0.00044706299387549376, ,0.2177192851901374,-0.2217968881477279,0.10148784039000001,1.8066885530626617,0.8237814570858404,-1.2192311365479134, ,0.0451245561381221,0.03805009685584233,0.020265663511450382,-0.013297802718680758,0.047713082409104594,-0.03920575567813905, ,1.4201939105987549
0.012987934010273927,0.02177656321521131,-0.0887621585275135, ,0.013525130170253431,0.021499528348068127,-0.08952327707288685, ,0.0009719205070482914, ,0.0080879904918353,0.0009667109630035235,-0.01929220700364051,0.00037606466159105615,-0.002539697741211797,-0.006321257783694492, ,0.020941331651863147, ,0.0025668690649412232, ,0.00045053887144617456, ,0.2177192851901374,-0.2217968881477279,0.10148784039000001,1.8066885530626617,0.8237814570858404,-1.2192311365479134, ,0.0451245561381221,0.03805009685584233,0.020265663511450382,-0.013297802718680758,0.047713082409104594,-0.03920575567813905, ,1.4218759536743164
0.012987934010273927,0.02177656321521131,-0.0887621585275135, ,0.013551444174978744,0.021500670302892766,-0.0895812353394383, ,0.0010317690771806274, ,0.0080879904918353,0.0009667109630035235,-0.01929220700364051,0.00037606466159105615,-0.002539697741211797,-0.006321257783694492, ,0.020941331651863147, ,0.0025668690649412232, ,0.00045436275437863805, ,0.2177192851901374,-0.2217968881477279,0.10148784039000001,1.8066885530626617,0.8237814570858404,-1.2192311365479134, ,0.0451245561381221,0.03805009685584233,0.020265663511450382,-0.013297802718680758,0.047713082409104594,-0.03920575567813905, ,1.4235539436340332
0.012987934010273927,0.02177656321521131,-0.0887621585275135, ,0.01357778877211666,0.0215017187590131,-0.08963905033767253, ,0.0010919740664939864, ,0.0080879904918353,0.0009667109630035235,-0.01929220700364051,0.00037606466159105615,-0.002539697741211797,-0.006321257783694492, ,0.020941331651863147, ,0.0025668690649412232, ,0.0004585301485754704, ,0.2177192851901374,-0.2217968881477279,0.10148784039000001,1.8066885530626617,0.8237814570858404,-1.2192311365479134, ,0.0451245561381221,0.03805009685584233,0.020265663511450382,-0.013297802718680758,0.047713082409104594,-0.03920575567813905, ,1.4252359867095947
0.012987934010273927,0.02177656321521131,-0.0887621585275135, ,0.013604163844737413,0.02150267428187847,-0.0896967227299896, ,0.0011524602401969846, ,0.0080879904918353,0.0009667109630035235,-0.01929220700364051,0.00037606466159105615,-0.002539697741211797,-0.006321257783694492, ,0.020941331651863147, ,0.0025668690649412232, ,0.0004630361881314542, ,0.2177192851901374,-0.2217968881477279,0.10148784039000001,1.8066885530626617,0.8237814570858404,-1.2192311365479134, ,0.0451245561381221,0.03805009685584233,0.020265663511450382,-0.013297802718680758,0.047713082409104594,-0.03920575567813905, ,1.4269039630889893
0.01307715855355921,0.021791641727704574,-0.08899513173811292, ,0.013630569276130437,0.021503537435787156,-0.08975425317720068, ,0.0009826153215580884, ,0.009531049753154712,0.0020534305309832367,-0.026085972081135562,0.05134271309579357,0.05037725291033923,0.034245288482455234, ,0.027848436684318002, ,0.07193003350280039, ,0.00046638831157291643, ,0.21821354009408775,-0.22140302877114246,0.10173543178000001,1.8060594832322083,0.8248745490839641,-1.2203675159979064, ,0.05031651196101314,0.039589879665611505,0.02775054271777004,-0.07586296262894159,0.12293635781281016,-0.10375283722736885, ,1.4286079406738281
0.01307715855355921,0.021791641727704574,-0.08899513173811292, ,0.013657004949804872,0.02150430878388714,-0.08981164233852869, ,0.0010418596951764605, ,0.009531049753154712,0.0020534305309832367,-0.026085972081135562,0.05134271309579357,0.05037725291033923,0.034245288482455234, ,0.027848436684318002, ,0.07193003350280039, ,0.0004700772306985802, ,0.21821354009408775,-0.22140302877114246,0.10173543178000001,1.8060594832322083,0.8248745490839641,-1.2203675159979064, ,0.05031651196101314,0.039589879665611505,0.02775054271777004,-0.07586296262894159,0.12293635781281016,-0.10375283722736885, ,1.4302589893341064
0.01307715855355921,0.021791641727704574,-0.08899513173811292, ,0.013683470749489226,0.02150498888817677,-0.08986889087160978, ,0.0011014714488864442, ,0.009531049753154712,0.0020534305309832367,-0.026085972081135562,0.05134271309579357,0.05037725291033923,0.034245288482455234, ,0.027848436684318002, ,0.07193003350280039, ,0.0004740988499227067, ,0.21821354009408775,-0.22140302877114246,0.10173543178000001,1.8060594832322083,0.8248745490839641,-1.2203675159979064, ,0.05031651196101314,0.039589879665611505,0.02775054271777004,-0.07586296262894159,0.12293635781281016,-0.10375283722736885, ,1.4318690299987793
0.01307715855355921,0.021791641727704574,-0.08899513173811292, ,0.013709966559131006,0.021505578309505984,-0.0899259994324949, ,0.0011613754412726403, ,0.009531049753154712,0.0020534305309832367,-0.026085972081135562,0.05134271309579357,0.05037725291033923,0.034245288482455234, ,0.027848436684318002, ,0.07193003350280039, ,0.0004784487017666936, ,0.21821354009408775,-0.22140302877114246,0.10173543178000001,1.8060594832322083,0.8248745490839641,-1.2203675159979064, ,0.05031651196101314,0.039589879665611505,0.02775054271777004,-0.07586296262894159,0.12293635781281016,-0.10375283722736885, ,1.4335319995880127
0.01307715855355921,0.021791641727704574,-0.08899513173811292, ,0.01373649226289667,0.02150607760757718,-0.08998296867565167, ,0.001221511204262472, ,0.009531049753154712,0.0020534305309832367,-0.026085972081135562,0.05134271309579357,0.05037725291033923,0.034245288482455234, ,0.027848436684318002, ,0.07193003350280039, ,0.00048312205083899415, ,0.21821354009408775,-0.22140302877114246,0.10173543178000001,1.8060594832322083,0.8248745490839641,-1.2203675159979064, ,0.05031651196101314,0.039589879665611505,0.02775054271777004,-0.07586296262894159,0.12293635781281016,-0.10375283722736885, ,1.4353368282318115
0.01307715855355921,0.021791641727704574,-0.08899513173811292, ,0.013763047745171439,0.021506487340946064,-0.09003979925396521, ,0.0012818296400595101, ,0.009531049753154712,0.0020534305309832367,-0.026085972081135562,0.05134271309579357,0.05037725291033923,0.034245288482455234, ,0.027848436684318002, ,0.07193003350280039, ,0.00048811397327162235, ,0.21821354009408775,-0.22140302877114246,0.10173543178000001,1.8060594832322083,0.8248745490839641,-1.2203675159979064, ,0.05031651196101314,0.039589879665611505,0.02775054271777004,-0.07586296262894159,0.12293635781281016,-0.10375283722736885, ,1.437103033065796
0.013175042273648012,0.02181776604705931,-0.08926440410231601, ,0.013789632890559348,0.02150680806702236,-0.09009649181873998, ,0.0010801789016490634, ,0.011436431110487649,0.0033554359700900004,-0.032209244916466144,0.055096317227616966,0.05194418906073931,0.014668169301168552, ,0.034343651017083254, ,0.07572165003025863, ,0.0004917913951870102, ,0.2187077949980381,-0.22102461486030547,0.10202191187000001,1.8056401033452392,0.8259676410820875,-1.2213405379676183, ,0.055756134875717255,0.04208290091284735,0.034255508645161296,-0.05652552117987044,0.12574787453079023,-0.10586229290144854, ,1.4388949871063232
