NicholasDascanio/dvrk_moveit_final/test/execution/third_experiment_notsharpbends/thirdexp_700vel4.0/thirdexp_700vel4.0_22.csv
Current Position (x),Current Position (y),Current Position (z), ,Planned Position (x),Planned Position (y),Planned Position (z), ,Position Error,,Cartesian linear Velocity(x),Cartesian linear Velocity(y),Cartesian linear Velocity(z),Cartesian Angular Velocity(x),Cartesian Angular Velocity(y),Cartesian Angular Velocity(z), ,Total Linear Velocity, ,Total Angular Velocity, ,MSE, ,Joint 1 Position,Joint 2 Position,Joint 3 Position,Joint 4 Position,Joint 5 Position,Joint 6 Position, ,Joint 1 Velocity,Joint 2 Velocity,Joint 3 Velocity,Joint 4 Velocity,Joint 5 Velocity,Joint 6 Velocity, ,Time Stamp
0.009162098125306044,0.020800675930211208,-0.07728584429299902, ,0.00929930352268663,0.020736388442059266,-0.07741872637589281, ,0.00020153374446340935, ,-6.501253743661231e-06,-3.893381739899152e-06,-1.8185749003186255e-06,0.02312958431585689,1.4414760331567158e-05,-0.01616137084858509, ,7.793069759736417e-06, ,0.023129588807621473, ,1.679447870528411e-05, ,0.20069838193534656,-0.24162886616873647,0.08965660156000001,1.8201087094456714,0.8169496320975684,-1.1865428996364256, ,-5.612721304141688e-05,-6.682175909883219e-05,0.0,-0.0014539199219595295,0.0,-0.029212879419136195, ,0.016417980194091797
0.009164922273343873,0.020802889801884918,-0.07729972619211525, ,0.00932972749634182,0.020735511174799832,-0.07751881508188023, ,0.0002823129159881352, ,0.00010043716275802899,7.215180474446031e-05,-0.0003553112384143276,0.24245482183202388,0.002457006456447428,-0.18130484953298942, ,0.0003762174673434085, ,0.24246727100853316, ,2.1993030020524753e-05, ,0.20069838193534656,-0.241613420702988,0.08967086075000001,1.8201087094456714,0.8169496320975684,-1.1906268366434536, ,0.0003855042202513288,0.00010393775998657408,0.0003721938078516695,-0.0014162715132536934,0.0,-0.3038605745395695, ,0.03580307960510254
0.00917288486673969,0.020804576589530926,-0.07731930726914435, ,0.009360238873331676,0.020734581675491633,-0.07761881260471733, ,0.0003601447734094165, ,0.001125095855451372,0.00041452282059161,-0.003248953690555841,0.22598928709821114,-0.06277952343882419,-0.2013786104843336, ,0.003463144515627596, ,0.23454727976679152, ,2.6374732308155036e-05, ,0.200713827401095,-0.24154391610711998,0.08970845316,1.819899019502187,0.8151733576006177,-1.1954676668862234, ,0.0007273434552992734,0.0035257350920891695,0.0020665297768552157,-0.0008630115773388798,-0.15465050558800925,-0.10969248757344452, ,0.05210399627685547
0.009205174397299874,0.02081177092413737,-0.07739195431151322, ,0.009390837102067845,0.02073360030366272,-0.07771871856018499, ,0.00038386997806181384, ,0.0016983875156572957,0.0007453941975633525,-0.004932412367228026,-0.006512373633338849,-0.09274636609576874,-0.03964383434519619, ,0.0052696133087244326, ,0.09297472469112854, ,2.9234795521970833e-05, ,0.20072927286684344,-0.24150530244274887,0.08974734186000001,1.819899019502187,0.8138069926029633,-1.1963137776126327, ,0.0011979799153313576,0.004427669703270423,0.004542004995722841,-0.0008630115773388798,-0.09728161159247599,-0.021223064782088352, ,0.06930899620056152
0.009239548011114648,0.020833017147719735,-0.0775201776639242, ,0.009421521632257181,0.02073256741811886,-0.07781853256532283, ,0.00036362094845759, ,0.0022330031276005208,0.001459845715735787,-0.007444413787515109,0.16743163538634603,-0.07799548270192994,-0.16178645317153809, ,0.007908018027380241, ,0.18470692414522352, ,3.060543000731471e-05, ,0.20076788653121458,-0.2414203523811324,0.08987437828000001,1.8194796396152177,0.8128505371046052,-1.2009246491360348, ,0.0026779978043810796,0.0036551581176612097,0.0073000969385884525,-0.001299984720436703,-0.08201840236930694,-0.23360266983937664, ,0.08579301834106445
0.009287987470730508,0.02085453301074866,-0.0776669127848694, ,0.00945229191490008,0.020731483376943964,-0.0779182542384277, ,0.00032451454363424675, ,0.0016130065874859515,0.0008388164808298652,-0.005989689287433007,-0.039330527590829195,-0.041515005789549114,0.005982278064831368, ,0.006259535214356941, ,0.05718728965924034, ,3.0903175871203416e-05, ,0.20079877746271146,-0.2413508477852644,0.08994697052,1.8192699496717335,0.81121089910742,-1.202201353976176, ,0.002327530292480093,0.007300884791637555,0.008193833086419754,-0.0013466752501130885,-0.16349700806636636,0.03823051319325699, ,0.10256099700927734
0.009303181362737483,0.020863089446089368,-0.07773061304266835, ,0.00948314740228987,0.02073034853750076,-0.07801788319905269, ,0.0003640495391484318, ,0.0012240270258783096,0.0005979025853706347,-0.004667041404413881,-0.12918859102621136,0.011570448845419896,0.09839458680338732, ,0.004861790321701141, ,0.1297056950777722, ,3.1667311710597824e-05, ,0.20085283659283104,-0.24119639312777988,0.09007789581,1.8192699496717335,0.8105277166085928,-1.2002557258753044, ,0.004973071968144863,0.007229234151283977,0.00490570111487527,-0.0013466752501130885,0.019335882178262015,0.15642778558627723, ,0.11913919448852539
0.009311878831099617,0.020866964263379008,-0.07777259001065992, ,0.0095140875480112,0.02072916325643146,-0.07811741906800607, ,0.0004228292344446141, ,0.000733389837872843,0.00037921745071513107,-0.005091427476698564,0.02464195907394328,0.08652694138849468,0.02203961277307245, ,0.005157935660678906, ,0.08996742593643844, ,3.296189850741046e-05, ,0.20091461845582484,-0.24098787934017582,0.09017771014,1.8190602597282488,0.8114841721069508,-1.198830325217384, ,0.004132293121762297,0.011493200827425649,0.005686830246340593,-0.011626178108625996,0.09903680744655419,-0.023530608744328746, ,0.13649415969848633
0.009340618738391284,0.020872090046630543,-0.0779193689566963, ,0.009545111806939306,0.020727927889658024,-0.0782168614673494, ,0.0003887183253743503, ,0.0011514294097567108,-1.8179333786519258e-05,-0.00452232025348368,0.029433547495843447,-0.0065632336770114,-0.020578996101728676, ,0.004666636974192262, ,0.030156421415639286, ,3.3604282641108786e-05, ,0.20097640031881864,-0.24074847462107488,0.09027233931,1.8188505697847643,0.812167354605778,-1.1993057359957255, ,0.003217408729404689,0.012398346166510423,0.004358087967168263,-0.016295410311073528,0.0,-0.05599832480324547, ,0.15633916854858398
0.009369408759586601,0.02087194777834009,-0.07802905390456714, ,0.009576219635238449,0.020726642792383024,-0.07831621002039796, ,0.00038254792129994216, ,0.001564879594909982,0.00023831107179171656,-0.005597702052270855,0.005730977527771189,-0.006518613901400669,-0.01633339565224442, ,0.005817207971140578, ,0.008679655818252528, ,3.4060214943940694e-05, ,0.2010613503804351,-0.24042411984035744,0.09038511654,1.8186408798412796,0.812167354605778,-1.1997141296964282, ,0.005248165370233233,0.013924716296180598,0.005624580338983051,-0.0016721305591963626,-0.0011615917420755737,-0.02483578126455327, ,0.17341208457946777
0.00938443326191789,0.02087272359098505,-0.07808628223475068, ,0.009607410490361103,0.020725308319090068,-0.07841546435171756, ,0.00042404123964879067, ,0.0017782300993386946,0.00012223192776046588,-0.006385755367363492,-0.010814069662034635,-0.008582919517712477,-0.004143785938654028, ,0.006629850265441128, ,0.013806179757065723, ,3.480520682081019e-05, ,0.20110768677768046,-0.24027738791574718,0.09044215330000001,1.8184311898977952,0.812167354605778,-1.1997958084365687, ,0.005958189357922346,0.01735496370857183,0.006376625908726983,-0.005621838378893721,-0.0014561531097920767,-0.009428094198721964, ,0.19082903861999512
0.009422435924857437,0.020873678650344882,-0.07821425844897957, ,0.009638683831046543,0.02072392482354441,-0.07851462408712473, ,0.00039926041896349554, ,0.0017254858658865245,-5.6621734323345077e-05,-0.005829462157916782,-0.012642245335990551,-0.009696564898024534,0.0029449210605226143, ,0.006079731617822923, ,0.015932662402279234, ,3.522494740077244e-05, ,0.20125441870229072,-0.2399375876692813,0.09056918972000001,1.818011810010826,0.8120307181060126,-1.1998477480131537, ,0.006936015234270035,0.017326445418745805,0.00579862086639971,-0.011927094605805174,0.0,-0.008286579401090677, ,0.20671916007995605
0.009452011014833585,0.020874030342008756,-0.07832195243948203, ,0.009670039117319926,0.020722492658793515,-0.07861368885368505, ,0.00039447440763638045, ,0.0017255685274214594,-7.110885546143786e-05,-0.006209493017729428,-0.010948516388178953,-0.008657047052692721,0.012591748110607695, ,0.006445187875413952, ,0.01395759526362186, ,3.5544833261595584e-05, ,0.2013702596954041,-0.23961323288856387,0.09067807808000002,1.818011810010826,0.8123039911055435,-1.2004789775212492, ,0.006477407843988581,0.017668393513027514,0.0061835448447204976,-0.02396519452687406,0.0036047585675555646,-0.012861478370490656, ,0.22377419471740723
0.00946729882863539,0.020875702788830473,-0.07837668156251519, ,0.009701475810490905,0.0207210121771675,-0.07871265827971216, ,0.00043777665386139023, ,0.0019093984075086172,0.00014700227162276055,-0.006566584345411927,0.009049251174960209,-0.005340043009742127,-0.001699233757663237, ,0.006840134641355218, ,0.010507378072760176, ,3.638081308079438e-05, ,0.2014320415583979,-0.2394665009639536,0.09073381855000001,1.818011810010826,0.8124406276053089,-1.200753752905227, ,0.008122510047316959,0.016449461181915544,0.006631478567860118,-0.02104123209753473,0.007933316353765287,-0.03454357996359517, ,0.24175715446472168
0.009508118003412443,0.020872193169899012,-0.07850998189564236, ,0.009732993373152608,0.020719483730280017,-0.07881153199476625, ,0.0004059822251603506, ,0.0012890423258039745,-0.0004929665651848007,-0.004390252214974908,-0.012806293893109619,-0.0032221430256614914,0.013147314898261615, ,0.004602060480175843, ,0.013205429463805428, ,3.690451246368239e-05, ,0.20160966441450506,-0.2390571961216197,0.09086604013,1.8175924301238569,0.8124406276053089,-1.2012438253460702, ,0.0059007329916442594,0.017541024317647095,0.004300435075593954,-0.020564638234595315,0.007933316353765287,-0.008530274080134268, ,0.2571420669555664
0.009522225691341455,0.020867232724859224,-0.0785580480510323, ,0.009764591269180455,0.020717907669028472,-0.0789103096296534, ,0.0004529097762167653, ,0.0015056414141924996,-0.0003531386954708461,-0.005138412437929516,-0.013836269882693946,-0.006827643366938401,0.021410372713513027, ,0.005366092189726076, ,0.01542916312152681, ,3.766406695452279e-05, ,0.20167144627749883,-0.23888729599838676,0.09091270657000002,1.8171730502368881,0.8124406276053089,-1.2012438253460702, ,0.006834975610081452,0.017348618200817328,0.005079340408163266,-0.02989647172862852,0.007427603406546339,-0.009400774322493761, ,0.2726871967315674
0.009559180475328513,0.020871031342592744,-0.07868724752249864, ,0.009796268963730988,0.02071628434359484,-0.07900899081642411, ,0.0004285747685268422, ,0.001961837877858544,0.0002354618427485846,-0.007128529634511315,-0.022087694442671682,-0.006517285341849515,0.02906744096821644, ,0.0073973093005833615, ,0.023029138837833356, ,3.819738937080932e-05, ,0.20183362366785756,-0.23853977301904666,0.09104492815000001,1.8171730502368881,0.8128505371046052,-1.2015780790571593, ,0.0075075465730521,0.01621061523035032,0.007207607022624436,-0.02989647172862852,0.008570660525621209,0.002537773356711727, ,0.2872641086578369
0.009576992785534696,0.02087290135824622,-0.0787510164074608, ,0.009828025923240793,0.020714614103445966,-0.07910757518837176, ,0.0004639037136125174, ,0.0017717402246428223,-6.848343713386693e-05,-0.006100295224049123,-0.019299737602539092,-0.00417009935664764,0.02247819610943279, ,0.0063527439130926415, ,0.01974511564218269, ,3.8876074168974475e-05, ,0.20190312826372558,-0.2383698728958137,0.09110974265,1.8171730502368881,0.8129871736043707,-1.2017711757009966, ,0.0077503122795498005,0.0172039415443203,0.0061264659692307705,-0.024715693075768732,0.00998683092788812,-0.0005524947625545028, ,0.30188417434692383
0.009615442519027281,0.02087458499296385,-0.07888230002936167, ,0.009859861615425161,0.020712897297334436,-0.07920606238003217, ,0.000436698597792108, ,0.0019334576390413374,0.00033506059124309987,-0.007120763468326097,0.0018001609410619852,0.010042664462542377,-0.0018847492320496957, ,0.007386189573360474, ,0.010202728586671232, ,3.9342815729573065e-05, ,0.2020653056540843,-0.23803007264934783,0.09124196423000001,1.816753670349919,0.8131238101041361,-1.2018825936046929, ,0.007610424028321005,0.016834653460789564,0.007296752872194229,-0.008090326425235876,0.020570425866466485,-0.019820392695345225, ,0.3175079822540283
0.009635994427373867,0.020876218657760574,-0.07895655072162396, ,0.00989177550927719,0.020711134273299008,-0.07930445202718203, ,0.0004622900975163783, ,0.0020900904616416266,0.0003062390300502636,-0.00700588655487715,-0.01624646155698343,-0.010149149555155558,0.007436320391828549, ,0.0073174248818269295, ,0.01915601036065881, ,3.989771191393317e-05, ,0.20215025571570078,-0.2378601725261149,0.09131714905,1.8163342904629498,0.8132604466039015,-1.2021573689886704, ,0.008425835503716655,0.01621061523035032,0.007079471786666667,-0.012281540255005005,0.001220665528931383,-0.00223747541070646, ,0.3322770595550537
0.00966664890442663,0.02088123188934216,-0.07906413629320842, ,0.009923767075066385,0.02070932537866515,-0.07940274376683756, ,0.00045860290370187176, ,0.0020128661925921825,0.00018066638448857803,-0.006953862658500741,-0.0018897667414907982,-0.006308047310772653,0.02387072141691416, ,0.0072415796981774435, ,0.006585033253660631, ,4.0385572190778625e-05, ,0.2022815421745626,-0.23761304507413972,0.09142733370000002,1.8161246005194656,0.8135337196034325,-1.2026252410164848, ,0.008985005757654749,0.015546681120326145,0.007057515073105894,-0.039336446905733756,0.012441073948849028,-0.02321485115093119, ,0.3488430976867676
0.009714841540077608,0.02088589107086148,-0.07921761971446585, ,0.009955835784337596,0.02070747096004551,-0.07950093723725325, ,0.0004125297327810637, ,0.0017747624140635764,-0.000311403726528577,-0.005541667919090204,0.00384674518800201,-0.002009431636392586,0.004206399437943695, ,0.005827249542686688, ,0.00433996069295033, ,4.061589887183053e-05, ,0.20249777869504088,-0.23721146296468004,0.09158288850000001,1.8161246005194656,0.8136703561031979,-1.2030633738807437, ,0.009323078518372784,0.018476818839266117,0.005550108543554008,-0.02320837063708121,0.013267127163681563,-0.029820685506875395, ,0.36586499214172363
0.009732965274513868,0.020884545149826676,-0.07927226639400944, ,0.009987981109910114,0.020705571363340787,-0.07959903207792172, ,0.0004514869928742161, ,0.0017839172843167423,-0.0002096706764411413,-0.005607596343007156,0.004474191694402824,-0.0034498909669367635,0.0007943506185443168, ,0.005888247567481393, ,0.0056497905675558235, ,4.100303357015369e-05, ,0.20258272875665734,-0.23703384010857287,0.09163733268,1.8161246005194656,0.8136703561031979,-1.2031450526208842, ,0.008986806917912595,0.01764867799116064,0.005624580338983051,-0.01998476391571477,0.010582804153908592,-0.02944876037317931, ,0.3813810348510742
0.009753685056636555,0.020883088645516624,-0.07933200083304279, ,0.010020202525875889,0.02070362693374001,-0.07969702792957133, ,0.00048629502218672417, ,0.0019978109477800437,9.688465728091122e-06,-0.006228213291906304,-0.003737165950201385,-0.0024789272618421544,0.0026180852920778923, ,0.006540793778962636, ,0.004484582515370888, ,4.151068603792573e-05, ,0.2027912425442614,-0.23667859439635855,0.09176048023000001,1.8152858407455272,0.8139436291027288,-1.2036129246486986, ,0.00994480507021921,0.017323282504284554,0.006308440205940595,-0.013991896195260565,0.011231412933096202,-0.01721852331825248, ,0.39653921127319336
0.00979010076912898,0.020878589210787973,-0.07945440231528363, ,0.010052499507599094,0.02070163801572125,-0.07979492443416507, ,0.0004648872302330494, ,0.0020756695130546413,-0.0001730491948099027,-0.006786725741246309,-0.00450834370385085,-0.008082581069927118,0.034025965501988595, ,0.007099154614328674, ,0.009254904932305795, ,4.1891065437474554e-05, ,0.20289163807162633,-0.23651641700599985,0.09182140586000001,1.814866460858558,0.8142169021022596,-1.2039991179363727, ,0.010512298853865995,0.01820739477330598,0.006833466975546976,-0.051280862755209065,0.015066293524640909,-0.025532549273610566, ,0.412322998046875
0.009831605468417881,0.020875903585494873,-0.07957511032481067, ,0.010084871531714421,0.020699604953052106,-0.07989272123490046, ,0.0004428335994783844, ,0.00197693431153111,3.8492071181767054e-05,-0.005663833088837249,-0.003346786861182779,0.007322713950771198,-0.02076648700134328, ,0.005999062940981745, ,0.0080512803994499, ,4.215537873282039e-05, ,0.2031001518592304,-0.23614572582803706,0.09194196083,1.8146567709150738,0.8142169021022596,-1.2044075116370754, ,0.010753104864275683,0.017724494127469327,0.005794402153510367,0.016121144920564857,0.015066293524640909,-0.009937861831500333, ,0.42772817611694336
0.009853675143269916,0.020876860024673254,-0.07963939902046414, ,0.01011731807612627,0.020697528088790416,-0.07999041797620718, ,0.00047421708801298707, ,0.002245362608990212,0.00023131489418967,-0.006678272354001906,-0.004632278899321957,0.003743532479993829,-0.018103768172006346, ,0.0070494312863061135, ,0.005955839986611801, ,4.2688351721732545e-05, ,0.20320827011946951,-0.23596810297192988,0.09200677533000001,1.8146567709150738,0.8142169021022596,-1.204489190377216, ,0.011366691633736773,0.018058409430727073,0.006839335130957493,0.012472675853629383,0.012828787303214201,-0.010163606311528057, ,0.441256046295166
0.009902360449308267,0.020881766630487953,-0.07978102098270809, ,0.010149838620007429,0.02069540776528448,-0.08008801430374647, ,0.0004361421451484648, ,0.0021527691482079512,2.0291719907489944e-05,-0.006145571218545042,-0.005954413732019641,-0.004298284246455595,-0.009152431727959135, ,0.006511748794416288, ,0.007343723959218125, ,4.304546617974992e-05, ,0.20344767483857049,-0.23561285725971556,0.09214418207000001,1.814866460858558,0.8144901751017904,-1.2047937049247492, ,0.011365177636226178,0.017619187069898026,0.0063385640748109835,0.0,0.007523142772353025,-0.012756113702560417, ,0.4597790241241455
0.009920911455559973,0.020877600940598966,-0.0798354402229787, ,0.010182432643797966,0.02069324432417409,-0.08018550986441014, ,0.00047426727461314576, ,0.002022363898686193,-0.0003560507150659027,-0.005483193190627828,-0.008649495788683738,-0.008937534063259466,0.0012806831446291523, ,0.005855094825547707, ,0.012437575630884224, ,4.352130334156364e-05, ,0.20357123856455808,-0.23541206620498573,0.09220640399,1.8144470809715894,0.8146268116015559,-1.2049868015685865, ,0.01157416514829622,0.019343037415097998,0.00547193800068705,-0.012923058585736577,0.005853252062846239,-0.014595785533025186, ,0.47248315811157227
0.009939562422893806,0.02087337277297769,-0.07989437014110996, ,0.010215099629203948,0.020691038106390874,-0.0802829043063186, ,0.000510024980010679, ,0.0019165216691291473,-0.0003190217612703758,-0.0061003151160878635,0.005346056964837394,0.001660497561579395,0.01686963120706135, ,0.006402239819623731, ,0.005597996853799828, ,4.409729819308738e-05, ,0.2036793568247972,-0.2352189978831301,0.09226603333000001,1.8140277010846202,0.8149000846010869,-1.2053729948562606, ,0.010364454080217427,0.018979388311694156,0.0061596332250580055,-0.03674948092490236,0.021495772019684785,-0.033721576161017446, ,0.48889708518981934
0.009996738275641182,0.020876915790399405,-0.08006166556463648, ,0.010247839059196573,0.02068878945215868,-0.08038019727882052, ,0.00044710801332901545, ,0.002214123194891543,-3.9156079344620523e-05,-0.00663137395114033,0.011207685141008816,-0.008006117822778594,0.0031465365377408485, ,0.0069913514573770996, ,0.013773529539968233, ,4.442369828922688e-05, ,0.20396509794114354,-0.2347710793764251,0.09243584732000001,1.8140277010846202,0.8150367211008523,-1.2058928064606595, ,0.011637275671376554,0.017629006419927692,0.006712520657395703,-0.02910845053749481,0.010653300079267004,-0.040074689560712765, ,0.5026631355285645
0.010021163946910654,0.020875510756666084,-0.08012757922693468, ,0.010280650418010798,0.02068649870099438,-0.08047738843249136, ,0.00047478970730781565, ,0.0023854061306590635,-0.00020722598510703317,-0.006733905190454611,0.00169277158812841,-0.010360107062849202,0.0029183105455823826, ,0.007146928300404376, ,0.01049748923109392, ,4.482571889863429e-05, ,0.20409638440000535,-0.23456256558882102,0.09250195811,1.8140277010846202,0.8150367211008523,-1.2060561639409408, ,0.013192957258233114,0.02026413443486457,0.006778217668085108,-0.024119497321187875,0.008663521644125751,-0.030686624652592292, ,0.5158450603485107
0.010044262798495563,0.02087493459372018,-0.08019478122688196, ,0.010313533191144036,0.02068416619170854,-0.08057447741913219, ,0.0005030589686830561, ,0.002338790577631457,5.5339320407507634e-05,-0.006985404363496288,0.01142999746867613,-0.004484927356237483,-0.022726250981301387, ,0.007366741337114656, ,0.012278411904320587, ,4.5299336005171936e-05, ,0.2042122253931187,-0.23437721999983965,0.09256936519,1.8138180111411355,0.8150367211008523,-1.206219521421222, ,0.011415799083663332,0.019602755950933855,0.007073184511545294,-0.001195814784321444,0.007305740985781175,-0.0366962185126614, ,0.5299170017242432
0.010090150617541043,0.020874602557467658,-0.08034703616141947, ,0.010346486865355432,0.020681792262405595,-0.08067146389176814, ,0.0004562208171978458, ,0.0024307942996607715,5.7902376125920275e-05,-0.008020448486363596,-0.017638187104163826,-0.011618172405988298,0.04751591495576192, ,0.008380913287633778, ,0.021120784577941882, ,4.559909999608718e-05, ,0.20444390737934545,-0.23399108335612842,0.09272491999000002,1.8129792513671976,0.815583267099914,-1.2070735867367104, ,0.011455890205986204,0.01820041073234959,0.008122800367159615,-0.05676705286249883,0.013662334358114207,-0.010970157949502981, ,0.5445070266723633
0.010116500398436708,0.02087575415460222,-0.08042594132241383, ,0.010379510928664388,0.02067937725048479,-0.08076834750464805, ,0.00047432101061791815, ,0.002263139533799192,-0.0003463780948334238,-0.0069101530745961474,0.013963708005613812,0.003201554589160637,0.01886994869329476, ,0.007279560003762305, ,0.01432602796652637, ,4.594030937505671e-05, ,0.20457519383820727,-0.23377484683565014,0.09280528997000001,1.8129792513671976,0.8157199035996794,-1.2072666833805474, ,0.013058613122123402,0.020819864317347694,0.007020190180696343,-0.04602830160613796,0.028064924805006858,-0.04748700345863147, ,0.5573320388793945
0.010176766114889105,0.02087539612558197,-0.08059327072339356, ,0.010412604870349385,0.020676921492640568,-0.08086512791324228, ,0.0004109968736751179, ,0.0023703399628028504,-0.0002305127184714574,-0.006889725433511323,-0.014959610535273461,-0.003617957539068584,0.018902141953485486, ,0.007289716332053677, ,0.015390891741460452, ,4.607245040446299e-05, ,0.20488410315317623,-0.23328831466457398,0.09297380767,1.8129792513671976,0.8157199035996794,-1.207511719600969, ,0.01305502016212282,0.020765195089380916,0.00697103348796499,-0.02545433410822798,0.016139796444258545,-0.009158501887977375, ,0.5760550498962402
0.01019883143079298,0.020873736535223158,-0.08065593806700959, ,0.010445768180947002,0.020674425324863084,-0.0809618047742425, ,0.00044074613979629124, ,0.0022705048836683963,1.3552172360949333e-06,-0.006187730905118854,-0.001490535832280727,-0.011717859906445275,-0.01541291050630629, ,0.006591146183899943, ,0.011812278729497975, ,4.6286594429865326e-05, ,0.20500766687916383,-0.2331029690755926,0.09303732588000001,1.8127695614237131,0.8158565400994449,-1.2077864949849466, ,0.011885889473756359,0.017774291357645775,0.0062416973040752355,0.0,0.0,-0.019806927172563604, ,0.5893881320953369
0.010220132951623197,0.020872701298230097,-0.08072035423778154, ,0.010479000352250701,0.020671889082438954,-0.08105837774556, ,0.0004707417221040086, ,0.0023193126035350358,-0.00016874162566077425,-0.006678001906693828,-0.020475121443627835,-0.003585665455904757,-0.0009622793034946631, ,0.007071307810790978, ,0.020786716470186397, ,4.6577750854981514e-05, ,0.2051235078722772,-0.23290217802086277,0.09310343667000001,1.8127695614237131,0.8161298130989758,-1.208254367012761, ,0.011881104323227362,0.021229740840821205,0.006732380185967879,0.0,0.008796476956462624,0.0016838769906520647, ,0.6022641658782959
0.010260437462182581,0.02086421303224839,-0.08083940971194918, ,0.010512300877309628,0.02066931309995169,-0.08115484648632418, ,0.00044824270447696104, ,0.001967491703403461,-0.00044095955671085926,-0.005881769743308102,0.013054391357336272,0.004442634266193986,0.021779376777011344, ,0.006217771646410854, ,0.013789638352552426, ,4.679197379446341e-05, ,0.2053474671256297,-0.23252376411002576,0.09322269535000001,1.811930801649775,0.8164030860985066,-1.2085588815602943, ,0.011957779934283113,0.018769173567735515,0.005974798019504878,-0.04641683873507638,0.02826747641829524,-0.04396751587668825, ,0.6181621551513672
0.010285755183956101,0.020861239603457867,-0.0809055364943827, ,0.010545669250427471,0.0206666977112822,-0.08125121065688255, ,0.00047422831672196223, ,0.002041259692410835,-0.0005253727193176115,-0.0058879849585760455,-0.014770549466065593,-0.0011907610635679697,0.03152376435262708, ,0.006253888750088389, ,0.014818469433894194, ,4.7199430739354287e-05, ,0.20548647631736575,-0.23229980485667326,0.09328880614000001,1.811930801649775,0.8164030860985066,-1.2086405603004349, ,0.012097939551607928,0.020255483790495365,0.0059236933878765346,-0.0384092476801156,0.020800140212794888,-0.01091800367068483, ,0.6301050186157227
0.010310000297106933,0.020860419707293295,-0.08097258159731219, ,0.010579104967161268,0.020664043249609677,-0.08134746991879767, ,0.0005015199798249519, ,0.0023305175354741752,-0.0002691504801691077,-0.007012623817787564,-0.017214720101571088,-0.003219908148532424,0.023845176694955058, ,0.007394636351703125, ,0.017513262965573397, ,4.766570857218664e-05, ,0.20561004004335334,-0.23209901380194342,0.09335621322000001,1.811930801649775,0.8164030860985066,-1.2087222390405756, ,0.01216939491644919,0.020879415084372008,0.007048146690265488,-0.02982627390490967,0.016811964199553886,-0.007648011058113486, ,0.6420609951019287
0.010334760464506956,0.020860379319941044,-0.08104702502749386, ,0.010612607524320373,0.020661350047411726,-0.0814436239348485, ,0.0005235478328533124, ,0.00258711496475967,-2.5713597620955472e-05,-0.007718555195079272,-0.009526351283238938,-0.007206668057470548,0.012680653455942244, ,0.008140633840768867, ,0.011945183375180204, ,4.817343015734174e-05, ,0.20574132650221516,-0.23188277728146514,0.09343269433000001,1.811930801649775,0.8166763590980376,-1.209026753588109, ,0.013107312369954528,0.020500527448362667,0.007827425808353808,-0.024550945245377414,0.012068388298514017,-0.01637040079469378, ,0.655055046081543
0.010386362329357952,0.020859137938819553,-0.08121205419885069, ,0.010646176419965075,0.02065861843646516,-0.08153967236902644, ,0.00046372955257538526, ,0.0024664139758038103,0.0001442538414280202,-0.008026585428127994,0.02555048045006517,0.018019534510734774,-0.011327643481790968, ,0.008398218900805322, ,0.031265486433072226, ,4.850549194598739e-05, ,0.20599617668706457,-0.23147347243913122,0.09359473058000001,1.8113017318193214,0.8172229050970993,-1.209799140163457, ,0.012262171024482592,0.020386023965299847,0.008330968368200839,-0.013636172545969598,0.03680015928079744,-0.05336628556683825, ,0.6674611568450928
0.010411020211856001,0.020859630917751212,-0.08128540319542661, ,0.010679811153405881,0.020655848747846695,-0.08163561488653652, ,0.000486234482138326, ,0.0024320449695648103,-0.0002176189142611876,-0.007775107602304468,-0.021299866514121885,-0.0030373774800084873,0.05005312241678526, ,0.008149509123452924, ,0.021515342132104136, ,4.88835745194833e-05, ,0.20611974041305217,-0.23127268138440138,0.09367510056000002,1.8108823519323523,0.8172229050970993,-1.2099624976437382, ,0.012429199942170371,0.020567174156582307,0.007885550257425744,-0.05467662034110094,0.023127271826225516,-0.006715152583981955, ,0.6788651943206787
0.01043800877811885,0.020860370372148433,-0.08136510531595521, ,0.010713511225201776,0.02065304131193317,-0.08173145115379457, ,0.0005030866828496313, ,0.0025890156255443885,-0.00020238173045456225,-0.008057455710981163,-0.005221274173660019,-0.006026100421054984,0.023193303455036476, ,0.008465610008059534, ,0.007973428140984996, ,4.929092049723835e-05, ,0.20624330413903977,-0.2310564448639231,0.09375547054000001,1.8108823519323523,0.8172229050970993,-1.2099624976437382, ,0.012853439192532953,0.022115344105912555,0.008143564171779142,-0.04103188648707768,0.016915827202613618,-0.026679806883754247, ,0.6909470558166504
0.010462626975985882,0.02086147791767904,-0.08143741737794423, ,0.010747276137159497,0.020650196458402482,-0.08182718083842727, ,0.0005268591416295165, ,0.002715078229584711,-0.00015537873717026457,-0.00788090311465133,-0.019051841782346507,-0.020660714548590975,0.020120164680151445, ,0.008336931464708734, ,0.028104052564665433, ,4.974321576626534e-05, ,0.20636686786502734,-0.23086337654206748,0.09382935907,1.8108823519323523,0.8173595415968647,-1.210155594287575, ,0.013360121295012076,0.02149908055244014,0.007897278889439764,-0.03229608021404916,0.0,-0.010495100582243646, ,0.7055611610412598
0.010497941879935259,0.020861431439172465,-0.08154003310452769, ,0.010781105392332055,0.020647314516233795,-0.08192280360926972, ,0.0005220544902039287, ,0.0026192665345782565,-0.00021940725716430208,-0.00763645373158606,-0.014395537688391734,-0.009614702812165908,0.013686845172584753, ,0.008076145263571761, ,0.017311094406044197, ,5.016828173164449e-05, ,0.20655221345400873,-0.23056991269284696,0.09393435856000001,1.8108823519323523,0.8176328145963956,-1.210541787575249, ,0.013363884179477648,0.022244946450649502,0.0076950780289855095,-0.024542995176177827,0.009781000053341128,-0.013000461405806912, ,0.7167210578918457
0.010550145316744391,0.020855879968552524,-0.08169475668915371, ,0.010814998495018172,0.02064439581370845,-0.08201831913636565, ,0.00046857807357750947, ,0.002590268225202575,-0.0001730176189719474,-0.00759988980598956,0.0024047504179759787,0.0042392067161673855,-0.003512941156058993, ,0.008031049099473421, ,0.004873773979344822, ,5.045049351399063e-05, ,0.2068302318374808,-0.2301142714532677,0.09409120965000001,1.8102532821018988,0.818042724095692,-1.2110393987666195, ,0.0137233465738931,0.02259989082126001,0.007743710024307245,-0.013003442308359724,0.02186600337981565,-0.028677223755600348, ,0.7284560203552246
0.010574878386095478,0.020852369254136267,-0.0817663843091311, ,0.0108489549507602,0.020641440678410346,-0.08211372709096507, ,0.0004901589899699326, ,0.0027177637015824833,-0.00041042530392316605,-0.008423547718469086,-0.023100657967996464,-0.011274100886710608,0.04628893572265392, ,0.008860634550248955, ,0.02570497436192868, ,5.077438366853437e-05, ,0.2069537955634684,-0.22990575766566365,0.09416250560000002,1.8098339022149297,0.818042724095692,-1.2112027562469005, ,0.01354123024521558,0.024134522268176698,0.008459273244822095,-0.05622227963654146,0.015839346792697155,-0.010972614598046852, ,0.7403991222381592
0.010610235651363324,0.020850339013676788,-0.08187704441786266, ,0.010882974266343846,0.020638449437226418,-0.0822090271455236, ,0.0004790574873384288, ,0.003036565931054248,0.0002725540361508234,-0.008878613858455404,-0.0029952284591082483,-0.005878703012524833,-0.045877355871262945, ,0.009387481153313589, ,0.006597763822600555, ,5.1061911114252246e-05, ,0.20711597295382714,-0.2296045710835689,0.09427398654000001,1.8094145223279605,0.8181793605954574,-1.2114775316308781, ,0.0133113959262829,0.024042802523048083,0.009009508778280545,0.031977789641922286,0.0,-0.017581347594727494, ,0.7530980110168457
0.010639574992033269,0.020850653230519316,-0.08196280947654497, ,0.010917055949796414,0.020635422416347523,-0.08230421897370159, ,0.0004897758977725861, ,0.0030070544151506967,0.00012737425431950732,-0.008267892762447665,0.013956817801210409,0.0015362241857080332,-0.04445735883147627, ,0.008798673262922952, ,0.014041107835585402, ,5.1364754409384556e-05, ,0.20727042761131162,-0.22936516636446794,0.09436213426000001,1.8094145223279605,0.8184526335949883,-1.2119454036586927, ,0.015572192576053622,0.023431343594684143,0.008459273244822095,0.02159219862312765,0.012546426991223004,-0.037613301983025815, ,0.7643520832061768
0.010669348384447755,0.020851018553492237,-0.08204580735503607, ,0.010951199510386037,0.020632359941268563,-0.08239930225036227, ,0.0005022054230232288, ,0.00273993212283309,-0.00015700177339078282,-0.007960170660555373,0.04192301342362164,0.027512414737032247,-0.035729269455536256, ,0.008419987799263551, ,0.050144511037792085, ,5.168604301784748e-05, ,0.20743260500167032,-0.22911803891249274,0.0944476894,1.8096242122714452,0.8187259065945193,-1.2123315969463666, ,0.01594638574331554,0.02461020268632541,0.008261831701244815,0.0,0.04528686077770178,-0.07165606763199983, ,0.7761521339416504
0.010694694378512332,0.020848063926636053,-0.08211543167201757, ,0.010985404458620354,0.02062926233678933,-0.08249427665157093, ,0.0005252713631339994, ,0.003022358566411423,-0.00041852169347450974,-0.007314458752856134,-0.019805199761770666,-0.03744723590327179,-0.017672205907050518, ,0.007925346589210026, ,0.042362027730764924, ,5.204850213538422e-05, ,0.20757933692628058,-0.22888635692626602,0.09451898535000001,1.8096242122714452,0.81899917959405,-1.2125544327537594, ,0.015890311714412388,0.024855144462669142,0.007191337029345373,0.0,-0.02287762824341061,-0.010918190441185442, ,0.7890770435333252
0.010724546939806462,0.02083952982156924,-0.08218983715812746, ,0.011019670306245326,0.020626129927015197,-0.08258914185459401, ,0.0005404457022071057, ,0.002700973081714928,-0.00046059697590551045,-0.007119006176743875,-0.004189738785897942,-0.013935878308428129,0.0018983750631771075, ,0.0076280832524874415, ,0.014552065043707573, ,5.254774653230938e-05, ,0.2078959689741238,-0.22839210202231566,0.09467065128,1.808785452497507,0.81899917959405,-1.2127994689741812, ,0.014843882615121349,0.02396992714283172,0.007948508742514971,-0.04050276331907053,0.0035186180951528334,-0.02104067151240291, ,0.7993741035461426
0.010752275550692487,0.020836319808274655,-0.08226813200521339, ,0.01105399656624395,0.02062296303535729,-0.08268389753789726, ,0.0005562532354449882, ,0.0028466615269470167,-0.00043815211750671316,-0.007956481952184864,-0.014032453730484442,-0.020503521894587252,0.02206669048348781, ,0.008461741202761958, ,0.02484560596752696, ,5.306819309008721e-05, ,0.2078959689741238,-0.22839210202231566,0.09467065128,1.808785452497507,0.81899917959405,-1.2127994689741812, ,0.014843882615121349,0.02396992714283172,0.007948508742514971,-0.04050276331907053,0.0035186180951528334,-0.02104067151240291, ,0.8090400695800781
0.010780217050557688,0.020834034491259992,-0.08234662583188616, ,0.011088382752835567,0.020619761984533455,-0.08277854338114549, ,0.0005722163721508425, ,0.0028696969949869497,-0.00032601641628186525,-0.00853610435111659,0.010258607073807909,0.003253104117033789,0.004279075743697093, ,0.009011466309090546, ,0.010762047210923135, ,5.3609359856846945e-05, ,0.20818943282334434,-0.22791329258411372,0.09483009495000001,1.808785452497507,0.8194090890933463,-1.2135421163859732, ,0.015091752792377667,0.02523183769169656,0.008680551237057221,-0.030849472196397252,0.026343583583084754,-0.04513453114612981, ,0.8196721076965332
0.010839367107864609,0.02083141446501988,-0.0825138154563629, ,0.011122828381474218,0.020616527096568454,-0.08287307906520007, ,0.0005055662324474118, ,0.0030640547563461416,-0.00021457699261987414,-0.00887678518304193,0.01747581491894872,0.001700952872966293,-0.006580266172181065, ,0.009393177844665881, ,0.017558396642099582, ,5.3996538958544483e-05, ,0.20835161021370305,-0.22765071966639008,0.09492083525000002,1.808785452497507,0.8195457255931118,-1.2138168917699508, ,0.016252259215357216,0.025285622584191522,0.009050461090909092,-0.024998276874495295,0.02446308485723867,-0.05314981313149027, ,0.8301920890808105
0.010870446974927044,0.020830970140866642,-0.08260436921774397, ,0.011157332968847635,0.020613258692794928,-0.08296750427211912, ,0.000511438086033223, ,0.0033312000240947955,0.00015479044295221945,-0.009412928975477738,0.001896129418176871,-0.012676400314786264,-0.019595522110766678, ,0.009986194749710567, ,0.012817423992935643, ,5.438626630216601e-05, ,0.20850606487118753,-0.22741131494728914,0.09501287184000001,1.8085757625540226,0.8196823620928773,-1.2139283096736473, ,0.016130705687314426,0.023873444417225356,0.009566853765765769,-0.0029833853694563,0.00408875433404608,-0.031223482710021542, ,0.8433830738067627
0.010904303068036546,0.02082762798809265,-0.08270333796978295, ,0.011191896032876365,0.02060995709385352,-0.08306181868515573, ,0.000508526061198836, ,0.0031461844188989847,-0.0003685211828062807,-0.00896628767321256,-0.018865972031012774,-0.02651757232794969,0.04918221043935656, ,0.009509395296163852, ,0.03254391625007166, ,5.47604109908433e-05, ,0.2086836877272947,-0.22716418749531395,0.09511268617000002,1.8077370027800843,0.8198189985926427,-1.2142030850576249, ,0.01634744901954708,0.02359446582756608,0.00899424704686618,-0.06848450408165942,0.005355134385563561,-0.02121265311169215, ,0.8532299995422363
0.010935006179278546,0.020824920027649706,-0.08278958335744312, ,0.011226517092712142,0.020606622619693937,-0.08315602198875649, ,0.0005166329852902497, ,0.0031484274719194684,-0.0004588125185893434,-0.008857442246793332,0.006909924786378142,-0.01040339494028036,0.025927788576620814, ,0.009411556068389053, ,0.012489100540817049, ,5.514189277450494e-05, ,0.20885358785052763,-0.22690933731046453,0.09520083389,1.8075273128366,0.8200922715921736,-1.2146709570854393, ,0.017521591868255314,0.025346405330788135,0.008963878176702309,-0.05767638916031165,0.020766569545225266,-0.04917850303157564, ,0.8633921146392822
0.010966197760649932,0.020824036758379183,-0.08287798090590329, ,0.011261195668737008,0.020603255589575,-0.08325011386856085, ,0.0005236898243909139, ,0.0031262362700144133,0.00018668032135716456,-0.00899395253990215,0.03500567234483605,0.03137023912001122,-0.04217152515481547, ,0.009523622475106203, ,0.04700520120060994, ,5.5528342609663026e-05, ,0.20902348797376058,-0.2266699325913636,0.09529157419,1.8073176228931154,0.8203655445917044,-1.2150571503731133, ,0.017431473467757305,0.024276526364407976,0.00941419120567376,0.015563308469405493,0.04729130856856491,-0.0583554000823617, ,0.873650074005127
0.011011250088659675,0.02082624049537158,-0.08299955965775535, ,0.01129593128256218,0.020599856322065624,-0.08334409401139967, ,0.0005009961047017066, ,0.0033199275942944455,0.00015116814375206415,-0.009143640737871944,-0.012811089497936705,-2.527537780028081e-06,-0.005033371144047393, ,0.00972887131081065, ,0.012811087252791039, ,5.58606714196506e-05, ,0.2092551699599873,-0.22634557781064615,0.09541601803000001,1.8075273128366,0.8205021810914699,-1.2154136044972315, ,0.017476416493272702,0.023437130540496613,0.009397528920353984,0.0,0.018372115485654,-0.00837482663781022, ,0.8846311569213867
0.01104754877962468,0.02082827759635089,-0.0830990181803711, ,0.011330723457026718,0.02059642513504506,-0.0834379621052941, ,0.0004988250655064601, ,0.003341786116483455,0.0001723670479241088,-0.00960088087948465,-0.01603995422136133,-0.004026335827490015,-0.004778801891327399, ,0.01016730832175289, ,0.016537576305021593, ,5.6180947421585155e-05, ,0.20943279281609448,-0.22609845035867096,0.09551712865,1.8075273128366,0.8205021810914699,-1.215495283237372, ,0.016180211689423834,0.024183726187174,0.00981442484288355,-0.0008876552784523058,0.012981377483436352,-0.0067229658350631116, ,0.8948550224304199
0.01107680017412645,0.020827139457958145,-0.0831895131391304, ,0.011365571716196678,0.020592962345703784,-0.08353171783945443, ,0.0005053038495175653, ,0.0034181465919729077,5.3738252244871386e-05,-0.009836205014680664,-0.011934262587205027,-0.006750397557254927,0.0035606827822219048, ,0.010413334865200454, ,0.013711104937501382, ,5.650632104825451e-05, ,0.20958724747357896,-0.22586676837244424,0.09561046153000001,1.807107932949631,0.8209120905907662,-1.2157478582083208, ,0.016804841784747792,0.02502556475698069,0.010030737732997482,-0.015474531733259052,0.014125161387179975,-0.01627845132833594, ,0.9052720069885254
0.011108348917113101,0.020823918662051827,-0.08328289802565325, ,0.011400475585363442,0.02058946827054386,-0.08362536090427877, ,0.000507529112088914, ,0.002945759729925591,-0.00032092113307253254,-0.008968828869010353,0.019124101517326537,0.025049897497511624,0.03938235064179537, ,0.009445654135193464, ,0.03151552895712462, ,5.682848392741204e-05, ,0.20976487032968613,-0.22561964092046904,0.09570638699,1.8064788631191775,0.8213220000900625,-1.2161637906595504, ,0.017602845772300275,0.02380159055893423,0.00932600206088993,-0.06473095729479536,0.059775696970427894,-0.05547685725097672, ,0.9163141250610352
0.011150969798370367,0.02082167373300737,-0.0834000682295366, ,0.011435434591043157,0.020585943225379464,-0.08371889099135207, ,0.0004879928728460345, ,0.0032815840585922384,-1.8420261045844226e-05,-0.008466175808711071,0.012222610168019366,0.014595744244322905,-0.037074849025816835, ,0.009079937558355138, ,0.019037539385917186, ,5.710640825497643e-05, ,0.2100042750487871,-0.2252875634068774,0.09582694196000001,1.8062691731756926,0.8217319095893589,-1.2165797231107802, ,0.0190098039980911,0.02511830110070693,0.008776204694214878,0.020692070872463154,0.030268121735484745,-0.03364996004278861, ,0.9291110038757324
0.011185044411217985,0.020819840790645854,-0.0834805910335362, ,0.011470448260975093,0.020582387525337566,-0.08381230779344484, ,0.0004978708863410637, ,0.002998371499190723,-0.0006775093505546395,-0.007183129996585105,-0.005833242931681252,-0.002438007005409131,-0.008016946927113829, ,0.007813232820995988, ,0.006322229206132772, ,5.7504046541617216e-05, ,0.2101973433706427,-0.22503271322202797,0.09590860823000001,1.8064788631191775,0.8217319095893589,-1.2166614018509208, ,0.018512864135480058,0.02686015894663764,0.007270110232770426,-0.006765823637408941,0.018348576703922936,-0.022953149981947394, ,0.9373869895935059
0.011185044411217985,0.020819840790645854,-0.0834805910335362, ,0.01150551612412083,0.020578801484858404,-0.08390561100451191, ,0.0005843321328093955, ,0.002998371499190723,-0.0006775093505546395,-0.007183129996585105,-0.005833242931681252,-0.002438007005409131,-0.008016946927113829, ,0.007813232820995988, ,0.006322229206132772, ,5.80547179703766e-05, ,0.2101973433706427,-0.22503271322202797,0.09590860823000001,1.8064788631191775,0.8217319095893589,-1.2166614018509208, ,0.018512864135480058,0.02686015894663764,0.007270110232770426,-0.006765823637408941,0.018348576703922936,-0.022953149981947394, ,0.945357084274292
0.01121596481764288,0.020814537395938693,-0.08355479795542123, ,0.011540637710662858,0.020575185417696245,-0.08399880031969173, ,0.000599866615530761, ,0.0033851641871044404,-0.00037299218460705024,-0.008033959999227975,-0.02104450993920052,-0.0209576206061596,-0.002863453839751767, ,0.008725994098819204, ,0.02970005431953626, ,5.862382279699219e-05, ,0.2103826889596241,-0.22477014030430437,0.09598379305000002,1.8064788631191775,0.8218685460891243,-1.2168544984947578, ,0.019546228951281313,0.025427905026385523,0.008102142177009157,-0.006570228878802702,0.0,-0.00641873451890552, ,0.9532780647277832
0.011248624387388405,0.020811491623671977,-0.08364571569516867, ,0.01157581255200353,0.020571539636919576,-0.08409187543530419, ,0.0006030651413640454, ,0.003373053185476131,-7.750082975130742e-05,-0.009757703512299706,0.014555132258527169,0.025038931734035152,-0.001763631978280279, ,0.010324547060506279, ,0.0289620422102222, ,5.91883875098867e-05, ,0.21058348001435392,-0.22451529011945495,0.09607842222000001,1.8060594832322083,0.8224150920881861,-1.2174635275898245, ,0.018854945670270372,0.026418970367057565,0.010145739821656051,-0.01729152501229562,0.04997141786792011,-0.04327506547919031, ,0.9620351791381836
0.011248624387388405,0.020811491623671977,-0.08364571569516867, ,0.011611040180763917,0.02056786445491213,-0.08418483604885056, ,0.0006937940331251275, ,0.0033997935563946607,-0.00021257014420508785,-0.010990629471328473,0.026487743297469227,0.033551539281201345,0.04268601340163383, ,0.011506420749665989, ,0.04274700191550777, ,5.9906532086738126e-05, ,0.21058348001435392,-0.22451529011945495,0.09607842222000001,1.8060594832322083,0.8224150920881861,-1.2174635275898245, ,0.018854945670270372,0.026418970367057565,0.010145739821656051,-0.01729152501229562,0.04997141786792011,-0.04327506547919031, ,0.971156120300293
0.011301475245758266,0.020809981499688508,-0.0838114696938488, ,0.011646320130782654,0.020564160183373075,-0.0842776818590116, ,0.0006298411682546068, ,0.0037476961762018847,4.496829696431488e-05,-0.01133336067081198,0.0035946640711704376,0.004933647524911085,0.0458624527612689, ,0.011937014403591791, ,0.006104285437732768, ,6.04974238717487e-05, ,0.21086922113070022,-0.22410598527712106,0.09625082879,1.80522072345827,0.8233715475865442,-1.2184068103959806, ,0.019570414839857865,0.02505860616806728,0.01169516264317181,-0.06916334665125687,0.04163618839916013,-0.04310875691917141, ,0.9803450107574463
0.011356936294941677,0.020812308392817197,-0.08397087157004884, ,0.011681651937114687,0.02056042713331776,-0.08437041256564655, ,0.0005731643955463909, ,0.004172159671182964,0.00021792690643695128,-0.011426712908812971,-0.035190876517631864,-0.02363341382763466,-0.015592776383942865, ,0.012166518662247952, ,0.042390280070076676, ,6.097734812030836e-05, ,0.2111395167812981,-0.22371984863340982,0.09641416133000001,1.8050110335147855,0.823644820586075,-1.218711324943514, ,0.018717345475043546,0.028687104461448235,0.011542617043478264,0.01460392761597524,-0.008158560758866762,0.010550742847831758, ,0.9889020919799805
0.01140232419602822,0.02081491096637459,-0.08408985804754053, ,0.011717035136030245,0.02055666561507818,-0.0844630278697921, ,0.000552258411853028, ,0.004363323448256374,0.00014573680550623652,-0.011542418943321479,-0.03313092234401413,-0.022278536311908032,-0.0010307733986084423, ,0.012340472673027139, ,0.03992481672711052, ,6.141209622444103e-05, ,0.2111395167812981,-0.22371984863340982,0.09641416133000001,1.8050110335147855,0.823644820586075,-1.218711324943514, ,0.018717345475043546,0.028687104461448235,0.011542617043478264,0.01460392761597524,-0.008158560758866762,0.010550742847831758, ,0.9972879886627197
0.01140232419602822,0.02081491096637459,-0.08408985804754053, ,0.011752469265013627,0.020552875938303673,-0.08455552747366116, ,0.0006388363950922304, ,0.004363323448256374,0.00014573680550623652,-0.011542418943321479,-0.03313092234401413,-0.022278536311908032,-0.0010307733986084423, ,0.012340472673027139, ,0.03992481672711052, ,6.199010304320414e-05, ,0.2113557533017764,-0.22341866205131505,0.0965347163,1.80522072345827,0.8235081840863095,-1.2186815857799582, ,0.021835467454779284,0.028905556368708736,0.01174691115044248,-0.001782727731719451,0.0,0.005603589183438004, ,1.0059630870819092
0.01148373169245789,0.02081180393514203,-0.08431468052980302, ,0.01178795386276193,0.020549058411961477,-0.08464791108064158, ,0.0005221388118767768, ,0.004046408661242451,-0.0002696527846407442,-0.011066997259212239,0.007470945213030718,0.008011310150010251,0.025843964602177732, ,0.01178662648994417, ,0.010954266140646795, ,6.2356576785278e-05, ,0.21181139454135564,-0.22283945708574823,0.09676675221000001,1.8043819636843321,0.8243280030849022,-1.2195951294225584, ,0.023287593020483624,0.029073817879433455,0.01142669406025825,-0.051216360057573844,0.04446851596466797,-0.047710447812121165, ,1.0194170475006104
0.011526030128702146,0.02080895248079849,-0.08442241744455299, ,0.011823488469184157,0.020545213344337013,-0.08474017839529488, ,0.0005089320369559634, ,0.0037995380403141417,-0.0006951936505548833,-0.00991819260522497,-0.0011530567495439364,-0.012947978195585508,0.03248242067160523, ,0.010643792937008185, ,0.01299921471647488, ,6.269416095142452e-05, ,0.21203535379470814,-0.22253827050365346,0.09687564057,1.8041722737408477,0.8243280030849022,-1.21984016564298, ,0.02195671947211263,0.02962751843848604,0.01005606787878788,-0.0624226297066617,0.023591114486961863,-0.045229406978908406, ,1.0275371074676514
0.011526030128702146,0.02080895248079849,-0.08442241744455299, ,0.011859072625399949,0.02054134104303485,-0.0848323291233557, ,0.0005920817263245692, ,0.0037995380403141417,-0.0006951936505548833,-0.00991819260522497,-0.0011530567495439364,-0.012947978195585508,0.03248242067160523, ,0.010643792937008185, ,0.01299921471647488, ,6.316718458736246e-05, ,0.21203535379470814,-0.22253827050365346,0.09687564057,1.8041722737408477,0.8243280030849022,-1.21984016564298, ,0.02195671947211263,0.02962751843848604,0.01005606787878788,-0.0624226297066617,0.023591114486961863,-0.045229406978908406, ,1.035487174987793
0.011566127932076514,0.02080432058049616,-0.08452281856193192, ,0.011894705873738153,0.02053744181497902,-0.08492436297172971, ,0.0005834600691310534, ,0.0038071473208290303,-0.00044631677336673154,-0.00963373903940309,0.005107137955362287,-0.003858278064994761,-0.03201607603803379, ,0.010368341104728535, ,0.0064007097060981115, ,6.361773028802618e-05, ,0.21225159031518642,-0.22223708392155872,0.09697675119000002,1.803962583797363,0.8243280030849022,-1.2200852018634016, ,0.020902410034905457,0.031123955906353157,0.00979631704797048,0.006811266499134042,0.01601916693804065,-0.03885469987571201, ,1.0438201427459717
0.011602705665074318,0.020798305202099486,-0.08461374666229926, ,0.011930387757736012,0.02053351596641365,-0.08501627964849268, ,0.0005826849046955181, ,0.003868798016144885,-0.0008981279069174339,-0.009424693864935028,-0.020140483758028658,-0.024159614398103157,-0.005746135149047752, ,0.01022736946993969, ,0.03145355273276747, ,6.416658310331617e-05, ,0.21245238136991626,-0.22191272914084129,0.09706878778000001,1.8041722737408477,0.8244646395846676,-1.2203599772473794, ,0.021320364313293816,0.033819294924615384,0.009397528920353984,-0.013648700824719627,0.0,-0.019559559001724274, ,1.0508182048797607
0.01164632511415499,0.020791001144879757,-0.08472688093993846, ,0.011966117822138002,0.020529563802903543,-0.08510807886289042, ,0.00056207536533954, ,0.003837361006498482,-0.00034541610556391116,-0.010312141628689014,0.04191512499327849,0.032830709514502635,-0.033972388768338344, ,0.011008402097957674, ,0.05324221139110882, ,6.467390707827676e-05, ,0.2127149542876399,-0.2215420379628785,0.09718545388000001,1.803962583797363,0.8250111855837294,-1.2209690063424463, ,0.022670076817599326,0.03138126374288055,0.010748185910931175,-0.004194443017523438,0.05874828658593158,-0.07816712773817777, ,1.0632100105285645
0.011682344859687591,0.020784141194492258,-0.08482481635195509, ,0.012001895612894418,0.020525585629334694,-0.08519976032533552, ,0.0005563691646050358, ,0.0038052668548273086,-0.0006835841234414377,-0.009889378288575066,0.021908744611220318,0.015935378815270036,0.002971074220146174, ,0.01061824590150409, ,0.02709112943079141, ,6.516511753420404e-05, ,0.21293119080811818,-0.22123312864790953,0.0972865645,1.8035432039103938,0.8255577315827912,-1.221578035437513, ,0.023202186200115105,0.031443651941176536,0.010197702637644048,-0.03667841418471558,0.049122045110009054,-0.06388492893531054, ,1.0704710483551025
0.011682344859687591,0.020784141194492258,-0.08482481635195509, ,0.01203772067716044,0.020521581749914888,-0.08529132374740857, ,0.0006425407252416482, ,0.0038052668548273086,-0.0006835841234414377,-0.009889378288575066,0.021908744611220318,0.015935378815270036,0.002971074220146174, ,0.01061824590150409, ,0.02709112943079141, ,6.579115073929393e-05, ,0.21293119080811818,-0.22123312864790953,0.0972865645,1.8035432039103938,0.8255577315827912,-1.221578035437513, ,0.023202186200115105,0.031443651941176536,0.010197702637644048,-0.03667841418471558,0.049122045110009054,-0.06388492893531054, ,1.0769941806793213
0.011726282266981188,0.020775460737551862,-0.08492875412917203, ,0.012073592563295061,0.020517552468174233,-0.08538276884185465, ,0.0006271128101635934, ,0.004114288343338628,-0.0010844458838424255,-0.009849518840537854,-0.0003444894794259637,-0.022203747862993093,0.02144151329621982, ,0.010729231698366154, ,0.022206417979174393, ,6.638390026243142e-05, ,0.2131937637258418,-0.22089332840144366,0.09739156399000001,1.803123824023425,0.8256943680825566,-1.221934489561631, ,0.024809657923783212,0.03372314909682686,0.009899820708514607,-0.05816727651956351,0.015689586900315185,-0.051999211413422695, ,1.0836000442504883
0.011769188080139645,0.020768721075658345,-0.08503321760071586, ,0.012109510820859362,0.020513498086965905,-0.085474095322584, ,0.0006126430505993868, ,0.004354840739838318,-0.0008463887698851944,-0.01143779455663955,-0.019606431287592947,-0.021412811775109505,0.017365187053427454, ,0.012268013536797089, ,0.02903309250143714, ,6.69455628021558e-05, ,0.21342544571206856,-0.22054580542210356,0.09749656348,1.803123824023425,0.8256943680825566,-1.2220978470419124, ,0.02289984110966959,0.03623403648662496,0.011492649004329005,-0.040661188300217616,0.010686780772535305,-0.02771927223242491, ,1.091628074645996
0.011769188080139645,0.020768721075658345,-0.08503321760071586, ,0.012145475000616131,0.020509418908466335,-0.08556530290466967, ,0.0007013873616738236, ,0.004354840739838318,-0.0008463887698851944,-0.01143779455663955,-0.019606431287592947,-0.021412811775109505,0.017365187053427454, ,0.012268013536797089, ,0.02903309250143714, ,6.764267712766253e-05, ,0.21342544571206856,-0.22054580542210356,0.09749656348,1.803123824023425,0.8256943680825566,-1.2220978470419124, ,0.02289984110966959,0.03623403648662496,0.011492649004329005,-0.040661188300217616,0.010686780772535305,-0.02771927223242491, ,1.0987060070037842
0.011816550500130241,0.02076621562661414,-0.08516021775441515, ,0.012181484654528257,0.020505315234176136,-0.08565639130434731, ,0.000668905182722319, ,0.004511993955121588,-6.0213732338809584e-05,-0.01195232320459219,-0.020333257409449475,-0.01302220594706462,0.018463933970550916, ,0.012775748319830383, ,0.024145785567645222, ,6.827899417911888e-05, ,0.21368029589691795,-0.220182836977015,0.09762748877,1.803123824023425,0.826104277581853,-1.2226771369734233, ,0.023670975694305506,0.02964602985269315,0.012243513850883937,-0.030128996410501995,0.018016277792007096,-0.014468574842740587, ,1.105912208557129
0.011857836308247861,0.020766533528634095,-0.08527753469269404, ,0.012217539335757602,0.020501187364920445,-0.0857473602390129, ,0.0006484835376253107, ,0.0043304266872038425,-5.070734248431032e-05,-0.012541337128510799,0.05041550546915842,0.0478501163486825,-0.04012240263909678, ,0.013268018069734175, ,0.0695079600911859, ,6.8874815704371e-05, ,0.2139119778831447,-0.21988937312779447,0.09775063632000001,1.8029141340799404,0.8267874600806802,-1.223315905232046, ,0.023471912332048178,0.03391599054984659,0.01314258376237624,0.0,0.0743190159250534,-0.087346542558085, ,1.112534999847412
0.011903586175030977,0.020761919067386576,-0.08541193914457788, ,0.012253638598663982,0.020497035600849672,-0.08583820942722224, ,0.0006118874929279478, ,0.005392458930840363,-0.00020689990795867252,-0.015491823089295063,-0.014062451005978761,-0.018666838157209653,0.05254600056455703, ,0.01640481647330225, ,0.023370975220974692, ,6.940539650896164e-05, ,0.21414365986937142,-0.2195495728813286,0.09788804306000001,1.8020753743060025,0.8271973695799765,-1.223650158943135, ,0.026309104951059266,0.03631723748889046,0.015802392380952386,-0.08226852077267154,0.02651338810539661,-0.04198586034399421, ,1.1194450855255127
0.011903586175030977,0.020761919067386576,-0.08541193914457788, ,0.012289781998803801,0.020492860241439887,-0.08592893858869005, ,0.0006991625643093828, ,0.005392458930840363,-0.00020689990795867252,-0.015491823089295063,-0.014062451005978761,-0.018666838157209653,0.05254600056455703, ,0.01640481647330225, ,0.023370975220974692, ,7.006611904544053e-05, ,0.21414365986937142,-0.2195495728813286,0.09788804306000001,1.8020753743060025,0.8271973695799765,-1.223650158943135, ,0.026309104951059266,0.03631723748889046,0.015802392380952386,-0.08226852077267154,0.02651338810539661,-0.04198586034399421, ,1.1260600090026855
0.01196226928413584,0.020762375034563137,-0.08557503636102454, ,0.012325969092929205,0.020488661585493468,-0.08601954744428822, ,0.0006362285016110151, ,0.0052234225123813155,-0.00010263088523140375,-0.014046974656503527,-0.009280712543235738,-0.023610455507239666,0.03803950503574579, ,0.014987066852520133, ,0.025368970961824052, ,7.062058014423998e-05, ,0.21441395551996928,-0.2192020499019885,0.09804489415,1.8014463044755487,0.8274706425795073,-1.2241180309709496, ,0.026982354722340285,0.03245449437704199,0.014586823736263738,-0.07222235064574763,0.018742225176591992,-0.04143863151421871, ,1.1331000328063965
0.012014151817097802,0.02076392514723343,-0.08571597140374226, ,0.012362199438986565,0.02048443993113967,-0.08611003571604475, ,0.000595429101865061, ,0.005317642482892748,0.00028374926465016785,-0.014567555743329925,0.01780938796464769,0.002661640525565882,-0.03390040614663488, ,0.015510368001955335, ,0.01800716451632391, ,7.110501788617203e-05, ,0.2146996966363156,-0.21884680418977415,0.09820044895,1.8012366145320642,0.8277439155790383,-1.2245042242586235, ,0.02631640087589317,0.034520531669141784,0.015041370651558077,0.0,0.029945489874757134,-0.057478303100475726, ,1.1398870944976807
0.012014151817097802,0.02076392514723343,-0.08571597140374226, ,0.012398472596115666,0.020480195575835136,-0.08620040312714285, ,0.000680352133462971, ,0.005317642482892748,0.00028374926465016785,-0.014567555743329925,0.01780938796464769,0.002661640525565882,-0.03390040614663488, ,0.015510368001955335, ,0.01800716451632391, ,7.171414413527708e-05, ,0.2146996966363156,-0.21884680418977415,0.09820044895,1.8012366145320642,0.8277439155790383,-1.2245042242586235, ,0.02631640087589317,0.034520531669141784,0.015041370651558077,0.0,0.029945489874757134,-0.057478303100475726, ,1.1463100910186768
0.012067605530550463,0.020768003674239137,-0.08586456319470322, ,0.012434788124648193,0.02047592881636457,-0.08629064940191931, ,0.00063378248318377, ,0.005306726605806229,0.00013921474222094418,-0.014800342470029844,-0.015161199653841394,0.012431086405844992,-0.006316291617400601, ,0.015723576731882363, ,0.019605947414214522, ,7.235524681640715e-05, ,0.21496226955403921,-0.21849155847755983,0.09835470746000001,1.8014463044755487,0.8281538250783346,-1.225001835449994, ,0.026301813070529596,0.036625604615388184,0.015301451988472626,-0.001183761455654288,0.0408696888263989,-0.01689539795387439, ,1.1511540412902832
0.012067605530550463,0.020768003674239137,-0.08586456319470322, ,0.012471145586106926,0.020471639948841196,-0.086380774265864, ,0.0007191313538980396, ,0.005306726605806229,0.00013921474222094418,-0.014800342470029844,-0.015161199653841394,0.012431086405844992,-0.006316291617400601, ,0.015723576731882363, ,0.019605947414214522, ,7.312059073934743e-05, ,0.21496226955403921,-0.21849155847755983,0.09835470746000001,1.8014463044755487,0.8281538250783346,-1.225001835449994, ,0.026301813070529596,0.036625604615388184,0.015301451988472626,-0.001183761455654288,0.0408696888263989,-0.01689539795387439, ,1.1560101509094238
0.012119447229841268,0.02076666951837256,-0.0860052694700236, ,0.012507544543204406,0.020467329268707396,-0.08647077744561789, ,0.0006759598989963705, ,0.005399617789708762,-7.972982185398025e-05,-0.01408148433464991,-0.004633174286616832,0.013121484291281365,-0.010046145047137928, ,0.015081459816159144, ,0.013915426702683005, ,7.38134558786165e-05, ,0.21523256520463707,-0.2181285900324713,0.09849989194000001,1.8012366145320642,0.8285637345776309,-1.2254994466413645, ,0.029407171229770927,0.037025728270960116,0.014600193877176905,-0.004535893769095331,0.04549704292645904,-0.030334189858177093, ,1.1613249778747559
0.012119447229841268,0.02076666951837256,-0.0860052694700236, ,0.01254398455984171,0.02046299707073509,-0.08656065866897253, ,0.000762171937509622, ,0.005399617789708762,-7.972982185398025e-05,-0.01408148433464991,-0.004633174286616832,0.013121484291281365,-0.010046145047137928, ,0.015081459816159144, ,0.013915426702683005, ,7.46302709388488e-05, ,0.21523256520463707,-0.2181285900324713,0.09849989194000001,1.8012366145320642,0.8285637345776309,-1.2254994466413645, ,0.029407171229770927,0.037025728270960116,0.014600193877176905,-0.004535893769095331,0.04549704292645904,-0.030334189858177093, ,1.1661911010742188
0.012181359492426061,0.02076361256080977,-0.08617404269412854, ,0.012580465201107435,0.0204586436490266,-0.08665041766486845, ,0.0006922604398661832, ,0.005403720316931377,-0.0003079736175386657,-0.015059683347257784,0.003923593950141078,0.023073465645526262,0.03164367540943004, ,0.016002784243136888, ,0.023404671152951858, ,7.533458616749487e-05, ,0.21557236545110298,-0.21770383972438892,0.09867489109000001,1.8006075447016108,0.8292469170764581,-1.226138214899987, ,0.029325383670726447,0.03829577948283728,0.015631807183513247,-0.055686456453482934,0.06727996526019828,-0.051045626852587, ,1.174302101135254
0.012181359492426061,0.02076361256080977,-0.08617404269412854, ,0.012616986033276618,0.020454269297015,-0.08674005416339436, ,0.0007783525687560116, ,0.005403720316931377,-0.0003079736175386657,-0.015059683347257784,0.003923593950141078,0.023073465645526262,0.03164367540943004, ,0.016002784243136888, ,0.023404671152951858, ,7.61614556439223e-05, ,0.21557236545110298,-0.21770383972438892,0.09867489109000001,1.8006075447016108,0.8292469170764581,-1.226138214899987, ,0.029325383670726447,0.03829577948283728,0.015631807183513247,-0.055686456453482934,0.06727996526019828,-0.051045626852587, ,1.1799089908599854
0.01218313485024667,0.020762602670837266,-0.08618120380766493, ,0.012653546623809044,0.02044987430746489,-0.08682956789578591, ,0.0008599199129736527, ,0.005318953866012228,-0.0004613596369453705,-0.015180508866959038,0.001225713135846139,0.02100612243822595,0.05771946387774754, ,0.016091984725421248, ,0.021041833247172494, ,7.710249222520678e-05, ,0.21558781091685142,-0.21768839425864048,0.09868266883000001,1.8003978547581263,0.8293835535762235,-1.2262496328036834, ,0.028817777576213417,0.03820327760002849,0.0157243943928924,-0.08396175698238358,0.07095143987354804,-0.054136085156121685, ,1.1856319904327393
0.01218313485024667,0.020762602670837266,-0.08618120380766493, ,0.012690146541348904,0.020445458972472474,-0.08691895859442375, ,0.0009496963228908464, ,0.005318953866012228,-0.0004613596369453705,-0.015180508866959038,0.001225713135846139,0.02100612243822595,0.05771946387774754, ,0.016091984725421248, ,0.021041833247172494, ,7.816835104748457e-05, ,0.21623652047828626,-0.21690067550546957,0.09900285246000001,1.7997687849276724,0.8307499185738779,-1.2272821331005073, ,0.03211402421606456,0.03803484631602035,0.01602496128772636,-0.03719243240611872,0.04778050159142512,-0.043325795781134276, ,1.1910932064056396
0.012298891316340455,0.020759004248176463,-0.08648830031584138, ,0.012726785355723207,0.020441023583466764,-0.08700822599283373, ,0.000744666181362129, ,0.005909742760896589,-0.0001394115897215427,-0.015489803685578766,-0.00398298068139684,0.003868535992249697,0.012897723796371883, ,0.016579460585588658, ,0.0055523701344140945, ,7.892191253673078e-05, ,0.21623652047828626,-0.21690067550546957,0.09900285246000001,1.7997687849276724,0.8307499185738779,-1.2272821331005073, ,0.03211402421606456,0.03803484631602035,0.01602496128772636,-0.03719243240611872,0.04778050159142512,-0.043325795781134276, ,1.196593999862671
0.012361842598722084,0.020756793972900825,-0.08664672767609112, ,0.012763462637940355,0.020436568431209695,-0.08709736982568439, ,0.000683316471660903, ,0.0065102345711784285,-0.0005352098881956309,-0.016189046387820052,-0.032941045635897725,-0.025208369416069847,0.008034132230319234, ,0.01745722849547369, ,0.04147979344451191, ,7.95786047926877e-05, ,0.2165608752590037,-0.21647592519738723,0.09916488871000001,1.7997687849276724,0.8308865550736434,-1.2273935510042033, ,0.03447037470340384,0.04491099931778078,0.016506540435233162,-0.024972736957084175,0.015215170878490423,-0.016770952181916172, ,1.2016301155090332
0.012361842598722084,0.020756793972900825,-0.08664672767609112, ,0.012800177960189504,0.020432093805796834,-0.08718638982878688, ,0.0007673352114182889, ,0.0065102345711784285,-0.0005352098881956309,-0.016189046387820052,-0.032941045635897725,-0.025208369416069847,0.008034132230319234, ,0.01745722849547369, ,0.04147979344451191, ,8.035254241646547e-05, ,0.2165608752590037,-0.21647592519738723,0.09916488871000001,1.7997687849276724,0.8308865550736434,-1.2273935510042033, ,0.03447037470340384,0.04491099931778078,0.016506540435233162,-0.024972736957084175,0.015215170878490423,-0.016770952181916172, ,1.2066941261291504
0.012361842598722084,0.020756793972900825,-0.08664672767609112, ,0.012836930895839111,0.020427599996658077,-0.08727528573909273, ,0.0008539103012708055, ,0.00659571354646428,-0.00026874539699601937,-0.016074753253727123,-0.013416474478565395,-0.010893246440356462,-0.021034857936285175, ,0.01737738051156243, ,0.017281884507866344, ,8.124591366139464e-05, ,0.21692384370409226,-0.21602028395780798,0.09933470270000001,1.799559094984188,0.8312964645729397,-1.227891162195574, ,0.03586430142043491,0.04359069433094661,0.016540821931464174,0.0,0.02595698922619993,-0.03058513889653919, ,1.2115709781646729
0.012427779056726505,0.020752048876878405,-0.08681157746077311, ,0.012873721019435918,0.020423087292557894,-0.08736405729469365, ,0.000782504904107731, ,0.00659571354646428,-0.00026874539699601937,-0.016074753253727123,-0.013416474478565395,-0.010893246440356462,-0.021034857936285175, ,0.01737738051156243, ,0.017281884507866344, ,8.20278689054056e-05, ,0.21692384370409226,-0.21602028395780798,0.09933470270000001,1.799559094984188,0.8312964645729397,-1.227891162195574, ,0.03586430142043491,0.04359069433094661,0.016540821931464174,0.0,0.02595698922619993,-0.03058513889653919, ,1.2174620628356934
0.012427779056726505,0.020752048876878405,-0.08681157746077311, ,0.012910547906703627,0.020418555981596132,-0.08745270423481999, ,0.0008690953998910229, ,0.00659571354646428,-0.00026874539699601937,-0.016074753253727123,-0.013416474478565395,-0.010893246440356462,-0.021034857936285175, ,0.01737738051156243, ,0.017281884507866344, ,8.304818679553615e-05, ,0.21692384370409226,-0.21602028395780798,0.09933470270000001,1.799559094984188,0.8312964645729397,-1.227891162195574, ,0.03586430142043491,0.04359069433094661,0.016540821931464174,0.0,0.02595698922619993,-0.03058513889653919, ,1.2209620475769043
0.012427779056726505,0.020752048876878405,-0.08681157746077311, ,0.012947411134541708,0.02041400635120874,-0.08754122629983935, ,0.0009574328560303181, ,0.00659571354646428,-0.00026874539699601937,-0.016074753253727123,-0.013416474478565395,-0.010893246440356462,-0.021034857936285175, ,0.01737738051156243, ,0.017281884507866344, ,8.419008648159567e-05, ,0.21692384370409226,-0.21602028395780798,0.09933470270000001,1.799559094984188,0.8312964645729397,-1.227891162195574, ,0.03586430142043491,0.04359069433094661,0.016540821931464174,0.0,0.02595698922619993,-0.03058513889653919, ,1.2245841026306152
0.012504007040727988,0.020743136210345885,-0.08701440465581092, ,0.012984310281024928,0.02040943868816768,-0.08762962323125534, ,0.0008488457660373106, ,0.006521285827273956,-0.0005536672796946534,-0.017726636197511178,0.03947619594614448,0.03615340470558747,0.021192263184102833, ,0.018896225738927925, ,0.05352977645952898, ,8.516917366587497e-05, ,0.21736403947792304,-0.21546424719086382,0.09954599797000001,1.7987203352102499,0.8323895565710632,-1.229190899125848, ,0.0365550622336174,0.04593269194504877,0.018478899675174017,-0.07338167685811413,0.09184849250323178,-0.10415750843190469, ,1.2290711402893066
0.012504007040727988,0.020743136210345885,-0.08701440465581092, ,0.013021244925400988,0.02040485327858235,-0.08771789477170708, ,0.0009364126838243482, ,0.006521285827273956,-0.0005536672796946534,-0.017726636197511178,0.03947619594614448,0.03615340470558747,0.021192263184102833, ,0.018896225738927925, ,0.05352977645952898, ,8.626827601378401e-05, ,0.21736403947792304,-0.21546424719086382,0.09954599797000001,1.7987203352102499,0.8323895565710632,-1.229190899125848, ,0.0365550622336174,0.04593269194504877,0.018478899675174017,-0.07338167685811413,0.09184849250323178,-0.10415750843190469, ,1.2323181629180908
0.012580921610528203,0.020737812012650212,-0.08721753184464265, ,0.013058214648090413,0.02040025040789951,-0.08780604066496718, ,0.0008295173972298607, ,0.007646651549325516,-0.0005730550757338899,-0.019746795342213578,-0.011520914795835339,-0.010596592166457213,0.04150570801788107, ,0.02118338023838251, ,0.015652994626408158, ,8.720816277373006e-05, ,0.21778106705313116,-0.214954546821165,0.09975599695000001,1.7978815754363118,0.8330727390698903,-1.2300747036048925, ,0.04104538994743546,0.050156945855428535,0.020317361632653064,-0.07720933665961736,0.048702810689635376,-0.05632393252198418, ,1.2355680465698242
0.012580921610528203,0.020737812012650212,-0.08721753184464265, ,0.013095219030684786,0.020395630360904114,-0.08789406065594131, ,0.0009161230003054106, ,0.007646651549325516,-0.0005730550757338899,-0.019746795342213578,-0.011520914795835339,-0.010596592166457213,0.04150570801788107, ,0.02118338023838251, ,0.015652994626408158, ,8.826623220990404e-05, ,0.21778106705313116,-0.214954546821165,0.09975599695000001,1.7978815754363118,0.8330727390698903,-1.2300747036048925, ,0.04104538994743546,0.050156945855428535,0.020317361632653064,-0.07720933665961736,0.048702810689635376,-0.05632393252198418, ,1.2388250827789307
0.012580921610528203,0.020737812012650212,-0.08721753184464265, ,0.013132257655945922,0.020390993421719864,-0.08798195449066641, ,0.0010042890777787704, ,0.007646651549325516,-0.0005730550757338899,-0.019746795342213578,-0.011520914795835339,-0.010596592166457213,0.04150570801788107, ,0.02118338023838251, ,0.015652994626408158, ,8.944369538680156e-05, ,0.21778106705313116,-0.214954546821165,0.09975599695000001,1.7978815754363118,0.8330727390698903,-1.2300747036048925, ,0.04104538994743546,0.050156945855428535,0.020317361632653064,-0.07720933665961736,0.048702810689635376,-0.05632393252198418, ,1.2420990467071533
0.012664613641465268,0.020738519094471497,-0.08743069704435924, ,0.013169330107804654,0.020386339873809566,-0.08806972191630996, ,0.0008871987949900507, ,0.008567152318458232,5.961866824522009e-05,-0.022165115784327387,-0.0124186446185272,-0.026180913016436082,0.001043375472301778, ,0.023763249166852303, ,0.028976845766608094, ,9.044839241405894e-05, ,0.21821354009408775,-0.21442940098571775,0.09997636625,1.7978815754363118,0.8334826485691867,-1.2304089573159818, ,0.0428622138927149,0.051546410406556636,0.022787999313304726,-0.038372213190293894,0.02557572839742424,-0.05173707595707802, ,1.2454190254211426
0.012664613641465268,0.020738519094471497,-0.08743069704435924, ,0.013206435971359554,0.02038166999997606,-0.08815736268116861, ,0.0009741435526316721, ,0.008567152318458232,5.961866824522009e-05,-0.022165115784327387,-0.0124186446185272,-0.026180913016436082,0.001043375472301778, ,0.023763249166852303, ,0.028976845766608094, ,9.157038218464388e-05, ,0.21821354009408775,-0.21442940098571775,0.09997636625,1.7978815754363118,0.8334826485691867,-1.2304089573159818, ,0.0428622138927149,0.051546410406556636,0.022787999313304726,-0.038372213190293894,0.02557572839742424,-0.05173707595707802, ,1.24863600730896
0.012664613641465268,0.020738519094471497,-0.08743069704435924, ,0.01324357483287585,0.020376984082362513,-0.08824487653466667, ,0.0010624461720847187, ,0.008567152318458232,5.961866824522009e-05,-0.022165115784327387,-0.0124186446185272,-0.026180913016436082,0.001043375472301778, ,0.023763249166852303, ,0.028976845766608094, ,9.281058727310005e-05, ,0.21821354009408775,-0.21442940098571775,0.09997636625,1.7978815754363118,0.8334826485691867,-1.2304089573159818, ,0.0428622138927149,0.051546410406556636,0.022787999313304726,-0.038372213190293894,0.02557572839742424,-0.05173707595707802, ,1.2519371509552002
0.012756590385551065,0.020740963310221936,-0.08767663393814763, ,0.013280746279784199,0.020372282402453003,-0.08833226322735599, ,0.0009167959304450011, ,0.00924410842010205,0.000522180207595184,-0.025218820413912792,0.055899000372790206,0.04971912729946459,-0.057385699683125485, ,0.02686475601454423, ,0.07481095950154329, ,9.383896245720526e-05, ,0.21867690406654122,-0.21385791875302512,0.10023173538,1.797671885492827,0.834165831068014,-1.2312110830548855, ,0.046978683939837014,0.05744366922425592,0.02641593950248757,0.0,0.10037597184663069,-0.11760778757883561, ,1.2553391456604004
0.012756590385551065,0.020740963310221936,-0.08767663393814763, ,0.013317949900679745,0.020367565241073155,-0.08841952251091362, ,0.0010032118693555346, ,0.00924410842010205,0.000522180207595184,-0.025218820413912792,0.055899000372790206,0.04971912729946459,-0.057385699683125485, ,0.02686475601454423, ,0.07481095950154329, ,9.498276883089548e-05, ,0.21867690406654122,-0.21385791875302512,0.10023173538,1.797671885492827,0.834165831068014,-1.2312110830548855, ,0.046978683939837014,0.05744366922425592,0.02641593950248757,0.0,0.10037597184663069,-0.11760778757883561, ,1.2595221996307373
0.012756590385551065,0.020740963310221936,-0.08767663393814763, ,0.013355185285320662,0.020362832878390715,-0.088506654138141, ,0.0010909775478460007, ,0.00924410842010205,0.000522180207595184,-0.025218820413912792,0.055899000372790206,0.04971912729946459,-0.057385699683125485, ,0.02686475601454423, ,0.07481095950154329, ,9.624292548849577e-05, ,0.21867690406654122,-0.21385791875302512,0.10023173538,1.797671885492827,0.834165831068014,-1.2312110830548855, ,0.046978683939837014,0.05744366922425592,0.02641593950248757,0.0,0.10037597184663069,-0.11760778757883561, ,1.2631990909576416
0.012773343140958059,0.020742243682866958,-0.0877217554985558, ,0.013392452024627285,0.020358085593916043,-0.08859365786296333, ,0.0011362600847534903, ,0.009321671722125554,0.0005827985523857275,-0.025647343576425286,0.07118362640524901,0.06366855755392363,-0.0634461920895514, ,0.027295044428887482, ,0.09550278944636525, ,9.755920754397206e-05, ,0.2187695768610319,-0.21375752322566022,0.10027969811000001,1.797671885492827,0.8344391040675448,-1.2315155976024188, ,0.04775890365297976,0.05797003149570604,0.02695230375634518,0.0,0.11567789193759793,-0.13396863627700992, ,1.2674190998077393
0.012773343140958059,0.020742243682866958,-0.0877217554985558, ,0.013429749710680694,0.02035332366650281,-0.0886805334404277, ,0.0012253095550610181, ,0.009321671722125554,0.0005827985523857275,-0.025647343576425286,0.07118362640524901,0.06366855755392363,-0.0634461920895514, ,0.027295044428887482, ,0.09550278944636525, ,9.899201858705005e-05, ,0.2187695768610319,-0.21375752322566022,0.10027969811000001,1.797671885492827,0.8344391040675448,-1.2315155976024188, ,0.04775890365297976,0.05797003149570604,0.02695230375634518,0.0,0.11567789193759793,-0.13396863627700992, ,1.2707340717315674
0.012773343140958059,0.020742243682866958,-0.0877217554985558, ,0.013467077936721774,0.020348547374348255,-0.08876728062670201, ,0.0013150618022662358, ,0.009321671722125554,0.0005827985523857275,-0.025647343576425286,0.07118362640524901,0.06366855755392363,-0.0634461920895514, ,0.027295044428887482, ,0.09550278944636525, ,0.00010054136361491708, ,0.2187695768610319,-0.21375752322566022,0.10027969811000001,1.797671885492827,0.8344391040675448,-1.2315155976024188, ,0.04775890365297976,0.05797003149570604,0.02695230375634518,0.0,0.11567789193759793,-0.13396863627700992, ,1.2741210460662842
0.012943398407155238,0.020744715482535987,-0.08818871470894807, ,0.013504436297150011,0.020343756994994182,-0.08885389917907426, ,0.0009581240013895149, ,0.009832178550027883,-0.0005140774617677068,-0.025093126920656385,-0.06486441193935712,-0.043801175336650525,0.07467743780282578, ,0.026955538008589186, ,0.07826828826694081, ,0.0001015884469816663, ,0.2196113547443224,-0.21276901341775947,0.10076321428000001,1.7957846760014666,0.8356688325654338,-1.2330084311765301, ,0.049788531772545004,0.06013747880764941,0.02569163148387097,-0.09193306121501849,0.02653920796027597,-0.010980783042844156, ,1.2774322032928467
0.012943398407155238,0.020744715482535987,-0.08818871470894807, ,0.01354182438752203,0.02033895280532722,-0.08894038885595101, ,0.0010429626203590364, ,0.009832178550027883,-0.0005140774617677068,-0.025093126920656385,-0.06486441193935712,-0.043801175336650525,0.07467743780282578, ,0.026955538008589186, ,0.07826828826694081, ,0.00010274677212152245, ,0.2196113547443224,-0.21276901341775947,0.10076321428000001,1.7957846760014666,0.8356688325654338,-1.2330084311765301, ,0.049788531772545004,0.06013747880764941,0.02569163148387097,-0.09193306121501849,0.02653920796027597,-0.010980783042844156, ,1.2806501388549805
0.012943398407155238,0.020744715482535987,-0.08818871470894807, ,0.013579241804551065,0.020334135081579417,-0.08902674941685618, ,0.0011292365842993906, ,0.009832178550027883,-0.0005140774617677068,-0.025093126920656385,-0.06486441193935712,-0.043801175336650525,0.07467743780282578, ,0.026955538008589186, ,0.07826828826694081, ,0.00010401739528528633, ,0.2196113547443224,-0.21276901341775947,0.10076321428000001,1.7957846760014666,0.8356688325654338,-1.2330084311765301, ,0.049788531772545004,0.06013747880764941,0.02569163148387097,-0.09193306121501849,0.02653920796027597,-0.010980783042844156, ,1.283926010131836
0.013053774185490235,0.02074168727733266,-0.08846877281571648, ,0.013616688146105194,0.02032930409932886,-0.08911298062242995, ,0.0009497029592384706, ,0.010812896950546115,0.00015467420489040238,-0.027284020007545564,-0.010873585260519916,-0.013567045983512627,-0.016373483083372633, ,0.02934894226961058, ,0.017386330075219957, ,0.00010503477274573613, ,0.22017511424414077,-0.21206624472620503,0.10105228695000001,1.7955749860579822,0.8362153785644955,-1.2335357815314563, ,0.05504462967428699,0.06330683226048751,0.028242573617021278,-0.021686740772005515,0.04768538220656383,-0.05890738979148649, ,1.2879910469055176
0.013053774185490235,0.02074168727733266,-0.08846877281571648, ,0.013654163011206512,0.020324460133500363,-0.08919908223442771, ,0.001033391057951326, ,0.010812896950546115,0.00015467420489040238,-0.027284020007545564,-0.010873585260519916,-0.013567045983512627,-0.016373483083372633, ,0.02934894226961058, ,0.017386330075219957, ,0.00010630649368437393, ,0.22017511424414077,-0.21206624472620503,0.10105228695000001,1.7955749860579822,0.8362153785644955,-1.2335357815314563, ,0.05504462967428699,0.06330683226048751,0.028242573617021278,-0.021686740772005515,0.04768538220656383,-0.05890738979148649, ,1.2897570133209229
0.013053774185490235,0.02074168727733266,-0.08846877281571648, ,0.013691666000029901,0.020319603458365736,-0.08928505401571878, ,0.0011186490579120853, ,0.010812896950546115,0.00015467420489040238,-0.027284020007545564,-0.010873585260519916,-0.013567045983512627,-0.016373483083372633, ,0.02934894226961058, ,0.017386330075219957, ,0.00010769136723324907, ,0.22017511424414077,-0.21206624472620503,0.10105228695000001,1.7955749860579822,0.8362153785644955,-1.2335357815314563, ,0.05504462967428699,0.06330683226048751,0.028242573617021278,-0.021686740772005515,0.04768538220656383,-0.05890738979148649, ,1.2914659976959229
0.013053774185490235,0.02074168727733266,-0.08846877281571648, ,0.013729196713901824,0.020314734347544595,-0.08937089573028517, ,0.0012051183133329369, ,0.010812896950546115,0.00015467420489040238,-0.027284020007545564,-0.010873585260519916,-0.013567045983512627,-0.016373483083372633, ,0.02934894226961058, ,0.017386330075219957, ,0.0001091905843727295, ,0.22017511424414077,-0.21206624472620503,0.10105228695000001,1.7955749860579822,0.8362153785644955,-1.2335357815314563, ,0.05504462967428699,0.06330683226048751,0.028242573617021278,-0.021686740772005515,0.04768538220656383,-0.05890738979148649, ,1.2931571006774902
0.013053774185490235,0.02074168727733266,-0.08846877281571648, ,0.013766754755299202,0.020309853074004857,-0.08945660714322061, ,0.001292531907027602, ,0.010812896950546115,0.00015467420489040238,-0.027284020007545564,-0.010873585260519916,-0.013567045983512627,-0.016373483083372633, ,0.02934894226961058, ,0.017386330075219957, ,0.0001108049654404715, ,0.22073887374395917,-0.21143298063051863,0.10133358188000001,1.7955749860579822,0.8373084705626191,-1.2348355184617306, ,0.05953384037545218,0.06763858984923077,0.02789634241681261,-0.014923941681005968,0.1174649195226136,-0.1267442113751266, ,1.2948791980743408
0.013158750971794114,0.020744142157741754,-0.08873662771392514, ,0.013804339727848341,0.02030495991006321,-0.0895421880207289, ,0.0011218704455138258, ,0.010686623441866942,-0.0003036467729332679,-0.02658656366010302,0.05282660609440454,0.05056157876223426,-0.04697323000128577, ,0.028655566461050518, ,0.07312393776957223, ,0.00011218243884656598, ,0.22073887374395917,-0.21143298063051863,0.10133358188000001,1.7955749860579822,0.8373084705626191,-1.2348355184617306, ,0.05953384037545218,0.06763858984923077,0.02789634241681261,-0.014923941681005968,0.1174649195226136,-0.1267442113751266, ,1.2974209785461426
0.013158750971794114,0.020744142157741754,-0.08873662771392514, ,0.013841951236323691,0.02030005512738587,-0.08962763813012353, ,0.001207425133810633, ,0.010686623441866942,-0.0003036467729332679,-0.02658656366010302,0.05282660609440454,0.05056157876223426,-0.04697323000128577, ,0.028655566461050518, ,0.07312393776957223, ,0.00011367256496216335, ,0.22073887374395917,-0.21143298063051863,0.10133358188000001,1.7955749860579822,0.8373084705626191,-1.2348355184617306, ,0.05953384037545218,0.06763858984923077,0.02789634241681261,-0.014923941681005968,0.1174649195226136,-0.1267442113751266, ,1.2993381023406982
0.013158750971794114,0.020744142157741754,-0.08873662771392514, ,0.01387958888664662,0.02029513899698893,-0.08971295723982556, ,0.0012939978674634174, ,0.010686623441866942,-0.0003036467729332679,-0.02658656366010302,0.05282660609440454,0.05056157876223426,-0.04697323000128577, ,0.028655566461050518, ,0.07312393776957223, ,0.0006331592023481603, ,0.22073887374395917,-0.21143298063051863,0.10133358188000001,1.7955749860579822,0.8373084705626191,-1.2348355184617306, ,0.05953384037545218,0.06763858984923077,0.02789634241681261,-0.014923941681005968,0.1174649195226136,-0.1267442113751266, ,1.3011910915374756
0.013158750971794114,0.020744142157741754,-0.08873662771392514, ,0.013917252285884323,0.020290211789239135,-0.08979814511936365, ,0.0013813747590622942, ,0.010686623441866942,-0.0003036467729332679,-0.02658656366010302,0.05282660609440454,0.05056157876223426,-0.04697323000128577, ,0.028655566461050518, ,0.07312393776957223, ,0.000638701539805302, ,0.22073887374395917,-0.21143298063051863,0.10133358188000001,1.7955749860579822,0.8373084705626191,-1.2348355184617306, ,0.05953384037545218,0.06763858984923077,0.02789634241681261,-0.014923941681005968,0.1174649195226136,-0.1267442113751266, ,1.303105115890503
0.013158750971794114,0.020744142157741754,-0.08873662771392514, ,0.013954941042248802,0.020285273773854157,-0.08988320153937132, ,0.0014693911525596396, ,0.010686623441866942,-0.0003036467729332679,-0.02658656366010302,0.05282660609440454,0.05056157876223426,-0.04697323000128577, ,0.028655566461050518, ,0.07312393776957223, ,0.0006448095516637898, ,0.22073887374395917,-0.21143298063051863,0.10133358188000001,1.7955749860579822,0.8373084705626191,-1.2348355184617306, ,0.05953384037545218,0.06763858984923077,0.02789634241681261,-0.014923941681005968,0.1174649195226136,-0.1267442113751266, ,1.304847002029419
0.0132733006346944,0.020735608428728763,-0.08902340682466518, ,0.013992654765095584,0.020280325219903507,-0.08996812627158729, ,0.0012717106583481476, ,0.011992214707460733,-0.000381558863700454,-0.030530235797686642,0.050508565149104186,0.052697825928014023,-0.02077630405314331, ,0.03280326353609733, ,0.07299417433084306, ,0.0006493854721505369, ,0.2213798605725198,-0.2106993210074673,0.10163302487,1.794736226284044,0.8385381990605081,-1.2361649945555606, ,0.06522126567592494,0.07519567476899429,0.031985565301204825,-0.047857526576025905,0.1326654742640878,-0.13875395719908598, ,1.3082170486450195
0.0132733006346944,0.020735608428728763,-0.08902340682466518, ,0.014030393064922446,0.020275366395808823,-0.09005291908885321, ,0.0013582736023675243, ,0.011992214707460733,-0.000381558863700454,-0.030530235797686642,0.050508565149104186,0.052697825928014023,-0.02077630405314331, ,0.03280326353609733, ,0.07299417433084306, ,0.0006545223426593557, ,0.2213798605725198,-0.2106993210074673,0.10163302487,1.794736226284044,0.8385381990605081,-1.2361649945555606, ,0.06522126567592494,0.07519567476899429,0.031985565301204825,-0.047857526576025905,0.1326654742640878,-0.13875395719908598, ,1.309885025024414
0.0132733006346944,0.020735608428728763,-0.08902340682466518, ,0.014068155553368388,0.020270397569344713,-0.09013757976511322, ,0.0014455437823378792, ,0.011992214707460733,-0.000381558863700454,-0.030530235797686642,0.050508565149104186,0.052697825928014023,-0.02077630405314331, ,0.03280326353609733, ,0.07299417433084306, ,0.0006602131443836616, ,0.2213798605725198,-0.2106993210074673,0.10163302487,1.794736226284044,0.8385381990605081,-1.2361649945555606, ,0.06522126567592494,0.07519567476899429,0.031985565301204825,-0.047857526576025905,0.1326654742640878,-0.13875395719908598, ,1.311549186706543
0.0132733006346944,0.020735608428728763,-0.08902340682466518, ,0.014105941843212701,0.02026541900763885,-0.09022210807541252, ,0.0015333799797737392, ,0.011992214707460733,-0.000381558863700454,-0.030530235797686642,0.050508565149104186,0.052697825928014023,-0.02077630405314331, ,0.03280326353609733, ,0.07299417433084306, ,0.0006664500503507335, ,0.2213798605725198,-0.2106993210074673,0.10163302487,1.794736226284044,0.8385381990605081,-1.2361649945555606, ,0.06522126567592494,0.07519567476899429,0.031985565301204825,-0.047857526576025905,0.1326654742640878,-0.13875395719908598, ,1.3131961822509766
0.0132733006346944,0.020735608428728763,-0.08902340682466518, ,0.014143751548373296,0.02026043097717307,-0.09030650379589576, ,0.0016216708177594103, ,0.011992214707460733,-0.000381558863700454,-0.030530235797686642,0.050508565149104186,0.052697825928014023,-0.02077630405314331, ,0.03280326353609733, ,0.07299417433084306, ,0.0006732246657224263, ,0.22205946106545155,-0.20995021591866753,0.10198691204000002,1.7930587067361679,0.8399045640581624,-1.2375242098129464, ,0.07034613903518962,0.07974532904073174,0.040022139497487445,-0.14922205220599746,0.13574032864364272,-0.1425065892364406, ,1.3150880336761475
0.01340152078880185,0.02073114892662183,-0.08936249917310649, ,0.01418158428390602,0.020255433743783607,-0.09039076670380676, ,0.0013755501104174203, ,0.01410830023247108,0.00017611262781436633,-0.03836430997718984,0.027508045284024008,0.029652575330934884,0.07324918348953757, ,0.040876587811767354, ,0.04044607115936976, ,0.0006781706195583065, ,0.22205946106545155,-0.20995021591866753,0.10198691204000002,1.7930587067361679,0.8399045640581624,-1.2375242098129464, ,0.07034613903518962,0.07974532904073174,0.040022139497487445,-0.14922205220599746,0.13574032864364272,-0.1425065892364406, ,1.3172659873962402
0.01340152078880185,0.02073114892662183,-0.08936249917310649, ,0.014219439666003326,0.020250427572661718,-0.09047489657748625, ,0.0014620233565530365, ,0.01410830023247108,0.00017611262781436633,-0.03836430997718984,0.027508045284024008,0.029652575330934884,0.07324918348953757, ,0.040876587811767354, ,0.04044607115936976, ,0.0006836521072295982, ,0.22205946106545155,-0.20995021591866753,0.10198691204000002,1.7930587067361679,0.8399045640581624,-1.2375242098129464, ,0.07034613903518962,0.07974532904073174,0.040022139497487445,-0.14922205220599746,0.13574032864364272,-0.1425065892364406, ,1.3188960552215576
0.01340152078880185,0.02073114892662183,-0.08936249917310649, ,0.014257317311992824,0.020245412728354416,-0.09055889319637214, ,0.0015490919928522076, ,0.01410830023247108,0.00017611262781436633,-0.03836430997718984,0.027508045284024008,0.029652575330934884,0.07324918348953757, ,0.040876587811767354, ,0.04044607115936976, ,0.0006896621064353108, ,0.22205946106545155,-0.20995021591866753,0.10198691204000002,1.7930587067361679,0.8399045640581624,-1.2375242098129464, ,0.07034613903518962,0.07974532904073174,0.040022139497487445,-0.14922205220599746,0.13574032864364272,-0.1425065892364406, ,1.3205361366271973
0.01340152078880185,0.02073114892662183,-0.08936249917310649, ,0.01429521684033673,0.02024038947476471,-0.0906427563409966, ,0.0016366416492470618, ,0.01410830023247108,0.00017611262781436633,-0.03836430997718984,0.027508045284024008,0.029652575330934884,0.07324918348953757, ,0.040876587811767354, ,0.04044607115936976, ,0.0006961929998340126, ,0.22205946106545155,-0.20995021591866753,0.10198691204000002,1.7930587067361679,0.8399045640581624,-1.2375242098129464, ,0.07034613903518962,0.07974532904073174,0.040022139497487445,-0.14922205220599746,0.13574032864364272,-0.1425065892364406, ,1.322188138961792
0.01340152078880185,0.02073114892662183,-0.08936249917310649, ,0.014333137870630326,0.020235358075152393,-0.09072648579298637, ,0.0017245806605568602, ,0.01410830023247108,0.00017611262781436633,-0.03836430997718984,0.027508045284024008,0.029652575330934884,0.07324918348953757, ,0.040876587811767354, ,0.04044607115936976, ,0.000703236750934854, ,0.22205946106545155,-0.20995021591866753,0.10198691204000002,1.7930587067361679,0.8399045640581624,-1.2375242098129464, ,0.07034613903518962,0.07974532904073174,0.040022139497487445,-0.14922205220599746,0.13574032864364272,-0.1425065892364406, ,1.3238530158996582
0.013558021045975479,0.020743388938303853,-0.08978809038434857, ,0.014371080023600878,0.020230318792134598,-0.09081008133506045, ,0.0014031291385059258, ,0.01410830023247108,0.00017611262781436633,-0.03836430997718984,0.027508045284024008,0.029652575330934884,0.07324918348953757, ,0.040876587811767354, ,0.04044607115936976, ,0.0007079979236394192, ,0.2228008434213771,-0.20910843803537704,0.10243153951000002,1.7924296369057142,0.8411342925560513,-1.238772007166636, ,0.07211013796236382,0.08541578898152184,0.04603702751445087,-0.02537469677054647,0.125815851996486,-0.12820518929321462, ,1.3256371021270752
0.013558021045975479,0.020743388938303853,-0.08978809038434857, ,0.01440904292110625,0.020225271887686375,-0.0908935427510302, ,0.0014881896536038945, ,0.015869620227293588,0.0016439577933747094,-0.044030026038629815,0.03538523615678149,0.04414734146702364,-0.04025683252266014, ,0.046831513282696115, ,0.05657682579274215, ,0.0007132694893824224, ,0.2228008434213771,-0.20910843803537704,0.10243153951000002,1.7924296369057142,0.8411342925560513,-1.238772007166636, ,0.07211013796236382,0.08541578898152184,0.04603702751445087,-0.02537469677054647,0.125815851996486,-0.12820518929321462, ,1.327510118484497
0.013558021045975479,0.020743388938303853,-0.08978809038434857, ,0.014447026186134245,0.020220217623141135,-0.09097686982579697, ,0.001573923417656711, ,0.015869620227293588,0.0016439577933747094,-0.044030026038629815,0.03538523615678149,0.04414734146702364,-0.04025683252266014, ,0.046831513282696115, ,0.05657682579274215, ,0.0007190456902433236, ,0.2228008434213771,-0.20910843803537704,0.10243153951000002,1.7924296369057142,0.8411342925560513,-1.238772007166636, ,0.07211013796236382,0.08541578898152184,0.04603702751445087,-0.02537469677054647,0.125815851996486,-0.12820518929321462, ,1.3291430473327637
0.013558021045975479,0.020743388938303853,-0.08978809038434857, ,0.014485029442800926,0.020215156259191253,-0.09106006234535123, ,0.0016602069150091867, ,0.015869620227293588,0.0016439577933747094,-0.044030026038629815,0.03538523615678149,0.04414734146702364,-0.04025683252266014, ,0.046831513282696115, ,0.05657682579274215, ,0.0007253200984084294, ,0.2228008434213771,-0.20910843803537704,0.10243153951000002,1.7924296369057142,0.8411342925560513,-1.238772007166636, ,0.07211013796236382,0.08541578898152184,0.04603702751445087,-0.02537469677054647,0.125815851996486,-0.12820518929321462, ,1.3307909965515137
0.013558021045975479,0.020743388938303853,-0.08978809038434857, ,0.014523052316350002,0.020210088055888666,-0.09114312009677211, ,0.0017469403840818711, ,0.015869620227293588,0.0016439577933747094,-0.044030026038629815,0.03538523615678149,0.04414734146702364,-0.04025683252266014, ,0.046831513282696115, ,0.05657682579274215, ,0.0007320857956645449, ,0.2228008434213771,-0.20910843803537704,0.10243153951000002,1.7924296369057142,0.8411342925560513,-1.238772007166636, ,0.07211013796236382,0.08541578898152184,0.04603702751445087,-0.02537469677054647,0.125815851996486,-0.12820518929321462, ,1.3323981761932373
0.013558021045975479,0.020743388938303853,-0.08978809038434857, ,0.014561094433151083,0.020205013272645594,-0.0912260428682251, ,0.0018340425085912242, ,0.015869620227293588,0.0016439577933747094,-0.044030026038629815,0.03538523615678149,0.04414734146702364,-0.04025683252266014, ,0.046831513282696115, ,0.05657682579274215, ,0.0007393355108811677, ,0.2228008434213771,-0.20910843803537704,0.10243153951000002,1.7924296369057142,0.8411342925560513,-1.238772007166636, ,0.07211013796236382,0.08541578898152184,0.04603702751445087,-0.02537469677054647,0.125815851996486,-0.12820518929321462, ,1.334029197692871
0.013725661634372754,0.02076058982497942,-0.09024508081722486, ,0.014599155420699025,0.020199932168234746,-0.09130883044896214, ,0.001486234060246981, ,0.0179518935767219,0.0021784936896793393,-0.049075690503738695,0.05794064076453609,0.06783580032128012,-0.07334226743413563, ,0.05230143130130064, ,0.08921058790149607, ,0.0007442172007463037, ,0.223588562174548,-0.20822032375484123,0.10291116681000001,1.7922199469622295,0.8426372940534712,-1.2401609615875777, ,0.08287942494189587,0.09294509457244934,0.0515495518446602,0.0,0.15609447762036704,-0.15232873629998223, ,1.335705041885376
0.013725661634372754,0.02076058982497942,-0.09024508081722486, ,0.014637234907612507,0.0201948450007901,-0.09139148262931891, ,0.0015701178788086467, ,0.0179518935767219,0.0021784936896793393,-0.049075690503738695,0.05794064076453609,0.06783580032128012,-0.07334226743413563, ,0.05230143130130064, ,0.08921058790149607, ,0.0007495801921622929, ,0.223588562174548,-0.20822032375484123,0.10291116681000001,1.7922199469622295,0.8426372940534712,-1.2401609615875777, ,0.08287942494189587,0.09294509457244934,0.0515495518446602,0.0,0.15609447762036704,-0.15232873629998223, ,1.3375670909881592
0.013725661634372754,0.02076058982497942,-0.09024508081722486, ,0.01467533252363278,0.020189752027807536,-0.09147399920071514, ,0.0016546815348786408, ,0.0179518935767219,0.0021784936896793393,-0.049075690503738695,0.05794064076453609,0.06783580032128012,-0.07334226743413563, ,0.05230143130130064, ,0.08921058790149607, ,0.0007554195556636888, ,0.223588562174548,-0.20822032375484123,0.10291116681000001,1.7922199469622295,0.8426372940534712,-1.2401609615875777, ,0.08287942494189587,0.09294509457244934,0.0515495518446602,0.0,0.15609447762036704,-0.15232873629998223, ,1.3393850326538086
0.013725661634372754,0.02076058982497942,-0.09024508081722486, ,0.014713447899622933,0.020184653506145244,-0.09155637995565255, ,0.0017398073972742947, ,0.0179518935767219,0.0021784936896793393,-0.049075690503738695,0.05794064076453609,0.06783580032128012,-0.07334226743413563, ,0.05230143130130064, ,0.08921058790149607, ,0.0007617297341355517, ,0.223588562174548,-0.20822032375484123,0.10291116681000001,1.7922199469622295,0.8426372940534712,-1.2401609615875777, ,0.08287942494189587,0.09294509457244934,0.0515495518446602,0.0,0.15609447762036704,-0.15232873629998223, ,1.3425571918487549
0.013725661634372754,0.02076058982497942,-0.09024508081722486, ,0.014751580667566298,0.020179549692024398,-0.09163862468771407, ,0.0018253991392983625, ,0.0179518935767219,0.0021784936896793393,-0.049075690503738695,0.05794064076453609,0.06783580032128012,-0.07334226743413563, ,0.05230143130130064, ,0.08921058790149607, ,0.000768504698499646, ,0.223588562174548,-0.20822032375484123,0.10291116681000001,1.7922199469622295,0.8426372940534712,-1.2401609615875777, ,0.08287942494189587,0.09294509457244934,0.0515495518446602,0.0,0.15609447762036704,-0.15232873629998223, ,1.3445231914520264
0.013836146384545982,0.020767788121362103,-0.09054886816077387, ,0.01478973046056549,0.02017444084102958,-0.09172073319156224, ,0.0016231608778862912, ,0.01883064993264852,0.0011627729886101068,-0.051567275625480864,0.06378162338801534,0.05361791510789651,0.025501729566112796, ,0.054910193346438964, ,0.08332233588277152, ,0.0007739139148248778, ,0.223588562174548,-0.20822032375484123,0.10291116681000001,1.7922199469622295,0.8426372940534712,-1.2401609615875777, ,0.08287942494189587,0.09294509457244934,0.0515495518446602,0.0,0.15609447762036704,-0.15232873629998223, ,1.3470261096954346
0.013836146384545982,0.020767788121362103,-0.09054886816077387, ,0.014827896912841348,0.020169327208109523,-0.09180270526293864, ,0.0017069950362640768, ,0.01883064993264852,0.0011627729886101068,-0.051567275625480864,0.06378162338801534,0.05361791510789651,0.025501729566112796, ,0.054910193346438964, ,0.08332233588277152, ,0.0007797823495509106, ,0.22410598527712106,-0.20764111878927438,0.10322875786,1.7913811871882916,0.8435937495518293,-1.2411859231338742, ,0.08893808955807946,0.09968166130091469,0.0539959712542373,-0.12993368059552213,0.17492093348048227,-0.19927161518291164, ,1.3493411540985107
0.013836146384545982,0.020767788121362103,-0.09054886816077387, ,0.014866079659731378,0.02016420904757765,-0.09188454069866248, ,0.0017913936971292496, ,0.01883064993264852,0.0011627729886101068,-0.051567275625480864,0.06378162338801534,0.05361791510789651,0.025501729566112796, ,0.054910193346438964, ,0.08332233588277152, ,0.0007861049204732752, ,0.22410598527712106,-0.20764111878927438,0.10322875786,1.7913811871882916,0.8435937495518293,-1.2411859231338742, ,0.08893808955807946,0.09968166130091469,0.0539959712542373,-0.12993368059552213,0.17492093348048227,-0.19927161518291164, ,1.3510551452636719
0.013836146384545982,0.020767788121362103,-0.09054886816077387, ,0.014904278337689274,0.020159086613112342,-0.09196623929662885, ,0.0018762633962815763, ,0.01883064993264852,0.0011627729886101068,-0.051567275625480864,0.06378162338801534,0.05361791510789651,0.025501729566112796, ,0.054910193346438964, ,0.08332233588277152, ,0.0007928760911304696, ,0.22410598527712106,-0.20764111878927438,0.10322875786,1.7913811871882916,0.8435937495518293,-1.2411859231338742, ,0.08893808955807946,0.09968166130091469,0.0539959712542373,-0.12993368059552213,0.17492093348048227,-0.19927161518291164, ,1.3527350425720215
0.013836146384545982,0.020767788121362103,-0.09054886816077387, ,0.014942492584283052,0.020153960157757934,-0.09204780085580838, ,0.001961526422666419, ,0.01883064993264852,0.0011627729886101068,-0.051567275625480864,0.06378162338801534,0.05361791510789651,0.025501729566112796, ,0.054910193346438964, ,0.08332233588277152, ,0.0008000899820658767, ,0.22410598527712106,-0.20764111878927438,0.10322875786,1.7913811871882916,0.8435937495518293,-1.2411859231338742, ,0.08893808955807946,0.09968166130091469,0.0539959712542373,-0.12993368059552213,0.17492093348048227,-0.19927161518291164, ,1.3545730113983154
