NicholasDascanio/dvrk_moveit_final/test/execution/third_experiment_notsharpbends/thirdexp_700vel4.0/thirdexp_700vel4.0_16.csv
Current Position (x),Current Position (y),Current Position (z), ,Planned Position (x),Planned Position (y),Planned Position (z), ,Position Error,,Cartesian linear Velocity(x),Cartesian linear Velocity(y),Cartesian linear Velocity(z),Cartesian Angular Velocity(x),Cartesian Angular Velocity(y),Cartesian Angular Velocity(z), ,Total Linear Velocity, ,Total Angular Velocity, ,MSE, ,Joint 1 Position,Joint 2 Position,Joint 3 Position,Joint 4 Position,Joint 5 Position,Joint 6 Position, ,Joint 1 Velocity,Joint 2 Velocity,Joint 3 Velocity,Joint 4 Velocity,Joint 5 Velocity,Joint 6 Velocity, ,Time Stamp
0.009431997397012268,0.020347289498004555,-0.0785869646161544, ,0.00958504509495722,0.020285675695936183,-0.07864541074613537, ,0.0001750308788794784, ,1.918098862000319e-05,-5.802129130491608e-06,7.998455458878069e-07,0.012295802955353225,-9.753312540138287e-05,-0.0035415693924837357, ,2.005529306155529e-05, ,0.01229618977681394, ,1.4585906573289866e-05, ,0.171027642232576,-0.24665636526985663,0.08909919686000001,1.676051718271803,0.46784337519686814,-1.2748152831738762, ,0.00024316708343723227,5.205497543657043e-05,0.0,-0.00042702817001378455,0.0,-0.00933884368254101, ,0.016442060470581055
0.009435313720079658,0.0203489183703764,-0.07859609356659943, ,0.009612415444144482,0.02029850517245077,-0.07873494673449369, ,0.00023062244779312817, ,0.00017200257792084227,0.00019437084315936733,-0.0007610558419964936,0.0896100322867492,0.001190615530487514,-0.028042502878499756, ,0.0008040963288803716, ,0.08961794157295412, ,1.8438787576027573e-05, ,0.17103536496545022,-0.2466486425369824,0.08910827089000001,1.676051718271803,0.46770673869710266,-1.277235906214537, ,0.0005077058183716521,-5.48072690716543e-06,0.0008010946961683416,-0.00041878335849962456,0.0,-0.0940939086419279, ,0.036782026290893555
0.009453069507892754,0.020352409215218626,-0.07862035676343268, ,0.009639813911510583,0.02031120504935075,-0.07882423317695189, ,0.0002795296899381212, ,0.0013986521409019056,0.00035507624407638016,-0.0016591008818731207,0.19145189626026318,-0.1191727154665115,-0.09509287574445355, ,0.0021988457623464725, ,0.22551267080432555, ,2.1411969269085243e-05, ,0.17105081043119866,-0.2466254743383597,0.08912901153000001,1.676051718271803,0.46620373719968283,-1.2818911785639968, ,0.0009198930851906654,2.7509916675825152e-05,0.0013815791305564716,-0.0004094461399168248,-0.12657948517892728,-0.20915103626401432, ,0.05309605598449707
0.009472232267852567,0.020356232602711005,-0.07864621179524384, ,0.009667240375375748,0.02032377585870594,-0.07891327087092756, ,0.0003322681930853864, ,0.001958754220599038,0.0005266219029162664,-0.0030706095955094466,0.08465090860717864,-0.1590340591351949,-0.0730532610698109, ,0.0036800396755171513, ,0.18015995196703566, ,2.422502880228843e-05, ,0.17106625589694713,-0.24660230613973705,0.08915104846,1.676051718271803,0.4645640992024975,-1.2831678834041378, ,0.0008291167194632411,0.0020212154018526326,0.0027057604076779346,-0.0004052197100964444,-0.16587430815173204,-0.10170964734538823, ,0.07096409797668457
0.009510068428148707,0.020376530378485018,-0.07874434889139154, ,0.00969469471426393,0.020336218131703953,-0.07900206061244802, ,0.00031957358140987405, ,0.0022956296819059215,0.001340583953163494,-0.005755648979849122,0.23521955495201527,-0.12643479244999176,-0.11485110079528699, ,0.006339919254309568, ,0.2670468044507932, ,2.5712015213576696e-05, ,0.17110486956131823,-0.24657913794111436,0.08924697392000001,1.6756323383848342,0.46237791520625043,-1.288491247337224, ,0.0024084813861126623,0.0009850190045374268,0.0056505184533522535,0.004409580453636406,-0.1344987293405622,-0.25535599653258706, ,0.09021115303039551
0.009559799120771099,0.02040306132096902,-0.07886454486182054, ,0.009722176806902492,0.020348532398650896,-0.07909060319614976, ,0.0002836234948699802, ,0.0016208720463853675,0.0011614456168586268,-0.005241766437549343,-0.06445688879239267,-0.06407745031341576,-0.002758256851166206, ,0.005608234793363446, ,0.09088789879574695, ,2.6139488483483364e-05, ,0.17114348322568937,-0.24654824700961747,0.08936364002000001,1.6756323383848342,0.4592352757116453,-1.2899308938190939, ,0.0023055468101888478,0.001982721309504396,0.005291963960132891,0.004409580453636406,-0.06405833053536765,0.0620310014295289, ,0.10658907890319824
0.009573080531973952,0.02041640578647164,-0.0789262930450697, ,0.009749686532222208,0.020360719188971827,-0.07917889941528078, ,0.0003132102404711673, ,0.0008504574243587083,0.0007731945291137029,-0.0035434279447808057,-0.18567093748480842,0.013686113709902036,0.058282957597913264, ,0.0037251831109828327, ,0.1861746672735294, ,2.6859146200654662e-05, ,0.1711898196229347,-0.2465173560781206,0.08942845452,1.6756323383848342,0.45937191221141077,-1.2880003432192761, ,0.005166105016667896,0.0020605987602019473,0.0037826671859415824,0.004409580453636406,0.02190570880969856,0.19436533741777837, ,0.12646102905273438
0.009583195105503008,0.02043522823619083,-0.07901747369387056, ,0.00977722376935682,0.020372779031211517,-0.07926695006170069, ,0.0003221575448521358, ,0.00051751457096939,0.0009701100907294075,-0.004155906680634449,-0.046246180808882466,0.06938221235024482,0.030787391579666833, ,0.004298894655308815, ,0.08338225607875202, ,2.751239111340575e-05, ,0.17132882881467074,-0.24644785148225257,0.08952956514,1.6756323383848342,0.4614214597078924,-1.2846075298860076, ,0.0053622567683663525,0.0019277012913330928,0.004585150120898101,0.004409580453636406,0.0773439737597706,0.05220160004744334, ,0.14249110221862793
0.009591945164174625,0.020444405972056413,-0.07906230472119365, ,0.009804788397643253,0.020384712453034776,-0.07935475592588258, ,0.00036659687037749687, ,0.0010112999859731315,0.0010634158810905266,-0.005169270965180836,-0.03381335126330143,0.026062768930114236,0.013457975568367234, ,0.0053735410400634715, ,0.04269204427371586, ,2.850666240953009e-05, ,0.1713828879447903,-0.24641696055075565,0.08957752787,1.6756323383848342,0.4618313692071887,-1.2846967473766753, ,0.0046117324165396495,0.0035704661374252366,0.005473818391752578,0.004409580453636406,0.03132784789645816,0.03451609686422967, ,0.1598970890045166
0.009619988719474441,0.020469220120184237,-0.07918392238691371, ,0.00983238029662142,0.020396519981227323,-0.07944231779691302, ,0.00034229180556368205, ,0.0014049864269309244,0.0009878997785255444,-0.00533698952967391,0.05584426136828058,-0.003778981037339872,-0.02342461187150556, ,0.005606548855768573, ,0.05597197710568629, ,2.9067693600396574e-05, ,0.17148328347215525,-0.2463397332220134,0.08970456429000001,1.6756323383848342,0.4619680057069542,-1.2857883101620584, ,0.005922980120858225,0.004789140414495625,0.00554817538140021,0.004204510698797106,0.0,-0.06269705649439113, ,0.1777050495147705
0.009654248538037804,0.020489351100205815,-0.07929221698823344, ,0.009859999346033798,0.020408202141696145,-0.07952963646249363, ,0.0003244788979520754, ,0.0016041131528678333,0.000979461097370028,-0.005077947195479503,-0.009424227898018974,-0.008061955830811145,-0.0026516480385414686, ,0.005414616400867473, ,0.012402064340884944, ,2.9369496832076124e-05, ,0.1716609063282624,-0.24624706042752273,0.08981734152000001,1.6756323383848342,0.4618313692071887,-1.2864936796597677, ,0.008917777398512882,0.004173741206076366,0.005320244328657315,0.00396628077160218,0.0,0.006250450303616791, ,0.1954641342163086
0.009687047779090482,0.02050881487698824,-0.07939547008113554, ,0.009887645425825677,0.020419759459470138,-0.07961671270894187, ,0.0003116385464342822, ,0.0013942096031762845,0.0008275715319856057,-0.004842298008818701,-0.008637704734023598,-0.005972230663682735,-0.0031862579976938156, ,0.005106519858411551, ,0.010501308466572271, ,2.9516575341203346e-05, ,0.17183080645149534,-0.24616211036590624,0.08992493359,1.6756323383848342,0.4616947327074232,-1.28621890427579, ,0.006811209080739011,0.005172200900155282,0.005031210208464941,0.003759440305254609,0.0,0.004361161264992746, ,0.21671319007873535
0.009699642240218775,0.02051616746662202,-0.07943916208230317, ,0.00991531841614474,0.02043119245870078,-0.07970354732119243, ,0.00035161985065663515, ,0.0012180280878945824,0.0006706721650598819,-0.004175505444136218,-0.007587188755123501,-0.005226304416528696,-0.0033408569017946118, ,0.00440093618334752, ,0.009213017409668529, ,2.994425789608669e-05, ,0.17189258831448914,-0.2461157739686609,0.08997030374000001,1.6756323383848342,0.4616947327074232,-1.28621890427579, ,0.006059199642638001,0.004986467619852968,0.004329657928784997,0.0036677773488783885,0.0,0.0034371190033444304, ,0.23306703567504883
0.009722423388655388,0.02052770827031831,-0.0795190572306628, ,0.009943018197341107,0.02044250166266259,-0.07979014108279768, ,0.0003597341942261971, ,0.0013086791277315288,0.0007332179783109659,-0.004487300168489009,-0.006818615568023361,-0.005686573065761072,-0.003519410239343876, ,0.00473139646036982, ,0.008878661480050957, ,3.0368846735983383e-05, ,0.17201615204047674,-0.24600765570842176,0.0900532663,1.6756323383848342,0.4618313692071887,-1.2864120009196272, ,0.0064964173896030685,0.005179684141315054,0.00465618577024262,0.0034996531073643406,0.0,0.0024044297747870644, ,0.25167417526245117
0.009751671776549382,0.02054335569427703,-0.07961512105235193, ,0.009970744649967118,0.02045368759375365,-0.07987649477592892, ,0.00035263226666809794, ,0.0014482765732705951,0.0007891471628757062,-0.004935807708029851,-0.00696179098477791,-0.00645727327245898,-0.0036571930428227362, ,0.005204080707291739, ,0.00949541515161206, ,3.0690845415643015e-05, ,0.17217060669796122,-0.2458995374481826,0.09015308063000001,1.6756323383848342,0.4618313692071887,-1.2864120009196272, ,0.007237917123733465,0.005866058334144735,0.0051185126992287925,0.0033383691822227377,0.0,0.0018188513073657592, ,0.2686350345611572
0.009779185706709093,0.020557123670016008,-0.07971187781313953, ,0.00999849765477709,0.02046475077349653,-0.07996260918137721, ,0.0003456829495290695, ,0.0012309115062768756,0.0006480888415265548,-0.004413286508655378,-0.00667659219227289,-0.004916718500487078,-0.003629795938139101, ,0.004627338337562493, ,0.008291622425119138, ,3.093019415251116e-05, ,0.17230189315682304,-0.24576825098932079,0.09025289496000001,1.6756323383848342,0.4618313692071887,-1.2864120009196272, ,0.005668396212955074,0.005892945390949453,0.004554993285673435,0.00319532467599191,0.0,0.0014681436573295498, ,0.2853879928588867
0.009789511669186842,0.020562867161398893,-0.07974952460403097, ,0.010026277092727404,0.020475691722538474,-0.0800484850785549, ,0.00039119661073739454, ,0.0016056712580095357,0.0010054568782288278,-0.005421232898936635,-0.005362452065785359,-0.007373412135409876,-0.0033836377429694434, ,0.005742724951387494, ,0.009117186736807583, ,3.15899886751123e-05, ,0.17243317961568486,-0.24566013272908166,0.09036048703,1.6756323383848342,0.4618313692071887,-1.2864120009196272, ,0.008097671428383206,0.004764990110197589,0.005658547609236235,0.003066807445745718,0.0,0.0012338322955534353, ,0.30550718307495117
0.00982171231800539,0.02058348271808727,-0.07986495931964878, ,0.010054082844976315,0.020486510960652043,-0.08013412324549551, ,0.00036857672542097564, ,0.0014558744987941458,0.0008514585112306634,-0.0046754825093787995,-0.004200776164003559,-0.006443198102611683,-0.003267011375020191, ,0.0049703811572245965, ,0.007691639612937355, ,3.205813771591766e-05, ,0.1725104069444271,-0.2456137963318363,0.09041233863,1.6756323383848342,0.4619680057069542,-1.2865234188233234, ,0.007923379095171722,0.004338012027771527,0.004887637778459651,0.0030044042024375455,0.0007861490719928599,0.0004981545319855995, ,0.32035017013549805
0.009846138596809042,0.020596520077346907,-0.07995367597324435, ,0.010081914792883557,0.020497209006736093,-0.08021952445885629, ,0.0003689559874610994, ,0.001244283914901375,0.0007651883096582145,-0.004671092242910549,-0.0019485658917612063,-0.0006718067620083006,-0.0033130818972391543, ,0.004894165746263503, ,0.0020611237556811537, ,3.248370781125015e-05, ,0.1726339706704147,-0.24549795533872293,0.09050437522,1.6756323383848342,0.4621046422067196,-1.2867165154671605, ,0.005692677358075597,0.005273836104536838,0.004850429817295981,0.0028987433962020456,0.0044270383322393,-0.0026082201025356333, ,0.3373081684112549
0.00985516546229925,0.02060097347354006,-0.07998373263929394, ,0.010109772818010574,0.020507786378815777,-0.08030468949391736, ,0.0004201452638495727, ,0.0012698283863699542,0.0005844831473095138,-0.004137114565053611,-0.0024652501234923973,-0.002128262839155578,-0.00338631599247689, ,0.004366898396424914, ,0.0032568327669610813, ,3.312912141502955e-05, ,0.17268030706766005,-0.24545934167435182,0.09053548618000001,1.6756323383848342,0.4621046422067196,-1.2867165154671605, ,0.00714051777338484,0.005834806037076282,0.0042946377783769215,0.0028605829520026195,0.0044270383322393,-0.0026523122263227266, ,0.3522651195526123
0.00989219206415598,0.020622190663316737,-0.08011187096458275, ,0.010137656802120297,0.020518243594043407,-0.08038961912458464, ,0.00038497009127832734, ,0.001858767573493135,0.001215980519821462,-0.006196525580150309,-0.002346414921326833,-0.006171121942756327,-0.0031161388601395152, ,0.006582594836560425, ,0.006602151155472461, ,3.3548483726831775e-05, ,0.17287337538951564,-0.24532033248261578,0.09066641147000001,1.6756323383848342,0.46224127870648507,-1.2868279333708568, ,0.009780331375171303,0.00462207961429758,0.006483032771672773,0.0027339949497088107,0.0030236711756506454,-0.0016365737657348723, ,0.36763715744018555
0.009908521085815053,0.020633535923669944,-0.08016835228558267, ,0.010165566627176662,0.020528581168699288,-0.08047431412338887, ,0.00041315923942057117, ,0.0018985836686853576,0.0012098620730778612,-0.0061767034617911725,-0.0005688646410542456,-0.004828443079022687,-0.003061209185021252, ,0.006574195908076824, ,0.004861837158596085, ,3.40634044947905e-05, ,0.17296604818400635,-0.24528171881824465,0.09072863339000001,1.6756323383848342,0.46237791520625043,-1.2869393512745533, ,0.010507901106060962,0.0046613678051131025,0.006490958239608803,0.0026882510628002806,0.005148618226352516,-0.0034102010865299116, ,0.3861072063446045
0.009944698217237456,0.020653125469247774,-0.08028757895085009, ,0.010193502175344947,0.020538799618191755,-0.08055877526148869, ,0.0003853845465163662, ,0.0015841845585427504,0.0008397447123530724,-0.005073688316881419,0.002251956718657334,0.0006057693256904709,-0.003105439268977487, ,0.00538118249405363, ,0.002332008185339231, ,3.4413688521738285e-05, ,0.1731668392387362,-0.24515043235938283,0.09085307723000001,1.6756323383848342,0.4625145517060159,-1.2870507691782498, ,0.009445570676162607,0.005684204025126426,0.0053166927636849135,0.002595488886763912,0.009636205468979588,-0.0071447939313000275, ,0.4012119770050049
0.009961650969468498,0.0206607150153186,-0.080337385667835, ,0.010221463328991445,0.020548899457058217,-0.08064300330866954, ,0.00041642204987155513, ,0.0017087617804443607,0.0008071982275545163,-0.005234355784178198,0.0003784670890851741,-0.0016866168418514147,-0.0032103257365799047, ,0.00556506210892873, ,0.0017285571380282311, ,3.4869666526763545e-05, ,0.17337535302634025,-0.24502686863339523,0.09095937301000001,1.6756323383848342,0.4625145517060159,-1.2870507691782498, ,0.010466189650211843,0.006540772624656276,0.005473818391752578,0.002510976881033728,0.00835742980945207,-0.006162987019929898, ,0.4163050651550293
0.009989197881055165,0.020673012981542296,-0.08041780694366901, ,0.01024944997068315,0.020558881198965342,-0.0807269990333463, ,0.00041994876148041807, ,0.0018325854361732777,0.0007781842581142236,-0.004952415201388001,-0.003308430893724927,-0.008156372439862475,-0.0031845629060630125, ,0.005337635848143833, ,0.00880182500264579, ,3.5306381599765794e-05, ,0.17344485762220826,-0.24498825496902413,0.09098918768000001,1.6756323383848342,0.4626511882057813,-1.2871621870819463, ,0.01206903803861771,0.0060581868425792955,0.005191920312907433,0.002487902837019776,0.0033915025609848838,-0.002129199529800322, ,0.43251705169677734
0.010029859290781925,0.02068720149336361,-0.08052572803480432, ,0.010277461983187991,0.020568745356710223,-0.08081076320256333, ,0.00039570695780715066, ,0.0016703834608071896,0.00046144911159780826,-0.004416007914324789,0.00019342186591202187,-0.0015236210957341849,-0.0033809818007701727, ,0.004743863624527141, ,0.0015358488148897351, ,3.5615705105358084e-05, ,0.17372287600568034,-0.2448260775786654,0.09110196491000001,1.6756323383848342,0.4627878247055468,-1.2872736049856426, ,0.011940551344513849,0.008167118424454741,0.004585150120898101,0.002395759784081495,0.00998107890268885,-0.00756031084609273, ,0.4482910633087158
0.010048902083348663,0.020693801277066253,-0.08057903835461577, ,0.010305499249474355,0.020578492442220205,-0.08089429658199583, ,0.0004225233520033012, ,0.0019245638745432317,0.0008457869819348771,-0.005765449460904907,-0.0014761327116798366,-0.004020759109123492,-0.0033028177210103543, ,0.006136750704750523, ,0.0042831606584044155, ,3.6006440760741524e-05, ,0.17385416246454216,-0.24474112751704893,0.09115770538000001,1.6756323383848342,0.4629244612053123,-1.2873850228893389, ,0.011798742091677493,0.007649928410379574,0.006017684744994334,0.0023573624555948652,0.007370979239311385,-0.005454227048057048, ,0.4631919860839844
0.010089390113192497,0.02071391928123194,-0.08070077473963719, ,0.010333561652711145,0.020588122966554146,-0.08097759993595087, ,0.0003899700537368609, ,0.002042517240618536,0.0009930433603844886,-0.0063204847205004045,-0.0023855621842313857,-0.0053323316438562435,-0.003250945224111707, ,0.006716140178399104, ,0.00584163141666263, ,3.6250559601075555e-05, ,0.17408584445076888,-0.24460984105818712,0.09128474180000001,1.6756323383848342,0.4629244612053123,-1.2873850228893389, ,0.011887378373853286,0.007546677497667319,0.006598513471416737,0.0022898535454235424,0.006138281304514503,-0.004485907515429063, ,0.48284912109375
0.010126108742003532,0.020725172520747816,-0.080802662477449, ,0.010361649076267538,0.020597637439902495,-0.08106067402736797, ,0.00037190644764915513, ,0.0016233247935625913,0.00048205200378560455,-0.004208560634752275,0.002777902803881457,-0.0008781772847165175,-0.003455674300204413, ,0.004536467803934601, ,0.0029134065989694547, ,3.641418473096615e-05, ,0.1743406946356183,-0.24443221820207994,0.09139103758000001,1.6756323383848342,0.4631977342048431,-1.287771216177013, ,0.011714636009312095,0.007267339497518607,0.00440509168141593,0.0022218137002789724,0.010505570164201115,-0.009333691546751552, ,0.49842119216918945
0.010142299189030531,0.020729869040777428,-0.08084386230814605, ,0.010389761403712967,0.02060703637158825,-0.08114351961782065, ,0.0004075781097619123, ,0.0017072047032029376,0.0004961416623516396,-0.0046150351761262585,0.0012748507915559682,-0.0015555261287446894,-0.0036181954290176125, ,0.004945629800605986, ,0.002011194665970486, ,3.669144322813009e-05, ,0.17444881289585745,-0.24436271360621192,0.09143381515000001,1.6756323383848342,0.4631977342048431,-1.287771216177013, ,0.011790444164789807,0.008284339704132027,0.00480797208572291,0.002193098283282362,0.009898281320006903,-0.008852283414693693, ,0.5154070854187012
0.010179604011125448,0.02074392004292376,-0.08094950566019785, ,0.010417898518816807,0.020616320270067236,-0.08122613746751711, ,0.0003867701271422442, ,0.001787495698104948,0.0008092962840186184,-0.005399529676406578,-0.0037083107914880086,-0.007550430462251547,-0.003432723405949101, ,0.005744999745210208, ,0.008411929891642675, ,3.6881837632470406e-05, ,0.1746882176149584,-0.24420825894872744,0.09154399980000001,1.6756323383848342,0.46333437070460853,-1.2878826340807095, ,0.01029952555148641,0.006850331011500336,0.00562259495940699,0.0021316069251614144,0.002267246331734941,-0.0026578575043907774, ,0.5316421985626221
0.010214263451864141,0.02075542448491013,-0.08105073945464086, ,0.010446060305548567,0.020625489642928933,-0.08130852833530132, ,0.00037022689196065863, ,0.0018005418424381688,0.0005517571448843885,-0.004780297650163035,-0.0027610558586418444,-0.004927241737394769,-0.0035999796218233607, ,0.005421515952213516, ,0.010149451553159834, ,3.700696950589664e-05, ,0.1749044541354367,-0.24403835882549452,0.09164899929,1.6756323383848342,0.463471007204374,-1.287994051984406, ,0.010564985036329466,0.008390707930408702,0.0049529886567164175,0.002075708739356822,0.005232200395273589,-0.005055998813567805, ,0.5469691753387451
0.010214263451864141,0.02075542448491013,-0.08105073945464086, ,0.010474246648077237,0.0206345449968968,-0.08139069297865362, ,0.0004447150901692369, ,0.0016779992744544567,0.0005194947605622526,-0.004780297650163035,-0.0027610558586418444,-0.004927241737394769,-0.0035999796218233607, ,0.005092818669015769, ,0.005648109249748307, ,3.736142145705907e-05, ,0.1749044541354367,-0.24403835882549452,0.09164899929,1.6756323383848342,0.463471007204374,-1.287994051984406, ,0.010564985036329466,0.008390707930408702,0.0049529886567164175,0.002075708739356822,0.005232200395273589,-0.005055998813567805, ,0.5657720565795898
0.010269802958544988,0.020775604161247664,-0.08121173709471763, ,0.010502457430771672,0.020643486837829204,-0.08147263215369249, ,0.0003736968321940022, ,0.0016155500942100943,0.0005609783930996728,-0.00456469706186463,0.0012912437533842377,-0.0014256671543435436,-0.003252325868312312, ,0.004874541838062581, ,0.0019234955897604563, ,3.759301731011644e-05, ,0.17524425438190258,-0.24379123137351932,0.0918162207,1.6756323383848342,0.4636076437041394,-1.2881054698881023, ,0.010589519184453998,0.007276866331553792,0.004761976538116592,0.001991976272566441,0.008856390952580478,-0.007930554323291178, ,0.582374095916748
0.010284945516118166,0.020778959878832076,-0.08125287455771368, ,0.01053069253820028,0.020652315670719616,-0.08155434661517466, ,0.0004090424864734891, ,0.0015554775581922268,0.00026701648926043893,-0.003988554607549629,-0.006207805105834758,-0.008051678317525365,-0.0036126566700617445, ,0.004289449393218434, ,0.010166925147334503, ,3.792020265148368e-05, ,0.1753523726421417,-0.24370628131190286,0.09185899827,1.6756323383848342,0.4637442802039049,-1.2882168877917985, ,0.010394660856389848,0.008927697401733627,0.004102191995879475,0.0019675832976177106,0.001896122707409316,-0.0022332434694813225, ,0.5951120853424072
0.010300466026175507,0.02078138494449869,-0.08129337567339825, ,0.010558951855130599,0.020661031999697387,-0.08163583711649673, ,0.0004456227048771614, ,0.0015172486035041535,0.0003007488196810132,-0.0038775942753872714,-0.005517090945499681,-0.007824631236893757,-0.0034567050051591284, ,0.00417471322870098, ,0.009574087195010664, ,3.8339851865835576e-05, ,0.17545276816950664,-0.24361360851741215,0.09190047955000001,1.6756323383848342,0.4637442802039049,-1.2882168877917985, ,0.010161013725680158,0.0082016991663378,0.003999199477780568,0.001942676683458405,0.001896122707409316,-0.0022119787325732185, ,0.6101541519165039
0.010333001234817587,0.020794325432782586,-0.08139530685925302, ,0.010587235266529516,0.02066963632802857,-0.08171710440969619, ,0.00042864435047727876, ,0.001686798627334671,0.00099286513762901,-0.006005448401068347,0.004096686925481174,0.002954683223358985,-0.0029561774900648823, ,0.006316366145861999, ,0.0050510383986302875, ,3.8691222285289736e-05, ,0.17565355922423648,-0.24345915385992767,0.09200677533000001,1.6756323383848342,0.46401755320343574,-1.2884397235991916, ,0.008565193646075352,0.006408812006261246,0.0062736555809373784,0.0018962110070687224,0.011287997237268456,-0.009832567189803403, ,0.6273181438446045
0.010370345105402344,0.020810983978261952,-0.08151773537284748, ,0.010615542657563185,0.020678129158115822,-0.08179814924545178, ,0.0003954796869254728, ,0.0018710741694817987,0.0007262599064694235,-0.005868935142940677,-0.006245023090080264,-0.007610753762970389,-0.0034955151494397802, ,0.0062026423169074555, ,0.009844992598940899, ,3.8933334704002844e-05, ,0.17585435027896631,-0.24328925373669472,0.09213381175,1.6756323383848342,0.4641541897032012,-1.288551141502888, ,0.010133715323183372,0.00903986169590582,0.006065807890327494,0.0018512842383809414,0.0021109925383921615,-0.00231498927414907, ,0.6407241821289062
0.010388938760175083,0.020817434921068946,-0.0815716186073509, ,0.01064387391359648,0.02068651099149978,-0.08187897237308508, ,0.0004202372485808519, ,0.0020078133636787818,0.0007069641541430549,-0.005645203526354265,-0.005894113933075616,-0.009717338081687135,-0.0034071478837608337, ,0.006033194483237959, ,0.01136517631700762, ,3.923297815014287e-05, ,0.17596246853920544,-0.24320430367507825,0.09218955222000001,1.6756323383848342,0.4641541897032012,-1.288551141502888, ,0.012234956689091043,0.008665907894493315,0.005862646860507914,0.0018309769312231628,0.0021109925383921615,-0.002300092224409209, ,0.6542050838470459
0.010406986692977559,0.02082385542792795,-0.0816250542025096, ,0.010672228920193278,0.02069478232885906,-0.08195957454056141, ,0.0004460013010876784, ,0.002009652353790076,0.000777489011269134,-0.00593523819861789,0.0016525910236841284,-0.0011008397166348452,-0.0032721886442780377, ,0.006314288892668056, ,0.0019856731372450333, ,3.958914385334108e-05, ,0.17607830953231882,-0.2431193536134618,0.09224658898000002,1.6756323383848342,0.46429082620296663,-1.2886625594065844, ,0.012517734013780606,0.008746215595271606,0.006205224589014414,0.0018110468312553594,0.011205212909785394,-0.009701676282485862, ,0.6691381931304932
0.010449737119339112,0.020842881360145032,-0.08176180532093719, ,0.010700607563116067,0.02070294367001118,-0.08203995649449028, ,0.0003998582399173575, ,0.002018143159860045,0.0007956232145629586,-0.006173518807840602,-0.004172545263274115,-0.006343339910479171,-0.003382213170185767, ,0.006543565739258911, ,0.007592633681839534, ,3.9808524035638256e-05, ,0.176325436984294,-0.2429340080244804,0.09238788459000001,1.6756323383848342,0.4645640992024975,-1.2888853952139772, ,0.011438107908802356,0.009125985744335053,0.0064048297225572995,0.0017683853844597374,0.004759554506807149,-0.004416530925599898, ,0.6826140880584717
0.010468661759648612,0.020848330907852382,-0.08181723845505423, ,0.010729009728325805,0.02071099551391292,-0.08212011898012739, ,0.00042234901170884687, ,0.001884034828060712,0.0005396997180598025,-0.005531044805963001,-0.005226031329608883,-0.00609821463830851,-0.003547042240346316, ,0.005867991109791313, ,0.008031165547816691, ,4.0076949925622084e-05, ,0.17643355524453314,-0.2428336124971155,0.09244492135000001,1.6756323383848342,0.4645640992024975,-1.2888853952139772, ,0.011188038382276676,0.01018146195472759,0.005707205847366536,0.0017497684846685209,0.004759554506807149,-0.004404308631390595, ,0.6959540843963623
0.010488423842243381,0.020854717392108157,-0.08187366952841058, ,0.010757435301982221,0.020718938358660937,-0.0822000627413742, ,0.0004442247639015666, ,0.001996775400704049,0.0006039174338791592,-0.005497864923373991,-0.004453670629842014,-0.007504211103285788,-0.0033858892225423747, ,0.005880335618267558, ,0.008726302844774091, ,4.038988451928433e-05, ,0.1765493962376465,-0.24274093970262478,0.09250325440000001,1.6756323383848342,0.4645640992024975,-1.2888853952139772, ,0.01258899965998417,0.009382222416826323,0.005705161719197709,0.001730672695947485,0.004759554506807149,-0.004392072844700636, ,0.7116401195526123
0.010529332059593614,0.020869161396292357,-0.0819916058437755, ,0.01078588417044286,0.020726772701492636,-0.08227978852078113, ,0.0004112697184501962, ,0.002030807099009198,0.0006396422477239605,-0.00563812039833881,-0.0009887454257585062,-0.0033160677131585116,-0.0013277696865905241, ,0.006026750476386399, ,0.0034603347956340953, ,4.0608620604385876e-05, ,0.17681196915537015,-0.24254787138076916,0.09262640195,1.6758420283283186,0.46483737220202836,-1.2891899097615105, ,0.013192957258233114,0.009316098940962487,0.00587345557522124,-8.217477977183645e-05,0.010114538665498338,-0.007929057333207317, ,0.725628137588501
0.010551287994182429,0.02087518808114274,-0.08204918482899998, ,0.010814356220263758,0.020734499038786255,-0.08235929705954556, ,0.00043031139160696133, ,0.0019589744233244884,0.00044137948846236056,-0.005341394803100206,-0.0035974370782788116,-0.00439337400776881,-0.001591223408738576, ,0.005706390723273398, ,0.005678317035572717, ,4.0865171521105766e-05, ,0.17695097834710619,-0.24244747585340426,0.09268603129000001,1.6758420283283186,0.46483737220202836,-1.2891899097615105, ,0.012803149157915646,0.010692378337765329,0.0055250820395421445,-8.435573451296055e-05,0.00861646357043081,-0.006712892377779155, ,0.7384090423583984
0.010590716508555649,0.020885920861528278,-0.08215881309162412, ,0.010842851338198883,0.020742117866061886,-0.08243858909751559, ,0.00040314499537624137, ,0.0020457187358360446,0.0005270884976763628,-0.005390764624034957,-0.0014681417609470975,-0.003906771059847367,-0.0014252213466433232, ,0.005789916291474351, ,0.004173523186922281, ,4.1047089476254675e-05, ,0.17721355126482982,-0.24224668479867442,0.09280010481,1.6758420283283186,0.46511064520155926,-1.2894127455689035, ,0.013847503510648005,0.00987380787819101,0.00561071205353998,-9.233222966480358e-05,0.010181757956300422,-0.007998927817970755, ,0.7528741359710693
0.010612365367410871,0.020890736897748216,-0.08221755202881188, ,0.010871369411199991,0.020749629677981798,-0.08251766537318914, ,0.00042078778694565826, ,0.002141821723604868,0.0006865892304521807,-0.00601752629877239,0.001479285722685788,-0.0006698290357823948,-0.0009230426576141917, ,0.0064241285652994196, ,0.001623868620388774, ,4.1263508846595706e-05, ,0.17736028318944008,-0.24213856653843527,0.09286103044,1.6756323383848342,0.46524728170132473,-1.2895241634726, ,0.01398422363077966,0.0098379904559943,0.006278601308632244,-0.0005648650870162271,0.01374091502334076,-0.010905991920557261, ,0.7670590877532959
0.010654205985153733,0.020902722253535056,-0.08232758045724199, ,0.010899910326416693,0.020757034968351087,-0.08259652662371637, ,0.0003923358877811283, ,0.002013194535061439,0.000376277458982197,-0.005084935174842362,-0.00129702827127608,-0.0034047126201350946,-0.0011855593460838281, ,0.005481888606537756, ,0.0036433977222645087, ,4.140656129948849e-05, ,0.17762285610716372,-0.2419532209494539,0.09297510396000001,1.6756323383848342,0.46524728170132473,-1.2894424847324593, ,0.014148940145887995,0.01067163204025617,0.00527968562147829,-0.0005648650870162271,0.011111750501317587,-0.00902644118340706, ,0.7806000709533691
0.010677405744540309,0.020909529509361032,-0.08239315637930215, ,0.010928473971196229,0.020764334230118316,-0.08267517358489954, ,0.000404537548076164, ,0.00206817299814154,0.0006591279818555288,-0.005952699906579619,0.002567185841340433,0.0010858038169209879,-0.0010053828973602922, ,0.006336120692071744, ,0.0027873653507441325, ,4.1571990323597425e-05, ,0.17778503349752245,-0.24183737995634053,0.09304380733,1.6756323383848342,0.4655205547008556,-1.289665320539852, ,0.01329088817345529,0.009911482016209307,0.006205224589014414,-0.0005648650870162271,0.014820836011448249,-0.01205095171228447, ,0.7947452068328857
0.010698589377198846,0.02091580413985203,-0.08244940338092109, ,0.01095706023308323,0.020771527955376026,-0.08275360699119409, ,0.00042445569527535754, ,0.0022589230793544916,0.0006632564164355454,-0.00610345046989028,0.001827994906207849,-0.0011730093494762043,-0.0010866358691455913, ,0.006541769652837616, ,0.0021719824679778273, ,4.186854979695337e-05, ,0.17791631995638427,-0.24174470716184981,0.09310214038,1.6756323383848342,0.4655205547008556,-1.289665320539852, ,0.015173799417727977,0.010335599569375565,0.006374074237695079,-0.0005648650870162271,0.014437075229884617,-0.011738336413310513, ,0.8083631992340088
0.010722352207881144,0.020923245453564148,-0.08251526245466512, ,0.010985668999819627,0.020778616635361267,-0.08283182757571078, ,0.0004364249120228961, ,0.002026140144606746,0.0005421172723062932,-0.0055014415287471955,-0.0033526287130122012,-0.005593251784646151,-0.0011009981453792513, ,0.005887698524614193, ,0.006521087315342323, ,4.218221514365845e-05, ,0.17807077461386875,-0.2416365889016107,0.09317084375000001,1.6756323383848342,0.46565719120062105,-1.2897767384435486, ,0.013022772273702592,0.009880567595778095,0.005711298501254931,-0.0005648650870162271,0.007725769293737712,-0.006276538675301193, ,0.8196680545806885
0.0107440695722054,0.020927260028816553,-0.08257066009379324, ,0.01101430015934466,0.02078560076045649,-0.08290983607021532, ,0.000456215148279634, ,0.002147843916991043,0.00037740821778905,-0.005497577223357469,-0.006149021636931976,-0.008030672919417628,-0.0014521991948048595, ,0.0059143068724398255, ,0.010114453500232067, ,4.252906782097316e-05, ,0.1782097838056048,-0.2415207479084973,0.09322788051000001,1.6756323383848342,0.46565719120062105,-1.2897767384435486, ,0.01434138454865812,0.011754854646162613,0.0056787206844919795,-0.0005648650870162271,0.006583093527334378,-0.0053531227571277555, ,0.8310070037841797
0.010764585770301753,0.020931883610160858,-0.08262553130071937, ,0.011042953599794621,0.02079248082018955,-0.08298763320512992, ,0.0004775348945638446, ,0.002361509449511825,0.0008138150168350692,-0.0067090639043896295,0.0032284206224009555,0.0003967954072568937,-0.0010799092085299086, ,0.00715894966003699, ,0.003252711594584052, ,4.2910875506359644e-05, ,0.17848007945620264,-0.2413276795866417,0.09334325032000002,1.6756323383848342,0.46606710069991736,-1.2901109921546379, ,0.015161677833275409,0.010300523928954955,0.007014007714663145,-0.0005648650870162271,0.016026117276854365,-0.013066612938447204, ,0.8425731658935547
0.010811702000595358,0.020948220023076898,-0.08276042197250762, ,0.01107162920950279,0.02079925730323487,-0.08306521970953457, ,0.00042738004905457544, ,0.0024564231177338102,0.0008314322241153256,-0.00709443959513667,0.005496011034071194,0.003445654841793407,-0.0011984330956584348, ,0.007553566524872698, ,0.006486806348554904, ,4.3176574084832564e-05, ,0.17865770231230982,-0.2412041158606541,0.09342621288000001,1.6756323383848342,0.46620373719968283,-1.2902224100583342, ,0.015795096797348664,0.011212987507650674,0.007415647821229051,-0.0005648650870162271,0.019786009029581286,-0.016139575141064455, ,0.8560290336608887
0.01083809394443882,0.020955895212245414,-0.08283042349878923, ,0.011100326876999016,0.020805930697413728,-0.08314259631116723, ,0.00043440457112674534, ,0.002261689112770385,0.0006381742160733103,-0.006388529630811483,0.005356696710900028,0.004265540372593378,-0.0012277412679390575, ,0.0068070415612541384, ,0.006847556037101788, ,4.344908656428188e-05, ,0.17881987970266852,-0.24108827486754075,0.09349880512000001,1.6756323383848342,0.46620373719968283,-1.2902224100583342, ,0.014975057844164554,0.011360821448398275,0.0066647746945606694,-0.0005648650870162271,0.019786009029581286,-0.01614540411890024, ,0.8674709796905518
0.010859110687554328,0.02096118399314297,-0.0828917781635041, ,0.011129046491010052,0.02081250148969479,-0.08321976373642603, ,0.00045005150912293964, ,0.0022913490296568324,0.000636422926972009,-0.006611313546543351,0.0008238310189936026,0.00018507333144627392,-0.0007498680942672739, ,0.007026007495611754, ,0.0008443560000607, ,4.374564734308872e-05, ,0.17895116616153034,-0.2409801566073016,0.09356232333,1.6754226484413495,0.4663403736994482,-1.2903338279620307, ,0.014384863052671028,0.011915816536185016,0.00686586703448276,-0.0012353194126632926,0.015176758121482245,-0.012391718254657576, ,0.8791120052337646
0.010908603566076189,0.02097427033245691,-0.08302281386364072, ,0.01115778794045907,0.020818970166194873,-0.08329672271036871, ,0.00040154333563572605, ,0.0025248466709581734,0.000745312113171838,-0.006063096052029903,-0.009141433268363844,-0.017072497191790315,-0.00047249109853793466, ,0.00660995269226867, ,0.019365845046630033, ,4.393667701089254e-05, ,0.17926779820937355,-0.24074847462107488,0.09369843378,1.6754226484413495,0.46647701019921367,-1.2904452458657272, ,0.01678403635629126,0.009101458435334508,0.0063385640748109835,-0.0012115692066861714,0.0,-2.5077641275827322e-05, ,0.8970019817352295
0.010930615941196946,0.020979010769361168,-0.08308311233961661, ,0.011186551114465643,0.020825337212179544,-0.08337347395671514, ,0.0004164471680501667, ,0.002102949251569661,0.00020044732066474847,-0.005178816388659331,0.004029828610907151,0.003716041612477692,-0.0009022510685723654, ,0.005593095195907678, ,0.00548164940266396, ,4.4151875487125576e-05, ,0.17943769833260648,-0.24062491089508728,0.09376195199000001,1.6754226484413495,0.46688691969851004,-1.2907794995768165, ,0.015618324812124882,0.01281871424536955,0.005375906689166386,-0.0011962906157509574,0.02002976570843775,-0.01636201938489983, ,0.9093301296234131
0.010952620547320215,0.020980430714831137,-0.08312832328350654, ,0.011215335902345667,0.02083160311206336,-0.08345001819784705, ,0.00044119908320881227, ,0.0019473287016513966,5.9174356553082916e-05,-0.004129707466260732,0.00536702647976635,0.0033293308024354537,-0.0006766062060019717, ,0.004566188173262072, ,0.006315806807163349, ,4.440945044774728e-05, ,0.1795998757229652,-0.2405090699019739,0.09380861843,1.6754226484413495,0.46688691969851004,-1.2907794995768165, ,0.016008255998392507,0.011466035823251421,0.004312076751488901,-0.0011822295605250516,0.02002976570843775,-0.01636546327373926, ,0.9210681915283203
0.010973384678586707,0.020981192747342125,-0.083173859624745, ,0.011244142193611053,0.020837768349410823,-0.08352635615481004, ,0.00046704817050493837, ,0.0020798009905384977,0.00014469239613074981,-0.0049691336778137024,0.004023242588560425,0.003584917709778719,-0.0009373352116618567, ,0.005388765865921928, ,0.005388702337535927, ,4.470980048115248e-05, ,0.17974660764757547,-0.2403855061759863,0.09385528487000001,1.6754226484413495,0.46688691969851004,-1.2907794995768165, ,0.015755759846998302,0.012837789712996588,0.005158293886010364,-0.0011686209750103888,0.02002976570843775,-0.016368580049525187, ,0.9337930679321289
0.011017453704425448,0.020991143169820158,-0.08328482062809434, ,0.011272969877969672,0.020843833406936824,-0.08360248854731377, ,0.00043347616783928085, ,0.0023337798293366586,0.0006599063932206923,-0.006338821566229696,-0.0016309360200921854,-0.004511742495408784,-0.0007131962319576893, ,0.006786948031930912, ,0.004797474586965219, ,4.493846758641095e-05, ,0.180040071496796,-0.24017699238838225,0.09397065468000002,1.6754226484413495,0.46702355619827546,-1.2908909174805128, ,0.014888130147234196,0.010775951355054556,0.006601248039784502,-0.0011433213450380325,0.010870995754829657,-0.008905481679451975, ,0.9491720199584961
0.011047984092242683,0.020998756031173647,-0.08337069873911333, ,0.011301818845325464,0.020849798766507232,-0.08367841609373375, ,0.0004258054942154736, ,0.00232287681318417,0.0005963538846515092,-0.006347062737365334,-0.004115156244634599,-0.006233632012615818,-0.0008855978474595766, ,0.0067850276371595655, ,0.00746944902156979, ,4.5146775116580605e-05, ,0.18024086255152583,-0.24001481499802355,0.09406009869000001,1.6754226484413495,0.4672968291978063,-1.2911137532879056, ,0.014503582692720582,0.01146703095211847,0.006584874543199669,-0.0011257493532822274,0.008715564862073767,-0.007151144949948147, ,0.9604129791259766
0.01106935022320361,0.021005649829109727,-0.08343508046217424, ,0.011330688985777777,0.020855664909139544,-0.08375413951111109, ,0.0004388531665041813, ,0.002292809098516339,0.0007015080566329187,-0.006607812671088309,0.008283195545133437,0.007206316200446173,-0.00070707143841766, ,0.007029386560145587, ,0.010979176154070406, ,4.537380975740892e-05, ,0.18037987174326187,-0.2399066967377844,0.09412750577000001,1.6754226484413495,0.46757010219733725,-1.291418267835439, ,0.014932642259397447,0.011094611102247342,0.006910547297180044,-0.0011129618756695059,0.022868172674605065,-0.018842717793335382, ,0.9718160629272461
0.011095754245933405,0.021012844258095152,-0.08350380762317505, ,0.011359580189621863,0.02086143231500312,-0.08382965951515502, ,0.0004457680569320017, ,0.002351934482015339,0.0007337700767379363,-0.006856168410068553,0.007972979497961287,0.007073867336511718,-0.0007772529530462864, ,0.007285400442009396, ,0.010658704706466987, ,4.5607662656369026e-05, ,0.1805420491336206,-0.23979085574467102,0.09419880172,1.6754226484413495,0.46757010219733725,-1.291418267835439, ,0.015067790021986471,0.011412741017254454,0.007165457273954117,-0.0011005335166157546,0.022868172674605065,-0.018842717793335382, ,0.983896017074585
0.01115002424066997,0.021029952363187276,-0.08365248573484667, ,0.011388492347348062,0.020867101463420273,-0.08390497682024269, ,0.0003835872803704722, ,0.002357691426249703,0.0007711910078828982,-0.006621587015286779,0.0035492954588615963,0.0007199669478524333,-0.0006780940402132688, ,0.007070987132859547, ,0.0036215794801193663, ,4.572357912803729e-05, ,0.18085868118146378,-0.2395591737584443,0.09435306023000001,1.6754226484413495,0.46757010219733725,-1.2914999465755796, ,0.014946754064966258,0.010266603885887718,0.006925570226086957,-0.0010755496726599426,0.01625210336632073,-0.013447756898518019, ,0.996973991394043
0.011172207704318688,0.021036190473627054,-0.08371474369574444, ,0.011417425349642374,0.020872672832866614,-0.08398009213942084, ,0.0003965848067935037, ,0.0023289525892621166,0.0006359520416882705,-0.006480332723259085,-0.00795424130103573,-0.010297465897532105,-0.0010225235503484292, ,0.006915429658849889, ,0.013011831045533544, ,4.585973527198256e-05, ,0.18099769037319982,-0.23945105549820514,0.09441787473,1.6754226484413495,0.46770673869710266,-1.2916113644792762, ,0.013689691511608594,0.01126105868737045,0.006706868008421054,-0.0010640844145947367,0.003717609993876527,-0.003226718026387489, ,1.008146047592163
0.011193391170058763,0.02104029623438553,-0.08377444687622632, ,0.011446379087385744,0.02087814690097148,-0.08405500618440634, ,0.0004111068207248771, ,0.002101999268871521,0.0003042327612723556,-0.005352475225573534,-0.00047399267294793144,-0.002031480755855072,-0.002299720557149135, ,0.00575846763816089, ,0.002086043796830537, ,4.609908106263922e-05, ,0.1811444222978101,-0.2393352145050918,0.09448009665000001,1.675212958497865,0.4679800116966335,-1.2918342002866687, ,0.014378324478556179,0.012036056185548552,0.005658547609236235,4.889158081815236e-05,0.010807006876196673,-0.009007645819883576, ,1.0182931423187256
0.011210204965088864,0.021041840284713998,-0.08382056513223576, ,0.011475353451654208,0.020883524144518852,-0.08412971966558762, ,0.00043697167604569536, ,0.001787471466406377,0.000232170585324388,-0.0048888189576086925,0.02124446205754382,0.023161969071293743,-0.001941094457960537, ,0.005210518997583732, ,0.031429348968461245, ,4.6378483832098906e-05, ,0.18126798602379768,-0.23921937351197842,0.09452805938000002,1.675212958497865,0.4682532846961644,-1.292138714834202, ,0.014004861505087188,0.011590566625909174,0.00513501338491296,4.889158081815236e-05,0.037908789933400425,-0.03175876052065466, ,1.0293030738830566
0.01121823173380147,0.021043126310989542,-0.08384152561733199, ,0.011504348333718679,0.02088880503944757,-0.08420423329202505, ,0.00048706736790690307, ,0.0020169708404018678,0.00032760007235779266,-0.005191921626671431,0.01217217855421475,0.01132918151283244,-0.002022905524126361, ,0.005579564799869141, ,0.016628658416534717, ,4.673847773712358e-05, ,0.18132976788679148,-0.23917303711473306,0.09455009631000001,1.675212958497865,0.46838992119592987,-1.2922501327378986, ,0.014960892567944313,0.011325568869611025,0.005438310522362582,4.889158081815236e-05,0.026806835442789497,-0.022693824038995322, ,1.0415680408477783
0.01125765181807857,0.02105105486059556,-0.08394060578115892, ,0.01153336362504488,0.02089399006085219,-0.08427854777145269, ,0.000463563523826852, ,0.0023115408619127555,0.0005495425803763321,-0.006189232593681856,0.0036714547284353517,0.0013479021669316636,-0.002172266818162693, ,0.006629616753827695, ,0.003911062642366731, ,4.705099080436609e-05, ,0.18157689533876667,-0.23897996879287745,0.09465250322,1.675212958497865,0.46838992119592987,-1.2922501327378986, ,0.015281311040011398,0.011536329224863945,0.006454137568881686,4.889158081815236e-05,0.016947394098108592,-0.014636254527286915, ,1.0515241622924805
0.011283378988427963,0.02105716359258562,-0.08400831585558137, ,0.01156239921729325,0.020899079682983476,-0.08435266381027878, ,0.000470551085957123, ,0.002462039319770944,0.000638837304804643,-0.006910251041728809,-0.0005880492164916755,-0.0023276177260686077,-0.002386892363312441, ,0.00736351276048479, ,0.002400747884073889, ,4.7368972461681844e-05, ,0.18173134999625115,-0.23885640506688985,0.09472250288,1.675212958497865,0.46838992119592987,-1.2922501327378986, ,0.015089353086098073,0.012484796942306378,0.007175140324324325,4.889158081815236e-05,0.013000490199136789,-0.011403648105507938, ,1.0615081787109375
0.011310242086456694,0.021064071676642045,-0.08408456282439966, ,0.011591455002318512,0.020904074379248874,-0.08442658211358653, ,0.000470804665861029, ,0.002706602173645644,0.0006250963105293991,-0.007386559669987348,-0.012880278850219331,-0.015619560571107092,-0.00278686781769713, ,0.007891622423944545, ,0.020245301521701484, ,4.7680997262837256e-05, ,0.18189352738660988,-0.2387173958751538,0.09480157657,1.675212958497865,0.4685265576956953,-1.292361550641595, ,0.015644072132949355,0.013871793825240576,0.007614154646271511,4.889158081815236e-05,0.0,-0.0007887041144859871, ,1.072402000427246
0.011324837016037533,0.021067862727826292,-0.08412905373672439, ,0.011620530872169889,0.02090897462221338,-0.0845003033851358, ,0.0005005063317334553, ,0.0026836601515767625,0.000682500832975249,-0.007405595118077353,-0.002463893304307815,-0.004853053471457651,-0.0025646252847933175, ,0.007906369473346412, ,0.005442690137951786, ,4.803599783925519e-05, ,0.1819939229139748,-0.23863244581353735,0.09484824301000001,1.675212958497865,0.4687998306952262,-1.2926660651891284, ,0.016443760450263523,0.013363884179477648,0.007687650347490348,4.889158081815236e-05,0.011804714129703082,-0.010421064766805422, ,1.084874153137207
0.01135989991516298,0.021078197633119168,-0.08422919343163889, ,0.011649626719090884,0.02091378088359961,-0.08457382832736368, ,0.00047932003900118394, ,0.0025884570859380255,0.0007829647741974375,-0.00765027532904607,0.016910482709680954,0.016910312113610652,-0.002255705792971904, ,0.008114176269565985, ,0.023914912817091252, ,4.8349283170346425e-05, ,0.18222560490020154,-0.23846254569030442,0.0949532425,1.675212958497865,0.4692097401945225,-1.2930003189002177, ,0.016936809130549846,0.01303529417011961,0.008020549607250755,4.889158081815236e-05,0.034518439593804864,-0.028925841339516648, ,1.0949420928955078
0.011388450863507885,0.021084757983724497,-0.08430446802730986, ,0.01167874243551888,0.02091849363428923,-0.08464715764138518, ,0.0004789041681472856, ,0.0026360796129910593,0.0006090298008343459,-0.007331402467811208,0.004820712889568171,0.003969277006427226,-0.0025743086333223177, ,0.007814684585404564, ,0.006244550547232727, ,4.865579042541981e-05, ,0.18239550502343446,-0.23832353649856836,0.09503101990000001,1.675212958497865,0.4692097401945225,-1.2930003189002177, ,0.016876567945664375,0.013992471477214802,0.007628741149425289,4.889158081815236e-05,0.02125042439868966,-0.0180948515378091, ,1.1048760414123535
0.011432849685374582,0.021091715384477207,-0.08441114610774944, ,0.011707877914085469,0.02092311334432246,-0.08472029202699487, ,0.00044680910232255906, ,0.002501230757613279,0.00030778605630069533,-0.005985584244784659,-0.0017728380482053673,-0.0046549881902900846,-0.002589851371300959, ,0.006494467361585411, ,0.0049811506817070954, ,4.890478457296007e-05, ,0.1826812461397808,-0.23809957724521585,0.09514120455000001,1.675212958497865,0.4692097401945225,-1.2930003189002177, ,0.01735496370857183,0.013583873684292985,0.006212484992199689,4.889158081815236e-05,0.012937663182189326,-0.011297402172885307, ,1.1221811771392822
0.01146940283201716,0.021096714673632094,-0.08450214964883264, ,0.011737033047615846,0.02092764048289942,-0.08479323218266743, ,0.00043004773662582145, ,0.0025459294683672865,0.0004156822687710404,-0.006351912467581651,-0.006672884901488165,-0.00936217356251402,0.0002571744828627559, ,0.006855752373174719, ,0.01149685506489048, ,4.912233079778183e-05, ,0.18293609632463018,-0.23790650892336024,0.09523583372000001,1.6750032685543808,0.46948301319405333,-1.2933048334477513, ,0.016599080209632813,0.013183792936714473,0.00657943474597274,-0.0026955189725254972,0.008032427356740795,-0.0065769383511011525, ,1.1322081089019775
0.011492667768270909,0.021099841499279324,-0.08456041672712228, ,0.011766207729128996,0.020932075518380694,-0.08486597880555875, ,0.00044310012222018377, ,0.002380075270328652,0.00018108342393275073,-0.00507228672578488,-0.0014911336921486613,-0.008131516333544054,-0.00031417410355571697, ,0.005605857840458204, ,0.008267105552309814, ,4.9356346787424555e-05, ,0.18310599644786313,-0.23777522246449842,0.09529675935000001,1.6750032685543808,0.4697562861935842,-1.2936910267354251, ,0.01760611160639532,0.012316280539710678,0.005277936222664017,-0.0026955189725254972,0.01027195843731698,-0.010965178625044364, ,1.1422431468963623
0.011515964465947149,0.02110210588710468,-0.08461268976440167, ,0.01179540185183752,0.0209364189182874,-0.08493853259150691, ,0.0004601206061947637, ,0.0023236557024583124,0.0002098153455318999,-0.005581979483661494,0.006936931049029937,0.010164051971094613,0.0015679591936070634, ,0.006049949855891828, ,0.012305647460854427, ,4.961256948347177e-05, ,0.18327589657109605,-0.23765165873851082,0.09535120353000001,1.6750032685543808,0.4698929226933497,-1.2939658021194027, ,0.017622458970932363,0.013479679198646417,0.00583900715542522,-0.0026955189725254972,0.029065308350213148,-0.019805173203710245, ,1.152508020401001
0.011515964465947149,0.02110210588710468,-0.08461268976440167, ,0.011824615309147248,0.020940671149302315,-0.08501089423503334, ,0.0005290494476024908, ,0.0023236557024583124,0.0002098153455318999,-0.005581979483661494,0.006936931049029937,0.010164051971094613,0.0015679591936070634, ,0.006049949855891828, ,0.012305647460854427, ,4.997073361768487e-05, ,0.18346124216007745,-0.23750492681390056,0.09541731432000002,1.6750032685543808,0.4698929226933497,-1.2939658021194027, ,0.018176008726004746,0.013992471477214802,0.0064989031089351295,-0.0026955189725254972,0.021499484836431576,-0.013635751438005382, ,1.164980173110962
0.011573377979420686,0.02111044872008919,-0.08474143237272477, ,0.01185384799465742,0.020944832677270042,-0.08508306442934341, ,0.0004720217846619427, ,0.0025978365667507436,0.0007281318618411735,-0.006241585583901619,0.0018909197147316602,-0.0022318745712531867,0.0018100723289593626, ,0.006799729512042674, ,0.0029252063169370756, ,5.02348400332613e-05, ,0.18366203321480729,-0.23738136308791297,0.09548472140000001,1.6750032685543808,0.4698929226933497,-1.2940474808595432, ,0.01816904873798024,0.009462779902100916,0.006590323342987175,-0.0026955189725254972,0.01695373800639258,-0.01115153398638289, ,1.1753380298614502
0.011601805327508017,0.021116954731759504,-0.08481130878792352, ,0.011883099802160402,0.020948903967197945,-0.08515504386632768, ,0.00047489098229509157, ,0.002899927688709838,0.0005439843680285842,-0.007301043902080633,-0.00532604575425865,-0.005934619160298697,0.0008620230849998223, ,0.007874689940087434, ,0.007974111060720082, ,5.0498490401187625e-05, ,0.18383193333804024,-0.23727324482767384,0.09555083219,1.6750032685543808,0.4698929226933497,-1.2940474808595432, ,0.018952854315652242,0.013861662512192634,0.007446849705469846,-0.002679947413202656,0.014266013968293785,-0.008959875252782988, ,1.185603141784668
0.011629517807109822,0.0211232988402253,-0.08488564049034235, ,0.011912370625641674,0.020952885483256443,-0.08522683323656292, ,0.0004748251459835992, ,0.0027997000421254997,0.0006762180164153989,-0.007334731295078712,-0.008075270426307984,-0.00909829967926188,0.001018306391987439, ,0.007879966643495983, ,0.012165074117451009, ,5.083383383101819e-05, ,0.18402500165989585,-0.23711879017018936,0.09563509104000001,1.6750032685543808,0.4701661956928806,-1.294270316666936, ,0.017348618200817328,0.012900617395115659,0.007628741149425289,-0.0026186140435764177,0.009090578851191704,-0.004739654942293112, ,1.1938860416412354
0.011649640192196513,0.021128951969716068,-0.0849431484916832, ,0.011941660359279207,0.020956777688779744,-0.08529843322931316, ,0.0004910672110737287, ,0.0024558372424451054,0.0006786003900667095,-0.006874203904791329,0.022184177093574765,0.023708727325775513,0.0012254110656000742, ,0.00733118778748897, ,0.03246908451707457, ,5.118847161832153e-05, ,0.18417173358450611,-0.23701839464282443,0.09569601667000001,1.6750032685543808,0.4705761051921769,-1.2946862491181659, ,0.017528064565657697,0.011806258343100775,0.007266793576642336,-0.0025740572301506492,0.04271893163782818,-0.03316071523354079, ,1.2024950981140137
0.01167779528899195,0.021136428336179652,-0.08501765904952635, ,0.011970968897444225,0.02096058104626645,-0.08536984453253058, ,0.0004908234392341757, ,0.0028719773594657098,0.0009616392380353879,-0.008316042167290054,0.016714663300323045,0.017196642602746,-3.487342262468998e-05, ,0.008850398934825435, ,0.023981335373102076, ,5.1537477682426395e-05, ,0.18434935644061326,-0.23690255364971105,0.09577379407000002,1.674793578610896,0.4707127416919423,-1.2947976670218624, ,0.018636477132456947,0.012624310437471168,0.008756905728422212,-0.0014789291543648119,0.036936450791097364,-0.028445489834665254, ,1.211294174194336
0.011717816419703656,0.021149281245036726,-0.0851274181172925, ,0.012000296134700114,0.02096429601737994,-0.08544106783285624, ,0.0004608584033181156, ,0.0030570623054276508,0.001046492451359557,-0.008671382142176824,-0.0017234912996113292,0.0020761302805330506,0.0015167504701670213, ,0.009253844857446136, ,0.0026982754073426106, ,5.183713994629952e-05, ,0.1845733156939658,-0.23674037625935235,0.09588786759000001,1.674793578610896,0.4707127416919423,-1.294879345762003, ,0.01849482392486275,0.012530957554267896,0.009086600981175131,-0.0014789291543648119,0.021464572756966106,-0.010025450557579441, ,1.219426155090332
0.011748098217697327,0.021158462562886324,-0.08520523813469835, ,0.012029641965803025,0.020967923062949277,-0.08551210381562131, ,0.00045797241102710147, ,0.0030570623054276508,0.001046492451359557,-0.008671382142176824,-0.0017234912996113292,0.0020761302805330506,0.0015167504701670213, ,0.009253844857446136, ,0.0026982754073426106, ,5.2128189303979765e-05, ,0.1847663840158214,-0.23662453526623897,0.09596953386000001,1.674793578610896,0.4708493781917078,-1.2949907636656994, ,0.01995309957074659,0.012559150550353466,0.008253270217616581,-0.0014789291543648119,0.0,0.0074774692656446404, ,1.227504014968872
0.011748098217697327,0.021158462562886324,-0.08520523813469835, ,0.012059006285701303,0.020971462642969427,-0.08558295316484836, ,0.000523737950505892, ,0.0032226094435319963,0.0008498813168546852,-0.007915029784648633,-0.019760125438689217,-0.02042249912094075,0.001289043288395254, ,0.00858808513989907, ,0.028417265819096194, ,5.251059774000592e-05, ,0.1847663840158214,-0.23662453526623897,0.09596953386000001,1.674793578610896,0.4708493781917078,-1.2949907636656994, ,0.01995309957074659,0.012559150550353466,0.008253270217616581,-0.0014789291543648119,0.0,0.0074774692656446404, ,1.2357041835784912
0.011802665113978136,0.02117247388959025,-0.08535713342616424, ,0.012088388989535558,0.020974915216602136,-0.0856536165632521, ,0.0004566944415184328, ,0.0027295743414963306,0.0006692748189195523,-0.008159597837872309,0.031781604979088794,0.03778203336598801,-0.0002958093164098511, ,0.008630037180963092, ,0.04937157506243717, ,5.279074413656927e-05, ,0.18512935246090995,-0.23635423961564112,0.09612897753,1.674793578610896,0.471532560690535,-1.2955478531841815, ,0.01920990719807101,0.015453011164056469,0.008600870151187908,-0.0014789291543648119,0.058519206682830165,-0.04577808316157952, ,1.2493400573730469
0.01183718019701515,0.021178435675577853,-0.08544134542587442, ,0.01211778997263827,0.020978281242176277,-0.08572409469223971, ,0.00044581474966141893, ,0.0027828433675399136,0.00030120467934246456,-0.006046423117551959,-0.00046043495302674586,-0.0032535844585522607,-0.00034076054088289724, ,0.006662895315370446, ,0.00328600123149529, ,5.3051290023358056e-05, ,0.18536875718001092,-0.2361843394924082,0.09621712525000001,1.674793578610896,0.4718058336900659,-1.2957706889915743, ,0.020500527448362667,0.013605296280784343,0.00633352346719682,-0.0014789291543648119,0.017978189685307018,-0.01266863848869206, ,1.258169174194336
0.01183718019701515,0.021178435675577853,-0.08544134542587442, ,0.01214720913053418,0.020981561177188645,-0.08579438823191322, ,0.0005094278463440148, ,0.0027828433675399136,0.00030120467934246456,-0.006046423117551959,-0.00046043495302674586,-0.0032535844585522607,-0.00034076054088289724, ,0.006662895315370446, ,0.00328600123149529, ,5.339861775625596e-05, ,0.18536875718001092,-0.2361843394924082,0.09621712525000001,1.674793578610896,0.4718058336900659,-1.2957706889915743, ,0.020500527448362667,0.013605296280784343,0.00633352346719682,-0.0014789291543648119,0.017978189685307018,-0.01266863848869206, ,1.2661499977111816
0.011864649726108893,0.02118002053642308,-0.0854998761242723, ,0.012176646358939454,0.020984755478304466,-0.0858644978610691, ,0.0005180920311724434, ,0.0030495325779518823,0.00018457148004976943,-0.006750528266883598,-0.012502012193546219,-0.014153322934378088,-0.0009862436156778164, ,0.007409679308663235, ,0.018884301547959947, ,5.3753277279407326e-05, ,0.18556954823474076,-0.2360376075677979,0.09627805088000001,1.674793578610896,0.47194247018983126,-1.2958821068952706, ,0.021013494587792468,0.016710149948665397,0.0069801978615249794,-0.0014789291543648119,0.007385227291683713,-0.003921718854540495, ,1.274355173110962
0.011894229486100619,0.021181991726212254,-0.08556824626689012, ,0.012206101553762316,0.020987864601357733,-0.08593442425720005, ,0.0005186866566427959, ,0.0031526176473306708,0.0003181403393387246,-0.007116837414672039,-0.003292251706631801,-0.0051331780626926345,-0.0008018991341910986, ,0.007790352116088921, ,0.006098230896406335, ,5.4103796592514974e-05, ,0.18578578475521904,-0.23586770744456498,0.09634934683000002,1.674793578610896,0.47221574318936216,-1.2961049427026634, ,0.022354992122136815,0.016305316418981235,0.007419101779226828,-0.0014789291543648119,0.01795405489501261,-0.012484054011490948, ,1.2826581001281738
0.011925770684353378,0.02118609915472416,-0.08564200301441596, ,0.0122355746111021,0.020990889001352278,-0.08600416809649616, ,0.0005150233234393957, ,0.0029461301553961386,0.00043028231335529737,-0.007289251865686844,0.026916748845667752,0.02884561216880032,-0.00042483868979129513, ,0.007873882049100049, ,0.03945352568827084, ,5.444433188565818e-05, ,0.18602518947431998,-0.23570553005420625,0.09642712423000001,1.674793578610896,0.4726256526886585,-1.2964391964137527, ,0.022877758331357467,0.015724431078454146,0.007717447441860466,-0.0014789291543648119,0.05313832183330982,-0.04130901720378448, ,1.2928190231323242
0.011955108253564394,0.02118912158690592,-0.08571282278966041, ,0.012265065427249755,0.020993829132461932,-0.08607373005384512, ,0.0005142632065616459, ,0.0033286516379912212,0.0005242182128594283,-0.008656636924158198,0.005647252519350009,0.00868782640209194,-4.2537239490101595e-05, ,0.009289353545779937, ,0.010361937077492231, ,5.4779105809770707e-05, ,0.18623370326192404,-0.23555107539672177,0.09650101276,1.6745838886674116,0.47289892568818936,-1.2967437109612863, ,0.022498089511254336,0.018030959824904193,0.008908731275167786,-0.0021835965622457195,0.035184852045493785,-0.02542423183253143, ,1.3025541305541992
0.011996273244521035,0.021195882313643617,-0.0858157789638904, ,0.012294573898687551,0.020996685448031245,-0.08614311080283366, ,0.00048560148715993696, ,0.0034425266441344216,0.0006188750299043524,-0.00881746971710659,-0.004173451594716736,-0.0035043375284826185,-7.035485115181278e-05, ,0.009485872032148984, ,0.005449589565084173, ,5.506991069728593e-05, ,0.18648083071389923,-0.2353425616091177,0.09660730854,1.6745838886674116,0.47289892568818936,-1.2967437109612863, ,0.022017851869714798,0.017434676016621492,0.00917558267281106,-0.0021835965622457195,0.0194497383662247,-0.012767922514620231, ,1.3108601570129395
0.012033936324953042,0.021202557605404605,-0.08590712047628889, ,0.012324099922088542,0.020999458400576185,-0.08621231101574861, ,0.00046753124545881054, ,0.003628536876440085,0.0006616618114130783,-0.00913642731552067,-0.00895248580151326,-0.00970828062289398,-0.00022459995681750272, ,0.009852836155552382, ,0.01320597027926764, ,5.533209581593857e-05, ,0.18671251270012598,-0.23516493875301053,0.09670193771,1.6745838886674116,0.47289892568818936,-1.2967437109612863, ,0.022888794394228362,0.01778095213761866,0.009498396851520574,-0.0021835965622457195,0.014009188057318774,-0.00845998810819698, ,1.3189342021942139
0.012033936324953042,0.021202557605404605,-0.08590712047628889, ,0.012353643394317288,0.021002148441784364,-0.08628133136357793, ,0.0005314228365718729, ,0.003628536876440085,0.0006616618114130783,-0.00913642731552067,-0.00895248580151326,-0.00970828062289398,-0.00022459995681750272, ,0.009852836155552382, ,0.01320597027926764, ,5.5677302262404934e-05, ,0.18671251270012598,-0.23516493875301053,0.09670193771,1.6745838886674116,0.47289892568818936,-1.2967437109612863, ,0.022888794394228362,0.01778095213761866,0.009498396851520574,-0.0021835965622457195,0.014009188057318774,-0.00845998810819698, ,1.3269832134246826
0.012067928582072913,0.021207583465724548,-0.08599426633266347, ,0.0123832042124285,0.021004756022516252,-0.08635017251601146, ,0.0005169205994733256, ,0.0036448949657385014,0.0004892960760456542,-0.008787269279399886,-0.013496484314851747,-0.014573156618630852,-0.0004720615934745093, ,0.009525795050807282, ,0.01986282785253944, ,5.599834410380641e-05, ,0.18693647195347848,-0.23497959316402917,0.09679267801000001,1.6745838886674116,0.47317219868772026,-1.296966546768679, ,0.023356372522390048,0.018687857731089167,0.009107382229845628,-0.0021835965622457195,0.009522437298239813,-0.004915907346690146, ,1.3353700637817383
0.012099804045180924,0.021213835321322018,-0.0860792559023191, ,0.012412782273668339,0.02100728159280493,-0.08641883514144177, ,0.0005058990748307067, ,0.003278734683656722,0.0006054514818160972,-0.008669707369058813,0.04098115122110991,0.04570900775329135,0.00022241518764725505, ,0.009288729648760348, ,0.061390293175855926, ,5.63757279035594e-05, ,0.1871913221383279,-0.2348096930407962,0.09688341831000001,1.6745838886674116,0.47399201768631294,-1.2976350541908577, ,0.0255580235815973,0.01721018163918585,0.009170300241796202,-0.0021835965622457195,0.07295421939799585,-0.05675230684522079, ,1.3441061973571777
0.012139671706992476,0.02121988507579356,-0.08617660714351012, ,0.012442377475472971,0.02100972560185743,-0.0864873199069659, ,0.0004820168131204586, ,0.003608988365085429,0.00045002087398296464,-0.008839264440685021,-8.439738600178641e-05,0.0006775570440507512,-0.000533300348072635, ,0.009558237895067326, ,0.0006827536200026264, ,5.671729102141056e-05, ,0.1874461723231773,-0.23460890198606638,0.09698452893000001,1.6745838886674116,0.47412865418607836,-1.297746472094554, ,0.02425790939633711,0.019299764400746548,0.009207405502890174,-0.0021835965622457195,0.02598492603549006,-0.01856175419384795, ,1.3512001037597656
0.012176972286766992,0.021223254689450282,-0.08626016268690623, ,0.012471989715469268,0.021012088498054925,-0.08655562747838516, ,0.00046789516628216275, ,0.0035249958050520822,0.00013611625478977663,-0.007231307838782327,-0.021006541538916956,-0.025087007781482696,-0.00058850296462719, ,0.008045864535255829, ,0.032720524553877264, ,5.7036530759419204e-05, ,0.1877010225080267,-0.23441583366421076,0.09707138036000001,1.6745838886674116,0.4742652906858438,-1.2978578899982505, ,0.024276526364407976,0.01828809819974384,0.0074748059690286275,-0.0021835965622457195,-0.0002668184632099178,0.002748104289081003, ,1.3590459823608398
0.012176972286766992,0.021223254689450282,-0.08626016268690623, ,0.012501618891474447,0.02101437072895332,-0.08662375852020765, ,0.0005303110944484675, ,0.0035249958050520822,0.00013611625478977663,-0.007231307838782327,-0.021006541538916956,-0.025087007781482696,-0.00058850296462719, ,0.008045864535255829, ,0.032720524553877264, ,5.7434640076165965e-05, ,0.1877010225080267,-0.23441583366421076,0.09707138036000001,1.6745838886674116,0.4742652906858438,-1.2978578899982505, ,0.024276526364407976,0.01828809819974384,0.0074748059690286275,-0.0021835965622457195,-0.0002668184632099178,0.002748104289081003, ,1.3656041622161865
0.012213465818735966,0.021224284568428183,-0.08633873938674949, ,0.012531264901495646,0.02101657274128391,-0.08669171369564746, ,0.0005183930197065781, ,0.0036106674149010928,0.00017714742968249009,-0.008257267791187484,-0.022977848337046955,-0.02379602775108561,-0.00010760568373093812, ,0.0090139209985585, ,0.033079183976391764, ,5.781295522610294e-05, ,0.18793270449425345,-0.23422276534235514,0.09715175034000001,1.674374198723927,0.47412865418607836,-1.297746472094554, ,0.023027649007151364,0.020434311274433844,0.00848631407565264,-0.0031373642465130067,0.0,0.002439806838262008, ,1.3724520206451416
0.012247926688751468,0.021227195359529074,-0.08642359778519051, ,0.012560927643730293,0.021018694980953986,-0.08675949366662736, ,0.000504249986464893, ,0.003708629501215961,0.00038405408792893116,-0.008659742291275824,-0.010306185907564944,-0.011781861115380363,0.00017746120870602698, ,0.009428285468262791, ,0.015653423606478686, ,5.8168885037785446e-05, ,0.18816438648048017,-0.2340219742876253,0.09723989806000001,1.674374198723927,0.4744019271856092,-1.2979693079019468, ,0.024489533305411815,0.01933515516676259,0.008989171286681715,-0.0031373642465130067,0.013735670721109998,-0.008842578108076643, ,1.3791651725769043
0.012247926688751468,0.021227195359529074,-0.08642359778519051, ,0.012590607016565591,0.021020737893047318,-0.0868270990937784, ,0.0005682145708876192, ,0.003708629501215961,0.00038405408792893116,-0.008659742291275824,-0.010306185907564944,-0.011781861115380363,0.00017746120870602698, ,0.009428285468262791, ,0.015653423606478686, ,5.8604084818247806e-05, ,0.18816438648048017,-0.2340219742876253,0.09723989806000001,1.674374198723927,0.4744019271856092,-1.2979693079019468, ,0.024489533305411815,0.01933515516676259,0.008989171286681715,-0.0031373642465130067,0.013735670721109998,-0.008842578108076643, ,1.3858141899108887
0.012282448136753166,0.021231885096148064,-0.08651177331936614, ,0.012620302918578553,0.021022701921824875,-0.0868945306364422, ,0.0005517305663070224, ,0.00334638803570684,0.0004342613389885013,-0.008867122552202919,0.04369320157135461,0.050358390930249027,0.000553869832337252, ,0.009487505370319827, ,0.06667130826541526, ,5.901352253054978e-05, ,0.1884269593982038,-0.23382890596576972,0.09733323094000002,1.674374198723927,0.4750851096844364,-1.2985263974204289, ,0.025885690550592137,0.01969224767762415,0.009397528920353984,-0.0031373642465130067,0.07849513763657581,-0.06173048699449993, ,1.3956141471862793
0.01230080989761403,0.021234490108717596,-0.08655859667383206, ,0.012650015248535736,0.02102458751072527,-0.08696178895267082, ,0.0005732080699636638, ,0.0036975665849895423,0.0005443893146082318,-0.009749414919948922,0.031199118986498256,0.0361481314490609,0.0002295458725276222, ,0.010441237937027078, ,0.04775010308584816, ,5.944632609902406e-05, ,0.18855824585706563,-0.23372851043840479,0.09738248996000001,1.674374198723927,0.4753583826839673,-1.2987492332278219, ,0.02664895859547059,0.020747035758301436,0.01027002676982592,-0.0031373642465130067,0.06478499405485379,-0.050587551509492706, ,1.4025909900665283
0.01236031156266119,0.021241856706836863,-0.08670418121504557, ,0.012679743905393316,0.021026395102365366,-0.08702887469922797, ,0.0005038715940150572, ,0.004152211002778245,0.0003243164561667808,-0.008956783488097744,-0.029702354708957806,-0.0372895591107331,-0.0008514358009143625, ,0.009877753177114404, ,0.04767327381546996, ,5.9786155332253895e-05, ,0.18895210523365108,-0.23341187839056157,0.09753415589000002,1.674374198723927,0.47576829218326366,-1.2990018081987706, ,0.0264557963642238,0.020580555532090823,0.00923409363478261,-0.0031373642465130067,-0.010297346137071514,0.00869550724983469, ,1.4094510078430176
0.01236031156266119,0.021241856706836863,-0.08670418121504557, ,0.012709488788296756,0.021028125138540982,-0.08709578853159101, ,0.0005665352668287219, ,0.004152211002778245,0.0003243164561667808,-0.008956783488097744,-0.029702354708957806,-0.0372895591107331,-0.0008514358009143625, ,0.009877753177114404, ,0.04767327381546996, ,6.020215361116076e-05, ,0.18895210523365108,-0.23341187839056157,0.09753415589000002,1.674374198723927,0.47576829218326366,-1.2990018081987706, ,0.0264557963642238,0.020580555532090823,0.00923409363478261,-0.0031373642465130067,-0.010297346137071514,0.00869550724983469, ,1.4159371852874756
0.012403148145669344,0.021244151306169558,-0.08679629512313174, ,0.012739249796580674,0.021029778060227333,-0.08716253110395028, ,0.0005413400058810066, ,0.004096786923963925,0.0002366078592958225,-0.009063999020823183,-0.017322310873479407,-0.0236926494959909,-0.0015190303913048407, ,0.00994965952326641, ,0.029349685397952407, ,6.0582092159120765e-05, ,0.18922240088424894,-0.23318791913720907,0.09762878506000001,1.674374198723927,0.4756316556834982,-1.2988087115549336, ,0.02685255844891646,0.021855583039721505,0.009364380670194005,-0.0031373642465130067,0.003935036879359544,-0.0046931687997102105, ,1.4225339889526367
0.012403148145669344,0.021244151306169558,-0.08679629512313174, ,0.012769026829768958,0.02103135430757963,-0.08722910306921154, ,0.0006053697153617498, ,0.004096786923963925,0.0002366078592958225,-0.009063999020823183,-0.017322310873479407,-0.0236926494959909,-0.0015190303913048407, ,0.00994965952326641, ,0.029349685397952407, ,6.103874794116512e-05, ,0.18948497380197257,-0.232979405349605,0.09772471052000001,1.674374198723927,0.4760415651827945,-1.299142965266023, ,0.027183311818525,0.021720517637553394,0.010145739821656051,-0.0031373642465130067,0.03141120472504762,-0.027100396963740767, ,1.429145097732544
0.012460139414731829,0.02124927561615707,-0.08693627962856637, ,0.01279881978757427,0.021032854319933708,-0.08729550507899592, ,0.0005390598265907087, ,0.003953107163940799,0.00046180173538557396,-0.010025694862010912,0.03612568119049845,0.03726460150848827,-0.0011236629015236978, ,0.01078679167123187, ,0.05190101411121556, ,6.140784035020899e-05, ,0.1896239829937086,-0.23287128708936586,0.09777526583000001,1.6741645087804424,0.4763148381823254,-1.2993658010734157, ,0.02898501574785302,0.022276277361143376,0.010569881566025218,-0.0032069186256557317,0.06823837142731512,-0.05713166639171444, ,1.4428620338439941
0.012524009139864348,0.021256980749210102,-0.08709157230429554, ,0.012828628569898196,0.021034278535806566,-0.08736173778364184, ,0.00046408906390842407, ,0.004039178213060686,0.0005526161340093079,-0.008933497818454943,0.0011937812530291875,-0.007565781285801791,-0.0007201312657371804, ,0.00981976214074306, ,0.007659380082309118, ,6.167989228359328e-05, ,0.19007962423328786,-0.23253148684289998,0.09793859837,1.6741645087804424,0.4771346571809181,-1.2999526297554536, ,0.027902658499991406,0.018110103350853203,0.009375404072984109,-0.0032069186256557317,0.02144569070961402,-0.019164726678825614, ,1.4499750137329102
0.012524009139864348,0.021256980749210102,-0.08709157230429554, ,0.012858453076830985,0.02103562739289703,-0.08742780183220526, ,0.0005233548994355564, ,0.004039178213060686,0.0005526161340093079,-0.008933497818454943,0.0011937812530291875,-0.007565781285801791,-0.0007201312657371804, ,0.00981976214074306, ,0.007659380082309118, ,6.202268699276451e-05, ,0.19007962423328786,-0.23253148684289998,0.09793859837,1.6741645087804424,0.4771346571809181,-1.2999526297554536, ,0.027902658499991406,0.018110103350853203,0.009375404072984109,-0.0032069186256557317,0.02144569070961402,-0.019164726678825614, ,1.456521987915039
0.01256291563249844,0.021257539653218437,-0.08716793251644227, ,0.012888293208651395,0.021036901328086326,-0.08749369787246081, ,0.0005105633210113719, ,0.0037796942350743754,-0.00027138464932908746,-0.007598421085496297,-0.009793877122429767,-0.01356116802706889,-0.001751677653936054, ,0.008490921100272966, ,0.016727979017763087, ,6.242329842490411e-05, ,0.19034991988388572,-0.23233069578817014,0.09801767206,1.6741645087804424,0.4771346571809181,-1.2999526297554536, ,0.027198894112488037,0.023419778272080645,0.007835126178061978,-0.0032069186256557317,0.014620961268812202,-0.01353900937166154, ,1.4616460800170898
0.01256291563249844,0.021257539653218437,-0.08716793251644227, ,0.01291814886582663,0.021038100777438378,-0.0875594265509034, ,0.0005723736972320376, ,0.0037796942350743754,-0.00027138464932908746,-0.007598421085496297,-0.009793877122429767,-0.01356116802706889,-0.001751677653936054, ,0.008490921100272966, ,0.016727979017763087, ,6.289698083813576e-05, ,0.19034991988388572,-0.23233069578817014,0.09801767206,1.6741645087804424,0.4771346571809181,-1.2999526297554536, ,0.027198894112488037,0.023419778272080645,0.007835126178061978,-0.0032069186256557317,0.014620961268812202,-0.01353900937166154, ,1.4664881229400635
0.012601511398527766,0.021254750434614153,-0.08724244913747524, ,0.012948019949012216,0.021039226176200833,-0.08762498851274803, ,0.0005593346539930635, ,0.0040312423160573565,-0.00017048197926551866,-0.008063897217825765,-0.013654347098847379,-0.019251331291123098,-0.0017869580223417562, ,0.009017007100789256, ,0.023602010869387596, ,6.335120107279097e-05, ,0.19062021553448358,-0.23209901380194342,0.09809415317,1.6741645087804424,0.4771346571809181,-1.2999526297554536, ,0.028549019722764975,0.023524279017964993,0.00832661344485102,-0.0032069186256557317,0.010199555658355598,-0.009876080519733342, ,1.4716250896453857
0.012601511398527766,0.021254750434614153,-0.08724244913747524, ,0.012977906359051591,0.02104027795880544,-0.08769038440193198, ,0.0006231513542721261, ,0.0040312423160573565,-0.00017048197926551866,-0.008063897217825765,-0.013654347098847379,-0.019251331291123098,-0.0017869580223417562, ,0.009017007100789256, ,0.023602010869387596, ,6.388001395564048e-05, ,0.19062021553448358,-0.23209901380194342,0.09809415317,1.6741645087804424,0.4771346571809181,-1.2999526297554536, ,0.028549019722764975,0.023524279017964993,0.00832661344485102,-0.0032069186256557317,0.010199555658355598,-0.009876080519733342, ,1.476682186126709
0.012601511398527766,0.021254750434614153,-0.08724244913747524, ,0.013007807996976638,0.021041256558868435,-0.0877556148611151, ,0.0006884733987677954, ,0.0040312423160573565,-0.00017048197926551866,-0.008063897217825765,-0.013654347098847379,-0.019251331291123098,-0.0017869580223417562, ,0.009017007100789256, ,0.023602010869387596, ,6.448443409785566e-05, ,0.19062021553448358,-0.23209901380194342,0.09809415317,1.6741645087804424,0.4771346571809181,-1.2999526297554536, ,0.028549019722764975,0.023524279017964993,0.00832661344485102,-0.0032069186256557317,0.010199555658355598,-0.009876080519733342, ,1.4820241928100586
0.012633530631705416,0.021254499083611718,-0.08731001685014736, ,0.013037724764006676,0.021042162409191465,-0.08782068053168071, ,0.0006850088725905804, ,0.004471201420643018,0.00016807105633905224,-0.009489133713805442,-0.02045486659801526,-0.03008905765671149,-0.002379962561026121, ,0.010491117607882305, ,0.036383414920468045, ,6.508025903154901e-05, ,0.19084417478783608,-0.23191366821296203,0.09816415283,1.6741645087804424,0.4772712936806835,-1.2999823689190095, ,0.029407171229770927,0.023512621793476407,0.009802345550769233,-0.0032069186256557317,0.0,-0.0033702766546081764, ,1.488389015197754
0.012685503739652035,0.021262187201273656,-0.08744567729083796, ,0.013067656561548952,0.021042995941761997,-0.08788558205373742, ,0.0006225767325813836, ,0.003990998851616341,0.0009068670857480519,-0.011366546927151371,0.07471287180587498,0.07799164061068405,-0.0013186810764666426, ,0.012080929963870762, ,0.10800328249129405, ,6.559636525798227e-05, ,0.1912303114315473,-0.23162792709661573,0.09830804102000001,1.6741645087804424,0.478364385678807,-1.300873712148581, ,0.030011682972318397,0.020967066186140252,0.012140862439024392,-0.0032069186256557317,0.1107258389961828,-0.09359118840482422, ,1.4932479858398438
0.012685503739652035,0.021262187201273656,-0.08744567729083796, ,0.01309760329119836,0.02104375758775389,-0.0879503200661192, ,0.0006871694602429812, ,0.003990998851616341,0.0009068670857480519,-0.011366546927151371,0.07471287180587498,0.07799164061068405,-0.0013186810764666426, ,0.012080929963870762, ,0.10800328249129405, ,6.618647399982227e-05, ,0.1912303114315473,-0.23162792709661573,0.09830804102000001,1.6741645087804424,0.478364385678807,-1.300873712148581, ,0.030011682972318397,0.020967066186140252,0.012140862439024392,-0.0032069186256557317,0.1107258389961828,-0.09359118840482422, ,1.498100996017456
0.012731642762472318,0.021270491956373552,-0.08756828804294112, ,0.013127564854737242,0.021044447777527925,-0.08801489520638657, ,0.0006382070450678396, ,0.005245869524647052,0.000955041186982168,-0.013481386947402158,0.019886242474223003,0.017326834770177536,-0.001984270475942227, ,0.014497553061259624, ,0.026375772928502718, ,6.671362942316563e-05, ,0.19155466621226475,-0.23139624511038898,0.09843767002,1.6739548188369582,0.47918420467739964,-1.3016238983108999, ,0.03406207521840301,0.025661693228358783,0.014146369023090587,-0.0031836618366619988,0.05305919600313678,-0.04457299263281827, ,1.5033791065216064
0.012731642762472318,0.021270491956373552,-0.08756828804294112, ,0.013157541154135194,0.02104506694063264,-0.08807930811082816, ,0.0007023869215226715, ,0.005245869524647052,0.000955041186982168,-0.013481386947402158,0.019886242474223003,0.017326834770177536,-0.001984270475942227, ,0.014497553061259624, ,0.026375772928502718, ,6.731368442107862e-05, ,0.19155466621226475,-0.23139624511038898,0.09843767002,1.6739548188369582,0.47918420467739964,-1.3016238983108999, ,0.03406207521840301,0.025661693228358783,0.014146369023090587,-0.0031836618366619988,0.05305919600313678,-0.04457299263281827, ,1.5082371234893799
0.01278939917510161,0.021282689665152395,-0.08771383353444259, ,0.013187532091548958,0.02104561550580459,-0.08814355941446107, ,0.0006319638503482593, ,0.005829454060086443,0.0014375755367736197,-0.015250752976651264,-0.012158196505588248,-0.020244001087177804,-0.001975691722681805, ,0.01639007701072285, ,0.02361441291418091, ,6.782561632237032e-05, ,0.19189446645873062,-0.23114139492553956,0.09858933595000001,1.6739548188369582,0.4793208411771651,-1.3017353162145964, ,0.03304211057049818,0.02472562312623001,0.015897017485029943,-0.0031836618366619988,0.013756290578809617,-0.012460138756970792, ,1.5132851600646973
0.01278939917510161,0.021282689665152395,-0.08771383353444259, ,0.013217537569322603,0.021046093900969055,-0.08820764975103192, ,0.0006950787696385375, ,0.005829454060086443,0.0014375755367736197,-0.015250752976651264,-0.012158196505588248,-0.020244001087177804,-0.001975691722681805, ,0.01639007701072285, ,0.02361441291418091, ,6.840877399813713e-05, ,0.19189446645873062,-0.23114139492553956,0.09858933595000001,1.6739548188369582,0.4793208411771651,-1.3017353162145964, ,0.03304211057049818,0.02472562312623001,0.015897017485029943,-0.0031836618366619988,0.013756290578809617,-0.012460138756970792, ,1.5183980464935303
0.01284182079928371,0.02129306769393633,-0.0878476636859052, ,0.01324755748998676,0.021046502553240774,-0.08827157975301819, ,0.0006364915260594033, ,0.0056154239701907945,0.001027756986429477,-0.014077353341590678,-0.01726214081186083,-0.02457035184284742,0.00025444561283005, ,0.015190824463871018, ,0.03002803926736974, ,6.89185437428948e-05, ,0.19218793030795114,-0.23090971293931284,0.09872803898000002,1.6737451288934733,0.4793208411771651,-1.3017353162145964, ,0.032734371010165846,0.025878631458541256,0.014627007823691463,-0.005760642564347387,0.009635894031810548,-0.009055700482317923, ,1.5269920825958252
0.01284182079928371,0.02129306769393633,-0.0878476636859052, ,0.013277591756259238,0.021046841888924306,-0.08833535005162901, ,0.0006988286380151341, ,0.0056154239701907945,0.001027756986429477,-0.014077353341590678,-0.01726214081186083,-0.02457035184284742,0.00025444561283005, ,0.015190824463871018, ,0.03002803926736974, ,6.949813503475163e-05, ,0.19218793030795114,-0.23090971293931284,0.09872803898000002,1.6737451288934733,0.4793208411771651,-1.3017353162145964, ,0.032734371010165846,0.025878631458541256,0.014627007823691463,-0.005760642564347387,0.009635894031810548,-0.009055700482317923, ,1.5321691036224365
0.012870035091942216,0.02129782516670112,-0.08791371061941214, ,0.013307640271044283,0.021047112333514688,-0.08839896127680605, ,0.0006998738586363561, ,0.005790196256523237,0.0008660865177616433,-0.013674992873489191,-0.019150168119546028,-0.028530155283803683,0.0001092311923686638, ,0.014875547339015272, ,0.034361289575570796, ,7.007487148255926e-05, ,0.1923578304311841,-0.23078614921332524,0.09879674235000001,1.6737451288934733,0.4793208411771651,-1.3017353162145964, ,0.035356535603007,0.026619057940665016,0.014222153142857146,-0.005760642564347387,0.008273622683123821,-0.007922768686922165, ,1.5376031398773193
0.012956202095663175,0.021309761489862442,-0.08812505116424045, ,0.01333770293743263,0.021047314311697946,-0.08846241405722453, ,0.0005729180876529376, ,0.0046209884211039325,0.0004537088135001968,-0.010556175275325716,0.03707190167959014,0.03539490509961066,-0.011765578703430183, ,0.011532225375825012, ,0.05125548819465765, ,7.049907437519699e-05, ,0.1929293126638767,-0.2303613989052429,0.09901840794000001,1.673535438949989,0.48014066017575774,-1.3024038236367748, ,0.03444535083792043,0.023849444975740333,0.011193823977512299,0.0074789255667784375,0.0693456687232081,-0.05765411305302482, ,1.5434370040893555
0.012956202095663175,0.021309761489862442,-0.08812505116424045, ,0.01336777965870146,0.021047448247352045,-0.08852570902029437, ,0.0006314515382914003, ,0.0046209884211039325,0.0004537088135001968,-0.010556175275325716,0.03707190167959014,0.03539490509961066,-0.011765578703430183, ,0.011532225375825012, ,0.05125548819465765, ,7.098853161897999e-05, ,0.1929293126638767,-0.2303613989052429,0.09901840794000001,1.673535438949989,0.48014066017575774,-1.3024038236367748, ,0.03444535083792043,0.023849444975740333,0.011193823977512299,0.0074789255667784375,0.0693456687232081,-0.05765411305302482, ,1.5483441352844238
0.013005210005539173,0.021309197705987725,-0.08821727404940596, ,0.013397870338314171,0.021047514563546796,-0.08858884679216138, ,0.0006006051174702996, ,0.004809034036567267,-0.0004540559659248105,-0.008220000449055794,0.012763699303628636,0.006368068307947818,-0.012583893124055733, ,0.009534221655045147, ,0.014264090449790772, ,7.152182005413387e-05, ,0.1933077265747137,-0.2301065487203935,0.09911562969000001,1.673535438949989,0.4805505696750541,-1.3027380773478643, ,0.03924604696380099,0.027554280359602435,0.008666382763873775,0.0074789255667784375,0.04468203156084456,-0.03750310272808456, ,1.5516161918640137
0.013005210005539173,0.021309197705987725,-0.08821727404940596, ,0.013427974879920375,0.021047513682545052,-0.0886518279977072, ,0.0006603376417560111, ,0.004809034036567267,-0.0004540559659248105,-0.008220000449055794,0.012763699303628636,0.006368068307947818,-0.012583893124055733, ,0.009534221655045147, ,0.014264090449790772, ,7.212192910476931e-05, ,0.1933077265747137,-0.2301065487203935,0.09911562969000001,1.673535438949989,0.4805505696750541,-1.3027380773478643, ,0.03924604696380099,0.027554280359602435,0.008666382763873775,0.0074789255667784375,0.04468203156084456,-0.03750310272808456, ,1.5548710823059082
0.013005210005539173,0.021309197705987725,-0.08821727404940596, ,0.013458093187355658,0.021047446025803038,-0.08871465326055221, ,0.00072180551267789, ,0.004809034036567267,-0.0004540559659248105,-0.008220000449055794,0.012763699303628636,0.006368068307947818,-0.012583893124055733, ,0.009534221655045147, ,0.014264090449790772, ,7.279040324188545e-05, ,0.1933077265747137,-0.2301065487203935,0.09911562969000001,1.673535438949989,0.4805505696750541,-1.3027380773478643, ,0.03924604696380099,0.027554280359602435,0.008666382763873775,0.0074789255667784375,0.04468203156084456,-0.03750310272808456, ,1.5581631660461426
0.013058053890090205,0.02130270314072525,-0.08831222942794881, ,0.013488225164641291,0.021047312013970886,-0.0887773232030543, ,0.0006830696690057682, ,0.005657838366851897,-0.0003812403534819027,-0.010738981575550834,-0.018158364138758303,-0.024713989430412465,-0.013746948645251411, ,0.012144225149121892, ,0.0306676917770735, ,7.341106012701477e-05, ,0.19370930868417338,-0.22978219393967605,0.09921414773000001,1.673535438949989,0.48082384267458494,-1.302960913155257, ,0.040313059285671526,0.03298468597791824,0.0111157093649686,0.0074789255667784375,0.01412856830566923,-0.012552553226257866, ,1.5614471435546875
0.013058053890090205,0.02130270314072525,-0.08831222942794881, ,0.013518370715984489,0.021047112066893362,-0.08883983844631115, ,0.0007453788657328539, ,0.005657838366851897,-0.0003812403534819027,-0.010738981575550834,-0.018158364138758303,-0.024713989430412465,-0.013746948645251411, ,0.012144225149121892, ,0.0306676917770735, ,7.410064163102263e-05, ,0.19370930868417338,-0.22978219393967605,0.09921414773000001,1.673535438949989,0.48082384267458494,-1.302960913155257, ,0.040313059285671526,0.03298468597791824,0.0111157093649686,0.0074789255667784375,0.01412856830566923,-0.012552553226257866, ,1.5647730827331543
0.013058053890090205,0.02130270314072525,-0.08831222942794881, ,0.013548529745777863,0.02104684660361027,-0.08890219961016155, ,0.0008087607486130516, ,0.005657838366851897,-0.0003812403534819027,-0.010738981575550834,-0.018158364138758303,-0.024713989430412465,-0.013746948645251411, ,0.012144225149121892, ,0.0306676917770735, ,7.485990538429965e-05, ,0.19370930868417338,-0.22978219393967605,0.09921414773000001,1.673535438949989,0.48082384267458494,-1.302960913155257, ,0.040313059285671526,0.03298468597791824,0.0111157093649686,0.0074789255667784375,0.01412856830566923,-0.012552553226257866, ,1.5684070587158203
0.013058053890090205,0.02130270314072525,-0.08831222942794881, ,0.013578702158599574,0.02104651604235721,-0.08896440731318486, ,0.0008729504240579837, ,0.005657838366851897,-0.0003812403534819027,-0.010738981575550834,-0.018158364138758303,-0.024713989430412465,-0.013746948645251411, ,0.012144225149121892, ,0.0306676917770735, ,7.568929828944802e-05, ,0.19370930868417338,-0.22978219393967605,0.09921414773000001,1.673535438949989,0.48082384267458494,-1.302960913155257, ,0.040313059285671526,0.03298468597791824,0.0111157093649686,0.0074789255667784375,0.01412856830566923,-0.012552553226257866, ,1.5729691982269287
0.013107888535510601,0.02130232488339316,-0.08841500542199787, ,0.013608887859212958,0.021046120800566042,-0.08902646217270412, ,0.0008309754583570695, ,0.006205821613268567,0.0003632969963191699,-0.013250273331839646,0.004792974085353536,-0.002169203915867016,-0.013399739789710435, ,0.01463604967099069, ,0.005260954074625824, ,7.646686906951459e-05, ,0.19407227712926192,-0.22950417555620398,0.0993217398,1.673535438949989,0.48123375217388126,-1.3032951668663462, ,0.043134973435668536,0.03159019359469733,0.013887368369659986,0.0074789255667784375,0.03995377016188063,-0.03358235986531067, ,1.579138994216919
0.013174375261861876,0.021311546679856276,-0.08857618499037395, ,0.013639086752566604,0.021045661294865518,-0.0890883648047847, ,0.0007409318253621742, ,0.005782543717602046,0.0008819737223864493,-0.015050613459024751,0.07388740310525849,0.07846053612409809,0.0005452900877047307, ,0.0161473420409037, ,0.1077747804184568, ,7.713809976269168e-05, ,0.19455108656746384,-0.2291643753097381,0.09949285008000001,1.6737451288934733,0.4823268441720048,-1.3041865100959176, ,0.04206424714471222,0.030279815430271466,0.016008855798994977,-0.006661972159204852,0.12421791619582388,-0.10225848194353993, ,1.58309006690979
0.013174375261861876,0.021311546679856276,-0.08857618499037395, ,0.01366929874379429,0.0210451379410818,-0.08915011582423754, ,0.0008033177896218071, ,0.005782543717602046,0.0008819737223864493,-0.015050613459024751,0.07388740310525849,0.07846053612409809,0.0005452900877047307, ,0.0161473420409037, ,0.1077747804184568, ,7.787732708626393e-05, ,0.19455108656746384,-0.2291643753097381,0.09949285008000001,1.6737451288934733,0.4823268441720048,-1.3041865100959176, ,0.04206424714471222,0.030279815430271466,0.016008855798994977,-0.006661972159204852,0.12421791619582388,-0.10225848194353993, ,1.5865631103515625
0.013174375261861876,0.021311546679856276,-0.08857618499037395, ,0.013699523738214444,0.021044551154239248,-0.08921171584461836, ,0.0008665835214285823, ,0.005782543717602046,0.0008819737223864493,-0.015050613459024751,0.07388740310525849,0.07846053612409809,0.0005452900877047307, ,0.0161473420409037, ,0.1077747804184568, ,7.868508716269126e-05, ,0.19455108656746384,-0.2291643753097381,0.09949285008000001,1.6737451288934733,0.4823268441720048,-1.3041865100959176, ,0.04206424714471222,0.030279815430271466,0.016008855798994977,-0.006661972159204852,0.12421791619582388,-0.10225848194353993, ,1.5897750854492188
0.013241656149297013,0.021321772821748623,-0.0887496231706374, ,0.013729761641330296,0.021043901348560604,-0.08927316547822953, ,0.0007678255497205179, ,0.007437182373034414,0.0009133338018656503,-0.0182827459144747,0.00795789287319542,0.004684729218588515,-0.0012191760658131546, ,0.019758660340636596, ,0.009234322071535848, ,7.937721343864947e-05, ,0.19499900507416887,-0.228816852330398,0.09967562697000001,1.6737451288934733,0.4832832996703629,-1.304884756681652, ,0.04672424498201417,0.03774739123248639,0.019099294388489212,-0.006661972159204852,0.0538433226568107,-0.04516969347465876, ,1.5930671691894531
0.013241656149297013,0.021321772821748623,-0.0887496231706374, ,0.013760012358829978,0.021043188937468045,-0.08933446533612083, ,0.0008296640880920269, ,0.007437182373034414,0.0009133338018656503,-0.0182827459144747,0.00795789287319542,0.004684729218588515,-0.0012191760658131546, ,0.019758660340636596, ,0.009234322071535848, ,8.013616101920911e-05, ,0.19499900507416887,-0.228816852330398,0.09967562697000001,1.6737451288934733,0.4832832996703629,-1.304884756681652, ,0.04672424498201417,0.03774739123248639,0.019099294388489212,-0.006661972159204852,0.0538433226568107,-0.04516969347465876, ,1.5964100360870361
0.013241656149297013,0.021321772821748623,-0.0887496231706374, ,0.01379027579658579,0.02104241433358333,-0.08939561602809083, ,0.000892374055081221, ,0.007437182373034414,0.0009133338018656503,-0.0182827459144747,0.00795789287319542,0.004684729218588515,-0.0012191760658131546, ,0.019758660340636596, ,0.009234322071535848, ,8.096246094363666e-05, ,0.19499900507416887,-0.228816852330398,0.09967562697000001,1.6737451288934733,0.4832832996703629,-1.304884756681652, ,0.04672424498201417,0.03774739123248639,0.019099294388489212,-0.006661972159204852,0.0538433226568107,-0.04516969347465876, ,1.5997381210327148
0.01332243885086085,0.021331614982266576,-0.08894322167827245, ,0.013820551860654519,0.02104157794872878,-0.08945661816268727, ,0.0007718898895299786, ,0.008277011498170263,0.0012734290300286742,-0.019724360986422045,-0.027252920973610352,-0.0360175327995404,0.006956939771791641, ,0.021428508047879827, ,0.04516615309140323, ,8.164935842972078e-05, ,0.19547781451237078,-0.228438438419561,0.09987655192000001,1.6733257490065043,0.4834199361701283,-1.3049961745853484, ,0.0492971124979069,0.036968033330140544,0.02055330518709678,-0.014003457067679376,0.01678226561437832,-0.011203713427302184, ,1.602997064590454
0.01332243885086085,0.021331614982266576,-0.08894322167827245, ,0.013850840457277188,0.021040680193927516,-0.08951747234720822, ,0.0008328356017260765, ,0.008277011498170263,0.0012734290300286742,-0.019724360986422045,-0.027252920973610352,-0.0360175327995404,0.006956939771791641, ,0.021428508047879827, ,0.04516615309140323, ,8.240164706440238e-05, ,0.19547781451237078,-0.228438438419561,0.09987655192000001,1.6733257490065043,0.4834199361701283,-1.3049961745853484, ,0.0492971124979069,0.036968033330140544,0.02055330518709678,-0.014003457067679376,0.01678226561437832,-0.011203713427302184, ,1.6062090396881104
0.01332243885086085,0.021331614982266576,-0.08894322167827245, ,0.01388114149287901,0.021039721479404205,-0.08957817918770326, ,0.0008947186697470401, ,0.008277011498170263,0.0012734290300286742,-0.019724360986422045,-0.027252920973610352,-0.0360175327995404,0.006956939771791641, ,0.021428508047879827, ,0.04516615309140323, ,8.321993784424346e-05, ,0.19547781451237078,-0.228438438419561,0.09987655192000001,1.6733257490065043,0.4834199361701283,-1.3049961745853484, ,0.0492971124979069,0.036968033330140544,0.02055330518709678,-0.014003457067679376,0.01678226561437832,-0.011203713427302184, ,1.6095261573791504
0.01340841402850202,0.021343227853721728,-0.08914364492821611, ,0.01391145487406895,0.02103870221458572,-0.08963873928897478, ,0.000768703052716018, ,0.0088874491148469,0.0010470173563628966,-0.019694430163667176,-0.04368453605722756,-0.05785822673775563,0.008004232273586438, ,0.02163223466461756, ,0.07249765602329533, ,8.389361030176867e-05, ,0.19599523761494383,-0.22805230177584976,0.10008525461000001,1.6731160590630199,0.48355657266989377,-1.305107592489045, ,0.05428886816846154,0.03913275940555496,0.02050040092664093,-0.015603357109787554,0.0,0.002448661261540221, ,1.6128530502319336
0.01340841402850202,0.021343227853721728,-0.08914364492821611, ,0.013941780507639884,0.021037622808101515,-0.08969915325457783, ,0.0008285310770476017, ,0.0088874491148469,0.0010470173563628966,-0.019694430163667176,-0.04368453605722756,-0.05785822673775563,0.008004232273586438, ,0.02163223466461756, ,0.07249765602329533, ,8.463104764154998e-05, ,0.19599523761494383,-0.22805230177584976,0.10008525461000001,1.6731160590630199,0.48355657266989377,-1.305107592489045, ,0.05428886816846154,0.03913275940555496,0.02050040092664093,-0.015603357109787554,0.0,0.002448661261540221, ,1.6163480281829834
0.01340841402850202,0.021343227853721728,-0.08914364492821611, ,0.013972118300568503,0.02103648366778441,-0.08975942168682234, ,0.0008894017755727432, ,0.0088874491148469,0.0010470173563628966,-0.019694430163667176,-0.04368453605722756,-0.05785822673775563,0.008004232273586438, ,0.02163223466461756, ,0.07249765602329533, ,8.54329849247233e-05, ,0.19599523761494383,-0.22805230177584976,0.10008525461000001,1.6731160590630199,0.48355657266989377,-1.305107592489045, ,0.05428886816846154,0.03913275940555496,0.02050040092664093,-0.015603357109787554,0.0,0.002448661261540221, ,1.6199781894683838
0.013447468599827128,0.021348568498969597,-0.08923362730206749, ,0.014002468160014898,0.021035285200670967,-0.0898195451867736, ,0.0008657197609041641, ,0.008967136368992476,0.0009592729280192078,-0.019558968496318798,-0.022544996730427536,-0.039344619171979574,0.006777460543597582, ,0.02153794298094712, ,0.04534614727809808, ,8.620504469256187e-05, ,0.19625008779979325,-0.2278746789197426,0.10017988378,1.6731160590630199,0.4838298456694246,-1.3052487495562972, ,0.057270332865703544,0.039855918336191,0.02044776831835687,-0.015603357109787554,0.02180013289074385,-0.019121893925845523, ,1.62410306930542
0.013447468599827128,0.021348568498969597,-0.08923362730206749, ,0.014032829993322553,0.02103402781300226,-0.08987952435425306, ,0.0009266967174570733, ,0.008967136368992476,0.0009592729280192078,-0.019558968496318798,-0.022544996730427536,-0.039344619171979574,0.006777460543597582, ,0.02153794298094712, ,0.04534614727809808, ,8.704128263942656e-05, ,0.19625008779979325,-0.2278746789197426,0.10017988378,1.6731160590630199,0.4838298456694246,-1.3052487495562972, ,0.057270332865703544,0.039855918336191,0.02044776831835687,-0.015603357109787554,0.02180013289074385,-0.019121893925845523, ,1.627394199371338
0.013570286605326377,0.02136119159994014,-0.0895200457284577, ,0.01406320370801837,0.021032711910224378,-0.0899393597878396, ,0.000988409555592781, ,0.007844650635412368,0.0008378834779194922,-0.01852811021969846,0.09469129552521581,0.09576816202679402,0.006886981747856818, ,0.020606324454492914, ,0.13467731851622902, ,8.79420868322517e-05, ,0.19714592481320328,-0.22725686028980466,0.10048451193,1.6731160590630199,0.4858793931659062,-1.3069200181117435, ,0.059273542509975505,0.039100511560968595,0.01981195462686567,-0.015603357109787554,0.16123780829203532,-0.13282396852658448, ,1.6310629844665527
0.013570286605326377,0.02136119159994014,-0.0895200457284577, ,0.014093589211812295,0.02103133789698904,-0.08999905208487072, ,0.0007823657538450807, ,0.007844650635412368,0.0008378834779194922,-0.01852811021969846,0.09469129552521581,0.09576816202679402,0.006886981747856818, ,0.020137811713975794, ,0.13467731851622902, ,8.86114925498903e-05, ,0.19714592481320328,-0.22725686028980466,0.10048451193,1.6731160590630199,0.4858793931659062,-1.3069200181117435, ,0.059273542509975505,0.039100511560968595,0.01981195462686567,-0.015603357109787554,0.16123780829203532,-0.13282396852658448, ,1.6346640586853027
0.013570286605326377,0.02136119159994014,-0.0895200457284577, ,0.014123986412597234,0.021029906177154032,-0.09005860184144278, ,0.0008404618936965248, ,0.007844650635412368,0.0008378834779194922,-0.01852811021969846,0.09469129552521581,0.09576816202679402,0.006886981747856818, ,0.020137811713975794, ,0.13467731851622902, ,8.944043455776972e-05, ,0.19714592481320328,-0.22725686028980466,0.10048451193,1.6731160590630199,0.4858793931659062,-1.3069200181117435, ,0.059273542509975505,0.039100511560968595,0.01981195462686567,-0.015603357109787554,0.16123780829203532,-0.13282396852658448, ,1.6363260746002197
0.013570286605326377,0.02136119159994014,-0.0895200457284577, ,0.014154395218449373,0.021028417153783945,-0.09011800965241268, ,0.0008997124864592382, ,0.007844650635412368,0.0008378834779194922,-0.01852811021969846,0.09469129552521581,0.09576816202679402,0.006886981747856818, ,0.020137811713975794, ,0.13467731851622902, ,9.03328046589828e-05, ,0.19714592481320328,-0.22725686028980466,0.10048451193,1.6731160590630199,0.4858793931659062,-1.3069200181117435, ,0.059273542509975505,0.039100511560968595,0.01981195462686567,-0.015603357109787554,0.16123780829203532,-0.13282396852658448, ,1.638051986694336
0.013570286605326377,0.02136119159994014,-0.0895200457284577, ,0.014184815537626901,0.02102687122915085,-0.0901772761113987, ,0.0009598790003015359, ,0.007844650635412368,0.0008378834779194922,-0.01852811021969846,0.09469129552521581,0.09576816202679402,0.006886981747856818, ,0.020137811713975794, ,0.13467731851622902, ,9.128940113383708e-05, ,0.19714592481320328,-0.22725686028980466,0.10048451193,1.6731160590630199,0.4858793931659062,-1.3069200181117435, ,0.059273542509975505,0.039100511560968595,0.01981195462686567,-0.015603357109787554,0.16123780829203532,-0.13282396852658448, ,1.6397831439971924
0.013655814605539284,0.021364509258407854,-0.08969942526861334, ,0.01421524727857134,0.02102526880473447,-0.09023640181078138, ,0.0008463999101506692, ,0.009045750605638203,-0.0001858759244563336,-0.017312452377426603,-0.04309984807765405,-0.04606717721834871,0.009480854347466474, ,0.01953410251839998, ,0.06308549885638991, ,9.211919290198745e-05, ,0.19775602071026702,-0.22682438724884807,0.10067377027,1.6731160590630199,0.4866992121644989,-1.3073434893135003, ,0.06218672448130458,0.04606647648469455,0.018039424144960365,-0.015603357109787554,0.02017759559171784,-0.004103957143710051, ,1.641484022140503
