NicholasDascanio/dvrk_moveit_final/test/execution/third_experiment_notsharpbends/thirdexp_700vel4.0/thirdexp_700vel4.0_17.csv
Current Position (x),Current Position (y),Current Position (z), ,Planned Position (x),Planned Position (y),Planned Position (z), ,Position Error,,Cartesian linear Velocity(x),Cartesian linear Velocity(y),Cartesian linear Velocity(z),Cartesian Angular Velocity(x),Cartesian Angular Velocity(y),Cartesian Angular Velocity(z), ,Total Linear Velocity, ,Total Angular Velocity, ,MSE, ,Joint 1 Position,Joint 2 Position,Joint 3 Position,Joint 4 Position,Joint 5 Position,Joint 6 Position, ,Joint 1 Velocity,Joint 2 Velocity,Joint 3 Velocity,Joint 4 Velocity,Joint 5 Velocity,Joint 6 Velocity, ,Time Stamp
0.009294579915083008,0.0206264858568967,-0.07855842792922847, ,0.009442231530687005,0.020563713572667768,-0.07859463574716231, ,0.00016447603271394425, ,1.6484994473857226e-05,-3.602794500542253e-06,1.0044512193817635e-06,0.04041691634631306,0.0003659825272948433,-0.01194835371565148, ,1.6903966790915036e-05, ,0.0404185733315162, ,1.3706336059495355e-05, ,0.16901973168527762,-0.2500852586660123,0.08911345605000001,1.6771001679892257,0.4644274627027321,-1.2715397631406222, ,0.00021285193964828817,0.0,0.0,-0.0009174732741754488,0.0,-0.04255299419399616, ,0.016505956649780273
0.009296849769975723,0.020628089951770436,-0.07856447466883247, ,0.009471232913857439,0.020570633593039043,-0.07867144775490366, ,0.00021249460033689207, ,0.00018083956502125894,0.00018061189070786883,-0.0007045824329617407,0.19229791306086455,0.0028384362579703722,-0.05997245375359493, ,0.0007495065097652155, ,0.19231886045823537, ,1.7135028775038014e-05, ,0.16903517715102606,-0.2500852586660123,0.08911993750000001,1.6771001679892257,0.4644274627027321,-1.2727649442427305, ,0.0007608994164023501,0.0,0.000744121900361893,-0.0009042661202030946,0.0,-0.20186838458384315, ,0.03293490409851074
0.00930431790547914,0.020630507961464407,-0.0785842074177662, ,0.009500318706272748,0.020577426166560976,-0.07874824708648218, ,0.00026104214942103177, ,0.0003591030784088896,0.0002314723517329997,-0.0012915171196567,0.32389376854972324,0.004479081561696195,-0.10208232191093897, ,0.0013603495657020976, ,0.3239247373649849, ,1.9937899452245878e-05, ,0.16905834534964875,-0.2500543677345154,0.08913938185,1.6771001679892257,0.4641541897032012,-1.276217651741663, ,0.0017611149737658729,0.0012294628102397784,0.0014401001570691116,-0.0008804259804298863,0.0,-0.3236575338990888, ,0.05176591873168945
0.00933232496734843,0.020634881304441667,-0.07861769605758068, ,0.009529488360501475,0.02058409198647347,-0.07882503331132626, ,0.00029058853248202445, ,0.0019455795675418813,0.00041753174039504607,-0.002624163665206209,0.030437384689727606,-0.13871955202454345,-0.04911589344668744, ,0.0032933034402651473, ,0.1420195356298423, ,2.2109555117949822e-05, ,0.1691124044797683,-0.25001575407014426,0.08916790023000001,1.6771001679892257,0.4619680057069542,-1.2794990471712353, ,0.004320802699243906,0.0022960538914665552,0.0023407511418074953,-0.0008571178890375225,-0.14010673657062478,-0.0436998107421569, ,0.06826090812683105
0.009347055428988435,0.020638819117402656,-0.07864984055113301, ,0.009558741330503814,0.020590631744592233,-0.07890180599997952, ,0.00033259514610284384, ,0.0010068517813345689,0.00034481852627926663,-0.0023490529204987826,0.29907361615587863,-0.02077642268870667,-0.10008474299862954, ,0.00257889510235408, ,0.2997944089208838, ,2.425377809724493e-05, ,0.16915101814413944,-0.24998486313864737,0.08919641861000001,1.6768904780457412,0.46128482320812697,-1.281555677337251, ,0.005213671538965861,0.003800659803334013,0.002345576722132234,-0.0010802298184704113,-0.02289135050267482,-0.2889108433897589, ,0.08571386337280273
0.009394164979204762,0.020656287590366654,-0.07874076683704836, ,0.009588077071629604,0.02059704613131059,-0.07897856472409967, ,0.0003125048561954464, ,0.0031817039322723523,0.0010969930923383619,-0.006383890350278578,-0.028047762717407197,-0.205545560246419,-0.05381391390045416, ,0.007216695210527834, ,0.20745036591884647, ,2.538227931051908e-05, ,0.1692591364043786,-0.2499308040085278,0.08928586262,1.676680788102257,0.45841545671305267,-1.287465454113823, ,0.004620514424203735,0.0054755375305629225,0.006026792099886493,0.0016732412421173936,-0.2087775813376936,0.010285179833285807, ,0.10180306434631348
0.009418982136490476,0.02067020694822493,-0.07880076240211954, ,0.00961749504061758,0.020603335835600225,-0.07905530905645783, ,0.00032965606022559003, ,0.0016888601281642309,0.0010046536741754397,-0.004660538758418553,-0.11733551235998664,-0.06734514555168002,0.01706240887011366, ,0.0050578848401539025, ,0.13528854751219252, ,2.6435519131635737e-05, ,0.16931319553449814,-0.24990763580990513,0.08934549196000001,1.6768904780457412,0.45718572821516373,-1.2866260504608364, ,0.004623079068406819,0.0021457594321512325,0.004702926341895483,0.0004603891714256613,-0.06314914182998484,0.11650205340135442, ,0.12027597427368164
0.00944622064896645,0.0206933278000388,-0.07891917842186276, ,0.009646994695593578,0.020609501545012662,-0.07913203857093766, ,0.0003043788788581235, ,0.0002700650848100556,0.00044063709310123735,-0.0028222128011107708,-0.012485776653351282,0.10115745954893204,0.03511949217496673, ,0.002869142954368721, ,0.10192510113241074, ,2.692361288214508e-05, ,0.1695526002535991,-0.24979179481679176,0.08947382467000001,1.6771001679892257,0.45868872971258356,-1.282215814331798, ,0.00912119669108027,0.004358298868005664,0.0032748378947368424,-0.001254151726723874,0.11506502009966658,0.015961679026247372, ,0.13724398612976074
0.009452269960143915,0.020698783887998395,-0.07895030971194042, ,0.009676575496069423,0.020615543945680204,-0.07920875284253337, ,0.0003521856232083444, ,0.0011157766154523863,0.0006291506368344356,-0.003515275543717899,-0.028387509298101025,0.026602072531884194,0.019109319218775216, ,0.0037413834510352886, ,0.0389039965376903, ,2.7825237821133055e-05, ,0.1696452730480898,-0.24975318115242065,0.08950882450000001,1.6771001679892257,0.45950854871117625,-1.2821492130927117, ,0.010387401850419357,0.0038010336319937547,0.003811632333094042,-0.001254151726723874,0.0392233971876945,0.028179968795246847, ,0.15388107299804688
0.009479846986840311,0.020710300687448526,-0.07903457839691425, ,0.009706236902941697,0.020621463722317195,-0.07928545144735069, ,0.0003494019002830769, ,0.001365744296893727,0.0007600855799521309,-0.004215853527355806,0.028895140045682402,-0.0049982356759887174,-0.019647487063024435, ,0.00449626606613391, ,0.029324247250365358, ,2.8522782155169783e-05, ,0.1698383413699454,-0.2496450628921815,0.08959697222000002,1.676680788102257,0.45978182171070714,-1.282453727640245, ,0.007918111549118733,0.004589302750961365,0.00440509168141593,0.009405278292852743,0.0,-0.03338196157200146, ,0.17184209823608398
0.009494636971357412,0.02071723597956355,-0.07908084092635888, ,0.009735978378489916,0.020627261558221265,-0.0793621339626038, ,0.00038140115827362773, ,0.001541557919080684,0.0006918414390089688,-0.004647925744889214,0.021582788525549165,-0.0063470448480069126,-0.01839889114725428, ,0.004945529205718466, ,0.022496705018113346, ,2.9381472661615585e-05, ,0.16992329143156187,-0.2495832810291877,0.08964493495,1.676680788102257,0.45978182171070714,-1.2826987638606668, ,0.009168468718523143,0.006741866197083824,0.004823988952150212,0.009405278292852743,0.0,-0.027944631975041188, ,0.1881270408630371
0.009528203934571579,0.020729563911590698,-0.07917463355969055, ,0.00976579938637578,0.02063293813527438,-0.07943879996661607, ,0.0003682010726691494, ,0.0016887147713603046,0.0005967766423399459,-0.004336217541718968,-0.009033563540173366,-0.009482309629516407,-0.008615236758298173, ,0.0046915543809023805, ,0.013096543994937088, ,2.999119680959094e-05, ,0.17013952795204018,-0.24943654910457744,0.0897421567,1.676680788102257,0.45978182171070714,-1.2829438000810884, ,0.011630100861235037,0.0069478011078033045,0.0045175302098695415,0.008976086800280697,0.0,0.003831176828981427, ,0.20733189582824707
0.009563037459406506,0.020740288492089753,-0.07926464284121293, ,0.009795699391641417,0.02063849413394405,-0.07951544903881777, ,0.00035692774453462817, ,0.0015704035133902745,0.0004143211409970158,-0.004030423034180697,-0.005978509992540456,-0.009155003796408037,-0.008679981619858092, ,0.0043453583324278245, ,0.010934197509630659, ,3.065537217789865e-05, ,0.17037893267114113,-0.24928209444709296,0.08983548958000001,1.676680788102257,0.45978182171070714,-1.2829438000810884, ,0.010777619711353863,0.00804481826787015,0.00416330672242551,0.007357371482889882,-0.00021429608508528403,-0.0007897290297130925, ,0.22194886207580566
0.009582445498047976,0.020745069110851076,-0.07931276718646355, ,0.009825677860708142,0.020643930233284594,-0.07959208075974578, ,0.000383936358033909, ,0.0016054937626513227,0.000459804220265597,-0.004519899084493323,-0.007852527305952922,-0.008531871818667502,-0.007872696227561414, ,0.004818559730551229, ,0.011595474114259664, ,3.142707223813308e-05, ,0.17050249639712872,-0.24918942165260224,0.08988474860000001,1.676680788102257,0.45964518521094166,-1.2829140609175325, ,0.010182043872356064,0.008939195436919248,0.004650747889051096,0.00670194204035547,0.0,0.00015183137955501112, ,0.236253023147583
0.009612080128913247,0.020755749591487058,-0.07940993687746353, ,0.0098557342613752,0.0206492471109381,-0.07966869471104271, ,0.000371033328782546, ,0.0016863544017895553,0.0006976356350070189,-0.00525558892110824,0.007853514489110562,0.0002589379112994106,-0.009021945109795463, ,0.0055634253437376446, ,0.007857781790233375, ,3.201894927598106e-05, ,0.17070328745185856,-0.2490117987964951,0.08998585922,1.676680788102257,0.460055094710238,-1.2834933508490436, ,0.010555167829640107,0.008382760820615669,0.005462555390946503,0.0058028117815919576,0.009457941361905994,-0.01525222330379299, ,0.25233006477355957
0.009631830200091049,0.02076271693893176,-0.07946635592341937, ,0.009885868062818336,0.020654445443135865,-0.07974529047545574, ,0.00039250788122107636, ,0.0017764350116369367,0.0005967745072027758,-0.005071637232727153,0.007030754983182529,-0.0013316429586218417,-0.008704397001496843, ,0.0054067888236365375, ,0.0071557518995154735, ,3.267931217305224e-05, ,0.17082685117784616,-0.2489191260020044,0.09004419227,1.676680788102257,0.460055094710238,-1.2834933508490436, ,0.012042675650693986,0.009021979989278176,0.005270950205162145,0.0053978048614933185,0.009457941361905994,-0.015118842055756237, ,0.2681128978729248
0.009668806888336486,0.020772790207649917,-0.07956433219545644, ,0.009916078735588486,0.02065952590469943,-0.07982186763683524, ,0.0003745619739541749, ,0.0017445904980182576,0.0004175766779029925,-0.004677042529833868,0.008301421595673408,-0.001863703212620572,-0.008950364364090668, ,0.005009260735236176, ,0.00850805429789109, ,3.3161037708361854e-05, ,0.17107397862982135,-0.24873378041302302,0.09014530289000001,1.676680788102257,0.460055094710238,-1.2834116721089028, ,0.012461491604971632,0.009891355034371607,0.004843056102158711,0.004779259272941813,0.009457941361905994,-0.017450127995561775, ,0.2833139896392822
0.009692762751204648,0.020778225971364958,-0.07962954504300972, ,0.00994636575161029,0.02066448916904157,-0.0798984257801349, ,0.00038671357981647544, ,0.0017986780581662725,0.0004256648578471843,-0.004688522455350693,0.005749656864347632,-0.0037948095289249877,-0.008200609258454276, ,0.005039709926420621, ,0.006889058800226386, ,3.366253907450514e-05, ,0.1712129878215574,-0.24862566215278387,0.09020104336000001,1.676680788102257,0.460055094710238,-1.2834116721089028, ,0.012870872312284115,0.010021435840291037,0.00498554351173709,0.0045025186160513025,0.009457941361905994,-0.01619469061974899, ,0.2991468906402588
0.009727793835025943,0.020785961659304623,-0.07971788389721145, ,0.009976728584180975,0.020669335908167965,-0.0799749644914094, ,0.0003763781437307944, ,0.001926389304958428,0.0004791337644521532,-0.004993311264436391,0.002379643699879728,-0.005616872618432871,-0.007156486783064036, ,0.005373425564948644, ,0.006100160575421328, ,3.4059378491047023e-05, ,0.17151417440365213,-0.24840942563230559,0.09030474656000001,1.676680788102257,0.4604650042095343,-1.2838276045601327, ,0.01374521169734513,0.010075916759104265,0.005176734325641859,0.00402015554178177,0.007195000194099286,-0.011718024142757532, ,0.31465601921081543
0.009747574966870665,0.02079095371951252,-0.07976671290801678, ,0.010007166707968787,0.020674066792677782,-0.08005148335781463, ,0.00040267186987582904, ,0.0019310761459018402,0.0004839026305587044,-0.004709846292044476,0.0020112635837169937,-0.007124207382367302,-0.006698102142649338, ,0.0051133031331828775, ,0.007402669093819376, ,3.455493242638932e-05, ,0.17165318359538817,-0.24831675283781487,0.09035530187000002,1.676680788102257,0.4604650042095343,-1.2838276045601327, ,0.014296014094376435,0.009158081692718457,0.004902681292705448,0.0038375711760816095,0.006272376234520697,-0.010476452522719204, ,0.33014988899230957
0.009786522161377008,0.020800262296463944,-0.07986627166573157, ,0.010037679599011957,0.020678682491765223,-0.08012798196760584, ,0.0003825623994815174, ,0.0019861025465938583,0.0005308363789660031,-0.00525531518948256,0.008160226398314575,0.001721466501672315,-0.006167693212271416, ,0.005643113354135859, ,0.008339828402282607, ,3.490748418818249e-05, ,0.17194664744460872,-0.24811596178308504,0.09045900507000001,1.676680788102257,0.46073827720906524,-1.2840504403675257, ,0.01474241751723952,0.010283796986675534,0.005481352897453545,0.0035049262211953106,0.01587039693260323,-0.017504106285197944, ,0.344789981842041
0.00980742154045861,0.020805241078644374,-0.07991765232525308, ,0.010068266734716941,0.020683183673220685,-0.0802044599101371, ,0.00040644411218940225, ,0.0019860756234104633,0.0004518506887552376,-0.005062114330376169,0.005974475934414576,-0.00034280718683618095,-0.006037682755387556, ,0.00545652516906443, ,0.005984302476835137, ,3.5342751898068155e-05, ,0.17209337936921898,-0.24801556625572013,0.09051215296000001,1.676680788102257,0.46073827720906524,-1.2840504403675257, ,0.014946754064966258,0.010602019264972756,0.0052692065894806486,0.003368220585768217,0.014009263834111987,-0.015688278426475112, ,0.35965704917907715
0.009844175081878667,0.020814770846970254,-0.08000849133663043, ,0.010098927593857412,0.02068757100343168,-0.08028091677586034, ,0.0003940739302406681, ,0.002133047002711895,0.0005013735892188899,-0.005012563382484783,-0.0028403279947596563,-0.011795054293297233,-0.005744251821996723, ,0.005470562736608705, ,0.012132220148644953, ,3.568659426529917e-05, ,0.17236367501981684,-0.24784566613248718,0.09060678213000001,1.676680788102257,0.4608749137088306,-1.284161858271222, ,0.015724431078454146,0.009800609756566426,0.005212307434554975,0.003140213298523423,0.0031622221245803323,-0.0063806721658127095, ,0.3762979507446289
0.009872057071982361,0.020821638795637143,-0.08007633568807926, ,0.010129661656572704,0.020691845147384348,-0.08035735215632461, ,0.00040271176858123423, ,0.00206490836222551,0.00042015069653379494,-0.004856917367439019,0.006611914219557224,-0.0005631908668102799,-0.0053913816863750685, ,0.005294338435188804, ,0.006635856455387342, ,3.604108304874935e-05, ,0.17258763427316934,-0.24771437967362536,0.09067807808000002,1.676680788102257,0.4611481867083615,-1.2843846940786148, ,0.01642668193845781,0.0103557990805546,0.005079340408163266,0.0029865995551739315,0.015406293906830829,-0.016075117517426896, ,0.3908669948577881
0.00991491500813937,0.02082959754937876,-0.0801762401744757, ,0.010160468404366636,0.02069600676866425,-0.08043376564417413, ,0.0003800820104057285, ,0.0019501834276603753,0.0003253612415598895,-0.004706446859609587,0.0033027076080937028,-0.0019778052583552066,-0.005236746476334543, ,0.005104871926048636, ,0.003849621913294206, ,3.627418875154008e-05, ,0.17291198905388677,-0.24749814315314708,0.09078178128000002,1.676680788102257,0.46128482320812697,-1.2844961119823113, ,0.015022469773384641,0.010917580930756895,0.004887637778459651,0.002779906840039456,0.012583661329982617,-0.013408795124410065, ,0.40572309494018555
0.009934966864563926,0.02083260865321978,-0.08022500172408407, ,0.010191347320105956,0.020700056529457948,-0.08051015683314836, ,0.00040572705076587207, ,0.0019895234858474417,0.00044073384822308835,-0.004659163526211199,-0.000672399920246893,-0.005901403238504602,-0.0042474146595926614, ,0.005085297905696859, ,0.005939585813897182, ,3.674193588009697e-05, ,0.17306644371137125,-0.2473823021600337,0.09083233659,1.676680788102257,0.4614214597078924,-1.284689208626148, ,0.01520784319847288,0.009400826185556025,0.00486227457875458,0.0026860691708198926,0.008828221320211565,-0.00794468904184815, ,0.41914796829223633
0.009954734539289531,0.020837162613170916,-0.08027204702228527, ,0.010222297888019106,0.02070399509055393,-0.08058652531808119, ,0.0004338436736775561, ,0.002109227471707208,0.0004510604080140637,-0.005119303397194106,0.0012659372914809986,-0.0029940092112107136,-0.004317708492312252, ,0.0055551384583649496, ,0.0032506437618927877, ,3.729059543553532e-05, ,0.17322089836885576,-0.24728962936554302,0.09088159561,1.676680788102257,0.46155809620765786,-1.2848006265298446, ,0.016054295645148164,0.01068678020958709,0.005336285266331659,0.002605919046006737,0.012686289096727175,-0.011061757752540877, ,0.43203186988830566
0.009998951089818183,0.020847875722191867,-0.08038533819712021, ,0.01025331959369512,0.02070782311134365,-0.08066287069489841, ,0.0004164029925369884, ,0.0023267309324029872,0.0006520387972604131,-0.0061485762476719665,-0.002135700854188152,-0.006215648396060286,-0.0043337214471553176, ,0.006606347046467477, ,0.0065723279235272115, ,3.773956208592584e-05, ,0.17354525314957317,-0.24706567011219052,0.09099955800000001,1.676680788102257,0.4618313692071887,-1.2850234623372374, ,0.01614442694087628,0.011362839776423796,0.006391978940609952,0.0024535039885094086,0.009524429471349584,-0.008429628349096517, ,0.4458889961242676
0.010016472576979256,0.02085334122352486,-0.08043376362595364, ,0.010284411924081686,0.020711541249823107,-0.08073919256061853, ,0.0004303319188696326, ,0.002257229158520473,0.0006481319736642577,-0.006343662304160833,0.004436615614273801,0.0036799721947249784,-0.0039035969944253195, ,0.006764407583712863, ,0.005764177581381086, ,3.8213419732354716e-05, ,0.17366881687556077,-0.24698072005057403,0.09105011331000001,1.676680788102257,0.4619680057069542,-1.2852165589810745, ,0.015847852631675145,0.012024447739289254,0.006606723981750311,0.0023998268437667716,0.019369443741932734,-0.01535971576775311, ,0.4637000560760498
0.01006713089608276,0.020860591006145186,-0.08055220651522647, ,0.010315574367484497,0.020715150162593652,-0.08081549051335095, ,0.0003901226231885762, ,0.0021557140326101194,0.00032775379810945555,-0.005345128330166759,-0.0012735862953828885,-0.0024923404122061165,-0.004004556656756987, ,0.0057727742384852225, ,0.0027988887829007987, ,3.85159834073717e-05, ,0.17403178532064933,-0.24670270166710195,0.09117196457000001,1.676680788102257,0.4619680057069542,-1.2852165589810745, ,0.01609240996412935,0.012705441365439923,0.005532758430010421,0.0022519937915127007,0.013347132456415346,-0.0105003619721203, ,0.4775819778442383
0.010090312402826467,0.020863846856179792,-0.08060722225406076, ,0.010346806413565312,0.02071865050486326,-0.08089176415229478, ,0.0004096770067152275, ,0.002346300297846466,0.0003141845189170746,-0.00526422762681296,-0.01166521527813669,-0.0159754713154451,-0.00414948189151483, ,0.005771995279494117, ,0.019781125528977518, ,3.886981316157468e-05, ,0.17420940817675648,-0.24657141520824014,0.09122900133,1.676680788102257,0.4621046422067196,-1.285327976884771, ,0.017304329241150763,0.012564138959151434,0.005429042781186094,0.002191468490009234,0.0008179607884129249,-0.00030311795894463983, ,0.4908280372619629
0.010117342629917599,0.02086674513301589,-0.08067779514130712, ,0.010378107553340957,0.020722042930447927,-0.0809680130777389, ,0.0004161292147191008, ,0.0018220667168334153,8.233685749354792e-05,-0.00477097055540884,0.016242696051634538,0.02042123667749377,-0.0035571197620820273, ,0.0051077261593856175, ,0.026093142393971737, ,3.9226324040986555e-05, ,0.17444109016298323,-0.24638606961925877,0.09130288986000001,1.676680788102257,0.4626511882057813,-1.2858553272396973, ,0.015498438928380006,0.013926759841278365,0.004963792932377689,0.0021128699543999023,0.036203606280577345,-0.028632884470316255, ,0.5075500011444092
0.010152104516881139,0.020868146120419213,-0.08075928822949696, ,0.010409477279181876,0.020725328091772438,-0.08104423689105933, ,0.00040967483179595916, ,0.0018510958324532251,0.00011100313619905553,-0.004751545455317429,0.005831087615830597,0.009691413225496458,-0.0032745119814989844, ,0.005100594248822331, ,0.01131039657433898, ,3.9542707669594035e-05, ,0.1746882176149584,-0.24615438763303202,0.09138585242000001,1.676680788102257,0.4626511882057813,-1.2859370059798378, ,0.014689929033819004,0.013412995273282088,0.004913266971005552,0.0020256554131055154,0.02445130326977458,-0.01798259352682193, ,0.520474910736084
0.010174049587333426,0.020869789111727023,-0.0808113367447987, ,0.010440915084810794,0.020728506639871823,-0.08112043519472026, ,0.00043211084497066823, ,0.0021754808284467422,0.00026134414250253435,-0.005618375287905701,0.0005907535557264021,0.0029659080159876467,-0.0034711106375968346, ,0.006030518922241201, ,0.00302416840216193, ,3.9914955848416914e-05, ,0.1748426722724429,-0.24601537844129598,0.09143900031,1.676680788102257,0.4626511882057813,-1.2859370059798378, ,0.01621615542694306,0.014225294792155717,0.005804960466472304,0.001977905607564659,0.019148673896027445,-0.013686902208961271, ,0.5339350700378418
0.010197977386367968,0.02087268183166446,-0.08087089097434785, ,0.01047242046530134,0.020731579224392508,-0.08119660759227129, ,0.00044868726808864923, ,0.0025100759241680494,0.0004502191429191195,-0.006120094924529976,-0.01354175718578447,-0.016787356158202194,-0.0039324315475973, ,0.006630138784897078, ,0.02156836817830863, ,4.032049698102292e-05, ,0.17517474978603456,-0.2457373600578239,0.09156214786000001,1.676680788102257,0.4627878247055468,-1.2860484238835341, ,0.01723518735170192,0.01339406373443483,0.006305942802850357,0.001889640139895075,0.0,0.0007033054517396674, ,0.5473558902740479
0.010244997627379713,0.020881500851543434,-0.08099313270032754, ,0.01050399291707672,0.02073454649359333,-0.08127275368834737, ,0.0004084875032934894, ,0.0024041535583449493,0.00033418881381956905,-0.005976536424861584,-0.0032017668501740926,-0.008384070980739396,-0.00522563731376592, ,0.006450629747015565, ,0.008974628100807834, ,4.0583260061895414e-05, ,0.1753523726421417,-0.24559835086608786,0.09162696236000001,1.676680788102257,0.4630610977050777,-1.2864346171712082, ,0.017064726048996722,0.01433488543179317,0.006157252230382684,0.001846349742372558,0.00834944302725264,-0.01055225871809236, ,0.5607678890228271
0.010267632480287371,0.020884827607872893,-0.08105085543197832, ,0.010535631937908357,0.020737409094346935,-0.08134887308866787, ,0.00042704853484595243, ,0.00227854435413304,0.0002135202952095169,-0.005661066050834569,0.005743729517822931,-0.007746497399476482,-0.006451809277071243, ,0.0061061464216091, ,0.009643580503101067, ,4.088887932861419e-05, ,0.17551455003250044,-0.2454516189414776,0.09168659170000001,1.6768904780457412,0.4631977342048431,-1.2865460350749047, ,0.01621615542694306,0.014667224352159315,0.005809194573304159,0.0,0.008425018871819212,-0.020575472744039282, ,0.5741379261016846
0.010306131070905486,0.020890133763587657,-0.08114780963201325, ,0.01056733702691458,0.020740167672140708,-0.08142496540003548, ,0.0004093088073649178, ,0.0022435537533875595,0.0005088268183378742,-0.005805561732265682,-0.002692627425431681,0.0008453342154973223,0.00010077173240863912, ,0.006244756616758332, ,0.002822202294836351, ,4.12487818200312e-05, ,0.1757848456830983,-0.24521993695525085,0.09178640603,1.6768904780457412,0.46333437070460853,-1.2869024891990226, ,0.01636436308992426,0.011722908160404048,0.006051980060790275,0.0,0.017701120937703343,-0.008110871248621128, ,0.5906190872192383
0.010336903525080494,0.020892535773302332,-0.08121736782651241, ,0.01059910768455933,0.020742822871078207,-0.08150103023033502, ,0.00041428170811995906, ,0.001958103090081973,-6.3993465111957795e-06,-0.004073060541228672,-0.0026109339684161404,-0.0030363872032038793,0.001731064125938839, ,0.004519295391489512, ,0.004004575172750894, ,4.1608495961520434e-05, ,0.1760088049364508,-0.24505775956489215,0.09185770198000001,1.676471098158772,0.46333437070460853,-1.2869841679391631, ,0.016294117712649513,0.012390252194603836,0.004210629532117368,-0.003204147626917172,0.014379097247648562,-0.009674349588448025, ,0.6023969650268555
0.010360371841084858,0.020889454709599554,-0.08125962328189362, ,0.01063094341265064,0.020745375333880014,-0.08157706718853257, ,0.00044129182601709794, ,0.002083767524983478,-0.0003028745062560332,-0.003663156723608964,0.0010982082839362827,-0.006572152146496453,-0.005195605797227231, ,0.004225226295293208, ,0.0066632758168943445, ,4.2029935158954296e-05, ,0.1762018732583064,-0.24490330490740767,0.09190047955000001,1.6762614082152878,0.46333437070460853,-1.2869024891990226, ,0.0183766346937395,0.014841561082025459,0.0037488377312308785,0.0010877161383965777,0.011689133187925554,-0.015491809596903328, ,0.613976001739502
0.01038222872476992,0.02088902553585418,-0.08130843510094465, ,0.010662843714339459,0.0207478257018852,-0.0816530758846748, ,0.00046632546069682646, ,0.0023797088815558573,0.0002429613344681268,-0.005516785157603905,-0.001555249383046328,-0.009875050284184521,-0.005106934707594289, ,0.00601306602709143, ,0.009996770160833323, ,4.250408368397949e-05, ,0.1763872188472878,-0.24474885024992316,0.09195103486,1.6762614082152878,0.4636076437041394,-1.2871253250064154, ,0.017521591868255314,0.013908389499995717,0.005688861257142857,0.0010877161383965777,0.007440288838159202,-0.012027161926654031, ,0.6263809204101562
0.010394101271231736,0.020891483191745875,-0.08133809345523962, ,0.010694808094118161,0.020750174615052443,-0.08172905592988768, ,0.0005130734486995989, ,0.0025071190215274364,0.00046076838731929173,-0.006025175782732417,0.0019353326616591093,-0.007668705816144427,-0.004886726953739997, ,0.006542224125454791, ,0.007909143661948366, ,4.308663736752474e-05, ,0.1764798916417785,-0.24468706838692936,0.09198214582000001,1.6762614082152878,0.4637442802039049,-1.287236742910112, ,0.018245903010665403,0.012919937584543332,0.006258865037328095,0.0010877161383965777,0.010434601673496736,-0.014468823266759426, ,0.638530969619751
0.010438354743266124,0.020904772214330278,-0.08146080523099006, ,0.010726836057819385,0.020752422711960924,-0.08180500693637541, ,0.0004742432431872382, ,0.002657729460497616,0.001002846117691855,-0.008339964517613298,0.009057981613534981,0.014182774648759859,-0.0014886182146382028, ,0.008810461643751443, ,0.01682849034526674, ,4.35445598651761e-05, ,0.17678880095674748,-0.24447083186645108,0.09211047853000001,1.6762614082152878,0.4641541897032012,-1.2877343541014823, ,0.017147983657114344,0.013493095628959303,0.0087185613136289,0.0010877161383965777,0.03182556403673436,-0.021139340814888663, ,0.6500270366668701
0.010470401799039455,0.020913731683350558,-0.08155003310006911, ,0.01075892711261442,0.020754570629811984,-0.0818809285174201, ,0.0004669805935592214, ,0.0027065642070335048,0.0006576858365867092,-0.007440942462895199,-0.0016162552800849683,0.0015890942561477804,-0.0019840284208768, ,0.007945166153237988, ,0.0022666007311755707, ,4.39668741216943e-05, ,0.1769818692786031,-0.24430865447609237,0.09220251512000001,1.6762614082152878,0.4641541897032012,-1.2877343541014823, ,0.018487617681369722,0.014781455071412894,0.00773243277669903,0.0010877161383965777,0.020322711387096556,-0.012034820412307813, ,0.6612370014190674
0.01052490151457109,0.02092312198450686,-0.08168422073291863, ,0.010791080767012138,0.020756619004429735,-0.08195682028737988, ,0.00041579460542088843, ,0.0028830137953572738,0.0002722471663882333,-0.006593044189351275,-0.013927527051245855,-0.02004857958405196,-0.004662577471271681, ,0.007200980401762345, ,0.024411504268352202, ,4.424315669603964e-05, ,0.17736028318944008,-0.24401519062687183,0.09234121815000002,1.6762614082152878,0.46429082620296663,-1.2878457720051788, ,0.020351049015327208,0.016625252550537976,0.006769575656608585,0.0010877161383965777,0.0,-0.002354517939302075, ,0.6729738712310791
0.01055027089093256,0.02092631629363271,-0.08174725648652413, ,0.010823296530857462,0.020758568470262792,-0.08203268186168876, ,0.0004291269941283288, ,0.002719527543123332,0.0003106075004927855,-0.005936008809665358,-0.004091119636487647,-0.00831839654986249,-0.0031189017450907425, ,0.006536704648796176, ,0.009270003973609225, ,4.454321925195937e-05, ,0.17756879697704414,-0.24386073596938734,0.09240732894,1.6762614082152878,0.464700735702263,-1.2882617044564086, ,0.021022804953139296,0.014363090897301466,0.006173957953488373,0.0010877161383965777,0.012726521989537066,-0.009500284416063279, ,0.6841170787811279
0.010577535735927292,0.02092860464723801,-0.08180458488581263, ,0.010855573915330147,0.020760419660384968,-0.08210851285685485, ,0.0004449310402638247, ,0.0025943745955798315,0.00018421176126613226,-0.005886352123691529,0.013521934690809966,0.013219244307082706,-0.002967350639788578, ,0.006435359728815986, ,0.018910080136422796, ,4.48719316112189e-05, ,0.17778503349752245,-0.24371400404477708,0.09246695828000001,1.6762614082152878,0.46483737220202836,-1.288373122360105, ,0.02184552061659088,0.015805619846514123,0.006164400743034057,0.0010877161383965777,0.035574341362204706,-0.02794904201907499, ,0.6953389644622803
0.0106076886956565,0.020930537829468958,-0.08187157551301603, ,0.010887912432943304,0.02076217320649682,-0.08218431289046062, ,0.00045241204278671565, ,0.002662410679468787,0.0002148685273977797,-0.006626307387412091,0.0028222874449836534,0.004667765329973838,-0.0033796723719134265, ,0.007144406812513379, ,0.00545466101814832, ,4.520763190614167e-05, ,0.17800127001800073,-0.2435363811886699,0.09253566165,1.6762614082152878,0.46483737220202836,-1.288373122360105, ,0.01999092933610086,0.01744429072766007,0.006854049707401034,0.0010877161383965777,0.024946349634069942,-0.019121274111773626, ,0.7067399024963379
0.010635944676563964,0.020933083995070417,-0.08193864749365658, ,0.010920311597542167,0.020763829738926494,-0.0822600815811606, ,0.0004613365599852267, ,0.002744108100982118,0.0002699485339567331,-0.006919132931806395,-0.002120403971706361,-0.0005442392106458935,-0.003458850842781311, ,0.0074483153805990805, ,0.002189130755178625, ,4.555341504848591e-05, ,0.17819433833985635,-0.24336648106543698,0.09260436502000001,1.6762614082152878,0.46483737220202836,-1.288373122360105, ,0.019757847503325165,0.01759305553549699,0.007139763119677276,0.0010877161383965777,0.019385922475329755,-0.01445826380513529, ,0.7194790840148926
0.010663628448484248,0.02093648837045755,-0.0820112541659248, ,0.010952770924302692,0.020765389886631107,-0.08233581854868087, ,0.0004671403440551457, ,0.0029670501855753825,0.0003829213685266872,-0.007323271884050577,-0.01147005316844709,-0.010878851653529328,-0.0031645183192775556, ,0.007910772823556681, ,0.015808589814503733, ,4.5901458331856205e-05, ,0.17839512939458618,-0.2431888582093298,0.09267954984000001,1.6762614082152878,0.46511064520155926,-1.2886776369076385, ,0.020558262902614987,0.01740589537022575,0.00754919977251185,0.0010877161383965777,0.009668944740627908,-0.005106256444309828, ,0.7306640148162842
0.010692862771927627,0.02093953980891452,-0.08208508832672776, ,0.010985289929730083,0.020766854277197926,-0.08241152341381872, ,0.00047105604928580154, ,0.003071806508128144,0.0002400017577833418,-0.007304547301526377,-0.007209179271399356,-0.006175709363399374,-0.0034208638899396386, ,0.007927799653583194, ,0.009492714633495982, ,4.6354345598742004e-05, ,0.17861136591506446,-0.24300351262034842,0.09275603095000001,1.6762614082152878,0.4653839182010902,-1.2889004727150313, ,0.02246613199774403,0.019047960971190443,0.0075349155723746465,0.0010877161383965777,0.016419237332439753,-0.010821884375400636, ,0.7406899929046631
0.010723021180628128,0.02094040216232171,-0.08215044831442751, ,0.011017868131657805,0.02076822353684553,-0.08248719579844059, ,0.00047956133246072, ,0.002801311554526831,-6.43231099576651e-05,-0.006097325409645705,0.004436187282859288,0.011294454571278452,-0.001829903830896191, ,0.00671035476253762, ,0.012134432547252135, ,4.681424345003942e-05, ,0.17884304790129119,-0.24281816703136702,0.09282343803000001,1.6762614082152878,0.4655205547008556,-1.2891752480990086, ,0.023676881626364967,0.019174973036668173,0.006336042768496421,0.0010877161383965777,0.03558134573657609,-0.021909401651179793, ,0.751331090927124
0.010732067405491826,0.020940291479333836,-0.08216815134000911, ,0.011050505049245776,0.02076949829042462,-0.08256283532548214, ,0.000535115216309742, ,0.002807419449171288,-5.8736320596824805e-05,-0.005958516910032442,0.0017648616632831037,0.007579388325430032,-0.0018160446429721171, ,0.006587031022098274, ,0.0077821498679549, ,4.738683298970047e-05, ,0.1789125524971592,-0.24276410790124747,0.09284158609000001,1.6762614082152878,0.4655205547008556,-1.2891752480990086, ,0.023665072707848074,0.018684178294638865,0.006190754574426739,0.0010877161383965777,0.03177313691656226,-0.018852651948594486, ,0.761754035949707
0.010784597683529866,0.02094103276623425,-0.08227369919448313, ,0.011083200202979515,0.02077067916141994,-0.08263844161894666, ,0.0005012193646483003, ,0.0031576901898003437,-4.806592506700063e-05,-0.0061787879183315235,-0.022783066574001736,-0.025616139121520488,0.0030463847779473893, ,0.0069390732672045975, ,0.034281987938315495, ,4.786882936016736e-05, ,0.1793218573394931,-0.24244747585340426,0.09295047445000001,1.676471098158772,0.46565719120062105,-1.2892049872625646, ,0.024220760989910866,0.018662132066562594,0.00633352346719682,-0.005566511924948203,0.0,0.0036151494314135566, ,0.7712678909301758
0.010814325723851593,0.02094116148846461,-0.08233875048669724, ,0.011115953114668195,0.020771766771950646,-0.0827140143039041, ,0.0005103886610989111, ,0.0031824147179821062,0.00010233237630716835,-0.007140974474884308,-0.008265770183282334,-0.011727485948274198,0.00160016694044807, ,0.007818679671365172, ,0.01434771287769781, ,4.8358249721873294e-05, ,0.17956126205859407,-0.24225440753154864,0.09301788153000001,1.676471098158772,0.46593046420015194,-1.2895911805502387, ,0.023724235389617696,0.01974551426518327,0.00735062829718505,-0.005376904352499091,0.01356425738235971,-0.011782358140422593, ,0.7811079025268555
0.010845320900894146,0.020943833911946205,-0.08241726834987867, ,0.01114876330744394,0.02077276174277205,-0.0827895530064906, ,0.0005098419820957713, ,0.002976484492925397,0.000532536883838975,-0.008581886268591047,0.040001072828841855,0.03409888961498077,-0.002288979954880934, ,0.009099001450505757, ,0.05256253469804883, ,4.8833774578506476e-05, ,0.17980066677769505,-0.24206133920969303,0.09309954780000002,1.6762614082152878,0.4663403736994482,-1.2900887917416088, ,0.02250342460480692,0.019244968882269477,0.008984101252115061,-0.0036370763317983457,0.05853047424371188,-0.05857567571484318, ,0.7927250862121582
0.010913414474732935,0.020954048805577954,-0.08258915122495772, ,0.011181630305760052,0.02077366469327643,-0.0828650573539069, ,0.00042497335443071734, ,0.003413410265584339,0.0002172947945429986,-0.007260020645328499,-0.040307032655021766,-0.040793162943873564,0.002362071963948067, ,0.008025365190415204, ,0.05734752831856995, ,4.9115763268591254e-05, ,0.18026403075014852,-0.24168292529885604,0.09327713953000001,1.676051718271803,0.46661364669897915,-1.2903933062891424, ,0.023083663721350227,0.0185526767465241,0.007412197077710565,-0.003942673985375451,-0.016998861861130074,0.021270802046082678, ,0.8028430938720703
0.010945349060859264,0.02095381473909176,-0.0826541963505629, ,0.011214553635389791,0.020774476241494585,-0.08294052697441781, ,0.0004319937798460978, ,0.003413410265584339,0.0002172947945429986,-0.007260020645328499,-0.040307032655021766,-0.040793162943873564,0.002362071963948067, ,0.008025365190415204, ,0.05734752831856995, ,4.9405424028579764e-05, ,0.18048799000350102,-0.24148985697700043,0.09334325032000002,1.676051718271803,0.46647701019921367,-1.2903635671255866, ,0.024152950256673654,0.02167586604807464,0.006842272989690722,-0.0037607528042717954,0.0,-0.004791150947069475, ,0.8132779598236084
0.0109763603309121,0.0209522064880079,-0.08271812394203214, ,0.01124753282342502,0.020775197004096496,-0.08301596149735083, ,0.000439970552933334, ,0.0031956335264924285,-9.145838495777898e-05,-0.0063636660355709165,-2.5791247059745814e-05,-0.008566914046610261,-0.001263397717918685, ,0.007121564693527707, ,0.008566952260539632, ,4.970446154683363e-05, ,0.18074284018835043,-0.24128134318939637,0.09340936111,1.676051718271803,0.46675028319874456,-1.2905864029329792, ,0.025794221679388635,0.019757847503325165,0.00657943474597274,-0.0035852759280304626,0.018390713324060653,-0.01978754451369502, ,0.8235800266265869
0.011003688696886633,0.020951579443176643,-0.0827750220739874, ,0.011280567398274752,0.020775827596392956,-0.08309136055309613, ,0.0004556539918568347, ,0.0029412656977567337,-4.802246686014062e-05,-0.006335728062336196,0.014045287685311514,0.024551088500035175,0.003800864195181745, ,0.006985327489960518, ,0.028284731614260296, ,5.002838587312134e-05, ,0.18098224490745138,-0.2411037203332892,0.09346899045000001,1.676051718271803,0.4671601926980409,-1.291002335384209, ,0.026149611892662104,0.019382545252955633,0.0066592021404682285,-0.0034406425367239216,0.05280888336673621,-0.031911320292237366, ,0.8337719440460205
0.011041777892193216,0.020952335627532636,-0.08285676910598165, ,0.011313656889664191,0.020776368632336506,-0.0831667237731039, ,0.0004482794533937962, ,0.003220945558140445,0.00015841155611526995,-0.0077236771228671,-0.005016771388759013,0.003922051904305589,0.0025311744478642684, ,0.008369872926628942, ,0.006367924215988119, ,5.032942070676986e-05, ,0.18126798602379768,-0.24087203834706244,0.09355324930000002,1.676051718271803,0.4672968291978063,-1.2911137532879056, ,0.024152950256673654,0.020742500887097438,0.007996391325301206,-0.003271501029102801,0.029627512980908023,-0.014812805184408986, ,0.8435959815979004
0.01107508227094884,0.02095509184494572,-0.08293108325405245, ,0.01134680082863275,0.020776820724522672,-0.08324205078988528, ,0.0004497914798088738, ,0.0032062211644718255,0.00032351273601025256,-0.007686415033410587,-0.009309749291439405,-0.00427114207046789,0.002148756578470296, ,0.008334596013707455, ,0.010242756446663713, ,5.0626237886625796e-05, ,0.18149966801002443,-0.24068669275808108,0.09362973041000001,1.676051718271803,0.4672968291978063,-1.2911137532879056, ,0.023094899381472567,0.018662132066562594,0.007964405760000001,-0.003144604898140443,0.020118723842378696,-0.008762158431008839, ,0.8536338806152344
0.01107508227094884,0.02095509184494572,-0.08293108325405245, ,0.01137999874753341,0.020777184484191136,-0.0833173412370102, ,0.0005232784307632089, ,0.0032062211644718255,0.00032351273601025256,-0.007686415033410587,-0.009309749291439405,-0.00427114207046789,0.002148756578470296, ,0.008334596013707455, ,0.010242756446663713, ,5.1163309936983804e-05, ,0.18149966801002443,-0.24068669275808108,0.09362973041000001,1.676051718271803,0.4672968291978063,-1.2911137532879056, ,0.023094899381472567,0.018662132066562594,0.007964405760000001,-0.003144604898140443,0.020118723842378696,-0.008762158431008839, ,0.8617119789123535
0.011107304125215616,0.02095807994256746,-0.08300898703795362, ,0.011413250180030768,0.02077746052122682,-0.08339259474910635, ,0.000522858718850722, ,0.003382161073330213,0.00022038308456582217,-0.008061270741996241,-0.027427101018966938,-0.023195667182380676,0.0011344712433929908, ,0.008744808071403142, ,0.035920534688367256, ,5.1688983498333816e-05, ,0.18172362726337693,-0.24049362443622546,0.09371010039000001,1.676051718271803,0.46743346569757177,-1.2913068499317426, ,0.02236552947406806,0.020710812212673676,0.0082489961263594,-0.0030200771362542955,0.0,0.0068255141576941715, ,0.8707680702209473
0.011138762730539969,0.020960241113204228,-0.08309368954993776, ,0.011446554661100037,0.02077764944416127,-0.08346781096185912, ,0.0005177281342363207, ,0.0032245833899306156,0.0002949280687703831,-0.008413888704368532,0.01349205031881394,0.022093404063555835,0.0013402940761119114, ,0.009015455825074261, ,0.02588733054513103, ,5.2194408872105066e-05, ,0.1819630319824779,-0.24026966518287293,0.09379824811000001,1.676051718271803,0.4679800116966335,-1.2917525215465284, ,0.024357531200839524,0.02116817790731001,0.00876654458998349,-0.002904574863282377,0.04824451760302748,-0.03336330334497011, ,0.8794970512390137
0.0111476570338064,0.020961245420811896,-0.08311595482660186, ,0.011479911727025631,0.02077775186017361,-0.0835429895120097, ,0.0005713332569554213, ,0.003102654224132693,0.00027775858129964115,-0.008225634213167663,0.023991879706204193,0.033694985684274655,0.0014573733101474447, ,0.008795718917339755, ,0.04136378022428969, ,5.2793561792172435e-05, ,0.18203253657834592,-0.24021560605275338,0.09382158133000001,1.676051718271803,0.468116648196399,-1.2918639394502247, ,0.024470588333798553,0.020897806993717415,0.00861016838918919,-0.0028745787530172866,0.06019646470550076,-0.043305413216634434, ,0.8882229328155518
0.011214631679604683,0.02096660347649883,-0.08326801367586778, ,0.011513320915399763,0.020777768375091803,-0.08361813003735487, ,0.0004974489136426059, ,0.0037561194739300675,0.0005619765854662474,-0.009317058925909347,-0.006614137412981544,-0.0037799994406356903,-0.0017675297208574522, ,0.01006140339186915, ,0.007618079763285376, ,5.3239988378562e-05, ,0.18250362328367362,-0.2398449148747906,0.09397843242000001,1.6758420283283186,0.4682532846961644,-1.292138714834202, ,0.02606342805780576,0.020656713443289246,0.009677285249088702,0.0,0.02284947122782913,-0.012886267903526316, ,0.8969929218292236
0.011251210495939117,0.020971053684056197,-0.08335838714083271, ,0.011546781765121084,0.020777699593393803,-0.08369323217674532, ,0.00048669228226573964, ,0.004043020170147984,0.0004517043007444957,-0.009491981475195055,-0.02802453662026877,-0.028835944733519747,0.005308064141269299, ,0.010327040292212509, ,0.04021052454772634, ,5.3657587508056186e-05, ,0.1827507507356488,-0.23964412382006076,0.09407176530000001,1.6756323383848342,0.46838992119592987,-1.2922501327378986, ,0.02682978274200474,0.021850550669691635,0.00977227700613497,-0.008081565390794286,0.0,0.005344391196070459, ,0.9056298732757568
0.011289299315827814,0.020974363756204817,-0.0834545069702863, ,0.011580293816393524,0.020777546118208777,-0.08376829557008503, ,0.0004710395602807443, ,0.0038668343718027006,0.0005651951502730608,-0.009663871850015032,-0.005505437696606174,-0.005991416323990586,-0.011820428305881182, ,0.0104241197590185, ,0.008136757923922886, ,5.403798454884505e-05, ,0.1830287691191209,-0.23941244183383403,0.09417157963000002,1.6754226484413495,0.4687998306952262,-1.2925027077088473, ,0.026006287080973085,0.021885826005182372,0.010011823708359523,0.008746241244843128,0.018328436466586637,-0.013983617422656441, ,0.9155199527740479
0.011324570820323213,0.020979397196746068,-0.08355137889522271, ,0.0116138566107247,0.020777308551318152,-0.08384331985833078, ,0.00045799084606525775, ,0.003573216727865924,0.0005132902629306934,-0.009746039293325693,0.0185703588844918,0.023851452055824462,-0.011155546132206512, ,0.01039310476158923, ,0.03022829645116251, ,5.438705689702541e-05, ,0.1832836193039703,-0.2391884825804815,0.09427269025000001,1.6754226484413495,0.46934637669428797,-1.292948379323633, ,0.025191648940395744,0.02276798022036247,0.010152206195028681,0.008240074999963987,0.04807666789643764,-0.038301646166640786, ,0.9243478775024414
0.011324570820323213,0.020979397196746068,-0.08355137889522271, ,0.011647469690924665,0.020776987493156956,-0.08391830468349008, ,0.0005290254274024621, ,0.003573216727865924,0.0005132902629306934,-0.009746039293325693,0.0185703588844918,0.023851452055824462,-0.011155546132206512, ,0.01039310476158923, ,0.03022829645116251, ,5.486051940700209e-05, ,0.1832836193039703,-0.2391884825804815,0.09427269025000001,1.6754226484413495,0.46934637669428797,-1.292948379323633, ,0.025191648940395744,0.02276798022036247,0.010152206195028681,0.008240074999963987,0.04807666789643764,-0.038301646166640786, ,0.932358980178833
0.011363677091044341,0.020983183214769118,-0.08364692692908039, ,0.011681132601104502,0.02077658354281496,-0.08399324968862133, ,0.0005132259532556531, ,0.0038909708426911444,0.0002579265326682255,-0.008825827147002516,-0.019968716177030367,-0.022449120232186596,-0.011232411371145282, ,0.009648906934139922, ,0.030045175509651998, ,5.5296510932952163e-05, ,0.1835461922216939,-0.23895680059425478,0.09437120829000001,1.6754226484413495,0.46948301319405333,-1.2930597972273294, ,0.026441053652402,0.02277891059972894,0.009076245880341883,0.0076936275950344685,0.002229981017926238,-0.0009725599551453687, ,0.9405090808868408
0.01140164043554123,0.020984471730904116,-0.08373247167061022, ,0.01171484488667538,0.020776097298037612,-0.08406815451783176, ,0.0005041824138161071, ,0.00398983142128578,0.00011194317469932667,-0.008713667517827943,-0.018700651689332284,-0.021156286173573787,-0.011015623413673363, ,0.009584325101742472, ,0.02823655021473139, ,5.570826474696907e-05, ,0.18381648787229177,-0.23872511860802803,0.09445935601000001,1.6754226484413495,0.4696196496938188,-1.293171215131026, ,0.028076018212565317,0.024103871363594303,0.008958836625421823,0.007231522753805396,0.005330558232677374,-0.003549655435929342, ,0.948854923248291
0.011433051111129749,0.020983187573703835,-0.08380664822819149, ,0.011748606094346338,0.02077552935522751,-0.08414301881627792, ,0.000505808319092512, ,0.0029936537484997316,-0.0002373304336311316,-0.007169597741806071,0.05053228781604382,0.060057025988007974,-0.009686267006940192, ,0.007773121656062303, ,0.07848795107214646, ,5.611555326911542e-05, ,0.18408678352288962,-0.2384934366218013,0.09453713341000002,1.6754226484413495,0.470302832192646,-1.293728304649508, ,0.027658683054057352,0.024134522268176698,0.007567131363420429,0.006832283227655083,0.08787963106239204,-0.07090581183985173, ,0.9588680267333984
0.01144747861636141,0.020981174748334216,-0.08384292056504779, ,0.011782415772123998,0.020774880309445465,-0.0842178422301631, ,0.0005434211523299338, ,0.0033944526061938938,-0.0003328083709725136,-0.00661081280080014,0.009134603409532632,0.009762982013855365,-0.009978059441593808, ,0.007438811450407174, ,0.013369995685341902, ,5.6582415411183555e-05, ,0.18424123818037413,-0.2383621501629395,0.09457602211,1.6754226484413495,0.4709860146914732,-1.2942853941679902, ,0.028713144193183295,0.023379389396026306,0.006871790992234686,0.006625249371136557,0.03767592042934882,-0.03001033569564962, ,0.967987060546875
0.01150339576921761,0.020976862587060604,-0.0839467557277041, ,0.011816273469310301,0.020774150754411566,-0.08429262440673732, ,0.0005085368083505922, ,0.003594062475853332,-0.00029020034796757257,-0.007307618048581615,-0.006095460603812686,-0.0062059580572192295,-0.010051486147186968, ,0.00814879027011085, ,0.008698766265481862, ,5.708013524664362e-05, ,0.18466598848845647,-0.2380146271835994,0.09468231789,1.6754226484413495,0.4709860146914732,-1.2942037154278496, ,0.02782085651083869,0.024622973938368133,0.007517136158565362,0.006117343555876845,0.020589223735296865,-0.016513665110841652, ,0.9745709896087646
0.01150339576921761,0.020976862587060604,-0.0839467557277041, ,0.01185017873650186,0.020773341282506592,-0.08436736499429631, ,0.0005818861597847752, ,0.003594062475853332,-0.00029020034796757257,-0.007307618048581615,-0.006095460603812686,-0.0062059580572192295,-0.010051486147186968, ,0.00814879027011085, ,0.008698766265481862, ,5.769933948271752e-05, ,0.18466598848845647,-0.2380146271835994,0.09468231789,1.6754226484413495,0.4709860146914732,-1.2942037154278496, ,0.02782085651083869,0.024622973938368133,0.007517136158565362,0.006117343555876845,0.020589223735296865,-0.016513665110841652, ,0.981024980545044
0.01154234197053458,0.02097387408694653,-0.08402698083125519, ,0.01188413112558804,0.020772452484772858,-0.08444206364218051, ,0.000574181354852311, ,0.004049314760245477,-0.0001793809305499635,-0.008783743885968288,-0.010521649641494194,-0.014663861203445112,-0.011722272017470895, ,0.009673845367798275, ,0.0180480991875794, ,5.82965290425809e-05, ,0.18494400687192855,-0.23775205426587576,0.09476398416000001,1.6754226484413495,0.4709860146914732,-1.294122036687709, ,0.029154206315966442,0.027387284721059387,0.008999328542372884,0.005819131213650557,0.013314975876966898,-0.015231421612262883, ,0.9883689880371094
0.01158480981740502,0.020975843616748015,-0.08412541547525475, ,0.011918130189749944,0.02077148495091576,-0.08451672000077337, ,0.0005531583558188861, ,0.004390887327692358,0.0003867828685314638,-0.010097269815263972,-0.006114146979509696,-0.01426691777252203,-0.005544527932524742, ,0.011017456613670856, ,0.015521843674509893, ,5.88491581266026e-05, ,0.18526063891977176,-0.2374817586152779,0.09486639107000001,1.6756323383848342,0.47139592419076953,-1.2944562903987982, ,0.030523300597771235,0.024420211414943587,0.01045883881812213,0.0,0.01652152292022709,-0.017674574220029972, ,0.9950430393218994
0.01158480981740502,0.020975843616748015,-0.08412541547525475, ,0.01195217548345926,0.020770439269304577,-0.0845913337215017, ,0.0006278760154122565, ,0.004390887327692358,0.0003867828685314638,-0.010097269815263972,-0.006114146979509696,-0.01426691777252203,-0.005544527932524742, ,0.011017456613670856, ,0.015521843674509893, ,5.952236461529187e-05, ,0.18526063891977176,-0.2374817586152779,0.09486639107000001,1.6756323383848342,0.47139592419076953,-1.2944562903987982, ,0.030523300597771235,0.024420211414943587,0.01045883881812213,0.0,0.01652152292022709,-0.017674574220029972, ,1.00199294090271
0.01161823213401159,0.020980345818578383,-0.08421261423101113, ,0.011986266562476186,0.02076931602697387,-0.08466590445683368, ,0.0006208501770203218, ,0.004286272645363158,0.0007107071678256359,-0.011311245287254834,0.05313768329889012,0.054388798097758435,-0.004213808441163287, ,0.012116992523610464, ,0.07603784952068131, ,6.017442716820354e-05, ,0.1855232118374954,-0.23728096756054806,0.09495842766000001,1.6756323383848342,0.47207910668959674,-1.295095058657421, ,0.033556202814169295,0.024603822027086022,0.01196755185574756,0.0,0.08971025689242165,-0.07526466705824189, ,1.0095429420471191
0.011674591357419235,0.020986837421974013,-0.08435778306788995, ,0.012020402983848984,0.020768115809624656,-0.08474043186027816, ,0.0005602186385678779, ,0.00491637683044356,0.0006642645935316558,-0.012682540748843826,-0.016667980049871828,-0.014613151639684586,0.0067879341053863245, ,0.0136183276666126, ,0.022166764122631372, ,6.071507171963344e-05, ,0.1859016257483324,-0.23697205824557907,0.0951087973,1.6750032685543808,0.4724890161888931,-1.2955109911086509, ,0.031154609835348256,0.027788269856067582,0.01309935157894737,-0.01105588100953034,0.01958599472268655,-0.01199720711063387, ,1.016049861907959
0.011674591357419235,0.020986837421974013,-0.08435778306788995, ,0.012054584305911992,0.02076683920162543,-0.08481491558638392, ,0.0006338485602455855, ,0.00491637683044356,0.0006642645935316558,-0.012682540748843826,-0.016667980049871828,-0.014613151639684586,0.0067879341053863245, ,0.0136183276666126, ,0.022166764122631372, ,6.137219486814948e-05, ,0.1859016257483324,-0.23697205824557907,0.0951087973,1.6750032685543808,0.4724890161888931,-1.2955109911086509, ,0.031154609835348256,0.027788269856067582,0.01309935157894737,-0.01105588100953034,0.01958599472268655,-0.01199720711063387, ,1.022636890411377
0.011725664594533175,0.020992673043691488,-0.08447984321611693, ,0.012088810088284455,0.02076548678601356,-0.08488935529073853, ,0.0005926114954761263, ,0.005067930183072566,0.0005367655185751607,-0.012090153536353086,-0.022549062351429706,-0.024009221194564438,0.006748159726906781, ,0.013120359983438726, ,0.03293786054038063, ,6.195169856765455e-05, ,0.18622598052904982,-0.236694039862107,0.09523453743000002,1.6750032685543808,0.4724890161888931,-1.2955109911086509, ,0.03340265454363632,0.02754628201987541,0.012493185505882354,-0.01105588100953034,0.012292634307792908,-0.0060499607326536435, ,1.029444932937622
0.0117735070137015,0.020997183348464298,-0.08459620925558667, ,0.012123079891869346,0.02076405914449614,-0.08496375062996706, ,0.000558242557951078, ,0.00497412619056205,0.00039782793161756305,-0.011862801326516879,-0.024620489811571063,-0.02466282443642366,0.006570412006088149, ,0.012869586385553385, ,0.03484857519059735, ,6.246651741289577e-05, ,0.18655033530976725,-0.2364160214786349,0.09535509240000001,1.6750032685543808,0.47276228918842395,-1.2957338269160434, ,0.032577048252135525,0.028361309491473634,0.012224721043745205,-0.01105588100953034,0.010780453084572704,-0.004816878341129296, ,1.0365259647369385
0.0117735070137015,0.020997183348464298,-0.08459620925558667, ,0.012157393278851706,0.020762556857451514,-0.08503810126173196, ,0.0006306241352430596, ,0.00497412619056205,0.00039782793161756305,-0.011862801326516879,-0.024620489811571063,-0.02466282443642366,0.006570412006088149, ,0.012869586385553385, ,0.03484857519059735, ,6.309379593940561e-05, ,0.18655033530976725,-0.2364160214786349,0.09535509240000001,1.6750032685543808,0.47276228918842395,-1.2957338269160434, ,0.032577048252135525,0.028361309491473634,0.012224721043745205,-0.01105588100953034,0.010780453084572704,-0.004816878341129296, ,1.0433380603790283
0.011817998731930273,0.021000049011109495,-0.08470509704093176, ,0.012191749812697723,0.020760980503930142,-0.08511240684473133, ,0.0006022830711310421, ,0.00430006376406758,0.0002916123169430046,-0.011208681420634978,0.05024262361058364,0.0607678029781191,0.007427352551832023, ,0.012008752029571084, ,0.07884825254337618, ,6.366647660613788e-05, ,0.18689013555623313,-0.23613800309516284,0.09546916592000002,1.6750032685543808,0.47344547168725115,-1.2962909164345255, ,0.0345582452871343,0.028251545566677815,0.01181662575667656,-0.01105588100953034,0.09992109288427085,-0.07750509296672256, ,1.0504560470581055
0.011858136973354584,0.02100246470616582,-0.0848012220911049, ,0.01222614905815284,0.02075933066165615,-0.08518666703869801, ,0.0005857600752716481, ,0.004760762220553399,0.00022669654324424343,-0.011089618171776533,0.020653197267072855,0.024268122813959757,0.007014831044044745, ,0.012070454814925729, ,0.03186685071585814, ,6.430940925345584e-05, ,0.18720676760407634,-0.23589087564318764,0.09557027654000001,1.6750032685543808,0.47412865418607836,-1.2968480059530076, ,0.03672482258454752,0.028463389789583318,0.011618389146608317,-0.01105588100953034,0.06489795027354726,-0.04894606856807047, ,1.0564439296722412
0.011858136973354584,0.02100246470616582,-0.0848012220911049, ,0.012260590581240937,0.020757607907027832,-0.08526088150439903, ,0.000658187309825062, ,0.004760762220553399,0.00022669654324424343,-0.011089618171776533,0.020653197267072855,0.024268122813959757,0.007014831044044745, ,0.012070454814925729, ,0.03186685071585814, ,6.506347583702909e-05, ,0.18720676760407634,-0.23589087564318764,0.09557027654000001,1.6750032685543808,0.47412865418607836,-1.2968480059530076, ,0.03672482258454752,0.028463389789583318,0.011618389146608317,-0.01105588100953034,0.06489795027354726,-0.04894606856807047, ,1.0615849494934082
0.011916620605948672,0.021003613412650828,-0.08492629386838961, ,0.012295073949262667,0.020755812815119675,-0.08533504990363461, ,0.0006096831681714249, ,0.0051861906245028976,-7.245567521355856e-05,-0.010947728267668731,-0.020438653783296897,-0.02153741263132908,0.0060964579677823556, ,0.012114230361078058, ,0.029691725346718524, ,6.573201251551351e-05, ,0.18763151791215868,-0.23555107539672177,0.09569990554,1.6750032685543808,0.4744019271856092,-1.2970708417604007, ,0.03747904484931705,0.031072999855425925,0.011297029446808512,-0.01105588100953034,0.018954294659285068,-0.011482098066199087, ,1.0664339065551758
0.011916620605948672,0.021003613412650828,-0.08492629386838961, ,0.012329598730794082,0.020753945959682954,-0.08540917189923651, ,0.0006826829142045934, ,0.0051861906245028976,-7.245567521355856e-05,-0.010947728267668731,-0.020438653783296897,-0.02153741263132908,0.0060964579677823556, ,0.012114230361078058, ,0.029691725346718524, ,6.651128519072707e-05, ,0.18763151791215868,-0.23555107539672177,0.09569990554,1.6750032685543808,0.4744019271856092,-1.2970708417604007, ,0.03747904484931705,0.031072999855425925,0.011297029446808512,-0.01105588100953034,0.018954294659285068,-0.011482098066199087, ,1.0714600086212158
0.011973676109295117,0.02100288257745328,-0.0850444593146415, ,0.012364164495685722,0.02075200791314693,-0.08548324715506783, ,0.0006387128040072237, ,0.0058500059428222805,4.7049116623672867e-05,-0.012189636214592698,-0.038235344429675695,-0.04312724722622173,0.005553139539879379, ,0.01352079931788579, ,0.05763593278366179, ,6.721284900611852e-05, ,0.18804082275449258,-0.2352112751502559,0.0958217568,1.6750032685543808,0.47453856368537467,-1.2971822596640972, ,0.04048504332699265,0.033007631846424614,0.012542371275590552,-0.01105588100953034,0.0,0.003973858289585497, ,1.0764050483703613
0.011973676109295117,0.02100288257745328,-0.0850444593146415, ,0.012398770815060507,0.020749999246620358,-0.08555727533602181, ,0.000712485620674025, ,0.0058500059428222805,4.7049116623672867e-05,-0.012189636214592698,-0.038235344429675695,-0.04312724722622173,0.005553139539879379, ,0.01352079931788579, ,0.05763593278366179, ,6.802500651590495e-05, ,0.18804082275449258,-0.2352112751502559,0.0958217568,1.6750032685543808,0.47453856368537467,-1.2971822596640972, ,0.04048504332699265,0.033007631846424614,0.012542371275590552,-0.01105588100953034,0.0,0.003973858289585497, ,1.0812249183654785
0.011973676109295117,0.02100288257745328,-0.0850444593146415, ,0.012433417261313242,0.020747920529892196,-0.085631256108021, ,0.0007878439244393263, ,0.0058500059428222805,4.7049116623672867e-05,-0.012189636214592698,-0.038235344429675695,-0.04312724722622173,0.005553139539879379, ,0.01352079931788579, ,0.05763593278366179, ,6.894869149199927e-05, ,0.18804082275449258,-0.2352112751502559,0.0958217568,1.6750032685543808,0.47453856368537467,-1.2971822596640972, ,0.04048504332699265,0.033007631846424614,0.012542371275590552,-0.01105588100953034,0.0,0.003973858289585497, ,1.0870239734649658
0.012027493091110612,0.021003857881348995,-0.08517260130221331, ,0.01246810340810846,0.020745772331433255,-0.08570518913801567, ,0.000737831556227364, ,0.0051376118989766946,0.0002341161682668989,-0.013144698946955271,0.04777325970631751,0.05915857828017681,0.0051041815210608535, ,0.014114991208315997, ,0.07603960372514564, ,6.978488910105654e-05, ,0.18844240486395225,-0.23487147490379,0.09595527467000001,1.674793578610896,0.4752217461842019,-1.2977393491825793, ,0.03980576407653976,0.03401324070196086,0.013803129566724439,-0.00996133417820381,0.10331785382788913,-0.08047536639563278, ,1.0926189422607422
0.012034634559028331,0.02100438021090833,-0.08519111887121039, ,0.0125028288303799,0.020743555218397054,-0.08577907409398362, ,0.0007955670282454231, ,0.005074695647341782,0.00033022654007928916,-0.013132747766647511,0.05611388505707679,0.06756598882402613,0.0053468951509082485, ,0.014082991492694569, ,0.08782898468800648, ,7.070371725300366e-05, ,0.18849646399407183,-0.23482513850654466,0.09597471902000002,1.674793578610896,0.4753583826839673,-1.2978507670862756, ,0.03990619914149318,0.03296177198974323,0.013839106446568205,-0.00996133417820381,0.11198766201837476,-0.08759001709533466, ,1.0976860523223877
0.012034634559028331,0.02100438021090833,-0.08519111887121039, ,0.012537593104328436,0.020741269756620915,-0.08585291064492873, ,0.0008718731336650912, ,0.005074695647341782,0.00033022654007928916,-0.013132747766647511,0.05611388505707679,0.06756598882402613,0.0053468951509082485, ,0.014082991492694569, ,0.08782898468800648, ,7.173298711557164e-05, ,0.18849646399407183,-0.23482513850654466,0.09597471902000002,1.674793578610896,0.4753583826839673,-1.2978507670862756, ,0.03990619914149318,0.03296177198974323,0.013839106446568205,-0.00996133417820381,0.11198766201837476,-0.08759001709533466, ,1.1025490760803223
0.012146674340719602,0.021014082266653064,-0.0854698095205028, ,0.012572395807421085,0.02073891651062765,-0.08592669846088011, ,0.0006824239623127234, ,0.006253458781139733,8.756544104403291e-05,-0.014144074743718529,-0.019187668144451935,-0.018546089027090647,0.002477049198064649, ,0.015465065948445718, ,0.02668564147531463, ,7.245849177545675e-05, ,0.1893073509458654,-0.23415326074648712,0.09626638427,1.674793578610896,0.4768613841813871,-1.299076364026936, ,0.042920371577779635,0.037807546437637764,0.014600193877176905,-0.008859666187331278,0.026992594661325718,-0.018816139527137878, ,1.107658863067627
0.012146674340719602,0.021014082266653064,-0.0854698095205028, ,0.012607236518389641,0.020736496043626124,-0.08600043721289172, ,0.0007554716266310186, ,0.006253458781139733,8.756544104403291e-05,-0.014144074743718529,-0.019187668144451935,-0.018546089027090647,0.002477049198064649, ,0.015465065948445718, ,0.02668564147531463, ,7.329017052554121e-05, ,0.1893073509458654,-0.23415326074648712,0.09626638427,1.674793578610896,0.4768613841813871,-1.299076364026936, ,0.042920371577779635,0.037807546437637764,0.014600193877176905,-0.008859666187331278,0.026992594661325718,-0.018816139527137878, ,1.1124908924102783
0.012214748802150748,0.021013435763169903,-0.08561641608636357, ,0.012642114817229228,0.020734008917512554,-0.08607412657303981, ,0.000685725865438571, ,0.006839102294813225,5.0624726105160964e-05,-0.014826114636752803,-0.03058685493179554,-0.033224564305230186,-0.0021359092323315456, ,0.016327570495451808, ,0.045160011642183015, ,7.400687106994421e-05, ,0.18976299218544465,-0.23375167863702745,0.09641675391000001,1.6745838886674116,0.4768613841813871,-1.299076364026936, ,0.04679336368760887,0.04015951822195124,0.015286767293666029,-0.004671139937762493,0.01498161396729604,-0.009241938685111204, ,1.1177608966827393
0.012214748802150748,0.021013435763169903,-0.08561641608636357, ,0.012677030285197155,0.020731455692872124,-0.08614776621442423, ,0.000758650043302447, ,0.006839102294813225,5.0624726105160964e-05,-0.014826114636752803,-0.03058685493179554,-0.033224564305230186,-0.0021359092323315456, ,0.016327570495451808, ,0.045160011642183015, ,7.494342981405856e-05, ,0.18976299218544465,-0.23375167863702745,0.09641675391000001,1.6745838886674116,0.4768613841813871,-1.299076364026936, ,0.04679336368760887,0.04015951822195124,0.015286767293666029,-0.004671139937762493,0.01498161396729604,-0.009241938685111204, ,1.1210579872131348
0.012214748802150748,0.021013435763169903,-0.08561641608636357, ,0.012711982504811212,0.020728836928979668,-0.08622135581116507, ,0.0008331806059473448, ,0.006839102294813225,5.0624726105160964e-05,-0.014826114636752803,-0.03058685493179554,-0.033224564305230186,-0.0021359092323315456, ,0.016327570495451808, ,0.045160011642183015, ,7.598822147509712e-05, ,0.18976299218544465,-0.23375167863702745,0.09641675391000001,1.6745838886674116,0.4768613841813871,-1.299076364026936, ,0.04679336368760887,0.04015951822195124,0.015286767293666029,-0.004671139937762493,0.01498161396729604,-0.009241938685111204, ,1.1244049072265625
0.012286716887579499,0.02101456596310765,-0.08577517763134693, ,0.012746971059848781,0.020726153183800944,-0.08629489503840405, ,0.000751745979408527, ,0.0071974765667102035,0.00022074964930758132,-0.015480870483455898,-0.02709613057738181,-0.03226461544226581,-0.002806166818342744, ,0.017073656616599386, ,0.04213317947591931, ,7.69025043050641e-05, ,0.19027269255514348,-0.23333465106181933,0.09658138274000001,1.674374198723927,0.4772712936806835,-1.2994106177380256, ,0.04958042923640061,0.040040903611169104,0.01602496128772636,-0.004008007910451127,0.01863523180704667,-0.012423784065762113, ,1.128283977508545
0.012286716887579499,0.02101456596310765,-0.08577517763134693, ,0.012781995535345108,0.020723405013994008,-0.08636838357230137, ,0.0008258140986959042, ,0.0071974765667102035,0.00022074964930758132,-0.015480870483455898,-0.02709613057738181,-0.03226461544226581,-0.002806166818342744, ,0.017073656616599386, ,0.04213317947591931, ,7.792379471552881e-05, ,0.19027269255514348,-0.23333465106181933,0.09658138274000001,1.674374198723927,0.4772712936806835,-1.2994106177380256, ,0.04958042923640061,0.040040903611169104,0.01602496128772636,-0.004008007910451127,0.01863523180704667,-0.012423784065762113, ,1.1318340301513672
0.012286716887579499,0.02101456596310765,-0.08577517763134693, ,0.012817055517592045,0.020720592974910197,-0.08644182109003605, ,0.0009011618507717249, ,0.0071974765667102035,0.00022074964930758132,-0.015480870483455898,-0.02709613057738181,-0.03226461544226581,-0.002806166818342744, ,0.017073656616599386, ,0.04213317947591931, ,7.905305874786316e-05, ,0.19027269255514348,-0.23333465106181933,0.09658138274000001,1.674374198723927,0.4772712936806835,-1.2994106177380256, ,0.04958042923640061,0.040040903611169104,0.01602496128772636,-0.004008007910451127,0.01863523180704667,-0.012423784065762113, ,1.1364178657531738
0.01235675669957904,0.021017192891864673,-0.08594671472706089, ,0.01285215059413691,0.02071771762059542,-0.08651520726980502, ,0.0008113472253127474, ,0.006774689804096301,0.00040913972817247543,-0.017311051730278883,0.07273763351141865,0.08606148267816045,-0.0031137369177359547, ,0.01859398637375232, ,0.11268247678769645, ,8.003982779290396e-05, ,0.19080556112346497,-0.2328867325551143,0.09676156705000001,1.674374198723927,0.47850102217857243,-1.3004133788712933, ,0.05196984751285365,0.04341122669646422,0.01824606130584193,-0.0036902753135643254,0.14152808051889607,-0.1128121151931941, ,1.139936923980713
0.01235675669957904,0.021017192891864673,-0.08594671472706089, ,0.012887280353780882,0.02071477950379097,-0.08658854179082132, ,0.0008859182720371108, ,0.006774689804096301,0.00040913972817247543,-0.017311051730278883,0.07273763351141865,0.08606148267816045,-0.0031137369177359547, ,0.01859398637375232, ,0.11268247678769645, ,8.113295823936677e-05, ,0.19080556112346497,-0.2328867325551143,0.09676156705000001,1.674374198723927,0.47850102217857243,-1.3004133788712933, ,0.05196984751285365,0.04341122669646422,0.01824606130584193,-0.0036902753135643254,0.14152808051889607,-0.1128121151931941, ,1.143204927444458
0.01235675669957904,0.021017192891864673,-0.08594671472706089, ,0.01292244438657777,0.02071177917593529,-0.08666182433331361, ,0.0009615933891488056, ,0.006774689804096301,0.00040913972817247543,-0.017311051730278883,0.07273763351141865,0.08606148267816045,-0.0031137369177359547, ,0.01859398637375232, ,0.11268247678769645, ,8.233314963977228e-05, ,0.19080556112346497,-0.2328867325551143,0.09676156705000001,1.674374198723927,0.47850102217857243,-1.3004133788712933, ,0.05196984751285365,0.04341122669646422,0.01824606130584193,-0.0036902753135643254,0.14152808051889607,-0.1128121151931941, ,1.1464569568634033
0.012452727941306252,0.021022894633634236,-0.08618314722430513, ,0.012957642283832779,0.020708717187164775,-0.08673505457852591, ,0.0008113246506806319, ,0.008303836847063935,0.00042277236873573235,-0.019087146473313724,-0.015039422178228751,-0.017795388412444494,-0.006708358158089423, ,0.02081950055482013, ,0.02329930331141648, ,8.330120106402541e-05, ,0.1914774388835225,-0.23232297305529592,0.09700267699000001,1.6741645087804424,0.47986738717622685,-1.3014458791681172, ,0.055076576644498415,0.04709525635656118,0.01981195462686567,-0.0019640153655548693,0.04019004748499242,-0.03196075930262573, ,1.1496870517730713
0.012452727941306252,0.021022894633634236,-0.08618314722430513, ,0.012992873638100847,0.020705594086314977,-0.08680823220871492, ,0.0008849679366109284, ,0.008303836847063935,0.00042277236873573235,-0.019087146473313724,-0.015039422178228751,-0.017795388412444494,-0.006708358158089423, ,0.02081950055482013, ,0.02329930331141648, ,8.437338842892523e-05, ,0.1914774388835225,-0.23232297305529592,0.09700267699000001,1.6741645087804424,0.47986738717622685,-1.3014458791681172, ,0.055076576644498415,0.04709525635656118,0.01981195462686567,-0.0019640153655548693,0.04019004748499242,-0.03196075930262573, ,1.1529879570007324
0.012452727941306252,0.021022894633634236,-0.08618314722430513, ,0.013028138043185616,0.020702410420921722,-0.08688135690715079, ,0.0009598456527808092, ,0.008303836847063935,0.00042277236873573235,-0.019087146473313724,-0.015039422178228751,-0.017795388412444494,-0.006708358158089423, ,0.02081950055482013, ,0.02329930331141648, ,8.555061889904867e-05, ,0.1914774388835225,-0.23232297305529592,0.09700267699000001,1.6741645087804424,0.47986738717622685,-1.3014458791681172, ,0.055076576644498415,0.04709525635656118,0.01981195462686567,-0.0019640153655548693,0.04019004748499242,-0.03196075930262573, ,1.1563200950622559
0.012538729214382337,0.02102895687390167,-0.08638132279813544, ,0.013063435094137835,0.020699166737222465,-0.08695442835811516, ,0.0008441136045465377, ,0.008303836847063935,0.00042277236873573235,-0.019087146473313724,-0.015039422178228751,-0.017795388412444494,-0.006708358158089423, ,0.02081950055482013, ,0.02329930331141648, ,8.65491535678149e-05, ,0.1920489211162151,-0.23183644088421979,0.09721397226,1.6741645087804424,0.48000402367599226,-1.301475618331673, ,0.05775833326748069,0.052256025087263645,0.0228533881205165,-0.0019640153655548693,0.002449075105480784,-0.004037667131460149, ,1.1595680713653564
0.012538729214382337,0.02102895687390167,-0.08638132279813544, ,0.013098764387254467,0.020695863580157313,-0.08702744624690045, ,0.0009176415684979469, ,0.009422626201866588,0.0006866075855679436,-0.02218296729560409,-0.047659547146979085,-0.05577002392579015,-0.008685004367765634, ,0.02411102139177233, ,0.07336022513192002, ,8.765054892485975e-05, ,0.1920489211162151,-0.23183644088421979,0.09721397226,1.6741645087804424,0.48000402367599226,-1.301475618331673, ,0.05775833326748069,0.052256025087263645,0.0228533881205165,-0.0019640153655548693,0.002449075105480784,-0.004037667131460149, ,1.1630980968475342
0.012538729214382337,0.02102895687390167,-0.08638132279813544, ,0.013134125520076536,0.020692501493370243,-0.08710041025980877, ,0.0009923637243766238, ,0.009422626201866588,0.0006866075855679436,-0.02218296729560409,-0.047659547146979085,-0.05577002392579015,-0.008685004367765634, ,0.02411102139177233, ,0.07336022513192002, ,8.8855656043631e-05, ,0.1920489211162151,-0.23183644088421979,0.09721397226,1.6741645087804424,0.48000402367599226,-1.301475618331673, ,0.05775833326748069,0.052256025087263645,0.0228533881205165,-0.0019640153655548693,0.002449075105480784,-0.004037667131460149, ,1.1663250923156738
0.012623396080022643,0.021033523642920222,-0.08659532217999805, ,0.013169518091388674,0.020689081019210322,-0.08717332008415152, ,0.0008665861466308148, ,0.009072045747209887,0.0006115366932650179,-0.022776083435018073,0.02953396591250981,0.03275528443193923,0.008243474717773107, ,0.02452398760001283, ,0.044103941679394645, ,8.986870727090093e-05, ,0.19259723515028504,-0.23132674051452096,0.09743563785,1.6737451288934733,0.48068720617481947,-1.3021143865902955, ,0.06130293382330153,0.05416492098086232,0.023738914336810735,-0.019823029806266556,0.10033149141151278,-0.08437781643788815, ,1.1699860095977783
0.012623396080022643,0.021033523642920222,-0.08659532217999805, ,0.0132049417012171,0.020685602698732798,-0.08724617540824749, ,0.0009396032235243941, ,0.009072045747209887,0.0006115366932650179,-0.022776083435018073,0.02953396591250981,0.03275528443193923,0.008243474717773107, ,0.02452398760001283, ,0.044103941679394645, ,9.09828800113446e-05, ,0.19259723515028504,-0.23132674051452096,0.09743563785,1.6737451288934733,0.48068720617481947,-1.3021143865902955, ,0.06130293382330153,0.05416492098086232,0.023738914336810735,-0.019823029806266556,0.10033149141151278,-0.08437781643788815, ,1.1752159595489502
0.012623396080022643,0.021033523642920222,-0.08659532217999805, ,0.013240395950828668,0.020682067071700203,-0.08731897592142282, ,0.001013846783052773, ,0.009072045747209887,0.0006115366932650179,-0.022776083435018073,0.02953396591250981,0.03275528443193923,0.008243474717773107, ,0.02452398760001283, ,0.044103941679394645, ,9.219908033741198e-05, ,0.19259723515028504,-0.23132674051452096,0.09743563785,1.6737451288934733,0.48068720617481947,-1.3021143865902955, ,0.06130293382330153,0.05416492098086232,0.023738914336810735,-0.019823029806266556,0.10033149141151278,-0.08437781643788815, ,1.1788060665130615
0.012724869675635159,0.021040270119542247,-0.08684795722510191, ,0.013275880442729282,0.02067847467658377,-0.08739172131400935, ,0.0008545104986976535, ,0.009312790142127164,0.0003509806633643733,-0.022440780068154302,0.04134005488808557,0.044626476945894195,0.005718996851488143, ,0.024298968244035136, ,0.060831873978508436, ,9.317592048030241e-05, ,0.1933077265747137,-0.23072436735033144,0.09770008101000001,1.673535438949989,0.48205357117247394,-1.3032285656272597, ,0.06580925212099221,0.056152036425130634,0.023459221678939622,-0.01764861689763944,0.11644476494153176,-0.09743686156403836, ,1.1822540760040283
0.012724869675635159,0.021040270119542247,-0.08684795722510191, ,0.013311394780662884,0.02067482605056434,-0.08746441127734389, ,0.0009260543531048633, ,0.009312790142127164,0.0003509806633643733,-0.022440780068154302,0.04134005488808557,0.044626476945894195,0.005718996851488143, ,0.024298968244035136, ,0.060831873978508436, ,9.438826172138619e-05, ,0.1933077265747137,-0.23072436735033144,0.09770008101000001,1.673535438949989,0.48205357117247394,-1.3032285656272597, ,0.06580925212099221,0.056152036425130634,0.023459221678939622,-0.01764861689763944,0.11644476494153176,-0.09743686156403836, ,1.184122085571289
0.012724869675635159,0.021040270119542247,-0.08684795722510191, ,0.013346938569609598,0.020671121729533653,-0.08753704550376765, ,0.0009990409893948415, ,0.009312790142127164,0.0003509806633643733,-0.022440780068154302,0.04134005488808557,0.044626476945894195,0.005718996851488143, ,0.024298968244035136, ,0.060831873978508436, ,9.570316394184179e-05, ,0.1933077265747137,-0.23072436735033144,0.09770008101000001,1.673535438949989,0.48205357117247394,-1.3032285656272597, ,0.06580925212099221,0.056152036425130634,0.023459221678939622,-0.01764861689763944,0.11644476494153176,-0.09743686156403836, ,1.1859169006347656
0.012724869675635159,0.021040270119542247,-0.08684795722510191, ,0.013382511415784755,0.020667362248095678,-0.08760962368662419, ,0.0010731676185860533, ,0.009312790142127164,0.0003509806633643733,-0.022440780068154302,0.04134005488808557,0.044626476945894195,0.005718996851488143, ,0.024298968244035136, ,0.060831873978508436, ,9.712183513871293e-05, ,0.1933077265747137,-0.23072436735033144,0.09770008101000001,1.673535438949989,0.48205357117247394,-1.3032285656272597, ,0.06580925212099221,0.056152036425130634,0.023459221678939622,-0.01764861689763944,0.11644476494153176,-0.09743686156403836, ,1.1877450942993164
0.012817529061685935,0.021041575470493557,-0.08706222884801923, ,0.013418112926637514,0.020663548139567462,-0.08768214552026009, ,0.0009422856903771084, ,0.010080380456609167,-0.00029202236114482505,-0.02145445836045283,-0.015823097939468466,-0.018863584661513513,0.005757529185439707, ,0.023706394300901202, ,0.024621143538027006, ,9.834671029123234e-05, ,0.19394871340327433,-0.23016060785051307,0.09792304289,1.673535438949989,0.48287339017106656,-1.3040604305297192, ,0.07076580280273734,0.06013747880764941,0.022246943463687153,-0.01764861689763944,0.05693025902330926,-0.045269311384757434, ,1.1897530555725098
0.012817529061685935,0.021041575470493557,-0.08706222884801923, ,0.013453742710849476,0.020659679935980384,-0.08775461070002236, ,0.0010148914403256984, ,0.010080380456609167,-0.00029202236114482505,-0.02145445836045283,-0.015823097939468466,-0.018863584661513513,0.005757529185439707, ,0.023706394300901202, ,0.024621143538027006, ,9.967311366320696e-05, ,0.19394871340327433,-0.23016060785051307,0.09792304289,1.673535438949989,0.48287339017106656,-1.3040604305297192, ,0.07076580280273734,0.06013747880764941,0.022246943463687153,-0.01764861689763944,0.05693025902330926,-0.045269311384757434, ,1.1914489269256592
0.012817529061685935,0.021041575470493557,-0.08706222884801923, ,0.013489400378333247,0.020655758168081573,-0.08782701892225848, ,0.0010886550944301588, ,0.010080380456609167,-0.00029202236114482505,-0.02145445836045283,-0.015823097939468466,-0.018863584661513513,0.005757529185439707, ,0.023706394300901202, ,0.024621143538027006, ,0.00010110227837529792, ,0.19394871340327433,-0.23016060785051307,0.09792304289,1.673535438949989,0.48287339017106656,-1.3040604305297192, ,0.07076580280273734,0.06013747880764941,0.022246943463687153,-0.01764861689763944,0.05693025902330926,-0.045269311384757434, ,1.19309401512146
0.012817529061685935,0.021041575470493557,-0.08706222884801923, ,0.013525085540231024,0.020651783365334856,-0.08789936988431495, ,0.0011633482583583662, ,0.010080380456609167,-0.00029202236114482505,-0.02145445836045283,-0.015823097939468466,-0.018863584661513513,0.005757529185439707, ,0.023706394300901202, ,0.024621143538027006, ,0.0005644930547147978, ,0.19394871340327433,-0.23016060785051307,0.09792304289,1.673535438949989,0.48287339017106656,-1.3040604305297192, ,0.07076580280273734,0.06013747880764941,0.022246943463687153,-0.01764861689763944,0.05693025902330926,-0.045269311384757434, ,1.1947228908538818
0.012817529061685935,0.021041575470493557,-0.08706222884801923, ,0.013560797808913831,0.02064775605592188,-0.08797166328453686, ,0.0012387950420563682, ,0.010080380456609167,-0.00029202236114482505,-0.02145445836045283,-0.015823097939468466,-0.018863584661513513,0.005757529185439707, ,0.023706394300901202, ,0.024621143538027006, ,0.0005698025191820543, ,0.19394871340327433,-0.23016060785051307,0.09792304289,1.673535438949989,0.48287339017106656,-1.3040604305297192, ,0.07076580280273734,0.06013747880764941,0.022246943463687153,-0.01764861689763944,0.05693025902330926,-0.045269311384757434, ,1.1964409351348877
0.012817529061685935,0.021041575470493557,-0.08706222884801923, ,0.013596536797979154,0.020643676766743533,-0.08804389882226597, ,0.0013148583079511788, ,0.010080380456609167,-0.00029202236114482505,-0.02145445836045283,-0.015823097939468466,-0.018863584661513513,0.005757529185439707, ,0.023706394300901202, ,0.024621143538027006, ,0.0005756232675318132, ,0.19394871340327433,-0.23016060785051307,0.09792304289,1.673535438949989,0.48287339017106656,-1.3040604305297192, ,0.07076580280273734,0.06013747880764941,0.022246943463687153,-0.01764861689763944,0.05693025902330926,-0.045269311384757434, ,1.1981360912322998
0.012930522520657241,0.021040020210797393,-0.08730345554300618, ,0.013632302122250676,0.020639546023420816,-0.08811607619784118, ,0.0011459609559806218, ,0.01196227313850132,-0.00042504045758388914,-0.02588333171591671,-0.027008031441415437,-0.0296316030424744,0.013049992157781692, ,0.028517073811085057, ,0.04009306728129749, ,0.0005800444899228891, ,0.19394871340327433,-0.23016060785051307,0.09792304289,1.673535438949989,0.48287339017106656,-1.3040604305297192, ,0.07076580280273734,0.06013747880764941,0.022246943463687153,-0.01764861689763944,0.05693025902330926,-0.045269311384757434, ,1.199920892715454
0.012930522520657241,0.021040020210797393,-0.08730345554300618, ,0.013668093397776119,0.020635364350296198,-0.08818819511259596, ,0.001220869063499346, ,0.01196227313850132,-0.00042504045758388914,-0.02588333171591671,-0.027008031441415437,-0.0296316030424744,0.013049992157781692, ,0.028517073811085057, ,0.04009306728129749, ,0.0005849739097196311, ,0.194728709423571,-0.22949645282332976,0.09817322686,1.673535438949989,0.4834199361701283,-1.3044244234043645, ,0.08187829297538463,0.0724957536733925,0.02677111179831933,-0.028049714337087656,0.05966492441371015,-0.048145998530330456, ,1.2018399238586426
0.012930522520657241,0.021040020210797393,-0.08730345554300618, ,0.013703910241826392,0.02063113227043485,-0.08826025526885854, ,0.0012964503964364707, ,0.01196227313850132,-0.00042504045758388914,-0.02588333171591671,-0.027008031441415437,-0.0296316030424744,0.013049992157781692, ,0.028517073811085057, ,0.04009306728129749, ,0.0005904050279388436, ,0.194728709423571,-0.22949645282332976,0.09817322686,1.673535438949989,0.4834199361701283,-1.3044244234043645, ,0.08187829297538463,0.0724957536733925,0.02677111179831933,-0.028049714337087656,0.05966492441371015,-0.048145998530330456, ,1.2035250663757324
0.012930522520657241,0.021040020210797393,-0.08730345554300618, ,0.013739752272893736,0.02062685030562558,-0.0883322563699505, ,0.0013725863557407713, ,0.01196227313850132,-0.00042504045758388914,-0.02588333171591671,-0.027008031441415437,-0.0296316030424744,0.013049992157781692, ,0.028517073811085057, ,0.04009306728129749, ,0.0005963306440585551, ,0.194728709423571,-0.22949645282332976,0.09817322686,1.673535438949989,0.4834199361701283,-1.3044244234043645, ,0.08187829297538463,0.0724957536733925,0.02677111179831933,-0.028049714337087656,0.05966492441371015,-0.048145998530330456, ,1.2051489353179932
0.012930522520657241,0.021040020210797393,-0.08730345554300618, ,0.013775619110691115,0.020622518976382224,-0.08840419812018602, ,0.00144918244139293, ,0.01196227313850132,-0.00042504045758388914,-0.02588333171591671,-0.027008031441415437,-0.0296316030424744,0.013049992157781692, ,0.028517073811085057, ,0.04009306728129749, ,0.000602743063587385, ,0.194728709423571,-0.22949645282332976,0.09817322686,1.673535438949989,0.4834199361701283,-1.3044244234043645, ,0.08187829297538463,0.0724957536733925,0.02677111179831933,-0.028049714337087656,0.05966492441371015,-0.048145998530330456, ,1.2068469524383545
0.012930522520657241,0.021040020210797393,-0.08730345554300618, ,0.0138115103761502,0.02061813880194466,-0.08847608022487037, ,0.001526162563155949, ,0.01196227313850132,-0.00042504045758388914,-0.02588333171591671,-0.027008031441415437,-0.0296316030424744,0.013049992157781692, ,0.028517073811085057, ,0.04009306728129749, ,0.0006096342538826729, ,0.194728709423571,-0.22949645282332976,0.09817322686,1.673535438949989,0.4834199361701283,-1.3044244234043645, ,0.08187829297538463,0.0724957536733925,0.02677111179831933,-0.028049714337087656,0.05966492441371015,-0.048145998530330456, ,1.2085418701171875
0.013057662163602346,0.021044025085419787,-0.08760915944148462, ,0.013847425691420324,0.020613710300280155,-0.08854790239029976, ,0.001300052140543377, ,0.013333982463196583,0.0011309732855898898,-0.033867544477795164,0.07334011122231378,0.07621739371387738,0.008265678118500817, ,0.03641544669308597, ,0.10577248442468437, ,0.00061474846045053, ,0.19559365550548416,-0.2287241795359073,0.09849211420000001,1.673535438949989,0.4847863011677827,-1.3054569237011884, ,0.08935681879328698,0.07659155896567456,0.035476194922048995,-0.026498746247200895,0.17442355589495992,-0.15026635505390304, ,1.2102489471435547
0.013057662163602346,0.021044025085419787,-0.08760915944148462, ,0.013883364679866983,0.0206092339880843,-0.08861966432375969, ,0.0013754810288730622, ,0.013333982463196583,0.0011309732855898898,-0.033867544477795164,0.07334011122231378,0.07621739371387738,0.008265678118500817, ,0.03641544669308597, ,0.10577248442468437, ,0.0006203420822771663, ,0.19559365550548416,-0.2287241795359073,0.09849211420000001,1.673535438949989,0.4847863011677827,-1.3054569237011884, ,0.08935681879328698,0.07659155896567456,0.035476194922048995,-0.026498746247200895,0.17442355589495992,-0.15026635505390304, ,1.212007999420166
0.013057662163602346,0.021044025085419787,-0.08760915944148462, ,0.013919326966070846,0.020604710380782352,-0.0886913657335243, ,0.0014514248516730177, ,0.013333982463196583,0.0011309732855898898,-0.033867544477795164,0.07334011122231378,0.07621739371387738,0.008265678118500817, ,0.03641544669308597, ,0.10577248442468437, ,0.0006264083798639972, ,0.19559365550548416,-0.2287241795359073,0.09849211420000001,1.673535438949989,0.4847863011677827,-1.3054569237011884, ,0.08935681879328698,0.07659155896567456,0.035476194922048995,-0.026498746247200895,0.17442355589495992,-0.15026635505390304, ,1.214674949645996
0.013057662163602346,0.021044025085419787,-0.08760915944148462, ,0.013955312175826018,0.020600139992530464,-0.08876300632885553, ,0.001527799777336698, ,0.013333982463196583,0.0011309732855898898,-0.033867544477795164,0.07334011122231378,0.07621739371387738,0.008265678118500817, ,0.03641544669308597, ,0.10577248442468437, ,0.0006329402015848139, ,0.19559365550548416,-0.2287241795359073,0.09849211420000001,1.673535438949989,0.4847863011677827,-1.3054569237011884, ,0.08935681879328698,0.07659155896567456,0.035476194922048995,-0.026498746247200895,0.17442355589495992,-0.15026635505390304, ,1.2167160511016846
0.013057662163602346,0.021044025085419787,-0.08760915944148462, ,0.013991319936138814,0.020595523336216563,-0.08883458582000146, ,0.0016045374612083756, ,0.013333982463196583,0.0011309732855898898,-0.033867544477795164,0.07334011122231378,0.07621739371387738,0.008265678118500817, ,0.03641544669308597, ,0.10577248442468437, ,0.0006399301099274295, ,0.19559365550548416,-0.2287241795359073,0.09849211420000001,1.673535438949989,0.4847863011677827,-1.3054569237011884, ,0.08935681879328698,0.07659155896567456,0.035476194922048995,-0.026498746247200895,0.17442355589495992,-0.15026635505390304, ,1.2185828685760498
0.013057662163602346,0.021044025085419787,-0.08760915944148462, ,0.014027349875226197,0.020590860923461986,-0.08890610391819663, ,0.0016815816933562903, ,0.013333982463196583,0.0011309732855898898,-0.033867544477795164,0.07334011122231378,0.07621739371387738,0.008265678118500817, ,0.03641544669308597, ,0.10577248442468437, ,0.0006473704783804927, ,0.19559365550548416,-0.2287241795359073,0.09849211420000001,1.673535438949989,0.4847863011677827,-1.3054569237011884, ,0.08935681879328698,0.07659155896567456,0.035476194922048995,-0.026498746247200895,0.17442355589495992,-0.15026635505390304, ,1.2203099727630615
0.013057662163602346,0.021044025085419787,-0.08760915944148462, ,0.014063401622515237,0.02058615326462204,-0.08897756033565973, ,0.001758885860615831, ,0.013333982463196583,0.0011309732855898898,-0.033867544477795164,0.07334011122231378,0.07621739371387738,0.008265678118500817, ,0.03641544669308597, ,0.10577248442468437, ,0.0006552535661977646, ,0.19559365550548416,-0.2287241795359073,0.09849211420000001,1.673535438949989,0.4847863011677827,-1.3054569237011884, ,0.08935681879328698,0.07659155896567456,0.035476194922048995,-0.026498746247200895,0.17442355589495992,-0.15026635505390304, ,1.2220730781555176
0.013087193865461458,0.021047313599051824,-0.08768923629247884, ,0.014099474808640707,0.020581400868787757,-0.08904895478559346, ,0.001758016427870884, ,0.01382167703907511,0.0015774014964513232,-0.03604878829630013,0.09000635868498198,0.09482870352840288,0.006839573253423574, ,0.038639902811536266, ,0.130742367806275, ,0.0006630195018433499, ,0.195794446560214,-0.22854655667980014,0.09857637305000001,1.673535438949989,0.48533284716684444,-1.305902595315974, ,0.0916878662400684,0.0774668910681394,0.03783565681710214,-0.025182984514317414,0.19540991796276166,-0.16712159987482908, ,1.2244858741760254
0.013087193865461458,0.021047313599051824,-0.08768923629247884, ,0.014135569065444355,0.020576604243786732,-0.08912028698218315, ,0.0018353647957766981, ,0.01382167703907511,0.0015774014964513232,-0.03604878829630013,0.09000635868498198,0.09482870352840288,0.006839573253423574, ,0.038639902811536266, ,0.130742367806275, ,0.0006712177206820447, ,0.195794446560214,-0.22854655667980014,0.09857637305000001,1.673535438949989,0.48533284716684444,-1.305902595315974, ,0.0916878662400684,0.0774668910681394,0.03783565681710214,-0.025182984514317414,0.19540991796276166,-0.16712159987482908, ,1.226154088973999
0.013087193865461458,0.021047313599051824,-0.08768923629247884, ,0.01417168402597353,0.02057176389618437,-0.08919155664059598, ,0.0019129121403011822, ,0.01382167703907511,0.0015774014964513232,-0.03604878829630013,0.09000635868498198,0.09482870352840288,0.006839573253423574, ,0.038639902811536266, ,0.130742367806275, ,0.0006798405985960665, ,0.195794446560214,-0.22854655667980014,0.09857637305000001,1.673535438949989,0.48533284716684444,-1.305902595315974, ,0.0916878662400684,0.0774668910681394,0.03783565681710214,-0.025182984514317414,0.19540991796276166,-0.16712159987482908, ,1.2278389930725098
0.013364205657513192,0.021086523484343575,-0.08844036290131736, ,0.014207819324479566,0.02056688033128515,-0.08926276347698031, ,0.0012876551294751645, ,0.016420894088528416,0.0027647454854918753,-0.045757073451306196,0.07940239399304874,0.09067226895347048,0.1032525183898517, ,0.048692908632514915, ,0.1205238563411736, ,0.0006840324229469568, ,0.19749344779254338,-0.22712557383094284,0.09933081383,1.6718579194021128,0.48915866916027684,-1.3090222966194736, ,0.10020796363090896,0.08230437255721663,0.047548691104477625,-0.12577474727659682,0.23168060012663616,-0.19519989837770013, ,1.2301790714263916
0.013364205657513192,0.021086523484343575,-0.08844036290131736, ,0.014243974596416716,0.02056195405313358,-0.08933390720846399, ,0.0013592600571095837, ,0.016420894088528416,0.0027647454854918753,-0.045757073451306196,0.07940239399304874,0.09067226895347048,0.1032525183898517, ,0.048692908632514915, ,0.1205238563411736, ,0.0006886572697562899, ,0.19749344779254338,-0.22712557383094284,0.09933081383,1.6718579194021128,0.48915866916027684,-1.3090222966194736, ,0.10020796363090896,0.08230437255721663,0.047548691104477625,-0.12577474727659682,0.23168060012663616,-0.19519989837770013, ,1.232058048248291
0.013364205657513192,0.021086523484343575,-0.08844036290131736, ,0.014280149478440664,0.020556985564515542,-0.08940498755315386, ,0.001431734685813578, ,0.016420894088528416,0.0027647454854918753,-0.045757073451306196,0.07940239399304874,0.09067226895347048,0.1032525183898517, ,0.048692908632514915, ,0.1205238563411736, ,0.0006937122181648428, ,0.19749344779254338,-0.22712557383094284,0.09933081383,1.6718579194021128,0.48915866916027684,-1.3090222966194736, ,0.10020796363090896,0.08230437255721663,0.047548691104477625,-0.12577474727659682,0.23168060012663616,-0.19519989837770013, ,1.2336640357971191
0.013364205657513192,0.021086523484343575,-0.08844036290131736, ,0.014316343608407115,0.020551975366959505,-0.08947600423013523, ,0.0015049456233654978, ,0.016420894088528416,0.0027647454854918753,-0.045757073451306196,0.07940239399304874,0.09067226895347048,0.1032525183898517, ,0.048692908632514915, ,0.1205238563411736, ,0.0006991935249567391, ,0.19749344779254338,-0.22712557383094284,0.09933081383,1.6718579194021128,0.48915866916027684,-1.3090222966194736, ,0.10020796363090896,0.08230437255721663,0.047548691104477625,-0.12577474727659682,0.23168060012663616,-0.19519989837770013, ,1.2353780269622803
0.013364205657513192,0.021086523484343575,-0.08844036290131736, ,0.014352556625370716,0.020546923960737477,-0.08954695695946951, ,0.001578782977827694, ,0.016420894088528416,0.0027647454854918753,-0.045757073451306196,0.07940239399304874,0.09067226895347048,0.1032525183898517, ,0.048692908632514915, ,0.1205238563411736, ,0.0007050968098753361, ,0.19749344779254338,-0.22712557383094284,0.09933081383,1.6718579194021128,0.48915866916027684,-1.3090222966194736, ,0.10020796363090896,0.08230437255721663,0.047548691104477625,-0.12577474727659682,0.23168060012663616,-0.19519989837770013, ,1.2370998859405518
0.013364205657513192,0.021086523484343575,-0.08844036290131736, ,0.014388788169583428,0.020541831844866423,-0.08961784546219517, ,0.0016531556149763486, ,0.016420894088528416,0.0027647454854918753,-0.045757073451306196,0.07940239399304874,0.09067226895347048,0.1032525183898517, ,0.048692908632514915, ,0.1205238563411736, ,0.0007114172019093429, ,0.19749344779254338,-0.22712557383094284,0.09933081383,1.6718579194021128,0.48915866916027684,-1.3090222966194736, ,0.10020796363090896,0.08230437255721663,0.047548691104477625,-0.12577474727659682,0.23168060012663616,-0.19519989837770013, ,1.2387540340423584
0.013540658344171104,0.0211093978364478,-0.08889773530742114, ,0.014425037882493138,0.0205366995171093,-0.08968866946032485, ,0.0013174548823414586, ,0.018706203687674977,0.0015475646831900611,-0.046128370976931406,-0.039003832796845966,-0.03609705510733995,-0.02006194755591883, ,0.04980104036904098, ,0.05314214436140793, ,0.000715430696481741, ,0.19861324405930594,-0.22615250948879054,0.09984155209000001,1.6714385395151437,0.49066167065769667,-1.3104112510404153, ,0.10945437319316122,0.10203972210588257,0.04783426882882884,0.0,0.07446941762048453,-0.0596678085638522, ,1.2403879165649414
0.013540658344171104,0.0211093978364478,-0.08889773530742114, ,0.014461305406742796,0.020531527473976113,-0.08975942867684607, ,0.0013870979174362334, ,0.018706203687674977,0.0015475646831900611,-0.046128370976931406,-0.039003832796845966,-0.03609705510733995,-0.02006194755591883, ,0.04980104036904098, ,0.05314214436140793, ,0.0007198495597774942, ,0.19861324405930594,-0.22615250948879054,0.09984155209000001,1.6714385395151437,0.49066167065769667,-1.3104112510404153, ,0.10945437319316122,0.10203972210588257,0.04783426882882884,0.0,0.07446941762048453,-0.0596678085638522, ,1.2420189380645752
0.013540658344171104,0.0211093978364478,-0.08889773530742114, ,0.014497590386168373,0.020526316210725478,-0.08983012283571877, ,0.001457754992507664, ,0.018706203687674977,0.0015475646831900611,-0.046128370976931406,-0.039003832796845966,-0.03609705510733995,-0.02006194755591883, ,0.04980104036904098, ,0.05314214436140793, ,0.000724672471102528, ,0.19861324405930594,-0.22615250948879054,0.09984155209000001,1.6714385395151437,0.49066167065769667,-1.3104112510404153, ,0.10945437319316122,0.10203972210588257,0.04783426882882884,0.0,0.07446941762048453,-0.0596678085638522, ,1.2436339855194092
0.013540658344171104,0.0211093978364478,-0.08889773530742114, ,0.014533892465798287,0.020521066221365264,-0.08990075166187561, ,0.0015292775800924078, ,0.018706203687674977,0.0015475646831900611,-0.046128370976931406,-0.039003832796845966,-0.03609705510733995,-0.02006194755591883, ,0.04980104036904098, ,0.05314214436140793, ,0.0007298971796024623, ,0.19861324405930594,-0.22615250948879054,0.09984155209000001,1.6714385395151437,0.49066167065769667,-1.3104112510404153, ,0.10945437319316122,0.10203972210588257,0.04783426882882884,0.0,0.07446941762048453,-0.0596678085638522, ,1.2453439235687256
0.013540658344171104,0.0211093978364478,-0.08889773530742114, ,0.01457021129185112,0.020515777998654172,-0.0899713148812203, ,0.0016015420335344119, ,0.018706203687674977,0.0015475646831900611,-0.046128370976931406,-0.039003832796845966,-0.03609705510733995,-0.02006194755591883, ,0.04980104036904098, ,0.05314214436140793, ,0.00073552069478912, ,0.19861324405930594,-0.22615250948879054,0.09984155209000001,1.6714385395151437,0.49066167065769667,-1.3104112510404153, ,0.10945437319316122,0.10203972210588257,0.04783426882882884,0.0,0.07446941762048453,-0.0596678085638522, ,1.2469840049743652
0.013540658344171104,0.0211093978364478,-0.08889773530742114, ,0.014606546511735154,0.020510452034102896,-0.09004181222062675, ,0.0016744448761394682, ,0.018706203687674977,0.0015475646831900611,-0.046128370976931406,-0.039003832796845966,-0.03609705510733995,-0.02006194755591883, ,0.04980104036904098, ,0.05314214436140793, ,0.0007415394395413658, ,0.19861324405930594,-0.22615250948879054,0.09984155209000001,1.6714385395151437,0.49066167065769667,-1.3104112510404153, ,0.10945437319316122,0.10203972210588257,0.04783426882882884,0.0,0.07446941762048453,-0.0596678085638522, ,1.2487208843231201
0.013540658344171104,0.0211093978364478,-0.08889773530742114, ,0.014642897774046598,0.020505088817974887,-0.09011224340793816, ,0.001747899046513107, ,0.018706203687674977,0.0015475646831900611,-0.046128370976931406,-0.039003832796845966,-0.03609705510733995,-0.02006194755591883, ,0.04980104036904098, ,0.05314214436140793, ,0.0007479493733437337, ,0.1995476947370871,-0.2252952861397516,0.10021877248000001,1.6716482294586281,0.4912082166567584,-1.310856922655201, ,0.11773814089140294,0.10686592517845808,0.04512411195467422,0.014856221487550886,0.04737265647352615,-0.03750863595608368, ,1.2505359649658203
0.013695489080612286,0.021117441545544558,-0.08926145233789644, ,0.014679264728568429,0.020499688839287943,-0.090182608171966, ,0.0014825521920793481, ,0.019267516909377228,0.0004945080538560074,-0.04356750191740547,-0.06346828794592044,-0.06777180837921698,-0.03522097458498322, ,0.04764041319501328, ,0.09284979599865159, ,0.0007525987582724401, ,0.1995476947370871,-0.2252952861397516,0.10021877248000001,1.6716482294586281,0.4912082166567584,-1.310856922655201, ,0.11773814089140294,0.10686592517845808,0.04512411195467422,0.014856221487550886,0.04737265647352615,-0.03750863595608368, ,1.2529780864715576
0.013695489080612286,0.021117441545544558,-0.08926145233789644, ,0.014715647026268595,0.02049425258581531,-0.0902529062424896, ,0.001553083242632912, ,0.019267516909377228,0.0004945080538560074,-0.04356750191740547,-0.06346828794592044,-0.06777180837921698,-0.03522097458498322, ,0.04764041319501328, ,0.09284979599865159, ,0.0007576332518847701, ,0.1995476947370871,-0.2252952861397516,0.10021877248000001,1.6716482294586281,0.4912082166567584,-1.310856922655201, ,0.11773814089140294,0.10686592517845808,0.04512411195467422,0.014856221487550886,0.04737265647352615,-0.03750863595608368, ,1.254925012588501
0.013695489080612286,0.021117441545544558,-0.08926145233789644, ,0.014752044319299275,0.020488780544086694,-0.09032313735025366, ,0.0016244071819020236, ,0.019267516909377228,0.0004945080538560074,-0.04356750191740547,-0.06346828794592044,-0.06777180837921698,-0.03522097458498322, ,0.04764041319501328, ,0.09284979599865159, ,0.000763050588947378, ,0.1995476947370871,-0.2252952861397516,0.10021877248000001,1.6716482294586281,0.4912082166567584,-1.310856922655201, ,0.11773814089140294,0.10686592517845808,0.04512411195467422,0.014856221487550886,0.04737265647352615,-0.03750863595608368, ,1.2569019794464111
0.013695489080612286,0.021117441545544558,-0.08926145233789644, ,0.014788456260995116,0.020483273199389584,-0.09039330122696923, ,0.001696416415964619, ,0.019267516909377228,0.0004945080538560074,-0.04356750191740547,-0.06346828794592044,-0.06777180837921698,-0.03522097458498322, ,0.04764041319501328, ,0.09284979599865159, ,0.000768847892220777, ,0.1995476947370871,-0.2252952861397516,0.10021877248000001,1.6716482294586281,0.4912082166567584,-1.310856922655201, ,0.11773814089140294,0.10686592517845808,0.04512411195467422,0.014856221487550886,0.04737265647352615,-0.03750863595608368, ,1.2599120140075684
0.013695489080612286,0.021117441545544558,-0.08926145233789644, ,0.0148248825058721,0.02047773103577025,-0.09046339760531139, ,0.0017690199182589749, ,0.019267516909377228,0.0004945080538560074,-0.04356750191740547,-0.06346828794592044,-0.06777180837921698,-0.03522097458498322, ,0.04764041319501328, ,0.09284979599865159, ,0.0007750217936160745, ,0.1995476947370871,-0.2252952861397516,0.10021877248000001,1.6716482294586281,0.4912082166567584,-1.310856922655201, ,0.11773814089140294,0.10686592517845808,0.04512411195467422,0.014856221487550886,0.04737265647352615,-0.03750863595608368, ,1.2616748809814453
