NicholasDascanio/dvrk_moveit_final/test/execution/third_experiment_notsharpbends/thirdexp_700vel4.0/thirdexp_700vel4.0_8.csv
Current Position (x),Current Position (y),Current Position (z), ,Planned Position (x),Planned Position (y),Planned Position (z), ,Position Error,,Cartesian linear Velocity(x),Cartesian linear Velocity(y),Cartesian linear Velocity(z),Cartesian Angular Velocity(x),Cartesian Angular Velocity(y),Cartesian Angular Velocity(z), ,Total Linear Velocity, ,Total Angular Velocity, ,MSE, ,Joint 1 Position,Joint 2 Position,Joint 3 Position,Joint 4 Position,Joint 5 Position,Joint 6 Position, ,Joint 1 Velocity,Joint 2 Velocity,Joint 3 Velocity,Joint 4 Velocity,Joint 5 Velocity,Joint 6 Velocity, ,Time Stamp
0.01047122791204625,0.0195181754933073,-0.07969736460600724, ,0.010599337190271027,0.01947383219051494,-0.07978073445025552, ,0.0001591503898826226, ,-3.807186436100389e-05,2.4989312400177007e-05,1.1178113173950231e-06,0.0072305686928006,0.00044106441355346395,-0.0015023960792514251, ,4.555416657450353e-05, ,0.007244008658071264, ,1.326253249021855e-05, ,0.18254223694804472,-0.23335009652756777,0.09013493257,1.6726966791760507,0.4787742951781033,-1.2892828697991479, ,-0.0004602671350691076,-0.00034553719018689047,0.0,-0.0006773556404808501,0.0,-0.00735273810656123, ,0.01633620262145996
0.010472743796160052,0.019520681286560204,-0.07970031025867232, ,0.01059883333760959,0.01951571357441937,-0.07983575740286047, ,0.00018511936553369161, ,4.2835491244002954e-05,0.00026205459507720237,-0.0005543734726350644,0.033567932089872514,0.001196802877146749,-0.009208846314328098, ,0.0006146848275926875, ,0.03358926021687568, ,1.56486252461961e-05, ,0.18252679148229628,-0.23337326472619047,0.09013752515000001,1.6726966791760507,0.47850102217857243,-1.2908569662748475, ,-0.0007369957296836455,-0.0015638692170051643,0.0006021610545569044,-0.0006773556404808501,0.0,-0.08259829143189457, ,0.034295082092285156
0.010474932695007952,0.019524942410414872,-0.07971295137279626, ,0.010598536458002695,0.019557235644371302,-0.07989077171504279, ,0.00021895391593323743, ,0.0011386592415440235,0.00035761421043508626,-0.0006299734040110799,0.1320137107102389,-0.12998829235525225,-0.07565041570437454, ,0.0013495552162175611, ,0.18526892876281517, ,1.760073972967349e-05, ,0.18250362328367362,-0.2334196011234358,0.09015567321000001,1.6726966791760507,0.47754456668021433,-1.29407929921586, ,-0.0013169875534523908,-0.003291672230449834,0.00031505502425597436,-0.0006773556404808501,-0.13823942099406272,-0.14358639773913162, ,0.05157303810119629
0.010497571237905332,0.019534585446894143,-0.07973737997836793, ,0.01059844580321213,0.019598399834529434,-0.07994577736597433, ,0.00024016124824017025, ,0.0016120763940819813,0.0007920605734576199,-0.0023868234895195375,0.07728437096446134,-0.1479162636311312,-0.06579030149419435, ,0.0029871519249118545, ,0.166889469535646, ,1.9128212371183855e-05, ,0.18248817781792517,-0.23345821478780693,0.09016993240000001,1.6724869892325662,0.4759049286830291,-1.2947842528750173, ,-0.0013384881721675813,-0.0033530248665636095,0.0021061087112417857,0.002379562109753941,-0.15641102858114586,-0.08660805541597538, ,0.06782007217407227
0.010509086721677253,0.01954384318549041,-0.0797641968609733, ,0.010598560626436233,0.019639207576382933,-0.0800007743346655, ,0.0002703125001580647, ,0.0005368333903287338,0.0006312138268148532,-0.0013612078050686811,0.27098839611649056,-0.04176869211656268,-0.0980649331491113, ,0.0015935832807588031, ,0.27418850171170844, ,2.064802730284205e-05, ,0.1824727323521767,-0.2334891057193038,0.09019456191000001,1.6724869892325662,0.47494847318467104,-1.2966997259737807, ,-0.00158833771162814,-0.0032928180516042017,0.0014408691332408585,0.002379562109753941,-0.05180554438817265,-0.3078049230750146, ,0.08826899528503418
0.0105606799221615,0.019578646672370414,-0.07986414206630317, ,0.010598880182308177,0.01967966029875358,-0.0800557625999644, ,0.00021995781757183777, ,0.0016533626519611908,0.0017853336288005015,-0.004595633936032013,-0.07888492293278174,-0.10990101646651422,-0.014876036410089586, ,0.005200084181918136, ,0.13528142697515455, ,2.086540705354233e-05, ,0.18239550502343446,-0.23362039217816563,0.09028919108000001,1.6731160590630199,0.4701661956928806,-1.3007229371380404, ,-0.0019954673140037895,-0.007990999785158274,0.004629122789886661,0.013372448452271228,-0.11737669966314568,0.0860102821667996, ,0.10576915740966797
0.010548314195357658,0.01964750521594167,-0.07997507310692605, ,0.010599403726895194,0.019719759427797634,-0.08011074214055862, ,0.00016197807891948777, ,1.8491626361680475e-05,3.354090239274029e-05,-6.6116278948858e-05,0.007052930685375584,-0.0020940253015675667,0.005120112331575064, ,7.640873458487931e-05, ,0.007357225918531905, ,2.021712939220989e-05, ,0.18217154577008196,-0.23409920161636757,0.09041752379000001,1.6733257490065043,0.47194247018983126,-1.2966988942966764, ,8.506718347807749e-05,-0.0005969296650610319,7.282217748804695e-05,-0.007867281165579585,-0.00033305426485414155,-0.008240284730524999, ,0.22644400596618652
0.010549117992153722,0.019651196822073856,-0.07997943640605631, ,0.010600130517697327,0.0197595063870081,-0.0801657129349745, ,0.00022143212243120843, ,0.0001355825135532235,0.00044718559494521376,-0.0006933161693628876,0.007556799077933787,-0.0021573135568634405,0.006005241956825662, ,0.0008360890413155426, ,0.00785870307918091, ,2.0452017544760007e-05, ,0.18217154577008196,-0.23413009254786446,0.09042270895000001,1.6733257490065043,0.47194247018983126,-1.2966172155565359, ,8.944608558321113e-05,-0.0036428180091169376,0.000790183171776368,-0.007418994618739549,-0.0004547202123270746,-0.005556856355253719, ,0.24271512031555176
0.010552544535566312,0.01965675634320203,-0.07999509146798058, ,0.010601059813646186,0.01979890259721678,-0.08022067496157816, ,0.00027101144315560367, ,0.0003148971922237973,0.0006157659253275438,-0.001685546824186582,-0.01056267925232668,-0.0007463091243381595,0.004300808719896136, ,0.0018219209678222571, ,0.010589011770840456, ,2.1174748715499177e-05, ,0.18217926850295618,-0.23416098347936135,0.09043956072,1.6731160590630199,0.47194247018983126,-1.2964538580762546, ,0.0,-0.002429795871241999,0.0018096021427998152,0.0,-0.0005337800858452106,0.01352543180366715, ,0.26064610481262207
0.01056633267906816,0.019689219398549274,-0.08007318927888954, ,0.010602190875103841,0.019837949476596266,-0.08027562819857524, ,0.00025374783258643157, ,0.0006951318940620851,0.0015816128076199339,-0.0040719964042598795,-0.018816681197897343,0.0009094426096530868,0.006486458373919027, ,0.004423331565649939, ,0.01883864581237258, ,2.1586516807964272e-05, ,0.18215610030433352,-0.2342999926710974,0.09052381957000001,1.673535438949989,0.4718058336900659,-1.296015725211996, ,-0.0006851682312387052,-0.006825850455368805,0.004390521367144433,0.0029223102518483664,0.0,0.02726263211194834, ,0.2782711982727051
0.01057206091536666,0.019705964309761473,-0.08011804943070433, ,0.010603522963861635,0.01987664844066213,-0.08033057262401141, ,0.00027438848505404313, ,0.0005333875089604402,0.001753327112989665,-0.004398164143989776,-0.012958487994841592,0.003692181840368707,0.005238343829738828, ,0.004764714685827161, ,0.013474220430476766, ,2.2109046423807132e-05, ,0.1821252093728366,-0.23436177453409118,0.09056918972000001,1.673535438949989,0.4718058336900659,-1.2959340464718554, ,-0.0033861132135758177,-0.007762177352029743,0.004736488706512043,0.0029223102518483664,0.0,0.022321625251415046, ,0.2948579788208008
0.010577056628170805,0.019725210138418478,-0.08016239057524427, ,0.010605055343139009,0.019915000902274736,-0.08038550821577312, ,0.0002942548956265172, ,0.0004387553684917133,0.0019275886808709042,-0.004168311875550655,-0.015308727913076858,0.004225911118066468,0.0073177982741093215, ,0.004613342420399612, ,0.015881293204146427, ,2.2708754877810787e-05, ,0.1820865957084655,-0.23446989279433034,0.09061974503,1.673535438949989,0.4718058336900659,-1.2957706889915743, ,-0.004018949313464941,-0.010686158476810082,0.004532957177006261,0.002876131418892304,0.0,0.02755661778777671, ,0.31342101097106934
0.010584349764147127,0.019780175713500832,-0.08025058520694565, ,0.010606787277582437,0.01995300827164185,-0.08044043495158731, ,0.0002577158526424621, ,5.117718722414618e-05,0.001994725959253505,-0.002568616009001124,0.016882530115388414,0.005456742181210862,0.0003372707117303671, ,0.003252589577353536, ,0.01774248737402365, ,2.2940787482843776e-05, ,0.1819630319824779,-0.23485602943804157,0.09071826307000001,1.6737451288934733,0.4716691971903004,-1.2950875199068939, ,-0.005168544628196976,-0.016046151768425904,0.002956349576837417,0.0023833081782513345,-0.0002880233968805834,-0.0007316087343752949, ,0.3304710388183594
0.010586088369257729,0.019802639042786306,-0.08027761035762432, ,0.010608718033264214,0.019990671956320094,-0.08049535280902245, ,0.0002885831828189581, ,1.914811366348377e-05,0.0021483006325063547,-0.002483257254261715,-0.0034209602129902945,0.0044143892107111875,-0.002053268907236847, ,0.0032836152102107678, ,0.005584782966962659, ,2.3523171138683237e-05, ,0.18190897285235832,-0.23503365229414871,0.09074937403000001,1.6739548188369582,0.471532560690535,-1.2949761020031976, ,-0.0057669064347286155,-0.017642115924608806,0.0028935170790190742,0.011803373870351517,-0.0038341736273525473,0.023679428221838692, ,0.3488609790802002
0.010583534102211448,0.019844579413378964,-0.08032540432549207, ,0.010610846877681206,0.020027993361217394,-0.08055026176548792, ,0.00029145759946693574, ,-0.0001985204286449269,0.0020963159078928677,-0.002401187162896785,0.013392226086998789,0.0018284134852710968,0.01461598751218241, ,0.003193689173594446, ,0.013516464602794206, ,2.405483153347515e-05, ,0.18176996366062229,-0.23538117527348884,0.0908051145,1.6741645087804424,0.471532560690535,-1.2947310657827757, ,-0.008067366347577931,-0.018487617681369722,0.0027760215266643433,-0.01189603076298186,-0.0035373785598892095,0.0026055598874626176, ,0.36399197578430176
0.010583145066663238,0.019893898426274412,-0.08038423450087721, ,0.010613173079753586,0.020064973888595045,-0.08060516179823506, ,0.00028102911965882275, ,8.226277730326172e-05,0.0025688401924397306,-0.0034579498613599557,0.00017946998697413285,0.0006856758939760949,0.002815982527887608, ,0.004308494440347205, ,0.0007087738802942297, ,2.4460716035723867e-05, ,0.18160778627026358,-0.23580592558157118,0.09087252158,1.6739548188369582,0.4712592876910041,-1.2943448724951019, ,-0.007537553405701474,-0.020118071138111253,0.00392722177514793,0.005271020536701909,-0.007991851554446065,0.020998274737850584, ,0.37914419174194336
0.010584488289934494,0.019909681854244073,-0.08040622700036347, ,0.010615695909824134,0.02010161493806958,-0.08066005288435757, ,0.00031974959513865134, ,0.00026989209033320303,0.002713659138132668,-0.003814405491575825,-0.004490983008457462,-0.004389793861447445,0.0034996951028429552, ,0.004688973972262926, ,0.006280065104819425, ,2.505359193344492e-05, ,0.18156144987301823,-0.23592948930755878,0.09089715109,1.6739548188369582,0.47112265119123864,-1.2941517758512648, ,-0.00645137895258155,-0.020769739890232168,0.004314412654387867,0.005271020536701909,-0.01202448332664555,0.026307237869455338, ,0.39957714080810547
0.01059070457380332,0.019988963100544543,-0.08051888195072311, ,0.01061841463965663,0.020137917906615174,-0.0807149350007911, ,0.0002477744547811512, ,0.000179715338410901,0.0026078022494354187,-0.003455002559249123,0.024163726343830592,0.001321016874241773,-0.01630511283237844, ,0.004332432672233761, ,0.024199809005635776, ,2.5179536155931624e-05, ,0.18138382701691105,-0.23651641700599985,0.09102548380000001,1.674374198723927,0.47112265119123864,-1.2939067396308432, ,-0.0065647955961007564,-0.01988203259134104,0.003940824225630876,0.017601617745786145,-0.009726615002473713,-0.002199721586357563, ,0.4147071838378906
0.010591308436647693,0.020011616346295117,-0.08054732676487264, ,0.010621328542434746,0.02017388418856526,-0.08076980812431456, ,0.00027700183155639517, ,-0.0001694990215397945,0.0022225726122126637,-0.002299215779413765,0.023453853852024597,0.009509333546189217,-0.012375144292524063, ,0.003202335418903838, ,0.025308312566043493, ,2.5450428662130604e-05, ,0.18131432242104303,-0.2367017625949812,0.09105789105,1.674374198723927,0.4709860146914732,-1.2936319642468657, ,-0.007401798748217301,-0.018772886559539223,0.002721013242227537,0.015298033754660222,-0.0015743003128544624,-0.0025133437608106414, ,0.42989301681518555
0.010589547286304579,0.020048911555721347,-0.08058723230875066, ,0.010624436892761126,0.020209515175615055,-0.08082467223154943, ,0.000288770712331329, ,1.582346459062666e-05,0.002094992989991064,-0.0026808712966257192,0.0015595662664417765,-5.4723131829951074e-05,-0.00646837547695243, ,0.003402398700801394, ,0.0015605260081468445, ,2.575666894096216e-05, ,0.18119075869505544,-0.23702611737569865,0.09110455749000002,1.674374198723927,0.4708493781917078,-1.2934388676030286, ,-0.006802463047703856,-0.01634744901954708,0.003051496459770115,0.01250490706367737,-0.009833500492384017,0.01687972081360125, ,0.4489250183105469
0.01059041479957483,0.020098452322343346,-0.08065414056717655, ,0.010627738966655888,0.020244812256823334,-0.08087952729896102, ,0.00027131808405220925, ,0.0002082087242252233,0.002062502498881925,-0.0032996460475365713,-0.013691598603420332,-0.0027539404212801417,0.009026442490803473, ,0.003896784760512363, ,0.013965817547497823, ,2.5950335919312895e-05, ,0.1810517495033194,-0.23740453128653566,0.09118103860000001,1.6745838886674116,0.4708493781917078,-1.2931121526424665, ,-0.005605687283503899,-0.014735549931439563,0.003671078939847892,0.0001762358449193276,-0.008181290116297871,0.02902830679529029, ,0.463360071182251
0.01059305981590497,0.020121276509332778,-0.08069249275659947, ,0.010631234041555814,0.02027977681861479,-0.08093437330285823, ,0.00029169473461989557, ,0.0004378377022477525,0.0022745731550901514,-0.004152221328881531,-0.009072872702666544,-5.6439563218460835e-05,-0.0030712935025089642, ,0.00475461111505295, ,0.009073048179572281, ,2.6223301700280406e-05, ,0.18099769037319982,-0.23755126321114592,0.09122381617000001,1.674793578610896,0.4708493781917078,-1.2929487951621854, ,-0.004691068334516201,-0.014136293990536388,0.004575929767308246,0.011925805780629425,-0.0073654382433859895,0.025778425885019447, ,0.47846198081970215
0.010597997280141816,0.02014419477267114,-0.08073777303578976, ,0.010634921396312775,0.020314410244781683,-0.0809892102193939, ,0.00030587146744932424, ,0.00036124813521736735,0.0022952442209822972,-0.004367750503418,-0.01530957870171453,0.007621004492220047,0.0006242520647909504, ,0.004947311462729919, ,0.01710154694478908, ,2.6537994277518245e-05, ,0.18094363124308027,-0.23769027240288196,0.09127307519000001,1.674793578610896,0.4707127416919423,-1.2926740197782078, ,-0.005358450886898731,-0.013721362284336434,0.0048065212794206405,0.011925805780629425,0.0,0.032341635755823994, ,0.4953141212463379
0.010606104956297761,0.02018567994425382,-0.08082051896991056, ,0.01063880031119305,0.020348713916486322,-0.08104403802456532, ,0.00027858540903535174, ,0.00033912366798873386,0.0019523810034386847,-0.0036996832091212746,-0.03525214267334159,0.0054337777937631115,0.007558356238322569, ,0.004196957504268095, ,0.035668466514282356, ,2.6710043890235508e-05, ,0.18085868118146378,-0.23793739985485715,0.09136381549000001,1.674793578610896,0.4707127416919423,-1.2921022685972239, ,-0.004149068502593366,-0.011691134847661792,0.004076992966470438,0.009931575358547492,-0.00020105382653842638,0.050751599223348015, ,0.509857177734375
0.010608707564873894,0.020204909942152655,-0.08085573194511511, ,0.010642870067875548,0.020382689212262935,-0.08109885669421442, ,0.00030312075005991173, ,0.0003585646077345229,0.0020183201345353205,-0.003655037256147942,-0.013239054827924167,0.005212806504152088,0.0018560263192769757, ,0.004190642204629258, ,0.014228349297588774, ,2.6971420369601307e-05, ,0.18081234478421845,-0.23806096358084475,0.09140270419,1.674793578610896,0.4707127416919423,-1.291857232376802, ,-0.003816444155520024,-0.012599169086360966,0.004052101633172221,0.009164236671400332,-0.0002889152675155764,0.02849472355689469, ,0.525792121887207
0.010618150738397152,0.020261504845115186,-0.0809632968817342, ,0.010647129949451432,0.020416337508019855,-0.08115366620402861, ,0.00024708991692562465, ,0.00020294363178599572,0.001805619264208133,-0.0033029613248435116,-0.00015273753212827743,0.0050635942630747315,0.003969068731596771, ,0.0037697480762478035, ,0.005065897277052796, ,2.6988878737469634e-05, ,0.18067333559248241,-0.2383930410944364,0.09152066658,1.675212958497865,0.4705761051921769,-1.291092384551981, ,-0.004839441599832662,-0.011501310316079053,0.003643369515096066,0.0018268807154290436,0.0,0.012339424647088907, ,0.5427441596984863
0.010620115274857574,0.02027859085345422,-0.08099508909213657, ,0.010651579240422085,0.020449660177041355,-0.08120846652954014, ,0.00027529007500184293, ,0.00023520202667388234,0.0017490453828534422,-0.003152911546848662,-0.006745848050209754,0.004228205669565949,0.0058863319615531885, ,0.0036132161528040453, ,0.007961418767348946, ,2.721992560557113e-05, ,0.18062699919523706,-0.23850115935467553,0.09155566641000001,1.675212958497865,0.4705761051921769,-1.2910923845519813, ,-0.004116317720068237,-0.01124474920181772,0.0034893343964950713,0.0018268807154290436,0.0,0.01897826484192986, ,0.556096076965332
0.010623352003419587,0.020297150344355218,-0.081026344416041, ,0.010656217226698681,0.02048265858999001,-0.08126325764612706, ,0.0003026901232110098, ,0.000287431932459633,0.0017613543173816953,-0.003127849613227909,0.019880066994629395,0.006118027257939734,-0.01043243319486688, ,0.003601170552768446, ,0.02080017598340125, ,2.7540418882425623e-05, ,0.18059610826374015,-0.2386170003477889,0.09159066624000001,1.6754226484413495,0.4705761051921769,-1.2909290270717, ,-0.0034754357681689003,-0.010997443685070203,0.0034748716230366492,0.010646761626668071,0.0,-0.007541926330456784, ,0.570432186126709
0.010632551392569384,0.02033601772912757,-0.08110660502956037, ,0.010661043195600526,0.020515334114908686,-0.08131803952901345, ,0.00027869462967295447, ,0.0005054331183174468,0.002174143845907664,-0.0044454712168553534,0.0072716650958526245,0.0013267559723014661,-0.006603550368880951, ,0.004974392268376076, ,0.007391711096905905, ,2.7754233089801264e-05, ,0.18050343546924946,-0.2388409596011414,0.09167751767000001,1.6754226484413495,0.470302832192646,-1.2907061912643072, ,-0.00425794298107408,-0.012077607671862556,0.00485190725555894,0.00972640160219054,-0.005306105607380838,0.006266330612669551, ,0.5844311714172363
0.01063693198724607,0.020357772068640582,-0.08115170704547517, ,0.010666056435854148,0.020547688117222473,-0.08137281215327014, ,0.0002929228698970213, ,0.0004792017350754743,0.0022795977326065,-0.0046333183533789814,0.00765616478110024,0.0018765459604224413,-0.005737030328170729, ,0.0051859270231234995, ,0.007882783883985948, ,2.80065071295828e-05, ,0.1804570990720041,-0.238964523327129,0.09172677669000001,1.6754226484413495,0.470302832192646,-1.2907061912643072, ,-0.004977474953289998,-0.012799695381504016,0.005055160748968582,0.009020266136167455,-0.005306105607380838,0.006478324462473697, ,0.597527027130127
0.010642743902378831,0.020381418498757502,-0.0812020564485185, ,0.010671256237592004,0.020579721959740886,-0.0814275754938138, ,0.00030165552487597754, ,0.0005120414298125389,0.0023037128482873257,-0.004756159541684064,0.006555581748132172,0.0007598630363804247,-0.005101098753328021, ,0.005309456930719087, ,0.00659947281657533, ,2.827503123975344e-05, ,0.18040303994188456,-0.23909580978599082,0.09178122087000001,1.6754226484413495,0.4701661956928806,-1.2905947733606107, ,-0.0049352530551452405,-0.012746399134784526,0.005180101307317074,0.008381493017288286,-0.006246691324823841,0.007399025168329772, ,0.6124911308288574
0.010653116244342075,0.02042747114256273,-0.08128842357295062, ,0.010676641892351447,0.02061143700265998,-0.08148232952540894, ,0.00026832147173558947, ,0.0003089957804670718,0.0020489778384413042,-0.0033206392334694784,-0.0004365083383464211,-0.007086254568020122,0.003828797225775338, ,0.003914132533988447, ,0.007099686114786046, ,2.841685353543547e-05, ,0.18031036714739385,-0.2393738281694629,0.09187585004000001,1.6756323383848342,0.4698929226933497,-1.2902085800729368, ,-0.004742333279955506,-0.014319743708838203,0.003688932728114868,0.0,-0.011993136645133596,0.014443642825451145, ,0.6259920597076416
0.010654509053973058,0.020448008512533606,-0.08131672259249254, ,0.010682212693073373,0.020642834603564246,-0.0815370742226669, ,0.00029543110582025666, ,0.0002487626564007285,0.0019471187146623383,-0.002942793585840862,0.001690265461229965,-0.004150585150812732,-0.0069064813488643306, ,0.0035373985126182744, ,0.004481557118109262, ,2.864012001916259e-05, ,0.18026403075014852,-0.23952056009407316,0.09190825729,1.6758420283283186,0.4698929226933497,-1.2902085800729368, ,-0.0046509775074089895,-0.013675881475496584,0.003294480148914168,0.010954229258956357,-0.011567148535996693,0.013576625399508924, ,0.6390500068664551
0.010659334416989429,0.0204897486035096,-0.08137931958525285, ,0.0106879679341012,0.02067391611742894,-0.08159180956004666, ,0.00028264737903135607, ,0.00029767615919363785,0.0021775247922443345,-0.0035720217899755913,-0.0007983142107430741,-0.008580274031674186,0.015502655423144284, ,0.004193991533688574, ,0.008617331806085276, ,2.8811130942095673e-05, ,0.18015591248990936,-0.2398063012104195,0.09197825695,1.6762614082152878,0.4696196496938188,-1.2897407080451224, ,-0.005273587379421367,-0.015633763024459766,0.00396436324539572,-0.011884116479140254,-0.011182423546082931,0.014055363439115799, ,0.6563680171966553
0.010662262453480644,0.020513192385482215,-0.08142013848167876, ,0.010693906911179657,0.020704682896621814,-0.08164653551185548, ,0.0002982039617986495, ,0.0003900798449121591,0.0021605060792338157,-0.004034307134448292,-0.006344573741831964,-0.008755571382943519,0.016474760755986747, ,0.004592992799784619, ,0.010812661334689543, ,2.902208083076198e-05, ,0.1801018533597898,-0.23996075586790397,0.0920236271,1.6762614082152878,0.4696196496938188,-1.2896590293049819, ,-0.005169861699344135,-0.014098490797574028,0.0044173076871880206,-0.011884116479140254,-0.011182423546082931,0.018281823211383743, ,0.6696641445159912
0.010665636120392442,0.02053726585421415,-0.08146343022049002, ,0.010700028921453622,0.020735136290905464,-0.08170125205224842, ,0.00031127929282585577, ,0.0003223203955386556,0.002337610965188156,-0.004066808117820082,-0.0029827099837018687,-0.00668602935199116,0.01673578404559042, ,0.004701834081410722, ,0.00732117109690404, ,2.9262514405776444e-05, ,0.1800477942296702,-0.24011521052538845,0.09207158983000001,1.6762614082152878,0.4696196496938188,-1.2896590293049819, ,-0.005915107577008742,-0.016038016149817605,0.0044882534573119194,-0.011884116479140254,-0.009833032651698003,0.01684771545062109, ,0.6823241710662842
0.01067341534770577,0.020582697062967777,-0.081538971587303, ,0.010706333263466924,0.020765277647439427,-0.08175595915522976, ,0.00028548706387302244, ,0.00038474411015195913,0.002188550702861356,-0.0037086167296211704,0.005118271817736308,-0.00344833737010008,0.015276206524737847, ,0.004323380651355786, ,0.006171526255045071, ,2.9414997932858968e-05, ,0.17996284416805375,-0.24042411984035744,0.09215584868000001,1.6762614082152878,0.46948301319405333,-1.2893842539210043, ,-0.0038525425506759662,-0.01522492243838774,0.0041352054828660435,-0.011884116479140254,-0.004494288260799785,0.007872604842683617, ,0.6957271099090576
0.010674592465725202,0.020584912270972415,-0.08154282466103478, ,0.01071281923716111,0.020795108310781976,-0.08181065679465206, ,0.000342604309669362, ,0.0003929349939111355,0.0021848914241943992,-0.003711394972395373,0.0022778620814757496,-0.006494338908462468,0.015234115341884784, ,0.004324650400446241, ,0.006882230221084657, ,2.9725966994327054e-05, ,0.17995512143517953,-0.24043956530610588,0.09215973755000001,1.6762614082152878,0.46934637669428797,-1.2892728360173078, ,-0.004089393577298214,-0.015200535248834017,0.00412556630924631,-0.011884116479140254,-0.007846563827500768,0.010606160787806173, ,0.712562084197998
0.01068713212837567,0.020650250615561746,-0.08165578039191708, ,0.01071948614387458,0.02082462962289239,-0.08186534494421774, ,0.0002745398369954724, ,0.0004705429360827439,0.0022918200242685012,-0.0038365834400241306,0.005377234496080376,-0.002317276008381602,-0.0053457180142547555, ,0.0044936869239637555, ,0.005855289753173951, ,2.983002393778557e-05, ,0.17984700317494037,-0.2408797610799367,0.09228547768,1.676051718271803,0.4692097401945225,-1.2889980606333302, ,-0.003579263550988613,-0.014967971854648387,0.004280787831228165,0.009612149649238557,-0.008287757673268772,0.011006876153384623, ,0.7261099815368652
0.010691353365365417,0.020672418634907586,-0.0816927004038724, ,0.010726333286340995,0.020853842923133116,-0.08192002357747831, ,0.00029294059549311353, ,0.00043955896781518075,0.0020904065656877162,-0.0038250732033990233,0.00024587812363591405,-0.0028296002650911047,0.001852665994558375, ,0.004381118202858527, ,0.002840262821121828, ,3.006371957092061e-05, ,0.1798161122434435,-0.24101877027167273,0.09232695896000001,1.6762614082152878,0.4692097401945225,-1.2889163818931897, ,-0.003785869524800117,-0.01301919900651266,0.004220670779014309,0.0026479498314271196,-0.007276493300862645,0.013168331085836028, ,0.7379779815673828
0.010693612878166925,0.020679021020610772,-0.08170607104475863, ,0.010733359968688369,0.020882749548271566,-0.08197469266783562, ,0.0003394741824826608, ,0.00041368095861399334,0.002151318738540308,-0.003900681458982794,0.002764106897409882,0.0012125823035146447,0.002397885839484908, ,0.00447377023267474, ,0.003018383984862636, ,3.0415294899220924e-05, ,0.17980066677769505,-0.24105738393604384,0.09234121815000002,1.6762614082152878,0.4690731036947571,-1.2887232852493526, ,-0.0038583260551181987,-0.013473937463931673,0.004320263498779496,0.0026479498314271196,-0.0031991949704253775,0.011260889129770092, ,0.7496581077575684
0.010703709259428065,0.020719632359684496,-0.08177577434379328, ,0.010740565496437881,0.020911350832482363,-0.08202935218854152, ,0.00032002512146022235, ,0.0006089094378277411,0.0021156458751952875,-0.003916093774469064,0.0011111524308146286,-0.004457932919362686,-0.005363468611972379, ,0.004492495812256467, ,0.004594325273316041, ,3.0701706816776206e-05, ,0.1797543303804497,-0.24130451138801903,0.09241899555000001,1.676680788102257,0.4689364671949916,-1.2885301886055158, ,-0.0021611181427127527,-0.012642811292095761,0.004329657928784997,0.009622700225634233,-0.009014477968720187,0.013027143562535473, ,0.7611479759216309
0.010708978737766653,0.02074098457594301,-0.08181545132340842, ,0.010747949176502677,0.020939648107349527,-0.08208400211269817, ,0.00033631149286685833, ,0.000579238990269238,0.0023630645055488174,-0.004197691013691005,0.0045870895634668365,-0.0034688830290505895,-0.005454752097457764, ,0.004851824554912823, ,0.005751046759432384, ,3.1020340793546355e-05, ,0.17973116218182703,-0.24143579784688085,0.09246306941000002,1.676680788102257,0.4689364671949916,-1.288448509865375, ,-0.00312402322962246,-0.014680838731199068,0.004657547228070176,0.009622700225634233,-0.009014477968720187,0.011487527327863569, ,0.7727429866790771
0.010716558285865258,0.020763918803549962,-0.08186168356335531, ,0.010755510317186547,0.02096764270186821,-0.08213864241325902, ,0.0003460157395697848, ,0.0007561693866584652,0.0022915547670699352,-0.00483813933881898,-0.0013971225886446467,-0.0016659625494821262,-0.0041063354939704895, ,0.005406533792886912, ,0.002174253916424476, ,3.135248861317254e-05, ,0.17967710305170745,-0.2416983707646045,0.09256806890000001,1.676680788102257,0.4687998306952262,-1.288092055741257, ,-0.003088558851780251,-0.013620918840027384,0.005513607310488058,0.009622700225634233,-0.006031606850630045,0.015340234564914686, ,0.7862260341644287
0.010732165597979189,0.020812271289492427,-0.08196639237140999, ,0.010763248228183156,0.020995335942447086,-0.08219327306302858, ,0.0002931785211967926, ,0.000851814186807711,0.0023651799786324136,-0.005433743548396089,-0.0023572553460537264,-0.0017195595783047388,-0.004303267497596533, ,0.005987088832638666, ,0.002917795944359783, ,3.153909899520946e-05, ,0.17965393485308476,-0.24182193449059208,0.09262769824000001,1.676680788102257,0.46866319419546076,-1.2879806378375607, ,-0.00227187009183182,-0.011079940697666381,0.005893012031076582,0.009622700225634233,-0.0062589317254886185,0.015224378345024131, ,0.7986249923706055
0.010740375504203183,0.020837070662393424,-0.08202230935490364, ,0.010771162220574433,0.021022729152910282,-0.0822478940346628, ,0.0002937777131573595, ,0.000812428758861362,0.0024371556637487087,-0.005307140133503862,0.0006618109324801291,-0.001596892097176784,-0.004280341700736904, ,0.005896227998832373, ,0.0017285988170120357, ,3.172070103548532e-05, ,0.1796307666544621,-0.24194549821657965,0.09268862387000001,1.676680788102257,0.46866319419546076,-1.28789895909742, ,-0.0024617959679568966,-0.01227168518795691,0.0057838821786492375,0.009200122730843443,-0.0062589317254886185,0.013214717546803957, ,0.8100130558013916
0.010749504300172602,0.0208606621587316,-0.08207355295099131, ,0.010779251606829628,0.021049823654499398,-0.08230250530066976, ,0.00029847303422209624, ,0.0008101617920020012,0.0023331601548513656,-0.004826531765163814,0.001865602225644397,-0.004055289816011366,-0.004234387530653854, ,0.005421753159038252, ,0.004463837422771075, ,3.190756687160683e-05, ,0.17961532118871365,-0.24206906194256725,0.09274436434000001,1.676680788102257,0.4685265576956953,-1.287705862453583, ,-0.0015863698684369216,-0.01246511776677667,0.005290206416472933,0.008395610260682106,-0.007722417126750046,0.011913207790205226, ,0.8238949775695801
0.01076285623576486,0.020902129267112657,-0.08215471049047066, ,0.010787515700804043,0.021076620765875766,-0.082357106833409, ,0.00026836477412549547, ,0.0006589490831797429,0.0018849272017538055,-0.003926512463207506,-0.0001673849157884371,-0.004397915116770678,-0.0013858065448694443, ,0.004405072595753529, ,0.00440109919804408, ,3.2015768328395885e-05, ,0.17958443025721674,-0.242300743928794,0.09283380835,1.6768904780457412,0.46838992119592987,-1.287512765809746, ,-0.0013466715573370433,-0.010068846231973088,0.004298114279546681,0.0048733300888301025,-0.006973503364244161,0.010980308243061565, ,0.8374800682067871
0.010767113903823903,0.020917248933997372,-0.08218532152515878, ,0.010795953817738135,0.021103121803122286,-0.08241169860509334, ,0.0002943247295607447, ,0.0005083234836384174,0.0019805986779159613,-0.003778378333369105,0.0013556596542894292,-0.002928459454840428,-0.001109820704690344, ,0.0042961967735491175, ,0.003227024497404341, ,3.218175970253767e-05, ,0.1795689847914683,-0.24238569399041046,0.09286751189,1.6768904780457412,0.46838992119592987,-1.287512765809746, ,-0.0028160139074308007,-0.011616714598906938,0.004160044794985636,0.0048733300888301025,-0.006973503364244161,0.010980308243061565, ,0.8490951061248779
0.010770621850013047,0.020940292523526152,-0.0822261339954749, ,0.010804565274255848,0.021129328079745678,-0.08246628058778811, ,0.00030750119245979984, ,0.00040431267133762117,0.0017618638727543595,-0.0032019541261225186,-0.00018256183194415257,-0.0025180623971478144,-0.0009124709699756991, ,0.00367697474401364, ,0.002524671606732746, ,3.2372989643333104e-05, ,0.17952264839422294,-0.24253242591502072,0.09291288204,1.6768904780457412,0.46838992119592987,-1.2874310870696055, ,-0.002756677076439301,-0.01076019962550281,0.003540522676150256,0.0048733300888301025,-0.0064739220476438784,0.011740593796677183, ,0.860349178314209
0.010776689512239307,0.020959235123476878,-0.08226414138761651, ,0.010813349388363936,0.02115524090667845,-0.08252085275341174, ,0.0003250583622895885, ,0.0005961585788967214,0.0020482494841620904,-0.004225742561157057,0.002477677133149134,-0.0015161240492179095,-0.000982659719982965, ,0.004733669949810256, ,0.00290474005055344, ,3.25982698144687e-05, ,0.17949948019560028,-0.24264054417525988,0.09295436332000001,1.6768904780457412,0.4682532846961644,-1.2872379904257687, ,-0.0025569835795272995,-0.011077816795697732,0.0046250904529616735,0.004592872176545083,-0.005201761301310625,0.009313828441986569, ,0.8739340305328369
0.010792797566792328,0.021004727247530507,-0.08236006352530187, ,0.010822305479450445,0.021180861592281032,-0.08257541507373599, ,0.000279768321514622, ,0.0009257257433908024,0.0022708233558138163,-0.005065518013942201,-0.00032851084733998763,-0.006242299319132493,-0.00021936683395115675, ,0.005627884115265605, ,0.0062509372762235985, ,3.2714441960444694e-05, ,0.1794685892641034,-0.24286450342861238,0.09305936281,1.6773098579327104,0.468116648196399,-1.286963215041791, ,-0.0007177426807013543,-0.011171089028831892,0.005519338711018712,0.003911837730697889,-0.007981234745103927,0.012041261928613177, ,0.8858611583709717
0.010801133055124087,0.021026175244152234,-0.0824106014096454, ,0.01083143286828394,0.0212061914423437,-0.08262996752038657, ,0.00028538640617684606, ,0.0009257257433908024,0.0022708233558138163,-0.005065518013942201,-0.00032851084733998763,-0.006242299319132493,-0.00021936683395115675, ,0.005627884115265605, ,0.0062509372762235985, ,3.2912441414698426e-05, ,0.1794454210654807,-0.2429648989559773,0.09311380699,1.6773098579327104,0.4679800116966335,-1.2867701183979539, ,-0.001852439822178228,-0.009412448018350044,0.005509792985126254,0.0037820838305943827,-0.007424815990143456,0.01336705950920431, ,0.8953790664672852
0.010808473220570351,0.021048566746969827,-0.08246184761454652, ,0.010840730877011682,0.021231231760088988,-0.08268451006484316, ,0.0002898027435843495, ,0.0007948456166177908,0.0023333045184552965,-0.0050014903582310906,-0.00035346691188324386,-0.004456086929396309,0.0007129658779087796, ,0.005575929997191409, ,0.004470083494798811, ,3.311491530745316e-05, ,0.17942225286685803,-0.24307301721621644,0.09316954746000002,1.6773098579327104,0.4679800116966335,-1.2867701183979539, ,-0.002070740428181525,-0.012089924492144032,0.005458811350239891,0.0035431623906557914,-0.007424815990143456,0.012982649768303071, ,0.9054100513458252
0.010816643029314479,0.02107192375587033,-0.08251408469890097, ,0.010850198829159222,0.02125598384617336,-0.08273904267844012, ,0.0002925922095748943, ,0.0008750597155300849,0.002280379301912702,-0.005311124760180781,-0.00019780476891507334,-0.0041303821288848,0.000325825119272036, ,0.005845845147157151, ,0.004135115358872961, ,3.331816794323276e-05, ,0.1794068074011096,-0.2431888582093298,0.09322658422,1.6773098579327104,0.4679800116966335,-1.2866884396578133, ,-0.001711452971832273,-0.01058622020749072,0.005756708174918685,0.003336581078958973,-0.0066925421391930565,0.011281186306752525, ,0.9159860610961914
0.010816643029314479,0.02107192375587033,-0.08251408469890097, ,0.010859836049628594,0.02128044899868948,-0.08279356533236623, ,0.00035136567615347107, ,0.0009672342685507645,0.002441805706012332,-0.00555476132916311,0.0014293667887774334,-0.004141538909882261,0.000702816505673632, ,0.006144373903022116, ,0.004381258799762407, ,3.3641793303262835e-05, ,0.17939908466823537,-0.24329697646956897,0.09328491727,1.6773098579327104,0.4679800116966335,-1.2866884396578133, ,-0.0010748127587258374,-0.011687347434887706,0.006045089760910817,0.0031570727348778976,-0.006009129015347921,0.01072390872903235, ,0.9257500171661377
0.010835728484034935,0.02111930305826069,-0.08262394198005843, ,0.010869641864697617,0.021304628513168236,-0.08284807799766532, ,0.00029280129100353353, ,0.000925579616222709,0.002352778372494041,-0.005423520117435427,0.0028940915529548222,-0.0010963195845221166,0.00097855822812325, ,0.005983881195367223, ,0.0030947823600003983, ,3.383367206103489e-05, ,0.1793836392024869,-0.2434128174626823,0.0933458429,1.6773098579327104,0.46784337519686814,-1.286413664273836, ,-0.0009654087713008923,-0.011024278193660085,0.005903933106004449,0.002988193266485573,-0.0027333238391047876,0.008689081089968546, ,0.9357609748840332
0.010846220142055064,0.02114417392406157,-0.08267870633675083, ,0.010879615602018358,0.02132852368258084,-0.08290258064523703, ,0.0002919242987701632, ,0.0009742043081285647,0.002268218985095164,-0.005288484817501876,-0.008139876886016157,-0.009309352172617358,0.004844522410759396, ,0.005836262765098076, ,0.012366148529618825, ,3.40189267827098e-05, ,0.17937591646961268,-0.24352093572292147,0.09340158337000001,1.6775195478761948,0.46770673869710266,-1.2861388888898584, ,-0.0008052145511673998,-0.010766620864052332,0.005723611757096659,0.0,-0.010161568299949403,0.018797330920233675, ,0.9460060596466064
0.010855261152531137,0.021165875796595766,-0.08272908130912354, ,0.01088975659061629,0.021352135797341028,-0.08295707324583632, ,0.00029641701424235604, ,0.000894462115263051,0.002255129925965552,-0.00520675941506948,4.2046207755126975e-05,-0.0015221203556756691,-0.005955276151727538, ,0.005744215966086313, ,0.0015226997188983265, ,3.4208851584244976e-05, ,0.17936047100386424,-0.24362133125028637,0.09345991642000001,1.6777292378196795,0.46757010219733725,-1.2859457922460213, ,-0.001141732064432314,-0.010175524507663604,0.005658547609236235,0.01045678085975062,-0.005172650664346911,0.011992898539322273, ,0.9577591419219971
0.010857613254416913,0.021171890250726844,-0.08274205393576237, ,0.010900064160888852,0.02137546614530673,-0.08301155577007412, ,0.00034040632046377815, ,0.0008782589786493894,0.0022269095719404017,-0.005117478085275501,-2.4484664029615702e-05,-0.0015219391099317275,-0.005967422671027982, ,0.0056496944190330385, ,0.001522134896562034, ,3.448355323253422e-05, ,0.17936047100386424,-0.24365222218178328,0.09347417561000002,1.6777292378196795,0.46757010219733725,-1.2859457922460213, ,-0.001141732064432314,-0.010107893981563663,0.0055636784910932605,0.01045678085975062,-0.005172650664346911,0.011992898539322273, ,0.9680821895599365
0.010871601127174951,0.021210498231680003,-0.08283003765318431, ,0.0109105376446043,0.021398516011782543,-0.08306602818841786, ,0.00030423390794589945, ,0.0008156712515865318,0.0021993743351223605,-0.004728385596626857,0.00048598303432079653,-0.0015616085184668373,-0.005734513695566864, ,0.005278275988146886, ,0.0016354810641055516, ,3.467900019749546e-05, ,0.17933730280524157,-0.24383756777076468,0.09357010107000001,1.6777292378196795,0.46757010219733725,-1.2858641135058808, ,-0.0010386273223506788,-0.010879671075001634,0.0051750524756335285,0.01045678085975062,-0.005103539749613205,0.012257880985657232, ,0.978003978729248
0.0108803918465569,0.021232356765584597,-0.08287852780320311, ,0.010921176374900794,0.021421286679521746,-0.08312049047119169, ,0.00030968342356781694, ,0.000830179798656681,0.002150293170252857,-0.004700473176758813,0.0008306845243162718,-0.0013220992619881486,-0.005936933874595203, ,0.005235208429619858, ,0.0015614035169946876, ,3.4880606194286816e-05, ,0.17933730280524157,-0.2439456860310038,0.09362324896000002,1.6777292378196795,0.46757010219733725,-1.2858641135058808, ,-0.0007565350512064422,-0.010381256201971518,0.005139984356243951,0.01045678085975062,-0.00457786179098856,0.011418087427735136, ,0.9879441261291504
0.01088831364925123,0.02125232813759035,-0.08292222495520826, ,0.010931979686284954,0.021443779428728063,-0.08317494258857669, ,0.0003200414377605916, ,0.0008864201506982196,0.0021960595597827776,-0.004955294242109272,0.001212850655602184,-0.0012291825135210253,-0.0055026329707035075, ,0.005492117924768047, ,0.001726815964881605, ,3.5097778352315976e-05, ,0.17933730280524157,-0.24404608155836874,0.09367121169,1.6777292378196795,0.46757010219733725,-1.2857824347657403, ,-0.0005959893912798171,-0.010179813848888794,0.005405093831014592,0.009858258326599582,-0.004177652061594136,0.010728297518911556, ,0.9979372024536133
0.010897642767734177,0.021274483284775686,-0.08297730386414989, ,0.010942946914630877,0.02146599553705807,-0.08322938451061102, ,0.0003198031594912198, ,0.001086419656474633,0.002284501598059831,-0.005797488041154118,-0.0018915553043821868,-0.0016572832838581152,-0.004559776966698277, ,0.006325355548017628, ,0.00251486834707609, ,3.5309438215450326e-05, ,0.17932958007236735,-0.24413875435285942,0.09373084103000001,1.6777292378196795,0.46757010219733725,-1.2857007560255997, ,0.0,-0.008772394991457981,0.00626378746362564,0.009231537538347157,-0.003817921218817236,0.012437878451039427, ,1.011850118637085
0.010908113915465782,0.02129810564137737,-0.08303455079417332, ,0.01095407739717866,0.021487936279623157,-0.08328381620719084, ,0.00031667263695300357, ,0.0010190287071031503,0.002267745760904322,-0.0054352970617812385,0.0014913734844836364,-0.0026181743377505593,-0.00023486219737828154, ,0.005976917641377335, ,0.0030131423778814496, ,3.5510235164991135e-05, ,0.17932958007236735,-0.2442314271473501,0.09379306295,1.677938927763164,0.46757010219733725,-1.285619077285459, ,3.690907119533982e-05,-0.00985019208102183,0.005903933106004449,0.0039457233855734915,-0.003510728928217204,0.009069020508796656, ,1.0215940475463867
0.010919465187043526,0.021321262479967313,-0.08309098079422594, ,0.010965370472533674,0.021509602928991487,-0.08333823764807005, ,0.00031419002490124665, ,0.000993181558946387,0.0022031133154402044,-0.005416462293828575,0.0023604043872755692,0.0002668993883932745,-2.131378807388502e-05, ,0.005931119765286131, ,0.002375445114694565, ,3.576951191845658e-05, ,0.17932958007236735,-0.24433182267471504,0.09385398858,1.677938927763164,0.46743346569757177,-1.2853443019014814, ,6.183924266662367e-05,-0.00914534349492711,0.005877790228782289,0.0039457233855734915,-0.0005191882906682697,0.007628432315732569, ,1.029656171798706
0.010929657168257677,0.02134376376984098,-0.0831472028646104, ,0.010976825480665076,0.021530996755190233,-0.0833926488028605, ,0.0003122895276848506, ,0.0010330627176269173,0.002233367488497013,-0.005632641542245738,6.432282983760911e-05,0.00018114979144945157,0.0007103137886818909, ,0.006146690138656626, ,0.00019221603386321553, ,3.602034268554788e-05, ,0.17932958007236735,-0.2444167727363315,0.09391232163,1.677938927763164,0.46743346569757177,-1.2851809444212003, ,7.067195487141158e-05,-0.008842373237455816,0.006117055115207375,0.003777558511943314,-0.0005191882906682697,0.009711073414244323, ,1.0382311344146729
0.010929657168257677,0.02134376376984098,-0.0831472028646104, ,0.010988441762904654,0.02155211902570758,-0.08344704964103353, ,0.0003698318949825526, ,0.0010330627176269173,0.002233367488497013,-0.005632641542245738,6.432282983760911e-05,0.00018114979144945157,0.0007103137886818909, ,0.006146690138656626, ,0.00019221603386321553, ,3.637365773499817e-05, ,0.17932958007236735,-0.2444167727363315,0.09391232163,1.677938927763164,0.46743346569757177,-1.2851809444212003, ,7.067195487141158e-05,-0.008842373237455816,0.006117055115207375,0.003777558511943314,-0.0005191882906682697,0.009711073414244323, ,1.0473201274871826
0.010937692178497105,0.021359607366624452,-0.08318789807534319, ,0.011000218661945947,0.021572971005494802,-0.08350144013191835, ,0.0003843725078174258, ,0.0009839809871277163,0.0022022183825728013,-0.00539531444265801,0.00035804632861423976,0.00021350431289950033,0.0009202141397559667, ,0.005909940974555035, ,0.0004168653179347279, ,3.674728175555617e-05, ,0.17933730280524157,-0.24448627733219952,0.09395898807000001,1.677938927763164,0.46743346569757177,-1.2851809444212003, ,0.0,-0.009191621226130564,0.005856180705882354,0.0036108670377101517,-0.0005191882906682697,0.009711073414244323, ,1.0556530952453613
0.010950741202924271,0.021387503138216774,-0.08325987729849653, ,0.011012155521842542,0.02159355395696822,-0.0835558202447041, ,0.0003658017029571491, ,0.001094877435819417,0.0022771504210554188,-0.006007617536300661,-0.004075874883092747,9.470197460870094e-05,0.0020680294446907554, ,0.0065173337418032076, ,0.004076973963754732, ,3.708012507215465e-05, ,0.17933730280524157,-0.24459439559243867,0.09403676547,1.677938927763164,0.46743346569757177,-1.2850992656810598, ,0.0,-0.008286396433635441,0.0064777598698658,0.0033702605578698136,-0.0005191882906682697,0.013375783680917894, ,1.0636520385742188
0.010963677573774857,0.021413043287318398,-0.0833270848409079, ,0.011024251688007497,0.021613869140011416,-0.08361018994843891, ,0.0003523474823737157, ,0.0013047731610514866,0.00256311919138645,-0.007095675458250037,-0.001475369941016892,-0.0003941471823472097,0.0026095745637103865, ,0.007656410595041628, ,0.0015271052605485206, ,3.7382565030511436e-05, ,0.1793450255381158,-0.24467934565405514,0.09410935771000001,1.6781486177066482,0.46743346569757177,-1.2850175869409193, ,0.000150634060316294,-0.008446215459540657,0.007621440918660288,0.0019522064613579173,-0.0005637100714385692,0.010558930119092013, ,1.0715811252593994
0.010978131238496319,0.021439964741842524,-0.0834031711169817, ,0.011036506507211724,0.02163391781197731,-0.08366454921203151, ,0.00033067200362923353, ,0.0013839386724576082,0.0026856380054254207,-0.007702030938263305,-0.005537830118662246,-0.00016393238471487111,0.003669938654512961, ,0.008273404276310585, ,0.005540253527264233, ,3.764066050353958e-05, ,0.17935274827099001,-0.2447642957156716,0.09419102398000001,1.6781486177066482,0.46743346569757177,-1.2849359082007787, ,-0.0002179167188624993,-0.008091360038786934,0.00824472645962733,0.0019522064613579173,-0.0006409190004830398,0.01444020125487415, ,1.079725980758667
0.010988887321309674,0.021462144110902467,-0.0834661372441852, ,0.011048919327582968,0.021653701227690073,-0.08371889800424986, ,0.00032277851941795365, ,0.001366660962948027,0.00254402344575378,-0.007294975198821649,-0.004860510423703731,-0.0008423767162785406,0.0032278911974259012, ,0.007845793817811805, ,0.004932964570275618, ,3.7880118184856754e-05, ,0.1793450255381158,-0.24483380031153962,0.09425843106000001,1.6781486177066482,0.46743346569757177,-1.2849359082007787, ,0.0004404353904535385,-0.007630559138859978,0.007815903591756624,0.0019522064613579173,-0.0006816112451368937,0.013254153116469108, ,1.092712163925171
0.011004544093268686,0.021492433754991613,-0.08355198022940376, ,0.011061489498604768,0.021673220639447332,-0.08377323629372337, ,0.0002913433074197841, ,0.0012072104882082982,0.0023069624155295757,-0.0064015443649351874,0.0020533864667902613,0.00043062242826837684,-0.0035269297355066185, ,0.006910803354584735, ,0.002098051693201476, ,3.805991133564247e-05, ,0.1793450255381158,-0.2449187503731561,0.09435046765,1.678358307650133,0.46743346569757177,-1.2848542294606382, ,0.0004404353904535385,-0.007269776681679297,0.00687772518134715,0.006878696565619394,-0.0007158459885109298,0.006536544749951905, ,1.1008780002593994
0.011017747309186058,0.021515304550926106,-0.08361497323937203, ,0.011074216371115095,0.02169247729702239,-0.08382756404894154, ,0.00028244254146261784, ,0.0011475886811471653,0.0021994861932309864,-0.005927871933560639,-0.0032103388450581186,-0.0009255356776749653,-0.0018389875999518543, ,0.006426069168317968, ,0.003341090311713407, ,3.822100046988094e-05, ,0.17935274827099001,-0.24499597770189835,0.09441398586000001,1.678358307650133,0.4672968291978063,-1.2845794540766606, ,0.0006501509378877386,-0.007415753207255313,0.006391978940609952,0.0066003206126624085,-0.0017343225869201294,0.01211115021001681, ,1.1093430519104004
0.01102709760633214,0.021535334416462628,-0.08366654551655137, ,0.011087099297305215,0.021711472447665688,-0.08388188123825538, ,0.00028459494373144915, ,0.0010023455100062755,0.0019719553429483412,-0.0051298901958169805,0.0016995015116781915,-0.0008721468050099277,-0.0031420106870330583, ,0.005586508553394636, ,0.0019102203760650968, ,3.838302809792608e-05, ,0.17935274827099001,-0.2450732050306406,0.09447361520000001,1.678358307650133,0.4672968291978063,-1.28449777533652, ,0.0006501509378877386,-0.007146577397374863,0.005542383966597078,0.006210591160633885,-0.001680910025140643,0.006595540148297729, ,1.1177799701690674
0.01102709760633214,0.021535334416462628,-0.08366654551655137, ,0.01110013763071862,0.021730207336107674,-0.08393618782987744, ,0.000340613090043819, ,0.0010023455100062755,0.0019719553429483412,-0.0051298901958169805,0.0016995015116781915,-0.0008721468050099277,-0.0031420106870330583, ,0.005586508553394636, ,0.0019102203760650968, ,3.8638522856610254e-05, ,0.17935274827099001,-0.2450732050306406,0.09447361520000001,1.678358307650133,0.4672968291978063,-1.28449777533652, ,0.0006501509378877386,-0.007146577397374863,0.005542383966597078,0.006210591160633885,-0.001680910025140643,0.006595540148297729, ,1.1260530948638916
0.011035777577812836,0.02155283349407891,-0.0837107696484959, ,0.011113330726249735,0.021748683204560387,-0.0839904837918815, ,0.00035015939504473044, ,0.0007946594245142279,0.0017374287094861366,-0.004110702180708665,-0.0005717364617648143,-0.000668315934513149,-0.0019770311718639083, ,0.004532991786888535, ,0.0008795041763820534, ,3.890592793456882e-05, ,0.17936047100386424,-0.2451427096265086,0.09452157793,1.678358307650133,0.4672968291978063,-1.2844160965963796, ,0.0003908800702675499,-0.007436069320936483,0.004478158987911161,0.0058715033786064215,-0.0016089254159289536,0.009213981356434954, ,1.1347341537475586
0.011044903057412363,0.021572564114729367,-0.08376109971304845, ,0.01112667794014278,0.02176690129271953,-0.08404476909220432, ,0.0003534436120025833, ,0.0010069103438522214,0.0019934070563003116,-0.00528602802778221,-0.0005484475637568374,-0.0006727317195075377,-0.0018926699139423526, ,0.005738434668371119, ,0.0008679623088016972, ,3.924064857799404e-05, ,0.17936047100386424,-0.24521221422237663,0.09457083695000001,1.678358307650133,0.4672968291978063,-1.2844160965963796, ,0.0003908800702675499,-0.007161428630050487,0.005555916121381235,0.0055628824073181305,-0.0015467485534439273,0.008689426529854535, ,1.1414930820465088
0.011055209285018278,0.02159257247394864,-0.08381794199679278, ,0.011140178629990734,0.02178486283776667,-0.08409904369864399, ,0.00035101786334311186, ,0.0011830895219374687,0.002234794653733929,-0.006283793643840578,-0.0003139888695812008,-0.0006254666596541831,-0.001774907738421962, ,0.006773482894320117, ,0.0006998483801427343, ,3.956679188729007e-05, ,0.17936047100386424,-0.24528171881824465,0.09463694774,1.678358307650133,0.4672968291978063,-1.2844160965963796, ,0.0003404911777729848,-0.0068304581382202766,0.006740927431231486,0.005273735502705765,-0.0014834079907102957,0.008220541210676693, ,1.1479411125183105
0.011055209285018278,0.02159257247394864,-0.08381794199679278, ,0.0111538321547339,0.021802569074371468,-0.0841533075788624, ,0.00040779298210854865, ,0.0011830895219374687,0.002234794653733929,-0.006283793643840578,-0.0003139888695812008,-0.0006254666596541831,-0.001774907738421962, ,0.006773482894320117, ,0.0006998483801427343, ,3.9983362529292386e-05, ,0.17936047100386424,-0.24528171881824465,0.09463694774,1.678358307650133,0.4672968291978063,-1.2844160965963796, ,0.0003404911777729848,-0.0068304581382202766,0.006740927431231486,0.005273735502705765,-0.0014834079907102957,0.008220541210676693, ,1.154345989227295
0.011067558240200785,0.021616903484265686,-0.08388553284981806, ,0.011167637874659015,0.021820021234693194,-0.08420756070038388, ,0.0003936682490525022, ,0.0014141495936800716,0.0025189702032921845,-0.007591090253597492,-0.001773143357293214,-0.001820375596333566,0.003296800587987224, ,0.008122172196933664, ,0.0025412161400129416, ,4.0370982428024276e-05, ,0.17936047100386424,-0.24535122341411267,0.09470953998000001,1.6785679975936174,0.4672968291978063,-1.284334417856239, ,0.00030328786858482604,-0.006528409266319175,0.008098023141840367,0.0,-0.0014299626927561063,0.008484720996483782, ,1.1608521938323975
0.011067558240200785,0.021616903484265686,-0.08388553284981806, ,0.011181595151397748,0.02183722054838347,-0.08426180303059623, ,0.0004506919954910001, ,0.0014141495936800716,0.0025189702032921845,-0.007591090253597492,-0.001773143357293214,-0.001820375596333566,0.003296800587987224, ,0.008122172196933664, ,0.0025412161400129416, ,4.08474372316139e-05, ,0.17936047100386424,-0.24535122341411267,0.09470953998000001,1.6785679975936174,0.4672968291978063,-1.284334417856239, ,0.00030328786858482604,-0.006528409266319175,0.008098023141840367,0.0,-0.0014299626927561063,0.008484720996483782, ,1.1674461364746094
0.011083671792163487,0.021644171204949405,-0.08397074226587543, ,0.011195703347925981,0.021854168242587863,-0.08431603453675073, ,0.000419376415204418, ,0.0015952762409389175,0.002678752743247623,-0.008690526977618341,-0.00552703136689044,-0.0016019203373303771,0.0038233137400596963, ,0.009232869634792482, ,0.0057544917174686, ,4.1266400678877346e-05, ,0.17936819373673846,-0.24541300527710647,0.09480028028000001,1.6785679975936174,0.4672968291978063,-1.2841710603759577, ,9.551318928174657e-05,-0.0051881609477672395,0.009218062222222224,0.0,-0.0013755439065100134,0.011036854359829193, ,1.174903154373169
0.011100465120091461,0.021670795698525334,-0.08405602739139865, ,0.011209961828562171,0.021870865541948253,-0.08437025518596336, ,0.0003882738444579933, ,0.001628049807363096,0.002683150237708026,-0.00861873663694048,-0.0031310723233800865,-0.002053299663600506,0.0032055529295363636, ,0.009172374970001375, ,0.003744276411455821, ,4.162934090935293e-05, ,0.1793836392024869,-0.24546706440722604,0.09489102058000001,1.6785679975936174,0.4672968291978063,-1.2840893816358172, ,0.0006304595013081642,-0.005411562902766238,0.009154489379310347,0.0,-0.001327107989198589,0.008762493640923172, ,1.1813621520996094
0.011118630961088238,0.021700803846907646,-0.08414834703034117, ,0.011224369958966564,0.02188731366860458,-0.0844244649452136, ,0.0003495822538047885, ,0.001886801710157255,0.0029745273379911128,-0.009466667013979631,-0.0009466209101893708,-0.0016698991317376768,-0.002830919602268117, ,0.010100773135333694, ,0.001919525521501524, ,4.192508386600459e-05, ,0.17939908466823537,-0.24552884627021984,0.09498953862000001,1.678777687537102,0.4672968291978063,-1.2840893816358172, ,0.0018184903200966639,-0.005905890402204974,0.010075149601518027,0.0062306420259383094,-0.0012803275802171252,0.00811690316770219, ,1.1879479885101318
0.011118630961088238,0.021700803846907646,-0.08414834703034117, ,0.011238927106139522,0.021903513842197193,-0.08447866378134626, ,0.00040579756122855853, ,0.001886801710157255,0.0029745273379911128,-0.009466667013979631,-0.0009466209101893708,-0.0016698991317376768,-0.002830919602268117, ,0.010100773135333694, ,0.001919525521501524, ,4.230726239853194e-05, ,0.17939908466823537,-0.24552884627021984,0.09498953862000001,1.678777687537102,0.4672968291978063,-1.2840893816358172, ,0.0018184903200966639,-0.005905890402204974,0.010075149601518027,0.0062306420259383094,-0.0012803275802171252,0.00811690316770219, ,1.1944310665130615
0.011138383087262312,0.02172928889056019,-0.08424624194144134, ,0.011253632638421097,0.021919467279868793,-0.08453285166107048, ,0.0003627608167763029, ,0.0019383030474309226,0.0027886430610680906,-0.009494357563921505,-0.0054402971900599,-0.002206550593742007,-0.0024767277672948463, ,0.010083470353867101, ,0.005870742873805688, ,4.261592550408565e-05, ,0.17942225286685803,-0.24556745993459095,0.09509324182000001,1.678777687537102,0.4672968291978063,-1.2839260241555361, ,0.002356589789995414,-0.0037411119995833003,0.010062420416929882,0.0062306420259383094,-0.001237368849871047,0.010593536384132865, ,1.2011651992797852
0.011138383087262312,0.02172928889056019,-0.08424624194144134, ,0.011268485925489062,0.02193517519626664,-0.0845870285509612, ,0.0004188692309303075, ,0.0019383030474309226,0.0027886430610680906,-0.009494357563921505,-0.0054402971900599,-0.002206550593742007,-0.0024767277672948463, ,0.010083470353867101, ,0.005870742873805688, ,4.3009595122015864e-05, ,0.17942225286685803,-0.24556745993459095,0.09509324182000001,1.678777687537102,0.4672968291978063,-1.2839260241555361, ,0.002356589789995414,-0.0037411119995833003,0.010062420416929882,0.0062306420259383094,-0.001237368849871047,0.010593536384132865, ,1.210340976715088
0.011149887766110441,0.021746409248707212,-0.08430232062037255, ,0.011283486338358375,0.021950638803544344,-0.0846411944174586, ,0.0004176047652112926, ,0.0017419646803116492,0.002667871170560525,-0.008541863544268547,-0.003869190871719389,-0.0019038505638311633,-0.00230332447543494, ,0.009116765344082586, ,0.004312219787672936, ,4.339631383811544e-05, ,0.1794685892641034,-0.2456755781948301,0.09528250016,1.678777687537102,0.4672968291978063,-1.2839260241555361, ,0.0021538338806992396,-0.003055885530166101,0.007869966166007906,0.0062306420259383094,-0.0011561888676048203,0.009109628287452633, ,1.2180821895599365
0.011174637372537937,0.021784496524899746,-0.08442404042738208, ,0.011298633249379568,0.0219658593113642,-0.08469534922686932, ,0.0003491072936320325, ,0.0015442963051113764,0.0021988386557498345,-0.007417998761257134,-0.004691410657214911,-0.0019012639894958154,-0.003015431043550715, ,0.00788964182545778, ,0.005062026891586057, ,4.367099621413981e-05, ,0.1794685892641034,-0.2456755781948301,0.09528250016,1.678777687537102,0.4672968291978063,-1.2839260241555361, ,0.0021538338806992396,-0.003055885530166101,0.007869966166007906,0.0062306420259383094,-0.0011561888676048203,0.009109628287452633, ,1.2245850563049316
0.011185973380177476,0.02180160198842737,-0.08448284122044085, ,0.0113139260322378,0.021980837926899196,-0.08474949294536559, ,0.0003458331175791061, ,0.0010983791615286538,0.0016352282633032634,-0.005498864636787841,-0.0022359391605232793,-0.0006852873843100187,-0.004144226982222338, ,0.005841054746302424, ,0.0023385973789869776, ,4.400560700687608e-05, ,0.1794763119969776,-0.24569874639345277,0.09534472208000001,1.678777687537102,0.4672968291978063,-1.2838443454153956, ,0.0010252197857484335,-0.002264545541021679,0.005828324742041714,0.0062306420259383094,-0.0011226215946068725,0.0057271874899943636, ,1.2303531169891357
0.011185973380177476,0.02180160198842737,-0.08448284122044085, ,0.011329364061951662,0.021995575854834873,-0.08480362553898642, ,0.0004013593495777648, ,0.0010983791615286538,0.0016352282633032634,-0.005498864636787841,-0.0022359391605232793,-0.0006852873843100187,-0.004144226982222338, ,0.005841054746302424, ,0.0023385973789869776, ,4.442319232246854e-05, ,0.1794763119969776,-0.24569874639345277,0.09534472208000001,1.678777687537102,0.4672968291978063,-1.2838443454153956, ,0.0010252197857484335,-0.002264545541021679,0.005828324742041714,0.0062306420259383094,-0.0011226215946068725,0.0057271874899943636, ,1.2352330684661865
0.011200086059425081,0.021820341272884916,-0.08454220071843985, ,0.011344946714872042,0.022010074297371677,-0.08485774697363771, ,0.0003956673719765272, ,0.0016575340247597017,0.0021418886715434643,-0.006755696416297481,-0.006099364744751258,-0.004633127594703178,-0.0017958754836387657, ,0.007278361092560395, ,0.0076595109195354725, ,4.482812719130978e-05, ,0.17951492566134872,-0.2457373600578239,0.09540824029000002,1.678777687537102,0.4672968291978063,-1.283762666675255, ,0.004850525830313998,-0.004205420196689871,0.007233792697547686,0.005993794909373201,-0.0010888844425054529,0.011728464978283046, ,1.240401029586792
0.011200086059425081,0.021820341272884916,-0.08454220071843985, ,0.011360673368680529,0.022024334454227006,-0.0849118572150928, ,0.0004517160916391011, ,0.0016575340247597017,0.0021418886715434643,-0.006755696416297481,-0.006099364744751258,-0.004633127594703178,-0.0017958754836387657, ,0.007278361092560395, ,0.0076595109195354725, ,4.531542628511189e-05, ,0.17951492566134872,-0.2457373600578239,0.09540824029000002,1.678777687537102,0.4672968291978063,-1.283762666675255, ,0.004850525830313998,-0.004205420196689871,0.007233792697547686,0.005993794909373201,-0.0010888844425054529,0.011728464978283046, ,1.245225191116333
0.01121680770175622,0.021843012909172434,-0.08461907507045707, ,0.01137654340238919,0.022038357522637005,-0.08496595622899224, ,0.00042895401876311487, ,0.0018372529373754127,0.0023529899970972505,-0.008691417751512677,-0.004516425334716915,-0.0030392746979244186,-0.0018748115219516784, ,0.009189820608349435, ,0.005443825759222758, ,4.576345035224916e-05, ,0.17954581659284563,-0.24576052825644656,0.09548990656,1.6789873774805866,0.4672968291978063,-1.2836809879351143, ,0.0028763683413403148,-0.0012437702056612922,0.009170300241796202,0.003965833238721221,-0.001058478182955771,0.006656496163943673, ,1.2511341571807861
0.01121680770175622,0.021843012909172434,-0.08461907507045707, ,0.011392556196338256,0.022052144697358816,-0.08502004398084437, ,0.00048518007510104993, ,0.0018372529373754127,0.0023529899970972505,-0.008691417751512677,-0.004516425334716915,-0.0030392746979244186,-0.0018748115219516784, ,0.009189820608349435, ,0.005443825759222758, ,4.62929628698204e-05, ,0.17954581659284563,-0.24576052825644656,0.09548990656,1.6789873774805866,0.4672968291978063,-1.2836809879351143, ,0.0028763683413403148,-0.0012437702056612922,0.009170300241796202,0.003965833238721221,-0.001058478182955771,0.006656496163943673, ,1.256507158279419
0.011240612832072639,0.02187187523639809,-0.08471820990575966, ,0.011408711132195815,0.02206569717067286,-0.08507412043602584, ,0.00043874398715500044, ,0.0018372529373754127,0.0023529899970972505,-0.008691417751512677,-0.004516425334716915,-0.0030392746979244186,-0.0018748115219516784, ,0.009189820608349435, ,0.005443825759222758, ,4.6747303928222736e-05, ,0.1795998757229652,-0.2457991419208177,0.09559490605000001,1.6789873774805866,0.4671601926980409,-1.283569570031418, ,0.006140717533262491,-0.0036480981893693997,0.010910144876712331,0.003965833238721221,0.0,0.0052035479584160126, ,1.2619051933288574
0.011240612832072639,0.02187187523639809,-0.08471820990575966, ,0.011425007592956206,0.022079016132384468,-0.08512818555978167, ,0.0004949634486728508, ,0.0023974021898923873,0.0029819074914794043,-0.010260276966177607,-0.0006958136551473512,-0.005259329640235156,-0.0016016404113202802, ,0.010950460856535517, ,0.00530514761323315, ,4.728232887073884e-05, ,0.1795998757229652,-0.2457991419208177,0.09559490605000001,1.6789873774805866,0.4671601926980409,-1.283569570031418, ,0.006140717533262491,-0.0036480981893693997,0.010910144876712331,0.003965833238721221,0.0,0.0052035479584160126, ,1.2668349742889404
0.01126471666467088,0.021902530773037172,-0.08483249262818454, ,0.011441444962938913,0.022092102769826236,-0.08518223931722593, ,0.00043530814358420103, ,0.0024513482605518764,0.003141201981244954,-0.012118444760956717,-0.003528217228635191,-0.0019747364450164845,-0.0023484927482027517, ,0.01275668301737749, ,0.004043221423881352, ,4.772296123856465e-05, ,0.17963848938733631,-0.24581458738656614,0.09571546102,1.6789873774805866,0.4671601926980409,-1.283569570031418, ,0.002864137618206615,-0.00028668213157231697,0.012631888596352102,0.003965833238721221,0.0,0.0047364567632111, ,1.2722570896148682
0.01126471666467088,0.021902530773037172,-0.08483249262818454, ,0.01145802262778754,0.022104958267860065,-0.08523628167334146, ,0.0004913142365385622, ,0.0024513482605518764,0.003141201981244954,-0.012118444760956717,-0.003528217228635191,-0.0019747364450164845,-0.0023484927482027517, ,0.01275668301737749, ,0.004043221423881352, ,4.824335787955548e-05, ,0.17963848938733631,-0.24581458738656614,0.09571546102,1.6789873774805866,0.4671601926980409,-1.283569570031418, ,0.002864137618206615,-0.00028668213157231697,0.012631888596352102,0.003965833238721221,0.0,0.0047364567632111, ,1.2770869731903076
0.011292643425785995,0.021935998957237426,-0.08496037279893348, ,0.011474739974468458,0.022117583808879196,-0.08529031259298031, ,0.0004183210239558761, ,0.0027976982502541806,0.0032199528647265004,-0.012311497144726579,-0.0029537302083985197,-0.00554401406050177,-0.002387579587267795, ,0.013029511652212696, ,0.006281745871829373, ,4.8650487269908474e-05, ,0.1796925485174559,-0.24582231011944036,0.09585027518000001,1.6789873774805866,0.4671601926980409,-1.283569570031418, ,0.00642992403508444,-0.0004977835709471369,0.012992505318107668,0.003925592356013232,0.0,0.004315624816317094, ,1.2822520732879639
0.011292643425785995,0.021935998957237426,-0.08496037279893348, ,0.011491596391269884,0.022129980572810192,-0.08534433204086497, ,0.0004739576448583353, ,0.0027976982502541806,0.0032199528647265004,-0.012311497144726579,-0.0029537302083985197,-0.00554401406050177,-0.002387579587267795, ,0.013029511652212696, ,0.006281745871829373, ,4.913642235590642e-05, ,0.1796925485174559,-0.24582231011944036,0.09585027518000001,1.6789873774805866,0.4671601926980409,-1.283569570031418, ,0.00642992403508444,-0.0004977835709471369,0.012992505318107668,0.003925592356013232,0.0,0.004315624816317094, ,1.2872400283813477
0.011319697816285591,0.02196659876836879,-0.08507966977403146, ,0.011508591267800242,0.022142149737115112,-0.0853983399815873, ,0.00040993850738442803, ,0.0026922457220915487,0.0030126047932804347,-0.01153168453072049,-0.0028556143150155287,-0.005986640194901171,-0.0022888681284782366, ,0.012218990252253856, ,0.006632811622342123, ,4.952363362481011e-05, ,0.1797543303804497,-0.24582231011944036,0.09597601531000001,1.6789873774805866,0.4671601926980409,-1.283569570031418, ,0.006828764276024898,-0.00039960663101535097,0.012177990458715598,0.003729864469393967,0.0,0.0040765075378577115, ,1.2922241687774658
0.011319697816285591,0.02196659876836879,-0.08507966977403146, ,0.01152572399498747,0.022154092476793633,-0.08545233637960985, ,0.00046527526897817797, ,0.0026922457220915487,0.0030126047932804347,-0.01153168453072049,-0.0028556143150155287,-0.005986640194901171,-0.0022888681284782366, ,0.012218990252253856, ,0.006632811622342123, ,5.006220421558741e-05, ,0.1797543303804497,-0.24582231011944036,0.09597601531000001,1.6789873774805866,0.4671601926980409,-1.283569570031418, ,0.006828764276024898,-0.00039960663101535097,0.012177990458715598,0.003729864469393967,0.0,0.0040765075378577115, ,1.295762062072754
0.011345663295378186,0.021994557126883234,-0.0851849598308635, ,0.011542993965077575,0.022165809964384987,-0.08550632119926599, ,0.0004141739449288608, ,0.002803216454238562,0.0028415313432813716,-0.010865309080508853,-0.004155227509628979,-0.008778331254688083,-0.0014442455105119416, ,0.01157528679036301, ,0.009712098838270396, ,5.0522687406932986e-05, ,0.17983155770919193,-0.24582231011944036,0.09608749625000002,1.6791970674240708,0.4671601926980409,-1.2834878912912775, ,0.009472695836089501,-0.00032655881652228133,0.011509256878612718,0.0031973257306722297,0.0,0.005264806587415175, ,1.3048970699310303
0.011345663295378186,0.021994557126883234,-0.0851849598308635, ,0.011560400571633815,0.022177303369970053,-0.08556029440475969, ,0.00046945109387227406, ,0.002803216454238562,0.0028415313432813716,-0.010865309080508853,-0.004155227509628979,-0.008778331254688083,-0.0014442455105119416, ,0.01157528679036301, ,0.009712098838270396, ,5.106129225935756e-05, ,0.17983155770919193,-0.24582231011944036,0.09608749625000002,1.6791970674240708,0.4672968291978063,-1.2835993091949738, ,0.011577033251002903,-0.00026477125196819643,0.011492649004329005,0.0031973257306722297,0.000908969196068812,0.004247225048212006, ,1.3092021942138672
0.01137795545922735,0.022026714451119166,-0.08530936712965775, ,0.011577943209534907,0.022188573861173424,-0.08561425596016672, ,0.00039893704749661724, ,0.002974724516343959,0.002832091192296148,-0.010823859690695017,-0.003185808894191797,-0.009990171452939366,-0.0015205078923311729, ,0.01157694541204508, ,0.010485835942184057, ,5.149396640364022e-05, ,0.17995512143517953,-0.24582231011944036,0.09621971783000001,1.6791970674240708,0.4672968291978063,-1.2835993091949738, ,0.011577033251002903,-0.00026477125196819643,0.011492649004329005,0.0031973257306722297,0.000908969196068812,0.004247225048212006, ,1.3125231266021729
0.01137795545922735,0.022026714451119166,-0.08530936712965775, ,0.01159562127497429,0.022199622603165672,-0.08566820582943385, ,0.0004539172268662207, ,0.002974724516343959,0.002832091192296148,-0.010823859690695017,-0.003185808894191797,-0.009990171452939366,-0.0015205078923311729, ,0.01157694541204508, ,0.010485835942184057, ,5.20040380519817e-05, ,0.17995512143517953,-0.24582231011944036,0.09621971783000001,1.6791970674240708,0.4672968291978063,-1.2835993091949738, ,0.011577033251002903,-0.00026477125196819643,0.011492649004329005,0.0031973257306722297,0.000908969196068812,0.004247225048212006, ,1.3158400058746338
0.01140496811992043,0.022051635946782853,-0.08540585871390405, ,0.011613434165458994,0.02221045075866509,-0.08572214397638042, ,0.0004107512676492007, ,0.002718961850350635,0.002536254162292515,-0.009683006418992016,-0.003028308893617097,-0.009409899223750013,-0.0015870201931605995, ,0.010372364823397259, ,0.009885179463847515, ,5.2448593402047264e-05, ,0.18006323969541868,-0.24582231011944036,0.09632212474000001,1.6791970674240708,0.4672968291978063,-1.2835993091949738, ,0.010999990118813559,-0.00022791010780671812,0.010289929922480621,0.0031973257306722297,0.000908969196068812,0.004044642200797792, ,1.3197710514068604
0.01140496811992043,0.022051635946782853,-0.08540585871390405, ,0.011631381279808194,0.022221059487939895,-0.08577607036469795, ,0.0004658582634794608, ,0.002718961850350635,0.002536254162292515,-0.009683006418992016,-0.003028308893617097,-0.009409899223750013,-0.0015870201931605995, ,0.010372364823397259, ,0.009885179463847515, ,5.2970213455046345e-05, ,0.18006323969541868,-0.24582231011944036,0.09632212474000001,1.6791970674240708,0.4672968291978063,-1.2835993091949738, ,0.010999990118813559,-0.00022791010780671812,0.010289929922480621,0.0031973257306722297,0.000908969196068812,0.004044642200797792, ,1.3231191635131836
0.01140496811992043,0.022051635946782853,-0.08540585871390405, ,0.011649462018152264,0.02223144994881052,-0.08582998495794994, ,0.000521529876887489, ,0.002718961850350635,0.002536254162292515,-0.009683006418992016,-0.003028308893617097,-0.009409899223750013,-0.0015870201931605995, ,0.010372364823397259, ,0.009885179463847515, ,5.356904551553251e-05, ,0.18006323969541868,-0.24582231011944036,0.09632212474000001,1.6791970674240708,0.4672968291978063,-1.2835993091949738, ,0.010999990118813559,-0.00022791010780671812,0.010289929922480621,0.0031973257306722297,0.000908969196068812,0.004044642200797792, ,1.3264350891113281
0.0114324679876681,0.022078134752298688,-0.08550861857617294, ,0.011667675781931485,0.022241623296651206,-0.08588388771957377, ,0.0004720997146848801, ,0.002806774842529949,0.0027600724594246274,-0.010761852186484405,-0.003358466799652867,-0.008140825230895269,-0.0017367004344550202, ,0.01145920797793951, ,0.008806372143411864, ,5.40934156644604e-05, ,0.18016363522278359,-0.24582231011944036,0.0964310131,1.6791970674240708,0.4672968291978063,-1.2835993091949738, ,0.009733954519803923,0.00029301168021743086,0.011393999656652363,0.0031973257306722297,0.000908969196068812,0.003854023437500661, ,1.3296701908111572
0.0114324679876681,0.022078134752298688,-0.08550861857617294, ,0.01168602197389488,0.022251580684392615,-0.0859377786128793, ,0.0005277797385247218, ,0.002806774842529949,0.0027600724594246274,-0.010761852186484405,-0.003358466799652867,-0.008140825230895269,-0.0017367004344550202, ,0.01145920797793951, ,0.008806372143411864, ,5.469455163465495e-05, ,0.18016363522278359,-0.24582231011944036,0.0964310131,1.6791970674240708,0.4672968291978063,-1.2835993091949738, ,0.009733954519803923,0.00029301168021743086,0.011393999656652363,0.0031973257306722297,0.000908969196068812,0.003854023437500661, ,1.332880973815918
0.0114324679876681,0.022078134752298688,-0.08550861857617294, ,0.011704499998099272,0.022261323262523374,-0.08599165760105007, ,0.0005838545576869434, ,0.002806774842529949,0.0027600724594246274,-0.010761852186484405,-0.003358466799652867,-0.008140825230895269,-0.0017367004344550202, ,0.01145920797793951, ,0.008806372143411864, ,5.5372359426680135e-05, ,0.18016363522278359,-0.24582231011944036,0.0964310131,1.6791970674240708,0.4672968291978063,-1.2835993091949738, ,0.009733954519803923,0.00029301168021743086,0.011393999656652363,0.0031973257306722297,0.000908969196068812,0.003854023437500661, ,1.3388350009918213
0.011450551516429146,0.02209606110525619,-0.08558060634507372, ,0.011723109259907522,0.022270852179092592,-0.0860455246471438, ,0.0005665586206409939, ,0.003135718655313619,0.003081710053763364,-0.012118309397246414,0.0004457036052498834,-0.007820967210296997,-0.0026823136732523844, ,0.012891202076925906, ,0.007833640179743303, ,5.602166697908417e-05, ,0.1802331398186516,-0.24581458738656614,0.09650749421,1.6791970674240708,0.46743346569757177,-1.2836290483585298, ,0.010775172199213215,0.0005982889294152416,0.01282513004830918,0.0031973257306722297,0.0022509967898081845,-0.00035200666804422213, ,1.3458950519561768
0.011450551516429146,0.02209606110525619,-0.08558060634507372, ,0.011741849165988062,0.0222801685797117,-0.08609937971409173, ,0.0006227966692197641, ,0.003135718655313619,0.003081710053763364,-0.012118309397246414,0.0004457036052498834,-0.007820967210296997,-0.0026823136732523844, ,0.012891202076925906, ,0.007833640179743303, ,5.6747168875762574e-05, ,0.1803953172090103,-0.24581458738656614,0.09672656722,1.6791970674240708,0.46743346569757177,-1.2836290483585298, ,0.012137349714593626,0.000511958423734539,0.016187816585365857,0.0031973257306722297,0.0022509967898081845,-0.00047687633927842436, ,1.3496601581573486
0.011502555532892398,0.022149372537276803,-0.0857877873456756, ,0.011760719124313243,0.02228927360755646,-0.08615322276470032, ,0.00046878971285478415, ,0.0038416601884419792,0.0039073570127144954,-0.015308542200744903,0.0006504086580539584,-0.009181150279136704,-0.0027034437493530026, ,0.01625968192002097, ,0.009204113814817028, ,5.725042011528561e-05, ,0.1803953172090103,-0.24581458738656614,0.09672656722,1.6791970674240708,0.46743346569757177,-1.2836290483585298, ,0.012137349714593626,0.000511958423734539,0.016187816585365857,0.0031973257306722297,0.0022509967898081845,-0.00047687633927842436, ,1.3537139892578125
0.011502555532892398,0.022149372537276803,-0.0857877873456756, ,0.011779718544158416,0.022298168403369182,-0.08620705376165062, ,0.0005241601588682281, ,0.0038416601884419792,0.0039073570127144954,-0.015308542200744903,0.0006504086580539584,-0.009181150279136704,-0.0027034437493530026, ,0.01625968192002097, ,0.009204113814817028, ,5.7829034972118454e-05, ,0.1803953172090103,-0.24581458738656614,0.09672656722,1.6791970674240708,0.46743346569757177,-1.2836290483585298, ,0.012137349714593626,0.000511958423734539,0.016187816585365857,0.0031973257306722297,0.0022509967898081845,-0.00047687633927842436, ,1.357173204421997
0.01154205459374283,0.022187188824529414,-0.08593725629133889, ,0.011798846836100593,0.02230685410546075,-0.08626087266749839, ,0.0004301041665853909, ,0.004010743183861243,0.0037715589720548706,-0.014599704273199591,0.0010891275611550906,-0.012535096308649069,-0.0026101044273789116, ,0.01560327154257912, ,0.012582296093950724, ,5.82719167983736e-05, ,0.18053432640074638,-0.24580686465369192,0.0968847146,1.6791970674240708,0.46743346569757177,-1.2836290483585298, ,0.015480740874138789,0.00012870137276420186,0.015494952840466926,0.0031492549013399317,0.0022509967898081845,-0.0005497847372444575, ,1.360429048538208
0.01154205459374283,0.022187188824529414,-0.08593725629133889, ,0.011818103412017302,0.02231533184971259,-0.08631467944467565, ,0.00048484205845666174, ,0.004010743183861243,0.0037715589720548706,-0.014599704273199591,0.0010891275611550906,-0.012535096308649069,-0.0026101044273789116, ,0.01560327154257912, ,0.012582296093950724, ,5.87891895860982e-05, ,0.18053432640074638,-0.24580686465369192,0.0968847146,1.6791970674240708,0.46743346569757177,-1.2836290483585298, ,0.015480740874138789,0.00012870137276420186,0.015494952840466926,0.0031492549013399317,0.0022509967898081845,-0.0005497847372444575, ,1.3637230396270752
0.01154205459374283,0.022187188824529414,-0.08593725629133889, ,0.011837487685085576,0.022323602769578996,-0.08636847405548917, ,0.0005402205438365796, ,0.004010743183861243,0.0037715589720548706,-0.014599704273199591,0.0010891275611550906,-0.012535096308649069,-0.0026101044273789116, ,0.01560327154257912, ,0.012582296093950724, ,5.938112539095028e-05, ,0.18053432640074638,-0.24580686465369192,0.0968847146,1.6791970674240708,0.46743346569757177,-1.2836290483585298, ,0.015480740874138789,0.00012870137276420186,0.015494952840466926,0.0031492549013399317,0.0022509967898081845,-0.0005497847372444575, ,1.3669819831848145
0.011577456816907528,0.022219935942411277,-0.08606647221272982, ,0.011856999069780461,0.022331667996088805,-0.08642225646212244, ,0.00046605831724810977, ,0.004230886779604874,0.0037197399453706764,-0.014659650834956382,0.0011709746158240027,-0.014374921998532597,-0.0027485224273322843, ,0.01570484736652537, ,0.014422513198776089, ,5.986617576310979e-05, ,0.18068105832535664,-0.2457991419208177,0.09702212134,1.6791970674240708,0.46757010219733725,-1.2836587875220855, ,0.01785791147129672,0.0009302728518888842,0.015570685747800588,0.0030227282673616594,0.0028253353256397612,-0.0014452975639058442, ,1.3710670471191406
0.011577456816907528,0.022219935942411277,-0.08606647221272982, ,0.011876636981874302,0.022339528657847805,-0.08647602662663537, ,0.0005211007643868313, ,0.004230886779604874,0.0037197399453706764,-0.014659650834956382,0.0011709746158240027,-0.014374921998532597,-0.0027485224273322843, ,0.01570484736652537, ,0.014422513198776089, ,6.0425184694670526e-05, ,0.18068105832535664,-0.2457991419208177,0.09702212134,1.6791970674240708,0.46757010219733725,-1.2836587875220855, ,0.01785791147129672,0.0009302728518888842,0.015570685747800588,0.0030227282673616594,0.0028253353256397612,-0.0014452975639058442, ,1.3745110034942627
0.011577456816907528,0.022219935942411277,-0.08606647221272982, ,0.011896400838435097,0.022347185881040756,-0.08652978451096441, ,0.0005766941316198704, ,0.004230886779604874,0.0037197399453706764,-0.014659650834956382,0.0011709746158240027,-0.014374921998532597,-0.0027485224273322843, ,0.01570484736652537, ,0.014422513198776089, ,6.114322217300877e-05, ,0.18068105832535664,-0.2457991419208177,0.09702212134,1.6791970674240708,0.46757010219733725,-1.2836587875220855, ,0.01785791147129672,0.0009302728518888842,0.015570685747800588,0.0030227282673616594,0.0028253353256397612,-0.0014452975639058442, ,1.3762030601501465
0.011577456816907528,0.022219935942411277,-0.08606647221272982, ,0.01191629005782556,0.022354640789433198,-0.08658353007692286, ,0.0006326943937526887, ,0.004230886779604874,0.0037197399453706764,-0.014659650834956382,0.0011709746158240027,-0.014374921998532597,-0.0027485224273322843, ,0.01570484736652537, ,0.014422513198776089, ,6.193704324464722e-05, ,0.18068105832535664,-0.2457991419208177,0.09702212134,1.6791970674240708,0.46757010219733725,-1.2836587875220855, ,0.01785791147129672,0.0009302728518888842,0.015570685747800588,0.0030227282673616594,0.0028253353256397612,-0.0014452975639058442, ,1.3778610229492188
0.011626199577652483,0.022261986527295146,-0.08623059799645769, ,0.011936304059701931,0.022361894504373845,-0.08663726328620171, ,0.0005210787383435467, ,0.004230886779604874,0.0037197399453706764,-0.014659650834956382,0.0011709746158240027,-0.014374921998532597,-0.0027485224273322843, ,0.01570484736652537, ,0.014422513198776089, ,6.257385558181628e-05, ,0.18090501757870914,-0.24578369645506926,0.09719712049000001,1.6794067573675557,0.46770673869710266,-1.283770205425782, ,0.020787939005141462,0.0006446707931068668,0.015041370651558077,0.0035152021893457416,0.0061505158259628195,-0.004225430650188247, ,1.38031005859375
0.011626199577652483,0.022261986527295146,-0.08623059799645769, ,0.011956442265012837,0.022368948144796494,-0.08669098410036916, ,0.0005765903093603602, ,0.004367515279880489,0.003616854797068986,-0.014103513286224495,0.004406031643574039,-0.013935130520778561,-0.0031273247629665497, ,0.015200852454970456, ,0.014615075075834415, ,6.328578972832396e-05, ,0.18090501757870914,-0.24578369645506926,0.09719712049000001,1.6794067573675557,0.46770673869710266,-1.283770205425782, ,0.020787939005141462,0.0006446707931068668,0.015041370651558077,0.0035152021893457416,0.0061505158259628195,-0.004225430650188247, ,1.382411003112793
0.011626199577652483,0.022261986527295146,-0.08623059799645769, ,0.01197670409599811,0.022375802827221937,-0.08674469248087213, ,0.0006325351424348529, ,0.004367515279880489,0.003616854797068986,-0.014103513286224495,0.004406031643574039,-0.013935130520778561,-0.0031273247629665497, ,0.015200852454970456, ,0.014615075075834415, ,6.407313323137586e-05, ,0.18090501757870914,-0.24578369645506926,0.09719712049000001,1.6794067573675557,0.46770673869710266,-1.283770205425782, ,0.020787939005141462,0.0006446707931068668,0.015041370651558077,0.0035152021893457416,0.0061505158259628195,-0.004225430650188247, ,1.3841350078582764
0.011626199577652483,0.022261986527295146,-0.08623059799645769, ,0.0119970889761874,0.022382459665760513,-0.08679838838903493, ,0.0006888095912081304, ,0.004367515279880489,0.003616854797068986,-0.014103513286224495,0.004406031643574039,-0.013935130520778561,-0.0031273247629665497, ,0.015200852454970456, ,0.014615075075834415, ,6.493602889156475e-05, ,0.18090501757870914,-0.24578369645506926,0.09719712049000001,1.6794067573675557,0.46770673869710266,-1.283770205425782, ,0.020787939005141462,0.0006446707931068668,0.015041370651558077,0.0035152021893457416,0.0061505158259628195,-0.004225430650188247, ,1.3860881328582764
0.011626199577652483,0.022261986527295146,-0.08623059799645769, ,0.012017596330399304,0.022388919772113585,-0.08685207178606112, ,0.0007453409541041929, ,0.004367515279880489,0.003616854797068986,-0.014103513286224495,0.004406031643574039,-0.013935130520778561,-0.0031273247629665497, ,0.015200852454970456, ,0.014615075075834415, ,0.0003618108020575536, ,0.18090501757870914,-0.24578369645506926,0.09719712049000001,1.6794067573675557,0.46770673869710266,-1.283770205425782, ,0.020787939005141462,0.0006446707931068668,0.015041370651558077,0.0035152021893457416,0.0061505158259628195,-0.004225430650188247, ,1.3880059719085693
0.011626199577652483,0.022261986527295146,-0.08623059799645769, ,0.01203822558474005,0.02239518425557609,-0.0869057426330332, ,0.0008020768950870073, ,0.004367515279880489,0.003616854797068986,-0.014103513286224495,0.004406031643574039,-0.013935130520778561,-0.0031273247629665497, ,0.015200852454970456, ,0.014615075075834415, ,0.00036512107343371494, ,0.18090501757870914,-0.24578369645506926,0.09719712049000001,1.6794067573675557,0.46770673869710266,-1.283770205425782, ,0.020787939005141462,0.0006446707931068668,0.015041370651558077,0.0035152021893457416,0.0061505158259628195,-0.004225430650188247, ,1.3906090259552002
0.011675024785892718,0.02229855874596917,-0.08639019317193389, ,0.012058976166602266,0.02240125422303815,-0.0869594008909121, ,0.0006942351554794474, ,0.005153059675046226,0.0037685316749545114,-0.016728588621062957,0.006334245371760862,-0.009373144289280419,-0.0040228021203700896, ,0.017905349263627336, ,0.011312700306350149, ,0.0003675771486728622, ,0.18115214503068433,-0.24572963732494968,0.09736693448000001,1.6794067573675557,0.4679800116966335,-1.2839930412331748, ,0.024979452897728554,0.00641137068202948,0.017738097461024498,0.0035152021893457416,0.015107157762597922,-0.011586268867488992, ,1.3922741413116455
0.011675024785892718,0.02229855874596917,-0.08639019317193389, ,0.012079847504664004,0.022407130778987712,-0.08701304652053962, ,0.0007507433741675856, ,0.005153059675046226,0.0037685316749545114,-0.016728588621062957,0.006334245371760862,-0.009373144289280419,-0.0040228021203700896, ,0.017905349263627336, ,0.011312700306350149, ,0.00037041541700986015, ,0.18115214503068433,-0.24572963732494968,0.09736693448000001,1.6794067573675557,0.4679800116966335,-1.2839930412331748, ,0.024979452897728554,0.00641137068202948,0.017738097461024498,0.0035152021893457416,0.015107157762597922,-0.011586268867488992, ,1.3939130306243896
0.011675024785892718,0.02229855874596917,-0.08639019317193389, ,0.012100839028887304,0.022412815025512067,-0.08706667948263626, ,0.0008074688820751801, ,0.005153059675046226,0.0037685316749545114,-0.016728588621062957,0.006334245371760862,-0.009373144289280419,-0.0040228021203700896, ,0.017905349263627336, ,0.011312700306350149, ,0.0003736290454294581, ,0.18115214503068433,-0.24572963732494968,0.09736693448000001,1.6794067573675557,0.4679800116966335,-1.2839930412331748, ,0.024979452897728554,0.00641137068202948,0.017738097461024498,0.0035152021893457416,0.015107157762597922,-0.011586268867488992, ,1.3955481052398682
0.011675024785892718,0.02229855874596917,-0.08639019317193389, ,0.012121950170517239,0.02241830806230021,-0.08712029973780307, ,0.000864371329758694, ,0.005153059675046226,0.0037685316749545114,-0.016728588621062957,0.006334245371760862,-0.009373144289280419,-0.0040228021203700896, ,0.017905349263627336, ,0.011312700306350149, ,0.00037721110589901456, ,0.18115214503068433,-0.24572963732494968,0.09736693448000001,1.6794067573675557,0.4679800116966335,-1.2839930412331748, ,0.024979452897728554,0.00641137068202948,0.017738097461024498,0.0035152021893457416,0.015107157762597922,-0.011586268867488992, ,1.3971760272979736
0.011675024785892718,0.02229855874596917,-0.08639019317193389, ,0.012143180362080527,0.022423610986644915,-0.08717390724652208, ,0.0009214203476814384, ,0.005153059675046226,0.0037685316749545114,-0.016728588621062957,0.006334245371760862,-0.009373144289280419,-0.0040228021203700896, ,0.017905349263627336, ,0.011312700306350149, ,0.000381154651129322, ,0.18115214503068433,-0.24572963732494968,0.09736693448000001,1.6794067573675557,0.4679800116966335,-1.2839930412331748, ,0.024979452897728554,0.00641137068202948,0.017738097461024498,0.0035152021893457416,0.015107157762597922,-0.011586268867488992, ,1.3988370895385742
0.011675024785892718,0.02229855874596917,-0.08639019317193389, ,0.012164529037384807,0.02242872489344459,-0.08722750196915556, ,0.0009785926936587187, ,0.005153059675046226,0.0037685316749545114,-0.016728588621062957,0.006334245371760862,-0.009373144289280419,-0.0040228021203700896, ,0.017905349263627336, ,0.011312700306350149, ,0.00038545276654320255, ,0.18115214503068433,-0.24572963732494968,0.09736693448000001,1.6794067573675557,0.4679800116966335,-1.2839930412331748, ,0.024979452897728554,0.00641137068202948,0.017738097461024498,0.0035152021893457416,0.015107157762597922,-0.011586268867488992, ,1.4005110263824463
0.011734002500163532,0.02234701024585309,-0.08659822841752747, ,0.012185995631516683,0.022433650875205602,-0.0872810838659471, ,0.0008234658176763627, ,0.006233615011235459,0.005323799074941565,-0.022562076312008666,0.0413569804093104,0.02696142674663307,-0.003237274411678147, ,0.02400516778128308, ,0.04936914536731108, ,0.0003885814311941537, ,0.18143788614703063,-0.24566785546195588,0.09758860007,1.6794067573675557,0.4685265576956953,-1.2844387128479604, ,0.028774087798202178,0.006014935656511937,0.02402535674208145,0.00350774468647295,0.056167373960495,-0.04511999955796199, ,1.4024620056152344
0.011734002500163532,0.02234701024585309,-0.08659822841752747, ,0.01220757958084145,0.022438390022044206,-0.08733465289702193, ,0.0008803104729803227, ,0.006233615011235459,0.005323799074941565,-0.022562076312008666,0.0413569804093104,0.02696142674663307,-0.003237274411678147, ,0.02400516778128308, ,0.04936914536731108, ,0.00039206887120682156, ,0.18143788614703063,-0.24566785546195588,0.09758860007,1.6794067573675557,0.4685265576956953,-1.2844387128479604, ,0.028774087798202178,0.006014935656511937,0.02402535674208145,0.00350774468647295,0.056167373960495,-0.04511999955796199, ,1.4041430950164795
0.011734002500163532,0.02234701024585309,-0.08659822841752747, ,0.012229280323001142,0.0224429434216886,-0.08738820902238685, ,0.0009373220642205337, ,0.006233615011235459,0.005323799074941565,-0.022562076312008666,0.0413569804093104,0.02696142674663307,-0.003237274411678147, ,0.02400516778128308, ,0.04936914536731108, ,0.000395908682425228, ,0.18143788614703063,-0.24566785546195588,0.09758860007,1.6794067573675557,0.4685265576956953,-1.2844387128479604, ,0.028774087798202178,0.006014935656511937,0.02402535674208145,0.00350774468647295,0.056167373960495,-0.04511999955796199, ,1.405776023864746
0.011734002500163532,0.02234701024585309,-0.08659822841752747, ,0.012251097296913921,0.022447312159481043,-0.08744175220193057, ,0.0009944746741659526, ,0.006233615011235459,0.005323799074941565,-0.022562076312008666,0.0413569804093104,0.02696142674663307,-0.003237274411678147, ,0.02400516778128308, ,0.04936914536731108, ,0.00040009445859124704, ,0.18143788614703063,-0.24566785546195588,0.09758860007,1.6794067573675557,0.4685265576956953,-1.2844387128479604, ,0.028774087798202178,0.006014935656511937,0.02402535674208145,0.00350774468647295,0.056167373960495,-0.04511999955796199, ,1.4073569774627686
0.011734002500163532,0.02234701024585309,-0.08659822841752747, ,0.012273029942772542,0.02245149731837996,-0.08749528239542477, ,0.001051748055131177, ,0.006233615011235459,0.005323799074941565,-0.022562076312008666,0.0413569804093104,0.02696142674663307,-0.003237274411678147, ,0.02400516778128308, ,0.04936914536731108, ,0.00040461983078944104, ,0.18143788614703063,-0.24566785546195588,0.09758860007,1.6794067573675557,0.4685265576956953,-1.2844387128479604, ,0.028774087798202178,0.006014935656511937,0.02402535674208145,0.00350774468647295,0.056167373960495,-0.04511999955796199, ,1.4090039730072021
0.011734002500163532,0.02234701024585309,-0.08659822841752747, ,0.012295077702043453,0.022455499978961905,-0.08754879956252326, ,0.0011091261903197595, ,0.006233615011235459,0.005323799074941565,-0.022562076312008666,0.0413569804093104,0.02696142674663307,-0.003237274411678147, ,0.02400516778128308, ,0.04936914536731108, ,0.000409478495337926, ,0.18143788614703063,-0.24566785546195588,0.09758860007,1.6794067573675557,0.4685265576956953,-1.2844387128479604, ,0.028774087798202178,0.006014935656511937,0.02402535674208145,0.00350774468647295,0.056167373960495,-0.04511999955796199, ,1.4106740951538086
0.011806838813925906,0.022406979185643768,-0.08685992959670966, ,0.01231724001746526,0.02245932121942364,-0.08760230366276324, ,0.0009024235873599296, ,0.008115250128581752,0.006818488485028087,-0.029898300991370506,0.01753385711260079,0.00015789165262983612,-0.004243524810203011, ,0.03172156162676253, ,0.01753388673731472, ,0.00041285483158465204, ,0.18175451819487384,-0.24558290540033942,0.09786600613000002,1.6794067573675557,0.4689364671949916,-1.2847729665590497, ,0.032410157636089745,0.009981029950033946,0.03160478476190477,0.003351852947270329,0.032498018497454755,-0.025864284883690747, ,1.4124131202697754
0.011806838813925906,0.022406979185643768,-0.08685992959670966, ,0.012339516333048098,0.022462962115584365,-0.08765579465556522, ,0.000959312576655847, ,0.008115250128581752,0.006818488485028087,-0.029898300991370506,0.01753385711260079,0.00015789165262983612,-0.004243524810203011, ,0.03172156162676253, ,0.01753388673731472, ,0.0004165722312109867, ,0.18175451819487384,-0.24558290540033942,0.09786600613000002,1.6794067573675557,0.4689364671949916,-1.2847729665590497, ,0.032410157636089745,0.009981029950033946,0.03160478476190477,0.003351852947270329,0.032498018497454755,-0.025864284883690747, ,1.4140779972076416
0.011806838813925906,0.022406979185643768,-0.08685992959670966, ,0.012361906094071845,0.02246642374088758,-0.08770927250023307, ,0.0010163742954258162, ,0.008115250128581752,0.006818488485028087,-0.029898300991370506,0.01753385711260079,0.00015789165262983612,-0.004243524810203011, ,0.03172156162676253, ,0.01753388673731472, ,0.0004206249478610869, ,0.18175451819487384,-0.24558290540033942,0.09786600613000002,1.6794067573675557,0.4689364671949916,-1.2847729665590497, ,0.032410157636089745,0.009981029950033946,0.03160478476190477,0.003351852947270329,0.032498018497454755,-0.025864284883690747, ,1.4157421588897705
0.011806838813925906,0.022406979185643768,-0.08685992959670966, ,0.012384408747085426,0.02246970716640324,-0.08776273715595533, ,0.0010735843312433243, ,0.008115250128581752,0.006818488485028087,-0.029898300991370506,0.01753385711260079,0.00015789165262983612,-0.004243524810203011, ,0.03172156162676253, ,0.01753388673731472, ,0.0004250072256019073, ,0.18175451819487384,-0.24558290540033942,0.09786600613000002,1.6794067573675557,0.4689364671949916,-1.2847729665590497, ,0.032410157636089745,0.009981029950033946,0.03160478476190477,0.003351852947270329,0.032498018497454755,-0.025864284883690747, ,1.4174261093139648
0.011806838813925906,0.022406979185643768,-0.08685992959670966, ,0.012407023739905263,0.02247281346082985,-0.0878161885818041, ,0.0011309232262784103, ,0.008115250128581752,0.006818488485028087,-0.029898300991370506,0.01753385711260079,0.00015789165262983612,-0.004243524810203011, ,0.03172156162676253, ,0.01753388673731472, ,0.00042971333227308396, ,0.18175451819487384,-0.24558290540033942,0.09786600613000002,1.6794067573675557,0.4689364671949916,-1.2847729665590497, ,0.032410157636089745,0.009981029950033946,0.03160478476190477,0.003351852947270329,0.032498018497454755,-0.025864284883690747, ,1.4190921783447266
0.011806838813925906,0.022406979185643768,-0.08685992959670966, ,0.012429750521614503,0.022475743690496486,-0.08786962673673666, ,0.0011883753057354747, ,0.008115250128581752,0.006818488485028087,-0.029898300991370506,0.01753385711260079,0.00015789165262983612,-0.004243524810203011, ,0.03172156162676253, ,0.01753388673731472, ,0.0004347375837529673, ,0.18175451819487384,-0.24558290540033942,0.09786600613000002,1.6794067573675557,0.4689364671949916,-1.2847729665590497, ,0.032410157636089745,0.009981029950033946,0.03160478476190477,0.003351852947270329,0.032498018497454755,-0.025864284883690747, ,1.420863151550293
0.011897247425682475,0.022481780904224032,-0.08719363008524633, ,0.012452588542561482,0.022478498919364823,-0.08792305157959451, ,0.0009167716421978668, ,0.009542086755083437,0.007938025195181202,-0.0352687675145617,0.03082557189392182,0.012449667757572811,-0.004314012319630924, ,0.03738916454853027, ,0.03324387974018848, ,0.00043790886045326266, ,0.18211748663996238,-0.24545934167435182,0.09821859701,1.6794067573675557,0.46934637669428797,-1.285107220270139, ,0.03881265503413938,0.012879606617599182,0.03730400824355972,0.0032073747043546005,0.05165666299957527,-0.04152286309542722, ,1.4225599765777588
0.011897247425682475,0.022481780904224032,-0.08719363008524633, ,0.01247553725435886,0.02248108020903146,-0.08797646306910545, ,0.0009732662007601433, ,0.009542086755083437,0.007938025195181202,-0.0352687675145617,0.03082557189392182,0.012449667757572811,-0.004314012319630924, ,0.03738916454853027, ,0.03324387974018848, ,0.00044140792803696775, ,0.18211748663996238,-0.24545934167435182,0.09821859701,1.6794067573675557,0.46934637669428797,-1.285107220270139, ,0.03881265503413938,0.012879606617599182,0.03730400824355972,0.0032073747043546005,0.05165666299957527,-0.04152286309542722, ,1.424314022064209
0.011897247425682475,0.022481780904224032,-0.08719363008524633, ,0.01249859610988204,0.02248348861872948,-0.08802986116388188, ,0.0010300027054106966, ,0.009542086755083437,0.007938025195181202,-0.0352687675145617,0.03082557189392182,0.012449667757572811,-0.004314012319630924, ,0.03738916454853027, ,0.03324387974018848, ,0.00044522997204588807, ,0.18211748663996238,-0.24545934167435182,0.09821859701,1.6794067573675557,0.46934637669428797,-1.285107220270139, ,0.03881265503413938,0.012879606617599182,0.03730400824355972,0.0032073747043546005,0.05165666299957527,-0.04152286309542722, ,1.4260411262512207
0.011897247425682475,0.022481780904224032,-0.08719363008524633, ,0.01252176456326842,0.02248572520533103,-0.0880832458224227, ,0.001086946812167745, ,0.009542086755083437,0.007938025195181202,-0.0352687675145617,0.03082557189392182,0.012449667757572811,-0.004314012319630924, ,0.03738916454853027, ,0.03324387974018848, ,0.00044937008069183547, ,0.18211748663996238,-0.24545934167435182,0.09821859701,1.6794067573675557,0.46934637669428797,-1.285107220270139, ,0.03881265503413938,0.012879606617599182,0.03730400824355972,0.0032073747043546005,0.05165666299957527,-0.04152286309542722, ,1.4277770519256592
0.011897247425682475,0.022481780904224032,-0.08719363008524633, ,0.01254504206991599,0.02248779102334922,-0.08813661700311268, ,0.0011440709549222004, ,0.009542086755083437,0.007938025195181202,-0.0352687675145617,0.03082557189392182,0.012449667757572811,-0.004314012319630924, ,0.03738916454853027, ,0.03324387974018848, ,0.0004538232914240814, ,0.18211748663996238,-0.24545934167435182,0.09821859701,1.6794067573675557,0.46934637669428797,-1.285107220270139, ,0.03881265503413938,0.012879606617599182,0.03730400824355972,0.0032073747043546005,0.05165666299957527,-0.04152286309542722, ,1.4295752048492432
0.011897247425682475,0.022481780904224032,-0.08719363008524633, ,0.01256842808648223,0.022489687124939955,-0.08818997466422322, ,0.0012013527824141594, ,0.01037016774607076,0.00809064194639237,-0.037696824749005445,0.05609252691847808,0.039007148809196694,0.0003947873933191746, ,0.03992554899238831, ,0.06832168843001625, ,0.0004585846257615978, ,0.1825576824137932,-0.2452971642839931,0.09861137288,1.67961644731104,0.4701661956928806,-1.2858574064324582, ,0.045999486940606286,0.01791860678974146,0.03992183338345865,-0.0023875313169746328,0.08755399436960067,-0.07181254194759337, ,1.431502103805542
0.011998388312580977,0.022563622105235027,-0.08756423951562826, ,0.01259192207088294,0.022491414559904378,-0.08824331876391255, ,0.0009047899630837398, ,0.01037016774607076,0.00809064194639237,-0.037696824749005445,0.05609252691847808,0.039007148809196694,0.0003947873933191746, ,0.03992554899238831, ,0.06832168843001625, ,0.0004614087101750291, ,0.1825576824137932,-0.2452971642839931,0.09861137288,1.67961644731104,0.4701661956928806,-1.2858574064324582, ,0.045999486940606286,0.01791860678974146,0.03992183338345865,-0.0023875313169746328,0.08755399436960067,-0.07181254194759337, ,1.4331841468811035
0.011998388312580977,0.022563622105235027,-0.08756423951562826, ,0.01261552348229087,0.02249297437569064,-0.08829664926022592, ,0.0009603493912968507, ,0.01037016774607076,0.00809064194639237,-0.037696824749005445,0.05609252691847808,0.039007148809196694,0.0003947873933191746, ,0.03992554899238831, ,0.06832168843001625, ,0.0004645467018801978, ,0.1825576824137932,-0.2452971642839931,0.09861137288,1.67961644731104,0.4701661956928806,-1.2858574064324582, ,0.045999486940606286,0.01791860678974146,0.03992183338345865,-0.0023875313169746328,0.08755399436960067,-0.07181254194759337, ,1.4348640441894531
0.011998388312580977,0.022563622105235027,-0.08756423951562826, ,0.012639231781135012,0.022494367617396205,-0.08834996611109645, ,0.00101628874740411, ,0.01037016774607076,0.00809064194639237,-0.037696824749005445,0.05609252691847808,0.039007148809196694,0.0003947873933191746, ,0.03992554899238831, ,0.06832168843001625, ,0.0004679950896647223, ,0.1825576824137932,-0.2452971642839931,0.09861137288,1.67961644731104,0.4701661956928806,-1.2858574064324582, ,0.045999486940606286,0.01791860678974146,0.03992183338345865,-0.0023875313169746328,0.08755399436960067,-0.07181254194759337, ,1.4365971088409424
