NicholasDascanio/dvrk_moveit_final/test/execution/third_experiment_notsharpbends/thirdexp_700vel4.0/thirdexp_700vel4.0_1.csv
Current Position (x),Current Position (y),Current Position (z), ,Planned Position (x),Planned Position (y),Planned Position (z), ,Position Error,,Cartesian linear Velocity(x),Cartesian linear Velocity(y),Cartesian linear Velocity(z),Cartesian Angular Velocity(x),Cartesian Angular Velocity(y),Cartesian Angular Velocity(z), ,Total Linear Velocity, ,Total Angular Velocity, ,MSE, ,Joint 1 Position,Joint 2 Position,Joint 3 Position,Joint 4 Position,Joint 5 Position,Joint 6 Position, ,Joint 1 Velocity,Joint 2 Velocity,Joint 3 Velocity,Joint 4 Velocity,Joint 5 Velocity,Joint 6 Velocity, ,Time Stamp
0.008275130835766547,0.02142637610604731,-0.07904884364737058, ,0.008330850474510574,0.021441632948810407,-0.07904543718319218, ,5.787100648046064e-05, ,-2.1926478684575335e-05,1.373279163343917e-05,1.4184498271739364e-06,-0.13408813227531302,0.0033474101141460775,-0.011428183973389973, ,2.5910847795176504e-05, ,0.134129908564623, ,4.82258387337172e-06, ,0.11448179212750413,-0.2630362816960868,0.08885030918,1.6005633386173743,0.08908699784706718,-1.3122010335832393, ,-0.0002760619911840489,-8.432697369916578e-05,0.0,0.008998449040437548,-1.1342869076302057e-05,0.13519558977369495, ,0.01821303367614746
0.008251380463748993,0.02142466963908935,-0.07904825191868518, ,0.008373891062852582,0.021431665674316265,-0.07911654212079156, ,0.00014043269955870544, ,-0.0025393182386544283,-0.00028571810564113545,0.0006268123388900578,-0.45588185893594835,0.29139471226950153,0.07702802818672878, ,0.002631095904986934, ,0.5410537382234057, ,9.013804819962095e-06, ,0.11451268305900103,-0.26301311349746415,0.08884901289000001,1.6009827185043435,0.09195636434214143,-1.3047393607439968, ,0.003932666473831303,0.0014137323722846521,-0.0007040218372698092,-0.005719833083407354,0.30510436291436166,0.45401309333684514, ,0.03453516960144043
0.008217091045331503,0.021425092709464688,-0.07905904111125361, ,0.008416968448289685,0.021421651313485966,-0.07918756966039783, ,0.00023766027721246907, ,-0.003284846260532726,0.00027448085430661527,-0.0017261444291757472,-0.2604740905627548,0.40769355298597226,0.11372686007963778, ,0.0037209043638732763, ,0.48379828958028015, ,1.3623874476613599e-05, ,0.11456674218912061,-0.2629822225659672,0.08885938321,1.6009827185043435,0.09632873233463551,-1.3009536470496315, ,0.005250693575365028,0.002357023667970485,0.0017349756584250085,-0.005719833083407354,0.4283135992647276,0.2576466254659304, ,0.05076313018798828
0.00817468432313679,0.02142816757198159,-0.0790913172256374, ,0.008460082161527868,0.021411590329288747,-0.07925851992012614, ,0.0003311849516175078, ,-0.001004159741169906,0.00039525197972621964,-0.0027304519625974293,0.0021572739072088227,0.19064549261502775,0.059028618814595944, ,0.0029359715314212537, ,0.19065769768091073, ,1.826545083021769e-05, ,0.11467486044935975,-0.2629127179700992,0.08889179046000001,1.6009827185043435,0.10234073832431491,-1.2984232694594828, ,0.007007634192997521,0.004163164925266281,0.0027964907865168542,-0.005719833083407354,0.20633781611165877,-0.006872177332813978, ,0.06760501861572266
0.008181182032184452,0.021431970953115147,-0.07912129638566787, ,0.008503231734424826,0.02140148318368692,-0.07932939301783902, ,0.00038464233141816215, ,0.003581754495258659,0.0003365717798408666,-0.0025636164463078456,0.6260188646508633,-0.24149776396219905,-0.061416357583294834, ,0.004417507794115471, ,0.6709849393968446, ,2.2149832043986638e-05, ,0.11493743336708338,-0.2628045997098601,0.08895401238,1.600773028560859,0.10152091932572226,-1.306004314791501, ,0.014265926271568065,0.004623559476169127,0.0027135965110732544,0.005364106851635655,-0.23525140943221692,-0.630044292560387, ,0.08444714546203613
0.008267422752880964,0.021441271760165602,-0.07919035454349939, ,0.008546416699989151,0.02139133033763691,-0.07940018907114627, ,0.00035265038947941463, ,0.005887325929005543,0.0008023411098765848,-0.004953578043064493,0.1326940630586295,-0.4307068794607014,-0.11576909047754531, ,0.0077357800692412155, ,0.4506840693687765, ,2.4265187996237415e-05, ,0.11511505622319054,-0.26274281784686626,0.08899549366000001,1.600773028560859,0.0972851878329936,-1.3085129078071729, ,0.01754426725059545,0.00682674085016181,0.005219138768020971,0.0049696378391444595,-0.4288606153557426,-0.1389175842268427, ,0.10349202156066895
0.008347363229766279,0.021452641426392072,-0.07927428534725603, ,0.00858963659237909,0.02138113225108969,-0.07947090819740388, ,0.00032011012102776195, ,0.0021165698933012893,0.00020708033325678225,-0.003579541945501315,0.052765705323721525,-0.03113910600422192,-0.0167579667983548, ,0.004163636741750475, ,0.06126878145078706, ,2.5340996899923357e-05, ,0.1154780246682791,-0.26259608592225603,0.08908364138000001,1.601192408447828,0.09277618334073406,-1.3111253799760143, ,0.01945406756016211,0.009559312752334423,0.0036940657513914663,0.013281499375257598,-0.015351302651346507,-0.060798589088264715, ,0.11955809593200684
0.00838372814676434,0.021455613851761698,-0.07934199638647253, ,0.008632890946901693,0.02137088938299175,-0.07954155051371625, ,0.0003302759244641352, ,0.001976240873793344,-0.00019922075918442033,-0.0028484178258089436,-0.10041785410962,0.02180156120647737,0.01761822419470296, ,0.0034725640400902107, ,0.10275725519316481, ,2.6278386600714842e-05, ,0.11591049770923567,-0.2624030176004004,0.08915364104000001,1.6014020983913126,0.09345936583956126,-1.3098038584712637, ,0.026309104951059266,0.011956273347419779,0.0029232540869884387,-0.007448602805237679,0.05136671259972581,0.08774578392917431, ,0.13884902000427246
0.008413333215661421,0.02145231627276177,-0.07941034637140568, ,0.008676179300011683,0.02136060219128602,-0.079612116136935, ,0.0003438176480068527, ,0.0018766384170133263,-0.0003567421775709377,-0.0031619613492022782,-0.014670602287563094,0.05837594639062704,0.029633632389941097, ,0.003694189532673903, ,0.060191176165324635, ,2.7159188578972498e-05, ,0.11650514814055095,-0.2621327219498025,0.08922364070000001,1.6014020983913126,0.09632873233463551,-1.3096115935045312, ,0.02926208497023459,0.014846204874604316,0.0032075738058799843,-0.007448602805237679,0.0927838747627292,-0.0008850721566150549, ,0.15657401084899902
0.008437554546767315,0.02144839276703222,-0.07944224523276464, ,0.008719501189310733,0.021350271132912463,-0.07968260518365997, ,0.0003832684050613129, ,0.0023675307716938066,-0.0004579762392674348,-0.002974384512894533,-0.03842251059841327,-0.005472102817906491,0.011571135306821193, ,0.003829087021888829, ,0.03881022068607854, ,2.825405641496846e-05, ,0.11679861198977148,-0.26197826729231805,0.08925475166,1.6014020983913126,0.09673864183393184,-1.3092107385543554, ,0.027788269856067582,0.015390357048081537,0.003008842372497167,-0.007448602805237679,0.02591526727195032,0.02548058235981447, ,0.17254400253295898
0.008510677379706401,0.021439045969967485,-0.07954067106873727, ,0.0087628561535462,0.021339896663808932,-0.0797530177702394, ,0.00034426129687476935, ,0.002981038588304553,-0.000357484299307354,-0.0037994180554711686,-0.015914115376377283,-0.029086915916177476,-0.010884898332778148, ,0.00484251625185217, ,0.03315581012335064, ,2.8805134385728145e-05, ,0.11760177620869083,-0.26153807151848724,0.08935586228,1.6014020983913126,0.0970119148334627,-1.3095969318420293, ,0.031443651941176536,0.017502202426866613,0.004310909748308525,0.010427713945023008,0.0,-0.023300484259215923, ,0.19048714637756348
0.008539172082371668,0.02143512803621503,-0.07958163737846859, ,0.008806243732610262,0.021329479238911958,-0.07982335401276974, ,0.0003753876210407455, ,0.003095561798269714,-0.0004756445877798568,-0.004057983533906478,0.01014624748326215,-0.020469359052626215,-0.009703144570359555, ,0.005126009264744573, ,0.02284602803369838, ,2.9521005510182765e-05, ,0.11792613098940827,-0.26135272592950587,0.08939734356000001,1.601611788334797,0.0972851878329936,-1.3099014463895626, ,0.03366333506863099,0.019311546918695723,0.004102191995879475,0.011145698524167717,0.010813204239761101,-0.028058442985397575, ,0.20697498321533203
0.008595414091364864,0.02142302523969762,-0.07965666879115758, ,0.00884966346753897,0.021319019312157697,-0.07989361402709672, ,0.000362771309618901, ,0.002820176861322578,-0.0007012429931412237,-0.0035947329912782325,0.015403257510145254,-0.004448320051391007,-0.004656880109020462, ,0.004622471691979636, ,0.016032713201551446, ,3.003283319591817e-05, ,0.11857484055084312,-0.2609588665529204,0.08947252838000001,1.601611788334797,0.09783173383205536,-1.3105104754846295, ,0.032655520150884645,0.02042111933687772,0.0035851477650236333,0.01013373664326454,0.026660239055964277,-0.03452527201916194, ,0.2242419719696045
0.00865664019304219,0.021408647822350132,-0.07973082767482001, ,0.00889311490051114,0.021308517336482494,-0.0799637979288146, ,0.00034672978054807723, ,0.0028845225728222753,-0.0005371710860040807,-0.004087596617184962,0.0011858945002673326,-0.016514182096315756,-0.006675652626384801, ,0.005031646783467813, ,0.01655670724917539, ,3.0359603960628703e-05, ,0.11922355011227798,-0.26054183897771227,0.08954641691000001,1.601611788334797,0.09783173383205536,-1.3105104754846295, ,0.03111375133064616,0.01996149380699848,0.004099025095213588,0.008343463369351213,0.012983969512815685,-0.020050231263866836, ,0.24340510368347168
0.008684729761484232,0.02140228181758306,-0.07977761148377499, ,0.008936597574847405,0.02129797376382391,-0.0800339058332674, ,0.0003741715636831661, ,0.002789981506845914,-0.0006116397890777396,-0.004490980346369365,0.006629768720445006,-0.008977095099651822,0.002175770680445431, ,0.005322311951736872, ,0.011159841750128971, ,3.1028048517168495e-05, ,0.11956335035874385,-0.2603101569914856,0.08959308335,1.6018214782782818,0.09837827983111713,-1.3111195045796964, ,0.030308828348281944,0.021971970724350726,0.004465604575273339,0.0013889726371867745,0.02184924215642663,-0.028286477634777006, ,0.25788402557373047
0.008735722837780657,0.021390312104075746,-0.07986891725827193, ,0.00898011103500944,0.021287389045121275,-0.08010393785554858, ,0.00035433519180791563, ,0.002813387062308319,-0.0007075713669852221,-0.004257612657425461,-0.006821900933013087,-0.012503650399388461,0.0009722760456333301, ,0.0051519966559005715, ,0.014243581159628715, ,3.1497315736877236e-05, ,0.12016572352293337,-0.25986996121765477,0.08968382365000001,1.6018214782782818,0.0993347353294752,-1.3119811086457118, ,0.030474290802334866,0.022323439557391384,0.004218435254237289,0.0013889726371867745,0.018302830793832367,-0.015181640156768256, ,0.27448415756225586
0.008765939178438514,0.021383484239416044,-0.079911963794055, ,0.009023654826598468,0.02127676363031677,-0.08017389411050145, ,0.00038264099935417234, ,0.0027722793932059378,-0.0007279757142104671,-0.00394921062119518,-0.01335893302651123,-0.018262813893226457,-0.00998589145508873, ,0.004879728087202743, ,0.022627228331035556, ,3.2084091818074146e-05, ,0.12047463283790236,-0.25964600196430226,0.08972660122000001,1.602031168221766,0.0993347353294752,-1.3119811086457118, ,0.02931632423802001,0.021646200173008844,0.0039060351937224135,0.010178369766078794,0.008770182550873024,-0.006947655926220467, ,0.28942012786865234
0.008819779782376512,0.021369045926646908,-0.07999456448389652, ,0.009067228496354909,0.02126609796835604,-0.08024377471271933, ,0.0003659711550323835, ,0.00256481865174035,-0.000623839939118853,-0.004486385821819078,0.0034736831051763997,0.0025435214626613337,-0.0035724275301696204, ,0.005205298140181237, ,0.004305342486802936, ,3.251788018138715e-05, ,0.12106156053634341,-0.25920580619047145,0.08980826749000001,1.602031168221766,0.09974464482877153,-1.3123153623568014, ,0.02821794277682747,0.022028073713665455,0.004445663276583869,0.009302633937607394,0.029485452851340854,-0.024256393799944456, ,0.30443501472473145
0.008853614480091603,0.02136184978089011,-0.08006626491167147, ,0.009110831592156771,0.021255392507188976,-0.08031357977654624, ,0.0003723686832308115, ,0.0022199258458022566,-0.0003630747209506752,-0.004743329629905475,0.02522096709881884,0.027216857543456426,0.004155393465992489, ,0.005249673322388117, ,0.037105990264906935, ,3.294412489581671e-05, ,0.12142452898143197,-0.2589200650741251,0.08987308199,1.602031168221766,0.10056446382736416,-1.3129838697789797, ,0.026492725169869006,0.020118071138111253,0.00470709560283688,0.008341818613060588,0.0559160686525752,-0.04593600851971913, ,0.3229711055755615
0.00890319572888769,0.02135118453474682,-0.08014860992856328, ,0.009154463663019266,0.021244647693770578,-0.08038330941607658, ,0.00035995766785408464, ,0.002467245248621885,-0.0006866312711559159,-0.004083404588416193,-0.0060822192800291915,-0.008702589025584578,0.0004237132298009678, ,0.004820057536178887, ,0.010617365303279351, ,3.326790318046842e-05, ,0.12194967481687924,-0.25849531476604276,0.08996122971,1.6022408581652505,0.10056446382736416,-1.3129838697789797, ,0.026192917901868833,0.021306003942180237,0.004025476755117514,0.0018586180934934684,0.017679021956909863,-0.014846995238805557, ,0.33775806427001953
0.008926727381955062,0.021344169394174623,-0.08018675324630525, ,0.009198124259093228,0.021233863974061896,-0.08045296374515584, ,0.0003958428732778618, ,0.002586513407618193,-0.0007288706025490008,-0.003721722056040338,-0.015673609252205997,-0.02099024003680118,-0.005518174179910663, ,0.004590481350083664, ,0.026196415844144276, ,3.373830193487645e-05, ,0.12221224773460286,-0.2582868009784387,0.08999882212,1.6024505481087352,0.10083773682689505,-1.3132067055863725, ,0.026731532833372047,0.020706293161350815,0.0036702330691244242,0.004476531704564341,0.004779295136584964,-0.004349866771914401, ,0.35315799713134766
0.008965046805555371,0.021334195092489176,-0.08026760496205254, ,0.00924181293166462,0.021223041793030518,-0.08052254287738059, ,0.00039236193140247075, ,0.0019324175810946915,-0.00030986508078216274,-0.004156927728932301,0.03580927199860242,0.03771929891420898,0.010749894967321216, ,0.004594594891780803, ,0.05201009008267606, ,3.415286835538385e-05, ,0.12271422537142745,-0.2579083870676017,0.09007919210000001,1.6024505481087352,0.10220410182454945,-1.3143208846233367, ,0.024559249885732604,0.01710471188869336,0.004175311014416776,0.004476531704564341,0.06349871633512011,-0.05224958523095126, ,0.3726961612701416
0.009019544152986161,0.02132329123839234,-0.08035747785437261, ,0.009285529233153247,0.021212181594651557,-0.08059204692609877, ,0.00037163969811386603, ,0.002559118308328465,-0.00037297655659297203,-0.004835376655665404,-0.0049709033186090875,-0.008521861763639643,-0.0021723803090289034, ,0.005483526732855767, ,0.00986569840803028, ,3.444104720253816e-05, ,0.12324709393974895,-0.2574913594923936,0.09016863611,1.6024505481087352,0.10220410182454945,-1.3143208846233367, ,0.025949396105679735,0.019919593106312087,0.004841584048632219,0.004476531704564341,0.01691717724543982,-0.01426546214650827, ,0.388077974319458
0.009047392357498622,0.02131768082504148,-0.08040439745219743, ,0.009329272717111784,0.02120128382190864,-0.08066147600441022, ,0.0003988661197466804, ,0.002563943368555494,-0.0005822096516994535,-0.004135054868094333,-0.009081899254722524,-0.013626211444655591,-0.003482281228911616, ,0.004900148205701776, ,0.01637542461124132, ,3.482422261169263e-05, ,0.1235173895903468,-0.2572751229719153,0.09021530255000001,1.6024505481087352,0.10220410182454945,-1.3143208846233367, ,0.026514931980573,0.020186543620180977,0.004112783764523626,0.004476531704564341,0.0122040189453769,-0.010418105909399965, ,0.4052109718322754
0.009095453215426303,0.021306974660809996,-0.08048608389324208, ,0.009373042938225041,0.021190348916794166,-0.08073083022516658, ,0.0003880185373938032, ,0.002139090850759197,-0.0006048046225621938,-0.004205474747413119,0.03591209669236502,0.03966555518344104,0.008011184775362763, ,0.0047568388821152795, ,0.053507335530158184, ,3.5133768395462625e-05, ,0.12407342635729098,-0.25688126359532987,0.09029696882,1.602869927995704,0.1030239208231421,-1.3149893920455153, ,0.027316333206237994,0.020692747832200344,0.004176405747246986,0.007922544731035193,0.06747887590780696,-0.05547882501207568, ,0.4201200008392334
0.009117410315049621,0.021301233482771204,-0.08052510811875077, ,0.009416839452308678,0.021179377320310697,-0.08080010970097179, ,0.00042442031383213514, ,0.002331665448945565,-0.0005866732118472385,-0.0038188377271980416,0.020768201463651617,0.019515851160685747,0.0027074226432930795, ,0.004512689974945851, ,0.028498888359875955, ,3.556663398855452e-05, ,0.12434372200788883,-0.25668819527347425,0.09033585752,1.602869927995704,0.10357046682220386,-1.315435063660301, ,0.02797669267643596,0.019303690308883396,0.0038143705747126443,0.007922544731035193,0.04723157667769182,-0.038961399605705785, ,0.43456006050109863
0.009173717008925194,0.021290711947725763,-0.08061174610585273, ,0.00946066181630828,0.021168369472471357,-0.08086931454418239, ,0.0004045324513052983, ,0.0028775822018778214,-0.00042237156264261387,-0.004709292308093821,-0.010351741599541588,-0.017365917817767973,-0.0073930355159839796, ,0.005535007778546007, ,0.020217162349868475, ,3.5892629144571145e-05, ,0.12491520424058145,-0.2562866131640146,0.09042270895000001,1.602869927995704,0.10370710332196931,-1.3155464815639974, ,0.029082728028952128,0.020118071138111253,0.0047421290622209,0.007922544731035193,0.010082761621982753,-0.008653444205898008, ,0.45350098609924316
0.009227514629716048,0.02128049924057182,-0.08070211521548885, ,0.009504509588298562,0.021157325812300877,-0.0809384448669076, ,0.00038438210761149145, ,0.0023503238027057466,-0.0006281611711777941,-0.004215688682610131,0.03613011318476896,0.03646599938578189,0.007654351421623885, ,0.004867303103693851, ,0.05133375291771056, ,3.612154125393813e-05, ,0.12550985467189674,-0.25587730832168065,0.09051344925,1.602869927995704,0.1043902858207965,-1.3160218923423388, ,0.029618271397774898,0.020967066186140252,0.004207293058637085,0.007922544731035193,0.06652926192950648,-0.055970998220348754, ,0.4688069820404053
0.009251638793209341,0.0212743750635009,-0.08074229451405968, ,0.00954838232748218,0.02114624677783616,-0.0810075007810094, ,0.0004181004027139077, ,0.0024432755663017004,-0.0006747648574884276,-0.0037685244687855656,0.029409844068086614,0.026833085712556475,0.005567761310946732, ,0.004541660464810618, ,0.03981147342420896, ,3.645730490530443e-05, ,0.12580331852111726,-0.25567651726695084,0.09055363424000001,1.602869927995704,0.10493683181985826,-1.3164675639571246, ,0.030396201652296857,0.02014797060689401,0.003769240776147658,0.0076223010800761624,0.057408018463106114,-0.048474456112884416, ,0.4840559959411621
0.00928825768950902,0.021266314222690312,-0.0807912204313278, ,0.009592279594188863,0.02113513280612737,-0.08107648239810378, ,0.0004370495077969042, ,0.0029812548359462654,-0.0005502083262234818,-0.004125173380013079,-0.0024852956864811495,-0.013068666915198606,-0.0026604491707144435, ,0.0051193422442992785, ,0.013302884965114899, ,3.6967449005495545e-05, ,0.12620490063057693,-0.25542166708210146,0.09060289326000001,1.6030796179391889,0.10521010481938914,-1.3166903997645174, ,0.03201651199678501,0.019794939832805752,0.004170937816182247,0.005305139005626806,0.01828460226264972,-0.01650415122284691, ,0.4971909523010254
0.009347106975359828,0.0212557974927607,-0.08088001325139872, ,0.00963620094987416,0.02112398433323841,-0.0811453898295594, ,0.0004139743510895507, ,0.0031911736070238143,-0.0005505561259809379,-0.00494228363229344,-0.011805682171396242,-0.021427900031043504,-0.004991882829024657, ,0.005908711241891599, ,0.024464852918496458, ,3.7370980606333726e-05, ,0.12681499652764067,-0.25501236223976753,0.09069233727,1.603289307882673,0.10548337781892003,-1.3169132355719104, ,0.03231084152484534,0.02223973319861045,0.004974644447220488,0.0050780100856087865,0.009974947594654691,-0.009632021099664358, ,0.5106501579284668
0.009375033346607616,0.021251315022847325,-0.08093398896491442, ,0.009680145957118904,0.021112801794248088,-0.08121422318649936, ,0.0004368189997439584, ,0.0024316396737150696,-0.0003644682902547701,-0.0052567805701321055,0.05486817592153452,0.0568093008384513,0.016610625047800965, ,0.005803399917281661, ,0.0789798289862413, ,3.7828957865115416e-05, ,0.12712390584260966,-0.2548038484521635,0.09074289258000001,1.603289307882673,0.10616656031774722,-1.3174703250903925, ,0.03146450316925424,0.021027463230328114,0.005293722671984049,0.0050780100856087865,0.09027550365825243,-0.07506810455141083, ,0.5257389545440674
0.009434459865984117,0.021241201208382656,-0.0810302648565558, ,0.009724114179627881,0.021101585623250502,-0.08128298257980039, ,0.000408972347067821, ,0.0029816294027125182,-0.0005565092276498646,-0.0041700636894984695,-0.00034683260482251037,-0.01025969342221375,-0.0016943335822657954, ,0.00515647627649472, ,0.010265554086974013, ,3.817310247400505e-05, ,0.1277957836026672,-0.25436365267833266,0.09084400320000001,1.603289307882673,0.10684974281657443,-1.3180274146088746, ,0.03210316020245967,0.01991123406598212,0.004220670779014309,0.0050780100856087865,0.02134658115027308,-0.018774710629549576, ,0.5392279624938965
0.009466618822615316,0.021234317193490622,-0.0810728181266562, ,0.009768105182228898,0.021090336253356236,-0.08135166812009428, ,0.00043518025575093434, ,0.003340602037376928,-0.0007593156657683189,-0.0047883747194451196,-0.010397564460040382,-0.0196949755898061,-0.004143136905228414, ,0.0058876748132203425, ,0.02227108905434173, ,3.858255179879651e-05, ,0.12812013838338462,-0.2541474161578544,0.09088678077000001,1.603289307882673,0.10684974281657443,-1.3180274146088746, ,0.0346718821916225,0.024152950256673654,0.004799280361554686,0.0050780100856087865,0.014221847341241139,-0.012929717785687569, ,0.552685022354126
0.009498740142418097,0.021228443382385376,-0.0811242906959324, ,0.009812118530871904,0.021079054116692766,-0.08142027991776643, ,0.00045621572363959486, ,0.0033582527468326634,-0.0004668473292506338,-0.00509619601213391,-0.01467884868564259,-0.026436007712380628,-0.0058244581757118784, ,0.006121031100601201, ,0.030237908311714204, ,3.903656813494797e-05, ,0.1284599386298505,-0.25391573417162766,0.09093863237000001,1.603289307882673,0.10712301581610531,-1.3182502504162672, ,0.033449750284973837,0.02166102295331449,0.005164984280155643,0.004869964074802463,0.006013641494997636,-0.006200381595603552, ,0.5662801265716553
0.009556992935015302,0.021220368526448805,-0.08123305987750215, ,0.00985615379262793,0.021067739644405687,-0.08148881808295798, ,0.00042214340456678994, ,0.003110846489698507,-0.00035812339956635777,-0.006015319641223638,0.01973945807704386,0.015698709524863658,0.005749864604580478, ,0.0067815697768199195, ,0.025220937295145032, ,3.9366450595870514e-05, ,0.12913181638990803,-0.25347553839779685,0.09104881702,1.6034989978261578,0.10835274431399428,-1.3192530115495351, ,0.03378317606211135,0.023128672083468384,0.006088995229357799,0.004799779432011324,0.050087629349165635,-0.042075611210781745, ,0.5798499584197998
0.009596231720069442,0.02121274901460783,-0.08128975171902843, ,0.009900210535688177,0.02105639326665912,-0.08155728272556469, ,0.00043407727390393604, ,0.0033042813708242247,-0.0008237469378881603,-0.004600328327164425,-0.004687704716892234,-0.013521300149799288,0.0003698812344421473, ,0.005723622551581085, ,0.014310839639705667, ,3.9715851385128496e-05, ,0.12951795303361927,-0.253205242747199,0.09110585378000001,1.6037086877696423,0.10835274431399428,-1.3192530115495351, ,0.03518611107099398,0.024214580647734314,0.004610365128798843,0.002429643835240534,0.021851488909162078,-0.019016612743030167, ,0.5930609703063965
0.00962830653549576,0.021205146958719927,-0.08133500858531954, ,0.009944288329362802,0.021045015412636786,-0.0816256739552378, ,0.00045822806917094087, ,0.00350940655020452,-0.0007536343540247729,-0.005229183281213059,-0.02355061831475986,-0.033619005147284775,-0.005581190805938279, ,0.006342574939462908, ,0.041047157346042, ,4.011843378653226e-05, ,0.1298500305472109,-0.25297356076097227,0.09115122393000001,1.6037086877696423,0.10848938081375971,-1.3193644294532314, ,0.03422176038891842,0.025238548286827336,0.005238017599473858,0.002429643835240534,0.0,-0.0011710175812369662, ,0.6100659370422363
0.009697740362942775,0.02119007427587619,-0.08145359779765886, ,0.009988386744080115,0.02103360651054274,-0.08169399188138456, ,0.00040834641659624456, ,0.0028228550822781253,-0.0008018959600739195,-0.004565852912573405,0.03107722824174958,0.029463722473737377,0.01188301455675208, ,0.00542757411424122, ,0.042824117681686154, ,4.0363248762173674e-05, ,0.1306377493003818,-0.2524252467269023,0.09127048261000001,1.6037086877696423,0.10971910931164867,-1.3203671905864993, ,0.03406207521840301,0.023753927799366904,0.004570677624103301,0.002429643835240534,0.065256189520965,-0.05432285650522033, ,0.6233580112457275
0.009730453806944766,0.02118017231179075,-0.08149798399159526, ,0.010032505351385675,0.021022166987602106,-0.08176223661316778, ,0.0004313122604089143, ,0.0033285693050300294,-0.0011584972322923885,-0.004587653041782005,-0.004188032542922871,-0.00800545039213633,0.0015551483485780186, ,0.005785157723639771, ,0.009034757912052787, ,4.0660252242479224e-05, ,0.13097754954684768,-0.2521703965420529,0.09131455647,1.6037086877696423,0.10985574581141411,-1.3205602872303361, ,0.03604137544947618,0.027927292983658262,0.004529090565823146,0.002429643835240534,0.02844444470681866,-0.023194537378248163, ,0.6363871097564697
0.009768169389637956,0.021168876844171135,-0.08154628905813348, ,0.010076643723941197,0.021010697270061718,-0.0818304082595064, ,0.00044821971529379303, ,0.0032458402131012873,-0.0010257541896944204,-0.004465053158359896,-0.011482881119945262,-0.016336014040677176,-0.005189385009971272, ,0.005614654936293125, ,0.019968022229987215, ,4.098984392439332e-05, ,0.13133279525906202,-0.25190010089145504,0.09135863033000001,1.6039183777131267,0.10985574581141411,-1.3205602872303361, ,0.03419709605710659,0.026120820687715603,0.004411191226806979,0.006419968319027607,0.017027157903367743,-0.013884505551283377, ,0.6505241394042969
0.009832278688685572,0.021151544971451774,-0.08164208021889192, ,0.010120801435523475,0.02099919778319138,-0.08189850692907609, ,0.0004149815645418611, ,0.0030285515546461432,-0.0007906569044414573,-0.005408990894148963,0.03896818960851239,0.04052672651586943,0.01168955387258428, ,0.006249355594993528, ,0.05622219631806502, ,4.121835524498837e-05, ,0.13206645488211333,-0.251382677788882,0.09145844466000001,1.6039183777131267,0.11067556481000676,-1.321228794652515, ,0.03645675818612016,0.02613520836091181,0.0054253445231607625,0.005812487630530407,0.07832365594039495,-0.06413697652326276, ,0.6647810935974121
0.009864376251431457,0.021143518744214718,-0.08169896177644798, ,0.01016497806102346,0.020987668951284347,-0.08196653273030892, ,0.0004315609125447782, ,0.003157238753679234,-0.0007572646014242118,-0.005244984835881242,0.017866159012446176,0.014904517934318776,0.004754276702841738, ,0.006168587533052308, ,0.023266806586703628, ,4.148008807425539e-05, ,0.13243714606007612,-0.2511123821382842,0.09151548142,1.6039183777131267,0.11135874730883397,-1.3218675629111376, ,0.0351600376281848,0.02519833817272193,0.0052674641269841276,0.005477097587361123,0.05049390100634812,-0.04214771930857024, ,0.6775100231170654
0.009899964937809853,0.021135302486139197,-0.08174935576042265, ,0.010209173176445412,0.020976111197658045,-0.08203448577139463, ,0.0004497229417377733, ,0.00336507491438341,-0.0008901752689279351,-0.00503678960899557,-0.006508594983192139,-0.011321930117255352,0.0011001183993991893, ,0.006122531400826719, ,0.013059399181952277, ,4.17770206615192e-05, ,0.13278466903941621,-0.25085753195343474,0.09156603673000001,1.6041280676566114,0.11135874730883397,-1.3219492416512781, ,0.035056129131315394,0.026027685561840586,0.0050359821435346196,0.001884113394653781,0.02412010460191006,-0.01904670740654151, ,0.6909961700439453
0.009967166613364524,0.02111795517197666,-0.0818478627141113, ,0.010253386358905766,0.020964524944655002,-0.08210236616027909, ,0.0004125949363539843, ,0.003545355301871921,-0.0007816505157823806,-0.004859191699817224,-0.02146960664382688,-0.030371041291426207,-0.011054595750620186, ,0.006065662842666645, ,0.03719333483108367, ,4.207443598756709e-05, ,0.13346426953234797,-0.2503478315837359,0.09166455477,1.6043377576000957,0.11163202030836485,-1.322172077458671, ,0.035056129131315394,0.024301393484883683,0.004896652788195512,0.008843173152927899,0.002583091962638308,-0.001475052886971495, ,0.7027950286865234
0.009996435728668514,0.021109794771643223,-0.08189710284971019, ,0.010297617186632083,0.02095291061364382,-0.0821701740046667, ,0.00043576457556979343, ,0.0029627332877354157,-0.0007934910030264132,-0.0056128665228851,0.03639189870400997,0.04096195361136073,0.008053137511457791, ,0.006396224441798742, ,0.05479280910275831, ,4.2418094195977854e-05, ,0.13379634704593962,-0.2501007041317607,0.09171381379000001,1.6043377576000957,0.1121785663074266,-1.3226177490734567, ,0.03487575948492127,0.026619057940665016,0.005618628402116403,0.008843173152927899,0.07634838929153505,-0.06162136670659803, ,0.7142300605773926
0.010029449834386918,0.021102274956766923,-0.08195892349258206, ,0.010341865238962206,0.020941268625019743,-0.08223790941201892, ,0.0004487310632468534, ,0.0031844981582985327,-0.0006498552116255082,-0.005852515219146564,0.03348486740029195,0.03475116350216087,0.006984412805055788, ,0.006694421162925569, ,0.04825846767877023, ,4.278126262630084e-05, ,0.13418248368965086,-0.24982268574828867,0.09177603571000001,1.6043377576000957,0.11299838530601926,-1.3232862564956351, ,0.03658324655299568,0.025703396955165436,0.00590831287833828,0.008751033518961492,0.07169049347848337,-0.05781853263365811, ,0.7258610725402832
0.010058194621266456,0.021096920555834557,-0.08200908412336713, ,0.010386130096343265,0.020929599398205347,-0.08230557248955572, ,0.0004726979975517258, ,0.0033832039212444826,-0.0007605314108386002,-0.005797430237821594,-0.0012921582553793427,-0.0023109759051855383,-0.0033289118178939526, ,0.006755344118696274, ,0.002647692588321555, ,4.318886064787171e-05, ,0.13447594753887138,-0.2496064492278104,0.09182659102000001,1.6043377576000957,0.11327165830555012,-1.3234274135628874, ,0.03459604139936959,0.02670896187967092,0.005815557327491786,0.008280155839541356,0.03133302301340512,-0.02409928553704593, ,0.7383911609649658
0.010101129545169498,0.021086756694788412,-0.08207368077007773, ,0.010430411340330625,0.020917903351651675,-0.08237316334425525, ,0.00047605437121087113, ,0.0035133568085328063,-0.0009530299240592342,-0.004687567959712947,-0.0195821206855427,-0.02599189400247158,-0.00882265438157564, ,0.0059350851280452225, ,0.03254286407364293, ,4.3591018857769326e-05, ,0.13490069784695374,-0.24928981717996718,0.09189140552000001,1.6043377576000957,0.11340829480531558,-1.323538831466584, ,0.035317060498128314,0.025633965845075844,0.004695993962264151,0.007675344032258446,0.007694629597968678,-0.0048187620467128964, ,0.7503960132598877
0.010134179005932465,0.02107687671396821,-0.08212174968585034, ,0.01047470855358692,0.020906180902838804,-0.08244068208285375, ,0.0004968050992302863, ,0.003450837794696748,-0.0009491983921395714,-0.004988971665714516,-0.017709428819274557,-0.021981850178807934,-0.007654093624290064, ,0.0061399590677992414, ,0.028228099533936436, ,4.402762014985566e-05, ,0.13524822082629384,-0.24902724426224354,0.09193936825000001,1.6043377576000957,0.11368156780484645,-1.3237616672739767, ,0.03439541194580311,0.02641161746687191,0.004983983579474344,0.007242964401692617,0.011006526188206207,-0.0075154465056509225, ,0.7614860534667969
0.010199698560389532,0.021062158656844666,-0.08223496035725798, ,0.010519021319881059,0.02089443246827676,-0.08250812881184709, ,0.0004524600575116018, ,0.003435093242838754,-0.0006595864957332324,-0.005942920954371137,0.013839328571060154,0.013175643634155323,-0.003855363925196261, ,0.006895884961500856, ,0.019108233645706792, ,4.435108812398708e-05, ,0.13596643498359673,-0.24850209842679627,0.09205344177000001,1.6049668274305493,0.11477465980296998,-1.3246530105035481, ,0.036597355016764664,0.025984923756426824,0.006008604873632592,0.013433963112855085,0.048154113319575524,-0.037799390205938685, ,0.7735741138458252
0.010199698560389532,0.021062158656844666,-0.08223496035725798, ,0.010563349224087182,0.020882658463506135,-0.08257550363748947, ,0.0005295581651973038, ,0.003435093242838754,-0.0006595864957332324,-0.005942920954371137,0.013839328571060154,0.013175643634155323,-0.003855363925196261, ,0.006895884961500856, ,0.019108233645706792, ,4.483475379358839e-05, ,0.13650702628479244,-0.24811596178308504,0.09214029320000001,1.605176517374034,0.11504793280250085,-1.324875846310941, ,0.03818790404767436,0.027682888435959965,0.00579862086639971,-0.011053074333140843,0.010619918903930683,-0.007187684895492532, ,0.7902431488037109
0.010292748021434008,0.02104105165781059,-0.08237917735380179, ,0.010607691852183902,0.020870859303099246,-0.08264280666579502, ,0.0004445846019281711, ,0.0034461732340158886,-0.0009710914276647155,-0.004729650760323614,-0.01847998956175194,-0.025792705122617245,0.010233061606679021, ,0.005932008499181467, ,0.03172969664806197, ,4.51189740661385e-05, ,0.1369008856613779,-0.2478147752009903,0.09219862625000001,1.605176517374034,0.11532120580203174,-1.325098682118334, ,0.03465921897679722,0.025564908825019064,0.004736488706512043,-0.011053074333140843,0.011991430276608336,-0.00830224153259898, ,0.8021559715270996
0.010325865404675174,0.02103070698204667,-0.08242578706324014, ,0.010652048791253003,0.02085903540066051,-0.08271003800253694, ,0.00046547323234115575, ,0.0034753667688516353,-0.0011618140453143566,-0.004929586442525295,0.0001933482106312377,-0.0032511780121349345,0.01669683714391397, ,0.0061423780857463636, ,0.0032569217193656056, ,4.5439403217911916e-05, ,0.13726385410646644,-0.24755220228326666,0.09224529269000001,1.605176517374034,0.11573111530132807,-1.325432935829423, ,0.03749385284807221,0.028361309491473634,0.004911751933395005,-0.011053074333140843,0.03828308677336711,-0.02973803327371245, ,0.813338041305542
0.010362658849928786,0.021019667171951993,-0.08248031461834278, ,0.010696419629478728,0.020847187168827445,-0.0827771977532489, ,0.00047883734736893534, ,0.003392308977801475,-0.0009329410966861856,-0.005404664542576789,0.0058060022294052945,0.0031435214234394795,0.018244413219340096, ,0.006448917592010715, ,0.006602377164019507, ,4.5778562553024896e-05, ,0.13764226801730345,-0.24725873843404614,0.09229973687000001,1.605176517374034,0.11600438830085893,-1.325655771636816, ,0.03624787683669625,0.02707473368287326,0.005421651300204222,-0.011053074333140843,0.0436107822396592,-0.034079150391411975, ,0.8246359825134277
0.01043792510476171,0.021001451751103586,-0.08258690496242825, ,0.01074080395614662,0.0208353150192716,-0.08284428602322418, ,0.0004307923197278381, ,0.00393179037081931,-0.0009325128237991856,-0.005346050906175196,-0.014587434840419385,-0.024820922729751574,0.011701867840840229, ,0.006701404030353192, ,0.028790127752633506, ,4.600796459430694e-05, ,0.13840681857185166,-0.24672586986572465,0.09240732894,1.6049668274305493,0.11641429780015526,-1.325990025347905, ,0.036625604615388184,0.02606342805780576,0.005438310522362582,0.011921680519711687,0.015633268877258744,-0.011259315711857367, ,0.8391351699829102
0.010473732472587049,0.020991925013921876,-0.08264232990156285, ,0.010785201361642524,0.020823419362699214,-0.08291130291751675, ,0.00044469484666989417, ,0.003451444087665652,-0.0010957869052495971,-0.005183994110090266,0.012425782487515403,0.009053360664442088,-0.002201699674813277, ,0.0063235283003596375, ,0.015374114803904217, ,4.6259274214203955e-05, ,0.13878523248268868,-0.24644785148225257,0.09246306941000002,1.6049668274305493,0.11682420729945157,-1.3262426003188539, ,0.03734629734689916,0.028489024784890654,0.005183472671656362,0.010529171562318857,0.045403910795290665,-0.039229685044767204, ,0.8509550094604492
0.010509026163395021,0.02098141327938978,-0.08269414494410757, ,0.010829611437451724,0.020811500608851917,-0.08297824854094112, ,0.00046082544123027643, ,0.0034891188189133523,-0.0008534506371606723,-0.005640767498087986,0.008904069617788864,0.004103306722851107,-0.0025495444891480354, ,0.006687345219894892, ,0.009804059164932866, ,4.653606314699355e-05, ,0.13914820092777722,-0.24616983309878046,0.09251492101000001,1.6049668274305493,0.11709748029898247,-1.3264654361262467, ,0.0363450561311646,0.02699002888466177,0.005682772572244025,0.009489452899766508,0.0395015467444394,-0.03436008298673386, ,0.8622210025787354
0.010545515336137446,0.020975446611160554,-0.08275406971878962, ,0.010874033776157999,0.02079955916650758,-0.08304512299807282, ,0.0004728348231693505, ,0.003905977891297608,-0.0006103980280107806,-0.006405673567943667,-0.006604818830390787,-0.01646971961178244,-0.006174315552803539, ,0.007527410105670961, ,0.01774472555684984, ,4.692252710764702e-05, ,0.13951116937286576,-0.24591498291393107,0.09257584664000001,1.6053862073175185,0.11737075329851333,-1.3266882719336395, ,0.03786789367855977,0.026433688456398544,0.0065121878659035164,0.008085332399630088,0.020136085962374154,-0.018476146566881, ,0.8767411708831787
0.010556300888634731,0.02097375011578415,-0.08277064009432185, ,0.01091846797144231,0.020787595443481396,-0.08311192639324841, ,0.0005313143097305832, ,0.00409780604366436,-0.0006003346716113588,-0.00661207816334315,-0.008850991138948962,-0.0201848806546607,-0.0067942096219077855, ,0.00780205061042225, ,0.02204017782474345, ,4.7415188147261814e-05, ,0.1396115649002307,-0.24584547831806305,0.09259269841000001,1.6053862073175185,0.11737075329851333,-1.3266882719336395, ,0.039556874347007415,0.0269517016638656,0.0067352268583509515,0.008085332399630088,0.01803760677484668,-0.016742672484153124, ,0.8869550228118896
0.010626635505018288,0.020962679473771947,-0.08288920585121451, ,0.010962913618082206,0.02077560984662626,-0.08317865883056608, ,0.00048151951360433465, ,0.00382825499705505,-0.0007092718548139564,-0.0062500204443530424,0.0025554939412243236,-0.004920900808392219,-0.006048210326146104, ,0.0073635153589395866, ,0.0055448899459565725, ,4.7799259072643425e-05, ,0.14030661085891089,-0.2453589461469869,0.09271325338000001,1.6055958972610032,0.1179172992975751,-1.3271339435484253, ,0.038342198609483145,0.02708246049043116,0.0063436127120669065,0.01099589629125974,0.031860954965524664,-0.027868742231828857, ,0.8973860740661621
0.010664907606993445,0.020953831500742485,-0.08294688324997204, ,0.01100737031195062,0.020763602781833916,-0.08324532041388562, ,0.0004924757969575353, ,0.0037706616379075764,-0.000985456658276139,-0.005324167481136782,-0.006507787440210759,-0.017730135037837144,0.017714519841822415, ,0.006598164394748209, ,0.018886740892719692, ,4.8195560117964565e-05, ,0.14069274750262212,-0.2450809277635148,0.09277158643000001,1.6058055872044876,0.11819057229710599,-1.327356779355818, ,0.0384665348838552,0.027198894112488037,0.005374092955465587,-0.015524791165898786,0.02539227662522764,-0.022521597914138682, ,0.9074380397796631
0.010739970397971487,0.0209324309330105,-0.08305508695097802, ,0.011051837650014959,0.02075157465403542,-0.0833119112468288, ,0.0004426385607706421, ,0.003666871604242895,-0.0008869471111898034,-0.005795439188399259,0.010467967921335638,0.0025886498685564934,0.023141633461986368, ,0.006915181698732482, ,0.01078329513675145, ,4.8487874784750956e-05, ,0.1414727435229188,-0.2445094455308222,0.09288047479000001,1.6058055872044876,0.11887375479593319,-1.3279138688743002, ,0.038623093837391445,0.02737148588360853,0.005862646860507914,-0.015524791165898786,0.046582167751775906,-0.039671566897987565, ,0.9211850166320801
0.010775272345695126,0.0209246220041231,-0.08310474824047914, ,0.011096315230336062,0.02073952586720236,-0.08337843143277983, ,0.00046068601392862933, ,0.0034291674892205077,-0.0009051011357140461,-0.004627702081391622,0.009318169916564615,-0.0009353172941182928,0.022019339250028795, ,0.005830439459347304, ,0.00936499369525938, ,4.880757114109771e-05, ,0.14183571196800734,-0.24427004081172124,0.0929310301,1.6058055872044876,0.11914702779546407,-1.328136704681693, ,0.037170756583811505,0.02420222942067605,0.004701538229043684,-0.015312747624404778,0.041367462125302394,-0.035363838807546136, ,0.9314861297607422
0.010815667122712615,0.02091236364377917,-0.08315364136932797, ,0.011140802652067221,0.0207274568243472,-0.0834448810748849, ,0.00047405085213934005, ,0.004080530289780449,-0.0011888663839772853,-0.005312637212200383,-0.01616622021657381,-0.02430703547922204,-0.011439385205109249, ,0.006803546492324662, ,0.029192099027765525, ,4.914501141166149e-05, ,0.14224501681034124,-0.24398429969537494,0.09298028912,1.6055958972610032,0.11928366429522952,-1.32832980132553, ,0.040710828639412604,0.029738934991686238,0.0053488285829415725,0.011333475552580723,0.014149227337736745,-0.011712216406993199, ,0.9412100315093994
0.010854809206553939,0.020902139878227362,-0.0832153606212388, ,0.011185299515453278,0.020715367927524497,-0.08351126027605371, ,0.0004813150855368229, ,0.003918095409779611,-0.0008145088206024829,-0.006260365083387367,-0.003650548564832787,-0.00940802992726035,-0.006337884298324256, ,0.0074301458421938815, ,0.010091457888746496, ,4.948837240073489e-05, ,0.14264659891980092,-0.24368311311328017,0.09304251104000001,1.6055958972610032,0.11969357379452583,-1.328664055036619, ,0.03859168017831264,0.028092641077107988,0.006346140047808766,0.009904791368563134,0.027736993720619493,-0.022789838181407552, ,0.9514551162719727
0.010874525561839802,0.02089859678954506,-0.08325098013974308, ,0.011229805421829553,0.020703259577831246,-0.08357756913895818, ,0.0005206157696447415, ,0.0038266771524717064,-0.0007808555651380306,-0.00644778033515933,0.02193875548823968,0.019099376698562178,0.002398800986316386, ,0.007538372814694386, ,0.029087715130310395, ,4.989581417712894e-05, ,0.1428628354402792,-0.2435363811886699,0.09307880716000001,1.6055958972610032,0.12010348329382216,-1.3289983087477086, ,0.04057158681422436,0.0282768002260044,0.006555066469135804,0.00928801170205251,0.05944569355423255,-0.048644963429157875, ,0.96346116065979
0.010932414649454589,0.020888750268018286,-0.08334648585886228, ,0.011274319973620911,0.020691132175408206,-0.08364380776603433, ,0.0004943202177784642, ,0.004153689294694246,-0.0006172684016017325,-0.006877724797932641,-0.016754114250336852,-0.025395420432194716,-0.01062831773885511, ,0.008058365431808807, ,0.03042413035489745, ,5.024706702886892e-05, ,0.1434265949400976,-0.24313479907921023,0.09317602891000001,1.6060152771479719,0.12051339279311848,-1.3293325624587977, ,0.03838873040391213,0.027538288322249208,0.007004754406332454,0.00991689638994625,0.010980884854215703,-0.009122131537365063, ,0.9734499454498291
0.010976569921378264,0.020880494548529232,-0.08341535327812799, ,0.011318842774340641,0.020678986119440343,-0.08370997625948115, ,0.0004945291235208512, ,0.004464716304923749,-0.0009926741859894812,-0.00658550691082287,-0.025358192215206965,-0.03446303765338565,-0.017364835339786167, ,0.0080179794833535, ,0.042787134331895064, ,5.059117883162763e-05, ,0.14384362251530572,-0.2428336124971155,0.09324602857000001,1.6062249670914566,0.12065002929288392,-1.3294439803624942, ,0.041712941344382755,0.031042506234370555,0.006667564470489746,0.014493458061994077,0.003898982151029726,-0.0033452327923829193, ,0.9833970069885254
0.011018581521883375,0.020871587287417608,-0.08348167063062124, ,0.011363373428589693,0.02066682180815769,-0.08377607472126139, ,0.000497477767354858, ,0.0041671669008590435,-0.0007938698875723439,-0.006342190525736699,0.0015883027072750979,-0.009731887505127042,0.02713729966751846, ,0.007630130407978205, ,0.00986064549820275, ,5.0933208274952306e-05, ,0.14426837282338806,-0.24253242591502072,0.09331343565000001,1.606434657034941,0.12105993879218024,-1.3298599128137238, ,0.042364706052888744,0.027658683054057352,0.006480395248169244,-0.021873390147608834,0.03922895164592244,-0.03198857965551068, ,0.9933321475982666
0.011039526488963964,0.02086765298244758,-0.08351583592966903, ,0.011407911542055563,0.020654639638836163,-0.08384210325310261, ,0.0005362206618905369, ,0.003940243369022481,-0.0007190123081101308,-0.006432256889727057,0.025229212744159932,0.017089981173052795,0.034388448121635606, ,0.0075773626811563325, ,0.030472620845188734, ,5.133568892458725e-05, ,0.1445000548096148,-0.24238569399041046,0.09334843548,1.606434657034941,0.12146984829147656,-1.3302758452649537, ,0.042497510774057674,0.027059293287274244,0.006584874543199669,-0.021873390147608834,0.06713034872766059,-0.055025739704401895, ,1.0056650638580322
0.01110595448572143,0.02085167383336328,-0.08360502868400864, ,0.011452456721511295,0.020642440007798413,-0.08390806195649583, ,0.0005056399483844032, ,0.004037010377479919,-0.0012048818454737278,-0.00489585638894684,-0.011109984999255876,-0.023646090945541393,0.022662490971523844, ,0.006458993948799172, ,0.026126028800330065, ,5.167701157542815e-05, ,0.1451564871039239,-0.24193777548370543,0.09343917578000001,1.606434657034941,0.12174312129100744,-1.3304986810723465, ,0.04153039017876183,0.028125945927229036,0.004962246579439253,-0.02144122477806373,0.023833579882323472,-0.01972012788137322, ,1.0154740810394287
0.011146549231577929,0.020839060328904018,-0.08365246761804135, ,0.011497008574814511,0.020630223310414617,-0.08397395093269708, ,0.0005194094465403895, ,0.004329370326050368,-0.0015661835756100796,-0.004746492617089247,-0.033752261043029794,-0.04700177367583007,0.01300983413670109, ,0.006612531328975234, ,0.05786520415397865, ,5.2034870339680835e-05, ,0.1455657919462578,-0.24165203436735913,0.09348713851000001,1.606434657034941,0.12187975779077288,-1.330610098976043, ,0.042612007884360474,0.0317912702038428,0.004747782867362146,-0.018337130099479695,0.0,-0.00028544159602286013, ,1.0253920555114746
0.01118715943006053,0.02082596580060065,-0.08371170139336903, ,0.011541566710906444,0.02061798994110321,-0.08403977028272731, ,0.00052582095338154, ,0.0041139890440232045,-0.0010307205610875015,-0.006484125535834043,0.017303902177360175,0.01023007470224639,0.026247439688151738, ,0.007747978748928433, ,0.02010172747589818, ,5.248511881710988e-05, ,0.14599826498721435,-0.2413276795866417,0.09354676785,1.606434657034941,0.12242630378983464,-1.3311374493309693, ,0.043391377027192854,0.03066137045507941,0.006582153520661158,-0.01604773035916774,0.05947408127213467,-0.04988543502179441, ,1.0338640213012695
0.01127612482749448,0.020805702406347028,-0.08384672405107829, ,0.011586130739810982,0.020605740293331724,-0.08410552010737253, ,0.000450626132249543, ,0.004349509937707534,-0.0010085644218829901,-0.006249729195889345,-0.011269485367403744,-0.020292859879685664,-0.004422632746967757, ,0.007680791229636205, ,0.02321209712645555, ,5.2801422242595575e-05, ,0.1468941020006244,-0.24070213822382952,0.09368417459000002,1.6062249670914566,0.12324612278842728,-1.3320509929735695, ,0.0423269141652412,0.02992650317201854,0.006358806994011978,0.005746118716698637,0.02137829156185029,-0.017517580688998828, ,1.0525331497192383
0.011320161250538967,0.020797226717368895,-0.08390754139977226, ,0.011630700272633536,0.020593474759617588,-0.084171200507184, ,0.0004554837751798635, ,0.004483470728423132,-0.0011723859025218708,-0.005890734277820419,-0.018607184341587413,-0.02948479017292073,-0.004653999740022414, ,0.007495114996379144, ,0.03486517106755247, ,5.312055001587372e-05, ,0.14730340684295828,-0.24042411984035744,0.09374639651000001,1.606434657034941,0.12324612278842728,-1.3320509929735695, ,0.043630777728032547,0.030740829788944213,0.005986024622322435,0.003803326297208937,0.013699943743849644,-0.011256402898274953, ,1.0608060359954834
0.011320161250538967,0.020797226717368895,-0.08390754139977226, ,0.011675274921560324,0.020581193731528995,-0.08423681158247896, ,0.0005302780624699397, ,0.004483470728423132,-0.0011723859025218708,-0.005890734277820419,-0.018607184341587413,-0.02948479017292073,-0.004653999740022414, ,0.007495114996379144, ,0.03486517106755247, ,5.355802987106475e-05, ,0.14730340684295828,-0.24042411984035744,0.09374639651000001,1.606434657034941,0.12324612278842728,-1.3320509929735695, ,0.043630777728032547,0.030740829788944213,0.005986024622322435,0.003803326297208937,0.013699943743849644,-0.011256402898274953, ,1.0689480304718018
0.01136569644554383,0.02078225486876964,-0.08396421251713812, ,0.011719854299857078,0.020568897599685495,-0.08430235343334025, ,0.0005341239455901811, ,0.004575669445395698,-0.0015453700894846778,-0.005350281454454464,-0.03101186788893264,-0.041754300064485855,-0.014475821731483885, ,0.007207664755583533, ,0.05201112880385896, ,5.399464265177763e-05, ,0.1480602346646323,-0.23986036034053904,0.09384361826000001,1.6066443469784255,0.12379266878748904,-1.3326600220686364, ,0.044489892901299004,0.031042506234370555,0.005752550205850488,0.009367745623905754,0.020525468976553277,-0.019092412501713868, ,1.0808839797973633
0.011394348639584466,0.020772846346151362,-0.08400397910455759, ,0.011764438021868301,0.0205565867537591,-0.08436782615961702, ,0.0005622446457337931, ,0.004470057484735524,-0.0012535142963669256,-0.005658650375890773,-0.010263176628639067,-0.022438924254423984,-0.008282344070203153, ,0.007319360360346055, ,0.024674645091765743, ,5.4469880753362843e-05, ,0.1480602346646323,-0.23986036034053904,0.09384361826000001,1.6066443469784255,0.12379266878748904,-1.3326600220686364, ,0.044489892901299004,0.031042506234370555,0.005752550205850488,0.009367745623905754,0.020525468976553277,-0.019092412501713868, ,1.0897600650787354
0.011450246428836243,0.020757516724430797,-0.08408684629114677, ,0.011809025703016165,0.020544261582474837,-0.08443322986092482, ,0.0005423853801163092, ,0.004186004247410133,-0.0009075684931107118,-0.0066168829902127,0.021075225185782236,0.012124070656048789,0.0018539049267991422, ,0.007882223838181017, ,0.024313744944371912, ,5.490542265070074e-05, ,0.1486548850959476,-0.23944333276533092,0.09392787711000002,1.6066443469784255,0.1246124877860817,-1.3334102082309554, ,0.043095795439814163,0.029720307409480354,0.006758087195587612,0.008223254024245648,0.05512669830491548,-0.049275387749205424, ,1.098081111907959
0.011499418840546389,0.02074784814207482,-0.08415779511518331, ,0.011853616959799522,0.0205319224736116,-0.08449856463664579, ,0.0005368464107559164, ,0.004823165703673454,-0.001028732057426071,-0.0070987242839589525,-0.021645754136234072,-0.02468216655837602,-0.0070323908804300695, ,0.008643674190454916, ,0.032829072483328246, ,5.5325133526704596e-05, ,0.14911824906840107,-0.2391267007174877,0.09400046935,1.6066443469784255,0.12474912428584713,-1.3336033048747922, ,0.04586609065175001,0.03242123046070064,0.00724366144611187,0.00748864047484653,0.020040349379657943,-0.009331105387601717, ,1.106593132019043
0.01154632726837443,0.02073778930982796,-0.08423032525947678, ,0.011898211409792905,0.020519569814003148,-0.08456383058592924, ,0.0005316653083585714, ,0.004902605452987783,-0.0010174320265641022,-0.007536159913260796,-0.024169026940277193,-0.03136141506753958,-0.008460360471815361, ,0.009047895578231595, ,0.03959394137958825, ,5.572995835325229e-05, ,0.14956616757510607,-0.2388023459367703,0.09407435788000001,1.6066443469784255,0.125022397285378,-1.3337444619420444, ,0.045146023576817684,0.03341441604171506,0.007672837919075146,0.006908384656840692,0.012554394600182935,-0.007871022223438374, ,1.1145269870758057
0.011579798071490394,0.02073081510679638,-0.08428761329379464, ,0.011942808671645634,0.02050720398953848,-0.08462902780769187, ,0.0005462073762647981, ,0.004430916000026071,-0.0009506970862327436,-0.007931473705488582,0.022046359321145646,0.020913874045032244,0.012291410250839808, ,0.009134829866500813, ,0.03038802487000627, ,5.6151308880021636e-05, ,0.14989824508869773,-0.2385552184847951,0.09413269093000001,1.6068540369219102,0.12543230678467432,-1.3341603943932743, ,0.04478383273169929,0.033615636400450156,0.008065221022784811,0.0,0.06795204144464086,-0.055270553200495745, ,1.1282460689544678
0.011646805259878695,0.02072066360278968,-0.0844106309964545, ,0.011987408365080712,0.02049482538516314,-0.08469415640061732, ,0.00049739323539799, ,0.004715164598376138,-0.00046782674009016945,-0.008639012302318557,0.0004493442348098916,-0.005423808714335987,-0.007958114661488042, ,0.009853130091911624, ,0.0054423857904080265, ,5.6489803709705824e-05, ,0.1505469546501326,-0.2380841317794674,0.09425843106000001,1.6070637268653947,0.12625212578326697,-1.3349105805555936, ,0.04331215954288945,0.03023158380327199,0.008869048730512249,0.013068712745492865,0.03599403311042961,-0.028421887213305987, ,1.1370861530303955
0.011700326336912988,0.020712165303482202,-0.08449553848241044, ,0.012032010110894126,0.020482434384879518,-0.0847592164631574, ,0.00048199221821020976, ,0.0049754058548187275,-0.0011880807604941863,-0.007443553810080981,-0.018972075732919112,-0.025839594529388256,-0.013234698115340948, ,0.009031760218096582, ,0.032056579359126834, ,5.679917301150688e-05, ,0.15098715042396338,-0.2377674997316242,0.09434009733000001,1.6070637268653947,0.12625212578326697,-1.3349105805555936, ,0.04626862094513446,0.034570834811829064,0.007713710179176756,0.013068712745492865,0.01876173416944444,-0.014221232995764797, ,1.1451520919799805
0.011745551601844572,0.02069975621061219,-0.08455934166852612, ,0.012076613530953276,0.020470031371748285,-0.0848242080935319, ,0.00048221336106703646, ,0.004873731277600359,-0.0012992796612926452,-0.0064920284415900175,-0.01509005794360444,-0.0325147966193781,-0.013992704436494752, ,0.008221181027743062, ,0.03584580639920002, ,5.710412300536766e-05, ,0.15145823712929107,-0.2374199767522841,0.09441009699000001,1.6070637268653947,0.12652539878279787,-1.335051737622846, ,0.046133661428522495,0.03359183771981267,0.006606723981750311,0.012377681816410635,0.011112589056213032,-0.016301266517946705, ,1.1535749435424805
0.011745551601844572,0.02069975621061219,-0.08455934166852612, ,0.012121218248196631,0.02045761672788846,-0.08488913138972873, ,0.0005554441632477682, ,0.004873731277600359,-0.0012992796612926452,-0.0064920284415900175,-0.01509005794360444,-0.0325147966193781,-0.013992704436494752, ,0.008221181027743062, ,0.03584580639920002, ,5.7516220025552285e-05, ,0.15145823712929107,-0.2374199767522841,0.09441009699000001,1.6070637268653947,0.12652539878279787,-1.335051737622846, ,0.046133661428522495,0.03359183771981267,0.006606723981750311,0.012377681816410635,0.011112589056213032,-0.016301266517946705, ,1.163689136505127
0.011787816858847907,0.020687069869724534,-0.08461911954958376, ,0.012165823886632362,0.020445190834478617,-0.08495398644950408, ,0.0005599380514022783, ,0.004079385183712089,-0.0016639162810293436,-0.005335026107179191,0.05414732052562866,0.04947650462353468,0.009120768969480875, ,0.006918995912099371, ,0.07334750728924491, ,5.7928882072937923e-05, ,0.15191387836887033,-0.2371033447044409,0.09447102262000001,1.6070637268653947,0.12720858128162504,-1.335608827141328, ,0.047903554547436035,0.03385549110184473,0.0060565823269962,0.011369816789028764,0.09827695656019289,-0.08682879306624572, ,1.1725780963897705
0.011841796526631301,0.02066589840193285,-0.08468454284921623, ,0.012210430071337467,0.020432754071757857,-0.08501877337038398, ,0.0005495061512444117, ,0.004327569896395454,-0.0016189272709898287,-0.00504363465118283,0.00843820963805599,-0.0037400901497443733,0.0024713442250126755, ,0.006840105058517367, ,0.009229932446136145, ,5.840748240871e-05, ,0.15250852880018562,-0.23667087166348433,0.09453713341000002,1.6072734168088794,0.1280284002802177,-1.3362773345635066, ,0.04553596044072494,0.03299615492297315,0.005102117719410635,0.0034976487029925217,0.04239686418789516,-0.04052408259883143, ,1.1791210174560547
0.011889040462982902,0.020650812283385125,-0.08474339348677705, ,0.012255036428456838,0.020420306819026086,-0.0850834922496623, ,0.000550229937715728, ,0.004327569896395454,-0.0016189272709898287,-0.00504363465118283,0.00843820963805599,-0.0037400901497443733,0.0024713442250126755, ,0.006840105058517367, ,0.009229932446136145, ,5.8881434516615526e-05, ,0.15296417003976487,-0.23633107141701845,0.09459676275000001,1.6072734168088794,0.12816503677998314,-1.3363887524672031, ,0.04821999062930426,0.036331141484866304,0.007001675393406594,0.0034699315643634747,0.011177430686341295,-0.01460683366105606, ,1.1856060028076172
0.011889040462982902,0.020650812283385125,-0.08474339348677705, ,0.01229964258520204,0.02040784945464538,-0.0851481431844029, ,0.0006256575394321574, ,0.005136157164856327,-0.001464857379051013,-0.006896843449331111,-0.020784766944007816,-0.036624560029007686,-0.005933140145524089, ,0.00872309389652815, ,0.04211133954922992, ,5.946198779245734e-05, ,0.15296417003976487,-0.23633107141701845,0.09459676275000001,1.6072734168088794,0.12816503677998314,-1.3363887524672031, ,0.04821999062930426,0.036331141484866304,0.007001675393406594,0.0034699315643634747,0.011177430686341295,-0.01460683366105606, ,1.1922259330749512
0.011938144869587249,0.020639826686014474,-0.08482070677414118, ,0.01234424816985068,0.02039538235604037,-0.08521272627143894, ,0.0006151034117958806, ,0.0051928355234834985,-0.0008724606833206148,-0.0084109536483682,0.00782479621961881,-0.006391162021279357,0.002264065350363118, ,0.009923248948448827, ,0.010103184931803573, ,6.002005800048404e-05, ,0.153450702210841,-0.23598354843767835,0.09467583644000001,1.6074831067523636,0.1287115827790449,-1.3368344240819887, ,0.049502838580318606,0.03385549110184473,0.008642871144872492,0.0038435808322948963,0.043670004222683266,-0.040696429522293014, ,1.1987619400024414
0.011983726346790005,0.02063270959777965,-0.08490009033678211, ,0.012388852811745246,0.020382905899699176,-0.08527724160737374, ,0.000607266351027857, ,0.005102317119398566,-0.0008026966759243656,-0.009499604369823103,0.045945130777220226,0.04046399199563339,0.004305772771717074, ,0.010812975775595259, ,0.06122327672541359, ,6.056003758728686e-05, ,0.15390634345042026,-0.23567463912270936,0.09475750271000001,1.607692796695848,0.1293947652778721,-1.3373915136004708, ,0.05146254965209912,0.03615121583179839,0.009748354663402695,0.013912402522006252,0.09170648343017064,-0.0795491172116009, ,1.2099499702453613
0.012026995150476807,0.020625193220805926,-0.08498510693313141, ,0.01243345614129194,0.0203704204611743,-0.08534168928858046, ,0.0005977212329525606, ,0.005223095202618164,-0.0008527492426765205,-0.010160874237969094,0.04182150569487278,0.038647554909463984,0.003376091277607966, ,0.0114564946666213, ,0.056944461809377005, ,6.107974677237957e-05, ,0.15433881649137682,-0.23535028434199193,0.09484435414,1.607692796695848,0.13021458427646476,-1.3380600210226494, ,0.05135115885198635,0.03840426611026741,0.010390614168297457,0.013912402522006252,0.08969741337289996,-0.07764860510091237, ,1.2169139385223389
0.012026995150476807,0.020625193220805926,-0.08498510693313141, ,0.012478057789960112,0.020357926415083244,-0.08540606941120275, ,0.0006723826723844228, ,0.005223095202618164,-0.0008527492426765205,-0.010160874237969094,0.04182150569487278,0.038647554909463984,0.003376091277607966, ,0.0114564946666213, ,0.056944461809377005, ,6.170193236147101e-05, ,0.15433881649137682,-0.23535028434199193,0.09484435414,1.607692796695848,0.13021458427646476,-1.3380600210226494, ,0.05135115885198635,0.03840426611026741,0.010390614168297457,0.013912402522006252,0.08969741337289996,-0.07764860510091237, ,1.2233171463012695
0.012104981072649889,0.020613306210593454,-0.08511006194283163, ,0.01252265739028081,0.02034542413510964,-0.08547038207115486, ,0.0006132250056464655, ,0.0058373237968720616,-0.0009980626096350305,-0.009037641151806658,-0.00901769953224389,-0.0232630430754756,-0.010419854015931049, ,0.010805065278428887, ,0.024949709771680206, ,6.223143709586491e-05, ,0.15502613971718282,-0.2348637521709158,0.09497268685000002,1.607692796695848,0.13035122077623018,-1.3382531176664862, ,0.053857515072911914,0.036968033330140544,0.009298780805604204,0.012446747869130867,0.028639610416802925,-0.025627798424195346, ,1.230592966079712
0.012162847914644824,0.020603257953622188,-0.08519564713187545, ,0.012567254575846181,0.02033291399400349,-0.08553462736412192, ,0.0005929065710381435, ,0.006267132336116315,-0.0012238595443926899,-0.008991703693047776,-0.03495123547896224,-0.05310273797567638,-0.017066952038568034, ,0.011028395858254492, ,0.06357271099490622, ,6.272566241577107e-05, ,0.15555128555263006,-0.23450850645870147,0.09506083457000002,1.607692796695848,0.13048785727599563,-1.3383645355701828, ,0.055756134875717255,0.03931107769613537,0.00923409363478261,0.011468486934336884,0.0,-0.002157495275375076, ,1.237473964691162
0.012162847914644824,0.020603257953622188,-0.08519564713187545, ,0.012611848981308179,0.02032039636358262,-0.08559880538556011, ,0.0006664452074241402, ,0.006267132336116315,-0.0012238595443926899,-0.008991703693047776,-0.03495123547896224,-0.05310273797567638,-0.017066952038568034, ,0.011028395858254492, ,0.06357271099490622, ,6.331929464114401e-05, ,0.15555128555263006,-0.23450850645870147,0.09506083457000002,1.607692796695848,0.13048785727599563,-1.3383645355701828, ,0.055756134875717255,0.03931107769613537,0.00923409363478261,0.011468486934336884,0.0,-0.002157495275375076, ,1.2454590797424316
0.0122130977153753,0.020590395475870396,-0.08527308941705425, ,0.012656440242377871,0.020307871614732912,-0.08566291623069747, ,0.0006544748069989265, ,0.005898865149173235,-0.0015356927296231774,-0.008380350426410218,0.008718771826953157,-0.00043545499104431323,-0.0022145077098283798, ,0.010362684762038358, ,0.008729636984741584, ,6.388917763607917e-05, ,0.15604554045658045,-0.2341455380136129,0.09513990826,1.607692796695848,0.1310344032750574,-1.3388102071849683, ,0.058542221812751864,0.04113434831316461,0.008586960388140163,0.01069222870382529,0.057483681102298484,-0.04772384641765988, ,1.2559621334075928
0.012286532490900169,0.0205729025381004,-0.08538252141100675, ,0.012701027995824218,0.02029534011740947,-0.08572695999453307, ,0.0006062057066736301, ,0.005601030072384823,-0.0013106521126489588,-0.00872026082670184,0.04237075297406373,0.040193231854609664,0.01895735984933737, ,0.010446640403395772, ,0.05840185394388066, ,6.438444457976463e-05, ,0.1568178137440029,-0.2336358376439141,0.09525268549,1.6079024866393328,0.13226413177294635,-1.3398946470583768, ,0.059052234946154816,0.039359992351087,0.008979036933483654,0.0004990528099208946,0.10240624119537611,-0.08113650362445624, ,1.2632639408111572
0.012341386013955092,0.020559410437120323,-0.08546206220745944, ,0.01274561187947317,0.02028280224063741,-0.08579093677183819, ,0.0005899738331576066, ,0.006101095787148343,-0.0016491817101900303,-0.007810615349436507,-0.021598374170040846,-0.032385326792857244,-0.013383510922604328, ,0.010047332096334715, ,0.0389268432986866, ,6.485134915116709e-05, ,0.1573584050451986,-0.2332574237330771,0.09533435176,1.6081121765828172,0.1328106777720081,-1.3403403186731624, ,0.05804094284921761,0.04074578856095783,0.00801248064386318,0.013298677990242093,0.023318052166394702,-0.016604650962385753, ,1.2701120376586914
0.012404262435175482,0.020540021089365736,-0.0855382426117778, ,0.012790191532206792,0.020270258352512387,-0.08585484665715695, ,0.0005674075463724984, ,0.006370951993831995,-0.0019525358533084495,-0.007689802069003355,-0.04339965890395887,-0.055715466434950345,-0.01969994467261241, ,0.010175189503228679, ,0.07062395886775948, ,6.528151975140149e-05, ,0.1579530554765139,-0.23282495069212053,0.09541212916000001,1.6081121765828172,0.13294731427177356,-1.340451736576859, ,0.05879612240301783,0.04371116607944301,0.007842841713441656,0.013298677990242093,0.0,0.0022685983364062992, ,1.276792049407959
0.012404262435175482,0.020540021089365736,-0.0855382426117778, ,0.012834766593961999,0.02025770882020162,-0.0859186897448048, ,0.0006401359770248353, ,0.006370951993831995,-0.0019525358533084495,-0.007689802069003355,-0.04339965890395887,-0.055715466434950345,-0.01969994467261241, ,0.010175189503228679, ,0.07062395886775948, ,6.589944940059569e-05, ,0.1579530554765139,-0.23282495069212053,0.09541212916000001,1.6081121765828172,0.13294731427177356,-1.340451736576859, ,0.05879612240301783,0.04371116607944301,0.007842841713441656,0.013298677990242093,0.0,0.0022685983364062992, ,1.284933090209961
0.012478732878882796,0.02051526420977237,-0.085637740665242, ,0.012879336705729872,0.020245154009944654,-0.08598246612887064, ,0.0005935306153935719, ,0.005920724330369683,-0.0017581201837116606,-0.008061338113011256,0.006888907897797433,0.001985509114059551,-0.003976265854482766, ,0.010155350084999223, ,0.007169328031463846, ,6.644769353798043e-05, ,0.15857087410645185,-0.2323461412539186,0.09549768430000001,1.6081121765828172,0.13335722377106987,-1.340785990287948, ,0.05821898255120907,0.04357068023804903,0.008240461210553544,0.01292800754815315,0.030888154645925533,-0.023056500743312825, ,1.291006088256836
0.012478732878882796,0.02051526420977237,-0.085637740665242, ,0.012923901509554596,0.020232594287054075,-0.08604617590321624, ,0.0006670058009963967, ,0.005920724330369683,-0.0017581201837116606,-0.008061338113011256,0.006888907897797433,0.001985509114059551,-0.003976265854482766, ,0.010155350084999223, ,0.007169328031463846, ,6.709274556609417e-05, ,0.15857087410645185,-0.2323461412539186,0.09549768430000001,1.6081121765828172,0.13335722377106987,-1.340785990287948, ,0.05821898255120907,0.04357068023804903,0.008240461210553544,0.01292800754815315,0.030888154645925533,-0.023056500743312825, ,1.2960851192474365
0.012527076147262112,0.020503015132770856,-0.08570434475995783, ,0.012968460648532246,0.020220030015916456,-0.08610981916147654, ,0.0006628049068991116, ,0.006006537198042329,-0.001599831494946833,-0.00863894602038148,0.03112031642395499,0.027479128127207247,0.00425166144364434, ,0.010642806879144007, ,0.04151597919886959, ,6.7726710772414e-05, ,0.15916552453776714,-0.2319445591444589,0.09558194315000001,1.6081121765828172,0.13404040626989708,-1.34134307980643, ,0.06198363263126765,0.04228918964281229,0.008893808777219432,0.011787411069675709,0.08958679268299516,-0.07103391633484502, ,1.3011469841003418
0.012527076147262112,0.020503015132770856,-0.08570434475995783, ,0.013013013766810114,0.020207461559993117,-0.0861733959970603, ,0.0007372220476227049, ,0.006006537198042329,-0.001599831494946833,-0.00863894602038148,0.03112031642395499,0.027479128127207247,0.00425166144364434, ,0.010642806879144007, ,0.04151597919886959, ,6.84572742680439e-05, ,0.15916552453776714,-0.2319445591444589,0.09558194315000001,1.6081121765828172,0.13404040626989708,-1.34134307980643, ,0.06198363263126765,0.04228918964281229,0.008893808777219432,0.011787411069675709,0.08958679268299516,-0.07103391633484502, ,1.3060331344604492
0.012593096934029123,0.020485028944236802,-0.08580303775665585, ,0.013057560509585626,0.02019488928182072,-0.08623690650314925, ,0.0006986769825244016, ,0.0068232007432773335,-0.0017363552706594367,-0.010325660306147571,0.0018491313624440136,-0.004154167162406593,0.0037386422345927583, ,0.012497610122217716, ,0.004547117133979046, ,6.912935214232221e-05, ,0.15982195683207623,-0.231465749706257,0.09568305377000001,1.608321866526302,0.13486022526848973,-1.3420115872286087, ,0.06517647085059805,0.048097790957157015,0.010576900079681276,0.004149678604663281,0.062027013618488495,-0.04866711190989341, ,1.3108539581298828
0.012593096934029123,0.020485028944236802,-0.08580303775665585, ,0.013102100523105136,0.020182313543012458,-0.08630035077270004, ,0.0007733314320248789, ,0.0068232007432773335,-0.0017363552706594367,-0.010325660306147571,0.0018491313624440136,-0.004154167162406593,0.0037386422345927583, ,0.012497610122217716, ,0.004547117133979046, ,6.989725360174949e-05, ,0.15982195683207623,-0.231465749706257,0.09568305377000001,1.608321866526302,0.13486022526848973,-1.3420115872286087, ,0.06517647085059805,0.048097790957157015,0.010576900079681276,0.004149678604663281,0.062027013618488495,-0.04866711190989341, ,1.315721035003662
0.012663176024930617,0.020469907454129695,-0.08591401084377102, ,0.013146633454663367,0.020169734704258476,-0.08636372889844318, ,0.0007253144799513907, ,0.007343613823184656,-0.001381008704936349,-0.011802955272205836,0.008675377114414823,0.00028499128838043835,0.0011795619114431386, ,0.013969452465464431, ,0.008680043723931647, ,7.059404106005509e-05, ,0.16048611185925954,-0.23098694026805508,0.09579712729,1.6085315564697864,0.1355434077673169,-1.3425686767470908, ,0.06896580055121422,0.048146596427433165,0.012168687181054242,0.00866289521963585,0.06945931905842914,-0.05481998905312036, ,1.32059907913208
0.012663176024930617,0.020469907454129695,-0.08591401084377102, ,0.013191158952601999,0.020157153125326826,-0.08642704097288395, ,0.0007998632104772684, ,0.007343613823184656,-0.001381008704936349,-0.011802955272205836,0.008675377114414823,0.00028499128838043835,0.0011795619114431386, ,0.013969452465464431, ,0.008680043723931647, ,7.138553646691525e-05, ,0.16048611185925954,-0.23098694026805508,0.09579712729,1.6085315564697864,0.1355434077673169,-1.3425686767470908, ,0.06896580055121422,0.048146596427433165,0.012168687181054242,0.00866289521963585,0.06945931905842914,-0.05481998905312036, ,1.3277170658111572
0.012663176024930617,0.020469907454129695,-0.08591401084377102, ,0.01323567666630901,0.0201445691650644,-0.08649028708830218, ,0.0008750407400353092, ,0.007343613823184656,-0.001381008704936349,-0.011802955272205836,0.008675377114414823,0.00028499128838043835,0.0011795619114431386, ,0.013969452465464431, ,0.008680043723931647, ,7.22714401272833e-05, ,0.16048611185925954,-0.23098694026805508,0.09579712729,1.6085315564697864,0.1355434077673169,-1.3425686767470908, ,0.06896580055121422,0.048146596427433165,0.012168687181054242,0.00866289521963585,0.06945931905842914,-0.05481998905312036, ,1.3340730667114258
0.012807705096500024,0.02044857394733384,-0.0861639783815199, ,0.01328018624621732,0.02013198318139754,-0.08655346733675298, ,0.0006893256096815707, ,0.0072803345024334346,-0.0008023574765876786,-0.013274379130333847,0.021259443507442112,0.015006731086660029,-0.004313513934805284, ,0.015161008847810941, ,0.026022403885661155, ,7.290229632127492e-05, ,0.16180669918075194,-0.23006021232314813,0.09605508900000001,1.6087412464132707,0.13690977276497132,-1.343682855784055, ,0.06617638881343847,0.0454487268000339,0.01373173406896552,0.01734696620558531,0.07973034656998795,-0.06334882705585011, ,1.3393909931182861
0.012807705096500024,0.02044857394733384,-0.0861639783815199, ,0.013324687343804424,0.020119395531332813,-0.0866165818100665, ,0.0007618916833257784, ,0.0072803345024334346,-0.0008023574765876786,-0.013274379130333847,0.021259443507442112,0.015006731086660029,-0.004313513934805284, ,0.015161008847810941, ,0.026022403885661155, ,7.362461652654348e-05, ,0.16180669918075194,-0.23006021232314813,0.09605508900000001,1.6087412464132707,0.13690977276497132,-1.343682855784055, ,0.06617638881343847,0.0454487268000339,0.01373173406896552,0.01734696620558531,0.07973034656998795,-0.06334882705585011, ,1.344146966934204
0.012882368012714642,0.020437446168528446,-0.08628811470584509, ,0.01336917961159061,0.02010680657095808,-0.08667963059984918, ,0.0007068187685252068, ,0.007785121873685031,-0.0017542030231695145,-0.01180074707414168,-0.007017287216762144,-0.018831784082733203,-0.010770161421740277, ,0.014245805780737347, ,0.020096720696994613, ,7.426825218077603e-05, ,0.16247857694080947,-0.22959684835069466,0.09618342171000001,1.6087412464132707,0.13745631876403308,-1.3440468486587003, ,0.07140477167680269,0.052026831994775646,0.012140862439024392,0.015472906120995887,0.05064239797135395,-0.04186323363625222, ,1.34952712059021
0.012882368012714642,0.020437446168528446,-0.08628811470584509, ,0.013413662703138695,0.02009421665544294,-0.08674261379748265, ,0.0007788773786836195, ,0.007785121873685031,-0.0017542030231695145,-0.01180074707414168,-0.007017287216762144,-0.018831784082733203,-0.010770161421740277, ,0.014245805780737347, ,0.020096720696994613, ,7.500185722317879e-05, ,0.16247857694080947,-0.22959684835069466,0.09618342171000001,1.6087412464132707,0.13745631876403308,-1.3440468486587003, ,0.07140477167680269,0.052026831994775646,0.012140862439024392,0.015472906120995887,0.05064239797135395,-0.04186323363625222, ,1.3543870449066162
0.012960673075104996,0.020416176546639977,-0.08641103160059896, ,0.013458136273052644,0.020081626139039747,-0.08680553149412486, ,0.000717651569028959, ,0.007483529164231553,-0.001891789523093744,-0.011895125852630077,0.022776752784788613,0.01697730117245143,-0.00038547330713707267, ,0.014180130302698204, ,0.028407903554687843, ,7.564922384257355e-05, ,0.16321995929673502,-0.22902536611800206,0.09630916184,1.6087412464132707,0.13827613776262573,-1.3446336773407381, ,0.07145854033017378,0.05361409127597219,0.01220598583908046,0.013930414829672307,0.08802265492868758,-0.07343955451625185, ,1.359403133392334
0.012960673075104996,0.020416176546639977,-0.08641103160059896, ,0.013502599976976523,0.020069035375084525,-0.08686838378071032, ,0.0007895332650456102, ,0.007483529164231553,-0.001891789523093744,-0.011895125852630077,0.022776752784788613,0.01697730117245143,-0.00038547330713707267, ,0.014180130302698204, ,0.028407903554687843, ,7.648570459927141e-05, ,0.16321995929673502,-0.22902536611800206,0.09630916184,1.6087412464132707,0.13827613776262573,-1.3446336773407381, ,0.07145854033017378,0.05361409127597219,0.01220598583908046,0.013930414829672307,0.08802265492868758,-0.07343955451625185, ,1.3626370429992676
0.013035746973088047,0.020397985956225984,-0.0865255573758567, ,0.01354705347159381,0.020056444715997407,-0.08693117074794976, ,0.0007366185999632415, ,0.007836237946935146,-0.0020937617799221073,-0.011343859727193364,0.01985344819439411,0.00901085485888033,0.011321462438189912, ,0.013945379774760115, ,0.021802631094625005, ,7.724864210353899e-05, ,0.16393817345403788,-0.228507943015429,0.09642712423000001,1.6089509363567556,0.13909595676121836,-1.3453021847629167, ,0.07622244301885203,0.05425782822096671,0.011686582186353635,0.0014483759207197253,0.0876394633506491,-0.07310855203668706, ,1.3664889335632324
0.013035746973088047,0.020397985956225984,-0.0865255573758567, ,0.013591496414626328,0.020043854513283808,-0.08699389248633152, ,0.0008084579743894453, ,0.007836237946935146,-0.0020937617799221073,-0.011343859727193364,0.01985344819439411,0.00901085485888033,0.011321462438189912, ,0.013945379774760115, ,0.021802631094625005, ,7.810126360312486e-05, ,0.16393817345403788,-0.228507943015429,0.09642712423000001,1.6089509363567556,0.13909595676121836,-1.3453021847629167, ,0.07622244301885203,0.05425782822096671,0.011686582186353635,0.0014483759207197253,0.0876394633506491,-0.07310855203668706, ,1.3711349964141846
0.013035746973088047,0.020397985956225984,-0.0865255573758567, ,0.013635928464832952,0.02003126511753494,-0.08705654908612027, ,0.0008812798607321303, ,0.007836237946935146,-0.0020937617799221073,-0.011343859727193364,0.01985344819439411,0.00901085485888033,0.011321462438189912, ,0.013945379774760115, ,0.021802631094625005, ,7.904414700172809e-05, ,0.16393817345403788,-0.228507943015429,0.09642712423000001,1.6089509363567556,0.13909595676121836,-1.3453021847629167, ,0.07622244301885203,0.05425782822096671,0.011686582186353635,0.0014483759207197253,0.0876394633506491,-0.07310855203668706, ,1.374812126159668
0.013110493490009232,0.020376101262116128,-0.08662882034992676, ,0.013680349282009042,0.02001867687842882,-0.08711914063735908, ,0.0008324072308658148, ,0.008248532102708279,-0.002402625006408997,-0.01161207521180969,0.021166450311517912,0.01076460281529569,0.012171639138478046, ,0.014444763047400812, ,0.023746475136983844, ,7.991875003267796e-05, ,0.1646718330770892,-0.22798279717998174,0.09653342001000001,1.6089509363567556,0.139915775759811,-1.3459706921850954, ,0.080832147835154,0.05832633162782469,0.011949596039009755,0.0014483759207197253,0.09418719897342501,-0.07843189495781447, ,1.3785080909729004
0.013110493490009232,0.020376101262116128,-0.08662882034992676, ,0.013724758526985377,0.020006090144730905,-0.08718166722986789, ,0.0009054664186487582, ,0.008248532102708279,-0.002402625006408997,-0.01161207521180969,0.021166450311517912,0.01076460281529569,0.012171639138478046, ,0.014444763047400812, ,0.023746475136983844, ,8.088334113045727e-05, ,0.1646718330770892,-0.22798279717998174,0.09653342001000001,1.6089509363567556,0.139915775759811,-1.3459706921850954, ,0.080832147835154,0.05832633162782469,0.011949596039009755,0.0014483759207197253,0.09418719897342501,-0.07843189495781447, ,1.3819589614868164
0.013110493490009232,0.020376101262116128,-0.08662882034992676, ,0.013769155861626825,0.019993505264295018,-0.08724412895324468, ,0.0009791937983109835, ,0.008248532102708279,-0.002402625006408997,-0.01161207521180969,0.021166450311517912,0.01076460281529569,0.012171639138478046, ,0.014444763047400812, ,0.023746475136983844, ,8.193808579632833e-05, ,0.1646718330770892,-0.22798279717998174,0.09653342001000001,1.6089509363567556,0.139915775759811,-1.3459706921850954, ,0.080832147835154,0.05832633162782469,0.011949596039009755,0.0014483759207197253,0.09418719897342501,-0.07843189495781447, ,1.3853490352630615
0.013207228351608091,0.020351698045034138,-0.08677469209221353, ,0.01381354094883181,0.01998092258406413,-0.08730652589686612, ,0.0008876579317400043, ,0.009135407785947321,-0.0020064852135090383,-0.014189899085826586,0.024667111610300482,0.012740210147343103,0.0026650240668580085, ,0.016995143258987832, ,0.02776290284697591, ,8.286959385314603e-05, ,0.16559856102199616,-0.2273109194199242,0.09668378965,1.6093703162437245,0.14100886775793453,-1.3468620354146665, ,0.08619159087962833,0.06075348371220921,0.014667413922651935,0.012091420413353458,0.09928944719465298,-0.08257375141355316, ,1.3886361122131348
0.013207228351608091,0.020351698045034138,-0.08677469209221353, ,0.013857913452531014,0.01996834245007114,-0.08736885814988703, ,0.000960929714830265, ,0.009135407785947321,-0.0020064852135090383,-0.014189899085826586,0.024667111610300482,0.012740210147343103,0.0026650240668580085, ,0.016995143258987832, ,0.02776290284697591, ,8.389037758501249e-05, ,0.16559856102199616,-0.2273109194199242,0.09668378965,1.6093703162437245,0.14100886775793453,-1.3468620354146665, ,0.08619159087962833,0.06075348371220921,0.014667413922651935,0.012091420413353458,0.09928944719465298,-0.08257375141355316, ,1.3919100761413574
0.013207228351608091,0.020351698045034138,-0.08677469209221353, ,0.013902273037686508,0.0199557652074396,-0.08743112580124107, ,0.0010347729905052431, ,0.009135407785947321,-0.0020064852135090383,-0.014189899085826586,0.024667111610300482,0.012740210147343103,0.0026650240668580085, ,0.016995143258987832, ,0.02776290284697591, ,8.500048287993594e-05, ,0.16559856102199616,-0.2273109194199242,0.09668378965,1.6093703162437245,0.14100886775793453,-1.3468620354146665, ,0.08619159087962833,0.06075348371220921,0.014667413922651935,0.012091420413353458,0.09928944719465298,-0.08257375141355316, ,1.3952181339263916
0.013304831935189523,0.020333531372743116,-0.086940391606734, ,0.013946619370290875,0.019943191200384555,-0.08749332893964075, ,0.0009327358983833046, ,0.010073584305300589,-0.0017224822628640665,-0.018224687914373667,0.030051142916841623,0.023063530705048095,0.008028187733419253, ,0.02089457574295772, ,0.037881336152618704, ,8.597460156783304e-05, ,0.1664943980354062,-0.22666220985848937,0.09685489993000002,1.609580006187209,0.14210195975605808,-1.347753378644238, ,0.09037803957949597,0.06778352968462198,0.018783975849056604,0.009132137617308451,0.11494513567338902,-0.09532446838405087, ,1.3985209465026855
0.013304831935189523,0.020333531372743116,-0.086940391606734, ,0.013990952117366036,0.01993062077221351,-0.08755546765357794, ,0.0010056920004704345, ,0.010073584305300589,-0.0017224822628640665,-0.018224687914373667,0.030051142916841623,0.023063530705048095,0.008028187733419253, ,0.02089457574295772, ,0.037881336152618704, ,8.703669430329134e-05, ,0.1664943980354062,-0.22666220985848937,0.09685489993000002,1.609580006187209,0.14210195975605808,-1.347753378644238, ,0.09037803957949597,0.06778352968462198,0.018783975849056604,0.009132137617308451,0.11494513567338902,-0.09532446838405087, ,1.4017810821533203
0.013304831935189523,0.020333531372743116,-0.086940391606734, ,0.014035270946962304,0.019918054265327088,-0.08761754203132416, ,0.0010792103938662826, ,0.010073584305300589,-0.0017224822628640665,-0.018224687914373667,0.030051142916841623,0.023063530705048095,0.008028187733419253, ,0.02089457574295772, ,0.037881336152618704, ,8.818680485635322e-05, ,0.1664943980354062,-0.22666220985848937,0.09685489993000002,1.609580006187209,0.14210195975605808,-1.347753378644238, ,0.09037803957949597,0.06778352968462198,0.018783975849056604,0.009132137617308451,0.11494513567338902,-0.09532446838405087, ,1.4050230979919434
0.01341086464787016,0.02032029550488474,-0.08714105272429211, ,0.014079575528157463,0.01990549202121963,-0.08767955216093043, ,0.0009535291368044915, ,0.010811313502857887,-0.0011542940829475194,-0.020711867600304162,0.03745756373020751,0.02785056133610453,0.01007101213401241, ,0.02339227124456995, ,0.04667675048496119, ,8.917179285013242e-05, ,0.16735934411731934,-0.22602894576280294,0.09704675085000002,1.609580006187209,0.1431950517541816,-1.3486447218738093, ,0.09358672737521774,0.06768683420718315,0.02138095506040269,0.009132137617308451,0.12361510396947303,-0.10238071645147767, ,1.4083001613616943
0.01341086464787016,0.02032029550488474,-0.08714105272429211, ,0.014123865531055761,0.019892934380480513,-0.08774149813022819, ,0.0010254474514012108, ,0.010811313502857887,-0.0011542940829475194,-0.020711867600304162,0.03745756373020751,0.02785056133610453,0.01007101213401241, ,0.02339227124456995, ,0.04667675048496119, ,9.024272061966585e-05, ,0.16735934411731934,-0.22602894576280294,0.09704675085000002,1.609580006187209,0.1431950517541816,-1.3486447218738093, ,0.09358672737521774,0.06768683420718315,0.02138095506040269,0.009132137617308451,0.12361510396947303,-0.10238071645147767, ,1.4128799438476562
0.01341086464787016,0.02032029550488474,-0.08714105272429211, ,0.014168140626787043,0.019880381682794317,-0.0878033800268288, ,0.0010980293870367325, ,0.010811313502857887,-0.0011542940829475194,-0.020711867600304162,0.03745756373020751,0.02785056133610453,0.01007101213401241, ,0.02339227124456995, ,0.04667675048496119, ,9.139977477577859e-05, ,0.16735934411731934,-0.22602894576280294,0.09704675085000002,1.609580006187209,0.1431950517541816,-1.3486447218738093, ,0.09358672737521774,0.06768683420718315,0.02138095506040269,0.009132137617308451,0.12361510396947303,-0.10238071645147767, ,1.4165301322937012
0.01341086464787016,0.02032029550488474,-0.08714105272429211, ,0.01421240048750544,0.01986783426694221,-0.08786519793812425, ,0.0011711392593437898, ,0.010811313502857887,-0.0011542940829475194,-0.020711867600304162,0.03745756373020751,0.02785056133610453,0.01007101213401241, ,0.02339227124456995, ,0.04667675048496119, ,9.264296937929083e-05, ,0.16735934411731934,-0.22602894576280294,0.09704675085000002,1.609580006187209,0.1431950517541816,-1.3486447218738093, ,0.09358672737521774,0.06768683420718315,0.02138095506040269,0.009132137617308451,0.12361510396947303,-0.10238071645147767, ,1.4200439453125
0.01346157883977272,0.02031474214946542,-0.08723749181791833, ,0.01425664478638871,0.019855292470802335,-0.0879269519512878, ,0.0011482940138300124, ,0.011278627245486048,-0.0011678015940967369,-0.02141176494234403,0.035888511520979695,0.024508746915893505,0.009767275101517836, ,0.024228802509657546, ,0.04345870953057107, ,9.385126056507682e-05, ,0.16786904448701817,-0.2256659773177144,0.09716212066,1.609580006187209,0.14387823425300877,-1.3492018113922915, ,0.09813541009148995,0.06967470011635153,0.022184974261838443,0.009132137617308451,0.12439380507541492,-0.10300838961376112, ,1.4251840114593506
0.013645598340398347,0.020290028732003747,-0.08757031856206594, ,0.014300873197637088,0.019842756631350884,-0.087988642153273, ,0.0008969013867265696, ,0.011768452263638884,-0.001786813895040326,-0.01971865868045187,0.009179806637090554,-0.009503702866832518,0.001862620542559654, ,0.023032904131550937, ,0.013213108525425963, ,9.473886865718748e-05, ,0.1694830956577311,-0.22451529011945495,0.09750693380000001,1.609580006187209,0.14579114524972495,-1.3507616620440412, ,0.10292509930419824,0.07178286048295822,0.02047405079691517,0.009132137617308451,0.0942184416806024,-0.07838189943075033, ,1.4294321537017822
0.013645598340398347,0.020290028732003747,-0.08757031856206594, ,0.014345085396472432,0.019830227084662675,-0.08805026863081561, ,0.0009649102367606857, ,0.011768452263638884,-0.001786813895040326,-0.01971865868045187,0.009179806637090554,-0.009503702866832518,0.001862620542559654, ,0.023032904131550937, ,0.013213108525425963, ,9.570694918084079e-05, ,0.1694830956577311,-0.22451529011945495,0.09750693380000001,1.609580006187209,0.14579114524972495,-1.3507616620440412, ,0.10292509930419824,0.07178286048295822,0.02047405079691517,0.009132137617308451,0.0942184416806024,-0.07838189943075033, ,1.432790994644165
0.013645598340398347,0.020290028732003747,-0.08757031856206594, ,0.014389281059136973,0.01981770416591212,-0.08811183147043229, ,0.00103411349077918, ,0.011768452263638884,-0.001786813895040326,-0.01971865868045187,0.009179806637090554,-0.009503702866832518,0.001862620542559654, ,0.023032904131550937, ,0.013213108525425963, ,9.675638827476047e-05, ,0.1694830956577311,-0.22451529011945495,0.09750693380000001,1.609580006187209,0.14579114524972495,-1.3507616620440412, ,0.10292509930419824,0.07178286048295822,0.02047405079691517,0.009132137617308451,0.0942184416806024,-0.07838189943075033, ,1.436100959777832
0.013760118431985283,0.020266802899096707,-0.08774248284290509, ,0.014433459862892711,0.019805188209373905,-0.0881733307584219, ,0.0009230962737707945, ,0.012044197254156723,-0.0031167054991662045,-0.016464026505193925,-0.015421817003692231,-0.037584556980386326,-0.004658623760502805, ,0.020635908253074237, ,0.04062548650047196, ,9.766270317814093e-05, ,0.17051021913000294,-0.22380479869502629,0.09768582182,1.609580006187209,0.1466109642483176,-1.3515118482063604, ,0.10932827368487416,0.0771519850068868,0.017257650617551468,0.009132137617308451,0.07198919568780791,-0.05981816971144888, ,1.4394149780273438
0.013760118431985283,0.020266802899096707,-0.08774248284290509, ,0.014477621486020123,0.019792679548423914,-0.08823476658086558, ,0.00099093232002134, ,0.012044197254156723,-0.0031167054991662045,-0.016464026505193925,-0.015421817003692231,-0.037584556980386326,-0.004658623760502805, ,0.020635908253074237, ,0.04062548650047196, ,9.877097813700347e-05, ,0.17051021913000294,-0.22380479869502629,0.09768582182,1.609580006187209,0.1466109642483176,-1.3515118482063604, ,0.10932827368487416,0.0771519850068868,0.017257650617551468,0.009132137617308451,0.07198919568780791,-0.05981816971144888, ,1.4411139488220215
0.013760118431985283,0.020266802899096707,-0.08774248284290509, ,0.014521765607817254,0.01978017851553997,-0.08829613902362647, ,0.001059926826519538, ,0.012044197254156723,-0.0031167054991662045,-0.016464026505193925,-0.015421817003692231,-0.037584556980386326,-0.004658623760502805, ,0.020635908253074237, ,0.04062548650047196, ,9.996200149311565e-05, ,0.17051021913000294,-0.22380479869502629,0.09768582182,1.609580006187209,0.1466109642483176,-1.3515118482063604, ,0.10932827368487416,0.0771519850068868,0.017257650617551468,0.009132137617308451,0.07198919568780791,-0.05981816971144888, ,1.4428150653839111
0.013760118431985283,0.020266802899096707,-0.08774248284290509, ,0.014565891908598898,0.019767685442302493,-0.08835744817235058, ,0.0011298546312294877, ,0.012044197254156723,-0.0031167054991662045,-0.016464026505193925,-0.015421817003692231,-0.037584556980386326,-0.004658623760502805, ,0.020635908253074237, ,0.04062548650047196, ,0.00010123662108437354, ,0.17051021913000294,-0.22380479869502629,0.09768582182,1.609580006187209,0.1466109642483176,-1.3515118482063604, ,0.10932827368487416,0.0771519850068868,0.017257650617551468,0.009132137617308451,0.07198919568780791,-0.05981816971144888, ,1.444451093673706
0.013760118431985283,0.020266802899096707,-0.08774248284290509, ,0.014610000069695348,0.019755200659395646,-0.08841869411246701, ,0.0012005404328328283, ,0.012044197254156723,-0.0031167054991662045,-0.016464026505193925,-0.015421817003692231,-0.037584556980386326,-0.004658623760502805, ,0.020635908253074237, ,0.04062548650047196, ,0.00010259546386774616, ,0.17051021913000294,-0.22380479869502629,0.09768582182,1.609580006187209,0.1466109642483176,-1.3515118482063604, ,0.10932827368487416,0.0771519850068868,0.017257650617551468,0.009132137617308451,0.07198919568780791,-0.05981816971144888, ,1.4461359977722168
0.013887556115991436,0.020229488100236125,-0.08790629216625906, ,0.014654089773451543,0.019742724496607758,-0.08847987692918763, ,0.0010740168220750856, ,0.012570936957845903,-0.0038575245435694097,-0.016085540706331048,-0.006148338555896404,-0.026128061905342604,-0.008011028366101534, ,0.02077627424292935, ,0.02684169534548888, ,0.00010379474949516263, ,0.1716917972597593,-0.2229552980788616,0.09785563581000001,1.6099993860741781,0.14743078324691022,-1.3521803556285388, ,0.11744670984959255,0.08503310175490213,0.016661936736401678,0.015858926660547303,0.09051959523121623,-0.07492846802359786, ,1.447796106338501
0.013887556115991436,0.020229488100236125,-0.08790629216625906, ,0.014698160703226087,0.01973025728283242,-0.08854099670750798, ,0.00114418576314051, ,0.012570936957845903,-0.0038575245435694097,-0.016085540706331048,-0.006148338555896404,-0.026128061905342604,-0.008011028366101534, ,0.02077627424292935, ,0.02684169534548888, ,0.000105077599080422, ,0.1716917972597593,-0.2229552980788616,0.09785563581000001,1.6099993860741781,0.14743078324691022,-1.3521803556285388, ,0.11744670984959255,0.08503310175490213,0.016661936736401678,0.015858926660547303,0.09051959523121623,-0.07492846802359786, ,1.4495291709899902
0.013887556115991436,0.020229488100236125,-0.08790629216625906, ,0.014742212543390391,0.019717799346069067,-0.0886020535322073, ,0.0012150501505623348, ,0.012570936957845903,-0.0038575245435694097,-0.016085540706331048,-0.006148338555896404,-0.026128061905342604,-0.008011028366101534, ,0.02077627424292935, ,0.02684169534548888, ,0.00010644456035071993, ,0.1716917972597593,-0.2229552980788616,0.09785563581000001,1.6099993860741781,0.14743078324691022,-1.3521803556285388, ,0.11744670984959255,0.08503310175490213,0.016661936736401678,0.015858926660547303,0.09051959523121623,-0.07492846802359786, ,1.4512510299682617
0.013887556115991436,0.020229488100236125,-0.08790629216625906, ,0.014786244979327401,0.019705351013423897,-0.08866304748784866, ,0.0012864835698951922, ,0.012570936957845903,-0.0038575245435694097,-0.016085540706331048,-0.006148338555896404,-0.026128061905342604,-0.008011028366101534, ,0.02077627424292935, ,0.02684169534548888, ,0.0005926990984775661, ,0.1716917972597593,-0.2229552980788616,0.09785563581000001,1.6099993860741781,0.14743078324691022,-1.3521803556285388, ,0.11744670984959255,0.08503310175490213,0.016661936736401678,0.015858926660547303,0.09051959523121623,-0.07492846802359786, ,1.4529290199279785
0.013887556115991436,0.020229488100236125,-0.08790629216625906, ,0.014830257697430736,0.01969291261111073,-0.08872397865877958, ,0.0013583853382707087, ,0.012570936957845903,-0.0038575245435694097,-0.016085540706331048,-0.006148338555896404,-0.026128061905342604,-0.008011028366101534, ,0.02077627424292935, ,0.02684169534548888, ,0.0005978379323016811, ,0.1716917972597593,-0.2229552980788616,0.09785563581000001,1.6099993860741781,0.14743078324691022,-1.3521803556285388, ,0.11744670984959255,0.08503310175490213,0.016661936736401678,0.015858926660547303,0.09051959523121623,-0.07492846802359786, ,1.4546220302581787
0.013887556115991436,0.020229488100236125,-0.08790629216625906, ,0.014874250385104,0.019680484464451548,-0.0887848471291319, ,0.0014306744547914313, ,0.012570936957845903,-0.0038575245435694097,-0.016085540706331048,-0.006148338555896404,-0.026128061905342604,-0.008011028366101534, ,0.02077627424292935, ,0.02684169534548888, ,0.000603390175784946, ,0.1716917972597593,-0.2229552980788616,0.09785563581000001,1.6099993860741781,0.14743078324691022,-1.3521803556285388, ,0.11744670984959255,0.08503310175490213,0.016661936736401678,0.015858926660547303,0.09051959523121623,-0.07492846802359786, ,1.4577500820159912
0.013887556115991436,0.020229488100236125,-0.08790629216625906, ,0.014918222730759139,0.01966806689787771,-0.08884565298282204, ,0.0015032851296238386, ,0.012570936957845903,-0.0038575245435694097,-0.016085540706331048,-0.006148338555896404,-0.026128061905342604,-0.008011028366101534, ,0.02077627424292935, ,0.02684169534548888, ,0.0006093497450156672, ,0.1716917972597593,-0.2229552980788616,0.09785563581000001,1.6099993860741781,0.14743078324691022,-1.3521803556285388, ,0.11744670984959255,0.08503310175490213,0.016661936736401678,0.015858926660547303,0.09051959523121623,-0.07492846802359786, ,1.459684133529663
0.013887556115991436,0.020229488100236125,-0.08790629216625906, ,0.01496217442381623,0.019655660234930317,-0.08890639630355159, ,0.001576163447090204, ,0.013712923526357359,-0.003773360096874383,-0.020030095493153835,0.0665904784891621,0.056281169470702004,0.011785548016180295, ,0.024565977357419968, ,0.0871886382406359, ,0.0006157103614766839, ,0.17289654358813833,-0.22205946106545155,0.09803063496000002,1.6104187659611469,0.14879714824456466,-1.353294534665503, ,0.1319846196918926,0.09405048717390563,0.020794793107049615,0.018188587326532623,0.18993692394651054,-0.15599663337891248, ,1.4616000652313232
0.01401349924427107,0.02018892233137737,-0.08807559113594118, ,0.015006105154701781,0.019643264798261336,-0.08896707717480748, ,0.0014414423312646871, ,0.013712923526357359,-0.003773360096874383,-0.020030095493153835,0.0665904784891621,0.056281169470702004,0.011785548016180295, ,0.024565977357419968, ,0.0871886382406359, ,0.0006211073024556904, ,0.17289654358813833,-0.22205946106545155,0.09803063496000002,1.6104187659611469,0.14879714824456466,-1.353294534665503, ,0.1319846196918926,0.09405048717390563,0.020794793107049615,0.018188587326532623,0.18993692394651054,-0.15599663337891248, ,1.464003086090088
0.01401349924427107,0.02018892233137737,-0.08807559113594118, ,0.0150500146148484,0.019630880909634156,-0.08902769567986221, ,0.0015140268836382389, ,0.013712923526357359,-0.003773360096874383,-0.020030095493153835,0.0665904784891621,0.056281169470702004,0.011785548016180295, ,0.024565977357419968, ,0.0871886382406359, ,0.0006269054815542783, ,0.17289654358813833,-0.22205946106545155,0.09803063496000002,1.6104187659611469,0.14879714824456466,-1.353294534665503, ,0.1319846196918926,0.09405048717390563,0.020794793107049615,0.018188587326532623,0.18993692394651054,-0.15599663337891248, ,1.4659161567687988
0.01401349924427107,0.02018892233137737,-0.08807559113594118, ,0.015093902496693226,0.019618508889924682,-0.08908825190177357, ,0.0015868599524502779, ,0.013712923526357359,-0.003773360096874383,-0.020030095493153835,0.0665904784891621,0.056281169470702004,0.011785548016180295, ,0.024565977357419968, ,0.0871886382406359, ,0.0006330987362052203, ,0.17289654358813833,-0.22205946106545155,0.09803063496000002,1.6104187659611469,0.14879714824456466,-1.353294534665503, ,0.1319846196918926,0.09405048717390563,0.020794793107049615,0.018188587326532623,0.18993692394651054,-0.15599663337891248, ,1.4678001403808594
0.01404051236911076,0.02018181972182587,-0.0881154601879585, ,0.015137768493677331,0.01960614905912182,-0.08914874592338598, ,0.0016133961465910577, ,0.014237587831859189,-0.0036040630256570956,-0.021208479495742345,0.07782357381733301,0.06816092629032723,-0.023099254024784622, ,0.025797243652842777, ,0.10345248292604903, ,0.0006393826939641039, ,0.17315911650586197,-0.22187411547647015,0.09807211624,1.6106284559046316,0.14920705774386098,-1.3536287883765925, ,0.13615056177685905,0.09575877049290694,0.022062065817174518,0.056083065828544956,0.19790067292759692,-0.16249053668118063, ,1.475687026977539
0.01404051236911076,0.02018181972182587,-0.0881154601879585, ,0.015181612300244654,0.019593801736328464,-0.08920917782732964, ,0.0016864437372096847, ,0.014237587831859189,-0.0036040630256570956,-0.021208479495742345,0.07782357381733301,0.06816092629032723,-0.023099254024784622, ,0.025797243652842777, ,0.10345248292604903, ,0.0006460518725835024, ,0.17315911650586197,-0.22187411547647015,0.09807211624,1.6106284559046316,0.14920705774386098,-1.3536287883765925, ,0.13615056177685905,0.09575877049290694,0.022062065817174518,0.056083065828544956,0.19790067292759692,-0.16249053668118063, ,1.4774019718170166
0.01404051236911076,0.02018181972182587,-0.0881154601879585, ,0.015225433611840795,0.019581467239762354,-0.08926954769602193, ,0.0017596532131248913, ,0.014237587831859189,-0.0036040630256570956,-0.021208479495742345,0.07782357381733301,0.06816092629032723,-0.023099254024784622, ,0.025797243652842777, ,0.10345248292604903, ,0.0006530999823337644, ,0.17315911650586197,-0.22187411547647015,0.09807211624,1.6106284559046316,0.14920705774386098,-1.3536287883765925, ,0.13615056177685905,0.09575877049290694,0.022062065817174518,0.056083065828544956,0.19790067292759692,-0.16249053668118063, ,1.4790489673614502
0.01404051236911076,0.02018181972182587,-0.0881154601879585, ,0.015269232124912456,0.019569145886756584,-0.0893298556116663, ,0.0018329969207825545, ,0.014237587831859189,-0.0036040630256570956,-0.021208479495742345,0.07782357381733301,0.06816092629032723,-0.023099254024784622, ,0.025797243652842777, ,0.10345248292604903, ,0.0006605207177957065, ,0.17315911650586197,-0.22187411547647015,0.09807211624,1.6106284559046316,0.14920705774386098,-1.3536287883765925, ,0.13615056177685905,0.09575877049290694,0.022062065817174518,0.056083065828544956,0.19790067292759692,-0.16249053668118063, ,1.480726957321167
0.014418613943518826,0.02014814820497214,-0.08889034462113693, ,0.015313007536906004,0.019556837993760852,-0.08939010165625401, ,0.001182939034745148, ,0.018118831372060988,0.00045679244526188246,-0.04223455007195843,0.22261327614559864,0.23262357269684736,0.04607024246034086, ,0.04595930732080275, ,0.3219786684068691, ,0.0006637858322766405, ,0.1766034553677661,-0.21951868194983168,0.09887970491,1.610838145848116,0.15713197473025653,-1.360254384271266, ,0.1548074087413879,0.10225963530007626,0.044124131634349036,0.02851942136684952,0.3923788990693462,-0.3179658390467187, ,1.482388973236084
0.014418613943518826,0.02014814820497214,-0.08889034462113693, ,0.015356759546266812,0.019544543876341695,-0.08945028591156316, ,0.0012481945386120666, ,0.018118831372060988,0.00045679244526188246,-0.04223455007195843,0.22261327614559864,0.23262357269684736,0.04607024246034086, ,0.04595930732080275, ,0.3219786684068691, ,0.0006674157000178543, ,0.1766034553677661,-0.21951868194983168,0.09887970491,1.610838145848116,0.15713197473025653,-1.360254384271266, ,0.1548074087413879,0.10225963530007626,0.044124131634349036,0.02851942136684952,0.3923788990693462,-0.3179658390467187, ,1.4840991497039795
