NicholasDascanio/dvrk_moveit_final/test/execution/third_experiment_notsharpbends/thirdexp_700vel4.0/thirdexp_700vel4.0_9.csv
Current Position (x),Current Position (y),Current Position (z), ,Planned Position (x),Planned Position (y),Planned Position (z), ,Position Error,,Cartesian linear Velocity(x),Cartesian linear Velocity(y),Cartesian linear Velocity(z),Cartesian Angular Velocity(x),Cartesian Angular Velocity(y),Cartesian Angular Velocity(z), ,Total Linear Velocity, ,Total Angular Velocity, ,MSE, ,Joint 1 Position,Joint 2 Position,Joint 3 Position,Joint 4 Position,Joint 5 Position,Joint 6 Position, ,Joint 1 Velocity,Joint 2 Velocity,Joint 3 Velocity,Joint 4 Velocity,Joint 5 Velocity,Joint 6 Velocity, ,Time Stamp
0.009111501901125519,0.02004701614117655,-0.07667579807241698, ,0.009278502353663651,0.020009159150032672,-0.07682342737899271, ,0.00022609005968073998, ,2.3021909048740632e-05,-7.871450690988113e-06,6.777245273579847e-07,0.026812496281146205,3.187064150159168e-05,-0.007754965322237117, ,2.4339830376650648e-05, ,0.026812515222639388, ,1.884083830672833e-05, ,0.17105853316407288,-0.24889595780338172,0.08714439154,1.6771001679892257,0.46702355619827546,-1.2724315222087457, ,0.0003004782141317624,5.874442846862503e-05,0.0,-0.000846368917676457,0.0,-0.028337118693555485, ,0.017153024673461914
0.009118316978991271,0.020050638458419996,-0.07669476694377786, ,0.009316713829600877,0.020021759432704227,-0.07695219481516807, ,0.0003262888558112258, ,0.0002165395846460221,0.00020786556354200088,-0.0008314110437565502,0.1273429619363073,0.0014083173236664863,-0.039587264710076, ,0.0008839354093516459, ,0.12735074916307146, ,2.510813252236208e-05, ,0.1710894240955698,-0.24888051233763328,0.08716383589000001,1.6771001679892257,0.46688691969851004,-1.2750971814698284, ,0.0009358757080575169,6.422700488860799e-05,0.000877240137009165,-0.0008271162204030078,0.0,-0.1338023774896735, ,0.03922104835510254
0.00914266513325045,0.020063303549852148,-0.07676381421672233, ,0.009354949279259018,0.02003426721010762,-0.07708068735746547, ,0.00038251307820356305, ,0.0022114280260207074,0.0010794983947717942,-0.005104996110577031,0.12269686336279928,-0.1465821184401206,-0.08173113234722956, ,0.005667161193012894, ,0.19115657907065556, ,2.9215374802985276e-05, ,0.17110486956131823,-0.2488264532075137,0.08723124297000001,1.6771001679892257,0.4655205547008556,-1.2792921205420007, ,0.0008722812130295905,0.0018624309099066786,0.004874177331701347,-0.000807974675005197,-0.15371361781891993,-0.1408598145763198, ,0.05522608757019043
0.00916805282569207,0.020077408444650433,-0.07682882260367672, ,0.009393208420733018,0.02004668279716078,-0.07720890518624968, ,0.0004428339157824598, ,0.002267458174423446,0.0015416198663717106,-0.006970155216591287,0.06316272197013978,-0.11133213730484293,-0.052353050332988274, ,0.007490061557058551, ,0.12800146181622232, ,3.280299784471401e-05, ,0.1711589286914378,-0.2487646713445199,0.08738161261,1.6768904780457412,0.463471007204374,-1.2824398976548477, ,0.0031700372764047343,0.003752958469646621,0.00876654458998349,-0.0009308126618068805,-0.027288035972590486,-0.36033284807443655, ,0.07253003120422363
0.009215456672037124,0.0201170756501053,-0.0770105993974255, ,0.009431490972909573,0.02005900650839552,-0.07733684848225661, ,0.0003955771855472689, ,0.0027894787882920377,0.001956191055717278,-0.00861465976148266,0.3918610952059008,-0.11762093184846106,-0.15770811299872722, ,0.009263921316748538, ,0.40913298754490984, ,3.410198259663957e-05, ,0.1711898196229347,-0.24873378041302302,0.08747494549000001,1.6768904780457412,0.4626511882057813,-1.286100363460119, ,0.0033504557156377604,0.0024993730316126405,0.008568483873050026,-0.0009308126618068805,-0.12621242383900894,-0.42286115535638524, ,0.08893108367919922
0.00924859727310624,0.020132121795595783,-0.07709075806973939, ,0.009469796655466392,0.020071238657957617,-0.07746451742659197, ,0.00043855670105475797, ,0.0037736474958951385,0.001489938091064134,-0.008188578726293017,0.12273720207307699,-0.23463172855733275,-0.10924577697752264, ,0.009138553085427586, ,0.26479514493606693, ,3.567515800129057e-05, ,0.17129793788317385,-0.2486333848856581,0.08764087061,1.676680788102257,0.45855209321281815,-1.288965410599909, ,0.0054827631017960905,0.005046252302472722,0.008605516758508914,0.0011239997871086008,-0.14644319771908587,0.11178239694400482, ,0.10604190826416016
0.009303271871711816,0.02016200221429145,-0.07724056318797458, ,0.009508125188871395,0.02008337955960698,-0.07759191220073221, ,0.00041423728966219026, ,0.00227171974652908,0.00160218039868425,-0.00785235000376128,-0.20948507813980152,-0.04823524803788753,0.05008341626007581, ,0.008329891549009984, ,0.21496659528089843, ,3.647357063530841e-05, ,0.1713442742804192,-0.24859477122128698,0.08770698140000001,1.676680788102257,0.4582788202132873,-1.2880891448713916, ,0.007518546550337172,0.005104763872515403,0.008081588797564689,0.0011239997871086008,-0.03880375232456754,0.21156424181552, ,0.12327194213867188
0.009320034375273017,0.020182636547549086,-0.07737444843848276, ,0.009546476294381956,0.020095429526717935,-0.07771903298652233, ,0.0004214493065122031, ,0.0003699897196628717,0.0008267599103099357,-0.006070397226680359,-0.08033053398596175,0.1521988194027777,0.06579108095059442, ,0.006137601064881987, ,0.17209728443478153, ,3.716519990554157e-05, ,0.17149100620502947,-0.24840942563230559,0.08785086959,1.676680788102257,0.4604650042095343,-1.2834192108594298, ,0.008906921874332029,0.010267663040511948,0.006704045252525254,0.0011239997871086008,0.16839316563662327,0.08470053589554338, ,0.14076709747314453
0.009337224935436567,0.020199594684500694,-0.07747863097631086, ,0.009584849694044034,0.020107388872279294,-0.0778458799661764, ,0.00045242872746994274, ,0.0018315821186569291,0.0009896473511387949,-0.006543671135440203,-0.06579801368256408,-0.009603969158129529,0.015280133879618834, ,0.0068668571315990785, ,0.06649522401017412, ,3.8043207823090776e-05, ,0.17162229266389128,-0.24827813917344377,0.08796235053000001,1.676680788102257,0.4618313692071887,-1.2828998150935829, ,0.00881032835685757,0.00866709649302017,0.006758087195587612,0.0011239997871086008,0.0,0.06015847451759379, ,0.15874290466308594
0.009390173100040557,0.020228531198086586,-0.07768104570553253, ,0.009623245110691356,0.020119257908894485,-0.07797245332227642, ,0.00038882079802400745, ,0.0021405109660403983,0.0009097030943543984,-0.007416112332993153,0.08923282923987988,-0.008601372280241201,-0.03458831199682068, ,0.007772262801217565, ,0.08964642433931297, ,3.8125450174003515e-05, ,0.17186169738299223,-0.24799239805709747,0.08817105322,1.676680788102257,0.4619680057069542,-1.2847264865402312, ,0.010751976156636164,0.01233228610246534,0.007614154646271511,0.0011239997871086008,0.0,-0.10597490659634036, ,0.17723703384399414
0.009413045157884922,0.020237025329260614,-0.07775336126411983, ,0.00966166226794482,0.02013103694878159,-0.0780987532377719, ,0.0004385654109416045, ,0.002106052263951307,0.0008513484047953688,-0.007125137994929166,0.013931829876543782,-0.013100018942608796,-0.01203937592952045, ,0.007478491939664391, ,0.019123450568391275, ,3.86371547204461e-05, ,0.1719775383761056,-0.24786883433110987,0.08824494175000001,1.676680788102257,0.4618313692071887,-1.2855135347780808, ,0.010581508352385156,0.012087242588010543,0.007303444071526824,0.0011239997871086008,-0.003393030379141422,-0.02708502624148974, ,0.19342589378356934
0.00945060559529478,0.020253025158785624,-0.0778806863190629, ,0.00970010089021124,0.02014272630377385,-0.07822477989597973, ,0.0004391060569814242, ,0.0023505773762576157,0.000991594903083666,-0.0077843437425240145,-0.021778113034225246,-0.015423304048030441,0.0014208793650221342, ,0.008191732536854974, ,0.026686410146483507, ,3.906940480058514e-05, ,0.17217060669796122,-0.24765259781063156,0.08837586704000001,1.6768904780457412,0.4618313692071887,-1.2857585709985027, ,0.012260586764660306,0.012321077844517109,0.008004427899497488,-0.0014443474944782094,-0.002739856380946766,0.00966233408872346, ,0.2117319107055664
0.00949945278716471,0.02027047334424517,-0.07804531212198361, ,0.009738560702683152,0.020154326285319504,-0.07835053348058262, ,0.00040475030859244484, ,0.0017822113739721854,0.00036921406179012454,-0.005863767666574288,-0.032283846711515754,-0.01186405487589523,0.0034688836414543205, ,0.006139736773877318, ,0.03439480410844779, ,3.947494423102162e-05, ,0.17242545688281063,-0.24735913396141104,0.08854438474000001,1.676680788102257,0.4618313692071887,-1.2855952135182216, ,0.00933533801571023,0.013781141672737552,0.005936940559075662,-0.0006905147140048623,-0.0020992901612329868,0.019328714732403454, ,0.22760796546936035
0.009518443845466022,0.020275702944473888,-0.07810546189934534, ,0.009777041431337532,0.020165837204481934,-0.07847601417562922, ,0.0004650292267177605, ,0.0020212535378000057,0.0006533025931661671,-0.0066147685998406555,-0.012604707665787458,-0.011061552345774309,-0.0015396403119346195, ,0.006947476791738464, ,0.016770109808054233, ,4.025890657843994e-05, ,0.17251812967730132,-0.24723557023542345,0.08860531037000001,1.676680788102257,0.4616947327074232,-1.2854021168743845, ,0.010893417500447576,0.01272588729495384,0.006766699881053527,-0.0006905147140048623,0.0,-4.9411993497688494e-05, ,0.24204206466674805
0.009564425262747481,0.020296588572633296,-0.07827304424852824, ,0.009815542802935083,0.020177259371940134,-0.07860122216553354, ,0.00043011652181459, ,0.0023451874829470347,0.0010749884703818546,-0.008017964706474595,-0.010747827787023583,-0.01083451169116769,-0.001386576343392894, ,0.008422782353587063, ,0.015261140605734302, ,4.071384860937035e-05, ,0.17274208893065382,-0.2469652745848256,0.08877771694000001,1.676680788102257,0.4618313692071887,-1.2856768922583621, ,0.011977400171459141,0.011972855770119044,0.008266119107420863,-0.0006905147140048623,0.0013402375062577185,-0.0011289406759027434, ,0.257889986038208
0.009587707974221297,0.02030630922819912,-0.07835387353999386, ,0.009854064545019733,0.020188593097988487,-0.07872615763507446, ,0.000472650354457974, ,0.0024366116104142512,0.00113391508728279,-0.008790058524809812,-0.012747902003947828,-0.011478195942411945,0.0029694247685981465, ,0.009191733701253247, ,0.017153948091296285, ,4.1386163273760485e-05, ,0.1728579299237672,-0.246841710858838,0.08886067950000001,1.676471098158772,0.4618313692071887,-1.2856768922583621, ,0.011436783581169101,0.013342440425298197,0.009035060419739083,-0.005550374935760057,0.0013402375062577185,-0.0012961666690055748, ,0.27234506607055664
0.009630337360557498,0.02032789555086208,-0.07851223695081179, ,0.009892606385917447,0.02019983869253711,-0.07885082076939433, ,0.00044701521543819163, ,0.0025057278189021836,0.0011394485154554482,-0.008957172435914077,-0.01037911747821087,-0.009035339756584963,0.002879330553775139, ,0.009370589782318552, ,0.013760936977040393, ,4.1832509058038014e-05, ,0.17305872097849703,-0.24661002887261127,0.08902401204,1.676471098158772,0.4619680057069542,-1.2857883101620584, ,0.012224261439967896,0.013781141672737552,0.009218062222222224,-0.0054902102731655515,0.004625104277994898,-0.004004829612470067, ,0.2938508987426758
0.009682339335744417,0.020349256716508106,-0.07869404540617644, ,0.009931168054735682,0.020210996465112045,-0.07897521175399944, ,0.000400107665084107, ,0.0020468919946198217,0.0005216663084295712,-0.006349655483257619,0.003363959744629356,0.004165229469257016,0.002477913811062457, ,0.006691788051862731, ,0.0053540033034509705, ,4.1966685669184405e-05, ,0.17335218482771758,-0.24630111955764228,0.08921197409,1.676471098158772,0.46237791520625043,-1.2860408851330072, ,0.013644420065919594,0.0133113959262829,0.006555066469135804,-0.00498176318331349,0.01942556171047793,-0.016857661204077057, ,0.30962395668029785
0.009706784020546018,0.02035347093519985,-0.07876266905541988, ,0.00996974928136237,0.02022206672485522,-0.07909933077475874, ,0.00044694396534767175, ,0.0019530502699617823,0.00043109376095263853,-0.006026276336428266,0.001696021689798827,0.003989200284099606,0.002549563990706679, ,0.006349508144000239, ,0.0043347664909611765, ,4.234097644931961e-05, ,0.17350663948520206,-0.24613894216728358,0.08928197375000001,1.676471098158772,0.46237791520625043,-1.2861225638731477, ,0.013074805946331052,0.013373300670584946,0.006207642837100547,-0.004769587427417528,0.018628144279950205,-0.015190002590738896, ,0.3280611038208008
0.009746963485234125,0.020359200499162695,-0.07887473994772368, ,0.010008349796465463,0.020233049780524835,-0.07922317801790364, ,0.00045348196906019644, ,0.0018457552578688885,0.0002126273364189304,-0.005246931427679208,-0.00316666657261175,-0.0012034601302344401,0.002114901094902207, ,0.005566175730509326, ,0.0033876377448633557, ,4.2714240268991367e-05, ,0.17376148967005148,-0.2458609237838115,0.08939604727000001,1.676471098158772,0.46237791520625043,-1.2861225638731477, ,0.012823911021414969,0.013545095854763172,0.005370469157113958,-0.004445598211866884,0.012983103728881711,-0.010586850537216915, ,0.34272289276123047
0.009788723083540963,0.02037092666704133,-0.0790179891159324, ,0.010046969331491714,0.020243945940495334,-0.07934675367002736, ,0.0004369226035856317, ,0.0022346625644170544,0.0006040496234462814,-0.007270527988217461,-0.008091586964506745,-0.00525417263486196,0.0016525029909858202, ,0.007630148750309265, ,0.009647802307546683, ,4.2972833575221464e-05, ,0.1740240625877751,-0.2455751826674652,0.08954123175,1.6762614082152878,0.4629244612053123,-1.2867315929682146, ,0.013331967063567124,0.014895140724920854,0.008370368638991068,7.743789750425828e-06,0.009753118581483627,-0.008584775813860994, ,0.3580920696258545
0.009803767792278248,0.020376442181216887,-0.07906452771076555, ,0.010085607618666257,0.0202547555127577,-0.0794700579180841, ,0.0005086217475363664, ,0.002515738412717735,0.0009504620015996108,-0.008250059444676725,-0.005022341369457274,-0.004612703167343668,-0.0024729830701371337, ,0.008677315173393664, ,0.006819157214924008, ,4.354767435521851e-05, ,0.17410901264939158,-0.2454902326058487,0.08959178706000001,1.6762614082152878,0.4629244612053123,-1.2867315929682146, ,0.014170067426977868,0.014040086042087702,0.00851352833778728,7.743789750425828e-06,0.009753118581483627,-0.008584775813860994, ,0.374769926071167
0.009872780220275901,0.02040364443174985,-0.07928946839184887, ,0.010124264390991452,0.020265478804919503,-0.07959309094938892, ,0.00041775673065202573, ,0.0027265772453219385,0.0011532651250417763,-0.008976963505400368,-0.0013345438597998618,-0.001271961341519486,0.004789624452088249, ,0.00945251911929487, ,0.0018435928701595156, ,4.366454160162149e-05, ,0.17448742656022856,-0.2451349868936344,0.08982382297000001,1.676051718271803,0.4630610977050777,-1.2868430108719109, ,0.015842561195070246,0.013504616701077384,0.009315094456140352,-0.006925407273568155,0.016619185358990016,-0.012673168803969598, ,0.38992810249328613
0.009898251145828603,0.02041329135681257,-0.07936999334463879, ,0.010162939382246345,0.020276116124205063,-0.07971585295161646, ,0.00045661337549134914, ,0.002548918084932244,0.0008802574420814431,-0.008435287114542176,-0.004395968774307714,-0.002701515430836944,0.004230553898955613, ,0.008855840178819607, ,0.005159717471016302, ,4.39412046497813e-05, ,0.17462643575196463,-0.24500370043477257,0.08990678553,1.676051718271803,0.4630610977050777,-1.2869246896120514, ,0.014510235712304403,0.015015338854188414,0.008694766113537119,-0.006925407273568155,0.013781805476613946,-0.01120926853859471, ,0.4048190116882324
0.00994665402268947,0.020428119778241532,-0.07952824105645749, ,0.010201632326985868,0.020286667777455598,-0.07983834411280125, ,0.0004256600870905666, ,0.002290361002671146,0.000615240889179667,-0.006806430166680858,-0.005714686888893216,-0.007613704325863567,0.003429231177540965, ,0.007207757382721659, ,0.009519775480102086, ,4.406751948343207e-05, ,0.17491989960118515,-0.24469479111980358,0.09007011807000001,1.676051718271803,0.463471007204374,-1.2873406220632813, ,0.0142530702250632,0.01320764670264033,0.007010920563380283,-0.006302932039368052,0.008318195735106582,-0.008209753247769704, ,0.4238250255584717
0.009971234499471482,0.02043456015538002,-0.07959622243869245, ,0.010240342960539897,0.020297134071129493,-0.0799605646213364, ,0.00047333974955078226, ,0.0024003321663939583,0.0005619401783328325,-0.006726641544594538,-0.002675244809823206,-0.00898499452065142,0.002046127578326697, ,0.0071641522696349385, ,0.009374809201087733, ,4.455658666433623e-05, ,0.17507435425866963,-0.24456350466094176,0.09014011773000001,1.676051718271803,0.463471007204374,-1.2872589433231407, ,0.01575052971924826,0.01363265932458997,0.006934615376578147,-0.006036015803291358,0.008318195735106582,-0.011782035438984435, ,0.43654394149780273
0.010016551923539929,0.020443618115262102,-0.07972990009445097, ,0.010279071019012414,0.02030751531130232,-0.08008251466597344, ,0.0004601926605057729, ,0.002286416808193092,0.0004615558526388957,-0.006676568268853307,0.004456239150800981,-0.0005720840690069971,0.0010861296440141254, ,0.007072290963651874, ,0.004492809175152473, ,4.4963410065085576e-05, ,0.17536781810789018,-0.24426231807884702,0.09027752447000001,1.676051718271803,0.4637442802039049,-1.2875634578706743, ,0.015357977271155652,0.014772251176598812,0.006839335130957493,-0.0055838645116032945,0.016207990353920163,-0.019724922757105783, ,0.4502749443054199
0.010028163807196906,0.020446487776673423,-0.07976623160191357, ,0.010317816239280974,0.02031781180366697,-0.0802041944358215, ,0.0005406176849919328, ,0.00240382087291063,0.0006059704669728485,-0.007306655933848482,0.0011977386786472559,-0.0038837277088894693,0.0009114385462563817, ,0.007715748565857194, ,0.004064221700858196, ,4.5651282325432523e-05, ,0.17544504543663242,-0.24418509075010478,0.09031511688,1.676051718271803,0.4638809167036703,-1.2876748757743706, ,0.014881126165668931,0.014806825020825521,0.007520685325779038,-0.0054720632759210465,0.012473839272398103,-0.01667997293547588, ,0.4673268795013428
0.010097655164920252,0.02047033671625221,-0.0799905138677105, ,0.010356578358995703,0.020328023853534067,-0.08032560412034677, ,0.0004467433813019565, ,0.002760669075770121,0.0010617500181669217,-0.009067809823193433,-0.013517034164486559,-0.005531458530260957,0.0005717507135591029, ,0.009538017710016807, ,0.014605039704451957, ,4.595214255679229e-05, ,0.1758234593474694,-0.24379895410639355,0.09054585650000001,1.6758420283283186,0.46401755320343574,-1.2881130086386292, ,0.015074970859169307,0.014827647118511058,0.009364380670194005,-0.0008197759108312288,0.010082747547425348,-0.0006317375218396794, ,0.48030591011047363
0.01012642092583058,0.020480415293366173,-0.08008124254025312, ,0.010395357116578501,0.020338151765831588,-0.08044674390937204, ,0.00047555949868380456, ,0.0029286040121588503,0.001032592900504433,-0.009369508002321572,-0.01543816679579547,-0.007634659345164407,0.00034074998501073357, ,0.009870696518674508, ,0.017222803056521838, ,4.633903272965776e-05, ,0.1759779140049539,-0.24364449944890906,0.09063918938000001,1.6758420283283186,0.46401755320343574,-1.2881130086386292, ,0.01633056987755477,0.01621338485536832,0.009718615936546675,-0.0008197759108312288,0.00909499097420282,0.00017371173176196266, ,0.4937930107116699
0.010154546393575154,0.020490425023365136,-0.08017371379578622, ,0.010434152251222347,0.02034819584510569,-0.08056761399307626, ,0.0005035533141625697, ,0.002896995454768933,0.0009258727298694449,-0.008943329880069613,-0.012813223777274209,-0.006105454764095445,0.0001590963440648015, ,0.009446320570498002, ,0.014193492319711851, ,4.6801893539153606e-05, ,0.17614781412818684,-0.24348232205855033,0.09073511484,1.6758420283283186,0.46429082620296663,-1.288335844446022, ,0.017080083073878833,0.01604886547581106,0.00923409363478261,-0.0008197759108312288,0.011531094353785255,-0.0025334063886596203, ,0.5077810287475586
0.010210470413545801,0.020506649128401118,-0.0803472291208984, ,0.010472963502890273,0.020358156395520317,-0.08068821456199353, ,0.00045521839232488993, ,0.002749534253806396,0.0007440769024396111,-0.00834380357525801,-0.0008246086293662147,-0.005102168423055974,-0.0036039660337552327, ,0.008816611999633826, ,0.005168371268397518, ,4.707580284088805e-05, ,0.1764798916417785,-0.24315024454495868,0.09091400286000001,1.6758420283283186,0.4645640992024975,-1.288558680253415, ,0.016535448955997695,0.016324951240060344,0.008596228559093363,-0.0008202054589890548,0.011781176283920173,-0.015347277754271681, ,0.5207998752593994
0.010236637270383812,0.020513892643913338,-0.08043308141524304, ,0.010511790612314964,0.020368033720857655,-0.08080854580701258, ,0.00048780907791646843, ,0.0026762380691481096,0.0008681246661633477,-0.008972780864945013,0.001896349725508881,0.0003453097486781688,-0.0013269215520927931, ,0.009403546516558644, ,0.0019275173001840472, ,4.744280830355922e-05, ,0.17661890083351453,-0.24298806715459997,0.09099955800000001,1.6756323383848342,0.464700735702263,-1.2886700981571113, ,0.01464911107725699,0.016549867729067105,0.009228743638470453,-0.003114453834891613,0.01601513706844247,-0.018584373802269658, ,0.5354878902435303
0.010284615541321514,0.020528395565906812,-0.08059320476410135, ,0.010550633320997548,0.020377828124518157,-0.08092860791937663, ,0.0004537965293815111, ,0.002563529430643423,0.0007010569657377748,-0.007724807672461168,0.00047511694464840283,-0.006509270812360858,-0.0017828852919618357, ,0.008169199323526105, ,0.006526585256706008, ,4.7681567348424296e-05, ,0.1768891964841124,-0.24267915783963098,0.09116677941000001,1.6756323383848342,0.46497400870179384,-1.2890562914447854, ,0.015323258769331627,0.014765355773840172,0.007960425547226388,-0.003114453834891613,0.009630534221563151,-0.015649806126511113, ,0.5512340068817139
0.01031819192806541,0.020536379841593223,-0.08069189111563983, ,0.01058949137120711,0.02038753990952069,-0.08104840109068269, ,0.00047207634502632146, ,0.0028159099630192474,0.0006402704222601301,-0.008598869110257168,-0.004141578340049937,-0.008551753091212184,-0.0021962023005776808, ,0.009070823838482761, ,0.009501847455524022, ,4.7965654515317486e-05, ,0.177082264805968,-0.24247836678490114,0.09126789003,1.6756323383848342,0.46497400870179384,-1.289137970184926, ,0.016344633406557143,0.018003593541732265,0.008815058948533483,-0.003114453834891613,0.008598218604611326,-0.014219545490684105, ,0.5642540454864502
0.010346043036689175,0.02054338841400968,-0.08077891129266931, ,0.010628364505979567,0.020397169378502788,-0.0811679255128804, ,0.0005024116657615502, ,0.002843401795965725,0.0006052065957545159,-0.008593341828139084,-0.02394971989040246,-0.013725094195529104,0.0023189458008878255, ,0.009071754657842697, ,0.027603754212860362, ,4.832860995763862e-05, ,0.17724444219632673,-0.242300743928794,0.09135733404000002,1.6756323383848342,0.46511064520155926,-1.2894127455689035, ,0.01613344807182434,0.018319872887735674,0.008785886111417542,-0.003114453834891613,0.0033704395944967503,0.005848386005519528, ,0.5772809982299805
0.0103849575223815,0.020551937129942074,-0.08089859190889746, ,0.010667252469117285,0.020406716833720716,-0.08128718137827214, ,0.0005017779858623422, ,0.0027843853037877292,0.0008099150348631979,-0.008795018699452593,0.00673588571555948,-0.0012457689775899287,-0.0015163889929235789, ,0.009260729874441178, ,0.006850112706708275, ,4.867233863286618e-05, ,0.17748384691542768,-0.2420536164768188,0.09148048159000001,1.6754226484413495,0.4653839182010902,-1.2897172601164368, ,0.01621338485536832,0.016500946193439538,0.009071077175398635,-0.004498656453020218,0.016200219025020553,-0.02382117311743398, ,0.5985689163208008
0.010462501898476183,0.02057377798365997,-0.08113076615505031, ,0.010706155005187904,0.02041618257704967,-0.08140616887951206, ,0.0004000622566999956, ,0.002375214907878982,0.0003808627532906585,-0.006930644153374008,-0.010339757692188246,-0.005216876331271499,0.002251249333735314, ,0.007336247724562743, ,0.011581294046790595, ,4.884589385587767e-05, ,0.17791631995638427,-0.24162114343586225,0.09171899895,1.6754226484413495,0.4653839182010902,-1.2898806175967181, ,0.014685382475776968,0.01591429507940144,0.007101565546143559,-0.004194152566715596,0.010746770837604286,-0.005641371352145231, ,0.6099660396575928
0.010484715624463958,0.02057596148219502,-0.08119898994567537, ,0.01074507185952375,0.020425566909983785,-0.08152488820960578, ,0.0004434112931782013, ,0.0024397953541107245,0.00029712461522146444,-0.007204307929518982,-0.005085082098185272,-0.0018279222109147512,0.0006934123883653271, ,0.007612025824328295, ,0.005403641378488105, ,4.913669625182913e-05, ,0.17806305188099453,-0.24144352057975507,0.09178899861,1.6754226484413495,0.46565719120062105,-1.2901851321442515, ,0.015229809269534711,0.017688153132986165,0.007367627900092507,-0.0040300397051504806,0.014655885405051815,-0.012688687691927228, ,0.6214859485626221
0.010510077086639744,0.020580631698880716,-0.08127477207705242, ,0.010784002778220987,0.020434870133636606,-0.08164333956190968, ,0.00048179218476920724, ,0.0026692671833764858,0.0005606896228678891,-0.00788153815473102,0.010258143843483357,-0.005396977162814432,-0.004445654311985475, ,0.008340144113498472, ,0.011591240106081861, ,4.9523874091734763e-05, ,0.178217506538479,-0.24127362045652212,0.09186677601000001,1.6754226484413495,0.46579382770038646,-1.2903782287880885, ,0.01619678128664803,0.016593275320592897,0.008102142177009157,-0.003880883696268442,0.011662720155443658,-0.02777777908944002, ,0.6367778778076172
0.01053839450858014,0.020586527594720003,-0.08135254771534334, ,0.010822947508138812,0.020444092548740928,-0.08176152313012999, ,0.0005181882300678159, ,0.0027438754246366555,0.0005465332331573933,-0.00741876767624689,-0.017800124455112563,-0.011458013449829819,0.003432531607465092, ,0.0079287870922983, ,0.021169092572925534, ,4.9996384040565815e-05, ,0.1784028521274604,-0.24111144306616342,0.09194714599,1.6754226484413495,0.46593046420015194,-1.2905713254319253, ,0.01763555873601018,0.015422873648378155,0.007647053058089295,-0.003732734562971921,0.007363271504933908,0.0025374404358901757, ,0.6483299732208252
0.010596956388076433,0.020599860047821217,-0.08152680889729248, ,0.010861905796898642,0.02045323445564909,-0.08187943910832281, ,0.00046480675473400425, ,0.0031138455690199822,0.0010267896186061257,-0.01009693477423472,-0.012902650117622443,-0.002777403500960036,-2.6680275115411974e-06, ,0.010615951346145715, ,0.013198190986772015, ,5.030674097691728e-05, ,0.17874265237392628,-0.24076392008682332,0.09212603401000001,1.675212958497865,0.46606710069991736,-1.2907644220757624, ,0.01690663487590785,0.017691450700684334,0.010417796939175933,-0.000606541766436609,0.014710849063936954,-0.0038950085411151897, ,0.6603209972381592
0.010625579542049773,0.020611654215938476,-0.0816267393954163, ,0.010900877392883365,0.020462296154333027,-0.08199708769089331, ,0.000485030511620515, ,0.003029063296620831,0.0012323264050213166,-0.010154893185239629,-0.012064765711317003,-0.006145460480471489,0.005220817274579028, ,0.010668444517692093, ,0.013539761748187596, ,5.0659216639469246e-05, ,0.17889710703141076,-0.24061718816221306,0.09222973721000001,1.6750032685543808,0.4663403736994482,-1.2910689366232957, ,0.01540034754275735,0.01511820002524626,0.010500205352669746,-0.0063976935552085045,0.011100272549845453,-0.0033999008711453086, ,0.6721038818359375
0.010645723169416886,0.020617318258597354,-0.0816948454942328, ,0.01093986204523649,0.020471277944384744,-0.08211446907259466, ,0.0005328502596048496, ,0.0031521542840663654,0.0010644200669419233,-0.010445525380208692,-0.0021058548644075437,0.0002365808735641936,-0.011511046394570918, ,0.010962575754723454, ,0.0021190731153187055, ,5.1123372220533216e-05, ,0.17900522529164992,-0.24049362443622546,0.09229973687000001,1.674793578610896,0.46647701019921367,-1.2910986757868517, ,0.016535448955997695,0.018599949345055034,0.010769987505070995,0.008096019387416236,0.015109740711117434,-0.014532379868408375, ,0.6843218803405762
0.01069075849576738,0.020633706239978664,-0.08183909923679365, ,0.010978859503861384,0.020480180125015814,-0.08223158344852842, ,0.0005105059405153173, ,0.0030435729976366543,0.0012403783342343406,-0.010107141838453638,0.006557784488061946,0.007081901596358369,-0.01083445561838284, ,0.010628085017847802, ,0.009651826880919845, ,5.1513761824041107e-05, ,0.17922918454500242,-0.24027738791574718,0.09244232877000001,1.674793578610896,0.46661364669897915,-1.2912100936905482, ,0.016406801790883607,0.015523792173805133,0.010562872360742707,0.008096019387416236,0.022169264791173832,-0.02008708516335981, ,0.6966180801391602
0.010722520045948904,0.020643148421086423,-0.08193216845715534, ,0.011017869519420468,0.020489002995058386,-0.08234843101414291, ,0.0005331666157920275, ,0.003245507485587619,0.0009464339656686483,-0.009550168859997394,0.002428212615788171,0.0005343867254930129,-0.011355245500036096, ,0.0101308825550808, ,0.0024863037298218553, ,5.194735549998015e-05, ,0.17942225286685803,-0.24009976505964,0.09254473568,1.674793578610896,0.46661364669897915,-1.2912917724306885, ,0.019840464469678187,0.01742827209521961,0.009905977313432835,0.008096019387416236,0.018785219624620902,-0.01783336539146613, ,0.7082920074462891
0.010787886670806976,0.020662332804145776,-0.08213470911142506, ,0.011056891843334388,0.02049774685296452,-0.08246501196523348, ,0.00045667526034013105, ,0.002941636199827731,0.0007958699945275515,-0.009162778132764034,0.0018540513874027607,0.0072250619363481,-0.010243443758396777, ,0.009656248530903964, ,0.007459152897318382, ,5.217709320822773e-05, ,0.1798161122434435,-0.23972907388167722,0.09275473466,1.674793578610896,0.4671601926980409,-1.291982480265896, ,0.017396322925475854,0.01791860678974146,0.0094757950743605,0.008096019387416236,0.023188937375349463,-0.017458289782723194, ,0.7286660671234131
0.010820982584864566,0.020670990491915342,-0.08222994452904174, ,0.011095926227781293,0.0205064119968071,-0.08258132649794135, ,0.0004755516542923398, ,0.0024449150641029293,0.0006387538535356535,-0.007648123052570767,0.01838378853487753,0.02316749400306691,-0.010086570082544623, ,0.008054775129285017, ,0.029575267253382626, ,5.244484078549653e-05, ,0.18001690329817333,-0.23955145102557007,0.09285325270000001,1.674793578610896,0.4672968291978063,-1.292175576909733, ,0.01619125431811479,0.015440439563695212,0.00797237813813814,0.008096019387416236,0.03820256518077258,-0.031257168415417216, ,0.7403929233551025
0.010874814858554373,0.020678325219104742,-0.0823784760791728, ,0.01113497242569597,0.020514998724279095,-0.08269737480875328, ,0.00044277974590207814, ,0.002613128075041356,0.0001645592591642539,-0.007075227107289828,-0.005444472271585216,0.0014663065350312904,0.0023032877420199184, ,0.007544160437455902, ,0.00563846747272819, ,5.2625427564502736e-05, ,0.18033353534601654,-0.23919620531335573,0.09300491863,1.6750032685543808,0.4672968291978063,-1.292175576909733, ,0.017724494127469327,0.018505643829654986,0.007263479945280439,-0.004390589603320459,0.02071807186165055,-0.012847063273030163, ,0.7519450187683105
0.010897039380277935,0.02068058045309984,-0.08243501176396278, ,0.011174030190769062,0.020523507332694684,-0.08281315709450139, ,0.0004943579323309134, ,0.0029443321838688906,0.00042529658331727857,-0.007420746316835851,-0.01959634443060857,-0.019944661256042603,0.002074118942010906, ,0.007994838653255008, ,0.027960797648823605, ,5.292115512173137e-05, ,0.18048799000350102,-0.2390571961216197,0.09306325168000001,1.6750032685543808,0.46743346569757177,-1.29236867355357, ,0.018858692678551427,0.016409638865376237,0.007625089286740067,-0.004390589603320459,0.0,0.0028112168947629777, ,0.7691049575805664
0.010920106959611691,0.020683857535239755,-0.08249655853631432, ,0.01121309927744628,0.0205319381189887,-0.08292867355236132, ,0.0005437346728299014, ,0.0029881785938789002,0.00046145863355137845,-0.00779818750749123,-0.0001296837625291194,-0.014641477982551505,0.002436685403144955, ,0.008363843840088567, ,0.014642051309621535, ,5.344478415436913e-05, ,0.1806424446609855,-0.23892590966275787,0.09312676989,1.674793578610896,0.46757010219733725,-1.2924800914572663, ,0.019217687638410447,0.01683764044685429,0.00802863483870968,-0.009616804004313178,0.006772011141492394,-0.0185222148570622, ,0.7788748741149902
0.010957311892417054,0.020688136852283174,-0.08260471619589493, ,0.011252179440927624,0.02054029137971705,-0.08304392437985336, ,0.0005492804236262144, ,0.0026623507518053788,0.00019775332357064006,-0.007668870768171676,0.01639638649676823,0.009147176113635445,0.003125547575291494, ,0.008120270732034736, ,0.018775310769203322, ,5.3966728717611134e-05, ,0.1808895721129607,-0.23867105947790848,0.09323825083000001,1.6745838886674116,0.4679800116966335,-1.2928960239084961, ,0.01784112456448031,0.01946603929404529,0.007885550257425744,-0.010542401330815262,0.02985738788549169,-0.0372475708269302, ,0.7889730930328369
0.01098858152576667,0.020693503095724642,-0.08269342667867623, ,0.011291270437166592,0.020548567411056862,-0.08315890977484053, ,0.0005738479263614113, ,0.0029584110643112818,0.0008103757235484112,-0.009607710476668634,0.014017230062979821,0.006450298250248849,0.0031174525271961333, ,0.010085484888801542, ,0.015430132996524336, ,5.4529898884403345e-05, ,0.18106719496906784,-0.23847799115605287,0.09332899113000001,1.6745838886674116,0.4679800116966335,-1.2928960239084961, ,0.01671898195180951,0.017884836328396304,0.009924493158878505,-0.01007236215045892,0.025859305558387165,-0.03329491766867043, ,0.7986850738525391
0.011020987556555275,0.020704777368483383,-0.08279530420237412, ,0.011330372022869312,0.02055676650880666,-0.08327362993552845, ,0.0005885757976474159, ,0.003372919492005167,0.0012437105296712553,-0.011120373128699962,0.005586496490740229,-0.0002732909429359094,0.0037527105454507933, ,0.011687005617465737, ,0.005593161978939016, ,5.511077978293889e-05, ,0.18122937235942657,-0.23831581376569413,0.09343399062,1.6745838886674116,0.4679800116966335,-1.2929777026486367, ,0.017717875571036365,0.0172039415443203,0.011517578828633407,-0.009320361064082919,0.019912309227351082,-0.024009091053920874, ,0.8118979930877686
0.011061826316939,0.020722569554428284,-0.08293373970747187, ,0.011369483955493791,0.02056488896838638,-0.08338808506046475, ,0.0005709168849857686, ,0.003977127642338323,0.0017377315133369415,-0.013089785938910076,0.00014986019626462421,-0.010560381540299806,0.0024590206341918467, ,0.013790567465568044, ,0.010561426611112222, ,5.5637648656377786e-05, ,0.18143788614703063,-0.23812274544383852,0.09357787881000001,1.6745838886674116,0.4682532846961644,-1.29328221719617, ,0.019671836973149,0.01710779548557252,0.013579549462915603,-0.008584724061501063,0.01120143410980063,-0.018633645195101353, ,0.8223669528961182
0.011097278558955134,0.020738524046134438,-0.0830593585555046, ,0.011408605993249107,0.020572935084837714,-0.08350227534853888, ,0.0005661446467106844, ,0.00301921872481078,0.0011874199720650939,-0.010702290471703697,0.02820288822025377,0.02286512584146988,0.0017003847066284384, ,0.01118323160982669, ,0.03630725469248574, ,5.614050310393713e-05, ,0.18162323173601203,-0.23794512258773137,0.09370880410000001,1.6745838886674116,0.46866319419546076,-1.2936981496473998, ,0.01646087451144333,0.01672782329604632,0.011139029034965036,-0.007988952535476431,0.04184868962912396,-0.045570841784451366, ,0.8319718837738037
0.01112937466151788,0.02074707339456777,-0.0831614083887316, ,0.011447737895094724,0.020580905152824104,-0.08361620099898094, ,0.000579485419484476, ,0.003271553322292644,0.0007418040497442007,-0.010463318546183903,0.0009299049471679157,0.0073949518022127245,0.003904830785964232, ,0.01098791924741609, ,0.007453181196875955, ,5.665896977244323e-05, ,0.18179313185924495,-0.23775205426587576,0.09381380359000001,1.6745838886674116,0.4687998306952262,-1.2938912462912369, ,0.018589018914489868,0.021050785616342233,0.010784571103588356,-0.007499037194233651,0.028326175401923063,-0.02224326039492623, ,0.8415389060974121
0.011164665794327257,0.020756518465090107,-0.08326736468754137, ,0.01148687942073955,0.020588799466630957,-0.0837298622113612, ,0.0005880945868050238, ,0.003347387696873586,0.0010035700672761238,-0.010547713579567883,-0.0076759041422828425,-0.0019073882819718505,0.004862569213649894, ,0.011111544403444284, ,0.007909330180570294, ,5.718247350276046e-05, ,0.18197847744822634,-0.23755898594402014,0.09392269195000001,1.6745838886674116,0.4687998306952262,-1.2939729250313774, ,0.018298677508382332,0.01824941183816746,0.010902677289527722,-0.007061906978859429,0.01848947821231315,-0.010892163587777164, ,0.8518600463867188
0.011180190691667998,0.020760183307890173,-0.08331281369562445, ,0.01152603033064108,0.020596618320165832,-0.08384325918558966, ,0.0006540114516724679, ,0.0034891840603853627,0.001046668637656626,-0.010542349605197605,-0.008292195637777784,-0.003972262267607783,-0.0018865664593245481, ,0.011153970407102188, ,0.009194522597450556, ,5.7830216441626923e-05, ,0.1820634275098428,-0.2374817586152779,0.09396935839000001,1.674374198723927,0.4687998306952262,-1.2939729250313774, ,0.019684078315384938,0.018096289389487184,0.010917622700479782,0.0,0.016098679957770076,-0.008942627920956549, ,0.8623600006103516
0.011249925467887556,0.020783847489880797,-0.08353174032902748, ,0.011565190386004988,0.020604362006958487,-0.0839563921219157, ,0.0005585124460373556, ,0.003482462643824494,0.0010443868213948944,-0.011386944544631888,0.027287241481638642,0.02470645608641411,-0.006012068327904572, ,0.011953275532708946, ,0.03681035626811694, ,5.8265465716087e-05, ,0.1824727323521767,-0.23712651290306358,0.09419750543000001,1.674374198723927,0.46948301319405333,-1.2946116932900003, ,0.020544910491117296,0.020558262902614987,0.011842982542750931,0.0,0.04599814794957019,-0.046837046549856175, ,0.8722388744354248
0.011288430158026767,0.02079552338353755,-0.0836496070625767, ,0.011604359348783731,0.020612030820161234,-0.08406926122092725, ,0.0005564084713658463, ,0.003949001953682621,0.0012886856486399806,-0.012452325876739088,0.012608631758265423,0.007352530116918221,-0.005866375578941193, ,0.013126909265767997, ,0.014595786876195496, ,5.868582278330107e-05, ,0.1826812461397808,-0.23692572184833374,0.09431935669000001,1.674374198723927,0.4696196496938188,-1.2947231111936968, ,0.02208960464582653,0.020656713443289246,0.01292923012987013,0.0,0.029892197958129623,-0.03258213523137261, ,0.8818740844726562
0.011328422758020325,0.020806900604922757,-0.08377324923640397, ,0.011643536981676288,0.020619625052548694,-0.08418186668354972, ,0.0005489420047502486, ,0.0037115534840640395,0.001074871645952408,-0.011886097966787386,-0.002520134343917676,-0.0026437872456675313,0.0032467495947978826, ,0.012498412026989971, ,0.0036524581951123364, ,5.9081057859707584e-05, ,0.18288203719451063,-0.23671720806072968,0.09444639311000001,1.6741645087804424,0.4696196496938188,-1.294804789933837, ,0.01949002701960788,0.020902410034905457,0.012262364526558892,-0.008294198111957248,0.01910268075992744,-0.019215366088863102, ,0.8929400444030762
0.011360221364974398,0.020814968841797954,-0.08386867925088363, ,0.011682723048127097,0.020627144996518597,-0.08429420871104629, ,0.0005660039345783432, ,0.003979947373945199,0.000873617901935026,-0.011464910155487507,-0.016325061022137648,-0.023473544074777572,0.0018941808865916173, ,0.012167471151038544, ,0.028592213812876972, ,5.961902733342489e-05, ,0.18305966005061777,-0.2365395852046225,0.09454491115000001,1.6741645087804424,0.4697562861935842,-1.2949978865776741, ,0.021646200173008844,0.02191109248637053,0.011772957516629714,-0.008294198111957248,0.0,-0.006994575563835027, ,0.9013569355010986
0.01140056096371684,0.020822541170125608,-0.08398622613440018, ,0.011721917312325275,0.02063459094409129,-0.08440628750501719, ,0.0005612902505316994, ,0.003355533843736129,0.00047590453159289175,-0.008919904883488977,0.005032211269114985,-0.0030524225349965743,0.001479566121169601, ,0.009542054057179707, ,0.0058856076254988655, ,6.013712795126854e-05, ,0.1833145102354672,-0.23629245775264732,0.09466676241000001,1.6741645087804424,0.4701661956928806,-1.295413819028904, ,0.021785340119024516,0.019486024960671616,0.009223399837869139,-0.007662145803649978,0.02078931820370318,-0.025439928529747982, ,0.9108901023864746
0.011436364668836735,0.020826933015990933,-0.08408012910076235, ,0.011761119539203956,0.020641963186910153,-0.08451810326739848, ,0.0005757611780400059, ,0.003995451622181573,0.0005782728918185236,-0.010501147381470854,0.010467169123049767,0.0023744823002569042,0.0005309691830744117, ,0.011250427970969713, ,0.01073311082337529, ,6.067333757755249e-05, ,0.18355391495456816,-0.23607622123216904,0.09476398416000001,1.6741645087804424,0.47043946869241143,-1.2956366548362968, ,0.026746601341169893,0.02285021467817741,0.010895219917920657,-0.007182218913394798,0.031268858327679824,-0.033850178433054795, ,0.919173002243042
0.011479538079544063,0.020835262404555514,-0.08419059556541758, ,0.011800329494439337,0.020649262016241877,-0.08462965620046195, ,0.0005746977619313478, ,0.003995451622181573,0.0005782728918185236,-0.010501147381470854,0.010467169123049767,0.0023744823002569042,0.0005309691830744117, ,0.011250427970969713, ,0.01073311082337529, ,6.119714273979879e-05, ,0.18355391495456816,-0.23607622123216904,0.09476398416000001,1.6741645087804424,0.47043946869241143,-1.2956366548362968, ,0.026746601341169893,0.02285021467817741,0.010895219917920657,-0.007182218913394798,0.031268858327679824,-0.033850178433054795, ,0.927314043045044
0.011479538079544063,0.020835262404555514,-0.08419059556541758, ,0.011839546944450025,0.020656487722976426,-0.08474094650681437, ,0.0006815078343503547, ,0.004253747570098921,0.0009519421465593451,-0.011944694911017123,-0.0009245414850599904,-0.007577694803790478,0.0007591508182522557, ,0.012715199517026732, ,0.007633871386551602, ,6.191515826685685e-05, ,0.18381648787229177,-0.23585998471169076,0.09487805768,1.6741645087804424,0.47043946869241143,-1.2957183335764373, ,0.02546201812676973,0.02248209939788457,0.012367089689440995,-0.006768984777960414,0.019749424881587846,-0.022190143316186763, ,0.9359099864959717
0.011505900463096873,0.020841840386050088,-0.08426907823791507, ,0.011878771656395998,0.02066364059762725,-0.08485197438939741, ,0.0007145320250339944, ,0.004377211482550814,0.0010048370462015315,-0.012115686419234002,-0.0028973064466641138,-0.015304908508810697,-0.0008357922951047193, ,0.012921282260735772, ,0.015576724560994043, ,6.268212083068206e-05, ,0.1839786652626505,-0.2357132527870805,0.09495972395,1.6741645087804424,0.4707127416919423,-1.2960228481239708, ,0.025738253745177863,0.02229721371204671,0.012532503162863888,-0.006517201646723131,0.012013970136450674,-0.02036825526130766, ,0.9454059600830078
0.011529722888757298,0.020847357846375335,-0.08434143725443183, ,0.011918003398178209,0.020670720930331447,-0.08496274005148625, ,0.0007536441598880148, ,0.0043795241990718,0.001284463621536059,-0.01330879883307825,0.011903609788812023,0.004005314371100529,-0.005602021409653958, ,0.014069619944570287, ,0.012559381022935951, ,6.35080749690209e-05, ,0.18412539718726076,-0.23558196632821868,0.09503490877000001,1.6739548188369582,0.4709860146914732,-1.2962456839313636, ,0.024783740286881895,0.02270261759772028,0.013815101058109283,-0.0013385254996190951,0.02949762902317996,-0.034230920296885285, ,0.9540750980377197
0.011605432730916871,0.020878681366007085,-0.08462803215707859, ,0.01195724193843735,0.020677729010849896,-0.08507324369668938, ,0.0006019675095401885, ,0.004713824618468323,0.0019035748811418217,-0.016579946398120864,0.031382631044605216,0.03209128136972983,0.005404254069311809, ,0.017341809664113868, ,0.04488561705418888, ,6.403674994057311e-05, ,0.18456559296109157,-0.2351494932872621,0.09533564805000001,1.673535438949989,0.47289892568818936,-1.297887213323254, ,0.02440137350436379,0.024189890787272697,0.017276368242950108,-0.012041068901979314,0.06029110554911372,-0.056289803372396405, ,0.9623880386352539
0.011655296624266991,0.020894763153073977,-0.08478001775558093, ,0.011996487046553435,0.020684665128567512,-0.08518348552894847, ,0.0005686284624495001, ,0.005033599359152874,0.0014433737494003278,-0.014400083255291376,-0.043444188465206784,-0.042252198566491456,0.009366685595629006, ,0.015322625364089707, ,0.060602352890882775, ,6.449429084802547e-05, ,0.18481272041306673,-0.23491008856816115,0.09549249914,1.673535438949989,0.47289892568818936,-1.2980505708035353, ,0.025675579425993175,0.02296078915036796,0.014831295642458102,-0.012041068901979314,-0.013904458397358804,0.018740983001674545, ,0.9710218906402588
0.011705118200747587,0.020908057910065947,-0.08492057199300526, ,0.01203573849264473,0.02069152957249324,-0.08529346575253675, ,0.0005433636482906102, ,0.0050972944332005965,0.0009678181050788618,-0.01361004165605072,-0.0420236534813167,-0.04041260401527259,0.008622684360779289, ,0.014565449402702688, ,0.05830236314450806, ,6.489737879337305e-05, ,0.1850830160636646,-0.23467068384906017,0.09563768362000001,1.673535438949989,0.47289892568818936,-1.2980505708035353, ,0.028454855040021224,0.026128012543631823,0.01398490914837577,-0.012041068901979314,-0.009213372706711895,0.014280395156726283, ,0.9855949878692627
0.011758670668140184,0.020915885522639167,-0.08505305532121576, ,0.012074996047567132,0.020698322631260247,-0.08540318457205946, ,0.0005196016259319507, ,0.0048709877611624545,0.0005197340202087372,-0.011426835957809975,-0.024495050901513958,-0.03399234839316333,0.005763448919628069, ,0.012432587229851065, ,0.041898533066583095, ,6.525020832676381e-05, ,0.1853996481115078,-0.2343926654655881,0.09577379407000002,1.673535438949989,0.47276228918842395,-1.2977757954195577, ,0.03131912262655801,0.02529910465435105,0.011781665325443788,-0.011698165214449168,0.0,-0.0025815804550676467, ,0.9948959350585938
0.011801058594198454,0.02091819034734896,-0.08514833785949989, ,0.012114259482913267,0.02070504459312617,-0.08551264219245262, ,0.0005255887710397595, ,0.0038558542169455303,-0.00021336782879288546,-0.007922781858556271,-0.0230059242167977,-0.029625198926867373,0.005225167749590831, ,0.008813830605983347, ,0.0375089979779345, ,6.560744440096801e-05, ,0.18569311196072832,-0.23415326074648712,0.09587231211000001,1.673535438949989,0.47289892568818936,-1.297887213323254, ,0.027152200732037418,0.023861438661923758,0.008098023141840367,-0.010840311206532708,0.0,-0.002502109844155012, ,1.003101110458374
0.01183725374331001,0.020912168340109276,-0.08521879015717082, ,0.012153528571011683,0.02071169574597327,-0.085621838818983, ,0.000550152025740094, ,0.0038184329933212678,-0.0007700916792465954,-0.0074787436036559355,-0.027827233823096015,-0.02993495029975775,0.0036562730225727516, ,0.008432382676809316, ,0.04087121442162123, ,6.600196447865052e-05, ,0.18595568487845196,-0.2338906878287635,0.09594360806,1.673535438949989,0.47289892568818936,-1.297887213323254, ,0.02762647498063196,0.028809029009857556,0.0075349155723746465,-0.010134699772383985,0.0,-0.0024137992449940406, ,1.0113799571990967
0.01183725374331001,0.020912168340109276,-0.08521879015717082, ,0.012192803084926295,0.020718276377308362,-0.0857307746572467, ,0.0006527921230227203, ,0.0038184329933212678,-0.0007700916792465954,-0.0074787436036559355,-0.027827233823096015,-0.02993495029975775,0.0036562730225727516, ,0.008432382676809316, ,0.04087121442162123, ,6.668765101323275e-05, ,0.18595568487845196,-0.2338906878287635,0.09594360806,1.673535438949989,0.47289892568818936,-1.297887213323254, ,0.02762647498063196,0.028809029009857556,0.0075349155723746465,-0.010134699772383985,0.0,-0.0024137992449940406, ,1.017927885055542
0.01187450113117106,0.020908360323865137,-0.085304148869999, ,0.012232082798455222,0.02072478677426332,-0.08583944991316945, ,0.0006694110125405098, ,0.003925934685794308,-4.1910228784258415e-05,-0.009516677545002808,-0.021968678068406494,-0.023178744783270224,0.0035779961895183385, ,0.010294749687095858, ,0.03193551232940502, ,6.73928356165385e-05, ,0.18621053506330137,-0.2336126694452914,0.09603045949000001,1.673535438949989,0.47303556218795484,-1.2979986312269505, ,0.024770801764153166,0.026142408142829414,0.009700859634591961,-0.009490798937428114,0.0038218654466062683,-0.005447771516165743, ,1.0261170864105225
0.011900595053415165,0.020910795351168347,-0.08537553206151424, ,0.012271367486130289,0.020731227223594807,-0.0859478647930057, ,0.0007051820083058228, ,0.0041494346163013975,0.0004359163935411614,-0.01130159344684957,-0.009508567973360494,-0.009037162186354086,0.003389511741940935, ,0.012047150915257574, ,0.013118040284776793, ,6.815041938321617e-05, ,0.18638043518653433,-0.23344276932205849,0.09610434802000001,1.673535438949989,0.47330883518748573,-1.2982214670343433, ,0.024777269336415348,0.025696436923496015,0.011618389146608317,-0.009097761639904797,0.01814583504639084,-0.017077138801712976, ,1.035862922668457
0.011951757872677517,0.020920066068413273,-0.08552838336855711, ,0.012310656923215969,0.02073759801168487,-0.08605601950333766, ,0.0006637040085232236, ,0.004453977037756048,0.001062903096170641,-0.013714564921560308,0.046220122405413136,0.05148765830732644,-0.0035261235325427897, ,0.0144588023512461, ,0.06919015961793439, ,6.882589836592837e-05, ,0.18671251270012598,-0.2331338600070895,0.09626379169,1.6733257490065043,0.47412865418607836,-1.299053331936803, ,0.02891436366802888,0.025949396105679735,0.01437618368231047,-0.0018393779800956309,0.082285246493516,-0.070382251033952, ,1.0427350997924805
0.012002834392267148,0.020930970971096148,-0.085677585530872, ,0.01234995088570898,0.020743899424540864,-0.08616391425107547, ,0.0006261000300628397, ,0.0044503387310107735,0.0009104968407850442,-0.013192150620143613,-0.004106112763607218,0.008680974983839865,-0.000351599604883751, ,0.013952324440836718, ,0.009603077066294447, ,6.942760751961469e-05, ,0.18699825381647228,-0.2328481188907432,0.09641805020000001,1.6733257490065043,0.4744019271856092,-1.2994395252244768, ,0.025530519655224855,0.025794221679388635,0.01366107334476844,-0.0018393779800956309,0.03542973088734078,-0.020418326494609413, ,1.0494070053100586
0.012002834392267148,0.020930970971096148,-0.085677585530872, ,0.012389249150337026,0.020750131747795456,-0.0862715492434556, ,0.0007313084724001906, ,0.0044503387310107735,0.0009104968407850442,-0.013192150620143613,-0.004106112763607218,0.008680974983839865,-0.000351599604883751, ,0.013952324440836718, ,0.009603077066294447, ,7.020034694435358e-05, ,0.18699825381647228,-0.2328481188907432,0.09641805020000001,1.6733257490065043,0.4744019271856092,-1.2994395252244768, ,0.025530519655224855,0.025794221679388635,0.01366107334476844,-0.0018393779800956309,0.03542973088734078,-0.020418326494609413, ,1.056041955947876
0.012058702728070185,0.02094168829230799,-0.08583259469005712, ,0.012428551494558304,0.02075629526670721,-0.08637892468804184, ,0.0006852993146882461, ,0.005416570547392111,0.0013927677162743064,-0.01627518990496285,-0.019580426793390917,-0.009087782576175046,-0.0009663252134518046, ,0.017209324357713066, ,0.021586564424596454, ,7.088477660071709e-05, ,0.18729944039856702,-0.23254693230864842,0.09657749387,1.6733257490065043,0.4744019271856092,-1.2994395252244768, ,0.028352835840594795,0.028566207573290422,0.01682028671594509,-0.0018393779800956309,0.02020255719648511,-0.008001587374616558, ,1.0631420612335205
0.012114159160812779,0.02095921985978855,-0.08600158633562116, ,0.012467857696560726,0.02076239026616018,-0.0864860407927226, ,0.0006313007715214659, ,0.005744197448620812,0.001999334719510055,-0.01725570925611889,-0.03219109330092713,-0.028530278765449172,-0.00033489069779762016, ,0.01829624676213915, ,0.04301443669792284, ,7.146924998747103e-05, ,0.1875774587820391,-0.23228435939092482,0.09675249302000001,1.6733257490065043,0.47453856368537467,-1.2995509431281733, ,0.02796844726155932,0.024307618227067312,0.01787745400673401,-0.0018393779800956309,0.0,0.008341944128591499, ,1.070094108581543
0.012114159160812779,0.02095921985978855,-0.08600158633562116, ,0.012507167535260886,0.020768417030664527,-0.08659289776571233, ,0.0007351941983887907, ,0.005744197448620812,0.001999334719510055,-0.01725570925611889,-0.03219109330092713,-0.028530278765449172,-0.00033489069779762016, ,0.01829624676213915, ,0.04301443669792284, ,7.221936217184317e-05, ,0.1875774587820391,-0.23228435939092482,0.09675249302000001,1.6733257490065043,0.47453856368537467,-1.2995509431281733, ,0.02796844726155932,0.024307618227067312,0.01787745400673401,-0.0018393779800956309,0.0,0.008341944128591499, ,1.0770890712738037
0.012169262557739145,0.02097801184853182,-0.08617326587018698, ,0.012546480790303464,0.020774375844356586,-0.08669949581554977, ,0.0006787335062982601, ,0.006178262798025627,0.002049762866123523,-0.01839054504553827,-0.016202518893337056,-0.018919461168151266,0.0022732996946048492, ,0.019508577756483902, ,0.024909145423608132, ,7.286588963056769e-05, ,0.18787092263125965,-0.23203723193894962,0.09693138104000001,1.6731160590630199,0.47494847318467104,-1.299803518099122, ,0.03170629520830965,0.02658922430890187,0.019099294388489212,-0.0071368381709325315,0.014715614452610434,-0.010844003980591805, ,1.0880389213562012
0.012213735351521919,0.02099698992666719,-0.08632728686851843, ,0.012585797242060381,0.020780266990998802,-0.08680583515109785, ,0.0006437447786161056, ,0.005206583744281218,0.0022281381943210325,-0.018480308763763963,0.063212582597977,0.07507052968149266,0.0027738722315317987, ,0.01932860383222898, ,0.098139761920821, ,7.344625407882772e-05, ,0.18811805008323484,-0.23182871815134556,0.09709341729000001,1.6731160590630199,0.47576829218326366,-1.3004720255213007, ,0.02902934890133704,0.025211727300337616,0.01944909831501832,-0.0070222798182212895,0.1076767155225568,-0.08688244163708406, ,1.094512939453125
0.012278634964464663,0.021016747490360345,-0.08652636307935348, ,0.012625116671630104,0.020786090753980007,-0.08691191598154249, ,0.0005673650886548096, ,0.0048239822168847585,0.0007972558268091526,-0.013443851253323499,-0.0013505792088594985,0.002009649471645358,-8.013664507343837e-05, ,0.014305368146387892, ,0.0024212220143181975, ,7.389401197136373e-05, ,0.18847329579544916,-0.23151980883637657,0.09730082369000001,1.6729063691195354,0.4763148381823254,-1.3009176971360863, ,0.02841225795163796,0.027183311818525,0.013923786293706296,-0.0048927990934523255,0.032129859093565194,-0.02552594442451505, ,1.101064920425415
0.012278634964464663,0.021016747490360345,-0.08652636307935348, ,0.01266443886083654,0.020791847416315772,-0.08701773851639308, ,0.0006639838174886756, ,0.0048239822168847585,0.0007972558268091526,-0.013443851253323499,-0.0013505792088594985,0.002009649471645358,-8.013664507343837e-05, ,0.014305368146387892, ,0.0024212220143181975, ,7.461437317913992e-05, ,0.18847329579544916,-0.23151980883637657,0.09730082369000001,1.6729063691195354,0.4763148381823254,-1.3009176971360863, ,0.02841225795163796,0.027183311818525,0.013923786293706296,-0.0048927990934523255,0.032129859093565194,-0.02552594442451505, ,1.1060199737548828
0.012327533295616696,0.021022402932807004,-0.08665659218349311, ,0.01270376359222863,0.02079753726064806,-0.087123302965481, ,0.0006402599164620119, ,0.004671787119095431,0.0004193135463171943,-0.012580970643036114,-0.01513447789228157,-0.010970114998413851,-0.0007643126946022178, ,0.013426922248125504, ,0.018692124784561205, ,7.528927884676487e-05, ,0.18874359144604702,-0.23123406772003027,0.09743434156000001,1.6729063691195354,0.4763148381823254,-1.3009176971360863, ,0.02712116077692792,0.028852825040580957,0.01292923012987013,-0.004585035695283409,0.017526653280739712,-0.01363837603254912, ,1.1108388900756836
0.012327533295616696,0.021022402932807004,-0.08665659218349311, ,0.012743090649079305,0.020803160569246013,-0.08722860953895925, ,0.0007402425163087635, ,0.004671787119095431,0.0004193135463171943,-0.012580970643036114,-0.01513447789228157,-0.010970114998413851,-0.0007643126946022178, ,0.013426922248125504, ,0.018692124784561205, ,7.611891542703659e-05, ,0.18874359144604702,-0.23123406772003027,0.09743434156000001,1.6729063691195354,0.4763148381823254,-1.3009176971360863, ,0.02712116077692792,0.028852825040580957,0.01292923012987013,-0.004585035695283409,0.017526653280739712,-0.01363837603254912, ,1.1156671047210693
0.012377594439241357,0.02102758197885802,-0.08678755954352958, ,0.012782419815384737,0.020808717624005622,-0.08733365844730201, ,0.0007141492867013386, ,0.005276010767284643,0.0006350478051364676,-0.013330225626447558,-0.02929803768307407,-0.03158871868153068,-0.0010359582132704753, ,0.014350417784277618, ,0.04308389187517073, ,7.689867873429218e-05, ,0.18903705529526754,-0.23094060387080972,0.09756915572000001,1.6729063691195354,0.47645147468209087,-1.3010291150397828, ,0.030592179741608886,0.02841225795163796,0.013719906563307495,-0.004307282370062072,0.0,0.0006317952738253592, ,1.120635986328125
0.012377594439241357,0.02102758197885802,-0.08678755954352958, ,0.012821750875863748,0.02081420870645006,-0.08743844990130412, ,0.0008163708418452004, ,0.005276010767284643,0.0006350478051364676,-0.013330225626447558,-0.02929803768307407,-0.03158871868153068,-0.0010359582132704753, ,0.014350417784277618, ,0.04308389187517073, ,7.783426149090932e-05, ,0.18903705529526754,-0.23094060387080972,0.09756915572000001,1.6729063691195354,0.47645147468209087,-1.3010291150397828, ,0.030592179741608886,0.02841225795163796,0.013719906563307495,-0.004307282370062072,0.0,0.0006317952738253592, ,1.1264739036560059
0.01243621152904136,0.021038673569315297,-0.0869478632962309, ,0.012861083615956547,0.020819634097729817,-0.0875429841120804, ,0.0007633238931210596, ,0.00566892097596839,0.0014712249574804232,-0.0167464481246045,0.027106752306454856,0.032377331333804445,-0.0008684667927309371, ,0.017741045422898765, ,0.042226369578952004, ,7.867658439814036e-05, ,0.1894000237403561,-0.23063169455584076,0.09773637713000001,1.6729063691195354,0.4769980206811526,-1.3015564653947092, ,0.033807246725497245,0.028583416132069512,0.017523445016501653,-0.004046609323927961,0.06835254061534818,-0.05439825408965125, ,1.1316781044006348
0.01243621152904136,0.021038673569315297,-0.0869478632962309, ,0.012900417821824451,0.020824994078622944,-0.08764726129106468, ,0.0008662008786531389, ,0.00566892097596839,0.0014712249574804232,-0.0167464481246045,0.027106752306454856,0.032377331333804445,-0.0008684667927309371, ,0.017741045422898765, ,0.042226369578952004, ,7.967369060930922e-05, ,0.1894000237403561,-0.23063169455584076,0.09773637713000001,1.6729063691195354,0.4769980206811526,-1.3015564653947092, ,0.033807246725497245,0.028583416132069512,0.017523445016501653,-0.004046609323927961,0.06835254061534818,-0.05439825408965125, ,1.1368439197540283
0.012494286089801576,0.021057102662092583,-0.08713925636054248, ,0.01293975328034892,0.02083028892953498,-0.08775128165000999, ,0.0007902280949691943, ,0.0061864196322707465,0.0021698185136112802,-0.020273626206902796,0.04706097768359046,0.05379046303431524,-0.006179429219514726, ,0.02130727152466432, ,0.07147129569980004, ,8.05417331654372e-05, ,0.189739823986822,-0.230330507973746,0.09793730208000001,1.6726966791760507,0.4780911126792762,-1.302529487364421, ,0.033747134266881494,0.030308828348281944,0.021238415360000002,0.0,0.08905535817285946,-0.07506263104364477, ,1.141676902770996
0.012494286089801576,0.021057102662092583,-0.08713925636054248, ,0.012979089779130528,0.02083551893049929,-0.08785504540098746, ,0.0008924617177867689, ,0.0061864196322707465,0.0021698185136112802,-0.020273626206902796,0.04706097768359046,0.05379046303431524,-0.006179429219514726, ,0.02130727152466432, ,0.07147129569980004, ,8.156185310006174e-05, ,0.189739823986822,-0.230330507973746,0.09793730208000001,1.6726966791760507,0.4780911126792762,-1.302529487364421, ,0.033747134266881494,0.030308828348281944,0.021238415360000002,0.0,0.08905535817285946,-0.07506263104364477, ,1.146543025970459
0.012565349285445873,0.021082373378699813,-0.08736289276162201, ,0.013018427106488364,0.020840684361177343,-0.08795855275638585, ,0.000786450203429082, ,0.007219607014085146,0.0023675840840904653,-0.02211039738265569,-0.0028023667080227864,0.0037737402453865906,-0.004397407411783534, ,0.02337943224828211, ,0.004699903229150187, ,8.240703975236892e-05, ,0.19010279243191053,-0.2300138759259028,0.09817063428000002,1.6726966791760507,0.4786376586783379,-1.3030568377193472, ,0.03679602231813524,0.032599430284600064,0.023018513757225436,0.0,0.04138872422491818,-0.02809263405546234, ,1.151460886001587
0.012565349285445873,0.021082373378699813,-0.08736289276162201, ,0.013057765051459377,0.020845785500858312,-0.08806180392891075, ,0.0008870873295911247, ,0.007219607014085146,0.0023675840840904653,-0.02211039738265569,-0.0028023667080227864,0.0037737402453865906,-0.004397407411783534, ,0.02337943224828211, ,0.004699903229150187, ,8.340062082431616e-05, ,0.19010279243191053,-0.2300138759259028,0.09817063428000002,1.6726966791760507,0.4786376586783379,-1.3030568377193472, ,0.03679602231813524,0.032599430284600064,0.023018513757225436,0.0,0.04138872422491818,-0.02809263405546234, ,1.1563339233398438
0.012638634996732777,0.021105139304468157,-0.0875932469314999, ,0.013097103403797458,0.020850822628460036,-0.08816479913158463, ,0.0007755914964683022, ,0.007868412751081588,0.0024706375273207126,-0.024450740056004634,-0.04071861050010189,-0.03493726826208805,0.004249718155022301, ,0.025804159709223205, ,0.053652672027684256, ,8.421266044409259e-05, ,0.19045031541125063,-0.2296663529465627,0.09840915164000001,1.6724869892325662,0.4789109316778688,-1.30327967352674, ,0.03534336743332245,0.036597355016764664,0.02524375835182251,-0.009980323747950558,0.0028222648506817122,0.0032472122509883167, ,1.1617639064788818
0.012638634996732777,0.021105139304468157,-0.0875932469314999, ,0.013136441953972428,0.02085579602252841,-0.08826753857774539, ,0.0008744444311224842, ,0.007868412751081588,0.0024706375273207126,-0.024450740056004634,-0.04071861050010189,-0.03493726826208805,0.004249718155022301, ,0.025804159709223205, ,0.053652672027684256, ,8.516928575146215e-05, ,0.19045031541125063,-0.2296663529465627,0.09840915164000001,1.6724869892325662,0.4789109316778688,-1.30327967352674, ,0.03534336743332245,0.036597355016764664,0.02524375835182251,-0.009980323747950558,0.0028222648506817122,0.0032472122509883167, ,1.1673479080200195
0.012638634996732777,0.021105139304468157,-0.0875932469314999, ,0.01317578049316959,0.020860705961238186,-0.08837002248104645, ,0.0009755271385247368, ,0.007868412751081588,0.0024706375273207126,-0.024450740056004634,-0.04071861050010189,-0.03493726826208805,0.004249718155022301, ,0.025804159709223205, ,0.053652672027684256, ,8.64042375413729e-05, ,0.19045031541125063,-0.2296663529465627,0.09840915164000001,1.6724869892325662,0.4789109316778688,-1.30327967352674, ,0.03534336743332245,0.036597355016764664,0.02524375835182251,-0.009980323747950558,0.0028222648506817122,0.0032472122509883167, ,1.1715500354766846
0.012719142615331913,0.021130876431930047,-0.08783580245013241, ,0.013215118813288726,0.020865552722392555,-0.08847225105545631, ,0.0008493855938271902, ,0.008534077051891895,0.0025229763622560096,-0.024835838345834343,-0.038904701967503806,-0.038951248759454875,0.004124560369546612, ,0.026382091410510764, ,0.055052394733755505, ,8.743875912966715e-05, ,0.19083645205496186,-0.22931110723434836,0.0986606319,1.6724869892325662,0.47904756817763416,-1.3033910914304365, ,0.04191561022900653,0.03705464332622834,0.02573313654281099,-0.009980323747950558,0.005419731803068082,0.001032536925358837, ,1.1752779483795166
0.012719142615331913,0.021130876431930047,-0.08783580245013241, ,0.01325445670694338,0.020870336583423556,-0.08857422451525677, ,0.0009485300920899294, ,0.008534077051891895,0.0025229763622560096,-0.024835838345834343,-0.038904701967503806,-0.038951248759454875,0.004124560369546612, ,0.026382091410510764, ,0.055052394733755505, ,8.861810756538452e-05, ,0.19083645205496186,-0.22931110723434836,0.0986606319,1.6724869892325662,0.47904756817763416,-1.3033910914304365, ,0.04191561022900653,0.03705464332622834,0.02573313654281099,-0.009980323747950558,0.005419731803068082,0.001032536925358837, ,1.1787688732147217
0.0128039569031854,0.021153823566493115,-0.08808077522546881, ,0.013293793967460051,0.02087505782139251,-0.08867594307504414, ,0.0008196800957366436, ,0.0073432599806910435,0.0017935316160529226,-0.020959769495251596,0.018461599850531318,0.023244508532460992,0.003932575895294314, ,0.022281206432684015, ,0.029683898005931294, ,8.959446604654846e-05, ,0.19129981602741533,-0.2289172478577629,0.09891600103,1.6724869892325662,0.479594114176696,-1.3037550843050816, ,0.04257377369155261,0.03517306951759481,0.02191033221458047,-0.009980323747950558,0.0693356638907426,-0.05325960815256093, ,1.181976079940796
0.0128039569031854,0.021153823566493115,-0.08808077522546881, ,0.01333313038887753,0.020879716712989632,-0.08877740694972686, ,0.0009167632760641517, ,0.0073432599806910435,0.0017935316160529226,-0.020959769495251596,0.018461599850531318,0.023244508532460992,0.003932575895294314, ,0.022281206432684015, ,0.029683898005931294, ,9.07120029313531e-05, ,0.19129981602741533,-0.2289172478577629,0.09891600103,1.6724869892325662,0.479594114176696,-1.3037550843050816, ,0.04257377369155261,0.03517306951759481,0.02191033221458047,-0.009980323747950558,0.0693356638907426,-0.05325960815256093, ,1.1853020191192627
0.0128039569031854,0.021153823566493115,-0.08808077522546881, ,0.013372465765945689,0.02088431353453456,-0.08887861635452636, ,0.0010160651807729288, ,0.0073432599806910435,0.0017935316160529226,-0.020959769495251596,0.018461599850531318,0.023244508532460992,0.003932575895294314, ,0.022281206432684015, ,0.029683898005931294, ,9.197279020463138e-05, ,0.19129981602741533,-0.2289172478577629,0.09891600103,1.6724869892325662,0.479594114176696,-1.3037550843050816, ,0.04257377369155261,0.03517306951759481,0.02191033221458047,-0.009980323747950558,0.0693356638907426,-0.05325960815256093, ,1.1886889934539795
0.012885202961504645,0.02116923667371376,-0.08829789822989106, ,0.013411799894125262,0.020888848561976363,-0.08897957150497575, ,0.0009058699004900129, ,0.008804353997567852,0.0016288888444193652,-0.023433500168191772,0.01123672634509811,0.013307244978655252,0.0018858605730496473, ,0.02508582983109402, ,0.017416650702084587, ,9.306002562643974e-05, ,0.1917940709313657,-0.22852338848117745,0.09914285178000001,1.6722772992890815,0.48027729667552316,-1.3043121738235637, ,0.05319335289151949,0.04335173209614928,0.0244682204608295,-0.009608185563957134,0.06991863402858026,-0.054016038227517583, ,1.1920089721679688
0.012885202961504645,0.02116923667371376,-0.08829789822989106, ,0.013451132569586516,0.02089332207089374,-0.089080272616919, ,0.0010042484109175245, ,0.008804353997567852,0.0016288888444193652,-0.023433500168191772,0.01123672634509811,0.013307244978655252,0.0018858605730496473, ,0.02508582983109402, ,0.017416650702084587, ,9.428844658689717e-05, ,0.1917940709313657,-0.22852338848117745,0.09914285178000001,1.6722772992890815,0.48027729667552316,-1.3043121738235637, ,0.05319335289151949,0.04335173209614928,0.0244682204608295,-0.009608185563957134,0.06991863402858026,-0.054016038227517583, ,1.19527006149292
0.012885202961504645,0.02116923667371376,-0.08829789822989106, ,0.01349046358920899,0.020897734336495225,-0.0891807199065113, ,0.0011042771659663855, ,0.008804353997567852,0.0016288888444193652,-0.023433500168191772,0.01123672634509811,0.013307244978655252,0.0018858605730496473, ,0.02508582983109402, ,0.017416650702084587, ,9.565925537850284e-05, ,0.1917940709313657,-0.22852338848117745,0.09914285178000001,1.6722772992890815,0.48027729667552316,-1.3043121738235637, ,0.05319335289151949,0.04335173209614928,0.0244682204608295,-0.009608185563957134,0.06991863402858026,-0.054016038227517583, ,1.1984810829162598
0.012977811096921409,0.021188577234857793,-0.0885521736610161, ,0.013529792750580175,0.02090208563361919,-0.08928091359021756, ,0.0009580308282976446, ,0.009087696477242519,0.0021269331411073876,-0.02624175960827021,0.020391930540500428,0.02464008957133145,-0.00024337106140761823, ,0.027852109779825815, ,0.03198362707879459, ,9.680360212110081e-05, ,0.19234238496543563,-0.22806774724159823,0.09940859123000001,1.6722772992890815,0.48109711567411584,-1.3051440387260231, ,0.05077417953904269,0.044889754758027804,0.027369091958762887,-0.008765986316798188,0.07872352003541647,-0.06449939864478266, ,1.2017030715942383
0.012977811096921409,0.021188577234857793,-0.0885521736610161, ,0.013569119851995047,0.02090637623673412,-0.08938085388481216, ,0.0010564063425024608, ,0.009087696477242519,0.0021269331411073876,-0.02624175960827021,0.020391930540500428,0.02464008957133145,-0.00024337106140761823, ,0.027852109779825815, ,0.03198362707879459, ,9.808752941017859e-05, ,0.19234238496543563,-0.22806774724159823,0.09940859123000001,1.6722772992890815,0.48109711567411584,-1.3051440387260231, ,0.05077417953904269,0.044889754758027804,0.027369091958762887,-0.008765986316798188,0.07872352003541647,-0.06449939864478266, ,1.2052528858184814
0.012977811096921409,0.021188577234857793,-0.0885521736610161, ,0.013608444692455188,0.02091060641993877,-0.08948054100737843, ,0.0011562147013225686, ,0.009087696477242519,0.0021269331411073876,-0.02624175960827021,0.020391930540500428,0.02464008957133145,-0.00024337106140761823, ,0.027852109779825815, ,0.03198362707879459, ,9.95119205711611e-05, ,0.19234238496543563,-0.22806774724159823,0.09940859123000001,1.6722772992890815,0.48109711567411584,-1.3051440387260231, ,0.05077417953904269,0.044889754758027804,0.027369091958762887,-0.008765986316798188,0.07872352003541647,-0.06449939864478266, ,1.20871901512146
0.012977811096921409,0.021188577234857793,-0.0885521736610161, ,0.01364776707166808,0.02091477645696215,-0.08957997517530841, ,0.0012570536292682939, ,0.009087696477242519,0.0021269331411073876,-0.02624175960827021,0.020391930540500428,0.02464008957133145,-0.00024337106140761823, ,0.027852109779825815, ,0.03198362707879459, ,0.00010107705339383267, ,0.19272079887627264,-0.2277433924608808,0.09960821989000002,1.6720676093455973,0.48164366167317757,-1.305589710340809, ,0.05379645213065237,0.04649531678514002,0.0287005612972973,-0.003239206814456384,0.07868161421430041,-0.06457662123097974, ,1.2137470245361328
0.013045079990369673,0.021203710095420113,-0.0887436217063811, ,0.013687086790046082,0.020918886621164052,-0.08967915660630106, ,0.0011698387458476006, ,0.009633056324153826,0.002288539762899894,-0.027500487989915265,0.01989784962180655,0.02284695764327902,-0.005916831057408547, ,0.029228582382219082, ,0.030296735205193364, ,0.0001025043168732721, ,0.19272079887627264,-0.2277433924608808,0.09960821989000002,1.6720676093455973,0.48164366167317757,-1.305589710340809, ,0.05379645213065237,0.04649531678514002,0.0287005612972973,-0.003239206814456384,0.07868161421430041,-0.06457662123097974, ,1.2184710502624512
0.01313136784905103,0.021224977537275567,-0.0889974701219743, ,0.0137264036487059,0.020922937185534767,-0.08977808551836322, ,0.0010269646410807172, ,0.009953382152258883,0.0026893778964938485,-0.02980583890192863,0.0136000692164276,0.018076244902342494,0.0064090486477829086, ,0.03153871592799519, ,0.02262054351028267, ,0.00010371307570758706, ,0.1931841628487261,-0.22732636488567268,0.09987266305,1.6718579194021128,0.4823268441720048,-1.306146799859291, ,0.051771381101184274,0.04707189561432083,0.031050314853801175,-0.016316597482357375,0.07474800817606096,-0.06138888402031687, ,1.2243740558624268
0.01313136784905103,0.021224977537275567,-0.0889974701219743, ,0.01376571744946765,0.02092692842269548,-0.08987676212980791, ,0.0011244496988708588, ,0.009953382152258883,0.0026893778964938485,-0.02980583890192863,0.0136000692164276,0.018076244902342494,0.0064090486477829086, ,0.03153871592799519, ,0.02262054351028267, ,0.00010505768501470684, ,0.1931841628487261,-0.22732636488567268,0.09987266305,1.6718579194021128,0.4823268441720048,-1.306146799859291, ,0.051771381101184274,0.04707189561432083,0.031050314853801175,-0.016316597482357375,0.07474800817606096,-0.06138888402031687, ,1.2276630401611328
0.013276167820786777,0.021259408789904174,-0.0894204722805576, ,0.013805027994854032,0.020930860604898387,-0.08997518665925455, ,0.0008338735129011969, ,0.010498706811083343,0.0015699149370024467,-0.028384691367594053,-0.022115426813233304,-0.02124879606532035,0.016390911888378337, ,0.03030475509962223, ,0.030668958439913796, ,0.0001059696121241685, ,0.19393326793752588,-0.22663131892699245,0.10031210536000001,1.6714385395151437,0.4831466631705974,-1.3068153072814694, ,0.057478462482417184,0.05438220146617236,0.029388951143911442,-0.028290055411843554,0.043274085802033735,-0.03574387341986146, ,1.2310619354248047
0.013276167820786777,0.021259408789904174,-0.0894204722805576, ,0.013844335088089707,0.020934734004026852,-0.0900733593256273, ,0.0009243858792943526, ,0.010498706811083343,0.0015699149370024467,-0.028384691367594053,-0.022115426813233304,-0.02124879606532035,0.016390911888378337, ,0.03030475509962223, ,0.030668958439913796, ,0.00010700816409945426, ,0.19393326793752588,-0.22663131892699245,0.10031210536000001,1.6714385395151437,0.4831466631705974,-1.3068153072814694, ,0.057478462482417184,0.05438220146617236,0.029388951143911442,-0.028290055411843554,0.043274085802033735,-0.03574387341986146, ,1.234363079071045
0.013276167820786777,0.021259408789904174,-0.0894204722805576, ,0.01388363853310026,0.020938548891595594,-0.09017128034815602, ,0.001017685852821053, ,0.010498706811083343,0.0015699149370024467,-0.028384691367594053,-0.022115426813233304,-0.02124879606532035,0.016390911888378337, ,0.03030475509962223, ,0.030668958439913796, ,0.00010833375025479864, ,0.19393326793752588,-0.22663131892699245,0.10031210536000001,1.6714385395151437,0.4831466631705974,-1.3068153072814694, ,0.057478462482417184,0.05438220146617236,0.029388951143911442,-0.028290055411843554,0.043274085802033735,-0.03574387341986146, ,1.2360320091247559
0.013276167820786777,0.021259408789904174,-0.0894204722805576, ,0.013922938134511776,0.02094230553875067,-0.09026894994637401, ,0.0011130052380817017, ,0.010498706811083343,0.0015699149370024467,-0.028384691367594053,-0.022115426813233304,-0.02124879606532035,0.016390911888378337, ,0.03030475509962223, ,0.030668958439913796, ,0.00010979402858012846, ,0.19393326793752588,-0.22663131892699245,0.10031210536000001,1.6714385395151437,0.4831466631705974,-1.3068153072814694, ,0.057478462482417184,0.05438220146617236,0.029388951143911442,-0.028290055411843554,0.043274085802033735,-0.03574387341986146, ,1.2377369403839111
0.013276167820786777,0.021259408789904174,-0.0894204722805576, ,0.013962233697649533,0.020946004216269815,-0.09036636834011846, ,0.0012098050130757245, ,0.010498706811083343,0.0015699149370024467,-0.028384691367594053,-0.022115426813233304,-0.02124879606532035,0.016390911888378337, ,0.03030475509962223, ,0.030668958439913796, ,0.00011139056121364892, ,0.19393326793752588,-0.22663131892699245,0.10031210536000001,1.6714385395151437,0.4831466631705974,-1.3068153072814694, ,0.057478462482417184,0.05438220146617236,0.029388951143911442,-0.028290055411843554,0.043274085802033735,-0.03574387341986146, ,1.2394700050354004
0.01338193696503834,0.021271613521382682,-0.08969336435425837, ,0.014001525028537652,0.02094964519456264,-0.09046353574953035, ,0.0010395753700436139, ,0.01103205503801655,0.0014102167695793438,-0.027263807895236067,-0.025426552975560967,-0.029173853554957416,-0.04461073160230292, ,0.029445036434811313, ,0.03869894396147844, ,0.00011273575658876481, ,0.1945356411017154,-0.2260752821600483,0.10059469658,1.671228849571659,0.48355657266989377,-1.3071495609925587, ,0.06351870251571003,0.055986396199687774,0.028292738046181175,0.03515571623027576,0.026884148505718953,-0.022386585058499612, ,1.2411830425262451
0.01338193696503834,0.021271613521382682,-0.08969336435425837, ,0.014040811933898107,0.020953228743670546,-0.09056045239505185, ,0.00113460423133172, ,0.01103205503801655,0.0014102167695793438,-0.027263807895236067,-0.025426552975560967,-0.029173853554957416,-0.04461073160230292, ,0.029445036434811313, ,0.03869894396147844, ,0.00011421458216726401, ,0.1945356411017154,-0.2260752821600483,0.10059469658,1.671228849571659,0.48355657266989377,-1.3071495609925587, ,0.06351870251571003,0.055986396199687774,0.028292738046181175,0.03515571623027576,0.026884148505718953,-0.022386585058499612, ,1.2428679466247559
0.01338193696503834,0.021271613521382682,-0.08969336435425837, ,0.014080094221149923,0.020956755133267023,-0.09065711849742833, ,0.0012310082888857034, ,0.01103205503801655,0.0014102167695793438,-0.027263807895236067,-0.025426552975560967,-0.029173853554957416,-0.04461073160230292, ,0.029445036434811313, ,0.03869894396147844, ,0.00011582844590529643, ,0.1945356411017154,-0.2260752821600483,0.10059469658,1.671228849571659,0.48355657266989377,-1.3071495609925587, ,0.06351870251571003,0.055986396199687774,0.028292738046181175,0.03515571623027576,0.026884148505718953,-0.022386585058499612, ,1.2445259094238281
0.01338193696503834,0.021271613521382682,-0.08969336435425837, ,0.014119371698408637,0.020960224632657825,-0.09075353427770562, ,0.001328432645106393, ,0.01103205503801655,0.0014102167695793438,-0.027263807895236067,-0.025426552975560967,-0.029173853554957416,-0.04461073160230292, ,0.029445036434811313, ,0.03869894396147844, ,0.0006466802953299327, ,0.1945356411017154,-0.2260752821600483,0.10059469658,1.671228849571659,0.48355657266989377,-1.3071495609925587, ,0.06351870251571003,0.055986396199687774,0.028292738046181175,0.03515571623027576,0.026884148505718953,-0.022386585058499612, ,1.2462360858917236
0.01338193696503834,0.021271613521382682,-0.08969336435425837, ,0.014158644174485034,0.020963637510781105,-0.09084969995723068, ,0.001426616745665723, ,0.01103205503801655,0.0014102167695793438,-0.027263807895236067,-0.025426552975560967,-0.029173853554957416,-0.04461073160230292, ,0.029445036434811313, ,0.03869894396147844, ,0.0006528215272223406, ,0.1945356411017154,-0.2260752821600483,0.10059469658,1.671228849571659,0.48355657266989377,-1.3071495609925587, ,0.06351870251571003,0.055986396199687774,0.028292738046181175,0.03515571623027576,0.026884148505718953,-0.022386585058499612, ,1.2479190826416016
0.01338193696503834,0.021271613521382682,-0.08969336435425837, ,0.01419791145888471,0.02096699403620756,-0.0909456157576505, ,0.0015253658520675518, ,0.01103205503801655,0.0014102167695793438,-0.027263807895236067,-0.025426552975560967,-0.029173853554957416,-0.04461073160230292, ,0.029445036434811313, ,0.03869894396147844, ,0.0006596382797601938, ,0.1945356411017154,-0.2260752821600483,0.10059469658,1.671228849571659,0.48355657266989377,-1.3071495609925587, ,0.06351870251571003,0.055986396199687774,0.028292738046181175,0.03515571623027576,0.026884148505718953,-0.022386585058499612, ,1.2496159076690674
0.013499433935493552,0.02128604605969913,-0.08998914237449072, ,0.014237173361807286,0.02097029447714051,-0.09104128190091204, ,0.0013232369803191195, ,0.012486102210680633,0.0016786448916315832,-0.03281919058746298,0.04490198068041026,0.0490479885015018,0.00010989836086008247, ,0.035154229729919884, ,0.0664970297841824, ,0.0006647824557335188, ,0.19524613252614406,-0.22546518626298456,0.10090321360000001,1.6714385395151437,0.4843763916684864,-1.3077363896745968, ,0.07628371507915659,0.06508706554078929,0.034329335172413794,-0.014383861224936612,0.1305948838739636,-0.10907120720024448, ,1.251283884048462
0.013499433935493552,0.02128604605969913,-0.08998914237449072, ,0.014276429694145347,0.020973539101416222,-0.09113669860926046, ,0.0014206577068023864, ,0.012486102210680633,0.0016786448916315832,-0.03281919058746298,0.04490198068041026,0.0490479885015018,0.00010989836086008247, ,0.035154229729919884, ,0.0664970297841824, ,0.0006705968807417409, ,0.19524613252614406,-0.22546518626298456,0.10090321360000001,1.6714385395151437,0.4843763916684864,-1.3077363896745968, ,0.07628371507915659,0.06508706554078929,0.034329335172413794,-0.014383861224936612,0.1305948838739636,-0.10907120720024448, ,1.2529358863830566
0.013499433935493552,0.02128604605969913,-0.08998914237449072, ,0.014315680267483998,0.02097672817650387,-0.09123186610524041, ,0.0015186500249631796, ,0.012486102210680633,0.0016786448916315832,-0.03281919058746298,0.04490198068041026,0.0490479885015018,0.00010989836086008247, ,0.035154229729919884, ,0.0664970297841824, ,0.0006770705688655687, ,0.19524613252614406,-0.22546518626298456,0.10090321360000001,1.6714385395151437,0.4843763916684864,-1.3077363896745968, ,0.07628371507915659,0.06508706554078929,0.034329335172413794,-0.014383861224936612,0.1305948838739636,-0.10907120720024448, ,1.2546510696411133
0.013499433935493552,0.02128604605969913,-0.08998914237449072, ,0.01435492489409975,0.020979861969505874,-0.09132678461169323, ,0.0016170653147268214, ,0.012486102210680633,0.0016786448916315832,-0.03281919058746298,0.04490198068041026,0.0490479885015018,0.00010989836086008247, ,0.035154229729919884, ,0.0664970297841824, ,0.0006841917411826993, ,0.19524613252614406,-0.22546518626298456,0.10090321360000001,1.6714385395151437,0.4843763916684864,-1.3077363896745968, ,0.07628371507915659,0.06508706554078929,0.034329335172413794,-0.014383861224936612,0.1305948838739636,-0.10907120720024448, ,1.2565479278564453
0.013499433935493552,0.02128604605969913,-0.08998914237449072, ,0.014394163386959922,0.020982940747157897,-0.0914214543517585, ,0.001715788804613419, ,0.012486102210680633,0.0016786448916315832,-0.03281919058746298,0.04490198068041026,0.0490479885015018,0.00010989836086008247, ,0.035154229729919884, ,0.0664970297841824, ,0.0006919481100806746, ,0.19524613252614406,-0.22546518626298456,0.10090321360000001,1.6714385395151437,0.4843763916684864,-1.3077363896745968, ,0.07628371507915659,0.06508706554078929,0.034329335172413794,-0.014383861224936612,0.1305948838739636,-0.10907120720024448, ,1.260329008102417
0.013602473063774486,0.021304579028680597,-0.09026690132379146, ,0.014433395559721911,0.020985964775828994,-0.09151587554887204, ,0.0015335852931308766, ,0.01456586369435383,0.003365987455126567,-0.04117581618966647,0.08620280354460744,0.0926846945790841,-0.002313227181845792, ,0.04380573130990696, ,0.12657510650399895, ,0.0006982289845810492, ,0.19587167388895624,-0.22495548589328573,0.10119487885000002,1.6714385395151437,0.48560612016637533,-1.3087391508078645, ,0.0849569754328297,0.06807528088842953,0.043284813913043486,-0.012757725094466951,0.18335218480336848,-0.15201135327904025, ,1.2625219821929932
0.013602473063774486,0.021304579028680597,-0.09026690132379146, ,0.014472621226732069,0.02098893432152206,-0.09161004842676566, ,0.0016312061632067372, ,0.01456586369435383,0.003365987455126567,-0.04117581618966647,0.08620280354460744,0.0926846945790841,-0.002313227181845792, ,0.04380573130990696, ,0.12657510650399895, ,0.0007051399266449432, ,0.19587167388895624,-0.22495548589328573,0.10119487885000002,1.6714385395151437,0.48560612016637533,-1.3087391508078645, ,0.0849569754328297,0.06807528088842953,0.043284813913043486,-0.012757725094466951,0.18335218480336848,-0.15201135327904025, ,1.2642669677734375
0.013602473063774486,0.021304579028680597,-0.09026690132379146, ,0.014511840203025277,0.020991849649873537,-0.09170397320946705, ,0.0017291396308330347, ,0.01456586369435383,0.003365987455126567,-0.04117581618966647,0.08620280354460744,0.0926846945790841,-0.002313227181845792, ,0.04380573130990696, ,0.12657510650399895, ,0.0007126693362345614, ,0.19587167388895624,-0.22495548589328573,0.10119487885000002,1.6714385395151437,0.48560612016637533,-1.3087391508078645, ,0.0849569754328297,0.06807528088842953,0.043284813913043486,-0.012757725094466951,0.18335218480336848,-0.15201135327904025, ,1.2660729885101318
0.013602473063774486,0.021304579028680597,-0.09026690132379146, ,0.014551052304323986,0.020994711026153894,-0.0917976501212984, ,0.0018272965374181277, ,0.01456586369435383,0.003365987455126567,-0.04117581618966647,0.08620280354460744,0.0926846945790841,-0.002313227181845792, ,0.04380573130990696, ,0.12657510650399895, ,0.0007208053012067043, ,0.19587167388895624,-0.22495548589328573,0.10119487885000002,1.6714385395151437,0.48560612016637533,-1.3087391508078645, ,0.0849569754328297,0.06807528088842953,0.043284813913043486,-0.012757725094466951,0.18335218480336848,-0.15201135327904025, ,1.2680668830871582
0.013602473063774486,0.021304579028680597,-0.09026690132379146, ,0.014590257347037386,0.02099751871526767,-0.09189107938687655, ,0.0019256059324122513, ,0.01456586369435383,0.003365987455126567,-0.04117581618966647,0.08620280354460744,0.0926846945790841,-0.002313227181845792, ,0.04380573130990696, ,0.12657510650399895, ,0.0007295357405632662, ,0.19587167388895624,-0.22495548589328573,0.10119487885000002,1.6714385395151437,0.48560612016637533,-1.3087391508078645, ,0.0849569754328297,0.06807528088842953,0.043284813913043486,-0.012757725094466951,0.18335218480336848,-0.15201135327904025, ,1.2697498798370361
0.013803734824870849,0.021364259572656093,-0.0908531161197389, ,0.014629455148260773,0.02100027298175361,-0.09198426123111206, ,0.0014469932804955846, ,0.01691042648100823,0.005594870151861888,-0.04984157785043813,0.06810390365549329,0.061293766087991336,0.002308653680098926, ,0.05292870656276293, ,0.09162292220719417, ,0.0007346973055987505, ,0.19698374742284458,-0.22412915347574372,0.10181191289000001,1.6710191596281745,0.48792894066238784,-1.3107149339108444, ,0.0880305580319766,0.06482031527217949,0.05239740631578948,-0.018157754999027324,0.1556249232632316,-0.13254207951651925, ,1.2714099884033203
0.013803734824870849,0.021364259572656093,-0.0908531161197389, ,0.01466864552577458,0.021002974089784864,-0.09207719587920847, ,0.0015417421892827505, ,0.01691042648100823,0.005594870151861888,-0.04984157785043813,0.06810390365549329,0.061293766087991336,0.002308653680098926, ,0.05292870656276293, ,0.09162292220719417, ,0.0007404619119107791, ,0.19698374742284458,-0.22412915347574372,0.10181191289000001,1.6710191596281745,0.48792894066238784,-1.3107149339108444, ,0.0880305580319766,0.06482031527217949,0.05239740631578948,-0.018157754999027324,0.1556249232632316,-0.13254207951651925, ,1.2730720043182373
0.013803734824870849,0.021364259572656093,-0.0908531161197389, ,0.014707828298043634,0.021005622303169057,-0.09216988355666221, ,0.0016370345696534142, ,0.01691042648100823,0.005594870151861888,-0.04984157785043813,0.06810390365549329,0.061293766087991336,0.002308653680098926, ,0.05292870656276293, ,0.09162292220719417, ,0.0007468205832422872, ,0.19698374742284458,-0.22412915347574372,0.10181191289000001,1.6710191596281745,0.48792894066238784,-1.3107149339108444, ,0.0880305580319766,0.06482031527217949,0.05239740631578948,-0.018157754999027324,0.1556249232632316,-0.13254207951651925, ,1.2747769355773926
0.013803734824870849,0.021364259572656093,-0.0908531161197389, ,0.014747003284216437,0.021008217885348644,-0.0922623244892616, ,0.0017327404012805147, ,0.01691042648100823,0.005594870151861888,-0.04984157785043813,0.06810390365549329,0.061293766087991336,0.002308653680098926, ,0.05292870656276293, ,0.09162292220719417, ,0.0007537636805524156, ,0.19698374742284458,-0.22412915347574372,0.10181191289000001,1.6710191596281745,0.48792894066238784,-1.3107149339108444, ,0.0880305580319766,0.06482031527217949,0.05239740631578948,-0.018157754999027324,0.1556249232632316,-0.13254207951651925, ,1.276479959487915
0.013803734824870849,0.021364259572656093,-0.0908531161197389, ,0.014786170304124335,0.021010761099400845,-0.09235451890308623, ,0.0018287566703454369, ,0.01691042648100823,0.005594870151861888,-0.04984157785043813,0.06810390365549329,0.061293766087991336,0.002308653680098926, ,0.05292870656276293, ,0.09162292220719417, ,0.0007612811140474717, ,0.19698374742284458,-0.22412915347574372,0.10181191289000001,1.6710191596281745,0.48792894066238784,-1.3107149339108444, ,0.0880305580319766,0.06482031527217949,0.05239740631578948,-0.018157754999027324,0.1556249232632316,-0.13254207951651925, ,1.2781600952148438
0.013803734824870849,0.021364259572656093,-0.0908531161197389, ,0.014825329178280666,0.02101325220803781,-0.09244646702450694, ,0.0019250008567946785, ,0.01691042648100823,0.005594870151861888,-0.04984157785043813,0.06810390365549329,0.061293766087991336,0.002308653680098926, ,0.05292870656276293, ,0.09162292220719417, ,0.0007693625011498828, ,0.19698374742284458,-0.22412915347574372,0.10181191289000001,1.6710191596281745,0.48792894066238784,-1.3107149339108444, ,0.0880305580319766,0.06482031527217949,0.05239740631578948,-0.018157754999027324,0.1556249232632316,-0.13254207951651925, ,1.2798280715942383
0.013975174693179984,0.021414277589838455,-0.09135890899545977, ,0.014864479727880095,0.021015691473606945,-0.09253816908018442, ,0.0015298328942143524, ,0.018863900167583263,0.005544839732786044,-0.05660458583867202,0.0017022241870816887,0.0021182624167674427,0.021117021671530633, ,0.059922208864180065, ,0.0026083506669666583, ,0.0007746071245503274, ,0.19784097077188348,-0.22341866205131505,0.10234079921000001,1.6705997797412053,0.48915866916027684,-1.3117993737842526, ,0.08877169462906527,0.07954479594171901,0.05899559822222222,-0.03999939758748385,0.10118635825171472,-0.08571022601948004, ,1.281491994857788
0.013975174693179984,0.021414277589838455,-0.09135890899545977, ,0.014903621774797732,0.021018079158090973,-0.0926296252970693, ,0.0016228700193976996, ,0.018863900167583263,0.005544839732786044,-0.05660458583867202,0.0017022241870816887,0.0021182624167674427,0.021117021671530633, ,0.059922208864180065, ,0.0026083506669666583, ,0.0007804171443780492, ,0.19784097077188348,-0.22341866205131505,0.10234079921000001,1.6705997797412053,0.48915866916027684,-1.3117993737842526, ,0.08877169462906527,0.07954479594171901,0.05899559822222222,-0.03999939758748385,0.10118635825171472,-0.08571022601948004, ,1.2831439971923828
0.013975174693179984,0.021414277589838455,-0.09135890899545977, ,0.014942755141588169,0.021020415523108037,-0.09272083590240128, ,0.001716445207864848, ,0.018863900167583263,0.005544839732786044,-0.05660458583867202,0.0017022241870816887,0.0021182624167674427,0.021117021671530633, ,0.059922208864180065, ,0.0026083506669666583, ,0.0007867846822248981, ,0.19784097077188348,-0.22341866205131505,0.10234079921000001,1.6705997797412053,0.48915866916027684,-1.3117993737842526, ,0.08877169462906527,0.07954479594171901,0.05899559822222222,-0.03999939758748385,0.10118635825171472,-0.08571022601948004, ,1.2847959995269775
0.013975174693179984,0.021414277589838455,-0.09135890899545977, ,0.014981879651485232,0.02102270082991184,-0.09281180112370842, ,0.0018104371760207189, ,0.018863900167583263,0.005544839732786044,-0.05660458583867202,0.0017022241870816887,0.0021182624167674427,0.021117021671530633, ,0.059922208864180065, ,0.0026083506669666583, ,0.0007937012531289239, ,0.19784097077188348,-0.22341866205131505,0.10234079921000001,1.6705997797412053,0.48915866916027684,-1.3117993737842526, ,0.08877169462906527,0.07954479594171901,0.05899559822222222,-0.03999939758748385,0.10118635825171472,-0.08571022601948004, ,1.286492109298706
0.013975174693179984,0.021414277589838455,-0.09135890899545977, ,0.01502099512840053,0.02102493533939195,-0.09290252118880693, ,0.0019047483755492915, ,0.018863900167583263,0.005544839732786044,-0.05660458583867202,0.0017022241870816887,0.0021182624167674427,0.021117021671530633, ,0.059922208864180065, ,0.0026083506669666583, ,0.000801157945225705, ,0.19784097077188348,-0.22341866205131505,0.10234079921000001,1.6705997797412053,0.48915866916027684,-1.3117993737842526, ,0.08877169462906527,0.07954479594171901,0.05899559822222222,-0.03999939758748385,0.10118635825171472,-0.08571022601948004, ,1.2881920337677002
0.013975174693179984,0.021414277589838455,-0.09135890899545977, ,0.015060101396923018,0.02102711931207382,-0.09299299632580034, ,0.0019992995992887024, ,0.018863900167583263,0.005544839732786044,-0.05660458583867202,0.0017022241870816887,0.0021182624167674427,0.021117021671530633, ,0.059922208864180065, ,0.0026083506669666583, ,0.0008091455562527916, ,0.19784097077188348,-0.22341866205131505,0.10234079921000001,1.6705997797412053,0.48915866916027684,-1.3117993737842526, ,0.08877169462906527,0.07954479594171901,0.05899559822222222,-0.03999939758748385,0.10118635825171472,-0.08571022601948004, ,1.2898890972137451
0.014180009056446664,0.021475580939516264,-0.09197486476613854, ,0.015099198282318253,0.021029253008118982,-0.09308322676307895, ,0.0015075091281864653, ,0.020812080969352553,0.0062878246105666285,-0.06291366557593697,-0.007516755348717408,-0.007440881946703816,0.03320634722841732, ,0.06656432053892664, ,0.010530084523700117, ,0.0008137704805702331, ,0.19878314418253887,-0.22256916143515038,0.10298246276,1.6701803998542366,0.4901151246586349,-1.3125792991101277, ,0.09470752650545987,0.08541578898152184,0.06555066469135803,-0.05394706846260293,0.10056474286280384,-0.0850031827235216, ,1.2915630340576172
0.014180009056446664,0.021475580939516264,-0.09197486476613854, ,0.015138285610527404,0.021031336687325243,-0.09317321272931896, ,0.0015973993710291308, ,0.020812080969352553,0.0062878246105666285,-0.06291366557593697,-0.007516755348717408,-0.007440881946703816,0.03320634722841732, ,0.06656432053892664, ,0.010530084523700117, ,0.0008189259337969364, ,0.19878314418253887,-0.22256916143515038,0.10298246276,1.6701803998542366,0.4901151246586349,-1.3125792991101277, ,0.09470752650545987,0.08541578898152184,0.06555066469135803,-0.05394706846260293,0.10056474286280384,-0.0850031827235216, ,1.2932789325714111
0.014180009056446664,0.021475580939516264,-0.09197486476613854, ,0.015177363208166615,0.02103337060912665,-0.0932629544534825, ,0.0016880285314230191, ,0.020812080969352553,0.0062878246105666285,-0.06291366557593697,-0.007516755348717408,-0.007440881946703816,0.03320634722841732, ,0.06656432053892664, ,0.010530084523700117, ,0.0008246063429317475, ,0.19878314418253887,-0.22256916143515038,0.10298246276,1.6701803998542366,0.4901151246586349,-1.3125792991101277, ,0.09470752650545987,0.08541578898152184,0.06555066469135803,-0.05394706846260293,0.10056474286280384,-0.0850031827235216, ,1.2949020862579346
0.014180009056446664,0.021475580939516264,-0.09197486476613854, ,0.01521643090252607,0.021035355032594037,-0.09335245216481683, ,0.0017792459450995937, ,0.020812080969352553,0.0062878246105666285,-0.06291366557593697,-0.007516755348717408,-0.007440881946703816,0.03320634722841732, ,0.06656432053892664, ,0.010530084523700117, ,0.0008308053013873829, ,0.19878314418253887,-0.22256916143515038,0.10298246276,1.6701803998542366,0.4901151246586349,-1.3125792991101277, ,0.09470752650545987,0.08541578898152184,0.06555066469135803,-0.05394706846260293,0.10056474286280384,-0.0850031827235216, ,1.296644926071167
0.014180009056446664,0.021475580939516264,-0.09197486476613854, ,0.015255488521569405,0.02103729021643469,-0.09344170609285343, ,0.0018709297997516528, ,0.020812080969352553,0.0062878246105666285,-0.06291366557593697,-0.007516755348717408,-0.007440881946703816,0.03320634722841732, ,0.06656432053892664, ,0.010530084523700117, ,0.000837515782021991, ,0.19878314418253887,-0.22256916143515038,0.10298246276,1.6701803998542366,0.4901151246586349,-1.3125792991101277, ,0.09470752650545987,0.08541578898152184,0.06555066469135803,-0.05394706846260293,0.10056474286280384,-0.0850031827235216, ,1.3011689186096191
0.014180009056446664,0.021475580939516264,-0.09197486476613854, ,0.015294535893932646,0.021039176418992944,-0.09353071646740777, ,0.0019629807674432322, ,0.020812080969352553,0.0062878246105666285,-0.06291366557593697,-0.007516755348717408,-0.007440881946703816,0.03320634722841732, ,0.06656432053892664, ,0.010530084523700117, ,0.0008447303011593066, ,0.19878314418253887,-0.22256916143515038,0.10298246276,1.6701803998542366,0.4901151246586349,-1.3125792991101277, ,0.09470752650545987,0.08541578898152184,0.06555066469135803,-0.05394706846260293,0.10056474286280384,-0.0850031827235216, ,1.302983045578003
0.014180009056446664,0.021475580939516264,-0.09197486476613854, ,0.015333572848923671,0.021041013898249958,-0.09361948351857825, ,0.002055317196333751, ,0.020812080969352553,0.0062878246105666285,-0.06291366557593697,-0.007516755348717408,-0.007440881946703816,0.03320634722841732, ,0.06656432053892664, ,0.010530084523700117, ,0.0008524410457145579, ,0.19942413101109951,-0.22200540193533197,0.10341023846000001,1.669970709910752,0.4909349436572275,-1.3132478065323063, ,0.10371250443548719,0.08412849428942444,0.06371524608000001,0.02835154922278734,0.12576153447990335,-0.1054340338984443, ,1.3047208786010742
0.01431684807492012,0.021516349986638202,-0.09238462266289169, ,0.01537259921652134,0.021042802911824095,-0.09370800747674637, ,0.0017578977986784342, ,0.02116628258737243,0.006269441917614319,-0.06084209459030392,0.030462053722769115,0.026566945556627967,-0.04548079158704389, ,0.06472308625724159, ,0.04040922657182748, ,0.0008581717846573672, ,0.19942413101109951,-0.22200540193533197,0.10341023846000001,1.669970709910752,0.4909349436572275,-1.3132478065323063, ,0.10371250443548719,0.08412849428942444,0.06371524608000001,0.02835154922278734,0.12576153447990335,-0.1054340338984443, ,1.306406021118164
0.01431684807492012,0.021516349986638202,-0.09238462266289169, ,0.015411614827374572,0.021044543716971172,-0.09379628857257571, ,0.0018476785540079265, ,0.02116628258737243,0.006269441917614319,-0.06084209459030392,0.030462053722769115,0.026566945556627967,-0.04548079158704389, ,0.06472308625724159, ,0.04040922657182748, ,0.0008643950976721505, ,0.19942413101109951,-0.22200540193533197,0.10341023846000001,1.669970709910752,0.4909349436572275,-1.3132478065323063, ,0.10371250443548719,0.08412849428942444,0.06371524608000001,0.02835154922278734,0.12576153447990335,-0.1054340338984443, ,1.3081259727478027
0.01431684807492012,0.021516349986638202,-0.09238462266289169, ,0.015450619512801758,0.021046236570584256,-0.09388432703701113, ,0.0019379260840040088, ,0.02116628258737243,0.006269441917614319,-0.06084209459030392,0.030462053722769115,0.026566945556627967,-0.04548079158704389, ,0.06472308625724159, ,0.04040922657182748, ,0.0008711046663367247, ,0.19942413101109951,-0.22200540193533197,0.10341023846000001,1.669970709910752,0.4909349436572275,-1.3132478065323063, ,0.10371250443548719,0.08412849428942444,0.06371524608000001,0.02835154922278734,0.12576153447990335,-0.1054340338984443, ,1.3105370998382568
0.01431684807492012,0.021516349986638202,-0.09238462266289169, ,0.015489613104789746,0.021047881729194185,-0.0939721231012787, ,0.0020285457760170697, ,0.02116628258737243,0.006269441917614319,-0.06084209459030392,0.030462053722769115,0.026566945556627967,-0.04548079158704389, ,0.06472308625724159, ,0.04040922657182748, ,0.0008782937415521306, ,0.19942413101109951,-0.22200540193533197,0.10341023846000001,1.669970709910752,0.4909349436572275,-1.3132478065323063, ,0.10371250443548719,0.08412849428942444,0.06371524608000001,0.02835154922278734,0.12576153447990335,-0.1054340338984443, ,1.312643051147461
0.014692348318942918,0.021599040611395587,-0.0933875245016115, ,0.015528595435993237,0.02104947944896957,-0.09405967699688465, ,0.0012054524830634882, ,0.01976007896655093,0.0023740189289504212,-0.047118740408265414,0.02103413289201405,0.012725677614266987,-0.015799865379381006, ,0.051149510108121736, ,0.02457936859445872, ,0.0008803132399565217, ,0.20144748702414633,-0.22042224169611596,0.10446282594,1.6701803998542366,0.49366767365253633,-1.3154761646062347, ,0.11629527151773382,0.08902152116179247,0.04946835875776398,-0.003094037380127201,0.13155817258969263,-0.1066075064691401, ,1.3154699802398682
