NicholasDascanio/dvrk_moveit_final/test/execution/third_experiment_notsharpbends/thirdexp_700vel4.0/thirdexp_700vel4.0_15.csv
Current Position (x),Current Position (y),Current Position (z), ,Planned Position (x),Planned Position (y),Planned Position (z), ,Position Error,,Cartesian linear Velocity(x),Cartesian linear Velocity(y),Cartesian linear Velocity(z),Cartesian Angular Velocity(x),Cartesian Angular Velocity(y),Cartesian Angular Velocity(z), ,Total Linear Velocity, ,Total Angular Velocity, ,MSE, ,Joint 1 Position,Joint 2 Position,Joint 3 Position,Joint 4 Position,Joint 5 Position,Joint 6 Position, ,Joint 1 Velocity,Joint 2 Velocity,Joint 3 Velocity,Joint 4 Velocity,Joint 5 Velocity,Joint 6 Velocity, ,Time Stamp
0.00994592358839493,0.02010960756345372,-0.07957344360747091, ,0.010094728145182747,0.02005680868181517,-0.07963379460989833, ,0.00016903479380617003, ,-5.156329097647371e-06,-2.166772965488805e-05,-6.120308148972714e-06,0.03137092809194767,-0.00015187313301183274,-0.006781499981378363, ,2.3098407087912833e-05, ,0.03137129571437371, ,1.4086232817180836e-05, ,0.1756612819571107,-0.2408179792169429,0.09006622920000001,1.6745838886674116,0.4718058336900659,-1.280905158285992, ,-5.787668209539227e-05,9.460055464158934e-05,0.0,-0.0035273473895697056,0.0,-0.03363320954424731, ,0.017251014709472656
0.009946610747757446,0.020109916540962634,-0.07957731504908376, ,0.010112514069065943,0.020075838207106192,-0.07968154459880357, ,0.00019886941417527167, ,8.617727431571509e-05,7.998643587956554e-05,-0.00033690825698400154,0.19633005467541156,0.0027555338046838973,-0.05908187352778421, ,0.0003568354328779583, ,0.19634939097282386, ,1.6722918544610985e-05, ,0.1756612819571107,-0.24081025648406867,0.09007011807000001,1.6745838886674116,0.4718058336900659,-1.2839272716711927, ,0.0003417306420122242,-0.00010566124136378732,0.0003545335798901949,-0.003261616417583058,0.0,-0.2064181089228594, ,0.034355878829956055
0.009961343117952883,0.02011476256568452,-0.07959648864544634, ,0.010130383219610536,0.020094678827482473,-0.07972946528494333, ,0.0002160108774124827, ,0.0010931242902084855,0.00012116204702199107,-0.0007144622786542356,0.11232776425797646,-0.10671723221040476,-0.06272957849103085, ,0.0013115095512813344, ,0.15493900178407244, ,1.8247346418560138e-05, ,0.17567672742285914,-0.2408179792169429,0.09008696984,1.6745838886674116,0.4705761051921769,-1.2872534837653746, ,0.0006712428611518265,-0.00013414101039758473,0.00043522766894372376,-0.003037346205237768,-0.11143179492714124,-0.12526090772046872, ,0.05379199981689453
0.009972765972439047,0.02011679977545193,-0.07960683055195246, ,0.010148335303516245,0.020113331359962756,-0.07977755562636066, ,0.0002449156404817482, ,0.0011613941503578937,0.0002930045647434649,-0.0013756930431552885,0.08432053631629727,-0.09757956382167951,-0.051047110723743114, ,0.0018240667192928825, ,0.12896404196632605, ,1.9734064901801728e-05, ,0.17569217288860758,-0.2408179792169429,0.09011289564000001,1.6745838886674116,0.4687998306952262,-1.2900523455046307, ,0.0004562393577564464,-0.00013414101039758473,0.0008589354522444896,-0.0028480317997378116,-0.03413930977569936,-0.28221190871271884, ,0.07061100006103516
0.009994717714166403,0.02012510688178081,-0.07964057086173251, ,0.010166370028098374,0.02013179662004854,-0.07982581458334292, ,0.0002526351239878696, ,0.0016691691915506968,0.0003904535131306315,-0.0018125775540572416,0.14076802304612726,-0.14080279546999414,-0.08081813641954586, ,0.002494798012948181, ,0.19910063667517602, ,2.0797420189683504e-05, ,0.17571534108723028,-0.24082570194981712,0.09012585854,1.6745838886674116,0.46784337519686814,-1.2928662847449401, ,0.0018435098500520356,-0.00024091016154801457,0.0015030403574978104,-0.002762119975806326,-0.14606688572442647,-0.1569869355113807, ,0.08783698081970215
0.010034753644927822,0.020137496994326248,-0.07969794644371349, ,0.010184487101287045,0.020150075421725578,-0.07987424111842087, ,0.00023164226108225803, ,0.0013403582577149052,0.0008367291564239551,-0.0034470567300229423,-0.14857633578184917,-0.07891035364734242,0.024817760805766403, ,0.0037919488446221078, ,0.1682313034682391, ,2.1179163079770972e-05, ,0.17573850928585294,-0.24083342468269134,0.09017641385000001,1.674374198723927,0.4644274627027321,-1.2940014166792768, ,0.0010783166525524589,-0.0001663272911011257,0.0034014118129404233,0.0,-0.07791456374966609,0.15074894061995603, ,0.10496187210083008
0.010043203984767221,0.020146772557807262,-0.07973489838912692, ,0.010202686231626935,0.020168168577464667,-0.07992283419636616, ,0.0002474110837518507, ,0.0007326853561924532,0.0009793025936904597,-0.0037926450307597414,-0.11570950521928461,0.01666537150648981,0.04182760221123421, ,0.003984973993708652, ,0.11690348243211689, ,2.167387770413404e-05, ,0.1757848456830983,-0.24084114741556556,0.09024511722,1.6745838886674116,0.4645640992024975,-1.2915807936386157, ,0.0023189222172341913,-0.00045371303518061267,0.0036676977941515086,0.001166674659067822,0.00828399492347835,0.16828670032414483, ,0.12123680114746094
0.010053725657598081,0.020172311261523794,-0.07982362307616593, ,0.010220967128276588,0.02018607689822333,-0.07997159278418957, ,0.00022372804196401936, ,0.0001333022031476964,0.000643873493054164,-0.0021952340881765476,-0.038552907396521396,0.05262500886278839,0.022565472530764803, ,0.002291592296704219, ,0.06523586610509843, ,2.175911264221549e-05, ,0.1758466275460921,-0.24084114741556556,0.09031382059000001,1.674793578610896,0.46593046420015194,-1.2902446104713632, ,0.0025165276651361347,-0.00044517894171434557,0.0024966789216300947,0.005414890971406362,0.056554614237356055,0.04538341241723571, ,0.14196181297302246
0.010059585495257203,0.02017785550392962,-0.07984517701394839, ,0.010239329501007933,0.02020380119344661,-0.08002051585113928, ,0.0002524377036721866, ,0.000522158277979549,0.0005930730049302539,-0.0020691613849383767,0.023007253783940182,0.017118374284439748,-0.006226423979741359, ,0.0022149071523112815, ,0.028677037238579384, ,2.2137879786237574e-05, ,0.1758852412104632,-0.24084114741556556,0.09033715381000001,1.674793578610896,0.46606710069991736,-1.2901109921546379, ,0.0038831878421879233,-0.00040790587150484905,0.002275544502857143,0.005227091484749301,0.020071868905164533,-0.0214640638016826, ,0.15836095809936523
0.010071853551891687,0.020189586263861678,-0.07988857584822455, ,0.010257773060205488,0.020221342271068136,-0.0800696023686988, ,0.0002614289744468949, ,0.0007351494135817471,0.0006318467034763681,-0.0023465639455470073,-0.002457675346168595,-0.0027563517224233336,-0.00358962562698478, ,0.002538904737780581, ,0.0036929179321673424, ,2.2530528576281878e-05, ,0.17595474580633122,-0.24084887014843978,0.09038382025000001,1.674793578610896,0.46620373719968283,-1.290304088798475, ,0.0038665433615755174,-0.00018788629842037035,0.0025041363810721588,0.004916371847872615,0.0,0.003642253397901165, ,0.17602086067199707
0.010089768785691712,0.020204121968681963,-0.07994318421984442, ,0.010276297516866078,0.02023870093751177,-0.08011885131058559, ,0.0002585490270883219, ,0.0010660179731432076,0.0008622183187054894,-0.003203604806091967,0.016065102166546063,-0.00467650600083407,-0.008983440268593861, ,0.0034846661966092566, ,0.016731922055160355, ,2.2827347695259584e-05, ,0.17605514133369615,-0.240856592881314,0.09044215330000001,1.674793578610896,0.46620373719968283,-1.2903040887984747, ,0.006044985888033757,-0.00033183396408188655,0.003426287700580771,0.0046100733638189855,0.0,-0.01565802269128018, ,0.19359302520751953
0.010099770265214546,0.020213405019846687,-0.0799745556445017, ,0.01029490258259818,0.020255877997692302,-0.08016826165274817, ,0.0002782132145771644, ,0.0010208109117677312,0.0008675569950691523,-0.0031708739292899586,-0.0001252312699178165,-0.004527169154299182,-0.003762190031067315, ,0.0034422596550417613, ,0.004528900871299113, ,2.3236689806936377e-05, ,0.17610920046381573,-0.24087203834706244,0.09047585684000001,1.674793578610896,0.46620373719968283,-1.2903857675386154, ,0.005558212427877663,-0.0005098768521421915,0.003390551621966795,0.004474907966751077,-1.1909404930081767e-05,0.0014531776290884748, ,0.21094489097595215
0.010119846203382622,0.020230630349447977,-0.08003359056830864, ,0.010313587969621169,0.02027287425501681,-0.0802178323733653, ,0.0002706759358965576, ,0.0009693502549464428,0.0008017376279463311,-0.0028163440078669525,-0.0003060407760572027,-0.006072282489703997,0.0004962098272619969, ,0.0030845123944438658, ,0.006079989754447769, ,2.370650452170073e-05, ,0.17622504145692908,-0.24088748381281092,0.09053937505000001,1.6750032685543808,0.46620373719968283,-1.2903857675386154, ,0.005679002809143328,-0.000993282874676137,0.003025415293447294,-2.9212075964969162e-05,-0.00037681881909102754,0.001315110669106207, ,0.22655296325683594
0.010129841278930043,0.020238365609776342,-0.08006131636203762, ,0.010332353390765004,0.020289690511386026,-0.08026756245284349, ,0.0002935691586965548, ,0.00097955094910134,0.0007752850705080368,-0.0027824580473852466,-0.0003985873480895464,-0.006314450876027231,0.0004051652516144218, ,0.0030500261946247126, ,0.006327018379382064, ,2.4279437507423928e-05, ,0.17628682331992288,-0.24089520654568514,0.09056918972000001,1.6750032685543808,0.46620373719968283,-1.2903857675386154, ,0.0058672244974003205,-0.0007768592076554154,0.002987399009752439,-2.9212075964969162e-05,-0.0004349554719596749,0.0011851915425725042, ,0.24166297912597656
0.010140308936519852,0.020246097190390423,-0.08009167370820554, ,0.010351198559469607,0.020306327567195043,-0.08031745087381545, ,0.0003147657221947166, ,0.0010698429990133316,0.0009157604808036525,-0.0034303138646008527,0.0018782607949829643,-0.005985774843610571,-0.0004246594669251132, ,0.003708130864790564, ,0.006273544741005502, ,2.4925415927745414e-05, ,0.17634860518291667,-0.24089520654568514,0.09060159697,1.6750032685543808,0.46620373719968283,-1.2903040887984747, ,0.005737152250288065,-0.0006496199995520514,0.003395611068002559,-2.9212075964969162e-05,-0.00046297214408951953,-0.0016763130954914915, ,0.2565419673919678
0.01016201480040086,0.020264244352846548,-0.08015968371878937, ,0.010370123189784131,0.020322786221334925,-0.08036749662113797, ,0.00029987072961587687, ,0.001001896478577517,0.0009066691371691345,-0.0033091408667961244,0.002821316500334885,-0.0036909188244272197,-0.007160530239384315, ,0.003574389284112918, ,0.004645719337924847, ,2.5403529764873063e-05, ,0.17646444617603005,-0.24089520654568514,0.09067418921,1.675212958497865,0.46620373719968283,-1.2903040887984747, ,0.004938936450953081,-0.0004540695574875955,0.00352953944604476,0.007059997289890271,-0.00047363508480807183,-0.0012558733126099546, ,0.27127599716186523
0.010183479557945284,0.020282805398190596,-0.08023030882706046, ,0.01038912699636673,0.02033906727119363,-0.08041769868189, ,0.00028385070895833045, ,0.0010752715668243084,0.0009361943380151198,-0.00358503827316508,0.0020714409577892836,-0.004040084030339747,-0.006877318678854551, ,0.003858130143088855, ,0.0045401702635047125, ,2.5734182106636375e-05, ,0.1765725644362692,-0.24090292927855936,0.09074937403000001,1.675212958497865,0.46620373719968283,-1.2903040887984747, ,0.005227110659755059,0.0,0.003811632333094042,0.006766663723914591,-0.0004597429442631732,-0.0009894886952069137, ,0.28688597679138184
0.010190088865498185,0.02028837769799111,-0.08024958967485209, ,0.010408209694483543,0.02035517151265714,-0.08046805604537108, ,0.00031585703215638737, ,0.0010889229737183835,0.0008500326141070302,-0.0031597324858888736,0.00218540448145026,-0.005175076984830588,-0.00662014674969944, ,0.003448509543283707, ,0.0056175986178712434, ,2.6212871840708306e-05, ,0.1766111781006403,-0.24091065201143358,0.09077011467000001,1.675212958497865,0.46620373719968283,-1.2903040887984747, ,0.0063170230434793735,-0.00021036084963397162,0.0033826314546612874,0.006556792652855381,-0.00045357338370489574,-0.0009288144909348234, ,0.3021378517150879
0.010214912769772634,0.020308802290604534,-0.08032469648650317, ,0.010427371000008635,0.020371099740110983,-0.08051856770309905, ,0.0002942881588416158, ,0.0010785082331424272,0.0008872132765104569,-0.003275725263005014,-0.00017911114762732,-0.0049802880467871785,-0.0051500788493096345, ,0.00356099752957815, ,0.004983507746056531, ,2.65283978530069e-05, ,0.17675018729237635,-0.24092609747718202,0.09085048465000001,1.675212958497865,0.46620373719968283,-1.2902224100583342, ,0.005933028379612746,-0.00035187738971560273,0.003502377203166227,0.005823155790586564,-0.0004248838803624436,0.0015639913535961836, ,0.3183460235595703
0.010235332947630873,0.02032727378961605,-0.08038874463924955, ,0.01044661062942288,0.020386852746440958,-0.08056923264880879, ,0.0002841897825651084, ,0.000999512499459646,0.0009247222388528801,-0.0032579058980154113,0.004188269726193052,-0.00403675293954608,-0.006009471414145736, ,0.0035310178838302074, ,0.005816956010428191, ,2.6762594769955592e-05, ,0.17680424642249593,-0.24093382021005624,0.09088548448000001,1.675212958497865,0.46620373719968283,-1.2901407313181936, ,0.0050084187478443695,-0.0008796773454652361,0.0034847542157077226,0.0055642386644584605,-0.0004123854440655195,-0.002509275890900688, ,0.33374691009521484
0.010246325169716493,0.020336553436271613,-0.08042536705151593, ,0.010465928299813833,0.020402431323034532,-0.08062004987844942, ,0.00030077705001498105, ,0.0010371134888890123,0.0009562885503735727,-0.003464910610801372,0.0010383419180557314,-0.005180763366700638,-0.0008702662627405853, ,0.003741082426418197, ,0.005283792435469585, ,2.7057736134908207e-05, ,0.17691236468273508,-0.24094154294293046,0.09095807672,1.6754226484413495,0.46620373719968283,-1.289895695097772, ,0.005033351576587051,-0.0008690260059892635,0.0036966376235785573,0.0009536931081855692,-0.0003890482175917824,-4.567421175300087e-05, ,0.34911203384399414
0.01026934930708969,0.02035555242417384,-0.08049350771746522, ,0.01048532372887518,0.020417836259782,-0.0806710183901835, ,0.00028641624599965706, ,0.0011170346271477322,0.0008370951695606039,-0.003212594768182569,0.0039669836972182375,-0.00852403601318609,0.006544581809893024, ,0.003502750323060835, ,0.009401922636667934, ,2.7260078685783126e-05, ,0.17702820567584843,-0.24094154294293046,0.09103066896,1.6758420283283186,0.46606710069991736,-1.2897842771940755, ,0.00663046478269675,-0.0006157763237203852,0.003435895496117343,-0.008276297140513627,0.0,-0.004999622076723636, ,0.36353087425231934
0.01028068250865934,0.020364220917733634,-0.08052485694657589, ,0.010504796634905663,0.020433068345077552,-0.08072213718438394, ,0.00030640920688619627, ,0.0010018741088747539,0.0006477770310256003,-0.0026685087575479415,0.0033603867289631866,-0.008302644961485719,0.00643635747285266, ,0.00292306445379981, ,0.008956903046776935, ,2.7536406734263435e-05, ,0.17709771027171645,-0.2409492656758047,0.0910643725,1.6758420283283186,0.46606710069991736,-1.2897842771940755, ,0.0064090293741866115,0.0,0.002851559527389904,-0.008276297140513627,0.0,-0.004999622076723636, ,0.3797140121459961
0.010305728600706082,0.020380924806685803,-0.08059010082195384, ,0.01052434673680913,0.02044812836582057,-0.08077340526363329, ,0.0002931053157705717, ,0.0010938219265342235,0.0006721288268809024,-0.0027565149901112424,0.003360138195110825,-0.009224893734466692,0.006436487224899588, ,0.0030408187150172765, ,0.009817799801549084, ,2.7733266104533872e-05, ,0.17725216492920096,-0.2409492656758047,0.09113177958,1.6758420283283186,0.46606710069991736,-1.2896209197137944, ,0.00749498719457154,0.0,0.0036949226443980516,-0.008276297140513627,0.0,-0.0015740484367658437, ,0.3945009708404541
0.010317297964270056,0.020389903670528967,-0.08062268503547133, ,0.010543973754093595,0.02046301710741685,-0.08082482163272123, ,0.00031238868784488584, ,0.0012702494113015473,0.0008925371290013233,-0.003564053112833945,-0.007885162751992629,-0.009789701226601114,0.010005770072258498, ,0.003887496711851881, ,0.012570363604783164, ,2.8113612991124687e-05, ,0.1773293922579432,-0.24095698840867893,0.09116937199000001,1.6758420283283186,0.46606710069991736,-1.289702598453935, ,0.007701073093643033,-0.00020594216087300212,0.0038070773231357554,-0.008276297140513627,0.0,0.006981359163538313, ,0.40843892097473145
0.010329861933033316,0.020401028252871965,-0.08066349510278216, ,0.010563677406870734,0.020477735353779395,-0.08087638529864274, ,0.0003253857566473937, ,0.0013854576932533652,0.001059649848805453,-0.0042286265520999275,-0.007220574863045799,-0.00965529275667397,0.009546262421457865, ,0.004574235820220999, ,0.012056590654818945, ,2.8522055481849874e-05, ,0.17740661958668544,-0.24096471114155316,0.09121344585,1.6758420283283186,0.46620373719968283,-1.2898140163576315, ,0.007644227097467168,-0.00020693639297289734,0.004502207891464105,-0.007993934730747563,0.0,0.006336901582053429, ,0.42137598991394043
0.010358838734729738,0.020422073285102735,-0.08074328032536832, ,0.010583457415855464,0.02049228388733015,-0.08092809527059637, ,0.0002992317572642409, ,0.0014588100387823552,0.0009317237305640269,-0.003694013935972139,-0.006107175436874692,-0.01146808878241324,0.008437035445823781, ,0.004079457659849493, ,0.012992869253949635, ,2.8801800810233502e-05, ,0.1775842424427926,-0.24097243387442738,0.09129900099,1.6758420283283186,0.46620373719968283,-1.2898140163576315, ,0.009650495203057816,-0.00016858779788749502,0.003966337529880478,-0.007192532158166964,0.0,0.00530788177792971, ,0.4351658821105957
0.010374065105324974,0.020431972819243503,-0.0807818883819318, ,0.010603313502365206,0.02050666348900053,-0.08097995055998206, ,0.0003120290852921879, ,0.0015051346617507547,0.0009163689274221817,-0.003619348202106856,-0.00567883630769491,-0.012095308208948396,0.008006501723093258, ,0.004025524036599778, ,0.013362097958702529, ,2.9113307217906477e-05, ,0.17768463797015752,-0.24097243387442738,0.09134048227000001,1.6758420283283186,0.46620373719968283,-1.2898140163576315, ,0.010383506802534267,-0.00016858779788749502,0.003895527395451211,-0.006838620027550612,0.0,0.004888591296293301, ,0.44817090034484863
0.010389246906016836,0.02044104400194475,-0.08082071044372055, ,0.010623245388319498,0.02052087493823312,-0.0810319501803995, ,0.000325193011088526, ,0.0016141594649496712,0.001065850878887137,-0.004052605429555984,-0.003694054241683263,-0.010114556517170555,-0.001278806852393682, ,0.0044905633991713925, ,0.01076802160038723, ,2.9455109267333417e-05, ,0.17778503349752245,-0.24097243387442738,0.09138196355000001,1.6756323383848342,0.46620373719968283,-1.2898140163576315, ,0.010700043520220005,-0.00016858779788749502,0.0043628626458504524,0.002766938676769963,0.0,0.004537002177223345, ,0.4620089530944824
0.010408169076143725,0.020454875665586333,-0.08086861292658049, ,0.010643252796239141,0.020534919012982742,-0.08108409314764661, ,0.00032879023493259256, ,0.0016197207975404226,0.001181183066419463,-0.004316137935215459,-0.0007503622139248198,-0.008102993823556897,-0.00775969913486349, ,0.004758963708013231, ,0.008137662493542535, ,2.9790178910477034e-05, ,0.17790859722351002,-0.2409801566073016,0.09143381515000001,1.6758420283283186,0.46620373719968283,-1.289732337617491, ,0.010140093820022955,-0.0004508327197747534,0.004645322694663168,0.009066009760262967,-8.248558429392326e-05,0.0028749375159658336, ,0.4757578372955322
0.010441025647633276,0.020478577301054752,-0.08095745777240078, ,0.010663335449245845,0.020548796489717334,-0.08113637847971673, ,0.0002938792300518912, ,0.0015980394850670042,0.0011320351406335068,-0.00411191089391781,0.002117997550367841,-0.007945436800452415,-0.009363821884832044, ,0.004554453310220921, ,0.008222887473257733, ,2.9984436948127646e-05, ,0.17812483374398833,-0.2409801566073016,0.09152974061000001,1.676051718271803,0.4663403736994482,-1.2897620767810465, ,0.010302503871238537,-0.00042532760945634913,0.004434524365256124,0.009876332088130805,0.0,0.0, ,0.4892458915710449
0.010456920449855139,0.02048847714628774,-0.08099597289296773, ,0.0106834930710617,0.020562508143419325,-0.08118880519679754, ,0.0003065942573125299, ,0.0015546539182717996,0.0010106163177615172,-0.003646638192720582,0.001956194187166485,-0.008595438033002986,-0.008693174540733699, ,0.004090997953547782, ,0.008815228302899549, ,3.0211371511826652e-05, ,0.17823295200422745,-0.2409801566073016,0.09157122189000001,1.676051718271803,0.4663403736994482,-1.2897620767810465, ,0.01078325930423273,-0.00038395262518913,0.0039515781493425954,0.009167176314984904,0.0,0.0, ,0.5045959949493408
0.010486609052761074,0.020506091113411864,-0.08106387708377912, ,0.010703725386008594,0.02057605474758687,-0.08124137232126903, ,0.00028903109106361556, ,0.0015509191989392093,0.0009872699842461243,-0.003589886259041129,3.413830638866362e-05,-0.008349499884509778,-0.006922832503180125, ,0.004033278534428771, ,0.008349569638560789, ,3.0368126872651163e-05, ,0.17845691125757998,-0.2409801566073016,0.09164511042000001,1.676051718271803,0.46647701019921367,-1.2897101372044621, ,0.010917026067399119,-0.0003227549572665868,0.003893622957712052,0.008040644735976347,0.0007016554145965315,0.0017921082098135165, ,0.5175800323486328
0.010502931252137537,0.02051568158848131,-0.08110106497739718, ,0.010724032119007437,0.020589437074234825,-0.08129407887770118, ,0.00030262159658544276, ,0.0015617872281527224,0.0009804016145120414,-0.0035772622528430676,-0.004028626970819214,-0.008682547113816903,-0.005247049893584939, ,0.0040245710202920565, ,0.009571648712100549, ,3.05606319746003e-05, ,0.17857275225069333,-0.2409801566073016,0.09168529541,1.676051718271803,0.46647701019921367,-1.2894651009840405, ,0.011067358797200697,-0.0002979908198962969,0.003881289356725147,0.007556178295253469,0.0007016554145965315,0.00593131747813274, ,0.5306918621063232
0.010531234474654498,0.020533914251922712,-0.08117167631414442, ,0.010744412995577908,0.020602655893896194,-0.0813469238928528, ,0.0002843979763772092, ,0.0016244146806870554,0.0011041935153293092,-0.004090204213858084,-0.0005537697343722002,-0.005228595006934432,-0.00465648032141696, ,0.004537371142543814, ,0.00525783848367926, ,3.068614430346951e-05, ,0.17877354330542317,-0.2409801566073016,0.09176177652,1.676051718271803,0.46661364669897915,-1.2894948401475963, ,0.011054796913321967,-0.0002613357618761021,0.00442712938299055,0.006806147190020176,0.0043906592188346395,0.0023595097211941956, ,0.5485990047454834
0.010548156774805102,0.020546591180893994,-0.08121824514491882, ,0.010764867741837478,0.02061571197562296,-0.0813999063956686, ,0.0002911050283317801, ,0.0015475587856840153,0.001037027324106064,-0.003920642878968598,-0.003677491899534078,-0.0038601782095776327,-0.0031833878589217217, ,0.004340714739590422, ,0.005331502748237366, ,3.082607029704013e-05, ,0.17888938429853654,-0.24098787934017582,0.09181233183000001,1.676051718271803,0.46675028319874456,-1.289524579311152, ,0.010595694449413204,0.0,0.004242027035952064,0.0064262774487339955,0.0054767748761143,0.005360524447427105, ,0.5626678466796875
0.01056326611700951,0.02055608302885906,-0.08125157165504296, ,0.010785396084501343,0.02062860608698745,-0.08145302541727886, ,0.000308520558046326, ,0.0013409071311112051,0.0008134317885159987,-0.003141603864601542,0.007320615336704156,-0.0044228810143115554,-0.0007666830392785805, ,0.0035113214109381333, ,0.008552969371435896, ,3.1104562987631854e-05, ,0.1789975025587757,-0.24098787934017582,0.09184862795000001,1.6762614082152878,0.46675028319874456,-1.289361221830871, ,0.009829523186895188,0.0,0.003411610948811309,0.0,0.0054767748761143,-0.007308620138537, ,0.5743358135223389
0.010577629153514215,0.0205644497512429,-0.08128124012152158, ,0.010805997750881475,0.02064133899408352,-0.08150627999099604, ,0.0003297076201442357, ,0.0013355382902902997,0.0007107866619734533,-0.002783903383211947,0.007148126772826232,-0.00512859291711553,-0.0007970930740310392, ,0.003168437824974608, ,0.008797623628154904, ,3.1433903220663655e-05, ,0.17910562081901482,-0.24099560207305004,0.0918810352,1.6762614082152878,0.46675028319874456,-1.289361221830871, ,0.010535250981726009,0.0001753694003711762,0.003041590895550888,0.0,0.0054767748761143,-0.007308620138537, ,0.5886847972869873
0.01058579160816208,0.020568781205737255,-0.08129792791853206, ,0.01082667246888629,0.020653911461527504,-0.08155966915231364, ,0.000365758421605914, ,0.0012906430057768716,0.0007077467177144069,-0.0027772354270648746,0.007148176005079099,-0.004599082932422378,-0.0007966514479211258, ,0.003143199230424392, ,0.008499881402329509, ,3.185384875109959e-05, ,0.17916740268200862,-0.24099560207305004,0.09189918326,1.6762614082152878,0.46675028319874456,-1.289361221830871, ,0.010005740997032856,0.0001753694003711762,0.0030288669937250435,0.0,0.0054767748761143,-0.007308620138537, ,0.6002628803253174
0.010613728482357221,0.020586396365120812,-0.0813660375435712, ,0.010847419967019892,0.02066632425245974,-0.08161319193890403, ,0.0003494073157657696, ,0.0015088689357422042,0.001027114920005625,-0.004053044694751705,-0.0025548561714935046,-0.004854085335102972,0.0021102703101028397, ,0.004445089630345031, ,0.005485383615004344, ,3.221099670168736e-05, ,0.17936819373673846,-0.24099560207305004,0.09197307179000001,1.6762614082152878,0.46688691969851004,-1.2895543184747078, ,0.009802307717979275,0.00016031472657658364,0.004361667995618839,0.0,0.00517141241644998,0.002839423613792668, ,0.6117959022521973
0.010630211620600065,0.020597843780570165,-0.08141080005607712, ,0.010868239974381442,0.02067857812854545,-0.08166684739061705, ,0.0003587976723334075, ,0.0016783187469709892,0.0012477609523678145,-0.004931992630617418,-0.0021352550296610032,-0.004956197749508083,0.001985211478257478, ,0.0053570712632139425, ,0.005396592189126531, ,3.258030610728735e-05, ,0.1795689847914683,-0.24099560207305004,0.09207677499000001,1.6762614082152878,0.46688691969851004,-1.2894726397345673, ,0.009865323416586807,0.00014386062506187224,0.005573412008397481,0.0,0.00517141241644998,0.0018811260378185004, ,0.6239759922027588
0.010656378108672126,0.020618164741838967,-0.08148705286982272, ,0.010889132220665195,0.02069067384997604,-0.0817206345494775, ,0.00033762767730573847, ,0.0017391330888379636,0.0013002974946732138,-0.005042881269821474,-0.00041465019970114724,-0.004104290986561965,-0.0033730890885937865, ,0.0054905381318101016, ,0.004125183150984174, ,3.2878038538142586e-05, ,0.17961532118871365,-0.24099560207305004,0.09210270079,1.676471098158772,0.46688691969851004,-1.2894726397345673, ,0.010352017187571809,0.0001403103383062602,0.005410601739130436,0.005359752051965742,0.00517141241644998,0.0015943330929067707, ,0.6376399993896484
0.010680497082842655,0.020636378949796284,-0.0815576674459415, ,0.010910096436159025,0.020702612175470106,-0.08177455245968372, ,0.0003227101058417844, ,0.001632013468544494,0.0010823279435104242,-0.0041558587801691525,0.0028522135949187104,-0.003069826553095612,-0.0037417084143578014, ,0.004594133644064261, ,0.004190340823544815, ,3.312487543434201e-05, ,0.17977749857907235,-0.24099560207305004,0.0921791819,1.676471098158772,0.4671601926980409,-1.2896137968018195, ,0.011166879463108502,0.00013006307078066242,0.00449712352343309,0.0052307469096952485,0.007063529948390403,-0.0017144229886322008, ,0.648871898651123
0.010698712077378953,0.020646882179254023,-0.08160109036342952, ,0.010931132351744413,0.020714393862274885,-0.08182860016760563, ,0.00033217122433569236, ,0.0017055059931292253,0.0011078440471309996,-0.004214638681155863,0.0017830097744103456,-0.0038952004500911594,-0.0031086813974072827, ,0.004679663271866741, ,0.004283889479455089, ,3.338743327804698e-05, ,0.17990106230505995,-0.24098787934017582,0.09222584834000001,1.676471098158772,0.4671601926980409,-1.289532118061679, ,0.011907268377320127,1.5622345056927896e-05,0.004569366471600689,0.0049544931986584126,0.007063529948390403,-0.000527725638876494, ,0.6604118347167969
0.010714234537213013,0.020657690524167847,-0.0816429153535742, ,0.010952239698896018,0.020726019666167068,-0.08188277672178257, ,0.00034474454976532454, ,0.0016547594107764198,0.0011216112643870977,-0.004291010752668128,0.007763437399548279,-0.005603652878540411,-0.005528812761650793, ,0.0047338159887628335, ,0.0095745435601441, ,3.367286391254311e-05, ,0.1800091805652991,-0.24098787934017582,0.09227121849000001,1.676471098158772,0.4672968291978063,-1.2894801784850944, ,0.010835178735228676,1.5622345056927896e-05,0.004629122789886661,0.00472078929973692,0.004134017102041488,-0.007014642464038417, ,0.6726429462432861
0.010747955476413976,0.020680584635668527,-0.0817323241914864, ,0.010973418209680615,0.02073749034145427,-0.08193708117292162, ,0.00030983402797223, ,0.0016105864210403573,0.0011780046994441856,-0.0045352506508091524,-0.007774506661290241,-0.0048835796055496155,-0.0003769367715176676, ,0.004954814038611037, ,0.009181083905045696, ,3.3860045681695715e-05, ,0.18021769435290316,-0.24098787934017582,0.09236714395000001,1.676471098158772,0.4672968291978063,-1.2893168210048132, ,0.009754166953458149,1.6341360284074918e-05,0.004872686301621292,0.004297371212081559,0.004134017102041488,0.009163962956566128, ,0.6845619678497314
0.010764466206822124,0.020691357999684683,-0.08177940966040548, ,0.01099466761675686,0.02074880664097603,-0.08199151257389586, ,0.00031824625910334414, ,0.0017356353381770826,0.0012138760410622717,-0.004532168869226693,-0.007049111348097208,-0.004129431201808812,0.0004579780919712189, ,0.00500264727213319, ,0.008169588174207912, ,3.4061598881029394e-05, ,0.1803258126131423,-0.24097243387442738,0.09241769926000001,1.676471098158772,0.46743346569757177,-1.2893465601683691, ,0.011501265490058268,-0.00034243358549501814,0.004904190738916256,0.004108293787044082,0.006766931559464919,0.008908893796048825, ,0.695936918258667
0.010781614594408285,0.02070423355289347,-0.08182587778480055, ,0.01101598765337466,0.020759969316105097,-0.08204606997974216, ,0.0003263767895902578, ,0.0017553526958937458,0.0012504938937521705,-0.004728716335431064,-0.007467513192132216,-0.00016437543331861626,0.0055526405589874615, ,0.005196706288243111, ,0.0074693219366534615, ,3.427610033815879e-05, ,0.18044165360625566,-0.24097243387442738,0.09246825457,1.676680788102257,0.46757010219733725,-1.2892946205917846, ,0.011846745031698216,-0.00034243358549501814,0.005125100231660232,0.0002339287134925385,0.012188369434644391,0.00899021832625611, ,0.7076048851013184
0.010798721278938312,0.020716278760528294,-0.0818725599096207, ,0.011037378053374531,0.020770979116748408,-0.08210075244765969, ,0.00033469541283319605, ,0.0018710848730456254,0.0012894433558046706,-0.004890654908219013,-0.014253314127282583,-0.0052338689653934995,0.0063832309438691705, ,0.005392784828013788, ,0.015183884389706862, ,3.458628978720745e-05, ,0.18055749459936904,-0.24097243387442738,0.09251880988000001,1.676680788102257,0.46770673869710266,-1.2893243597553403, ,0.012414565876304393,-0.0003331240758450799,0.005288450039840638,0.0002487584670055726,0.007635847953689467,0.015790116287271193, ,0.7180759906768799
0.010817027477915978,0.020728343817762337,-0.08191960381672478, ,0.011058838551187238,0.020781836791348512,-0.08215555903700777, ,0.0003420657237410486, ,0.0019158919658589057,0.0013247883965935507,-0.005035146646291295,0.012814902431054064,-0.004978695408377722,-0.0019603640643844765, ,0.005547829131313444, ,0.013748059101213106, ,3.4905123874927364e-05, ,0.18067333559248241,-0.24097243387442738,0.09256936519,1.676680788102257,0.46770673869710266,-1.289161002275059, ,0.012619274143413668,-0.00031567181426623995,0.005442026484455074,0.00027851859322131203,0.007635847953689467,-0.012540859802978008, ,0.7307908535003662
0.01083869687112728,0.02074381104337331,-0.08197693240396342, ,0.011080368881832937,0.020792543086884392,-0.08221048880930391, ,0.00033960089413730046, ,0.0019140359171160826,0.0012902776940450556,-0.005053968184063139,0.01281410417951938,-0.0049690350727359675,-0.0022285030414059812, ,0.005556162742872376, ,0.013743819417480914, ,3.5209259741487495e-05, ,0.18082006751709268,-0.2409801566073016,0.09262899453000001,1.676680788102257,0.46784337519686814,-1.289190741438615, ,0.012527649050623205,0.000131357628959564,0.00545694125385406,0.00030673426160530737,0.007535661646195322,-0.013086806139540077, ,0.7409379482269287
0.010857690119280452,0.020755238282556498,-0.08202404309410719, ,0.0111019687809208,0.020803098748872973,-0.08226554082822186, ,0.0003468196135620861, ,0.00193227457618589,0.0012268406722784739,-0.004918352982515081,0.0038942494014688766,-0.005605058686275746,0.00032126809061351207, ,0.005424851991856188, ,0.006825090358331162, ,3.552161931548095e-05, ,0.18094363124308027,-0.24097243387442738,0.09268214242000002,1.676680788102257,0.46784337519686814,-1.2892724201787558, ,0.013024559642941365,0.0004849347580149122,0.00530783456181273,0.0003268792215102727,0.007535661646195322,-0.004030216361166668, ,0.7509009838104248
0.010877925169393057,0.020769758285623288,-0.08208045029902111, ,0.011123637984648401,0.02081350452137013,-0.08232071415959064, ,0.00034643216279453114, ,0.0019501226269031118,0.0013460120856330032,-0.005392814681018939,0.006554515840111271,-0.0016553612911440769,0.00044785890206093504, ,0.005890430967123119, ,0.006760317621332957, ,3.58245794220756e-05, ,0.18106719496906784,-0.24097243387442738,0.09273917918,1.676680788102257,0.4679800116966335,-1.289383838082452, ,0.012412941995875837,0.0004849347580149122,0.005819806912678116,0.00034301948294444254,0.011205627526054624,-0.006713989572061369, ,0.761138916015625
0.010892336318111956,0.020779039098880236,-0.08211658880097106, ,0.011145376229801062,0.020823761146971938,-0.08237600787139127, ,0.00036514040120319747, ,0.0019413744785411434,0.001245827770135696,-0.00498665985624282,0.005534985950175115,-0.0034166142935310776,0.00044707837897051117, ,0.005494342382909518, ,0.006504561446851192, ,3.61613348585571e-05, ,0.18134521335253995,-0.24096471114155316,0.09285325270000001,1.676680788102257,0.4679800116966335,-1.289383838082452, ,0.014788365522591676,0.0004401378529350793,0.005511699487889274,0.00036623617962099736,0.008344553959491787,-0.004353647736115467, ,0.7744100093841553
0.010939216291440625,0.02080838719883623,-0.08223303120221695, ,0.01116718325375157,0.020833869366815527,-0.08243142103375584, ,0.00030327677466010007, ,0.0019086514324977491,0.0011395421982913656,-0.004553476936603865,-0.002420300682710061,-0.012544388523339164,0.00025791735625656226, ,0.005067115444179829, ,0.012775740168837472, ,3.635228345481541e-05, ,0.18148422254427599,-0.24096471114155316,0.09290769688000002,1.676680788102257,0.468116648196399,-1.2894952559861483, ,0.012751537430592687,0.0003937979279919448,0.00490570111487527,0.00037387127806754014,0.00015885100039394012,0.0022052479692304637, ,0.7848248481750488
0.010939216291440625,0.02080838719883623,-0.08223303120221695, ,0.01118905879445932,0.020843829920580766,-0.08248695271896538, ,0.00035798547387726247, ,0.0019086514324977491,0.0011395421982913656,-0.004553476936603865,-0.002420300682710061,-0.012544388523339164,0.00025791735625656226, ,0.005067115444179829, ,0.012775740168837472, ,3.665768033941884e-05, ,0.18162323173601203,-0.24096471114155316,0.09295306703,1.6768904780457412,0.4682532846961644,-1.2896066738898448, ,0.01374521169734513,0.0003562814633890001,0.004439468093645486,0.0,0.007123466657792466,-0.003602175437845095, ,0.7944159507751465
0.010976266246483833,0.020832571513093482,-0.08232192392075183, ,0.011211002590469664,0.020853643546491066,-0.08254260200144765, ,0.00032286838971775625, ,0.0019736184102910705,0.0012863981709175976,-0.005065538891232828,0.006325818681233846,-0.003993699880151939,0.0056890985995234015, ,0.005586561925027977, ,0.0074810171357458915, ,3.687949565769738e-05, ,0.18175451819487384,-0.24095698840867893,0.09300491863,1.6771001679892257,0.46838992119592987,-1.2897180917935414, ,0.01345674157096863,5.317787899997301e-07,0.005483239765920827,-0.005162341670318736,0.010963470548253976,-0.006860708123021538, ,0.8050220012664795
0.010997501548902654,0.020845873176032387,-0.08237363438169389, ,0.011233014380913703,0.020863310981314477,-0.08259836795777613, ,0.0003259993118299999, ,0.002161757846859276,0.0014010324250096143,-0.0055102698311067485,0.007204791930800293,-0.005221457903718308,0.00542044857453177, ,0.006082693684215174, ,0.008897901119164012, ,3.7102309142556557e-05, ,0.18189352738660988,-0.24095698840867893,0.09306065910000001,1.6771001679892257,0.46838992119592987,-1.2896364130534006, ,0.014699030600754457,5.317787899997301e-07,0.005963613448146762,-0.005162341670318736,0.010963470548253976,-0.007780948395118417, ,0.8152530193328857
0.010997501548902654,0.020845873176032387,-0.08237363438169389, ,0.01125509390550752,0.020872832960365267,-0.08265424966666694, ,0.0003818711697850913, ,0.002336124688832926,0.0014157852356566061,-0.0056985034913921645,0.0032141714630012693,-0.011799454352160926,0.004937096397558478, ,0.006319404120380866, ,0.01222939144819868, ,3.743688333358545e-05, ,0.18189352738660988,-0.24095698840867893,0.09306065910000001,1.6771001679892257,0.46838992119592987,-1.2896364130534006, ,0.014699030600754457,5.317787899997301e-07,0.005963613448146762,-0.005162341670318736,0.010963470548253976,-0.007780948395118417, ,0.824970006942749
0.011043077308178662,0.020874266359604748,-0.082489119771886, ,0.011277240904551532,0.020882210217504554,-0.08271024620897797, ,0.0003221685830828331, ,0.002245380302507572,0.0014345234492715879,-0.00584684195380027,0.0030522552625808,-0.010380098744187174,0.004907838444520677, ,0.006425352213078907, ,0.010819551991376606, ,3.7639263588940886e-05, ,0.18219471396870462,-0.24094154294293046,0.09318510294000001,1.6771001679892257,0.4685265576956953,-1.2896661522169566, ,0.014365265146604718,0.0005317590799629492,0.0062860345382794005,-0.005162341670318736,0.0053314736734938264,-0.0043474592904024865, ,0.8353378772735596
0.011043077308178662,0.020874266359604748,-0.082489119771886, ,0.011299455118930105,0.02089144348514207,-0.08276635666770651, ,0.0003780012326588675, ,0.002245380302507572,0.0014345234492715879,-0.00584684195380027,0.0030522552625808,-0.010380098744187174,0.004907838444520677, ,0.006425352213078907, ,0.010819551991376606, ,3.802900674030467e-05, ,0.18219471396870462,-0.24094154294293046,0.09318510294000001,1.6771001679892257,0.4685265576956953,-1.2896661522169566, ,0.014365265146604718,0.0005317590799629492,0.0062860345382794005,-0.005162341670318736,0.0053314736734938264,-0.0043474592904024865, ,0.8434038162231445
0.011065007846031483,0.020887809277331262,-0.08254687465213686, ,0.011321736290110913,0.020900533494236685,-0.0828225801279874, ,0.00037694151948183504, ,0.002103770654638288,0.0013238949000095753,-0.005520452353379547,0.008501371554650581,-0.002305645850859677,0.0052478527409934835, ,0.006054249983236764, ,0.008808479776481882, ,3.840867439432969e-05, ,0.18234144589331489,-0.24092609747718202,0.09324732486000001,1.6771001679892257,0.46866319419546076,-1.2896142126403718, ,0.01416372262066728,0.0009020767859257825,0.005956922782348543,-0.005162341670318736,0.013393024214857682,-0.009911737052037193, ,0.8532719612121582
0.011086697947304273,0.020901683883052004,-0.08260322846066581, ,0.01134408416014423,0.0209094809742981,-0.08287891567709128, ,0.00037724249295701117, ,0.002253055658925166,0.0013376871183132207,-0.005761917442614186,0.0020770397742365504,-0.009738697713816951,0.005058858556274104, ,0.006329720313269571, ,0.009957726700104088, ,3.878130844057791e-05, ,0.18248817781792517,-0.2409183747443078,0.09330825049000001,1.6771001679892257,0.4687998306952262,-1.2897256305440683, ,0.014696754151846179,0.0014037867905793032,0.006185946221359225,-0.005162341670318736,0.006341621937940102,-0.004161478147412145, ,0.8621039390563965
0.011109957865182051,0.020916794669140523,-0.08266444360628361, ,0.011366498471662457,0.020918286653387737,-0.08293536240442292, ,0.0003731116508172564, ,0.002320586028713168,0.001426416362613715,-0.005878334349924545,0.0003571439193291062,-0.01090719601201306,0.0057153357358588255, ,0.006478780586321296, ,0.010913041262849192, ,3.913829072865434e-05, ,0.18264263247540966,-0.24091065201143358,0.09337436128000001,1.6771001679892257,0.4689364671949916,-1.289755369707624, ,0.015149575600011298,0.0007392489937235165,0.006325977569499604,-0.005162341670318736,0.005640435137336505,-0.0017249661603942726, ,0.870114803314209
0.011131483408815125,0.020929714257192353,-0.08271970911887316, ,0.011388978967879795,0.02092695125811996,-0.08299191940151833, ,0.0003747132704877984, ,0.002294875038143594,0.0014210824268257162,-0.005927736641851726,0.006576638815874127,-0.0020271861556290767,0.006179294603549884, ,0.006513369972577867, ,0.006881980420282996, ,3.949139095911691e-05, ,0.18278936440001992,-0.24089520654568514,0.09343399062,1.6771001679892257,0.4690731036947571,-1.28978510887118, ,0.015644072132949355,0.0010156333918149734,0.0064048297225572995,-0.005054418314344975,0.015220043511485773,-0.007882090857502194, ,0.8788068294525146
0.011155907261160877,0.02094479673156255,-0.08278346304568361, ,0.011411525392591328,0.020935475513663263,-0.08304858576204417, ,0.00036839865492360784, ,0.002369847767382052,0.0014147386395308736,-0.006027521046055526,0.007049168771989505,-0.0019416988695989152,0.0058850534373031576, ,0.006629379595361067, ,0.007311700685901593, ,3.9825261467179456e-05, ,0.18295154179037865,-0.2408797610799367,0.09350269399000001,1.6771001679892257,0.4692097401945225,-1.2898148480347358, ,0.016358721178843436,0.001404213141210835,0.0065121878659035164,-0.0048658694695767925,0.015988284274343,-0.008693296794128915, ,0.8873069286346436
0.011179682940182765,0.020960521945442543,-0.0828471387218856, ,0.011434137490172623,0.020943860143741354,-0.0831053605817952, ,0.0003629094412958236, ,0.0024227573261670606,0.0015847252741306975,-0.0068051385000587805,0.009750287142016041,0.0018404414966255115,0.005588377173186863, ,0.007395337535295265, ,0.009922464898396549, ,4.014205669727603e-05, ,0.18310599644786313,-0.24087203834706244,0.09357139736,1.6771001679892257,0.46934637669428797,-1.2898445871982918, ,0.015549228503763852,0.0016777636143615216,0.007320225882352943,-0.0047011759100457325,0.01897782270465746,-0.011579437139790046, ,0.8973879814147949
0.011206665914910091,0.02097654829889795,-0.0829148724074795, ,0.011456815005578998,0.020952105870634622,-0.08316224295869254, ,0.00035265307239457577, ,0.0024641513873832634,0.0015325973494875304,-0.006418972753114581,0.005518725240019888,-0.0011276055811317617,0.0064601401494976006, ,0.007044438082688104, ,0.005632744599563557, ,4.0433134836946896e-05, ,0.18327589657109605,-0.240856592881314,0.0936439896,1.6771001679892257,0.46934637669428797,-1.2897629084581512, ,0.01666905701009499,0.0012088902067027456,0.006934615376578147,-0.004543513422484815,0.017104620035284724,-0.0067630833529909225, ,0.9055838584899902
0.011206665914910091,0.02097654829889795,-0.0829148724074795, ,0.011479557684345264,0.020960213415180735,-0.08321923199278174, ,0.00040911062491319705, ,0.0024641513873832634,0.0015325973494875304,-0.006418972753114581,0.005518725240019888,-0.0011276055811317617,0.0064601401494976006, ,0.007044438082688104, ,0.005632744599563557, ,4.082581975294019e-05, ,0.18327589657109605,-0.240856592881314,0.0936439896,1.6771001679892257,0.46934637669428797,-1.2897629084581512, ,0.01666905701009499,0.0012088902067027456,0.006934615376578147,-0.004543513422484815,0.017104620035284724,-0.0067630833529909225, ,0.9136769771575928
0.011230924020500674,0.020991315791181242,-0.08297737204106234, ,0.011502365272584912,0.02096818349677645,-0.08327632678623065, ,0.0004044618598040309, ,0.002527959054760358,0.001502664029079709,-0.006381996901198627,-0.0010907034606671498,-0.008654767686338917,0.006177068496271636, ,0.00702698090318622, ,0.008723223438406416, ,4.120238509323968e-05, ,0.18343807396145478,-0.24084114741556556,0.09371139668,1.6771001679892257,0.46948301319405333,-1.2898743263618475, ,0.01673372272235422,0.0014055991916502248,0.006871790992234686,-0.004397962972527479,0.009444055800624768,-0.0005164068820420146, ,0.9217967987060547
0.01125656328776717,0.02100636234196844,-0.08304365203198928, ,0.011525237516989605,0.020976016833378228,-0.08333352644332809, ,0.00039640114239099646, ,0.002571019971342567,0.0014252441476323582,-0.006404789330001547,-0.0013699591029555282,-0.008375794071968071,0.005881692284064101, ,0.007047183191538609, ,0.008487090402613369, ,4.155692739663782e-05, ,0.1836079740846877,-0.2408179792169429,0.09378269263000001,1.6771001679892257,0.4696196496938188,-1.289985744265544, ,0.01723518735170192,0.0023664408929095332,0.006883669628349179,-0.004261501899898512,0.010208023160480072,-0.0011393710378399882, ,0.9306199550628662
0.011277653006759512,0.021019250278195716,-0.08309843809758397, ,0.0115481741648285,0.020983714141503837,-0.08339083007048156, ,0.00039992196712473833, ,0.0024905485278873033,0.0013686939485296576,-0.005991262676178823,0.0018913312204046635,-0.0038993232974852046,0.006364379225147101, ,0.006631092183756516, ,0.0043338029770677725, ,4.191142431571817e-05, ,0.18376242874217222,-0.24080253375119443,0.09384232197,1.6771001679892257,0.4698929226933497,-1.2901269013327963, ,0.01764867799116064,0.0018871017020974817,0.006480395248169244,-0.004145714119883315,0.015200055983508279,-0.0037185258611847054, ,0.9398088455200195
0.011307928430767573,0.02103614582519227,-0.08317169658227136, ,0.011571174963948019,0.020991276136233143,-0.08344823677621538, ,0.0003844301042912852, ,0.0025927115679671873,0.001598965226337093,-0.006752292009084605,0.012496867473793105,0.007138916743953206,0.006393304615769828, ,0.007407583306696855, ,0.014392213689986418, ,4.230846535423174e-05, ,0.18397094252977628,-0.24077936555257176,0.09392139566,1.6771001679892257,0.4700295591931152,-1.2901566404963523, ,0.018298677508382332,0.0015306623783437287,0.00732696022079117,-0.004005005490160302,0.027102693199674108,-0.013660684625576621, ,0.946246862411499
0.011307928430767573,0.02103614582519227,-0.08317169658227136, ,0.011594239662770942,0.02099870353120958,-0.0835057456711692, ,0.00044154823150302367, ,0.0025927115679671873,0.001598965226337093,-0.006752292009084605,0.012496867473793105,0.007138916743953206,0.006393304615769828, ,0.007407583306696855, ,0.014392213689986418, ,4.280358239075192e-05, ,0.18397094252977628,-0.24077936555257176,0.09392139566,1.6771001679892257,0.4700295591931152,-1.2901566404963523, ,0.018298677508382332,0.0015306623783437287,0.00732696022079117,-0.004005005490160302,0.027102693199674108,-0.013660684625576621, ,0.9527368545532227
0.011336391448408641,0.021052439677959087,-0.08324318514500195, ,0.011617368010295899,0.02100599703864118,-0.08356335586809541, ,0.0004285020875129816, ,0.002763550783663289,0.0016714261458591658,-0.007440186532871399,0.007121710076460936,0.0017889782075913587,0.0059031998907350496, ,0.008110934221091213, ,0.007342967699862753, ,4.326800072640169e-05, ,0.18414856538588342,-0.2407561973539491,0.09399787677000002,1.6771001679892257,0.4700295591931152,-1.2901566404963523, ,0.018231881183183626,0.0026153516881560106,0.008008452247360484,-0.0038936015876276445,0.021535459968386284,-0.009489432434523873, ,0.9592189788818359
0.011365488559635635,0.021070255317198635,-0.08332040389390138, ,0.011640559756096873,0.0210131573693016,-0.08362106648185794, ,0.00041148794705726257, ,0.0031524186707005174,0.0019322219909908391,-0.008272373175517846,-0.0036948241313167116,-0.01501839312440746,0.005074820521033161, ,0.009061091725221472, ,0.0154662153955457, ,4.369526944351935e-05, ,0.1843261882419906,-0.2407330291553264,0.09407824675000001,1.6771001679892257,0.4701661956928806,-1.290186379659908, ,0.019382545252955633,0.001967557553933531,0.008829718137472286,-0.0037911261355749876,0.0054873668159783565,0.0014853508198319067, ,0.966001033782959
0.011365488559635635,0.021070255317198635,-0.08332040389390138, ,0.011663814650322672,0.021020185232531696,-0.08367887662942977, ,0.00046905028715519376, ,0.0031524186707005174,0.0019322219909908391,-0.008272373175517846,-0.0036948241313167116,-0.01501839312440746,0.005074820521033161, ,0.009061091725221472, ,0.0154662153955457, ,4.421888013636831e-05, ,0.1843261882419906,-0.2407330291553264,0.09407824675000001,1.6771001679892257,0.4701661956928806,-1.290186379659908, ,0.019382545252955633,0.001967557553933531,0.008829718137472286,-0.0037911261355749876,0.0054873668159783565,0.0014853508198319067, ,0.9739289283752441
0.011386612869190123,0.02108408086900937,-0.08337950786425705, ,0.011687132443696365,0.021027081336240087,-0.08373678542989196, ,0.0004703277796423911, ,0.0032972750272861635,0.002142163425821006,-0.009200414920420062,0.0013569333723263146,-0.009122198342965862,0.005022662500240277, ,0.010005424601503839, ,0.009222564982819368, ,4.473734702523213e-05, ,0.18446519743372664,-0.24071758368957796,0.09414435754000001,1.6771001679892257,0.470302832192646,-1.2902977975636045, ,0.01963114223385825,0.0022577655114177355,0.009850842003710576,-0.003718408329990979,0.011738617528917507,-0.0036861938394763404, ,0.9806838035583496
0.011429981009034642,0.021114743536241282,-0.08351189941938764, ,0.011710512887514436,0.02103384638690501,-0.08379479200443044, ,0.00040653499023618445, ,0.0032921773186271276,0.0024584425797726465,-0.010210464930695462,0.035446219448294757,0.027882718477304166,0.0053229476267129495, ,0.011006178515555886, ,0.04509856263658129, ,4.513662001143433e-05, ,0.1847354930843245,-0.24067897002520686,0.09428694944,1.6771001679892257,0.4708493781917078,-1.2906617904382496, ,0.021060129063131552,0.0018143701104984698,0.011046332538141471,-0.0035903936822002974,0.05095392634493384,-0.03636930413234406, ,0.9877150058746338
0.011429981009034642,0.021114743536241282,-0.08351189941938764, ,0.011733955733646566,0.021040481089574913,-0.08385289547633552, ,0.0004628108199272974, ,0.0032921773186271276,0.0024584425797726465,-0.010210464930695462,0.035446219448294757,0.027882718477304166,0.0053229476267129495, ,0.011006178515555886, ,0.04509856263658129, ,4.5628369732482346e-05, ,0.1847354930843245,-0.24067897002520686,0.09428694944,1.6771001679892257,0.4708493781917078,-1.2906617904382496, ,0.021060129063131552,0.0018143701104984698,0.011046332538141471,-0.0035903936822002974,0.05095392634493384,-0.03636930413234406, ,0.994175910949707
0.011468021008960043,0.021137785830360967,-0.08361268782750604, ,0.011757460734534887,0.02104698614786989,-0.08391109497099877, ,0.00042551940069615314, ,0.003214670582921754,0.001894427418724004,-0.00889821425225149,0.01743848775977317,0.00814258499457674,0.004036224065174185, ,0.009648895225904742, ,0.019245843446237136, ,4.604879520266612e-05, ,0.184959452337677,-0.24064807909370994,0.09439454151000001,1.6771001679892257,0.4708493781917078,-1.2905801116981088, ,0.021027463230328114,0.004340008272311518,0.009561111356542617,-0.0034947307875796262,0.03070768769621027,-0.021401635543328995, ,1.0010228157043457
0.011502484924500601,0.021154014780751032,-0.08369816750331487, ,0.011781027643193612,0.021053362263982703,-0.08396938961591247, ,0.0004015948326741737, ,0.0031783373011748097,0.0015316030082547574,-0.007670297671874199,0.009734462882579072,-0.0011101866886121929,-3.553307919235977e-05, ,0.008442813639426904, ,0.0097975637556533, ,4.64223341233938e-05, ,0.1851756888581553,-0.24059401996359037,0.09448528181000002,1.6768904780457412,0.4708493781917078,-1.2905801116981088, ,0.02234972716874017,0.00513953980681359,0.008253270217616581,0.00048290535379713314,0.02163557871984805,-0.014003938983573976, ,1.0080769062042236
0.011527894956066731,0.02116459902913693,-0.08375479227273594, ,0.011804656213208031,0.02105961013868025,-0.08402777854066606, ,0.0004026673106327057, ,0.003237383205671718,0.0010684467007585244,-0.006439360912128163,-0.010866907624496543,-0.023582416320721333,-0.00040624885007265794, ,0.007286123614746809, ,0.0259657472407685, ,4.6792603703836e-05, ,0.18536103444713667,-0.24054768356634504,0.09454620744000002,1.6768904780457412,0.4709860146914732,-1.2906098508616648, ,0.023623834094715152,0.006790622361793315,0.006883669628349179,0.00048290535379713314,0.0,0.004474600324638123, ,1.0177719593048096
0.011527894956066731,0.02116459902913693,-0.08375479227273594, ,0.011828346198734432,0.021065730471304323,-0.0840862608769458, ,0.00045816741102494487, ,0.003237383205671718,0.0010684467007585244,-0.006439360912128163,-0.010866907624496543,-0.023582416320721333,-0.00040624885007265794, ,0.007286123614746809, ,0.0259657472407685, ,4.7251920646564144e-05, ,0.18536103444713667,-0.24054768356634504,0.09454620744000002,1.6768904780457412,0.4709860146914732,-1.2906098508616648, ,0.023623834094715152,0.006790622361793315,0.006883669628349179,0.00048290535379713314,0.0,0.004474600324638123, ,1.0252008438110352
0.01156182701701054,0.0211771925229779,-0.0838261822638739, ,0.011852097354499224,0.021071723959773102,-0.0841448357585322, ,0.0004437572943718534, ,0.0029450908135818764,0.0011367031785135655,-0.00606498613417206,0.010847909729088728,-0.008299600987726292,-0.0023462932244505894, ,0.006837376018911536, ,0.013658715673136824, ,4.7761198104291224e-05, ,0.18563905283060878,-0.24047817897047702,0.09462398484000001,1.6768904780457412,0.47139592419076953,-1.2908624258326133, ,0.02234972716874017,0.005020332611404497,0.006555066469135804,0.00048290535379713314,0.014163523374674176,-0.015519248053710875, ,1.0300748348236084
0.01156182701701054,0.0211771925229779,-0.0838261822638739, ,0.011875909435798493,0.021077591300582066,-0.08420350232129797, ,0.0005009377157181782, ,0.0029450908135818764,0.0011367031785135655,-0.00606498613417206,0.010847909729088728,-0.008299600987726292,-0.0023462932244505894, ,0.006837376018911536, ,0.013658715673136824, ,4.8361288912018244e-05, ,0.18563905283060878,-0.24047817897047702,0.09462398484000001,1.6768904780457412,0.47139592419076953,-1.2908624258326133, ,0.02234972716874017,0.005020332611404497,0.006555066469135804,0.00048290535379713314,0.014163523374674176,-0.015519248053710875, ,1.0349838733673096
0.011592021212609499,0.021188436705698317,-0.08389221650390387, ,0.011899782198497362,0.02108333318880548,-0.08426225970320632, ,0.0004926413939651286, ,0.002945718313166381,0.0009343063071334439,-0.006872291451203622,0.030404844710205728,0.01980731441493228,-0.00576501304880008, ,0.00753515590060083, ,0.036287522247391325, ,4.894151850672455e-05, ,0.1858707348168355,-0.24040095164173475,0.09469528079,1.6771001679892257,0.4716691971903004,-1.2910035828998658, ,0.02329330916997319,0.009860021477947904,0.0073915598700696064,0.003726643098310085,0.04305678792030276,-0.03850514552656427, ,1.0398848056793213
0.011592021212609499,0.021188436705698317,-0.08389221650390387, ,0.011923715399029545,0.021088950318097065,-0.08432110704430949, ,0.0005512401203397949, ,0.002945718313166381,0.0009343063071334439,-0.006872291451203622,0.030404844710205728,0.01980731441493228,-0.00576501304880008, ,0.00753515590060083, ,0.036287522247391325, ,4.961330515924884e-05, ,0.1858707348168355,-0.24040095164173475,0.09469528079,1.6771001679892257,0.4716691971903004,-1.2910035828998658, ,0.02329330916997319,0.009860021477947904,0.0073915598700696064,0.003726643098310085,0.04305678792030276,-0.03850514552656427, ,1.0447149276733398
0.011626943046810587,0.021199072101014127,-0.08396824153568468, ,0.011947708794396708,0.021094443380691698,-0.08438004348674624, ,0.0005323708114077108, ,0.0035401724315422623,0.0013282148254864295,-0.008543430633077583,0.012274336459931512,0.0018852369873327845,-0.0048081096662972505, ,0.009342760965041448, ,0.012418269143253587, ,5.024724052442233e-05, ,0.18611013953593647,-0.24030055611436985,0.09477565077000001,1.6771001679892257,0.4716691971903004,-1.2908402254195848, ,0.02492041532522867,0.010056842957485284,0.009112592402745997,0.003726643098310085,0.026485255561786727,-0.020794374296369357, ,1.049665927886963
0.011626943046810587,0.021199072101014127,-0.08396824153568468, ,0.011971762142167731,0.021099813067406176,-0.0844390681747402, ,0.0005919715266125764, ,0.0035401724315422623,0.0013282148254864295,-0.008543430633077583,0.012274336459931512,0.0018852369873327845,-0.0048081096662972505, ,0.009342760965041448, ,0.012418269143253587, ,5.097294744060541e-05, ,0.18611013953593647,-0.24030055611436985,0.09477565077000001,1.6771001679892257,0.4716691971903004,-1.2908402254195848, ,0.02492041532522867,0.010056842957485284,0.009112592402745997,0.003726643098310085,0.026485255561786727,-0.020794374296369357, ,1.0549969673156738
0.01167531068481798,0.021218462262119993,-0.08408950684843432, ,0.011995875200478486,0.02110506006764074,-0.08449818025459799, ,0.0005316348552519689, ,0.004273387289211669,0.0017581625649293947,-0.010926730498182909,-0.017644609908073126,-0.024849495112651908,-0.0036589473854941558, ,0.011863659380993517, ,0.030476704388819633, ,5.159277724900173e-05, ,0.18641904885090543,-0.24016926965550803,0.09490398348000001,1.6771001679892257,0.4718058336900659,-1.2910333220634216, ,0.025620124610818248,0.011727341415776625,0.011509256878612718,0.003726643098310085,0.0,0.007101227916809018, ,1.0619068145751953
0.01167531068481798,0.021218462262119993,-0.08408950684843432, ,0.012020047728030872,0.021110185069379755,-0.08455737887470771, ,0.0005911614097689785, ,0.004273387289211669,0.0017581625649293947,-0.010926730498182909,-0.017644609908073126,-0.024849495112651908,-0.0036589473854941558, ,0.011863659380993517, ,0.030476704388819633, ,5.2303498874444674e-05, ,0.18641904885090543,-0.24016926965550803,0.09490398348000001,1.6771001679892257,0.4718058336900659,-1.2910333220634216, ,0.025620124610818248,0.011727341415776625,0.011509256878612718,0.003726643098310085,0.0,0.007101227916809018, ,1.0675058364868164
0.011718481029988376,0.02123893130889085,-0.08421716131453061, ,0.012044279484092677,0.02111518875919343,-0.08461666318553612, ,0.0005301495979808693, ,0.00413416142447865,0.002109974900284719,-0.012752175876023102,0.04845889625547954,0.0471240298673737,-0.004371700175982782, ,0.01357060331512584, ,0.0675939233956288, ,5.290842448442447e-05, ,0.18670478996725173,-0.240030260463772,0.09504009393000001,1.6771001679892257,0.4724890161888931,-1.2914270541016226, ,0.027043870492582153,0.013309528970332508,0.01361436882051282,0.003726643098310085,0.07487133742107796,-0.058922310348051433, ,1.0731008052825928
0.011718481029988376,0.02123893130889085,-0.08421716131453061, ,0.012068570228496774,0.02112007182223853,-0.08467603233962778, ,0.0005892814625908715, ,0.00413416142447865,0.002109974900284719,-0.012752175876023102,0.04845889625547954,0.0471240298673737,-0.004371700175982782, ,0.01357060331512584, ,0.0675939233956288, ,5.360286995077544e-05, ,0.18670478996725173,-0.240030260463772,0.09504009393000001,1.6771001679892257,0.4724890161888931,-1.2914270541016226, ,0.027043870492582153,0.013309528970332508,0.01361436882051282,0.003726643098310085,0.07487133742107796,-0.058922310348051433, ,1.0781919956207275
0.011765039950083935,0.021260266397541833,-0.08435514719120922, ,0.012092919721640248,0.02112483494225986,-0.08473548549160241, ,0.000520100035014029, ,0.0042740605983085135,0.0019012295712497046,-0.012732363645702008,0.003646369442058074,0.013850659812005183,-0.0012674584657165911, ,0.013564488633450278, ,0.01432258540631028, ,5.417958170865939e-05, ,0.18696736288497537,-0.2398758058062875,0.09518527841,1.6771001679892257,0.47276228918842395,-1.2916498899090156, ,0.02524526245237318,0.015266560739779726,0.013430701112984824,0.003726643098310085,0.03928275280952409,-0.016317519966762305, ,1.0830299854278564
0.011765039950083935,0.021260266397541833,-0.08435514719120922, ,0.012117327724484593,0.021129478801591182,-0.08479502179815397, ,0.0005785341313021375, ,0.0042740605983085135,0.0019012295712497046,-0.012732363645702008,0.003646369442058074,0.013850659812005183,-0.0012674584657165911, ,0.013564488633450278, ,0.01432258540631028, ,5.4844111079547814e-05, ,0.18696736288497537,-0.2398758058062875,0.09518527841,1.6771001679892257,0.47276228918842395,-1.2916498899090156, ,0.02524526245237318,0.015266560739779726,0.013430701112984824,0.003726643098310085,0.03928275280952409,-0.016317519966762305, ,1.0879149436950684
0.011808348311234246,0.021277045894341,-0.08446965543177098, ,0.012141793998554296,0.02113400408115647,-0.08485464041804704, ,0.0005290183610891311, ,0.00479885210431442,0.0017385820157653938,-0.012116501678522311,-0.02485344218362765,-0.018692425576781146,-0.0002773167264760418, ,0.013147671347818966, ,0.03109823308760012, ,5.551183423071029e-05, ,0.187229935802699,-0.23973679661455147,0.09530583338000001,1.6771001679892257,0.47289892568818936,-1.2915979503324309, ,0.02987938965946813,0.015323258769331627,0.01276347076923077,0.003726643098310085,0.01086306543791893,0.01163547836719823, ,1.0921359062194824
0.011808348311234246,0.021277045894341,-0.08446965543177098, ,0.012166318305936955,0.0211384114604712,-0.08491434051211706, ,0.0005874579508732982, ,0.00479885210431442,0.0017385820157653938,-0.012116501678522311,-0.02485344218362765,-0.018692425576781146,-0.0002773167264760418, ,0.013147671347818966, ,0.03109823308760012, ,5.6268079123427554e-05, ,0.187229935802699,-0.23973679661455147,0.09530583338000001,1.6771001679892257,0.47289892568818936,-1.2915979503324309, ,0.02987938965946813,0.015323258769331627,0.01276347076923077,0.003726643098310085,0.01086306543791893,0.01163547836719823, ,1.0956377983093262
0.011808348311234246,0.021277045894341,-0.08446965543177098, ,0.01219090040928225,0.021142701617643405,-0.08497412124326688, ,0.0006472095853512519, ,0.00479885210431442,0.0017385820157653938,-0.012116501678522311,-0.02485344218362765,-0.018692425576781146,-0.0002773167264760418, ,0.013147671347818966, ,0.03109823308760012, ,5.711408138150413e-05, ,0.187229935802699,-0.23973679661455147,0.09530583338000001,1.6771001679892257,0.47289892568818936,-1.2915979503324309, ,0.02987938965946813,0.015323258769331627,0.01276347076923077,0.003726643098310085,0.01086306543791893,0.01163547836719823, ,1.099195957183838
0.01185084123891602,0.02129124442895624,-0.0845795271211982, ,0.01221554007180154,0.021146875229374747,-0.08503398177646548, ,0.0006003138663982053, ,0.004868519358024778,0.0014232028445423802,-0.012007880126334995,-0.01292716973406065,-0.028852651672169074,-0.008356551150711393, ,0.013035228122461318, ,0.03161624544753297, ,5.788077807493504e-05, ,0.18749250872042264,-0.23958234195706696,0.09542120319000001,1.6771001679892257,0.47303556218795484,-1.2916276894959866, ,0.029813679408881803,0.018408718052079685,0.012552254940898346,0.003726643098310085,0.0,-0.004688896927207315, ,1.1029608249664307
0.01185084123891602,0.02129124442895624,-0.0845795271211982, ,0.012240237057267475,0.0211509329709618,-0.08509392127874614, ,0.0006602406818074553, ,0.004868519358024778,0.0014232028445423802,-0.012007880126334995,-0.01292716973406065,-0.028852651672169074,-0.008356551150711393, ,0.013035228122461318, ,0.03161624544753297, ,5.873687732911364e-05, ,0.18749250872042264,-0.23958234195706696,0.09542120319000001,1.6771001679892257,0.47303556218795484,-1.2916276894959866, ,0.029813679408881803,0.018408718052079685,0.012552254940898346,0.003726643098310085,0.0,-0.004688896927207315, ,1.106212854385376
0.01185084123891602,0.02129124442895624,-0.0845795271211982, ,0.012264991130013121,0.021154875516297272,-0.08515393891920417, ,0.0007211556879925264, ,0.004868519358024778,0.0014232028445423802,-0.012007880126334995,-0.01292716973406065,-0.028852651672169074,-0.008356551150711393, ,0.013035228122461318, ,0.03161624544753297, ,5.96830872559699e-05, ,0.18749250872042264,-0.23958234195706696,0.09542120319000001,1.6771001679892257,0.47303556218795484,-1.2916276894959866, ,0.029813679408881803,0.018408718052079685,0.012552254940898346,0.003726643098310085,0.0,-0.004688896927207315, ,1.1094958782196045
0.011909738362983471,0.02131066971356312,-0.08473887659119053, ,0.012289802054931447,0.021158703537871006,-0.08521403386899559, ,0.0006271495572371298, ,0.005031565078921017,0.001852287777723012,-0.013953373571077985,0.0423986741206953,0.03290898642491877,-0.007695832288837787, ,0.014948051751615564, ,0.05367167247050303, ,6.047649879147802e-05, ,0.1878863680970081,-0.239342937237966,0.09558972089000001,1.6771001679892257,0.47371874468678205,-1.2921847790144687, ,0.03362754839067001,0.019446094581653847,0.014803728178438665,0.0037161634046597577,0.06695609199107974,-0.05939586357978626, ,1.1128089427947998
0.011909738362983471,0.02131066971356312,-0.08473887659119053, ,0.012314669597474879,0.02116241770677123,-0.08527420530133492, ,0.0006874043861435663, ,0.005031565078921017,0.001852287777723012,-0.013953373571077985,0.0423986741206953,0.03290898642491877,-0.007695832288837787, ,0.014948051751615564, ,0.05367167247050303, ,6.135882182661916e-05, ,0.1878863680970081,-0.239342937237966,0.09558972089000001,1.6771001679892257,0.47371874468678205,-1.2921847790144687, ,0.03362754839067001,0.019446094581653847,0.014803728178438665,0.0037161634046597577,0.06695609199107974,-0.05939586357978626, ,1.1161129474639893
0.011909738362983471,0.02131066971356312,-0.08473887659119053, ,0.012339593523654872,0.02116601869268581,-0.08533445239149307, ,0.0007486053104959164, ,0.005031565078921017,0.001852287777723012,-0.013953373571077985,0.0423986741206953,0.03290898642491877,-0.007695832288837787, ,0.014948051751615564, ,0.05367167247050303, ,6.233069708569163e-05, ,0.1878863680970081,-0.239342937237966,0.09558972089000001,1.6771001679892257,0.47371874468678205,-1.2921847790144687, ,0.03362754839067001,0.019446094581653847,0.014803728178438665,0.0037161634046597577,0.06695609199107974,-0.05939586357978626, ,1.119433879852295
0.01196546894069098,0.021330620323781302,-0.08488799617712817, ,0.012364573600040778,0.02116950716390325,-0.08539477431679582, ,0.0006648804871897017, ,0.005723121276293821,0.002163394858285225,-0.016093418603726165,0.016726715021203372,0.0008322633701808659,-0.009658952725206163, ,0.017217215710177456, ,0.016747375262139878, ,6.316694955166427e-05, ,0.18822616834347397,-0.23914214618323618,0.09574657198000001,1.6771001679892257,0.47399201768631294,-1.292325936081721, ,0.033687235200025124,0.021621540569257414,0.016909566369426754,0.003609922613704867,0.03422150741676397,-0.036863574115526807, ,1.12276291847229
0.01196546894069098,0.021330620323781302,-0.08488799617712817, ,0.012389609593760087,0.021172883787313915,-0.08545517025662187, ,0.0007255773873076185, ,0.005723121276293821,0.002163394858285225,-0.016093418603726165,0.016726715021203372,0.0008322633701808659,-0.009658952725206163, ,0.017217215710177456, ,0.016747375262139878, ,6.409170802111534e-05, ,0.18822616834347397,-0.23914214618323618,0.09574657198000001,1.6771001679892257,0.47399201768631294,-1.292325936081721, ,0.033687235200025124,0.021621540569257414,0.016909566369426754,0.003609922613704867,0.03422150741676397,-0.036863574115526807, ,1.1259968280792236
0.01196546894069098,0.021330620323781302,-0.08488799617712817, ,0.01241470127249695,0.021176149228411184,-0.08551563939240096, ,0.0007871512008011219, ,0.005723121276293821,0.002163394858285225,-0.016093418603726165,0.016726715021203372,0.0008322633701808659,-0.009658952725206163, ,0.017217215710177456, ,0.016747375262139878, ,6.510550461305209e-05, ,0.18822616834347397,-0.23914214618323618,0.09574657198000001,1.6771001679892257,0.47399201768631294,-1.292325936081721, ,0.033687235200025124,0.021621540569257414,0.016909566369426754,0.003609922613704867,0.03422150741676397,-0.036863574115526807, ,1.1292710304260254
0.012028623954222915,0.021353945347905086,-0.08506484656813863, ,0.01243984840449244,0.02117930415129279,-0.0855761809076119, ,0.0006790198102987967, ,0.006453567498275017,0.0024040581645165516,-0.017949526633507466,-0.0059291695639516456,-0.019990783802701105,-0.008816026141708221, ,0.019225335770284072, ,0.020851489767897406, ,6.594723590304087e-05, ,0.18858913678856254,-0.2389027414641352,0.09593194145000002,1.6771001679892257,0.4742652906858438,-1.2924670931489732, ,0.03609621208005735,0.02392158849469896,0.018783975849056604,0.0035058716923873595,0.015528400924314411,-0.01672732136946026, ,1.1327660083770752
0.012028623954222915,0.021353945347905086,-0.08506484656813863, ,0.01246505075854343,0.021182349218661665,-0.08563679398778061, ,0.0007396197928232165, ,0.006453567498275017,0.0024040581645165516,-0.017949526633507466,-0.0059291695639516456,-0.019990783802701105,-0.008816026141708221, ,0.019225335770284072, ,0.020851489767897406, ,6.687647951315881e-05, ,0.18858913678856254,-0.2389027414641352,0.09593194145000002,1.6771001679892257,0.4742652906858438,-1.2924670931489732, ,0.03609621208005735,0.02392158849469896,0.018783975849056604,0.0035058716923873595,0.015528400924314411,-0.01672732136946026, ,1.1362090110778809
0.012028623954222915,0.021353945347905086,-0.08506484656813863, ,0.012490308104002363,0.021185285091827367,-0.08569747782047858, ,0.0008011372151978623, ,0.006453567498275017,0.0024040581645165516,-0.017949526633507466,-0.0059291695639516456,-0.019990783802701105,-0.008816026141708221, ,0.019225335770284072, ,0.020851489767897406, ,6.78938335622008e-05, ,0.18858913678856254,-0.2389027414641352,0.09593194145000002,1.6771001679892257,0.4742652906858438,-1.2924670931489732, ,0.03609621208005735,0.02392158849469896,0.018783975849056604,0.0035058716923873595,0.015528400924314411,-0.01672732136946026, ,1.1399238109588623
0.012078340385398926,0.021372463640810288,-0.08521190803348508, ,0.012515620210776396,0.02118811243070711,-0.0857582315953203, ,0.0007236493961615503, ,0.006432782772794752,0.0023785025232436873,-0.01891178423308051,0.01462676805001069,0.00812944923763843,-0.00868683102891177, ,0.02011699657835717, ,0.01673403326600291, ,6.878724044523598e-05, ,0.18887487790490884,-0.23869422767653115,0.09608619996000001,1.6771001679892257,0.47467520018514014,-1.2928013468600625, ,0.0363450561311646,0.026905852440734554,0.01981195462686567,0.0034299305995047257,0.04452403753408992,-0.03948036439535749, ,1.145758867263794
0.012078340385398926,0.021372463640810288,-0.08521190803348508, ,0.012540986849327024,0.02119083189382706,-0.08581905450396243, ,0.0007846392028891117, ,0.006432782772794752,0.0023785025232436873,-0.01891178423308051,0.01462676805001069,0.00812944923763843,-0.00868683102891177, ,0.02011699657835717, ,0.01673403326600291, ,6.97676415391733e-05, ,0.18887487790490884,-0.23869422767653115,0.09608619996000001,1.6771001679892257,0.47467520018514014,-1.2928013468600625, ,0.0363450561311646,0.026905852440734554,0.01981195462686567,0.0034299305995047257,0.04452403753408992,-0.03948036439535749, ,1.1494150161743164
0.01216828108818329,0.021404706054491403,-0.0854740402899079, ,0.012566407790669372,0.02119344413832332,-0.08587994574010104, ,0.000606544065136194, ,0.006084608409253616,0.0018704768791124409,-0.016494858723412824,0.017699697904993,0.009960469661302995,-0.008124653173007148, ,0.01768054036376157, ,0.020309826211095245, ,7.047309287158698e-05, ,0.1893923010074819,-0.23831581376569413,0.09636101344,1.6771001679892257,0.4753583826839673,-1.2933584363785446, ,0.03773238232941184,0.025829325410579963,0.01733276552774755,0.003302032200833117,0.047850706410630814,-0.04140404572843523, ,1.1531248092651367
0.01216828108818329,0.021404706054491403,-0.0854740402899079, ,0.012591882806371885,0.021195949819943143,-0.08594090449946964, ,0.0006640630777906616, ,0.006084608409253616,0.0018704768791124409,-0.016494858723412824,0.017699697904993,0.009960469661302995,-0.008124653173007148, ,0.01768054036376157, ,0.020309826211095245, ,7.13684020494438e-05, ,0.1893923010074819,-0.23831581376569413,0.09636101344,1.6771001679892257,0.4753583826839673,-1.2933584363785446, ,0.03773238232941184,0.025829325410579963,0.01733276552774755,0.003302032200833117,0.047850706410630814,-0.04140404572843523, ,1.1548619270324707
0.01216828108818329,0.021404706054491403,-0.0854740402899079, ,0.012617411668555529,0.021198349593046194,-0.08600192997983852, ,0.0007231658123423248, ,0.006084608409253616,0.0018704768791124409,-0.016494858723412824,0.017699697904993,0.009960469661302995,-0.008124653173007148, ,0.01768054036376157, ,0.020309826211095245, ,7.235002465530657e-05, ,0.1893923010074819,-0.23831581376569413,0.09636101344,1.6771001679892257,0.4753583826839673,-1.2933584363785446, ,0.03773238232941184,0.025829325410579963,0.01733276552774755,0.003302032200833117,0.047850706410630814,-0.04140404572843523, ,1.1565229892730713
0.01216828108818329,0.021404706054491403,-0.0854740402899079, ,0.01264299414989301,0.02120064411060573,-0.08606302138101114, ,0.0007835129185772099, ,0.006084608409253616,0.0018704768791124409,-0.016494858723412824,0.017699697904993,0.009960469661302995,-0.008124653173007148, ,0.01768054036376157, ,0.020309826211095245, ,7.341944254090341e-05, ,0.1893923010074819,-0.23831581376569413,0.09636101344,1.6771001679892257,0.4753583826839673,-1.2933584363785446, ,0.03773238232941184,0.025829325410579963,0.01733276552774755,0.003302032200833117,0.047850706410630814,-0.04140404572843523, ,1.1582038402557373
0.01216828108818329,0.021404706054491403,-0.0854740402899079, ,0.012668630023608907,0.021202834024209572,-0.08612417790482364, ,0.0008448551900296177, ,0.006084608409253616,0.0018704768791124409,-0.016494858723412824,0.017699697904993,0.009960469661302995,-0.008124653173007148, ,0.01768054036376157, ,0.020309826211095245, ,7.457775447406965e-05, ,0.1893923010074819,-0.23831581376569413,0.09636101344,1.6771001679892257,0.4753583826839673,-1.2933584363785446, ,0.03773238232941184,0.025829325410579963,0.01733276552774755,0.003302032200833117,0.047850706410630814,-0.04140404572843523, ,1.1598429679870605
0.01216828108818329,0.021404706054491403,-0.0854740402899079, ,0.01269431906347831,0.021204919984061536,-0.08618539875514214, ,0.000907006775857104, ,0.006084608409253616,0.0018704768791124409,-0.016494858723412824,0.017699697904993,0.009960469661302995,-0.008124653173007148, ,0.01768054036376157, ,0.020309826211095245, ,7.582577399638304e-05, ,0.1893923010074819,-0.23831581376569413,0.09636101344,1.6771001679892257,0.4753583826839673,-1.2933584363785446, ,0.03773238232941184,0.025829325410579963,0.01733276552774755,0.003302032200833117,0.047850706410630814,-0.04140404572843523, ,1.1615569591522217
0.012232948233005768,0.021417507116628074,-0.08563167359997842, ,0.01272006104382684,0.021206902638982176,-0.08624668313786132, ,0.0008123237459027344, ,0.00718895540943094,0.0010967712766272388,-0.016708848447255207,-0.021628597245887084,-0.03386412780183295,-0.010111217496668684, ,0.018222777053604197, ,0.04018176288117559, ,7.692831587049434e-05, ,0.18980932858269,-0.2380146271835994,0.09652564227,1.6771001679892257,0.4756316556834982,-1.2935812721859374, ,0.046313783093445964,0.034837350058175766,0.017370568724100328,0.003218248422132686,0.011899427027939077,-0.01179531212030024, ,1.1632649898529053
0.012232948233005768,0.021417507116628074,-0.08563167359997842, ,0.012745855739529676,0.021208782636410545,-0.08630803026090234, ,0.0008741271942153494, ,0.00718895540943094,0.0010967712766272388,-0.016708848447255207,-0.021628597245887084,-0.03386412780183295,-0.010111217496668684, ,0.018222777053604197, ,0.04018176288117559, ,0.00042837903439102925, ,0.18980932858269,-0.2380146271835994,0.09652564227,1.6771001679892257,0.4756316556834982,-1.2935812721859374, ,0.046313783093445964,0.034837350058175766,0.017370568724100328,0.003218248422132686,0.011899427027939077,-0.01179531212030024, ,1.164923906326294
0.012232948233005768,0.021417507116628074,-0.08563167359997842, ,0.012771702926011246,0.02121056062240486,-0.08636943933421092, ,0.0009366865800865939, ,0.00718895540943094,0.0010967712766272388,-0.016708848447255207,-0.021628597245887084,-0.03386412780183295,-0.010111217496668684, ,0.018222777053604197, ,0.04018176288117559, ,0.00043251161606335095, ,0.18980932858269,-0.2380146271835994,0.09652564227,1.6771001679892257,0.4756316556834982,-1.2935812721859374, ,0.046313783093445964,0.034837350058175766,0.017370568724100328,0.003218248422132686,0.011899427027939077,-0.01179531212030024, ,1.1665558815002441
0.012232948233005768,0.021417507116628074,-0.08563167359997842, ,0.012797602379244481,0.0212122372416438,-0.08643090956975565, ,0.0009998740729843796, ,0.00718895540943094,0.0010967712766272388,-0.016708848447255207,-0.021628597245887084,-0.03386412780183295,-0.010111217496668684, ,0.018222777053604197, ,0.04018176288117559, ,0.00043708711974819797, ,0.18980932858269,-0.2380146271835994,0.09652564227,1.6771001679892257,0.4756316556834982,-1.2935812721859374, ,0.046313783093445964,0.034837350058175766,0.017370568724100328,0.003218248422132686,0.011899427027939077,-0.01179531212030024, ,1.1682429313659668
0.012232948233005768,0.021417507116628074,-0.08563167359997842, ,0.012823553875750474,0.021213813137427897,-0.08649244018152581, ,0.0010635907908181008, ,0.00718895540943094,0.0010967712766272388,-0.016708848447255207,-0.021628597245887084,-0.03386412780183295,-0.010111217496668684, ,0.018222777053604197, ,0.04018176288117559, ,0.0004420991491167572, ,0.18980932858269,-0.2380146271835994,0.09652564227,1.6771001679892257,0.4756316556834982,-1.2935812721859374, ,0.046313783093445964,0.034837350058175766,0.017370568724100328,0.003218248422132686,0.011899427027939077,-0.01179531212030024, ,1.1699209213256836
0.012232948233005768,0.021417507116628074,-0.08563167359997842, ,0.012849557192597602,0.021215288951680292,-0.08655403038552975, ,0.0011277592097324487, ,0.00718895540943094,0.0010967712766272388,-0.016708848447255207,-0.021628597245887084,-0.03386412780183295,-0.010111217496668684, ,0.018222777053604197, ,0.04018176288117559, ,0.0004475408956295801, ,0.18980932858269,-0.2380146271835994,0.09652564227,1.6771001679892257,0.4756316556834982,-1.2935812721859374, ,0.046313783093445964,0.034837350058175766,0.017370568724100328,0.003218248422132686,0.011899427027939077,-0.01179531212030024, ,1.1715748310089111
0.012312980127977642,0.021435404854043428,-0.08584158912433897, ,0.01287561210740125,0.021216665324948314,-0.08661567939979263, ,0.000981640199060129, ,0.008520011791858158,0.0025897273527769153,-0.024438724883740683,0.074825860521954,0.07531107181572431,-0.005041633334881094, ,0.026010547142232304, ,0.10616335631171862, ,0.0004517464019558049, ,0.19033447441813728,-0.23761304507413972,0.09674601157000001,1.6773098579327104,0.47645147468209087,-1.294249779608116, ,0.055658030239572304,0.0399566069719877,0.025816550275526744,-0.0015851677261796366,0.13405339696425783,-0.111166249378722, ,1.1732308864593506
0.012312980127977642,0.021435404854043428,-0.08584158912433897, ,0.012901718398323086,0.02121794289640435,-0.08667738644435516, ,0.0010452079286609993, ,0.008520011791858158,0.0025897273527769153,-0.024438724883740683,0.074825860521954,0.07531107181572431,-0.005041633334881094, ,0.026010547142232304, ,0.10616335631171862, ,0.00045638282013318925, ,0.19033447441813728,-0.23761304507413972,0.09674601157000001,1.6773098579327104,0.47645147468209087,-1.294249779608116, ,0.055658030239572304,0.0399566069719877,0.025816550275526744,-0.0015851677261796366,0.13405339696425783,-0.111166249378722, ,1.1751339435577393
0.012312980127977642,0.021435404854043428,-0.08584158912433897, ,0.012927875844070399,0.021219122303847173,-0.08673915074127149, ,0.0011092753217209635, ,0.008520011791858158,0.0025897273527769153,-0.024438724883740683,0.074825860521954,0.07531107181572431,-0.005041633334881094, ,0.026010547142232304, ,0.10616335631171862, ,0.0004614440023160402, ,0.19033447441813728,-0.23761304507413972,0.09674601157000001,1.6773098579327104,0.47645147468209087,-1.294249779608116, ,0.055658030239572304,0.0399566069719877,0.025816550275526744,-0.0015851677261796366,0.13405339696425783,-0.111166249378722, ,1.177677869796753
0.012312980127977642,0.021435404854043428,-0.08584158912433897, ,0.012954084223895882,0.021220204183702945,-0.08680097151460675, ,0.001173771852224301, ,0.008520011791858158,0.0025897273527769153,-0.024438724883740683,0.074825860521954,0.07531107181572431,-0.005041633334881094, ,0.026010547142232304, ,0.10616335631171862, ,0.0004669234473153345, ,0.19033447441813728,-0.23761304507413972,0.09674601157000001,1.6773098579327104,0.47645147468209087,-1.294249779608116, ,0.055658030239572304,0.0399566069719877,0.025816550275526744,-0.0015851677261796366,0.13405339696425783,-0.111166249378722, ,1.1810839176177979
0.012365518436956019,0.021453671956489888,-0.08599953358191031, ,0.012980343317596557,0.021221189171026555,-0.08686284799043578, ,0.0010850666557217206, ,0.009243105008749272,0.003735100654780281,-0.028641417291805662,0.11092936102095102,0.11375678215709614,-0.003496276219547088, ,0.030326832204954253, ,0.15888961372356536, ,0.0004716420977611848, ,0.19067427466460315,-0.23738136308791297,0.09691323298000001,1.6771001679892257,0.4774079301804489,-1.295029704933991, ,0.05836220268048633,0.03890813512032422,0.030398495267175574,-0.0025871928604306632,0.17624363042619023,-0.14545702342888003, ,1.1840009689331055
0.012365518436956019,0.021453671956489888,-0.08599953358191031, ,0.013006652905513722,0.021222077899502718,-0.08692477939684114, ,0.001149247158818131, ,0.009243105008749272,0.003735100654780281,-0.028641417291805662,0.11092936102095102,0.11375678215709614,-0.003496276219547088, ,0.030326832204954253, ,0.15888961372356536, ,0.00047677546943585865, ,0.19067427466460315,-0.23738136308791297,0.09691323298000001,1.6771001679892257,0.4774079301804489,-1.295029704933991, ,0.05836220268048633,0.03890813512032422,0.030398495267175574,-0.0025871928604306632,0.17624363042619023,-0.14545702342888003, ,1.1883208751678467
0.012365518436956019,0.021453671956489888,-0.08599953358191031, ,0.013033012768531933,0.021222871001447135,-0.08698676496391147, ,0.0012138548369317228, ,0.009243105008749272,0.003735100654780281,-0.028641417291805662,0.11092936102095102,0.11375678215709614,-0.003496276219547088, ,0.030326832204954253, ,0.15888961372356536, ,0.0004823174195674065, ,0.19067427466460315,-0.23738136308791297,0.09691323298000001,1.6771001679892257,0.4774079301804489,-1.295029704933991, ,0.05836220268048633,0.03890813512032422,0.030398495267175574,-0.0025871928604306632,0.17624363042619023,-0.14545702342888003, ,1.1900708675384521
0.012365518436956019,0.021453671956489888,-0.08599953358191031, ,0.013059422688078729,0.021223569107807636,-0.0870488039237386, ,0.0012788348919771815, ,0.009243105008749272,0.003735100654780281,-0.028641417291805662,0.11092936102095102,0.11375678215709614,-0.003496276219547088, ,0.030326832204954253, ,0.15888961372356536, ,0.00048826157980927045, ,0.19067427466460315,-0.23738136308791297,0.09691323298000001,1.6771001679892257,0.4774079301804489,-1.295029704933991, ,0.05836220268048633,0.03890813512032422,0.030398495267175574,-0.0025871928604306632,0.17624363042619023,-0.14545702342888003, ,1.1917948722839355
0.012513022048474364,0.021517608546284556,-0.08645465962257058, ,0.01308588244612402,0.02122417284816532,-0.08711089551041709, ,0.0009191948023263313, ,0.011430228249022472,0.004905127583564268,-0.03486742026883944,0.02348621649230922,0.017401328565741326,0.0011735327181028796, ,0.037019554165868475, ,0.02922938703353164, ,0.0004914536777538412, ,0.19152377528076783,-0.23684077178671725,0.09739415657000002,1.676680788102257,0.4793208411771651,-1.2966712343258815, ,0.060023365944636795,0.04173128476625804,0.03661795751724139,-0.008115857188013487,0.08093824489341796,-0.06398587956311193, ,1.1934947967529297
0.012513022048474364,0.021517608546284556,-0.08645465962257058, ,0.013112391825179289,0.021224682850735848,-0.08717303896004117, ,0.0009803664951663139, ,0.011430228249022472,0.004905127583564268,-0.03486742026883944,0.02348621649230922,0.017401328565741326,0.0011735327181028796, ,0.037019554165868475, ,0.02922938703353164, ,0.0004950486249406976, ,0.19152377528076783,-0.23684077178671725,0.09739415657000002,1.676680788102257,0.4793208411771651,-1.2966712343258815, ,0.060023365944636795,0.04173128476625804,0.03661795751724139,-0.008115857188013487,0.08093824489341796,-0.06398587956311193, ,1.195145845413208
0.012513022048474364,0.021517608546284556,-0.08645465962257058, ,0.013138950608297532,0.021225099742370284,-0.08723523351070345, ,0.0010424219669618073, ,0.011430228249022472,0.004905127583564268,-0.03486742026883944,0.02348621649230922,0.017401328565741326,0.0011735327181028796, ,0.037019554165868475, ,0.02922938703353164, ,0.0004990440507948663, ,0.19152377528076783,-0.23684077178671725,0.09739415657000002,1.676680788102257,0.4793208411771651,-1.2966712343258815, ,0.060023365944636795,0.04173128476625804,0.03661795751724139,-0.008115857188013487,0.08093824489341796,-0.06398587956311193, ,1.1967968940734863
0.012513022048474364,0.021517608546284556,-0.08645465962257058, ,0.01316555857907206,0.021225424148556934,-0.08729747840249301, ,0.0011052235709709873, ,0.011430228249022472,0.004905127583564268,-0.03486742026883944,0.02348621649230922,0.017401328565741326,0.0011735327181028796, ,0.037019554165868475, ,0.02922938703353164, ,0.0005034366560135338, ,0.19152377528076783,-0.23684077178671725,0.09739415657000002,1.676680788102257,0.4793208411771651,-1.2966712343258815, ,0.060023365944636795,0.04173128476625804,0.03661795751724139,-0.008115857188013487,0.08093824489341796,-0.06398587956311193, ,1.1984198093414307
0.012513022048474364,0.021517608546284556,-0.08645465962257058, ,0.013192215521636234,0.021225656693421607,-0.08735977287749314, ,0.0011686614833270987, ,0.011430228249022472,0.004905127583564268,-0.03486742026883944,0.02348621649230922,0.017401328565741326,0.0011735327181028796, ,0.037019554165868475, ,0.02922938703353164, ,0.0005082224461380919, ,0.19152377528076783,-0.23684077178671725,0.09739415657000002,1.676680788102257,0.4793208411771651,-1.2966712343258815, ,0.060023365944636795,0.04173128476625804,0.03661795751724139,-0.008115857188013487,0.08093824489341796,-0.06398587956311193, ,1.2000858783721924
0.012513022048474364,0.021517608546284556,-0.08645465962257058, ,0.01321892122066304,0.021225797999729627,-0.08742211617978006, ,0.0012326472433202298, ,0.011430228249022472,0.004905127583564268,-0.03486742026883944,0.02348621649230922,0.017401328565741326,0.0011735327181028796, ,0.037019554165868475, ,0.02922938703353164, ,0.000513396908975107, ,0.19152377528076783,-0.23684077178671725,0.09739415657000002,1.676680788102257,0.4793208411771651,-1.2966712343258815, ,0.060023365944636795,0.04173128476625804,0.03661795751724139,-0.008115857188013487,0.08093824489341796,-0.06398587956311193, ,1.201737880706787
0.01263405030784284,0.02156160710117261,-0.0868042531652098, ,0.01324567546136431,0.021225848688886318,-0.08748450755542081, ,0.0009744562972460699, ,0.011823340448116037,0.003530112488041072,-0.03360866368416852,-0.03428208398163812,-0.043129652039958895,0.0197792316263465, ,0.0358021696013779, ,0.05509433080698154, ,0.0005166668337146175, ,0.19213387117783157,-0.23637740781426378,0.09775841406,1.676471098158772,0.47945747767693053,-1.2967009734894372, ,0.06178186299379608,0.051602469580462634,0.034931604210526324,-0.03077764438689458,0.026370169603234395,-0.0214743296700018, ,1.2035448551177979
0.01263405030784284,0.02156160710117261,-0.0868042531652098, ,0.01327247802949024,0.021225809380938574,-0.08754694625247056, ,0.0010353468435974386, ,0.011823340448116037,0.003530112488041072,-0.03360866368416852,-0.03428208398163812,-0.043129652039958895,0.0197792316263465, ,0.0358021696013779, ,0.05509433080698154, ,0.0005203195098405528, ,0.19213387117783157,-0.23637740781426378,0.09775841406,1.676471098158772,0.47945747767693053,-1.2967009734894372, ,0.06178186299379608,0.051602469580462634,0.034931604210526324,-0.03077764438689458,0.026370169603234395,-0.0214743296700018, ,1.2052068710327148
0.01263405030784284,0.02156160710117261,-0.0868042531652098, ,0.013299328711328662,0.021225680694575956,-0.087609431520972, ,0.0010971572765020995, ,0.011823340448116037,0.003530112488041072,-0.03360866368416852,-0.03428208398163812,-0.043129652039958895,0.0197792316263465, ,0.0358021696013779, ,0.05509433080698154, ,0.0005243533403766475, ,0.19213387117783157,-0.23637740781426378,0.09775841406,1.676471098158772,0.47945747767693053,-1.2967009734894372, ,0.06178186299379608,0.051602469580462634,0.034931604210526324,-0.03077764438689458,0.026370169603234395,-0.0214743296700018, ,1.2068698406219482
0.01263405030784284,0.02156160710117261,-0.0868042531652098, ,0.013326227293704737,0.021225463247131694,-0.0876719626129526, ,0.0011597505576926648, ,0.011823340448116037,0.003530112488041072,-0.03360866368416852,-0.03428208398163812,-0.043129652039958895,0.0197792316263465, ,0.0358021696013779, ,0.05509433080698154, ,0.0005287658210524533, ,0.19213387117783157,-0.23637740781426378,0.09775841406,1.676471098158772,0.47945747767693053,-1.2967009734894372, ,0.06178186299379608,0.051602469580462634,0.034931604210526324,-0.03077764438689458,0.026370169603234395,-0.0214743296700018, ,1.2085299491882324
0.01263405030784284,0.02156160710117261,-0.0868042531652098, ,0.01335317356398013,0.021225157654584225,-0.08773453878242353, ,0.0012230158695707312, ,0.011823340448116037,0.003530112488041072,-0.03360866368416852,-0.03428208398163812,-0.043129652039958895,0.0197792316263465, ,0.0358021696013779, ,0.05509433080698154, ,0.0005335537524215449, ,0.19213387117783157,-0.23637740781426378,0.09775841406,1.676471098158772,0.47945747767693053,-1.2967009734894372, ,0.06178186299379608,0.051602469580462634,0.034931604210526324,-0.03077764438689458,0.026370169603234395,-0.0214743296700018, ,1.2102279663085938
0.01263405030784284,0.02156160710117261,-0.0868042531652098, ,0.013380167310052721,0.02122476453155774,-0.08779715928537662, ,0.0012868628758170547, ,0.011823340448116037,0.003530112488041072,-0.03360866368416852,-0.03428208398163812,-0.043129652039958895,0.0197792316263465, ,0.0358021696013779, ,0.05509433080698154, ,0.0005387134039516511, ,0.19213387117783157,-0.23637740781426378,0.09775841406,1.676471098158772,0.47945747767693053,-1.2967009734894372, ,0.06178186299379608,0.051602469580462634,0.034931604210526324,-0.03077764438689458,0.026370169603234395,-0.0214743296700018, ,1.2118308544158936
0.012756264936289587,0.021594224555414675,-0.08714913802866824, ,0.013407208320355773,0.021224284491323967,-0.08785982337978344, ,0.0010323064508995004, ,0.01312259974062372,0.003474365955153271,-0.03532416195964654,-0.04296399188311982,-0.05177683267272685,-0.041615947989992186, ,0.03784270419637431, ,0.06728068073806148, ,0.0005420711797812283, ,0.1927748580063922,-0.23580592558157118,0.09811619010000001,1.6762614082152878,0.4797307506764614,-1.29692380929683, ,0.07034613903518962,0.059422004732918456,0.03670233069124424,0.03181939502851977,0.011354865616236935,-0.009165247195545406, ,1.2135069370269775
0.012756264936289587,0.021594224555414675,-0.08714913802866824, ,0.013434296383857333,0.02122371814580296,-0.08792253032559279, ,0.0010932233479012475, ,0.01312259974062372,0.003474365955153271,-0.03532416195964654,-0.04296399188311982,-0.05177683267272685,-0.041615947989992186, ,0.03784270419637431, ,0.06728068073806148, ,0.0005457951809171743, ,0.1927748580063922,-0.23580592558157118,0.09811619010000001,1.6762614082152878,0.4797307506764614,-1.29692380929683, ,0.07034613903518962,0.059422004732918456,0.03670233069124424,0.03181939502851977,0.011354865616236935,-0.009165247195545406, ,1.2151718139648438
0.012756264936289587,0.021594224555414675,-0.08714913802866824, ,0.013461431290060194,0.021223066105564396,-0.08798527938472966, ,0.0011550543488085916, ,0.01312259974062372,0.003474365955153271,-0.03532416195964654,-0.04296399188311982,-0.05177683267272685,-0.041615947989992186, ,0.03784270419637431, ,0.06728068073806148, ,0.0005498841686211437, ,0.1927748580063922,-0.23580592558157118,0.09811619010000001,1.6762614082152878,0.4797307506764614,-1.29692380929683, ,0.07034613903518962,0.059422004732918456,0.03670233069124424,0.03181939502851977,0.011354865616236935,-0.009165247195545406, ,1.2168359756469727
0.012756264936289587,0.021594224555414675,-0.08714913802866824, ,0.013488612829000445,0.02122232897982878,-0.08804806982109227, ,0.0012176691350810722, ,0.01312259974062372,0.003474365955153271,-0.03532416195964654,-0.04296399188311982,-0.05177683267272685,-0.041615947989992186, ,0.03784270419637431, ,0.06728068073806148, ,0.0005543360683975432, ,0.1927748580063922,-0.23580592558157118,0.09811619010000001,1.6762614082152878,0.4797307506764614,-1.29692380929683, ,0.07034613903518962,0.059422004732918456,0.03670233069124424,0.03181939502851977,0.011354865616236935,-0.009165247195545406, ,1.2185568809509277
0.012756264936289587,0.021594224555414675,-0.08714913802866824, ,0.013515840791247702,0.02122150737646851,-0.08811090090055092, ,0.0012809611222238415, ,0.01312259974062372,0.003474365955153271,-0.03532416195964654,-0.04296399188311982,-0.05177683267272685,-0.041615947989992186, ,0.03784270419637431, ,0.06728068073806148, ,0.000559148154846724, ,0.1927748580063922,-0.23580592558157118,0.09811619010000001,1.6762614082152878,0.4797307506764614,-1.29692380929683, ,0.07034613903518962,0.059422004732918456,0.03670233069124424,0.03181939502851977,0.011354865616236935,-0.009165247195545406, ,1.2203259468078613
0.012756264936289587,0.021594224555414675,-0.08714913802866824, ,0.013543114967904031,0.021220601902009095,-0.08817377189094584, ,0.0013448425227941764, ,0.01312259974062372,0.003474365955153271,-0.03532416195964654,-0.04296399188311982,-0.05177683267272685,-0.041615947989992186, ,0.03784270419637431, ,0.06728068073806148, ,0.0005643171967411151, ,0.1927748580063922,-0.23580592558157118,0.09811619010000001,1.6762614082152878,0.4797307506764614,-1.29692380929683, ,0.07034613903518962,0.059422004732918456,0.03670233069124424,0.03181939502851977,0.011354865616236935,-0.009165247195545406, ,1.2221949100494385
0.012756264936289587,0.021594224555414675,-0.08714913802866824, ,0.01357043515060367,0.021219613161630287,-0.08823668206208561, ,0.0014092405255495088, ,0.01312259974062372,0.003474365955153271,-0.03532416195964654,-0.04296399188311982,-0.05177683267272685,-0.041615947989992186, ,0.03784270419637431, ,0.06728068073806148, ,0.0005698395714392093, ,0.1927748580063922,-0.23580592558157118,0.09811619010000001,1.6762614082152878,0.4797307506764614,-1.29692380929683, ,0.07034613903518962,0.059422004732918456,0.03670233069124424,0.03181939502851977,0.011354865616236935,-0.009165247195545406, ,1.2240159511566162
0.012756264936289587,0.021594224555414675,-0.08714913802866824, ,0.013597801131512339,0.021218541759167247,-0.08829963068574471, ,0.0014740943271219686, ,0.01312259974062372,0.003474365955153271,-0.03532416195964654,-0.04296399188311982,-0.05177683267272685,-0.041615947989992186, ,0.03784270419637431, ,0.06728068073806148, ,0.0005757113555670193, ,0.1927748580063922,-0.23580592558157118,0.09811619010000001,1.6762614082152878,0.4797307506764614,-1.29692380929683, ,0.07034613903518962,0.059422004732918456,0.03670233069124424,0.03181939502851977,0.011354865616236935,-0.009165247195545406, ,1.2258388996124268
0.012883689695993905,0.021627808558880714,-0.08750608869502438, ,0.01362521270332663,0.021217388297111735,-0.08836261703566198, ,0.0012049655430715362, ,0.01266215405845911,0.0028226340158917845,-0.03473001051975207,0.09863957670071562,0.10267663230281432,0.0057086583676380425, ,0.03707385923922558, ,0.14238049861417199, ,0.0005797710600025323, ,0.19353940856094043,-0.23518810695163322,0.09849081791000001,1.676471098158772,0.48109711567411584,-1.2978746308535132, ,0.08266284107880731,0.06347621508927812,0.03661795751724139,-0.01782283135983875,0.19315460304878018,-0.15994485398819494, ,1.2290098667144775
0.012883689695993905,0.021627808558880714,-0.08750608869502438, ,0.013652669659273675,0.02121615337661333,-0.08842564038753893, ,0.0012674247465706689, ,0.01266215405845911,0.0028226340158917845,-0.03473001051975207,0.09863957670071562,0.10267663230281432,0.0057086583676380425, ,0.03707385923922558, ,0.14238049861417199, ,0.0005841790964548921, ,0.19353940856094043,-0.23518810695163322,0.09849081791000001,1.676471098158772,0.48109711567411584,-1.2978746308535132, ,0.08266284107880731,0.06347621508927812,0.03661795751724139,-0.01782283135983875,0.19315460304878018,-0.15994485398819494, ,1.2307348251342773
0.012883689695993905,0.021627808558880714,-0.08750608869502438, ,0.013680171793110006,0.02121483759748045,-0.08848870001903765, ,0.0013305839921122714, ,0.01266215405845911,0.0028226340158917845,-0.03473001051975207,0.09863957670071562,0.10267663230281432,0.0057086583676380425, ,0.03707385923922558, ,0.14238049861417199, ,0.0005889332677648118, ,0.19353940856094043,-0.23518810695163322,0.09849081791000001,1.676471098158772,0.48109711567411584,-1.2978746308535132, ,0.08266284107880731,0.06347621508927812,0.03661795751724139,-0.01782283135983875,0.19315460304878018,-0.15994485398819494, ,1.2324748039245605
0.012963083148543211,0.021644691772341195,-0.08771705134393898, ,0.013707718899121757,0.02121344155818166,-0.08855179520977861, ,0.0011988563174164023, ,0.01252624076057168,0.002236779003276941,-0.032046785851102946,0.09823313293017544,0.10048027329236245,0.0040737513311297265, ,0.03448052162145695, ,0.14052046087934117, ,0.0005927935402309611, ,0.19407227712926192,-0.23479424757504777,0.09871377979000001,1.676471098158772,0.4823268441720048,-1.2989590707269216, ,0.0866638735693797,0.06272104531293508,0.03389108834042554,-0.015313495301047062,0.1944011650607477,-0.1582225650114821, ,1.2341690063476562
0.012963083148543211,0.021644691772341195,-0.08771705134393898, ,0.013735310772123564,0.021211965855846598,-0.08861492524133936, ,0.0012608587379479125, ,0.01252624076057168,0.002236779003276941,-0.032046785851102946,0.09823313293017544,0.10048027329236245,0.0040737513311297265, ,0.03448052162145695, ,0.14052046087934117, ,0.0005969952081411306, ,0.19407227712926192,-0.23479424757504777,0.09871377979000001,1.676471098158772,0.4823268441720048,-1.2989590707269216, ,0.0866638735693797,0.06272104531293508,0.03389108834042554,-0.015313495301047062,0.1944011650607477,-0.1582225650114821, ,1.2358520030975342
0.012963083148543211,0.021644691772341195,-0.08771705134393898, ,0.01376294720745799,0.021210411086267655,-0.08867808939725219, ,0.0013236224412407707, ,0.01252624076057168,0.002236779003276941,-0.032046785851102946,0.09823313293017544,0.10048027329236245,0.0040737513311297265, ,0.03448052162145695, ,0.14052046087934117, ,0.0006015366283480034, ,0.19407227712926192,-0.23479424757504777,0.09871377979000001,1.676471098158772,0.4823268441720048,-1.2989590707269216, ,0.0866638735693797,0.06272104531293508,0.03389108834042554,-0.015313495301047062,0.1944011650607477,-0.1582225650114821, ,1.2375819683074951
0.012963083148543211,0.021644691772341195,-0.08771705134393898, ,0.013790628000995446,0.02120877784390041,-0.08874128696300267, ,0.0013870508423225317, ,0.01252624076057168,0.002236779003276941,-0.032046785851102946,0.09823313293017544,0.10048027329236245,0.0040737513311297265, ,0.03448052162145695, ,0.14052046087934117, ,0.0006064155986211372, ,0.19407227712926192,-0.23479424757504777,0.09871377979000001,1.676471098158772,0.4823268441720048,-1.2989590707269216, ,0.0866638735693797,0.06272104531293508,0.03389108834042554,-0.015313495301047062,0.1944011650607477,-0.1582225650114821, ,1.2392668724060059
0.012963083148543211,0.021644691772341195,-0.08771705134393898, ,0.01381835294913293,0.02120706672186539,-0.08880451722602731, ,0.001451063114172114, ,0.01252624076057168,0.002236779003276941,-0.032046785851102946,0.09823313293017544,0.10048027329236245,0.0040737513311297265, ,0.03448052162145695, ,0.14052046087934117, ,0.000611629472173921, ,0.19407227712926192,-0.23479424757504777,0.09871377979000001,1.676471098158772,0.4823268441720048,-1.2989590707269216, ,0.0866638735693797,0.06272104531293508,0.03389108834042554,-0.015313495301047062,0.1944011650607477,-0.1582225650114821, ,1.2409260272979736
