NicholasDascanio/dvrk_moveit_final/test/execution/third_experiment_notsharpbends/thirdexp_700vel4.0/thirdexp_700vel4.0_28.csv
Current Position (x),Current Position (y),Current Position (z), ,Planned Position (x),Planned Position (y),Planned Position (z), ,Position Error,,Cartesian linear Velocity(x),Cartesian linear Velocity(y),Cartesian linear Velocity(z),Cartesian Angular Velocity(x),Cartesian Angular Velocity(y),Cartesian Angular Velocity(z), ,Total Linear Velocity, ,Total Angular Velocity, ,MSE, ,Joint 1 Position,Joint 2 Position,Joint 3 Position,Joint 4 Position,Joint 5 Position,Joint 6 Position, ,Joint 1 Velocity,Joint 2 Velocity,Joint 3 Velocity,Joint 4 Velocity,Joint 5 Velocity,Joint 6 Velocity, ,Time Stamp
0.009791780241615776,0.02013515502565617,-0.0797981752576682, ,0.009918646156803343,0.020043663504968397,-0.07985396852367484, ,0.0001660678997453357, ,2.292397536720974e-05,-2.0028632314445048e-05,-2.2408167475747344e-06,0.09546687970454548,0.0005177261049034049,-0.07035426032725758, ,3.0523368403894785e-05, ,0.09546828353354771, ,1.3838991645444643e-05, ,0.20284530167438097,-0.2273340876185469,0.09201973823000001,1.8062691731756926,0.8225517285879514,-1.2066299943146856, ,0.00031205809370375785,9.770404161217529e-05,0.0,-0.0019307592063595878,0.0,-0.12006628235376571, ,0.016716957092285156
0.009793445597013837,0.020135704782299,-0.07980320011177648, ,0.00994572149046305,0.02006260896533787,-0.07990485671518281, ,0.00019714210914739347, ,0.0001408230947051379,0.00012151325253304725,-0.0005662540157314019,0.21551842657921957,0.002074651260181169,-0.16057510927031632, ,0.000596020322535592, ,0.21552841198559824, ,1.6509545858760418e-05, ,0.2028530244072552,-0.22732636488567268,0.09202492339000001,1.8062691731756926,0.8225517285879514,-1.2085086053379186, ,0.00033513226096175863,0.0,0.0005932831916173553,-0.0019307592063595878,0.0,-0.2701837653607466, ,0.032688140869140625
0.009807039844755644,0.02013903410737093,-0.07982330223507036, ,0.009972804450599816,0.020081365478163294,-0.07995578708830431, ,0.00021989954907134638, ,0.0010522819275160702,1.231345216722154e-07,-0.000721921047360783,0.16262588077353082,-0.12552174189346982,-0.17386000734156307, ,0.0012761141284232914, ,0.2054334071794004, ,1.8222173686377363e-05, ,0.20287619260587786,-0.22732636488567268,0.09203918258,1.8062691731756926,0.8213220000900625,-1.2133050347546308, ,0.0010456270666035525,0.0,0.0,-0.0019307592063595878,-0.13343940615252267,-0.23456780810998112, ,0.05040597915649414
0.009833089301259241,0.020144007746640512,-0.07985677930639769, ,0.009999895008593716,0.020099933856003296,-0.08000675940582505, ,0.00022860595368340124, ,0.0011826165625149336,0.0004975529388709507,-0.0025031576966182177,0.13050189994473144,-0.08702557464921376,-0.13589487775470196, ,0.0028128169714812194, ,0.1568572488988389, ,1.9326559801130402e-05, ,0.2028839153387521,-0.2273340876185469,0.09205733064,1.8062691731756926,0.8183159970952228,-1.2155095290613214, ,0.00111299665318528,-3.5728249960953324e-05,0.0021089383715080104,0.0018438721373634625,-0.09290265902676424,-0.1836930802271879, ,0.06828999519348145
0.009841836325810182,0.02014770923768106,-0.07986897994516728, ,0.010026993135955358,0.020118314909917227,-0.08005777343077096, ,0.00026606399804221753, ,0.0006225711719662132,0.00015657204263617116,-0.0007550589318455036,0.19242590648475966,-0.04312097139663126,-0.16298340253765758, ,0.000991071974812284, ,0.19719824456792284, ,2.0726529032494123e-05, ,0.202914806270249,-0.2273340876185469,0.09206770096000001,1.8064788631191775,0.8177694510961611,-1.2179226133514556, ,0.0022047367134496324,-0.0001955144009600401,0.0005594118778268897,0.0017643511790547725,-0.04595022080937045,-0.24989342687144567, ,0.08474397659301758
0.009872557769501923,0.020157995352815667,-0.07991405640994881, ,0.010054098804325994,0.020136509449466208,-0.0801088289264071, ,0.0002671238000164553, ,0.0018182537465956997,0.0008451212200995145,-0.003417743765669898,-0.14983512283215233,-0.10602862254909587,0.0693283854372582, ,0.003962480159123481, ,0.1835555306530383, ,2.1691988866228224e-05, ,0.20300747906473968,-0.22734181035142112,0.09210399708000001,1.8066885530626617,0.815583267099914,-1.22006050641906, ,0.00563259628377172,-0.0016406806482829408,0.003080412206536453,0.0018244115428215815,-0.10501764260668478,0.16486577243259015, ,0.1023569107055664
0.009895649564970998,0.020173808736437336,-0.07997700559440205, ,0.010081211985477453,0.02015451828271383,-0.0801599256562386, ,0.0002612762571137325, ,0.001049618337324451,0.0008625988921462568,-0.00340904250094959,-0.1409899370382961,0.017005852791809137,0.11328134777846093, ,0.003669788314884161, ,0.1420118353334642, ,2.2308049539165034e-05, ,0.20313104279072727,-0.22734953308429534,0.09217140416000001,1.8066885530626617,0.815583267099914,-1.2161399268923128, ,0.0061287915041191975,0.0,0.0037844646044191024,0.0018244115428215815,0.025532437535426035,0.18186251649335677, ,0.11917591094970703
0.009903118886516508,0.020182805420666906,-0.0800102168281945, ,0.010108332651311735,0.020172342216227924,-0.08021106338400996, ,0.00028733518213316337, ,0.0005899499511892476,0.0008109843153787884,-0.00277319121288209,0.01329718160477383,0.0900534906197617,0.029794479218314164, ,0.002948953374996803, ,0.09102991931925361, ,2.3091643279915192e-05, ,0.2032005473865953,-0.22734953308429534,0.09221158915000001,1.8066885530626617,0.8164030860985066,-1.2156649319525235, ,0.007965210954152382,-8.4668531404046e-06,0.003578704003594698,0.0018244115428215815,0.10310592304826816,0.007612502705588109, ,0.1357109546661377
0.009914083010917571,0.02019211353250959,-0.08004599054812499, ,0.010135460773860995,0.020189982055081532,-0.08026224187370606, ,0.0003094790670423993, ,0.001181954340264419,0.0008752613834013266,-0.003422298892928842,0.004895665787441508,0.017639427266894825,0.005465605038919045, ,0.0037249467465032943, ,0.01830619942360914, ,2.394558495647223e-05, ,0.20328549744821175,-0.22734953308429534,0.09225307043000001,1.8066885530626617,0.8169496320975684,-1.2154571736461846, ,0.007756357274127434,-5.5023122471761815e-05,0.003821691823416507,0.0018244115428215815,0.026379239562110923,0.00048357381623886225, ,0.15423893928527832
0.009949897897908604,0.020211834581019102,-0.08010818637059457, ,0.010162596325287376,0.020207438602853723,-0.08031346088955112, ,0.00029563080652441503, ,0.0012903020583634403,0.00056334929024777,-0.0019900335831678252,0.03187611995212393,-0.01871168754762164,-0.03844333315706321, ,0.002437719320753595, ,0.036962335884665104, ,2.4496319828626078e-05, ,0.20356351583168386,-0.22734953308429534,0.09232307009000001,1.8073176228931154,0.8170862685973339,-1.216303700211146, ,0.009502291978315534,-7.596108397442748e-05,0.0021346571321361565,0.011955086686757824,-0.0129084805151721,-0.039673705758763306, ,0.17042994499206543
0.009965432351940636,0.020218564864058746,-0.08013629881068539, ,0.010189739277882748,0.020224712661631263,-0.08036472019600956, ,0.00032019950298837845, ,0.0014952914342573219,0.000741403904408652,-0.002774712683721067,-0.03091925073620755,-0.019852627576015344,0.009473252629066412, ,0.0032379942402725606, ,0.03674407282264671, ,2.51680725491807e-05, ,0.203671634091923,-0.22734953308429534,0.09235288476,1.8073176228931154,0.8169496320975684,-1.2163556397877309, ,0.010072879177421607,-7.428121908161604e-05,0.002962948571428572,0.010607812804914747,-0.012523203102529884,0.03832881007313488, ,0.18956208229064941
0.010002308467820607,0.020239385740725,-0.08021639066954603, ,0.010216889604068757,0.020241805032009338,-0.08041601955778592, ,0.00029309147040431044, ,0.0012537661425714819,0.0007352584784521998,-0.002697349317228346,-0.032568283698215926,-0.0006943608360361991,0.02052156921872464, ,0.003064021525633696, ,0.032575684795185994, ,2.550750488452909e-05, ,0.20391876154389818,-0.22736497855004378,0.09243973619000001,1.8073176228931154,0.8169496320975684,-1.2148854224652006, ,0.00882691833487922,-0.0001613342242531875,0.002977904565339316,0.008197511338246331,0.007014537046350632,0.044398568000267036, ,0.20649504661560059
0.010016016532451117,0.020246972931799292,-0.08024679983540875, ,0.010244047276396358,0.02025871651309288,-0.08046735873982443, ,0.0003174620641948624, ,0.0014290842738028237,0.0007783749170625925,-0.002906096254462117,0.008922228414628985,-0.004832492479023691,-0.011047327343612455, ,0.003330697346403826, ,0.010146878497122005, ,2.6178455420667262e-05, ,0.20401143433838886,-0.22736497855004378,0.09247084715000001,1.8073176228931154,0.8170862685973339,-1.2147518041484755, ,0.010250910290181246,-0.00014900436477234208,0.0031312780656575587,0.007568231466964794,0.003801679810292594,-0.039299068809090676, ,0.22164511680603027
0.010044286922830532,0.02026425714666229,-0.08030334270831985, ,0.010271212267545871,0.020275447902497832,-0.08051873750730984, ,0.0003130738962645809, ,0.001628218883798146,0.0009432558757269213,-0.0034439835757155346,0.002875034385632471,-0.0049391012209460084,-0.011802764087215582, ,0.003924519238129506, ,0.005714940341316479, ,2.6731796831228515e-05, ,0.2042122253931187,-0.227372701282918,0.09253566165,1.8077370027800843,0.8170862685973339,-1.2149151616287566, ,0.011084910557752329,-8.966399711343076e-05,0.0037719184276580634,0.013682624090162413,0.0032379823730558036,0.0006434108107709136, ,0.24118494987487793
0.010069653879968738,0.020279744411876386,-0.08036741016979923, ,0.010298384550326794,0.02029199999635217,-0.08057015562566694, ,0.0003058980856237802, ,0.0015987541797757453,0.001171538698511244,-0.0044826418744028495,0.003071587188096966,-0.002725450477582388,-0.011060061168218642, ,0.004901285140002541, ,0.0041064250084313384, ,2.717013182547498e-05, ,0.20435895731772896,-0.227372701282918,0.09260436502000001,1.8077370027800843,0.8170862685973339,-1.2149151616287566, ,0.008088893899477945,-8.476611198061483e-05,0.004823988952150212,0.01232610452612626,0.002728941364655972,-5.67860747819433e-05, ,0.25580406188964844
0.010098956889514218,0.020298594799761926,-0.08043952933443689, ,0.010325564097677528,0.020308373589296838,-0.08062161286056045, ,0.0002908622732530418, ,0.0014146169432489193,0.0007749491045558425,-0.0031120300072202114,0.0009796139527594983,-0.007053668240257312,-0.0006839485191331798, ,0.0035051987071516855, ,0.007121367765265742, ,2.7463366552207686e-05, ,0.20452885744096191,-0.227372701282918,0.09268214242000002,1.8079466927235692,0.8170862685973339,-1.2149151616287566, ,0.009465892873815506,-7.572171218844524e-05,0.003379043597793806,0.001158231997534322,0.0022689463183038177,-0.00031795802546475283, ,0.2705869674682617
0.010120117419056471,0.02031061557430814,-0.08048619716657228, ,0.010352750882665322,0.0203245694744875,-0.08067310897789565, ,0.0002987458199423851, ,0.0016268391662754423,0.0008422676506408659,-0.0033782947835210406,0.000990920075937971,-0.009140081245455258,-0.0008179128594514853, ,0.0038430321508685474, ,0.009193639504047587, ,2.777220200713293e-05, ,0.20466786663269795,-0.22738042401579223,0.09273269773000001,1.8079466927235692,0.8170862685973339,-1.2149151616287566, ,0.011336392492948367,-7.41471721893532e-05,0.0036770109695290864,0.0011947496410084871,0.0020317432711757575,-0.0003796288290604038, ,0.2874140739440918
0.010137362070233726,0.02031821335422341,-0.08051701759424168, ,0.010379944878486012,0.020340588443595074,-0.08072464374381816, ,0.0003200869904758856, ,0.001479976977315751,0.000647345991044527,-0.002551186369745418,0.0018819891894617184,-0.009562425516276098,-0.001542555025480243, ,0.0030195927835853778, ,0.009745863992253715, ,2.8170708668562986e-05, ,0.20479915309155977,-0.22738042401579223,0.09276640127,1.8079466927235692,0.8170862685973339,-1.2149151616287566, ,0.011615760465838076,-7.41471721893532e-05,0.0028122901694915257,0.001194495260956646,0.0018714616430825976,-0.001526051483157673, ,0.30186891555786133
0.010166707830306647,0.020334906513254355,-0.08056999832496226, ,0.01040714605846391,0.020356431286807187,-0.08077621692471393, ,0.00031749010743556313, ,0.0016702846263723877,0.0009394766615509229,-0.003311231981031987,0.0032480447098339298,-0.008310980689919542,-0.013808615297389974, ,0.003825797219260821, ,0.008923126922062475, ,2.851640450325756e-05, ,0.20502311234491227,-0.22738814674866648,0.09282603061000001,1.808366072610538,0.8172229050970993,-1.215026579532453, ,0.011592303437546678,-0.0003686734158419445,0.003629257580314423,0.014555370478106672,0.0,0.0, ,0.31735801696777344
0.01020218168868103,0.0203539429203132,-0.08064530185811289, ,0.010434354396051622,0.020372098792829318,-0.08082782828720946, ,0.00029588798399623426, ,0.0018468176948640465,0.0010286622389149185,-0.0037900900349697527,0.002652283383342171,-0.009811391862956051,-0.011516402999091306, ,0.004339776961205429, ,0.010163563186794265, ,2.8718674314942695e-05, ,0.20526251706401324,-0.2273958694815407,0.09290769688000002,1.808366072610538,0.8172229050970993,-1.2149449007923123, ,0.012545463316847295,-0.0002492406351857124,0.0041352054828660435,0.012127455256721726,0.0,0.0, ,0.33391714096069336
0.010221238278958433,0.020365238350397837,-0.08068300637497548, ,0.010461569864829932,0.02038759174888576,-0.08087947759817143, ,0.000311223211113154, ,0.001868438942221245,0.0009203494894908114,-0.0035830395824575953,-0.0011729197539621125,-0.012914837609003508,-0.0010285951083738433, ,0.004144427573630976, ,0.012967990230780333, ,2.897855186311348e-05, ,0.20539380352287506,-0.22740359221441492,0.09294917816,1.8085757625540226,0.8172229050970993,-1.2147815433120313, ,0.013496933801517676,-0.00026767496147468304,0.003911790648330059,0.002662011023426985,0.0,0.002444707255984516, ,0.3484361171722412
0.01025762977870686,0.020382179728207703,-0.08075112663802696, ,0.010488792438507553,0.0204029109407211,-0.08093116462470715, ,0.0002937339529340505, ,0.0018250856301548792,0.0008798643707338675,-0.003411652506072755,-0.0014700641913357718,-0.012723743509857768,-0.0007727463753341997, ,0.00396793040393569, ,0.012808385423975254, ,2.9133867835594752e-05, ,0.20567182190634714,-0.22740359221441492,0.09302436298000001,1.8085757625540226,0.8173595415968647,-1.214647924995306, ,0.013386506073983746,-0.00026767496147468304,0.003732148903467667,0.002662011023426985,8.837652754530385e-05,0.0028355869279248417, ,0.3706679344177246
0.010291372095973587,0.020399595658346727,-0.08081187108374749, ,0.010516022090920925,0.020418057152601064,-0.08098288913416499, ,0.0002829410195933848, ,0.0017741665070713228,0.0007791899597697237,-0.002766378879166709,0.014552574218359027,-0.00974023025400365,-0.015078878705390656, ,0.0033775221526022975, ,0.017511410611936427, ,2.9227696835925215e-05, ,0.205942117556945,-0.22741131494728914,0.09309306635,1.808785452497507,0.8176328145963956,-1.2145440458421366, ,0.014512454742081479,-0.0004251617772055366,0.0030977852042007007,0.007390030426727289,0.003163314842841268,-0.015030828678143019, ,0.3862640857696533
0.010326252029610431,0.020414649904350587,-0.0808667402414593, ,0.010543258796034165,0.020433031167313823,-0.08103465089413354, ,0.0002749978086881755, ,0.001674433012402964,0.0007274463787578343,-0.0024795665430907632,-0.004196962828224842,-0.008560141825424894,-0.004074437498977201, ,0.0030791483219565485, ,0.009533652236113905, ,2.927964699751151e-05, ,0.20621241320754286,-0.22741131494728914,0.09315399198,1.8089951424409914,0.8176328145963956,-1.214462367101996, ,0.013924716296180598,-0.00035415244079396886,0.0027964907865168542,0.010931938187842393,0.003163314842841268,0.009137706077706798, ,0.40643811225891113
0.010341419216740508,0.020420495130693675,-0.0808901861148186, ,0.01057050252793892,0.020447833766171018,-0.0810864496724418, ,0.0003028959367675747, ,0.001451210564044462,0.0006657842079266128,-0.0022776954976561296,-0.0030222428301937285,-0.006590109085930238,-0.004213578789378363, ,0.0027815782377567087, ,0.007250068236079931, ,2.9568129185694215e-05, ,0.20634369966640467,-0.22741131494728914,0.09317991778000001,1.8089951424409914,0.8176328145963956,-1.214462367101996, ,0.011775873474685975,-0.0003249832602903023,0.0025592563496143962,0.009954379148018,0.003163314842841268,0.007361580246432518, ,0.4197969436645508
0.010357110168072736,0.020426924879671057,-0.08091610165436801, ,0.01059775326085392,0.020462465729009154,-0.08113828523716032, ,0.0003294507467549535, ,0.0016802417267973763,0.0007779148943194105,-0.002767266062583802,0.0008354842919698637,-0.00826386942457492,-0.006447747043458608, ,0.0033295833529742224, ,0.008305996129681045, ,2.9945794686789334e-05, ,0.20646726339239227,-0.22741131494728914,0.09320843616,1.8089951424409914,0.8176328145963956,-1.2143806883618555, ,0.013305796629062085,-0.00030079329451991013,0.003087577344446598,0.009154658518270138,0.003163314842841268,0.0023340128494649653, ,0.4333460330963135
0.010384353478687151,0.0204404037711733,-0.0809674317092844, ,0.010625010969125206,0.020476927834190403,-0.08119015735660008, ,0.0003299344614547083, ,0.0017689665485441663,0.0008952882382750727,-0.00339425536694658,-0.002136812685122472,-0.006839677069204076,-0.0031255354389714196, ,0.003930871808582367, ,0.00716569259819088, ,3.0301574623641276e-05, ,0.20667577717999633,-0.22741903768016336,0.09326547292000001,1.8089951424409914,0.8177694510961611,-1.2144104275254115, ,0.012895358276732,-1.4703273428330971e-05,0.0037409139314232035,0.008103425336075231,0.004510746273935408,0.005735897581989891, ,0.4476780891418457
0.010410153237700859,0.02045813021957281,-0.08101921277060281, ,0.010652275627225614,0.020491220858604067,-0.08124206579931248, ,0.000330729064803423, ,0.0019311152759518692,0.001164225190248068,-0.0041651220682594695,0.007223372809296772,-0.0012471140229567113,-0.014684286837958053, ,0.0047363349064571915, ,0.007330239209930455, ,3.0638660378657655e-05, ,0.2068534000361035,-0.22742676041303758,0.09332380597,1.8096242122714452,0.8179060875959265,-1.2144401666889673, ,0.013026347502878623,-0.00032561750836947965,0.004595733271783036,0.016231710180404757,0.008558651518055778,-0.002563667807607508, ,0.4618339538574219
0.01043147344963195,0.02047181337854712,-0.08106405527224374, ,0.010679547209754805,0.020505345577667523,-0.08129401033409067, ,0.0003399181214768779, ,0.0019484491600262335,0.001064041423302307,-0.003998606370597513,0.0018740796446947623,-0.002233400566195422,-0.012630716609827251, ,0.004573564385322803, ,0.0029155190929787927, ,3.0989804224759945e-05, ,0.20699240922783954,-0.22744220587878602,0.09337306499,1.8098339022149297,0.8179060875959265,-1.2143584879488265, ,0.01356639621993864,0.0004733128688828686,0.004408749382784391,0.01733623033792027,0.007866446854824873,0.00323795647019773, ,0.47489404678344727
0.010468657112470935,0.020492130856086962,-0.08114144077270194, ,0.010706825691439027,0.02051930276532759,-0.08134599072996812, ,0.0003151242130923265, ,0.0017910952364464747,0.0006673218135326795,-0.0038317996399060026,-0.008702932529113257,-0.013132183910271863,0.03151992589697667, ,0.004282058970778143, ,0.015754214929136784, ,3.123155163229321e-05, ,0.2072395366798147,-0.22744220587878602,0.09345732384000001,1.8100435921584141,0.8179060875959265,-1.2141951304685454, ,0.012876111473333892,0.00098370123374102,0.0041244980631797,-0.02896944313234892,0.006658951870139596,0.00395219492656457, ,0.49026012420654297
0.010487370450822594,0.020501192166304444,-0.081178376930814, ,0.010734111047130962,0.020533093194061266,-0.08139800675621947, ,0.0003318672289428192, ,0.001726286210665071,0.0006263102248473445,-0.0035905358614014707,-0.0096953451634127,-0.0120725240774932,0.027581930224696842, ,0.00403289924878997, ,0.015483719024918002, ,3.1518316722798364e-05, ,0.20737082313867652,-0.22744220587878602,0.09349750883,1.8100435921584141,0.8179060875959265,-1.214113451728405, ,0.012557488627559982,0.0011952307032089356,0.0038709140996354805,-0.023649008133632594,0.006189828582824331,0.006142493140340403, ,0.5035579204559326
0.010521679602724612,0.02051768745662785,-0.0812499721986868, ,0.010761403251809507,0.02054671763487742,-0.0814500581823607, ,0.0003135993941998764, ,0.0018552863285739426,0.0008511681035418557,-0.003712004509852694,-0.006771682234835736,-0.008264206831795929,0.0064351234367877805, ,0.004236219066885843, ,0.01068423109744124, ,3.172734005755173e-05, ,0.20762567332352594,-0.22744220587878602,0.09357658252,1.8098339022149297,0.8181793605954574,-1.214091251315376, ,0.013253762787495918,0.0007673154897969209,0.0040541642962585904,0.0,0.00533504557803749,0.008726691155312567, ,0.5169289112091064
0.010539422290202327,0.02052674014782659,-0.0812861589784388, ,0.010788702280579744,0.02056017685731753,-0.0815021447781484, ,0.0003315243472512157, ,0.001744397048323929,0.0007684706261010394,-0.0032948749482137967,0.0002500269049225505,-0.0050079949177360365,0.002710128304683204, ,0.0038065297962512038, ,0.005014232360085711, ,3.198464345752127e-05, ,0.20775695978238776,-0.22744220587878602,0.09361676751,1.8098339022149297,0.8183159970952228,-1.2141209904789318, ,0.013213163681212862,0.0006290083014283273,0.0036383763179534036,0.0,0.008675429109263092,0.0009357937345350326, ,0.531278133392334
0.01057989658005368,0.02054642645869037,-0.08136325130686457, ,0.010816008108672446,0.02057347162945698,-0.08155426631358101, ,0.00030490462115121385, ,0.0018913981036997702,0.0009468737188320857,-0.003814636365644907,-0.0036639358027010845,-0.005522272666374275,0.006170147676726712, ,0.0043618123788391645, ,0.006627210586692579, ,3.214279659781496e-05, ,0.20804270089873406,-0.2274344831459118,0.09370102636000001,1.8100435921584141,0.8183159970952228,-1.2138759542585102, ,0.014023487743234933,0.0,0.00431792125779344,-0.00014665095901112015,0.007788675581249377,0.006509584993945024, ,0.5456171035766602
0.01059918726652133,0.02055679753437452,-0.08139889683732685, ,0.010843320711444343,0.02058660271790615,-0.08160642255889747, ,0.00032180182256901424, ,0.001988378681360704,0.0008911548586622747,-0.003440525960402161,-0.006650557228944034,-0.011594882269485641,0.0016088031137352023, ,0.004072471687661968, ,0.013366794896930476, ,3.2346128200917145e-05, ,0.20818943282334434,-0.2274344831459118,0.09374121135,1.8102532821018988,0.8184526335949883,-1.2139873721622068, ,0.015168948458834843,0.0,0.0038025331869181197,0.005392389073807804,0.0025641579584549587,0.01021692949360609, ,0.5590510368347168
0.010615558497146693,0.020564973286346436,-0.08143144434066042, ,0.010870640064377579,0.020599570887811725,-0.0816586132845786, ,0.00034332102913893443, ,0.0019217560329747353,0.0009966497115381611,-0.003852730159168928,0.005746341646137048,-0.0011000595818753689,-0.0034417170196679304, ,0.004419274440126311, ,0.005850689920764163, ,3.260549017494045e-05, ,0.2083129965493319,-0.2274344831459118,0.09377750747000001,1.8102532821018988,0.8185892700947538,-1.2140171113257625, ,0.014050479946471836,0.0,0.004278488186946012,0.005198240488859189,0.012423590259372565,-0.0029585259999419748, ,0.5731461048126221
0.010658989725485159,0.020586066540913446,-0.0815144922696964, ,0.010897966143079805,0.020612376902857596,-0.08171083826134597, ,0.0003104089427655967, ,0.0018121792907548836,0.000901355025563265,-0.0034925677151655026,0.01798416453242554,-0.0027867940339495936,-0.01267404961552284, ,0.00403664017581025, ,0.018198802004454687, ,3.285224846785641e-05, ,0.2086219058643009,-0.22744220587878602,0.09386824777000001,1.8102532821018988,0.8185892700947538,-1.2136903963652004, ,0.013470112357483433,0.0,0.003880343853836785,0.004293460274936992,0.010129456622296853,-0.01893270374222121, ,0.5869369506835938
0.010678326252299856,0.020595411705269493,-0.08155172403534103, ,0.01092529892328373,0.02062502152526626,-0.08176309726016302, ,0.0003264213256280902, ,0.0021306824678130345,0.0010105476346435255,-0.003984962938944786,0.01061180161284315,-0.012719157045650641,-0.01030883216716192, ,0.004630436688401315, ,0.016564639700801465, ,3.3135941368894925e-05, ,0.20876091505603694,-0.22744220587878602,0.09390713647000001,1.8102532821018988,0.8187259065945193,-1.2137201355287563, ,0.015283772194954224,0.0,0.004343826430324517,0.00398355852252569,0.0018068273989559288,-0.011888625135114458, ,0.5993139743804932
0.010699196203511745,0.020606376449273992,-0.0815905587640234, ,0.010952638380847209,0.02063750551579974,-0.08181539005223434, ,0.0003402220806971532, ,0.00216213174090387,0.001021154451006796,-0.004141477650687638,0.008414187219025066,-0.013668416771300314,-0.005489741785214379, ,0.004782196901945819, ,0.016050674826075247, ,3.344796007527789e-05, ,0.20891536971352143,-0.22744220587878602,0.09395250662000001,1.8104629720453833,0.8187259065945193,-1.2136384567886158, ,0.01544546574844902,0.0,0.004529090565823146,0.0,0.0018068273989559288,-0.010041368892870182, ,0.6108219623565674
0.010719708318020207,0.02061733296178681,-0.0816285675965066, ,0.010979984491752965,0.020649829633760833,-0.08186771640900613, ,0.0003549533417539402, ,0.002201238419210277,0.0010827778368264313,-0.004026466810364459,0.013075757075853556,-0.008408704215615112,-0.017474465140252214, ,0.004714901207564844, ,0.0155461161913228, ,3.378925279060838e-05, ,0.20906982437100594,-0.22744220587878602,0.09399528419000001,1.810672661988868,0.8188625430942845,-1.2136681959521716, ,0.016199546186150698,0.0,0.00445935372900336,0.012329706723809142,0.005211516327596599,-0.011945728706739918, ,0.6234080791473389
0.010743069907159519,0.020629016756166806,-0.08167542083407023, ,0.011007337232108366,0.020661994636994366,-0.08192007610216588, ,0.00036163650239771504, ,0.0022013284041759555,0.0012156628952811376,-0.004561227232876747,0.01102876307630539,-0.001285181684144456,-0.013296141274761754, ,0.005208500445227171, ,0.011103391598077517, ,3.413582268773708e-05, ,0.20923972449423886,-0.22744220587878602,0.09404713579000001,1.810672661988868,0.81899917959405,-1.2138612925960084, ,0.015315839502658291,-4.54885682363448e-06,0.005048751670364502,0.012329706723809142,0.011833191637761791,-0.00785411978604646, ,0.6346509456634521
0.010791943900820899,0.02065502321180899,-0.08178113285876754, ,0.011034696578145254,0.020674001281888153,-0.08197246890364285, ,0.00030967484812396306, ,0.002412619643538316,0.0013655055546080606,-0.005242892910742402,0.004354471708357212,-0.008225127738373281,-0.010803964136841853, ,0.005930705273200259, ,0.009306672134011386, ,3.432800771303545e-05, ,0.2095640792749563,-0.22744220587878602,0.09416250560000002,1.810672661988868,0.8191358160938155,-1.2138910317595644, ,0.015564530352381626,7.018269647980651e-06,0.005727727982740022,0.011895056105107155,0.004912151991241559,-0.0012838031132391015, ,0.6465051174163818
0.010811512813134402,0.02066554602367445,-0.08182426741930342, ,0.0110620625062199,0.0206858503233743,-0.08202489458560788, ,0.0003216188320837231, ,0.002499682374893367,0.0013850990899726624,-0.005339311843000397,0.0054056613606217555,-0.009175280710116633,-0.010969621692574375, ,0.006056002181406471, ,0.010649269764438777, ,3.4544868454615384e-05, ,0.2096876430009439,-0.22744220587878602,0.09420917204000001,1.810672661988868,0.8191358160938155,-1.2138093530194238, ,0.016353083156724242,9.78674301564518e-06,0.005836867541223892,0.011133978918423404,0.004912151991241559,-0.002783917825012268, ,0.6629610061645508
0.010847186107228908,0.020683767218277357,-0.08189557598685542, ,0.011089434992812711,0.020697542514930146,-0.0820773529204734, ,0.00030317838801607124, ,0.002268161452259507,0.0011169638203896526,-0.004386932648008575,-0.0018184328302090335,-0.010791936009984666,-0.0007144264140807264, ,0.0050633331519601725, ,0.010944065934412465, ,3.470550800653623e-05, ,0.20992704772004483,-0.2274344831459118,0.09428694944,1.8108823519323523,0.8191358160938155,-1.213564316799002, ,0.0160706082232804,0.0,0.004821068861985473,0.004794628075464737,0.004466878936637811,0.004507297203269543, ,0.6755819320678711
0.010870583618375871,0.020693989235532294,-0.08193605562024014, ,0.011116814014528006,0.020709078608579668,-0.08212984368089375, ,0.0003137051316444897, ,0.0019458896687166354,0.0007726684324477462,-0.0029375819393993897,-0.0012839527950160255,-0.010247030425942412,-0.0007089454176045353, ,0.003607338459308313, ,0.010327156777703534, ,3.48874272240137e-05, ,0.21011239330902623,-0.2274344831459118,0.09433231959,1.8108823519323523,0.819272452593581,-1.2136757347026985, ,0.015935674485049667,0.0,0.003301308087046633,0.004542104287455693,0.004956228076380331,0.003893563240064412, ,0.6870999336242676
0.0108875975215847,0.020700351155033617,-0.0819626979081814, ,0.01114419954809402,0.020720459354894454,-0.08218236663976469, ,0.0003383833496875155, ,0.0020488143671143484,0.0008471577872702372,-0.0032537600850410333,0.0034114690909183656,-0.007301963053118072,-0.002438857147942183, ,0.0039372923841687205, ,0.008059577248385897, ,3.512523368643648e-05, ,0.21026684796651074,-0.22742676041303758,0.09436343055000002,1.8108823519323523,0.8195457255931118,-1.2138168917699508, ,0.01663399501463116,5.7606309675890295e-05,0.0036617957517241385,0.0042582385485577644,0.008838625759360614,-0.0011813108506042481, ,0.698699951171875
0.010911261496903496,0.020710094621369534,-0.08199875333439709, ,0.01117159157036262,0.020731685502994843,-0.082234921570224, ,0.0003521552909302729, ,0.0021116991055727756,0.0008865908457162575,-0.003333865427386118,-0.0010722631489875557,-0.008301843277928192,0.002469412016541196, ,0.004044746608640046, ,0.008370803405892831, ,3.5388952433645454e-05, ,0.21043674808974366,-0.22741903768016336,0.09440102296000001,1.8110920418758367,0.8195457255931118,-1.21373521302981, ,0.017364490678585687,-0.0002844936795909065,0.003742671879699249,0.00264032390531479,0.008838625759360614,0.004392100092394655, ,0.7105720043182373
0.010964490510723967,0.020735372462966577,-0.08209460879620867, ,0.011198990058309068,0.020742757800551244,-0.08228750824565159, ,0.00030373471751553164, ,0.002116858611002813,0.0009660888201790699,-0.0034847303729738273,-0.0035631221405500436,-0.009881232602455166,-0.0035099477531786365, ,0.004190198534649409, ,0.01050402763793201, ,3.552556719091378e-05, ,0.21084605293207756,-0.22741903768016336,0.09450991132000001,1.8113017318193214,0.8196823620928773,-1.213601594713085, ,0.016367185505082923,-0.0002844936795909065,0.0038964803131115466,0.010221512731576643,0.00447613172140257,0.008402802449548597, ,0.7257940769195557
0.010985267965599406,0.02074471711574659,-0.0821316085078697, ,0.011226394989031933,0.0207536769937851,-0.08234012643966877, ,0.0003189079000678077, ,0.002116858611002813,0.0009660888201790699,-0.0034847303729738273,-0.0035631221405500436,-0.009881232602455166,-0.0035099477531786365, ,0.004190198534649409, ,0.01050402763793201, ,3.577978473159245e-05, ,0.2110082303224363,-0.22741903768016336,0.0945513926,1.8113017318193214,0.8198189985926427,-1.2134679763963596, ,0.01582934804978662,-0.0002844936795909065,0.0040738648388746815,0.009419835057095849,0.01347785780486698,-0.022634118061213168, ,0.7354140281677246
0.010985267965599406,0.02074471711574659,-0.0821316085078697, ,0.011253806339752894,0.020764443827469954,-0.08239277592613889, ,0.00037511387859396705, ,0.0020431572779339526,0.0010005244848884883,-0.0036119448194697097,0.022938666848494264,-0.0008060856500892737,-0.018787542698391776, ,0.0042686867167935775, ,0.02295282575733824, ,3.615996286003892e-05, ,0.21117813044566922,-0.22742676041303758,0.09459676275000001,1.8113017318193214,0.8199556350924082,-1.2134977155599156, ,0.018298677508382332,0.00021977940817739027,0.004890639091188211,0.008752716513094692,0.007216319076921646,-0.013097820382363968, ,0.7456309795379639
0.011033176095287119,0.020767852635624938,-0.08222197169489415, ,0.011281224087816476,0.020775059044933143,-0.08244545647916773, ,0.00033395387066894846, ,0.002581673679772701,0.0013163964759958734,-0.005185119877180562,-0.0040332004980381505,-0.010073770320278376,-0.0013070540860662895, ,0.005939983738326094, ,0.010851154361409886, ,3.643331354580694e-05, ,0.2113557533017764,-0.22742676041303758,0.09465120693000001,1.8113017318193214,0.8199556350924082,-1.2134977155599156, ,0.017658530249064157,0.00021977940817739027,0.005692927634024303,0.008153061265842743,0.006129923942095511,0.008236979699755993, ,0.7566690444946289
0.011057976062819736,0.020781281221386456,-0.08227533433749823, ,0.011308648210690227,0.020785523388055976,-0.08249816787310271, ,0.0003354240693302308, ,0.002560813462877606,0.0013712194111944833,-0.005389032368443648,0.004652351206588172,-0.00200960787071017,-0.00392295340009769, ,0.006122064858642474, ,0.0050678290222, ,3.67024937026166e-05, ,0.21153337615788353,-0.22742676041303758,0.09471083627000002,1.8113017318193214,0.820228908091939,-1.2137205513673082, ,0.017492523789579866,0.00021977940817739027,0.00595247067264574,0.007646849888930067,0.014535842322804709,-0.0007282457818996594, ,0.7674651145935059
0.01108409123737152,0.02079539881350702,-0.08232921632433303, ,0.011336078685964,0.020795837597275924,-0.08255090988253337, ,0.00033562762181750153, ,0.002413520020576562,0.0012462576162519518,-0.005143619284362005,0.00737572180182193,-0.0012851000833801886,0.0006945326124206975, ,0.005816790891741819, ,0.0074868384997828314, ,3.69647952017116e-05, ,0.2117109990139907,-0.22741903768016336,0.09477046561000001,1.8115114217628059,0.8203655445917044,-1.2137502905308641, ,0.01661651927131339,0.0003947583225014817,0.0056766969066286525,0.0,0.016163287881501308,-0.005886296121063661, ,0.77760910987854
0.011108593128161495,0.020808702381761076,-0.08237767037744695, ,0.011363515491350094,0.020806002411587136,-0.0826036822822918, ,0.00034069646640990774, ,0.002332297379352811,0.0011883741612896174,-0.004610402230335324,0.005181766258648509,-0.00031001789602664415,-0.006526613419423839, ,0.005301665109985514, ,0.0051910317444706375, ,3.7231404383773574e-05, ,0.2118731764043494,-0.22741903768016336,0.09482361350000001,1.8117211117062906,0.8203655445917044,-1.213586933050583, ,0.016695450661236944,0.0003947583225014817,0.005130052019323672,0.010368541558995855,0.014842212950898232,-0.0008256129850079726, ,0.7875211238861084
0.011133254540620176,0.020819752838445824,-0.08242532402511348, ,0.0113909586046831,0.020816018568541594,-0.08265648484745163, ,0.00034620897618391585, ,0.0025074433075675576,0.001249595921586975,-0.004856270469123937,0.007235321136963929,-0.0037962683170489064,-0.008970634665441091, ,0.005606436013832438, ,0.008170772447516213, ,3.750313126404188e-05, ,0.21204307652758236,-0.22741131494728914,0.09487546510000001,1.8117211117062906,0.8203655445917044,-1.2135052543104425, ,0.017942322094624843,0.0003654624946243913,0.005390460751269035,0.010368541558995855,0.012454677154943196,-0.003894332928344078, ,0.7978849411010742
0.011159437210387764,0.020832540077151507,-0.08247864603109639, ,0.011418408003919661,0.02082588680425046,-0.08270931735332923, ,0.000346870864794786, ,0.0026727268714556726,0.0014594157960798858,-0.005494963398814647,0.006589012697146972,-0.0014323770175211884,-0.00669352876567574, ,0.006282355143539828, ,0.006742906438150021, ,3.776918383437056e-05, ,0.21223614484943798,-0.22740359221441492,0.09493509444,1.8117211117062906,0.8206388175912352,-1.2135647326375543, ,0.018466032605267715,-0.00024271055089308108,0.006098319877488516,0.010368541558995855,0.015521850222351976,-0.0016387145984904572, ,0.8079869747161865
0.011187009635973156,0.020847485523029986,-0.08253526312215706, ,0.011445863667138213,0.020835607853385302,-0.08276217957548292, ,0.00034443804272550176, ,0.0027053573515609694,0.001333649483062121,-0.0052996158450093036,0.006186782393501506,-0.002938416444963951,-0.007236846471475698, ,0.006097828092689274, ,0.006849128660503848, ,3.802311258376556e-05, ,0.21243693590416782,-0.22741131494728914,0.09499861265000001,1.8117211117062906,0.8209120905907662,-1.213787568444947, ,0.019276242445352584,0.0006554351521255536,0.0058799599557032125,0.010041986004419879,0.014858263020770606,-0.002465852566424672, ,0.8176920413970947
0.011210424292593375,0.020858875541747677,-0.08258076841277262, ,0.011473325572538967,0.020845182449178906,-0.0828150712897138, ,0.0003524236398484648, ,0.002420701246619801,0.0011819248918913203,-0.004605195297789036,0.02169451246258439,0.011739485043582982,-0.012095459100254875, ,0.00533521927442886, ,0.0246671315317864, ,3.828754867811848e-05, ,0.21260683602740074,-0.22741131494728914,0.09504916796000001,1.8117211117062906,0.8210487270905317,-1.213817307608503, ,0.018769173567735515,0.0006554351521255536,0.005229419409061065,0.00938770347446094,0.029880898516206848,-0.018404394519849043, ,0.8276369571685791
0.011236466925960718,0.02086928189632047,-0.08262838137807424, ,0.011500793698443503,0.0208546113234268,-0.08286799227206498, ,0.00035706756906674926, ,0.0024927515078288576,0.001176549744810348,-0.004693170729371298,0.012129168382526086,0.006068122103672599,-0.006959097375079883, ,0.005442787050475506, ,0.013562404994687128, ,3.855507447013116e-05, ,0.21279218161638214,-0.2273958694815407,0.09510101956000001,1.8117211117062906,0.8210487270905317,-1.213653950128222, ,0.018979388311694156,0.0008365963031783288,0.005288450039840638,0.008777308237513208,0.024325536840914843,-0.008187640429912475, ,0.8435509204864502
0.011249455366337873,0.020876155724938287,-0.08265042418435846, ,0.011528268023294907,0.020863895206488025,-0.08292094229882195, ,0.0003886732152399912, ,0.0026024969600836837,0.0012306628602888284,-0.005083056310921052,0.011781448219461204,0.002033685151818668,-0.0036236322126894345, ,0.005841659264535499, ,0.011955684591492658, ,3.888151174900917e-05, ,0.21288485441087285,-0.2273958694815407,0.09512564907000001,1.811930801649775,0.8210487270905317,-1.2134905926479407, ,0.019163356534424632,0.0008365963031783288,0.0056746745707160675,0.0035188368404660774,0.021500417821298735,-0.009750140096914012, ,0.8540599346160889
0.01129871056681919,0.020900704037047874,-0.08275045397454983, ,0.011555748525657375,0.020873034827286606,-0.08297392114651286, ,0.00034171870653750935, ,0.0027505006365980307,0.0013983123216277165,-0.005779315905204107,-1.3233736981303621e-05,-0.003705610494689736,0.002550255947598096, ,0.006551413849917225, ,0.0037056332553000275, ,3.91037036261474e-05, ,0.21320920919159025,-0.2273958694815407,0.09523453743000002,1.811930801649775,0.8210487270905317,-1.2132455564275189, ,0.018610892637472204,0.0006996844065785287,0.006366431462829738,0.0035188368404660774,0.014940562406001983,0.0035383730233876807, ,0.8642621040344238
0.011324358335259034,0.020913830617924557,-0.08280151478127187, ,0.011583235184215883,0.020882030913312446,-0.08302692859190873, ,0.00034473153346491756, ,0.0025605053393881133,0.0010398995219827178,-0.0042349388151062635,-0.004141999275422518,-0.008784413311753596,0.004289624251221545, ,0.0050569047229059565, ,0.009711955203105638, ,3.9406366943255276e-05, ,0.2134100002463201,-0.2273958694815407,0.09529287048000001,1.811930801649775,0.821458636589828,-1.2134981313984676, ,0.020007788648212267,0.0005954781231551151,0.0047421290622209,0.0033464922008830857,0.011120399182672328,0.007860956253917946, ,0.8734469413757324
0.011349025825239376,0.020923398808363844,-0.08284103286923993, ,0.011610727977776531,0.020890884190622645,-0.08307996441202219, ,0.00035585600900609864, ,0.002170020156798436,0.0009553391471972067,-0.003542947426693189,0.024955213092985786,0.022705225764244278,-0.0034196855162435215, ,0.004263113514251161, ,0.033738552680329784, ,3.972529098801396e-05, ,0.21361851403392415,-0.22738814674866648,0.09533824063000002,1.811930801649775,0.8217319095893589,-1.2137209672058606, ,0.019526119662236788,0.00011900964401506212,0.004205071678986273,0.003161590597544263,0.043743282753435246,-0.020167575902575393, ,0.8815970420837402
0.011373634334451911,0.020933936558423228,-0.08288165402032183, ,0.011638226885265814,0.020899595383842555,-0.08313302838410941, ,0.00036657551062148087, ,0.0029621887665659593,0.00112851181941809,-0.004871918338611916,-0.028597763602947492,-0.04400892762648133,0.007640406024851134, ,0.005812373827743617, ,0.05248445285204188, ,4.005918573091935e-05, ,0.213819305088654,-0.227372701282918,0.09538490707000001,1.8121404915932593,0.8220051825888897,-1.2138621242731127, ,0.02041672580862108,0.0007876387913288489,0.005205493960784314,0.003051444806341867,-0.025459882350987985,0.029427674814759414, ,0.890172004699707
0.011403650632267587,0.020946741930247544,-0.082937032818958, ,0.01166573188573072,0.020908165216167052,-0.08318612028566867, ,0.0003636197359308097, ,0.0028320857609949175,0.0013534491032774904,-0.005630260067422774,-0.0017624166434394247,-0.011510345547509486,0.001245580368988574, ,0.006446112212768895, ,0.011644490602444272, ,4.038068928854968e-05, ,0.21402009614338383,-0.22736497855004378,0.09544453641,1.8121404915932593,0.8218685460891243,-1.2136690276292759, ,0.019315477622322566,0.0006963375266761535,0.0061787476803723835,0.003051444806341867,0.007550248113460896,0.0038810968941834184, ,0.8986010551452637
0.011403650632267587,0.020946741930247544,-0.082937032818958, ,0.011693242958338497,0.02091659440936143,-0.08323923989444129, ,0.0004196447364222489, ,0.0028320857609949175,0.0013534491032774904,-0.005630260067422774,-0.0017624166434394247,-0.011510345547509486,0.001245580368988574, ,0.006446112212768895, ,0.011644490602444272, ,4.0805136247574054e-05, ,0.21402009614338383,-0.22736497855004378,0.09544453641,1.8121404915932593,0.8218685460891243,-1.2136690276292759, ,0.019315477622322566,0.0006963375266761535,0.0061787476803723835,0.003051444806341867,0.007550248113460896,0.0038810968941834184, ,0.9067220687866211
0.011431943245006192,0.020960122603809812,-0.08299431096679369, ,0.01172076008237645,0.020924883683762715,-0.08329238698841099, ,0.00041654082836840877, ,0.0031821841134637365,0.0015937508678416016,-0.006864043901642615,-0.00014835893197984347,-0.013215121885915868,-0.0008687593902974799, ,0.007731845591086518, ,0.013215954055431748, ,4.121539714937046e-05, ,0.21420544173236522,-0.22735725581716956,0.09550675833000001,1.8121404915932593,0.8218685460891243,-1.2135873488891353, ,0.020177959081112223,0.0012976373803025043,0.007467797243319269,0.003051444806341867,0.006639497321753686,0.0009361340049019646, ,0.9148170948028564
0.011464838088066417,0.020978169108281864,-0.08307041222297891, ,0.011748283237251873,0.020933033758280904,-0.08334556134580473, ,0.0003975995374850094, ,0.0034199941846072223,0.0018688040911548358,-0.007865203794408429,-0.0047199197456367775,-0.019244375220756994,0.00031607133314388045, ,0.008777825452892135, ,0.01981473163945674, ,4.15815970570916e-05, ,0.21440623278709506,-0.22734953308429534,0.09558972089000001,1.8121404915932593,0.8220051825888897,-1.2136987667928316, ,0.019894537014354462,0.000768712835417371,0.008490837697228146,0.003051444806341867,0.0,0.005712146306059243, ,0.9245200157165527
0.011496555109522941,0.020995651794328805,-0.0831432458264534, ,0.011775812402491611,0.02094104535039998,-0.08339876274509168, ,0.0003824335172355412, ,0.0033284408786235344,0.0016998139458275535,-0.00737346686463654,0.006319461081154392,-0.008316715777726868,-0.0064355529404417225, ,0.008266553074698974, ,0.010445253845102385, ,4.1912137837300094e-05, ,0.2146070238418249,-0.22732636488567268,0.09567009087000002,1.812350181536744,0.8222784555884206,-1.213839923860084, ,0.020824433082833174,0.0017811834380518654,0.008036736387487387,0.006067767995715496,0.011736837702005736,-0.005716607959562702, ,0.9337069988250732
0.011530935990839052,0.021012463464299958,-0.08321675156879983, ,0.011803347557742257,0.020948919176178832,-0.08345199096498464, ,0.00036549078217223475, ,0.0031815682552693413,0.0015323558703785993,-0.006715371699976953,0.013914687871849706,-0.0022800204503783932,-0.009421539753957825, ,0.00758727277388079, ,0.014100248869020117, ,4.22046896065041e-05, ,0.2148309830951774,-0.2273109194199242,0.09575046085000001,1.812350181536744,0.8224150920881861,-1.2138696630236399, ,0.02123449128629912,0.002010329822604257,0.007384706314325453,0.0059633085216558345,0.018519865386509137,-0.013873807601357138, ,0.944831132888794
0.011568516879267816,0.021030220452959634,-0.0832917902297915, ,0.011830888682769651,0.020956655950253006,-0.08350524578443885, ,0.000346141550729019, ,0.003165931997158558,0.0015603255791686184,-0.006334775410215183,0.011362956457563732,-0.0031540526519853564,-0.005973411285673251, ,0.0072516977888979345, ,0.01179257467165976, ,4.245583849627454e-05, ,0.2150781105471526,-0.22730319668704999,0.09583212712000001,1.812350181536744,0.8224150920881861,-1.2137063055433588, ,0.02198724317851501,0.0006725137489507934,0.007023285502645503,0.005561854906249551,0.018519865386509137,-0.00918509445340001, ,0.9528779983520508
0.01159594433279123,0.021040829941524446,-0.08334225863888256, ,0.01185843575745875,0.020964256385835222,-0.0835585269826526, ,0.0003486219355862647, ,0.002910427509557695,0.0011256823508331549,-0.004930273199245646,0.004011108529864282,-0.009671761152695127,-0.003999865519536533, ,0.005834838717785382, ,0.010470527805227189, ,4.270693010420252e-05, ,0.21527890160188243,-0.22728002848842732,0.09588786759000001,1.812350181536744,0.8225517285879514,-1.2137360447069145, ,0.022084463941929432,0.0017135111074323293,0.00548890817367333,0.005281458570168805,0.01184281493334695,-0.002943706482189886, ,0.9612069129943848
0.01159594433279123,0.021040829941524446,-0.08334225863888256, ,0.01188598876181372,0.020971721194716856,-0.08361183433906745, ,0.0004019612516430796, ,0.0026789679119544473,0.0008956150044630648,-0.004186210483456786,0.002287508602741763,-0.010150577317436174,-0.0035590624185387575, ,0.005834838717785382, ,0.010470527882945264, ,4.3050774266834034e-05, ,0.21551058358810918,-0.22725686028980466,0.09593971919000001,1.812350181536744,0.8226883650877169,-1.2137657838704705, ,0.0211634570826206,0.0022504032856868867,0.004676691579565473,0.004984520307376264,0.010441380622218553,-0.0018564382234500174, ,0.9696040153503418
0.011625158552377612,0.02105056069184236,-0.08338865946042062, ,0.01191354767595732,0.020979051087269027,-0.08366516763336758, ,0.0004058801299050872, ,0.0026789679119544473,0.0008956150044630648,-0.004186210483456786,0.002287508602741763,-0.010150577317436174,-0.0035590624185387575, ,0.005050084506352784, ,0.01040513883613616, ,4.3474102224873434e-05, ,0.21551058358810918,-0.22725686028980466,0.09593971919000001,1.812350181536744,0.8226883650877169,-1.2137657838704705, ,0.0211634570826206,0.0022504032856868867,0.004676691579565473,0.004984520307376264,0.010441380622218553,-0.0018564382234500174, ,0.9769010543823242
0.011657131934439876,0.02106260877185727,-0.08344308833925845, ,0.01194111248013111,0.020986246772443703,-0.08371852664548074, ,0.000402917318838656, ,0.002871381865325025,0.001144601929473015,-0.005164868114097131,0.0215768853773546,0.009749605396585955,-0.008625660557335267, ,0.006019203438121029, ,0.02367734749293738, ,4.388601033627481e-05, ,0.2157731565058328,-0.22723369209118197,0.09600194111000002,1.812350181536744,0.8230982745870132,-1.2141000375815598, ,0.02248209939788457,0.002379423657780902,0.005845435420183487,0.0046876466082511285,0.03280692737638323,-0.020843742664259084, ,0.9867329597473145
0.011688073124422424,0.021076578343002975,-0.08350161661095323, ,0.011968683154695006,0.020993308957774872,-0.08377191115557756, ,0.0003984155123228955, ,0.003078947196489369,0.0013943126002261509,-0.006277640338131777,0.016996870694135798,0.008318090403693613,-0.0018197685255079514, ,0.007129711893257567, ,0.01892311368690936, ,4.428399510587801e-05, ,0.2159893930263111,-0.2272105238925593,0.09606675561000001,1.8125598714802285,0.8232349110867787,-1.2141297767451156, ,0.02204854590113169,0.002167802325495927,0.007001675393406594,0.00019753121199071996,0.03194061500592966,-0.016259552468712385, ,0.9933850765228271
0.011688073124422424,0.021076578343002975,-0.08350161661095323, ,0.011996259680127316,0.021000238349379634,-0.08382532094407207, ,0.00045342170550555276, ,0.003078947196489369,0.0013943126002261509,-0.006277640338131777,0.016996870694135798,0.008318090403693613,-0.0018197685255079514, ,0.007129711893257567, ,0.01892311368690936, ,4.4773863412761067e-05, ,0.2159893930263111,-0.2272105238925593,0.09606675561000001,1.8125598714802285,0.8232349110867787,-1.2141297767451156, ,0.02204854590113169,0.002167802325495927,0.007001675393406594,0.00019753121199071996,0.03194061500592966,-0.016259552468712385, ,1.0012450218200684
0.011724426666059266,0.02109214937990119,-0.083573307018403, ,0.012023842037024295,0.021007035651959487,-0.08387875579162116, ,0.0004361110685533408, ,0.0033741511417403245,0.0015298318632477892,-0.00683539101135353,0.006330083030532789,-0.003174164740674961,0.0018118255782588022, ,0.007774821652951813, ,0.007081331658151205, ,4.522635569251863e-05, ,0.21622879774541204,-0.22718735569393664,0.09614453301,1.8125598714802285,0.8232349110867787,-1.2138847405246938, ,0.02324196462367641,0.0020172368917775432,0.007545623647560399,0.00019753121199071996,0.021129730985384277,-0.005347598175243993, ,1.0076489448547363
0.01175796593158561,0.021104664513765553,-0.0836380844834874, ,0.012051430206100267,0.021013701568801255,-0.08393221547912554, ,0.0004253334931181302, ,0.00339370219071141,0.0012984273051559311,-0.006642013651182566,-0.0006776343097845891,-0.008063386878156975,0.003149378600804502, ,0.007570962512686842, ,0.008091809641705585, ,4.565367749382642e-05, ,0.21645275699876457,-0.2271487420295655,0.09621453267,1.8125598714802285,0.8232349110867787,-1.2137213830444127, ,0.023582738955882403,0.004044527084928067,0.007276752635906807,0.00019753121199071996,0.016357122684204473,-0.00021656863727631016, ,1.015104055404663
0.01175796593158561,0.021104664513765553,-0.0836380844834874, ,0.012079024168187265,0.021020236801778443,-0.08398569978772881, ,0.0004806691477346845, ,0.0035393546487012895,0.0015923831502978384,-0.006938779919590376,-0.0010150531233579134,-0.012103325267826795,0.004325412149938221, ,0.007950432830931064, ,0.012145814064823195, ,4.617113311493645e-05, ,0.21667671625211707,-0.22712557383094284,0.09628323604000001,1.8125598714802285,0.8235081840863095,-1.2139442188518057, ,0.024220760989910866,0.0015041589893715261,0.00763239651173934,0.00019753121199071996,0.012779556271258135,0.0024502079950592245, ,1.021881103515625
0.011789188874707968,0.021118167804521942,-0.08369982850818276, ,0.012106623904234783,0.021026642051352223,-0.08403920849881842, ,0.00047362510438936107, ,0.0035393546487012895,0.0015923831502978384,-0.006938779919590376,-0.0010150531233579134,-0.012103325267826795,0.004325412149938221, ,0.007950432830931064, ,0.012145814064823195, ,4.666930651481509e-05, ,0.21667671625211707,-0.22712557383094284,0.09628323604000001,1.8125598714802285,0.8235081840863095,-1.2139442188518057, ,0.024220760989910866,0.0015041589893715261,0.00763239651173934,0.00019753121199071996,0.012779556271258135,0.0024502079950592245, ,1.0293819904327393
0.011819969070971503,0.0211312239244119,-0.08376401832300304, ,0.012134229395309759,0.02103291801657269,-0.08409274139402463, ,0.0004652767567707905, ,0.003579479994893795,0.0014265250427805947,-0.007517875914631707,0.038654492708501256,0.033250610681503666,-0.008465317171618908, ,0.00844784641191615, ,0.05098796812219408, ,4.7146360505759494e-05, ,0.2169083982383438,-0.2270869601665717,0.09635582828000001,1.8125598714802285,0.8240547300853713,-1.2143082117264508, ,0.026746601341169893,0.005660152605551807,0.00846826768740032,0.00019753121199071996,0.06308766068519353,-0.04015597250556207, ,1.036557912826538
0.01186628465512083,0.021150067103267133,-0.08385678368331127, ,0.012161840622596261,0.021039065395079836,-0.08414629825522181, ,0.0004283612919947102, ,0.00366074124646863,0.0016436991701047616,-0.007624641006040171,0.009636799903483288,0.0043520465456493955,0.0024146987790189894, ,0.008616143215290067, ,0.010573939462012622, ,4.755414256353445e-05, ,0.21721730755331278,-0.22704062376932635,0.09645693890000001,1.8125598714802285,0.8241913665851368,-1.214256272149866, ,0.025071847175289503,0.0030169344183070845,0.008436870508474578,0.00019753121199071996,0.03099629082717515,-0.008381375760239009, ,1.0429670810699463
0.01186628465512083,0.021150067103267133,-0.08385678368331127, ,0.01218945756739565,0.021045084883105053,-0.08419987886452736, ,0.0004828833204326344, ,0.00366074124646863,0.0016436991701047616,-0.007624641006040171,0.009636799903483288,0.0043520465456493955,0.0024146987790189894, ,0.008616143215290067, ,0.010573939462012622, ,4.80485120739711e-05, ,0.21721730755331278,-0.22704062376932635,0.09645693890000001,1.8125598714802285,0.8241913665851368,-1.214256272149866, ,0.025071847175289503,0.0030169344183070845,0.008436870508474578,0.00019753121199071996,0.03099629082717515,-0.008381375760239009, ,1.0493600368499756
0.011906705743084427,0.021165631143687375,-0.08393996994999169, ,0.012217080211125579,0.02105097717547186,-0.08425348300430263, ,0.0004558160572673696, ,0.0038985401032561634,0.001507166704870022,-0.008317921111821214,-0.0027696596838088002,-0.006484166716286265,0.003988450994726848, ,0.009309026696462224, ,0.007050914334411584, ,4.849083088097023e-05, ,0.2174721577381622,-0.2269865646392068,0.09654638291,1.8125598714802285,0.8241913665851368,-1.214092914669585, ,0.02519833817272193,0.006225937105134871,0.009035060419739083,0.00021609167539529564,0.019734487328566103,0.0005196384749164961, ,1.0557940006256104
0.011906705743084427,0.021165631143687375,-0.08393996994999169, ,0.012244708535320963,0.021056742965597206,-0.08430711045715232, ,0.0005107784988482376, ,0.0038985401032561634,0.001507166704870022,-0.008317921111821214,-0.0027696596838088002,-0.006484166716286265,0.003988450994726848, ,0.009309026696462224, ,0.007050914334411584, ,4.910069065760684e-05, ,0.2174721577381622,-0.2269865646392068,0.09654638291,1.8125598714802285,0.8241913665851368,-1.214092914669585, ,0.02519833817272193,0.006225937105134871,0.009035060419739083,0.00021609167539529564,0.019734487328566103,0.0005196384749164961, ,1.0606529712677002
0.011947440334117742,0.021183952474489943,-0.08402737418179744, ,0.012272342521632775,0.02106238294549275,-0.0843607610059245, ,0.0004811313296119701, ,0.004244028465846385,0.0018418691306868254,-0.009335044387704093,-0.010231317581858891,-0.01860095525359435,0.002320306740786771, ,0.01041860418836886, ,0.02122911502907199, ,4.965522430817021e-05, ,0.21773473065588583,-0.22693250550908722,0.09664230837000001,1.8127695614237131,0.8244646395846676,-1.2141523929966966, ,0.025530519655224855,0.005256095485831359,0.010062420416929882,0.0036519219512319468,0.006518693052267368,0.008790424606042293, ,1.0654990673065186
0.011947440334117742,0.021183952474489943,-0.08402737418179744, ,0.012299982151828391,0.02106789780576576,-0.08441443443371183, ,0.0005362555901614799, ,0.004244028465846385,0.0018418691306868254,-0.009335044387704093,-0.010231317581858891,-0.01860095525359435,0.002320306740786771, ,0.01041860418836886, ,0.02122911502907199, ,5.029537293170239e-05, ,0.21773473065588583,-0.22693250550908722,0.09664230837000001,1.8127695614237131,0.8244646395846676,-1.2141523929966966, ,0.025530519655224855,0.005256095485831359,0.010062420416929882,0.0036519219512319468,0.006518693052267368,0.008790424606042293, ,1.0715289115905762
0.011984122837481613,0.021199984478070158,-0.08411369665711318, ,0.012327627407791274,0.021073288235620533,-0.08446813052384977, ,0.000509578937520309, ,0.004309146887775862,0.0018105226692831612,-0.009820109970709028,0.01924231277651007,0.014677713745669155,-0.006421292675248749, ,0.01087572062316955, ,0.024201276628837462, ,5.0885328225658314e-05, ,0.21796641264211256,-0.22687072364609343,0.09673693754000001,1.8127695614237131,0.8248745490839641,-1.214486646707786, ,0.027618434679415244,0.007445814102966475,0.010762710486486488,0.0036519219512319468,0.043686978529289544,-0.021818833127563227, ,1.0770020484924316
0.011984122837481613,0.021199984478070158,-0.08411369665711318, ,0.012355278271520893,0.021078554922859292,-0.08452184905991797, ,0.0005648804094770097, ,0.004309146887775862,0.0018105226692831612,-0.009820109970709028,0.01924231277651007,0.014677713745669155,-0.006421292675248749, ,0.01087572062316955, ,0.024201276628837462, ,5.155999995200861e-05, ,0.21796641264211256,-0.22687072364609343,0.09673693754000001,1.8127695614237131,0.8248745490839641,-1.214486646707786, ,0.027618434679415244,0.007445814102966475,0.010762710486486488,0.0036519219512319468,0.043686978529289544,-0.021818833127563227, ,1.0827949047088623
0.012049879615451089,0.02122578145373982,-0.0842575226746875, ,0.012382934725132362,0.021083698553883364,-0.08457558982574005, ,0.00048195432262312, ,0.004654166032991913,0.0019288231907726814,-0.010504371748395957,0.013360353825073702,0.003397416559730103,-0.006640024196563842, ,0.011650040609045847, ,0.013785549162707226, ,5.2093020021661864e-05, ,0.21837571748444645,-0.22676260538585427,0.09689249234000001,1.8127695614237131,0.8251478220834948,-1.2146278037750382, ,0.029002732750143877,0.00781351146779454,0.011434896999282127,0.0036519219512319468,0.033257080470882716,-0.017381557746954393, ,1.0882740020751953
0.012049879615451089,0.02122578145373982,-0.0842575226746875, ,0.012410596750856404,0.021088719813694534,-0.08462935260538318, ,0.000535873345398026, ,0.004654166032991913,0.0019288231907726814,-0.010504371748395957,0.013360353825073702,0.003397416559730103,-0.006640024196563842, ,0.011650040609045847, ,0.013785549162707226, ,5.270824576774459e-05, ,0.21837571748444645,-0.22676260538585427,0.09689249234000001,1.8127695614237131,0.8251478220834948,-1.2146278037750382, ,0.029002732750143877,0.00781351146779454,0.011434896999282127,0.0036519219512319468,0.033257080470882716,-0.017381557746954393, ,1.0931129455566406
0.01209992651565126,0.021244053738635707,-0.08436867439544343, ,0.01243826433103912,0.021093619385895993,-0.0846831371831587, ,0.00048578783091315225, ,0.005120434356059385,0.001648886109790115,-0.010704218527788804,-0.020659709313636348,-0.030691435624338445,0.001930705597604082, ,0.011979898484061923, ,0.0369971305519089, ,5.323673462840575e-05, ,0.21867690406654122,-0.22666220985848937,0.09701175102000001,1.8127695614237131,0.8252844585832603,-1.2145758641984534, ,0.03142282833061946,0.011064118171676667,0.011418502881720433,0.0036494384086534657,0.0,0.013186871806375887, ,1.0984361171722412
0.01209992651565126,0.021244053738635707,-0.08436867439544343, ,0.012465937448141796,0.02109839795269352,-0.0847369433436217, ,0.0005392602607956128, ,0.005120434356059385,0.001648886109790115,-0.010704218527788804,-0.020659709313636348,-0.030691435624338445,0.001930705597604082, ,0.011979898484061923, ,0.0369971305519089, ,5.3845964254265136e-05, ,0.21867690406654122,-0.22666220985848937,0.09701175102000001,1.8127695614237131,0.8252844585832603,-1.2145758641984534, ,0.03142282833061946,0.011064118171676667,0.011418502881720433,0.0036494384086534657,0.0,0.013186871806375887, ,1.103222131729126
0.012148860480698622,0.021259685993311996,-0.0844676428746385, ,0.012493616084740648,0.02110305619489657,-0.08479077087157134, ,0.0004977961657866333, ,0.004920005043757773,0.0013024445416157425,-0.009597340134945372,0.005350274594471077,-0.01746500189255853,-0.005049199645241235, ,0.010863321273000253, ,0.018266133907287024, ,5.438311804503804e-05, ,0.21900125884725866,-0.226546368865376,0.09711934309,1.8129792513671976,0.8255577315827912,-1.2146353425255652, ,0.03322722043363823,0.011736976946023102,0.010350104951267057,-0.0035766357185007982,0.017387174030839708,-0.017760272599829124, ,1.1093571186065674
0.012185867074432229,0.021271267987950426,-0.084546037553344, ,0.012521300223526911,0.021107594791919523,-0.0848446195520511, ,0.00047797021095719933, ,0.004488702957666141,0.0013769767062580469,-0.009713231017137175,0.051964508525765674,0.03725693352944564,-0.01690197845469826, ,0.010788483483975573, ,0.06394051263386333, ,5.488362815127347e-05, ,0.2192638317649823,-0.2264536960708853,0.09720619452000001,1.8129792513671976,0.826104277581853,-1.2150810141403507, ,0.03186599783696131,0.011905872425585584,0.010769987505070995,-0.0035766357185007982,0.07347006797122466,-0.06281448489729256, ,1.1154990196228027
0.012185867074432229,0.021271267987950426,-0.084546037553344, ,0.012548989847306324,0.021112014421782708,-0.08489848917034795, ,0.0005305110638295941, ,0.004488702957666141,0.0013769767062580469,-0.009713231017137175,0.051964508525765674,0.03725693352944564,-0.01690197845469826, ,0.010788483483975573, ,0.06394051263386333, ,5.546252084015919e-05, ,0.2192638317649823,-0.2264536960708853,0.09720619452000001,1.8129792513671976,0.826104277581853,-1.2150810141403507, ,0.03186599783696131,0.011905872425585584,0.010769987505070995,-0.0035766357185007982,0.07347006797122466,-0.06281448489729256, ,1.1204159259796143
0.012185867074432229,0.021271267987950426,-0.084546037553344, ,0.012576684938999145,0.02111631576111395,-0.08495237951199366, ,0.0005846901600210771, ,0.004488702957666141,0.0013769767062580469,-0.009713231017137175,0.051964508525765674,0.03725693352944564,-0.01690197845469826, ,0.010788483483975573, ,0.06394051263386333, ,5.62097844337566e-05, ,0.2192638317649823,-0.2264536960708853,0.09720619452000001,1.8129792513671976,0.826104277581853,-1.2150810141403507, ,0.03186599783696131,0.011905872425585584,0.010769987505070995,-0.0035766357185007982,0.07347006797122466,-0.06281448489729256, ,1.123810052871704
0.012244917594731314,0.02128564202996595,-0.08466179088024375, ,0.012604385481639885,0.021120499485148995,-0.08500629036276386, ,0.0005245656443990151, ,0.004838426474846827,0.0009502811722888499,-0.008817944736385018,0.009784293222926205,-0.0032366935557114128,-0.003378428449759377, ,0.010102947809072638, ,0.010305752070194785, ,5.685781285440362e-05, ,0.2196731366073162,-0.22629151868052658,0.09733193465000001,1.8129792513671976,0.8265141870811493,-1.2153335891112995, ,0.03533020906867862,0.01385559082471467,0.009613042558841281,-0.0035766357185007982,0.03461634902025917,-0.021844724090738152, ,1.1272330284118652
0.012244917594731314,0.02128564202996595,-0.08466179088024375, ,0.012632091458377182,0.021124566267733205,-0.08506022150867808, ,0.0005784427089556052, ,0.004838426474846827,0.0009502811722888499,-0.008817944736385018,0.009784293222926205,-0.0032366935557114128,-0.003378428449759377, ,0.010102947809072638, ,0.010305752070194785, ,5.758622521058983e-05, ,0.2196731366073162,-0.22629151868052658,0.09733193465000001,1.8129792513671976,0.8265141870811493,-1.2153335891112995, ,0.03533020906867862,0.01385559082471467,0.009613042558841281,-0.0035766357185007982,0.03461634902025917,-0.021844724090738152, ,1.1305711269378662
0.012244917594731314,0.02128564202996595,-0.08466179088024375, ,0.012659802852473628,0.021128516781322514,-0.08511417273600079, ,0.0006336146023185925, ,0.004838426474846827,0.0009502811722888499,-0.008817944736385018,0.009784293222926205,-0.0032366935557114128,-0.003378428449759377, ,0.010102947809072638, ,0.010305752070194785, ,5.839629107292954e-05, ,0.2196731366073162,-0.22629151868052658,0.09733193465000001,1.8129792513671976,0.8265141870811493,-1.2153335891112995, ,0.03533020906867862,0.01385559082471467,0.009613042558841281,-0.0035766357185007982,0.03461634902025917,-0.021844724090738152, ,1.133815050125122
0.012298002890150091,0.021297030420705597,-0.08475802267142535, ,0.012687519647305386,0.021132351696984627,-0.08516814383124018, ,0.0005891024969213791, ,0.005497954464349133,0.001211241362237064,-0.010330569336206796,-0.019565378090939993,-0.03028521379831339,0.006803534074066813, ,0.011765001986392801, ,0.0360554860873215, ,5.9131976298436585e-05, ,0.22004382778527895,-0.22615250948879054,0.09743563785,1.8129792513671976,0.8266508235809147,-1.215281649534715, ,0.03705464332622834,0.014590550670121582,0.011061674666666669,-0.0035766357185007982,0.00805576229677233,0.007527541875065127, ,1.1370339393615723
0.012298002890150091,0.021297030420705597,-0.08475802267142535, ,0.012715241826362373,0.02113607168440014,-0.08522213458114924, ,0.0006445121483976608, ,0.005497954464349133,0.001211241362237064,-0.010330569336206796,-0.019565378090939993,-0.03028521379831339,0.006803534074066813, ,0.011765001986392801, ,0.0360554860873215, ,5.994913188197818e-05, ,0.22004382778527895,-0.22615250948879054,0.09743563785,1.8129792513671976,0.8266508235809147,-1.215281649534715, ,0.03705464332622834,0.014590550670121582,0.011061674666666669,-0.0035766357185007982,0.00805576229677233,0.007527541875065127, ,1.1402599811553955
0.012298002890150091,0.021297030420705597,-0.08475802267142535, ,0.012742969373247821,0.021139677411863657,-0.08527614477272498, ,0.0007008606511476581, ,0.005497954464349133,0.001211241362237064,-0.010330569336206796,-0.019565378090939993,-0.03028521379831339,0.006803534074066813, ,0.011765001986392801, ,0.0360554860873215, ,6.0848454463067504e-05, ,0.22004382778527895,-0.22615250948879054,0.09743563785,1.8129792513671976,0.8266508235809147,-1.215281649534715, ,0.03705464332622834,0.014590550670121582,0.011061674666666669,-0.0035766357185007982,0.00805576229677233,0.007527541875065127, ,1.1435410976409912
0.012354616421296098,0.021311331047751816,-0.08487410346396791, ,0.012770702271678052,0.02114316954628493,-0.08533017419320894, ,0.0006398486036041007, ,0.006515507490581411,0.0016542149645571195,-0.013524624268760261,-0.007079294210436633,-0.01701272251466295,0.0016473506744531406, ,0.015103103211589539, ,0.018426846756053206, ,6.164807127584215e-05, ,0.22042224169611596,-0.22599033209843183,0.09756137798000002,1.8129792513671976,0.827060733080211,-1.2155342245056635, ,0.041712941344382755,0.018383754660687868,0.014507114316939893,-0.0035709521514509985,0.02689455891751251,-0.008194323274151668, ,1.1469440460205078
0.012354616421296098,0.021311331047751816,-0.08487410346396791, ,0.01279844050548248,0.021146548753190088,-0.08538422263008752, ,0.0006959558793109466, ,0.006515507490581411,0.0016542149645571195,-0.013524624268760261,-0.007079294210436633,-0.01701272251466295,0.0016473506744531406, ,0.015103103211589539, ,0.018426846756053206, ,6.252908625547178e-05, ,0.22042224169611596,-0.22599033209843183,0.09756137798000002,1.8129792513671976,0.827060733080211,-1.2155342245056635, ,0.041712941344382755,0.018383754660687868,0.014507114316939893,-0.0035709521514509985,0.02689455891751251,-0.008194323274151668, ,1.1502020359039307
0.012354616421296098,0.021311331047751816,-0.08487410346396791, ,0.012826184058603298,0.02114981569672266,-0.08543828987109109, ,0.0007528409839774438, ,0.006515507490581411,0.0016542149645571195,-0.013524624268760261,-0.007079294210436633,-0.01701272251466295,0.0016473506744531406, ,0.015103103211589539, ,0.018426846756053206, ,6.349194332827317e-05, ,0.22042224169611596,-0.22599033209843183,0.09756137798000002,1.8129792513671976,0.827060733080211,-1.2155342245056635, ,0.041712941344382755,0.018383754660687868,0.014507114316939893,-0.0035709521514509985,0.02689455891751251,-0.008194323274151668, ,1.1536259651184082
0.012412190540372209,0.021328951744886367,-0.08500361005919577, ,0.01285393291509543,0.021152971039644728,-0.08549237570419486, ,0.0006819071710833078, ,0.006434138486348371,0.0021483532392310876,-0.014898283970562148,0.06468141595483848,0.06521329330170086,-0.015218139073297873, ,0.016369863315542164, ,0.09185019574939154, ,6.434044987938443e-05, ,0.22082382380557564,-0.22582043197519888,0.09770526617000001,1.8129792513671976,0.8281538250783346,-1.2163438889950944, ,0.04327265916938932,0.017684856794347892,0.01648945291925466,-0.0034268323010061374,0.11491567503046225,-0.07601298711317969, ,1.1578121185302734
0.012491600392446768,0.021355043019418048,-0.08518829862688854, ,0.012881687059126155,0.021156015443338262,-0.08554647991761861, ,0.0005657503164738791, ,0.007436263840342115,0.0023850660031033504,-0.017431475162286034,-0.0019871806685276645,-0.00717963508383847,0.00012196311637968131, ,0.01910086087263435, ,0.007449458874414155, ,6.500671423413307e-05, ,0.22130263324377755,-0.2256041954547206,0.09790489483,1.8129792513671976,0.8288370075771617,-1.2166559422931549, ,0.042650310812795855,0.0205493593673605,0.01865200412177986,-0.0032670893914399785,0.03815311168508,-0.014462211517291244, ,1.1681029796600342
0.012491600392446768,0.021355043019418048,-0.08518829862688854, ,0.012909446474975002,0.021158949567805948,-0.0856006022998268, ,0.0006189041195271857, ,0.007436263840342115,0.0023850660031033504,-0.017431475162286034,-0.0019871806685276645,-0.00717963508383847,0.00012196311637968131, ,0.01910086087263435, ,0.007449458874414155, ,6.574970920534724e-05, ,0.22130263324377755,-0.2256041954547206,0.09790489483,1.8129792513671976,0.8288370075771617,-1.2166559422931549, ,0.042650310812795855,0.0205493593673605,0.01865200412177986,-0.0032670893914399785,0.03815311168508,-0.014462211517291244, ,1.1715970039367676
0.012491600392446768,0.021355043019418048,-0.08518829862688854, ,0.012937211147033695,0.02116177407167264,-0.08565474263952862, ,0.00067341803338931, ,0.007436263840342115,0.0023850660031033504,-0.017431475162286034,-0.0019871806685276645,-0.00717963508383847,0.00012196311637968131, ,0.01910086087263435, ,0.007449458874414155, ,6.657079801592089e-05, ,0.22130263324377755,-0.2256041954547206,0.09790489483,1.8129792513671976,0.8288370075771617,-1.2166559422931549, ,0.042650310812795855,0.0205493593673605,0.01865200412177986,-0.0032670893914399785,0.03815311168508,-0.014462211517291244, ,1.1752820014953613
0.012573930690235036,0.02137764858985153,-0.08537109113971068, ,0.012964981059805748,0.02116448961218634,-0.0857089007256779, ,0.0005589923592250605, ,0.007089664076272906,0.0017951273192186989,-0.014896616100499827,-0.045237828994837234,-0.02734615165055406,0.023467734152407566, ,0.016595029076572013, ,0.05286087824371665, ,6.721407711440007e-05, ,0.22177371994910525,-0.2253802362013681,0.09809804204000001,1.8127695614237131,0.8288370075771617,-1.2161658698523115, ,0.04359069433094661,0.020229576115640757,0.015897017485029943,-0.0024796366262877954,0.018008459323185153,0.03513970250033127, ,1.178663969039917
0.012573930690235036,0.02137764858985153,-0.08537109113971068, ,0.012992756197906437,0.021167096845219273,-0.08576307634747336, ,0.0006110640278634028, ,0.007089664076272906,0.0017951273192186989,-0.014896616100499827,-0.045237828994837234,-0.02734615165055406,0.023467734152407566, ,0.016595029076572013, ,0.05286087824371665, ,6.793190222529556e-05, ,0.22177371994910525,-0.2253802362013681,0.09809804204000001,1.8127695614237131,0.8288370075771617,-1.2161658698523115, ,0.04359069433094661,0.020229576115640757,0.015897017485029943,-0.0024796366262877954,0.018008459323185153,0.03513970250033127, ,1.1819219589233398
0.012573930690235036,0.02137764858985153,-0.08537109113971068, ,0.013020536546062646,0.021169596425269145,-0.08581726929435848, ,0.0006646934927707987, ,0.007089664076272906,0.0017951273192186989,-0.014896616100499827,-0.045237828994837234,-0.02734615165055406,0.023467734152407566, ,0.016595029076572013, ,0.05286087824371665, ,6.872594079634692e-05, ,0.22177371994910525,-0.2253802362013681,0.09809804204000001,1.8127695614237131,0.8288370075771617,-1.2161658698523115, ,0.04359069433094661,0.020229576115640757,0.015897017485029943,-0.0024796366262877954,0.018008459323185153,0.03513970250033127, ,1.1851539611816406
0.01264414768598638,0.02139259790808453,-0.08551135802311757, ,0.013048322089112576,0.021171989005460305,-0.08587147935602145, ,0.0005845618961854649, ,0.0071648738204279925,0.0012052015262669744,-0.013723599633886006,-0.04488169395251215,-0.03832326958170936,0.016667160218165295, ,0.01552820383987687, ,0.05901727676444383, ,6.939526716549777e-05, ,0.2222293611886845,-0.2251639996808898,0.09824841168000001,1.8127695614237131,0.8291102805766927,-1.2162253481794232, ,0.046701250766963964,0.023612078019027316,0.014586823736263738,-0.0024796366262877954,0.009645035353137916,0.02867011808093996, ,1.188452959060669
0.01264414768598638,0.02139259790808453,-0.08551135802311757, ,0.013076112812005452,0.02117427523754483,-0.0859257063223957, ,0.0006371366977995643, ,0.0071648738204279925,0.0012052015262669744,-0.013723599633886006,-0.04488169395251215,-0.03832326958170936,0.016667160218165295, ,0.01552820383987687, ,0.05901727676444383, ,7.02439090648013e-05, ,0.2222293611886845,-0.2251639996808898,0.09824841168000001,1.8127695614237131,0.8291102805766927,-1.2162253481794232, ,0.046701250766963964,0.023612078019027316,0.014586823736263738,-0.0024796366262877954,0.009645035353137916,0.02867011808093996, ,1.1901919841766357
0.01264414768598638,0.02139259790808453,-0.08551135802311757, ,0.013103908699801707,0.021176455771903753,-0.08597994998365939, ,0.0006911411131901435, ,0.0071648738204279925,0.0012052015262669744,-0.013723599633886006,-0.04488169395251215,-0.03832326958170936,0.016667160218165295, ,0.01552820383987687, ,0.05901727676444383, ,7.11706213097645e-05, ,0.2222293611886845,-0.2251639996808898,0.09824841168000001,1.8127695614237131,0.8291102805766927,-1.2162253481794232, ,0.046701250766963964,0.023612078019027316,0.014586823736263738,-0.0024796366262877954,0.009645035353137916,0.02867011808093996, ,1.1920249462127686
0.01264414768598638,0.02139259790808453,-0.08551135802311757, ,0.013131709737672468,0.021178531257547942,-0.08603421013023584, ,0.0007462677877506902, ,0.0071648738204279925,0.0012052015262669744,-0.013723599633886006,-0.04488169395251215,-0.03832326958170936,0.016667160218165295, ,0.01552820383987687, ,0.05901727676444383, ,7.217672737003414e-05, ,0.2222293611886845,-0.2251639996808898,0.09824841168000001,1.8127695614237131,0.8291102805766927,-1.2162253481794232, ,0.046701250766963964,0.023612078019027316,0.014586823736263738,-0.0024796366262877954,0.009645035353137916,0.02867011808093996, ,1.1938040256500244
0.01264414768598638,0.02139259790808453,-0.08551135802311757, ,0.013159515910899476,0.021180502342119635,-0.08608848655279298, ,0.0008022881503034592, ,0.0071648738204279925,0.0012052015262669744,-0.013723599633886006,-0.04488169395251215,-0.03832326958170936,0.016667160218165295, ,0.01552820383987687, ,0.05901727676444383, ,7.326320270178031e-05, ,0.2222293611886845,-0.2251639996808898,0.09824841168000001,1.8127695614237131,0.8291102805766927,-1.2162253481794232, ,0.046701250766963964,0.023612078019027316,0.014586823736263738,-0.0024796366262877954,0.009645035353137916,0.02867011808093996, ,1.1954700946807861
0.012713038001319097,0.021403826297596774,-0.08564782605320859, ,0.013187327204874913,0.021182369671893138,-0.08614277904224461, ,0.0007203969371349016, ,0.007055586788820461,0.0010805750064340623,-0.013913847470061918,0.05194790586336697,0.042729285084133435,-0.021542010522990575, ,0.01563790582844315, ,0.06726348345062234, ,7.42247684290212e-05, ,0.22271589335976064,-0.2249091494960404,0.09839748503000001,1.8127695614237131,0.8299300995752852,-1.216812176861461, ,0.05099244575952218,0.02671648129461452,0.015286767293666029,-0.0024796366262877954,0.09906779683716747,-0.07460240762828754, ,1.1971509456634521
0.012713038001319097,0.021403826297596774,-0.08564782605320859, ,0.013215143605101162,0.021184133891776546,-0.08619708738974882, ,0.0007759270625145112, ,0.007055586788820461,0.0010805750064340623,-0.013913847470061918,0.05194790586336697,0.042729285084133435,-0.021542010522990575, ,0.01563790582844315, ,0.06726348345062234, ,7.526586975555754e-05, ,0.22271589335976064,-0.2249091494960404,0.09839748503000001,1.8127695614237131,0.8299300995752852,-1.216812176861461, ,0.05099244575952218,0.02671648129461452,0.015286767293666029,-0.0024796366262877954,0.09906779683716747,-0.07460240762828754, ,1.1988229751586914
0.012713038001319097,0.021403826297596774,-0.08564782605320859, ,0.013242965097190836,0.02118579564531228,-0.08625141138670933, ,0.0008322711980429592, ,0.007055586788820461,0.0010805750064340623,-0.013913847470061918,0.05194790586336697,0.042729285084133435,-0.021542010522990575, ,0.01563790582844315, ,0.06726348345062234, ,0.00041919892205925807, ,0.22271589335976064,-0.2249091494960404,0.09839748503000001,1.8127695614237131,0.8299300995752852,-1.216812176861461, ,0.05099244575952218,0.02671648129461452,0.015286767293666029,-0.0024796366262877954,0.09906779683716747,-0.07460240762828754, ,1.200463056564331
0.012713038001319097,0.021403826297596774,-0.08564782605320859, ,0.01327079166686626,0.021187355574678574,-0.08630575082477515, ,0.0008892770830022228, ,0.007055586788820461,0.0010805750064340623,-0.013913847470061918,0.05194790586336697,0.042729285084133435,-0.021542010522990575, ,0.01563790582844315, ,0.06726348345062234, ,0.00042298987497008843, ,0.22271589335976064,-0.2249091494960404,0.09839748503000001,1.8127695614237131,0.8299300995752852,-1.216812176861461, ,0.05099244575952218,0.02671648129461452,0.015286767293666029,-0.0024796366262877954,0.09906779683716747,-0.07460240762828754, ,1.2021551132202148
0.012713038001319097,0.021403826297596774,-0.08564782605320859, ,0.013298623299959586,0.021188814320690596,-0.08636010549584022, ,0.0009468274904081563, ,0.007055586788820461,0.0010805750064340623,-0.013913847470061918,0.05194790586336697,0.042729285084133435,-0.021542010522990575, ,0.01563790582844315, ,0.06726348345062234, ,0.000427180575893593, ,0.22271589335976064,-0.2249091494960404,0.09839748503000001,1.8127695614237131,0.8299300995752852,-1.216812176861461, ,0.05099244575952218,0.02671648129461452,0.015286767293666029,-0.0024796366262877954,0.09906779683716747,-0.07460240762828754, ,1.203869104385376
0.012713038001319097,0.021403826297596774,-0.08564782605320859, ,0.013326459982412275,0.021190172522801504,-0.08641447519204389, ,0.0010048310128819935, ,0.007055586788820461,0.0010805750064340623,-0.013913847470061918,0.05194790586336697,0.042729285084133435,-0.021542010522990575, ,0.01563790582844315, ,0.06726348345062234, ,0.0004317651031712787, ,0.22271589335976064,-0.2249091494960404,0.09839748503000001,1.8127695614237131,0.8299300995752852,-1.216812176861461, ,0.05099244575952218,0.02671648129461452,0.015286767293666029,-0.0024796366262877954,0.09906779683716747,-0.07460240762828754, ,1.2056660652160645
0.012793628181157184,0.021417975695017563,-0.08580197521465252, ,0.013354301700275416,0.021191430819103546,-0.08646885970577096, ,0.0009002290266024675, ,0.009042758493117163,0.0019042257127678131,-0.017954445461421175,0.04431981204636304,0.017275306019807674,-0.023517570277572945, ,0.020193059910700906, ,0.047567636814591654, ,0.00043545379548176047, ,0.22328737559245324,-0.22463885384544255,0.09856600273,1.8127695614237131,0.8307499185738779,-1.2173990055434991, ,0.06178186299379608,0.028134284482203013,0.019568564520884523,-0.0024796366262877954,0.08359297536343614,-0.0704399673672493, ,1.2084529399871826
0.012793628181157184,0.021417975695017563,-0.08580197521465252, ,0.013382148439708945,0.021192589846329445,-0.08652325882965152, ,0.0009578125749752498, ,0.009042758493117163,0.0019042257127678131,-0.017954445461421175,0.04431981204636304,0.017275306019807674,-0.023517570277572945, ,0.020193059910700906, ,0.047567636814591654, ,0.00043953472344655337, ,0.22328737559245324,-0.22463885384544255,0.09856600273,1.8127695614237131,0.8307499185738779,-1.2173990055434991, ,0.06178186299379608,0.028134284482203013,0.019568564520884523,-0.0024796366262877954,0.08359297536343614,-0.0704399673672493, ,1.2129290103912354
0.012793628181157184,0.021417975695017563,-0.08580197521465252, ,0.013410000186982038,0.021193650239853198,-0.08657767235656116, ,0.0010158456651305308, ,0.009042758493117163,0.0019042257127678131,-0.017954445461421175,0.04431981204636304,0.017275306019807674,-0.023517570277572945, ,0.020193059910700906, ,0.047567636814591654, ,0.0004440022501262741, ,0.22328737559245324,-0.22463885384544255,0.09856600273,1.8127695614237131,0.8307499185738779,-1.2173990055434991, ,0.06178186299379608,0.028134284482203013,0.019568564520884523,-0.0024796366262877954,0.08359297536343614,-0.0704399673672493, ,1.214812994003296
0.01289202146706121,0.021442140673822028,-0.08601598547390128, ,0.013437856928472427,0.021194612633691462,-0.08663210007962066, ,0.0008595369037834393, ,0.009042758493117163,0.0019042257127678131,-0.017954445461421175,0.04431981204636304,0.017275306019807674,-0.023517570277572945, ,0.020193059910700906, ,0.047567636814591654, ,0.0004471986705390215, ,0.22391291695526544,-0.22432222179759934,0.09879803864000002,1.8127695614237131,0.831706374072236,-1.218015573389093, ,0.06067579383533937,0.030880879127390425,0.024355980917431196,-0.0024796366262877954,0.10056131028283488,-0.07896107131863368, ,1.2166109085083008
0.01289202146706121,0.021442140673822028,-0.08601598547390128, ,0.01346571865066653,0.021195477660504683,-0.08668654179219676, ,0.0009163061042148821, ,0.009898515589093066,0.0027174016738313904,-0.022478629687117387,0.05163981568317337,0.03451395066315017,-0.024747038985896672, ,0.024711407797513584, ,0.06211181542186231, ,0.00045077964331517316, ,0.22391291695526544,-0.22432222179759934,0.09879803864000002,1.8127695614237131,0.831706374072236,-1.218015573389093, ,0.06067579383533937,0.030880879127390425,0.024355980917431196,-0.0024796366262877954,0.10056131028283488,-0.07896107131863368, ,1.2187340259552002
0.01289202146706121,0.021442140673822028,-0.08601598547390128, ,0.013493585340159127,0.021196245951598157,-0.0867409972879013, ,0.0009736454376587604, ,0.009898515589093066,0.0027174016738313904,-0.022478629687117387,0.05163981568317337,0.03451395066315017,-0.024747038985896672, ,0.024711407797513584, ,0.06211181542186231, ,0.00045474074781777605, ,0.22391291695526544,-0.22432222179759934,0.09879803864000002,1.8127695614237131,0.831706374072236,-1.218015573389093, ,0.06067579383533937,0.030880879127390425,0.024355980917431196,-0.0024796366262877954,0.10056131028283488,-0.07896107131863368, ,1.2204179763793945
0.01289202146706121,0.021442140673822028,-0.08601598547390128, ,0.013521456983653405,0.021196918136923173,-0.08679546636059207, ,0.0010314618824111019, ,0.009898515589093066,0.0027174016738313904,-0.022478629687117387,0.05163981568317337,0.03451395066315017,-0.024747038985896672, ,0.024711407797513584, ,0.06211181542186231, ,0.0004590769969500567, ,0.22391291695526544,-0.22432222179759934,0.09879803864000002,1.8127695614237131,0.831706374072236,-1.218015573389093, ,0.06067579383533937,0.030880879127390425,0.024355980917431196,-0.0024796366262877954,0.10056131028283488,-0.07896107131863368, ,1.2221620082855225
0.01289202146706121,0.021442140673822028,-0.08601598547390128, ,0.013549333567960335,0.021197494845078067,-0.08684994880437227, ,0.0010896814287123138, ,0.009898515589093066,0.0027174016738313904,-0.022478629687117387,0.05163981568317337,0.03451395066315017,-0.024747038985896672, ,0.024711407797513584, ,0.06211181542186231, ,0.00046378300017216307, ,0.22391291695526544,-0.22432222179759934,0.09879803864000002,1.8127695614237131,0.831706374072236,-1.218015573389093, ,0.06067579383533937,0.030880879127390425,0.024355980917431196,-0.0024796366262877954,0.10056131028283488,-0.07896107131863368, ,1.2239820957183838
0.01289202146706121,0.021442140673822028,-0.08601598547390128, ,0.013577215079998857,0.021197976703309748,-0.08690444441359102, ,0.0011482445816207803, ,0.009898515589093066,0.0027174016738313904,-0.022478629687117387,0.05163981568317337,0.03451395066315017,-0.024747038985896672, ,0.024711407797513584, ,0.06211181542186231, ,0.00046885308596067134, ,0.22391291695526544,-0.22432222179759934,0.09879803864000002,1.8127695614237131,0.831706374072236,-1.218015573389093, ,0.06067579383533937,0.030880879127390425,0.024355980917431196,-0.0024796366262877954,0.10056131028283488,-0.07896107131863368, ,1.2258129119873047
0.012997085617476735,0.021469545538820474,-0.08625727951120794, ,0.013605101506795617,0.021198364337514427,-0.08695895298284273, ,0.0009672477585407144, ,0.01114317288775108,0.003072684895122518,-0.025826725322756705,0.03648068481329786,0.02072192614435217,-0.016650811515351218, ,0.02829543135151234, ,0.04195506044415887, ,0.0004725177526708188, ,0.22453845831807762,-0.22400558974975612,0.09905729664000001,1.812350181536744,0.8325261930708286,-1.2186840808112716, ,0.06522126567592494,0.0350173216082918,0.027798972984293194,-0.007915376678428699,0.09210699124666993,-0.06862054223527715, ,1.2275080680847168
0.012997085617476735,0.021469545538820474,-0.08625727951120794, ,0.013632992835484687,0.021198658372238898,-0.08701347430696803, ,0.001024494224516587, ,0.01114317288775108,0.003072684895122518,-0.025826725322756705,0.03648068481329786,0.02072192614435217,-0.016650811515351218, ,0.02829543135151234, ,0.04195506044415887, ,0.00047654677801275866, ,0.22453845831807762,-0.22400558974975612,0.09905729664000001,1.812350181536744,0.8325261930708286,-1.2186840808112716, ,0.06522126567592494,0.0350173216082918,0.027798972984293194,-0.007915376678428699,0.09210699124666993,-0.06862054223527715, ,1.2291629314422607
0.012997085617476735,0.021469545538820474,-0.08625727951120794, ,0.013660889053307498,0.02119885943068155,-0.08706800818105294, ,0.001082213909848122, ,0.01114317288775108,0.003072684895122518,-0.025826725322756705,0.03648068481329786,0.02072192614435217,-0.016650811515351218, ,0.02829543135151234, ,0.04195506044415887, ,0.00048093567027243525, ,0.22453845831807762,-0.22400558974975612,0.09905729664000001,1.812350181536744,0.8325261930708286,-1.2186840808112716, ,0.06522126567592494,0.0350173216082918,0.027798972984293194,-0.007915376678428699,0.09210699124666993,-0.06862054223527715, ,1.230790138244629
0.012997085617476735,0.021469545538820474,-0.08625727951120794, ,0.013688790147612501,0.021198968134693966,-0.08712255440042974, ,0.001140336758397258, ,0.01114317288775108,0.003072684895122518,-0.025826725322756705,0.03648068481329786,0.02072192614435217,-0.016650811515351218, ,0.02829543135151234, ,0.04195506044415887, ,0.0004856795629927577, ,0.22453845831807762,-0.22400558974975612,0.09905729664000001,1.812350181536744,0.8325261930708286,-1.2186840808112716, ,0.06522126567592494,0.0350173216082918,0.027798972984293194,-0.007915376678428699,0.09210699124666993,-0.06862054223527715, ,1.2324559688568115
0.012997085617476735,0.021469545538820474,-0.08625727951120794, ,0.013716696105855266,0.021198985104781538,-0.08717711276067656, ,0.001198805826762503, ,0.01114317288775108,0.003072684895122518,-0.025826725322756705,0.03648068481329786,0.02072192614435217,-0.016650811515351218, ,0.02829543135151234, ,0.04195506044415887, ,0.0004907733220196845, ,0.22453845831807762,-0.22400558974975612,0.09905729664000001,1.812350181536744,0.8325261930708286,-1.2186840808112716, ,0.06522126567592494,0.0350173216082918,0.027798972984293194,-0.007915376678428699,0.09210699124666993,-0.06862054223527715, ,1.2341070175170898
0.012997085617476735,0.021469545538820474,-0.08625727951120794, ,0.013744606915597847,0.021198910960104723,-0.08723168305761678, ,0.0012575744262648778, ,0.01114317288775108,0.003072684895122518,-0.025826725322756705,0.03648068481329786,0.02072192614435217,-0.016650811515351218, ,0.02829543135151234, ,0.04195506044415887, ,0.0004962116277235511, ,0.22453845831807762,-0.22400558974975612,0.09905729664000001,1.812350181536744,0.8325261930708286,-1.2186840808112716, ,0.06522126567592494,0.0350173216082918,0.027798972984293194,-0.007915376678428699,0.09210699124666993,-0.06862054223527715, ,1.2357509136199951
0.013119170663915975,0.02150180430976974,-0.08655755935315046, ,0.013772522564509114,0.02119874631848053,-0.08728626508732076, ,0.0010245608323108972, ,0.012486834973874386,0.003613049281623127,-0.031848311012828215,0.03598942951919419,0.03367794786645646,-0.008582487220575731, ,0.03439898380978783, ,0.04928904992961266, ,0.0004999323967699408, ,0.22521805881100937,-0.223588562174548,0.09937877656,1.811930801649775,0.8336192850689521,-1.2194120665605617, ,0.06571810357234818,0.04355068451513115,0.03403592205128206,-0.019479131462642074,0.10890553651567914,-0.07768214561025504, ,1.2373969554901123
0.013119170663915975,0.02150180430976974,-0.08655755935315046, ,0.013800443040364183,0.021198491796383175,-0.08734085864610427, ,0.001081521296151958, ,0.012486834973874386,0.003613049281623127,-0.031848311012828215,0.03598942951919419,0.03367794786645646,-0.008582487220575731, ,0.03439898380978783, ,0.04928904992961266, ,0.0005039994520103744, ,0.22521805881100937,-0.223588562174548,0.09937877656,1.811930801649775,0.8336192850689521,-1.2194120665605617, ,0.06571810357234818,0.04355068451513115,0.03403592205128206,-0.019479131462642074,0.10890553651567914,-0.07768214561025504, ,1.2390570640563965
0.013119170663915975,0.02150180430976974,-0.08655755935315046, ,0.013828368331044297,0.021198148008945646,-0.08739546353052896, ,0.001138969661825445, ,0.012486834973874386,0.003613049281623127,-0.031848311012828215,0.03598942951919419,0.03367794786645646,-0.008582487220575731, ,0.03439898380978783, ,0.04928904992961266, ,0.0005084089673563125, ,0.22521805881100937,-0.223588562174548,0.09937877656,1.811930801649775,0.8336192850689521,-1.2194120665605617, ,0.06571810357234818,0.04355068451513115,0.03403592205128206,-0.019479131462642074,0.10890553651567914,-0.07768214561025504, ,1.2406871318817139
0.013119170663915975,0.02150180430976974,-0.08655755935315046, ,0.013856298424537004,0.021197715569960546,-0.08745007953740333, ,0.0011968373224693883, ,0.012486834973874386,0.003613049281623127,-0.031848311012828215,0.03598942951919419,0.03367794786645646,-0.008582487220575731, ,0.03439898380978783, ,0.04928904992961266, ,0.000513156749115713, ,0.22521805881100937,-0.223588562174548,0.09937877656,1.811930801649775,0.8336192850689521,-1.2194120665605617, ,0.06571810357234818,0.04355068451513115,0.03403592205128206,-0.019479131462642074,0.10890553651567914,-0.07768214561025504, ,1.2423341274261475
0.013119170663915975,0.02150180430976974,-0.08655755935315046, ,0.013884233308935259,0.021197195091881345,-0.08750470646378126, ,0.0012550678370521512, ,0.012486834973874386,0.003613049281623127,-0.031848311012828215,0.03598942951919419,0.03367794786645646,-0.008582487220575731, ,0.03439898380978783, ,0.04928904992961266, ,0.0005182383319097982, ,0.22521805881100937,-0.223588562174548,0.09937877656,1.811930801649775,0.8336192850689521,-1.2194120665605617, ,0.06571810357234818,0.04355068451513115,0.03403592205128206,-0.019479131462642074,0.10890553651567914,-0.07768214561025504, ,1.2440221309661865
0.013119170663915975,0.02150180430976974,-0.08655755935315046, ,0.013912172972437974,0.021196587185823564,-0.08755934410696316, ,0.001313614420993757, ,0.012486834973874386,0.003613049281623127,-0.031848311012828215,0.03598942951919419,0.03367794786645646,-0.008582487220575731, ,0.03439898380978783, ,0.04928904992961266, ,0.0005236490536042469, ,0.22521805881100937,-0.223588562174548,0.09937877656,1.811930801649775,0.8336192850689521,-1.2194120665605617, ,0.06571810357234818,0.04355068451513115,0.03403592205128206,-0.019479131462642074,0.10890553651567914,-0.07768214561025504, ,1.2457079887390137
0.013247271145917852,0.021539029760618424,-0.08688567043310226, ,0.013940117403349429,0.02119589246156587,-0.08761399226449573, ,0.0010621825796549129, ,0.013779157295294794,0.0039902753294964784,-0.0348576539320209,0.041238682045072056,0.04468089557074049,0.01828829507137129, ,0.0376940779250295, ,0.06080263039812556, ,0.0005272877936451297, ,0.22589765930394112,-0.22315608913359145,0.09973007115000002,1.8115114217628059,0.8348490135668412,-1.2202514702135485, ,0.07419620137487942,0.04534015363519865,0.03739157633802818,-0.04715653577781774,0.13579928281605091,-0.08782009100576758, ,1.2534139156341553
0.013247271145917852,0.021539029760618424,-0.08688567043310226, ,0.013968066590078982,0.02119511152755131,-0.08766865073417184, ,0.001118429244620529, ,0.013779157295294794,0.0039902753294964784,-0.0348576539320209,0.041238682045072056,0.04468089557074049,0.01828829507137129, ,0.0376940779250295, ,0.06080263039812556, ,0.0005312551859335552, ,0.22589765930394112,-0.22315608913359145,0.09973007115000002,1.8115114217628059,0.8348490135668412,-1.2202514702135485, ,0.07419620137487942,0.04534015363519865,0.03739157633802818,-0.04715653577781774,0.13579928281605091,-0.08782009100576758, ,1.255298137664795
0.0133879989867762,0.02157894757572469,-0.08722768786669516, ,0.013996020521141465,0.021194244990888088,-0.08772331931403037, ,0.0011752267066638066, ,0.014311069870669909,0.003417094004000127,-0.03387842292800336,0.05704066137557214,0.03552380239936247,-0.01080978967035127, ,0.03693549501988613, ,0.06719771542394835, ,0.0005355483294050903, ,0.2266776553242378,-0.22268500242826375,0.10009821751,1.8115114217628059,0.8362153785644955,-1.221120613030091, ,0.08131700219234857,0.049893239515494625,0.0363671495890411,-0.03350108996360457,0.13022692685145024,-0.11060622624504701, ,1.2579560279846191
0.0133879989867762,0.02157894757572469,-0.08722768786669516, ,0.014023979185156302,0.021193293457351277,-0.08777799780235715, ,0.0009252248035144076, ,0.014311069870669909,0.003417094004000127,-0.03387842292800336,0.05704066137557214,0.03552380239936247,-0.01080978967035127, ,0.03693549501988613, ,0.06719771542394835, ,0.0005381289683064765, ,0.2266776553242378,-0.22268500242826375,0.10009821751,1.8115114217628059,0.8362153785644955,-1.221120613030091, ,0.08131700219234857,0.049893239515494625,0.0363671495890411,-0.03350108996360457,0.13022692685145024,-0.11060622624504701, ,1.25968599319458
0.0133879989867762,0.02157894757572469,-0.08722768786669516, ,0.014051942570847756,0.02119225753138353,-0.08783268599768396, ,0.0009779432558805704, ,0.014311069870669909,0.003417094004000127,-0.03387842292800336,0.05704066137557214,0.03552380239936247,-0.01080978967035127, ,0.03693549501988613, ,0.06719771542394835, ,0.0005410224833563061, ,0.2266776553242378,-0.22268500242826375,0.10009821751,1.8115114217628059,0.8362153785644955,-1.221120613030091, ,0.08131700219234857,0.049893239515494625,0.0363671495890411,-0.03350108996360457,0.13022692685145024,-0.11060622624504701, ,1.2614619731903076
0.0133879989867762,0.02157894757572469,-0.08722768786669516, ,0.014079910667044499,0.02119113781609647,-0.08788738369878905, ,0.0010316669878583182, ,0.014311069870669909,0.003417094004000127,-0.03387842292800336,0.05704066137557214,0.03552380239936247,-0.01080978967035127, ,0.03693549501988613, ,0.06719771542394835, ,0.0005442293101831166, ,0.2266776553242378,-0.22268500242826375,0.10009821751,1.8115114217628059,0.8362153785644955,-1.221120613030091, ,0.08131700219234857,0.049893239515494625,0.0363671495890411,-0.03350108996360457,0.13022692685145024,-0.11060622624504701, ,1.2632129192352295
0.0133879989867762,0.02157894757572469,-0.08722768786669516, ,0.014107883462679702,0.02118993491327162,-0.08794209070469755, ,0.001086248555875477, ,0.014311069870669909,0.003417094004000127,-0.03387842292800336,0.05704066137557214,0.03552380239936247,-0.01080978967035127, ,0.03693549501988613, ,0.06719771542394835, ,0.0005477489156746256, ,0.2266776553242378,-0.22268500242826375,0.10009821751,1.8115114217628059,0.8362153785644955,-1.221120613030091, ,0.08131700219234857,0.049893239515494625,0.0363671495890411,-0.03350108996360457,0.13022692685145024,-0.11060622624504701, ,1.2649319171905518
0.013533607082196695,0.021609541666716282,-0.08754419567637578, ,0.014135860946790573,0.021188649423361766,-0.08799680681468061, ,0.0008629697795704399, ,0.013897204502808213,0.002091041499504001,-0.028021276270123043,-0.021281921679097395,-0.023871153980101655,0.017151068265176466, ,0.03134799309927322, ,0.03198022681035229, ,0.0005497825986675018, ,0.22754260140615096,-0.22218302479143914,0.10043784549000001,1.8115114217628059,0.8371718340628537,-1.2217371808756847, ,0.08698161462737927,0.049322734697749886,0.02999776180790961,-0.024508855736228033,0.0721255186670778,-0.023473480207411565, ,1.2671120166778564
0.013533607082196695,0.021609541666716282,-0.08754419567637578, ,0.014163843108518363,0.021187281945491784,-0.08805153182825608, ,0.0009126284523545302, ,0.013897204502808213,0.002091041499504001,-0.028021276270123043,-0.021281921679097395,-0.023871153980101655,0.017151068265176466, ,0.03134799309927322, ,0.03198022681035229, ,0.000552108533627034, ,0.22754260140615096,-0.22218302479143914,0.10043784549000001,1.8115114217628059,0.8371718340628537,-1.2217371808756847, ,0.08698161462737927,0.049322734697749886,0.02999776180790961,-0.024508855736228033,0.0721255186670778,-0.023473480207411565, ,1.2691059112548828
0.013533607082196695,0.021609541666716282,-0.08754419567637578, ,0.014191829937108186,0.02118583307746006,-0.08810626554518848, ,0.0009636954045570922, ,0.013897204502808213,0.002091041499504001,-0.028021276270123043,-0.021281921679097395,-0.023871153980101655,0.017151068265176466, ,0.03134799309927322, ,0.03198022681035229, ,0.0005547301060533402, ,0.22754260140615096,-0.22218302479143914,0.10043784549000001,1.8115114217628059,0.8371718340628537,-1.2217371808756847, ,0.08698161462737927,0.049322734697749886,0.02999776180790961,-0.024508855736228033,0.0721255186670778,-0.023473480207411565, ,1.2707300186157227
0.013533607082196695,0.021609541666716282,-0.08754419567637578, ,0.01421982142190857,0.02118430341573975,-0.08816100776548902, ,0.0010159600599413455, ,0.013897204502808213,0.002091041499504001,-0.028021276270123043,-0.021281921679097395,-0.023871153980101655,0.017151068265176466, ,0.03134799309927322, ,0.03198022681035229, ,0.0005576492829766819, ,0.22754260140615096,-0.22218302479143914,0.10043784549000001,1.8115114217628059,0.8371718340628537,-1.2217371808756847, ,0.08698161462737927,0.049322734697749886,0.02999776180790961,-0.024508855736228033,0.0721255186670778,-0.023473480207411565, ,1.2723479270935059
0.013533607082196695,0.021609541666716282,-0.08754419567637578, ,0.014247817552371561,0.021182693555479463,-0.08821575828941555, ,0.0010692484505514374, ,0.013897204502808213,0.002091041499504001,-0.028021276270123043,-0.021281921679097395,-0.023871153980101655,0.017151068265176466, ,0.03134799309927322, ,0.03198022681035229, ,0.0005608668878041961, ,0.22754260140615096,-0.22218302479143914,0.10043784549000001,1.8115114217628059,0.8371718340628537,-1.2217371808756847, ,0.08698161462737927,0.049322734697749886,0.02999776180790961,-0.024508855736228033,0.0721255186670778,-0.023473480207411565, ,1.2740111351013184
0.013533607082196695,0.021609541666716282,-0.08754419567637578, ,0.01427581831805245,0.021181004090504846,-0.08827051691747236, ,0.0011234164491068163, ,0.013897204502808213,0.002091041499504001,-0.028021276270123043,-0.021281921679097395,-0.023871153980101655,0.017151068265176466, ,0.03134799309927322, ,0.03198022681035229, ,0.0005643828225623375, ,0.22754260140615096,-0.22218302479143914,0.10043784549000001,1.8115114217628059,0.8371718340628537,-1.2217371808756847, ,0.08698161462737927,0.049322734697749886,0.02999776180790961,-0.024508855736228033,0.0721255186670778,-0.023473480207411565, ,1.2757089138031006
0.013679096185666498,0.021615626408605558,-0.08781769807846064, ,0.014303823708609577,0.021179235613319376,-0.08832528345041125, ,0.000915622364269979, ,0.013640635645020969,-0.0003425189505419278,-0.024200267912690563,-0.02226976804695315,-0.0216153907441542,0.0038236797763065433, ,0.027781958661651222, ,0.03103480925432351, ,0.0005665644346226333, ,0.228507943015429,-0.22155748342862697,0.10072951074000001,1.8110920418758367,0.8379916530614462,-1.2223240095577228, ,0.09386443279769613,0.06608422114099637,0.0257747759223301,-0.022373994241121693,0.08110077133451335,-0.0399520070017716, ,1.2776780128479004
0.013679096185666498,0.021615626408605558,-0.08781769807846064, ,0.014331833713804136,0.021177388715105883,-0.08838005768923002, ,0.000966626550673959, ,0.013640635645020969,-0.0003425189505419278,-0.024200267912690563,-0.02226976804695315,-0.0216153907441542,0.0038236797763065433, ,0.027781958661651222, ,0.03103480925432351, ,0.0005690339538575181, ,0.228507943015429,-0.22155748342862697,0.10072951074000001,1.8110920418758367,0.8379916530614462,-1.2223240095577228, ,0.09386443279769613,0.06608422114099637,0.0257747759223301,-0.022373994241121693,0.08110077133451335,-0.0399520070017716, ,1.2793879508972168
