NicholasDascanio/dvrk_moveit_final/test/execution/third_experiment_notsharpbends/thirdexp_700vel4.0/thirdexp_700vel4.0_29.csv
Current Position (x),Current Position (y),Current Position (z), ,Planned Position (x),Planned Position (y),Planned Position (z), ,Position Error,,Cartesian linear Velocity(x),Cartesian linear Velocity(y),Cartesian linear Velocity(z),Cartesian Angular Velocity(x),Cartesian Angular Velocity(y),Cartesian Angular Velocity(z), ,Total Linear Velocity, ,Total Angular Velocity, ,MSE, ,Joint 1 Position,Joint 2 Position,Joint 3 Position,Joint 4 Position,Joint 5 Position,Joint 6 Position, ,Joint 1 Velocity,Joint 2 Velocity,Joint 3 Velocity,Joint 4 Velocity,Joint 5 Velocity,Joint 6 Velocity, ,Time Stamp
0.010218188748946967,0.020256551330765496,-0.07957917511613456, ,0.010324518486134093,0.020179614710525883,-0.07962007442365492, ,0.00013747003273376397, ,6.218987643460676e-05,-8.49523995841864e-06,1.2713405016290805e-05,0.018647787601528625,-0.0010719463622146826,-0.012232869040793667, ,6.40420213610643e-05, ,0.01867857198597339, ,1.1455836061146997e-05, ,0.20902348797376058,-0.22876279320027842,0.09193029422000001,1.810672661988868,0.8291102805766927,-1.2012781387337002, ,0.0008371833221494062,-8.555990519898814e-05,-6.64832937270274e-06,-0.002178648898412351,0.0,-0.023800798969908277, ,0.016333818435668945
0.010223027263279264,0.020259296833245604,-0.07958720997341082, ,0.010325074131578385,0.020206001411704654,-0.07967056874434411, ,0.000142136026321251, ,4.061495903220006e-05,-0.00013142991354120893,0.00037713598576483745,0.18305719333663073,-0.027002461793525688,-0.1488802615038775, ,0.00040144109011093097, ,0.185038020350401, ,1.2709366320682497e-05, ,0.2090312107066348,-0.22877823866602687,0.09193677567000001,1.810672661988868,0.8287003710773962,-1.205436215730342, ,-0.0008453997175601122,-0.00015060799230882601,-0.0005874527470165924,-0.0021033853591724463,-0.03162963435511126,-0.2369302220052436, ,0.03724980354309082
0.01024541885726304,0.02026005742554777,-0.07960969761534964, ,0.01032586426556509,0.020232113904220327,-0.07972112388590807, ,0.000140243067107156, ,0.0015302558728606949,0.0002043406960284457,-0.0016267737047679753,0.1268506844465639,-0.18414146776656493,-0.17511348349765446, ,0.002242728437194874, ,0.22360495588375318, ,1.3120285192567842e-05, ,0.20901576524088636,-0.2287859613989011,0.09194196083,1.8104629720453833,0.8255577315827912,-1.2094079031565692, ,-0.00031915521030790396,-0.0005754340195144352,0.0005884961864030802,0.0011158181448365318,-0.19736434615799725,-0.20345337931702367, ,0.05422687530517578
0.010257417135503072,0.020263319817103095,-0.07962320378449714, ,0.010326887956760487,0.020257953378425956,-0.07977173947208535, ,0.00016406658452457228, ,0.0008041285493709172,0.00040287626578892725,-0.0018791642718197685,0.1334826036131225,-0.07715800971545746,-0.13569827941012508, ,0.002083312355345047, ,0.154178351043735, ,1.390275501635103e-05, ,0.20900031977513792,-0.22879368413177534,0.09194714599,1.810672661988868,0.8239180935856059,-1.2110113229572723, ,-0.0008431955323434377,-0.0005247370103521852,0.00023744762488640212,0.0015678844004680481,-0.13810735213457942,-0.0997372611506484, ,0.07058000564575195
0.010277254241097284,0.020272533665471187,-0.07966271737650248, ,0.010328144275644375,0.020283521022413993,-0.07982241512724599, ,0.00016796990570137473, ,0.0010040428947391663,0.00044500231085752766,-0.0021415282250127456,0.1458128300127604,-0.11555252179314024,-0.1612357079386951, ,0.0024067140107771395, ,0.18604775378659985, ,1.4459338776694575e-05, ,0.20896170611076678,-0.22880912959752378,0.09197566437000002,1.8108823519323523,0.8215952730895935,-1.214753051664132, ,-0.0029420310633058704,-0.0009350233728079095,0.0015128036035276864,0.002742226445506771,-0.12776802982103636,-0.20957611918473784, ,0.08832693099975586
0.01029226537255161,0.020278674460687228,-0.07969285041300812, ,0.010329632294508471,0.020308818022017873,-0.07987315047638885, ,0.00018658251258174823, ,0.0006108398369847421,0.0005668101455969782,-0.002140745438651763,-0.12010329408630797,-0.06982742726000547,0.05700728357973508, ,0.0022972135470407497, ,0.13892685430862017, ,1.5136582725320422e-05, ,0.20889220151489876,-0.22883229779614644,0.09199381243000002,1.8108823519323523,0.819272452593581,-1.215636024466072, ,-0.003979424089904421,-0.001693621001524802,0.0018034849403850226,0.0026498874141109123,-0.0775749039383472,0.13407901881627715, ,0.10491490364074707
0.010293756278812743,0.02028475933431087,-0.07970723375793279, ,0.010331351087455108,0.020333845560814048,-0.079923945145143, ,0.00022535894172575838, ,-0.0001077255966467513,0.0005360888729072416,-0.0016247871425713997,-0.1127444215944566,0.03925468296821866,0.10020506362949701, ,0.0017143305814495608, ,0.11938272377355362, ,1.6164264870772562e-05, ,0.2088690333162761,-0.2288477432618949,0.09200936791000001,1.8110920418758367,0.819272452593581,-1.2135123772224174, ,-0.0025258108300042345,-0.0012165196022171235,0.0019309990932234213,0.0005236469236385146,0.039900711362989894,0.15114217769924415, ,0.125654935836792
0.010295700974551182,0.020309583449185847,-0.07978600814080748, ,0.010333299730395677,0.0203586048201237,-0.07997479875976646, ,0.00019864203748601048, ,-0.0001166528959112972,0.000939850637165264,-0.0027501233192573924,0.05038418744948545,0.08197063130865166,-0.0019261328290878623, ,0.0029086260312091933, ,0.09621720605965692, ,1.6615476929044332e-05, ,0.20879180598753386,-0.22890180239201446,0.09210010821,1.8110920418758367,0.8206388175912352,-1.2104609405122129, ,-0.0022440212023782337,-0.002175310541987364,0.0033855072306057388,0.0005236469236385146,0.08381676967912864,-0.04042447907271749, ,0.14368987083435059
0.010298895691625013,0.020324680220516714,-0.0798369149136317, ,0.010335477301049362,0.02038309697901422,-0.0800257109471464, ,0.0002009842632951988, ,0.0003503105331251449,0.0007020936793274905,-0.002450856525769313,0.03793152514354432,0.0025571592752636325,-0.02726922473405778, ,0.0025733928409933963, ,0.03801762306070665, ,1.699405838561776e-05, ,0.20873002412454006,-0.22893269332351138,0.09215584868000001,1.8110920418758367,0.8210487270905317,-1.210631836743021, ,-0.00206875201071278,-0.001410728089028261,0.002580400375830229,0.0005236469236385146,0.0,-0.0453962013776835, ,0.16077589988708496
0.010304443137866649,0.020341348213305226,-0.07987985811385863, ,0.010337882878941416,0.020407323214301203,-0.08007668133479816, ,0.00021026244871725765, ,0.00020428753892834053,0.0006813222797212658,-0.002195592166541832,0.0029428131082122233,0.005213796159447102,-0.007597297439126512, ,0.002307933796534432, ,0.005986970797582775, ,1.7389370786216586e-05, ,0.20866824226154626,-0.2289790297207567,0.09220121883000001,1.8115114217628059,0.8209120905907662,-1.211173848760449, ,-0.0033394138838143063,-0.0013051121012800117,0.0023108677673001595,0.008257667266651204,0.0,0.0, ,0.17924284934997559
0.010306817277946847,0.02034814746927326,-0.07990603884202484, ,0.010340515545401953,0.020431284700550247,-0.08012770955086557, ,0.00023913443000084817, ,0.00024298920859073235,0.0007404859777111826,-0.0026432458931321757,0.00032469173125066934,0.005813359412047595,-0.005939270811118126, ,0.002755741658834977, ,0.005822419792917355, ,1.797187723388339e-05, ,0.20862962859717513,-0.22898675245363093,0.09222844092000002,1.8115114217628059,0.8209120905907662,-1.211173848760449, ,-0.004015439957328503,-0.0007853240426084892,0.002762061994104387,0.00800944106256808,0.0,0.002565067033816957, ,0.19575190544128418
0.010312205325971588,0.02036603729384515,-0.07996347257161031, ,0.010343374383564478,0.020454982610078384,-0.08017879522411953, ,0.00023504600425164432, ,0.0003256849753785654,0.0008564225772855309,-0.0029554562140632107,-0.0032408434954001317,0.00529252456918442,-0.0018688244539060705, ,0.003094228783932529, ,0.006205955418113354, ,1.8425379134808066e-05, ,0.20853695580268444,-0.2290408115837505,0.09228807026000001,1.8115114217628059,0.8207754540910007,-1.2111441095968933, ,-0.0037850934799237767,-0.001352477437422085,0.0031020080856864656,0.006896148086279345,0.0,0.0074169031280324526, ,0.21281886100769043
0.010317036507453841,0.02038304042229571,-0.08001630027823299, ,0.010346458478364127,0.02047841811295604,-0.08022993798395868, ,0.00023580421021618552, ,0.00029628460827190036,0.0010386917106033858,-0.0028556224032194695,0.0029578696132077052,0.005243444341327658,-0.0035634552609554227, ,0.0030530712976515892, ,0.006020191111538549, ,1.881591261108159e-05, ,0.2084597284739422,-0.22909487071387008,0.09234381073,1.8115114217628059,0.8207754540910007,-1.2110624308567526, ,-0.0038658546123735643,-0.003829992183991919,0.003046826993114002,0.006153997118158786,0.0,0.002528147921746337, ,0.2320559024810791
0.010320666112856834,0.02039685263696385,-0.0800534992767323, ,0.010349766916536754,0.020501592377008857,-0.08028113746040855, ,0.0002522625865778197, ,8.363272971697618e-05,0.0009526661439654323,-0.0022280700806504164,0.004044198961407557,0.0060876942667723285,-0.0031970646783989138, ,0.0024246367768446125, ,0.007308595396533697, ,1.9403993271209857e-05, ,0.2083979466109484,-0.22915665257686388,0.09238269943,1.8115114217628059,0.8206388175912352,-1.210951012953056, ,-0.0048237111825530634,-0.004640939211905056,0.0023938700811541934,0.005635021291559828,0.0,0.0020324814920008364, ,0.24649882316589355
0.010322341003346478,0.02040617663566567,-0.08007643956672961, ,0.01035329878661706,0.02052450656781928,-0.0803323932841212, ,0.00028367703931598284, ,0.00017861639743664906,0.000963844728210831,-0.0023428713549072206,0.005433503794069983,0.005167060701501515,-0.004166023879701473, ,0.002539674519141745, ,0.0074980984057682505, ,2.0130933937043816e-05, ,0.20835933294657727,-0.22920298897410923,0.09240732894,1.8115114217628059,0.8206388175912352,-1.2108693342129158, ,-0.003955671480236663,-0.00444714898091657,0.002519185753597976,0.005331328916309319,0.0,-1.0655375790341235e-05, ,0.2646968364715576
0.0103291955679276,0.02044494229147182,-0.08016686208231392, ,0.010357053178937235,0.020547161848728283,-0.08038370508637468, ,0.0002413416101441406, ,0.00017984709953683552,0.0014190444345795002,-0.003298975600068779,0.0003009133984750597,0.003169558147446692,-0.003005880336430881, ,0.003595729702907607, ,0.0031838101910573497, ,2.0509318872331527e-05, ,0.2081817100904701,-0.22938061183021638,0.09250325440000001,1.811930801649775,0.8203655445917044,-1.2104831409252417, ,-0.006892640306367448,-0.0070088255604400344,0.0035170703289909475,0.008614337190284175,-0.005935556974858516,0.00893689181594401, ,0.28001880645751953
0.010329980752664333,0.020459420162577104,-0.08020069661140365, ,0.010361029185625651,0.020569559380837172,-0.08043507249907321, ,0.0002608193039427597, ,0.00023968255579851847,0.00143297395623213,-0.0033185270114282632,0.000731237438303829,0.002490958388368719,-0.0032488660910284413, ,0.00362263489912697, ,0.002596070392207782, ,2.096310121811591e-05, ,0.20810448276172785,-0.22945783915895862,0.09253955052000001,1.811930801649775,0.8203655445917044,-1.2104014621851011, ,-0.006210423061091367,-0.00709141881534613,0.0035468295524382102,0.008614337190284175,-0.005935556974858516,0.008501278082844937, ,0.2946329116821289
0.010332391221700831,0.020472985689274407,-0.08023321028663823, ,0.010365225900605188,0.020591700323009488,-0.08048649515474618, ,0.0002816460630189419, ,0.00025631323225161154,0.0014808578526495256,-0.0032355875754324966,-9.786401157866077e-05,0.0023050957257970996,-0.0017990192275030945, ,0.0035675850951412745, ,0.0023071721468560223, ,2.148840151221703e-05, ,0.20805042363160828,-0.22952734375482664,0.09257455035,1.811930801649775,0.8203655445917044,-1.2103197834449606, ,-0.005770098285009899,-0.007861213830537507,0.0034824686313948408,0.008614337190284175,-0.005649838126122796,0.01053924169642752, ,0.30967283248901367
0.010338167295940346,0.02051447237746941,-0.0803253593212192, ,0.010369642419592096,0.02061358583187253,-0.08053797268654785, ,0.00023668249485118945, ,0.0001607645624311511,0.0015284991041662546,-0.0031933089481454347,-0.0010534750973607793,0.0034481935134229457,0.0030029598905003878, ,0.0035439211044091296, ,0.0036055301905157386, ,2.172112668018067e-05, ,0.20788052350837535,-0.22974358027530495,0.09267436468000001,1.8121404915932593,0.8203655445917044,-1.209911389744258, ,-0.006655853752386587,-0.008798411928124588,0.0034485411387746275,0.005171061211366458,-0.004536148323223966,0.012270233289382558, ,0.32625794410705566
0.010339876604915131,0.020529303746966144,-0.08035763857935849, ,0.010374277840094225,0.020635217061819033,-0.08058950472825746, ,0.0002572216675364181, ,0.00027770378075397375,0.0014733904119752454,-0.003411349003060824,-0.0020607668146852857,0.00283575427022771,0.0027749638300891815, ,0.003726298527577965, ,0.0035054616933629097, ,2.203769861564114e-05, ,0.20781874164538156,-0.2298285303369214,0.09270936451,1.8121404915932593,0.8203655445917044,-1.209911389744258, ,-0.005764951165786238,-0.007516479996641012,0.0036617957517241385,0.0050584764564370315,-0.0042164008142903785,0.012009500635818609, ,0.3407299518585205
0.010343393217298418,0.02054441292204246,-0.08039451854536458, ,0.010379131261409763,0.020656595165009266,-0.08064109091427828, ,0.0002732398150813265, ,0.00011603421387380538,0.0014356945608169865,-0.0028731533794308967,-0.0031882471036171383,0.006040138744330299,0.006308902766513068, ,0.003213984000035466, ,0.006829948422110629, ,2.240485806436936e-05, ,0.20770290065226818,-0.22997526226153167,0.09277547530000001,1.8121404915932593,0.820228908091939,-1.2096366143602801, ,-0.006091252141956723,-0.008572014691065983,0.003133125790715972,0.004541737841780594,-0.001019801994669211,0.01532110224358992, ,0.3562788963317871
0.010347790000921129,0.020575137632555723,-0.08045820605922618, ,0.0103842017846257,0.020677721291372384,-0.0806927308796376, ,0.00025855582847379406, ,0.0002766478687303464,0.00146267466326992,-0.0034774520836442185,-0.007253943107884378,0.0004034814920551051,0.008841223280131635, ,0.003782674213818358, ,0.007265155705030481, ,2.26720510497894e-05, ,0.20763339605640016,-0.2300756577888966,0.09281695658000001,1.812350181536744,0.8200922715921736,-1.2095251964565839, ,-0.005998897202697488,-0.00751114487638642,0.0037112794780987893,0.0013491951704255032,-0.006101696750055774,0.01710130574777624, ,0.37096095085144043
0.010352310473332665,0.020605182795879817,-0.08052655324345198, ,0.010389488512616538,0.02069859658860837,-0.08074442425998657, ,0.00023995025134960986, ,0.00029558724752468623,0.0014297502942966923,-0.0032531770508820164,-0.0023797137045982585,0.0017209624357244658,-0.001517292283035311, ,0.0035657704145564545, ,0.0029367922392741544, ,2.2833770833129514e-05, ,0.20750983233041256,-0.23022238971350686,0.09289084511000001,1.8125598714802285,0.8200922715921736,-1.2094435177164433, ,-0.005335487858475855,-0.0070960286183132165,0.0034900989307624897,0.00931592434346732,-0.0059683975286119574,0.012544387612338847, ,0.38599181175231934
0.010353693605064433,0.020611528885940863,-0.08054222526807323, ,0.010394990550042584,0.020719222202189875,-0.08079617069159842, ,0.0002789113948167546, ,0.0003330134789676677,0.0014032785147030584,-0.003365016004132405,-0.002608105039305914,0.0016994314871153961,-0.0017597051184249956, ,0.003661068324283035, ,0.0031129212717312636, ,2.3151552033642887e-05, ,0.2074866641317899,-0.23025328064500375,0.09290769688000002,1.8125598714802285,0.8200922715921736,-1.2094435177164433, ,-0.005148800468399462,-0.006472893582832176,0.0035972925745257458,0.009204857375228876,-0.005770702569328263,0.012087814816709959, ,0.40437889099121094
0.010361628022237375,0.020642658398148574,-0.08062148032954343, ,0.010400707003348707,0.020739599275363774,-0.08084796981137003, ,0.00024944375281420737, ,0.0002849317724410019,0.0011984920035792513,-0.0028712231360836253,0.0029148572260373155,0.003298784780001225,-0.0044483243842325425, ,0.003124338569164947, ,0.004402087400065437, ,2.3322717802440474e-05, ,0.20737082313867652,-0.230400012569614,0.09299195573,1.8125598714802285,0.8199556350924082,-1.2091687423324657, ,-0.004217587016592029,-0.005494989013734348,0.0030827968879427138,0.007795112960392323,-0.002818714714044314,0.004353182947537768, ,0.4210629463195801
0.010369479450389522,0.020666203412652358,-0.08068521301188705, ,0.010406636980762886,0.020759728949152796,-0.08089982125682055, ,0.00023703250164181576, ,0.00034423702129100027,0.0012633206343966416,-0.0032998669839379227,0.004541480456755722,0.0035762626443411674,-0.005317719192673805, ,0.0035501549633506417, ,0.005780544857461896, ,2.3431665759949916e-05, ,0.20729359580993428,-0.23050040809697894,0.09305936281,1.8125598714802285,0.8198189985926427,-1.2089756456886287, ,-0.00456010717668286,-0.005117110971882151,0.003520179341436464,0.0069843609502965075,-0.002714776078414541,0.0016865700597507214, ,0.4362008571624756
0.010377355393706872,0.02068964887085083,-0.08075616070448009, ,0.010412779592294545,0.020779612362357876,-0.08095172466609067, ,0.00021815949837341718, ,0.00040117542080452207,0.0010831963398126904,-0.0034136110498340336,0.0020723181123765214,0.0030047210938245706,-0.005164146482859959, ,0.003603747553365844, ,0.003650048047222981, ,2.3459861521709095e-05, ,0.20720864574831782,-0.23057763542572118,0.09313454763000001,1.8125598714802285,0.8198189985926427,-1.2089756456886287, ,-0.004141281284887003,-0.002738527657405629,0.0035924247902571044,0.0063143731033640646,-0.002714776078414541,0.0016950875030084071, ,0.4566349983215332
0.010381563704324538,0.020701222534885,-0.08078578937000555, ,0.010419133949733454,0.020799250651558958,-0.08100367967794306, ,0.00024186198810857227, ,0.00030233042329585796,0.0010302251956608684,-0.0027837139126864947,-0.0007725832613496363,-0.0015498777860088505,0.0023850364465344874, ,0.0029835936027396695, ,0.001731763806102016, ,2.3663557371088415e-05, ,0.2071700320839467,-0.23061624909009232,0.09316565859,1.8127695614237131,0.8196823620928773,-1.2088642277849324, ,-0.003827681083077877,-0.004402117783894538,0.0029416087756232692,0.0,-0.00564787307098918,0.005002087391912011, ,0.4697740077972412
0.010386167365687288,0.020711874478163656,-0.08081425899280453, ,0.010425699166647982,0.020818644951117612,-0.08105568593176163, ,0.0002669263269821855, ,0.00043324495836597203,0.0009278098121525917,-0.002875114187787502,-0.0007897842716302175,-0.0004087260928696236,-0.0060573419195237115, ,0.003052017993769556, ,0.0008892783693795385, ,2.394683426164855e-05, ,0.2071391411524498,-0.2306471400215892,0.09319547326000001,1.8129792513671976,0.8195457255931118,-1.208752809881236, ,-0.0026056027815996906,-0.0022667808195248277,0.0030236923917995448,0.008286305941738863,-0.0051561893733647925,0.004601152305276613, ,0.48286986351013184
0.010393350117212196,0.020729011104015836,-0.08086674845579757, ,0.010432474358383782,0.020837796393178207,-0.08110774306755084, ,0.00026728888543952077, ,0.0005386845277736669,0.0010661084140327168,-0.0032705811737052132,-0.004269339524975826,-0.0007191718230404521,-0.003011059082448391, ,0.003481877278815131, ,0.004329488158704, ,2.4215324372805757e-05, ,0.20709280475520445,-0.23070119915170878,0.09325121373,1.8129792513671976,0.8195457255931118,-1.2085894524009546, ,-0.0023331494930920998,-0.002759125306427623,0.0034522781794538364,0.008286305941738863,-0.0051561893733647925,0.009537351522746453, ,0.49848294258117676
0.01040002732565287,0.0207428221262254,-0.08091074526645028, ,0.010439458642062239,0.020856706107670125,-0.08115985072593566, ,0.000276727157844872, ,0.000587067881643471,0.0012662161654926187,-0.0037564444954971206,-0.003315874934550596,-7.565686250175937e-05,-0.0028016710323612443, ,0.004007346668702722, ,0.0033167378241961364, ,2.4501547003365846e-05, ,0.20706191382370756,-0.23073981281607991,0.09329788017000001,1.8129792513671976,0.8195457255931118,-1.2085894524009546, ,-0.002976676742251914,-0.003743176251086399,0.003976238522216675,0.008286305941738863,-0.0051561893733647925,0.009549186165838532, ,0.5117418766021729
0.010405364164054428,0.02075449042361835,-0.08095143080679729, ,0.010446651136579149,0.020875375222308958,-0.0812120085481614, ,0.0002902042521210627, ,0.000555167757124995,0.001121951068738122,-0.0038162505999723116,-0.004899342996937666,0.0005691047283382254,-0.003210943325103613, ,0.004016311004016352, ,0.004932285594328406, ,2.4817627124487106e-05, ,0.20702330015933643,-0.23076298101470258,0.09334065774000001,1.8129792513671976,0.8195457255931118,-1.2085894524009546, ,-0.003495880085866416,-0.0019192270846818456,0.003995187238525207,0.008217351479022876,-0.0050086277815576665,0.009315485790487302, ,0.5247619152069092
0.010410485456011245,0.020766834573216757,-0.08099015483820912, ,0.010454050962603375,0.020893804862598637,-0.08126421617609257, ,0.00030517048460297326, ,0.0004721548251017771,0.0013441652439308304,-0.0037570003807282557,-0.0008652230204438974,0.0023673969837397554,-0.0027458070416064946, ,0.004018054534554102, ,0.0025205512502627972, ,2.5166089436928535e-05, ,0.20694607283059419,-0.2308324856105706,0.09341713885000001,1.8129792513671976,0.819272452593581,-1.2082849378534213, ,-0.0036630268136413494,-0.002791832209961684,0.003980212773613194,0.00738567870531257,-0.006030864128155951,0.010296227186109775, ,0.5403268337249756
0.010425656976220865,0.020800269384315097,-0.08109208559153264, ,0.010461657242574961,0.02091199615183317,-0.0813164732522135, ,0.0002532364745123297, ,0.000516696052185918,0.0011083627454069763,-0.0030298802001880692,-0.0037237605030610707,-0.0021680733978751833,-0.0015392047083175565, ,0.00326735624216924, ,0.004308936561077074, ,2.5331400771377265e-05, ,0.2068920137004746,-0.23090971293931284,0.0934884348,1.8129792513671976,0.819272452593581,-1.2082032591132807, ,-0.001753195147930862,-0.0036320860071611004,0.0030509119938709065,0.00662432152599404,-0.006030864128155951,0.007281644687615317, ,0.5570189952850342
0.010430756981381174,0.020811225867224798,-0.08112088502676565, ,0.010469469100704152,0.0209299502110982,-0.08136877941962734, ,0.00027757112245857, ,0.0005652109339044492,0.0011646082422686987,-0.0035188229314918303,-0.0029205614441384,-0.0027105794307088885,0.001483364900831685, ,0.0037493853604235036, ,0.003984585230569845, ,2.5564071318854134e-05, ,0.20687656823472617,-0.23094060387080972,0.09351954576,1.813188941310682,0.819272452593581,-1.2082032591132807, ,-0.0025674623456412643,-0.003691715061384004,0.0037138753835392873,0.0020835888092624296,-0.006030864128155951,0.007238636304558379, ,0.5700139999389648
0.010435860768659865,0.020823277127154018,-0.0811574695851928, ,0.010477485662969773,0.020947668159272834,-0.08142113432205544, ,0.0002944908388434842, ,0.0005871935464909987,0.00124698670366091,-0.003751586717039153,-0.002580047168130542,-0.002390530237517894,0.0015210492590568916, ,0.003996770570799929, ,0.003517282681718718, ,2.583673273792277e-05, ,0.20684567730322928,-0.23097921753518086,0.09355843446,1.813188941310682,0.819272452593581,-1.2082032591132807, ,-0.0028872502257254397,-0.004003499079025826,0.003961405501119125,0.0020835888092624296,-0.006030864128155951,0.00719465959003872, ,0.5860018730163574
0.01044449316250158,0.020841684287114727,-0.08121300879444127, ,0.010485706057117544,0.02096515111303151,-0.08147353760383753, ,0.00029123499156184606, ,0.0005184983624329846,0.001245335977487642,-0.003602717807795796,-0.0005321405543319543,-0.00027238787751208087,0.0011756606208216088, ,0.00384698295437863, ,0.0005978027420751852, ,2.6086854423302842e-05, ,0.20679934090598392,-0.23104099939817466,0.09361676751,1.813188941310682,0.8191358160938155,-1.2080918412095842, ,-0.003189185736750128,-0.004378151649300751,0.0038207751307267938,0.002026941303086437,-0.004108949576759903,0.005538294911955992, ,0.5988748073577881
0.010455435113949328,0.020868346630847755,-0.08128811556043339, ,0.010494129412659158,0.020982400186845378,-0.0815259889099312, ,0.0002666255666466615, ,0.0006085643560736814,0.0012433647384406062,-0.0037170345269583877,-0.00026792222154195804,-0.000497757131883222,0.0003514501272447968, ,0.003966440737346471, ,0.0005652820265908299, ,2.6254284282436482e-05, ,0.20673755904299013,-0.23112594945979112,0.09369454491000001,1.8133986312541668,0.8191358160938155,-1.2080918412095842, ,-0.002398554505765847,-0.003957267858216525,0.00398618906906907,0.0025698509651361293,-0.0036313475698155485,0.004967729905890605, ,0.6116299629211426
0.010461233037882442,0.02087965901669352,-0.08131626172232162, ,0.010502754860870302,0.020999416492984563,-0.08157848788591103, ,0.00029125328458689517, ,0.0005648235536535893,0.00118979597334115,-0.0034636962082913105,-6.704726916401864e-05,-0.0017949300586025299,0.010416520626531825, ,0.0037056485975159982, ,0.001796181714927091, ,2.6483716514999768e-05, ,0.20672211357724168,-0.23116456312416225,0.09372695216000002,1.813608321197651,0.81899917959405,-1.207980423305888, ,-0.0019139674037092953,-0.004838458333694782,0.0036923531571627266,-0.00824200195940973,-0.001899069879541406,0.003483701952342282, ,0.6282298564910889
0.010474416377791021,0.02090714005792995,-0.0813975923285569, ,0.010511581534789514,0.021016201141519524,-0.08163103417796934, ,0.0002603279967762913, ,0.0006500748854414633,0.0012246092263851413,-0.0037589339523476616,0.0002126526684180043,-0.0019023901292131587,0.009201568514002076, ,0.004006475954269707, ,0.0019142383891929441, ,2.6617579124547538e-05, ,0.20668349991287055,-0.23125723591865294,0.09381250730000001,1.813608321197651,0.81899917959405,-1.2078170658256069, ,-0.001199941135130241,-0.00435105926938791,0.0040052329695750575,-0.007569825893462529,-0.001899069879541406,0.0027141433877308128, ,0.6426088809967041
0.01048083762560112,0.02091955855566663,-0.0814334412704092, ,0.010520608569216668,0.02103275524032286,-0.08168362743291441, ,0.00027746771574782016, ,0.0005411581578216292,0.0012319765776958153,-0.0037368461640921074,-0.0021402333695839395,-0.0033357085548707775,0.0095479429864865, ,0.003971729811285995, ,0.00396327512426992, ,2.6791976645497376e-05, ,0.20665260898137366,-0.2313035723158983,0.093851396,1.813608321197651,0.8188625430942845,-1.2077056479219104, ,-0.003129560485247839,-0.004552360482316895,0.0039437513047784105,-0.007181167580898352,-0.005058439414714448,0.005236222908761343, ,0.6558117866516113
0.01048922094594355,0.020936764778532357,-0.08148575923900299, ,0.010529835100711524,0.02104907989507115,-0.08173626729817109, ,0.00027752203998747003, ,0.000621265952788185,0.0012026657705111275,-0.0037489213687596015,-0.002170553373928225,-0.003947066094166492,0.00884648237835455, ,0.0039858233489199315, ,0.004504512399836267, ,2.703064562021618e-05, ,0.20662171804987675,-0.23135763144601787,0.09390713647000001,1.813608321197651,0.8188625430942845,-1.2076239691817698, ,-0.0021924192681536166,-0.004107175625865376,0.0039594361222967936,-0.006684495566993676,-0.0048362557963180395,0.004907609228512444, ,0.6745908260345459
0.010501236719555138,0.020959443692905193,-0.08155233872218165, ,0.01053926026759222,0.02106517620924665,-0.08178895342177982, ,0.00026193829670965535, ,0.000749836719717609,0.00117154248349714,-0.0036177320450764003,-0.0009788432011896277,-0.005170780478266749,0.007670495730305461, ,0.003875919509851589, ,0.005262613813233779, ,2.722003045711238e-05, ,0.2066062725841283,-0.2314271360418859,0.09397583984,1.813608321197651,0.8188625430942845,-1.2075422904416293, ,-0.0015853747434506685,-0.004034994784435967,0.0038671550182083035,-0.006175325487359881,-0.00428154666196551,0.0022538489927774, ,0.6858508586883545
0.010507720878855539,0.020970302500633017,-0.08158636295918431, ,0.010548883209933869,0.021081045284139063,-0.08184168545239692, ,0.0002813323250868502, ,0.0006951125154722688,0.0010803406689362896,-0.0035071993814565572,-0.0014495485343821088,-0.00450160016325786,0.007213428622221888, ,0.0037350722712436437, ,0.0047292276803649145, ,2.7452235346849116e-05, ,0.20659082711837987,-0.231465749706257,0.09401472854000001,1.813608321197651,0.8188625430942845,-1.2074606117014888, ,-0.0006560126260588252,-0.003242446148286302,0.0037104149825297,-0.00589895846641707,-0.003999407506703149,0.0033481799225367195, ,0.6969327926635742
0.010513832851762392,0.020981460889264517,-0.08162170280022459, ,0.010558703069567093,0.021096688218847172,-0.08189446303929315, ,0.000299480920836926, ,0.0007201822697830211,0.0011508309550920114,-0.003768389229657415,-0.0011381170946520166,-0.0038899491954713086,0.0069558866613616275, ,0.004005475224627637, ,0.004053025352073185, ,2.7721871712198316e-05, ,0.20657538165263142,-0.2314966406377539,0.09405232095,1.813608321197651,0.8188625430942845,-1.2074606117014888, ,-0.0009966844961467637,-0.0033155402732037717,0.003984194977488744,-0.005665688506929843,-0.0037705231947610263,0.003161540113485936, ,0.7087078094482422
0.010529636995302166,0.021007564414307112,-0.08171111818704574, ,0.010568718990076591,0.0211121061102808,-0.08194728583235514, ,0.00026121164829231714, ,0.0009823795190174736,0.0014306443963019186,-0.0050058075364119246,-0.0030207672258485514,-0.002193248376060066,0.003349283958184046, ,0.0052981055104304505, ,0.0037330108396119222, ,2.7887695283326534e-05, ,0.2065444907211345,-0.23156614523362193,0.09414695012,1.8133986312541668,0.8188625430942845,-1.2075422904416293, ,-0.0010402780934947254,-0.002657638586504999,0.005281436180371354,0.0,-0.0033704130515803767,0.006210134181952822, ,0.7241578102111816
0.01053951446499237,0.02102166624338737,-0.08176135263024908, ,0.010578930116799815,0.02112730005316226,-0.0820001534820822, ,0.00026407942405871925, ,0.0010390514048115493,0.001447015129891846,-0.005053834517775359,-0.002833853316659144,-0.002601720703425119,0.0033097949216449162, ,0.005358612128250604, ,0.003847034174799614, ,2.80548446937038e-05, ,0.2065367679882603,-0.2315893134322446,0.09420009801000001,1.8133986312541668,0.8188625430942845,-1.2075422904416293, ,-0.0004717306109923647,-0.002690691375182842,0.005339863064029502,0.0,-0.0032021728929377503,0.006057289708356107, ,0.7356269359588623
0.010550360919677803,0.02103743436138479,-0.08181056198984864, ,0.010589335596825246,0.021142271140028403,-0.0820530656395891, ,0.00026705391918592253, ,0.0009488164025474086,0.0013931962505164361,-0.004712415938212679,-0.0002623902115933603,0.002170555062425222,-0.0031941463627746455, ,0.005004808920719845, ,0.0021863566905370945, ,2.8223508193298065e-05, ,0.20652904525538607,-0.2316202043637415,0.09425194961000001,1.813608321197651,0.8187259065945193,-1.2073491937977925, ,-0.00059523057766488,-0.0024307226797574493,0.005005911854179762,0.007033111615095929,0.0,0.005040682468155552, ,0.7472739219665527
0.010560238549019838,0.021050743834002725,-0.08185514939951444, ,0.010599934578991077,0.021157020461232155,-0.0821060219566033, ,0.00027533168395781185, ,0.0008857677336581324,0.0012195433490461867,-0.004247964083739879,-0.004945784199713531,-0.0022535637318114453,-0.004152007604366998, ,0.004507445985803562, ,0.005435009609946498, ,2.8406060133684746e-05, ,0.20652132252251185,-0.23163564982948995,0.09429861605,1.8138180111411355,0.8185892700947538,-1.207237775894096, ,-0.0006029061791232827,-0.0016413605442069583,0.004475642461365553,0.009024191615702691,-0.005142713241622502,0.009192003995746479, ,0.7597239017486572
0.010564747219232732,0.021057331336956836,-0.08187976896200114, ,0.010610726213883946,0.021171549104944305,-0.08215902208546577, ,0.0003051918633219601, ,0.0008363359955076475,0.001140804648204355,-0.00402055416683259,-0.005194746979821117,-0.0022326768207211003,-0.004222947654356036, ,0.004262129626276204, ,0.005654223281721795, ,2.865167085513086e-05, ,0.20651359978963763,-0.23164337256236417,0.09432454185000001,1.8138180111411355,0.8185892700947538,-1.207237775894096, ,-0.0006235823819117679,-0.001366857224107208,0.004230760031872511,0.009024191615702691,-0.005142713241622502,0.009167413480452262, ,0.772711992263794
0.010585903892452453,0.021086446347422978,-0.08198385729007963, ,0.010621709653837162,0.021185858157155305,-0.08221206567913, ,0.0002514832584796841, ,0.000842101020459924,0.0011816957838464276,-0.00402080651859469,-0.00444070218029616,-0.0024438956979330336,-0.003740697024237945, ,0.004274625610997251, ,0.005068773124292683, ,2.876740167898033e-05, ,0.20650587705676338,-0.2316819862267353,0.09443213392000001,1.8138180111411355,0.8185892700947538,-1.2071560971539554, ,-0.00028523185885742625,-0.0014873180445841708,0.004473128761583825,0.00789359502639293,-0.00484915827906311,0.008394108315302275, ,0.7840189933776855
0.010593515289731827,0.021096608288066653,-0.08202329468126648, ,0.010632884052929482,0.021199948701676966,-0.08226515239116236, ,0.00026594039263891736, ,0.0007696026314526707,0.0010122202246502859,-0.003682521789944454,-0.00483444203699577,-0.002183768934493796,-0.0034250229485983824, ,0.0038958753479732453, ,0.005304778590206841, ,2.8911850405794772e-05, ,0.20649815432388915,-0.23169743169248375,0.09447620778000002,1.8138180111411355,0.8185892700947538,-1.2071560971539554, ,-0.0005031480184790768,-0.0009309495457616595,0.0038680941039339486,0.0074711778170186,-0.004596144027875839,0.007929909333079, ,0.7962207794189453
0.010595952543226725,0.021100817223926444,-0.08203803515792127, ,0.010644248566983589,0.021213821820144203,-0.0823182818757407, ,0.00030600778997539224, ,0.0006970199365360389,0.000960490459010725,-0.0034068084865871108,-0.004515288223445197,-0.0019584666673639426,-0.00330498821077566, ,0.003607592379698862, ,0.004921729266125556, ,2.914009894573933e-05, ,0.20649043159101493,-0.23170515442535797,0.09449176326000001,1.8138180111411355,0.8185892700947538,-1.2071560971539554, ,-0.0006675120036238921,-0.0011157719153765853,0.003581117697841727,0.007294997813807808,-0.004490377639864148,0.00773881579442309, ,0.809783935546875
0.010607042145474432,0.021114254816420718,-0.08209097387422384, ,0.01065580235356464,0.021227478592016815,-0.08237145378765473, ,0.0003063758526572115, ,0.0006703776667005242,0.0009134675480619104,-0.0032734149696698077,-0.004221344877560052,-0.001817916573303388,-0.0030692535225708396, ,0.003463968062934684, ,0.004596147611527681, ,2.9362214260353293e-05, ,0.20649043159101493,-0.2317128771582322,0.09454750373000001,1.8138180111411355,0.8185892700947538,-1.2071560971539554, ,-0.0006166549472839908,-0.00098099690308433,0.0034396051651911044,0.006742641125739897,-0.00415828380928191,0.0071493921614764686, ,0.8218557834625244
0.01062401428376333,0.021135816233215074,-0.08217199420244253, ,0.010667544571978825,0.021240920094581225,-0.08242466778230567, ,0.0002771022295598737, ,0.0009505558110627187,0.001208956264693814,-0.0045605134529880425,-0.00267414546670425,-0.0017610761261603702,-0.0037162362826500235, ,0.00481283851326558, ,0.0032019433359277466, ,2.9515134623040046e-05, ,0.20649043159101493,-0.23173604535685485,0.09463305887000001,1.8138180111411355,0.8185892700947538,-1.207074418413815, ,-0.0004529543044413325,-0.000845708453225213,0.004790620006015038,0.006143816929801279,-0.003796820332631321,0.00499312648018777, ,0.8343138694763184
0.01062401428376333,0.021135816233215074,-0.08217199420244253, ,0.01067947438327189,0.021254147402952138,-0.08247792351570528, ,0.00033267226076463943, ,0.0009505558110627187,0.001208956264693814,-0.0045605134529880425,-0.00267414546670425,-0.0017610761261603702,-0.0037162362826500235, ,0.00481283851326558, ,0.0032019433359277466, ,2.9843365536597853e-05, ,0.20649043159101493,-0.23173604535685485,0.09463305887000001,1.8138180111411355,0.8185892700947538,-1.207074418413815, ,-0.0004529543044413325,-0.000845708453225213,0.004790620006015038,0.006143816929801279,-0.003796820332631321,0.00499312648018777, ,0.8443009853363037
0.010636138440908646,0.021150447478829333,-0.0822298715997726, ,0.01069159095022782,0.02126716159007425,-0.08253122064447575, ,0.00032788475307184557, ,0.001000931481109779,0.0012300398725595626,-0.004783807106172758,-0.0028485198497616056,-0.0017139653301031892,-0.0035865853566887243, ,0.005039808760958291, ,0.0033244157354236302, ,3.0153416702956724e-05, ,0.20649043159101493,-0.23174376808972907,0.09469398450000001,1.8138180111411355,0.8185892700947538,-1.207074418413815, ,-0.00038996784276897756,-0.0004905474228555203,0.005018529149338374,0.005828997886589935,-0.0036057826184695907,0.004744169372451883, ,0.8549988269805908
0.01064619317371096,0.021162697720530307,-0.08227787013348285, ,0.01070389343736713,0.021279963726724343,-0.08258455882584961, ,0.00033337455010891973, ,0.0010404160116946521,0.0013284271367299653,-0.004962401820834985,-0.0020899484869325827,-0.0016728280172563397,-0.0033051518989984743, ,0.005241432625381877, ,0.0026769824885662006, ,3.046710816363816e-05, ,0.20649043159101493,-0.23175149082260332,0.09474453981000001,1.8138180111411355,0.8185892700947538,-1.207074418413815, ,-0.00035048670113574165,-0.0011352224261131222,0.0052208494001966576,0.005596752673879951,-0.0034654922019340955,0.0045606222669222225, ,0.8646688461303711
0.010657833430689642,0.021176096012203795,-0.08233343752427995, ,0.010716381010945662,0.021292554881512594,-0.082637937717669, ,0.00033122628997181083, ,0.0010548495117252631,0.0013177980063168756,-0.005023421091021895,-0.0022316424573448164,-0.0016268051039892162,-0.0032145960168517606, ,0.005299439454844575, ,0.0027616516262754, ,3.076878223069097e-05, ,0.20649043159101493,-0.23175149082260332,0.09480287286000001,1.8138180111411355,0.8185892700947538,-1.207074418413815, ,-0.00031611919000569457,-0.0008602837676550987,0.00527968562147829,0.005367159199372234,-0.0033260583986446553,0.004377762234250148, ,0.8747079372406006
0.010668405448305013,0.021188942950179326,-0.08238390543365891, ,0.010729052838952967,0.021304936120884573,-0.08269135697838552, ,0.00033415411713375834, ,0.00111936413074934,0.0013147466870485826,-0.005325911768037134,-0.003009893600549817,-0.001584868025406425,-0.003226401876931717, ,0.005598827651323969, ,0.003401655752629714, ,3.106906621412393e-05, ,0.20649043159101493,-0.23175921355547754,0.09485602075,1.8138180111411355,0.8185892700947538,-1.2069927396736742, ,-0.0002899022833507769,-6.496390730093047e-06,0.005579268483362522,0.005171547790995298,-0.0032071213431483793,0.004285737930471527, ,0.885361909866333
0.01067949476911723,0.02120238620443969,-0.08243684280646567, ,0.010741908091111136,0.02131710850912285,-0.08274481626705943, ,0.0003345209745056759, ,0.0012458903926435023,0.0015091380858483863,-0.005925896707980209,-0.0023625221471489585,-0.0015454166840698472,-0.0029886396991294544, ,0.006240672433823954, ,0.0028230863103427227, ,3.136292847051467e-05, ,0.20649043159101493,-0.23176693628835177,0.09491176122000002,1.8138180111411355,0.8185892700947538,-1.2069927396736742, ,-0.00026880298212280133,-0.0005827647551499235,0.0062221920000000005,0.004999133877125335,-0.003102114729292806,0.004163854939364596, ,0.896812915802002
0.010691240308648715,0.021217319140575883,-0.08249603666970426, ,0.010754945938872863,0.021329073108348893,-0.08279831524336008, ,0.00032851132815576404, ,0.0011554487128872177,0.0013854157437124949,-0.0053902285669477695,-0.002214056095132877,-0.00175246707559802,-0.002853345981971049, ,0.005684100853695242, ,0.0028236821161726623, ,3.163809270057874e-05, ,0.2064827088581407,-0.231774659021226,0.09497398314000001,1.8138180111411355,0.8185892700947538,-1.2069927396736742, ,0.0,-0.0006477910140829941,0.005664584466571835,0.004823473545281322,-0.0029950625763347184,0.0040397819961214545, ,0.9065978527069092
0.010702587796118851,0.0212310618956429,-0.08255020854399718, ,0.010768165555420482,0.02134083097852463,-0.08285185356756422, ,0.0003276269438164076, ,0.0010143995679314304,0.001122241900214974,-0.004721297535986388,-0.002571056962138185,-0.001685401924836876,-0.003476487700325229, ,0.004957729701116099, ,0.0030742334337062554, ,3.1905143839363496e-05, ,0.2064827088581407,-0.2317823817541002,0.09503101990000001,1.8138180111411355,0.8185892700947538,-1.2069110609335336, ,0.0,0.0004990194717201532,0.004937635313081216,0.004651699357321195,-0.0028902525637760036,0.003068074799250154, ,0.9166028499603271
0.01071215825146199,0.021242079710793515,-0.08259589702835461, ,0.010781566115664228,0.02135238317745426,-0.08290543090055685, ,0.0003358504494726899, ,0.000992054068687964,0.0010965318851323292,-0.004618393551534584,-0.002524790783665951,-0.0016340109650526842,-0.003356725383202585, ,0.004849341444687972, ,0.0030074172031925306, ,3.218180971376294e-05, ,0.2064827088581407,-0.2317823817541002,0.09507898263,1.8138180111411355,0.8185892700947538,-1.2069110609335336, ,0.0,0.0004990194717201532,0.004829839757428745,0.004505439189812763,-0.00280087951148081,0.0029951970678183965, ,0.9268848896026611
0.010724211273549292,0.021254540271158306,-0.08265030712099139, ,0.010795146796240825,0.021363730760786247,-0.08295904690383075, ,0.00033507411853559934, ,0.0011127027435512383,0.00133528616604744,-0.005137578980004025,-0.001207146151494629,-0.0017286538810987505,-0.002963280929308934, ,0.005423634788269148, ,0.0021084218013603813, ,3.2450717403636086e-05, ,0.20649043159101493,-0.231774659021226,0.09513601939,1.8138180111411355,0.8185892700947538,-1.2069110609335336, ,0.00014954694151190308,-0.0007966825849291928,0.005405093831014592,0.004349347837048903,-0.0027054157748085724,0.0029173527916747087, ,0.9391298294067383
0.010732488744362736,0.02126406888058742,-0.08268982149394252, ,0.010808906775512255,0.02137487478201454,-0.08301270123948495, ,0.0003498127975894972, ,0.0011979227991814382,0.001424263715155712,-0.0055468187621767725,-0.0012789054085821686,-0.00169517892508642,-0.002906881557485849, ,0.005850704619406462, ,0.0021234936735073043, ,3.2741182746646724e-05, ,0.20649043159101493,-0.231774659021226,0.09517750067000001,1.8138180111411355,0.8185892700947538,-1.2069110609335336, ,0.00014954694151190308,-0.0006925772313303384,0.005832593013548151,0.004254373469496052,-0.002647272259092181,0.002869940653294545, ,0.9491899013519287
0.010749268656483124,0.021284066519881042,-0.08276992418721152, ,0.010822845233563923,0.021385816292480826,-0.0830663935702257, ,0.00032196369979214294, ,0.0012455154876439506,0.001412508172031384,-0.005782589570208148,-0.0019769886382315235,-0.001625747773254089,-0.0029279761996994064, ,0.006081515461091622, ,0.0025595963416703725, ,3.297362090092869e-05, ,0.20649043159101493,-0.2317823817541002,0.09526175952,1.8138180111411355,0.8185892700947538,-1.2069110609335336, ,0.000138861252686725,7.467331137454101e-05,0.00606349886562619,0.004087938128594062,-0.002545312717254872,0.00278679948360078, ,0.9592897891998291
0.010760132817123083,0.02129657322897095,-0.08282178670717727, ,0.01083696135220358,0.021396556341375814,-0.083120123559365, ,0.0003238890611645665, ,0.0009936694019973095,0.0011227478698539088,-0.004586651149970839,-0.0019464973653624993,-0.0015759730735583777,-0.0028329869489270103, ,0.004825485512490531, ,0.0025045041609120825, ,3.3204476827227214e-05, ,0.20649043159101493,-0.2317823817541002,0.0953162037,1.8138180111411355,0.8185892700947538,-1.2069110609335336, ,0.00013074884943315188,8.18380853051502e-05,0.00480797208572291,0.003970069060895622,-0.0024730284305627703,0.0027278564946684614, ,0.9689879417419434
0.010769962295797353,0.02130788882290943,-0.08286870993952733, ,0.010851254314959658,0.02140709597574159,-0.08317389087082137, ,0.0003310375392278772, ,0.0011216893767496826,0.0012703224404897093,-0.005203086123160414,-0.0018667095806923439,-0.0015327027497300779,-0.002789501443992091, ,0.005472112148498904, ,0.0024153216275152123, ,3.3443264287851334e-05, ,0.20649043159101493,-0.2317823817541002,0.09536546272000002,1.8138180111411355,0.8185892700947538,-1.2069110609335336, ,0.00012411645925909472,8.695965041736087e-05,0.005455072438356166,0.003868136753334094,-0.002410405862451174,0.0026116570349243016, ,0.9794778823852539
0.010780173429408601,0.021318906638060072,-0.08291431510004617, ,0.010865723307079793,0.021417436240472775,-0.08322769516911825, ,0.00033946123757033726, ,0.0011544742776010012,0.001315550333506215,-0.005393800766155466,-0.0018421847668660958,-0.0014223885808910491,-0.0027156757092418175, ,0.005670676347898015, ,0.002327408306457695, ,3.375250112112078e-05, ,0.20649815432388915,-0.2317823817541002,0.09541342545,1.8138180111411355,0.8185892700947538,-1.2069110609335336, ,4.498579737271356e-05,8.736330979492163e-05,0.005654530181043664,0.003780628868366986,-0.0023564427517195905,0.0025716363358548075, ,0.9879767894744873
0.010793489542820113,0.021333497798664943,-0.08297473792269104, ,0.010880367515529685,0.021427578178318425,-0.0832815361193844, ,0.0003324515505636299, ,0.0011173599398675365,0.0012687641344599715,-0.0052013052018341135,-0.0018191812327663355,-0.0014262020804441228,-0.0026083968780140723, ,0.0054691710036110005, ,0.0023115944551538674, ,3.404376276695357e-05, ,0.20650587705676338,-0.2317823817541002,0.09547694366000001,1.8138180111411355,0.8185892700947538,-1.2069110609335336, ,8.948552430601547e-05,8.497806146212541e-05,0.005453204902430675,0.003664786413707759,-0.0022855115174631874,0.0025338783670954645, ,0.9960439205169678
0.010805805597425104,0.021346253136913407,-0.08303038263187931, ,0.010895186128991098,0.021437522829884044,-0.08333541338735324, ,0.00033070046577374413, ,0.0013991533858389222,0.0015684429616643321,-0.006411567967712255,-0.0016930368974936451,-0.0017310435988264457,-0.00253042436383129, ,0.0067472844408467585, ,0.0024213374491185865, ,3.4326799190126366e-05, ,0.20651359978963763,-0.231774659021226,0.09553527671,1.8138180111411355,0.8185892700947538,-1.2069110609335336, ,0.0004255756135444467,0.0,0.0067295359188846654,0.0035771790781017453,-0.002231622031612986,0.0024713164256445538, ,1.0044169425964355
0.010820810172572214,0.02136352374150366,-0.08310200208524346, ,0.010910178337860997,0.021447271233632964,-0.08338932663936259, ,0.0003123390958634362, ,0.0014792476399313173,0.0016606262520436456,-0.00679610012033893,-0.0016616667073711705,-0.0016983603977908412,-0.0024567667729965804, ,0.007150722339378709, ,0.002376036571578589, ,3.457278712703686e-05, ,0.20651359978963763,-0.231774659021226,0.09561046153000001,1.8138180111411355,0.8185892700947538,-1.2069110609335336, ,0.0004255756135444467,0.0,0.0071333683475145555,0.0034853266359139413,-0.0021750851463812025,0.002422758638089265, ,1.0128779411315918
0.010825759303410044,0.021368535894646712,-0.0831256251496593, ,0.010925343334249759,0.02145682442588828,-0.08344327554235434, ,0.00034440327513889167, ,0.0014368151886521342,0.001591492647257189,-0.006594300335385767,-0.0018744605179440762,-0.0016875536404724481,-0.002479430983838649, ,0.006934124576749685, ,0.002522186958466546, ,3.487008234281452e-05, ,0.20651359978963763,-0.23176693628835177,0.09563509104000001,1.8138180111411355,0.8185892700947538,-1.2069110609335336, ,0.0004255756135444467,0.00022833527830720717,0.006916548640903171,0.003454929422974183,-0.002156371355349285,0.0024063036888828846, ,1.0215017795562744
0.010825759303410044,0.021368535894646712,-0.0831256251496593, ,0.010940680311979806,0.021466183440834563,-0.08349725976387345, ,0.0004010662887470203, ,0.0014368151886521342,0.001591492647257189,-0.006594300335385767,-0.0018744605179440762,-0.0016875536404724481,-0.002479430983838649, ,0.006934124576749685, ,0.002522186958466546, ,3.5259628523283504e-05, ,0.20651359978963763,-0.23176693628835177,0.09563509104000001,1.8138180111411355,0.8185892700947538,-1.2069110609335336, ,0.0004255756135444467,0.00022833527830720717,0.006916548640903171,0.003454929422974183,-0.002156371355349285,0.0024063036888828846, ,1.0309419631958008
0.010849559707368887,0.02139592975037978,-0.08323922862757618, ,0.01095618846658402,0.02147534931051969,-0.08355127897206871, ,0.0003391940098564239, ,0.0015460781164744004,0.0017176561346046136,-0.007119088457812514,-0.0013396640067330917,-0.0016348331050604643,-0.0027298072857715803, ,0.007484792622988646, ,0.002113613173265572, ,3.5537134259637854e-05, ,0.20651359978963763,-0.23176693628835177,0.09575434972,1.8138180111411355,0.8185892700947538,-1.206829382193393, ,0.0004255756135444467,0.00022331549329270906,0.007467797243319269,0.003320030507173549,-0.0020732582502042277,0.0017321665767143497, ,1.039674997329712
0.010866368521651952,0.021413795308466543,-0.08331315002611943, ,0.010971866995304573,0.021484323064856464,-0.08360533283569119, ,0.00031855123068931225, ,0.0014871384073619689,0.0016266481250442168,-0.0067338573752560305,-0.0012909323620680264,-0.0018639809178841822,-0.0026635933331978106, ,0.007085365192821821, ,0.002267359120171, ,3.5775082839690425e-05, ,0.20652904525538607,-0.23176693628835177,0.09582953454000001,1.8138180111411355,0.8185892700947538,-1.206829382193393, ,0.0006833350810773508,0.00020480399212989488,0.007085770249110321,0.00324253682367108,-0.0020254781809216317,0.0016878575271455027, ,1.048414945602417
0.010879464837815999,0.021427440346309848,-0.08337249916145349, ,0.010987715097091245,0.021493105731624298,-0.08365942102409431, ,0.00031361475845841205, ,0.0011732010076142398,0.001280537544384434,-0.005275551132248538,-0.0011985998736630283,-0.0017436037414074017,-0.002589331281589279, ,0.005554063085328975, ,0.002115842994603058, ,3.600077688367696e-05, ,0.2065367679882603,-0.23175921355547754,0.09589434904000001,1.8138180111411355,0.8185892700947538,-1.206829382193393, ,0.0005889886834526088,0.00013363510939876994,0.005536604629822733,0.003166975597995571,-0.0019788489916236613,0.001650107272855451, ,1.0569419860839844
0.010891490159615642,0.021438712065147462,-0.08342271140501922, ,0.01100373197260006,0.021501698336471184,-0.08371354320723406, ,0.00031803872741668947, ,0.0011257918514895398,0.0012356046878400952,-0.005163249004639588,0.0002443860114958643,0.00025853911724663174,-0.0030031827531462403, ,0.005427086374971782, ,0.0003557574007523384, ,3.623007064281035e-05, ,0.2065444907211345,-0.23175149082260332,0.09594620064,1.8138180111411355,0.8184526335949883,-1.2067179642896968, ,0.0004531779804361879,0.0003523072249771553,0.005423497282941777,0.0030998758106699207,0.0,3.679019157279504e-05, ,1.0667808055877686
0.010905848089955785,0.021454492275340707,-0.08348807248138065, ,0.011019916824191973,0.02151010190291515,-0.08376769905566754, ,0.00030707511761234263, ,0.00139268697697104,0.0014742383339481674,-0.0061473967366767555,0.0002290514005925258,-0.0004667232313892428,-0.002931144440106291, ,0.006473286825038037, ,0.0005198906996727053, ,3.6437524949891563e-05, ,0.20655221345400873,-0.23175149082260332,0.09601490401000001,1.8138180111411355,0.8184526335949883,-1.2067179642896968, ,0.0011611236683251275,0.0003523072249771553,0.006464615064935065,0.0030244960110570635,0.0,3.7178232439103354e-05, ,1.0753798484802246
0.010905848089955785,0.021454492275340707,-0.08348807248138065, ,0.01103626885593096,0.021518317452346464,-0.08382188824055316, ,0.00036402773313208244, ,0.001344097606642085,0.001486580310557759,-0.006208228830709471,0.0002160880127164356,0.0002334638619874626,-0.0028703126581272904, ,0.006523697158082315, ,0.0003181040424262803, ,3.6734649309993885e-05, ,0.20655993618688295,-0.23175149082260332,0.09607971851000001,1.8138180111411355,0.8184526335949883,-1.2067179642896968, ,0.0004463171638456756,0.0003523072249771553,0.006520184821940238,0.0029608582294518224,0.0,3.753081688390983e-05, ,1.083833932876587
0.01091943075586764,0.021469379266089043,-0.08354972890217455, ,0.01105278727358313,0.02152634600402877,-0.08387611043365066, ,0.0003571471323381842, ,0.001344097606642085,0.001486580310557759,-0.006208228830709471,0.0002160880127164356,0.0002334638619874626,-0.0028703126581272904, ,0.006523697158082315, ,0.0003181040424262803, ,3.701580633720331e-05, ,0.20655993618688295,-0.23175149082260332,0.09607971851000001,1.8138180111411355,0.8184526335949883,-1.2067179642896968, ,0.0004463171638456756,0.0003523072249771553,0.006520184821940238,0.0029608582294518224,0.0,3.753081688390983e-05, ,1.0921249389648438
0.010933955246816077,0.021485403338448984,-0.08361904082710216, ,0.011069471284614985,0.021534188575101153,-0.08393036530731932, ,0.0003430270073892256, ,0.0013971603614980985,0.0015413487308976747,-0.006472977060740201,0.00010963680388721623,0.00024565042513879313,-0.0028272170864542304, ,0.006799062068759942, ,0.0002689851230501451, ,3.732975767704295e-05, ,0.20655993618688295,-0.23174376808972907,0.09615231075000001,1.8138180111411355,0.8184526335949883,-1.2067179642896968, ,0.000419065031950515,0.0004474061395310335,0.006795568054607509,0.0028953726106714754,0.0,3.790847960262727e-05, ,1.0985198020935059
0.010945022893506233,0.021497844152569168,-0.08367270905258443, ,0.011086320098191946,0.021541846180580117,-0.08398465253451952, ,0.000345267743125327, ,0.0012119977640036807,0.001329570543831209,-0.005593797182959697,0.0011001477266179096,0.0012988922639101236,-0.003041274984450293, ,0.005875990413118573, ,0.0017021870216705499, ,3.76432756169104e-05, ,0.20656765891975717,-0.23173604535685485,0.09620934751000002,1.8138180111411355,0.8185892700947538,-1.206829382193393, ,0.0004945367573558924,0.0004592643046094796,0.0058799599557032125,0.002842054231587147,0.0011998597615667731,-0.000940187121553932, ,1.1054317951202393
0.010945022893506233,0.021497844152569168,-0.08367270905258443, ,0.011103332925177012,0.021549319833360964,-0.0840389717888107, ,0.000402318535228659, ,0.0012119977640036807,0.001329570543831209,-0.005593797182959697,0.0011001477266179096,0.0012988922639101236,-0.003041274984450293, ,0.005875990413118573, ,0.0017021870216705499, ,3.8043506829567025e-05, ,0.20656765891975717,-0.23173604535685485,0.09620934751000002,1.8138180111411355,0.8185892700947538,-1.206829382193393, ,0.0004945367573558924,0.0004592643046094796,0.0058799599557032125,0.002842054231587147,0.0011998597615667731,-0.000940187121553932, ,1.1124629974365234
0.010959676582140476,0.021511782189879727,-0.08373312371529439, ,0.011120508978129247,0.021556610544219514,-0.08409332274435191, ,0.00039701383034635785, ,0.001422114922204424,0.0014555766974422295,-0.006201044957136209,0.0008419720791936321,0.00032357283780769144,-0.00303823522540498, ,0.006526413481730814, ,0.0009020017707617479, ,3.8430299567368114e-05, ,0.20659082711837987,-0.23172832262398063,0.09627286572,1.8138180111411355,0.8185892700947538,-1.206829382193393, ,0.0014566874964680658,0.0007111819457812813,0.006522854840294842,0.0027848338928393107,0.0011998597615667731,-0.0009398575092211085, ,1.1203289031982422
0.010979510038863442,0.021530184783689815,-0.08381189050488314, ,0.011137847471302371,0.0215637193218141,-0.08414770507590079, ,0.0003727824216165947, ,0.0018115204697565328,0.0017020216773489364,-0.007148038299143424,0.0009694486639306046,-0.001904268510230109,-0.0029497469680884745, ,0.007567888459044163, ,0.002136831909644474, ,3.8774194737457786e-05, ,0.20662944078275097,-0.2317205998911064,0.09635582828000001,1.8138180111411355,0.8185892700947538,-1.206829382193393, ,0.003670297334399781,0.0005681536653808994,0.007545623647560399,0.0027229824863793444,0.0011998597615667731,-0.0009395103881238875, ,1.126889944076538
0.010979510038863442,0.021530184783689815,-0.08381189050488314, ,0.011155347620643283,0.02157064717268725,-0.08420211845881372, ,0.0004299231514101201, ,0.0018115204697565328,0.0017020216773489364,-0.007148038299143424,0.0009694486639306046,-0.001904268510230109,-0.0029497469680884745, ,0.007567888459044163, ,0.002136831909644474, ,3.920294102834747e-05, ,0.20662944078275097,-0.2317205998911064,0.09635582828000001,1.8138180111411355,0.8185892700947538,-1.206829382193393, ,0.003670297334399781,0.0005681536653808994,0.007545623647560399,0.0027229824863793444,0.0011998597615667731,-0.0009395103881238875, ,1.1333558559417725
0.010998612784008209,0.021548060089978886,-0.08388550707347589, ,0.011173008643790549,0.021577395101267344,-0.08425656256904547, ,0.0004110433548774417, ,0.0019808955083770144,0.0018619538986593377,-0.008112793946529846,-0.00015819459934178747,-0.0021930358109864705,-0.00047819345484353075, ,0.008556181680790342, ,0.002198726098322844, ,3.959709853340802e-05, ,0.2066680544471221,-0.23170515442535797,0.09643360568,1.8140277010846202,0.8185892700947538,-1.206829382193393, ,0.003333520389760806,0.001164782282789924,0.008536340578778135,0.0,0.0011998597615667731,-0.0009392436350854789, ,1.1397998332977295
0.011018524502299162,0.021566643673663448,-0.08397094195851344, ,0.011190829760073049,0.021583964109870405,-0.08431103708314822, ,0.00038164616225931945, ,0.002105045706874493,0.0020106101339815085,-0.009044901726791897,-0.0009622291152196186,-0.0013608997200654505,-0.0006466334607069409, ,0.009501790241118928, ,0.0016666950475351058, ,3.994110125779275e-05, ,0.20669122264574477,-0.2316819862267353,0.09652304969000002,1.8140277010846202,0.8185892700947538,-1.206829382193393, ,0.002501372336478283,0.001986115635017591,0.009487082501488983,0.0,0.0011998597615667731,-0.0009389943141471317, ,1.1465039253234863
0.011018524502299162,0.021566643673663448,-0.08397094195851344, ,0.0112088101905086,0.021590355198701717,-0.08436554167827158, ,0.00043872521968788203, ,0.002105045706874493,0.0020106101339815085,-0.009044901726791897,-0.0009622291152196186,-0.0013608997200654505,-0.0006466334607069409, ,0.009501790241118928, ,0.0016666950475351058, ,4.036830005512309e-05, ,0.20669122264574477,-0.2316819862267353,0.09652304969000002,1.8140277010846202,0.8185892700947538,-1.206829382193393, ,0.002501372336478283,0.001986115635017591,0.009487082501488983,0.0,0.0011998597615667731,-0.0009389943141471317, ,1.1533019542694092
0.011039611122506919,0.021587652484012954,-0.08406279559804863, ,0.011226949157802237,0.021596569365857896,-0.08442007603216231, ,0.00040351500449252665, ,0.0023913326532481265,0.002249626256608766,-0.009980409057074788,-0.0005189255068028498,-0.0020554756315348684,-0.0007077014087872264, ,0.010506562477778104, ,0.002119944510868355, ,4.0736704627835474e-05, ,0.20672211357724168,-0.23166654076098683,0.09662027144000002,1.8140277010846202,0.8187259065945193,-1.2069408000970896, ,0.003565936914137895,0.0018686506939682285,0.010486380197498356,0.0,0.0015889657644061962,-0.0012560619996198604, ,1.1624748706817627
0.011066275852600362,0.021610990153829383,-0.08416764517116773, ,0.011245245886344951,0.02160260760732826,-0.0844746398231635, ,0.0003554521858399319, ,0.002508497861344167,0.0021355135203244948,-0.00982504412322238,-0.0017515199169028583,-0.0037939242919804135,-0.0006385211293414492, ,0.010362647901917908, ,0.004178706976995798, ,4.102793816388478e-05, ,0.20677617270736123,-0.23164337256236417,0.09673045609000001,1.8140277010846202,0.8187259065945193,-1.2070224788372301, ,0.005285160144788734,0.0027692209237767627,0.010323273830200909,0.0,0.0015720803565784992,-0.000822414913021469, ,1.1690759658813477
0.011089871829901694,0.021629078704811237,-0.08425944684884032, ,0.011263699602212324,0.02160847091699686,-0.08452923273021515, ,0.0003215978811097358, ,0.0022736378666020733,0.0017717442257604676,-0.00828905249458794,-0.002083079095278136,-0.005514006457236188,0.002065075685282413, ,0.008775927187938432, ,0.005894357182620635, ,4.126475940968056e-05, ,0.2068302318374808,-0.23161248163086728,0.09682638155,1.8138180111411355,0.8187259065945193,-1.2070224788372301, ,0.006332604701766938,0.0025152225072542288,0.008723335991237677,-0.0027804552764056803,0.001535668346640436,-0.000800947666358422, ,1.1755290031433105
0.011089871829901694,0.021629078704811237,-0.08425944684884032, ,0.011282309533162803,0.021614160286643994,-0.08458385443285191, ,0.0003774852439516794, ,0.0022736378666020733,0.0017717442257604676,-0.00828905249458794,-0.002083079095278136,-0.005514006457236188,0.002065075685282413, ,0.008775927187938432, ,0.005894357182620635, ,4.1582287371284385e-05, ,0.2068302318374808,-0.23161248163086728,0.09682638155,1.8138180111411355,0.8187259065945193,-1.2070224788372301, ,0.006332604701766938,0.0025152225072542288,0.008723335991237677,-0.0027804552764056803,0.001535668346640436,-0.000800947666358422, ,1.181985855102539
0.011113623230614916,0.021646097646850545,-0.08434073898722907, ,0.01130107490863661,0.021619676705947995,-0.08463850461120505, ,0.00035284637525859013, ,0.0021528510455076314,0.0015400697644894817,-0.007601763348059041,-0.002826653246014327,-0.005799335826216646,0.0019051219248876433, ,0.008049434048647879, ,0.006451529990146621, ,4.1859430351631264e-05, ,0.20690745916622305,-0.23158159069937037,0.09691193669,1.8138180111411355,0.8187259065945193,-1.2070224788372301, ,0.006586728480672423,0.003253065050132983,0.007988370872617855,-0.002768755155691306,0.0014998827476585296,-0.0007799375469640933, ,1.1883339881896973
0.011113623230614916,0.021646097646850545,-0.08434073898722907, ,0.011319994959753856,0.021625021162487323,-0.08469318294600003, ,0.000408962410075859, ,0.0021528510455076314,0.0015400697644894817,-0.007601763348059041,-0.002826653246014327,-0.005799335826216646,0.0019051219248876433, ,0.008049434048647879, ,0.006451529990146621, ,4.2278637628289494e-05, ,0.20690745916622305,-0.23158159069937037,0.09691193669,1.8138180111411355,0.8187259065945193,-1.2070224788372301, ,0.006586728480672423,0.003253065050132983,0.007988370872617855,-0.002768755155691306,0.0014998827476585296,-0.0007799375469640933, ,1.1933109760284424
0.011113623230614916,0.021646097646850545,-0.08434073898722907, ,0.011339068919313543,0.021630194641741738,-0.08474788911855757, ,0.0004656714437939079, ,0.0021528510455076314,0.0015400697644894817,-0.007601763348059041,-0.002826653246014327,-0.005799335826216646,0.0019051219248876433, ,0.008049434048647879, ,0.006451529990146621, ,4.2777659028744636e-05, ,0.20690745916622305,-0.23158159069937037,0.09691193669,1.8138180111411355,0.8187259065945193,-1.2070224788372301, ,0.006586728480672423,0.003253065050132983,0.007988370872617855,-0.002768755155691306,0.0014998827476585296,-0.0007799375469640933, ,1.2001888751983643
0.011139616543475065,0.02166505315270392,-0.08443428386241339, ,0.011358296021791699,0.021635198127094492,-0.08480262281079244, ,0.00042940146446415436, ,0.002048766537389816,0.0012528095930874647,-0.006683988360038204,-0.00018591933740414265,-0.003651466132603109,0.000569552412718487, ,0.007102300796107303, ,0.0036561944117995482, ,4.321910842372693e-05, ,0.20700013196071376,-0.23153525430212502,0.09701175102000001,1.8138180111411355,0.81899917959405,-1.2071636359044824, ,0.007843661697782393,0.004072874962239372,0.007041914907161805,-0.002693159417548923,0.005057553449141957,-0.004210298630470374, ,1.2059829235076904
0.011139616543475065,0.02166505315270392,-0.08443428386241339, ,0.01137767550334034,0.021640032599833735,-0.08485738370521333, ,0.000486118888149183, ,0.002048766537389816,0.0012528095930874647,-0.006683988360038204,-0.00018591933740414265,-0.003651466132603109,0.000569552412718487, ,0.007102300796107303, ,0.0036561944117995482, ,4.3739490267344445e-05, ,0.20700013196071376,-0.23153525430212502,0.09701175102000001,1.8138180111411355,0.81899917959405,-1.2071636359044824, ,0.007843661697782393,0.004072874962239372,0.007041914907161805,-0.002693159417548923,0.005057553449141957,-0.004210298630470374, ,1.2108678817749023
0.011175853123887275,0.021689829928978905,-0.08455814306362547, ,0.011397206601785533,0.0216446990391548,-0.08491217148492239, ,0.000419964620509823, ,0.002577525620122753,0.001908754028775398,-0.009079708254894289,0.0021841375405929732,-0.001269072590060858,-0.0008897863466422035, ,0.009629542162468108, ,0.002526052320224909, ,4.4159179438431346e-05, ,0.20713141841957558,-0.2314889179048797,0.09714267631000001,1.813608321197651,0.8191358160938155,-1.2073567325483194, ,0.008259210232919504,0.0033650592601352338,0.009595669590361447,-0.0009634605908123019,0.0075891298148800055,-0.005272648676707517, ,1.215791940689087
0.011175853123887275,0.021689829928978905,-0.08455814306362547, ,0.011416888556626544,0.021649198422161085,-0.08496698583361492, ,0.00047634169432744637, ,0.002577525620122753,0.001908754028775398,-0.009079708254894289,0.0021841375405929732,-0.001269072590060858,-0.0008897863466422035, ,0.009629542162468108, ,0.002526052320224909, ,4.465681208099597e-05, ,0.20713141841957558,-0.2314889179048797,0.09714267631000001,1.813608321197651,0.8191358160938155,-1.2073567325483194, ,0.008259210232919504,0.0033650592601352338,0.009595669590361447,-0.0009634605908123019,0.0075891298148800055,-0.005272648676707517, ,1.2207658290863037
0.011204788832220695,0.021710569095833167,-0.08466065962560677, ,0.011436720609033732,0.021653531723866682,-0.08502182643557894, ,0.00043299777773329065, ,0.002868294988717271,0.002162661517115347,-0.010134519817618213,0.002170467086873277,-0.0020384189393374084,-0.0009093088789607974, ,0.01075233523071191, ,0.0029775782505338613, ,4.508768721282638e-05, ,0.20721636848119204,-0.23144258150763433,0.09725026838,1.813608321197651,0.8191358160938155,-1.2073567325483194, ,0.009032297809040246,0.003382565963794007,0.010712045406859449,-0.0009468841427724381,0.0075891298148800055,-0.005272648676707517, ,1.2255778312683105
0.011204788832220695,0.021710569095833167,-0.08466065962560677, ,0.01145670200184767,0.02165769991719753,-0.08507669297569478, ,0.0004892229997317881, ,0.002868294988717271,0.002162661517115347,-0.010134519817618213,0.002170467086873277,-0.0020384189393374084,-0.0009093088789607974, ,0.01075233523071191, ,0.0029775782505338613, ,4.559552069646097e-05, ,0.20721636848119204,-0.23144258150763433,0.09725026838,1.813608321197651,0.8191358160938155,-1.2073567325483194, ,0.009032297809040246,0.003382565963794007,0.010712045406859449,-0.0009468841427724381,0.0075891298148800055,-0.005272648676707517, ,1.230449914932251
0.011204788832220695,0.021710569095833167,-0.08466065962560677, ,0.011476831979577246,0.0216617039729935,-0.08513158513943507, ,0.0005460458898556407, ,0.0029340496285565256,0.0022599519905176758,-0.010701570204325377,0.009034502398415287,0.006320464360427907,-0.0029173285348441224, ,0.011324294020396246, ,0.011025895109255156, ,4.61801768789842e-05, ,0.20730904127568273,-0.2314039678432632,0.09736045303000002,1.8133986312541668,0.8194090890933463,-1.2075795683557122, ,0.0090163854525037,0.003926218550332141,0.011345307350427351,-0.0009754396578702809,0.01636412703627579,-0.012428070522467716, ,1.2354698181152344
0.011232621836290809,0.02173121474695845,-0.0847642820846734, ,0.011497109788398668,0.021665544860009902,-0.08518650261286334, ,0.0005025301834586987, ,0.0029340496285565256,0.0022599519905176758,-0.010701570204325377,0.009034502398415287,0.006320464360427907,-0.0029173285348441224, ,0.011324294020396246, ,0.011025895109255156, ,4.669794309921428e-05, ,0.20730904127568273,-0.2314039678432632,0.09736045303000002,1.8133986312541668,0.8194090890933463,-1.2075795683557122, ,0.0090163854525037,0.003926218550332141,0.011345307350427351,-0.0009754396578702809,0.01636412703627579,-0.012428070522467716, ,1.2443559169769287
0.011242582191602858,0.021738221736115948,-0.08479883556667048, ,0.011517534676153445,0.02166922354491936,-0.0852414450826351, ,0.000525607080214284, ,0.0030536696140311867,0.002215145995339773,-0.01110493698949729,0.00749027700302532,0.0059293271253659545,-0.003242164439638601, ,0.011728230703436576, ,0.0095530623812873, ,4.72439958625523e-05, ,0.20733993220717964,-0.23138852237751475,0.09739674915,1.8133986312541668,0.8194090890933463,-1.2075795683557122, ,0.0094074498689957,0.005504385238459683,0.011738254620486369,-0.0009754396578702809,0.01636412703627579,-0.012428070522467716, ,1.2495708465576172
0.011242582191602858,0.021738221736115948,-0.08479883556667048, ,0.011538105892347517,0.02167274099231352,-0.08529641223599589, ,0.0005824126778906095, ,0.0030536696140311867,0.002215145995339773,-0.01110493698949729,0.00749027700302532,0.0059293271253659545,-0.003242164439638601, ,0.011728230703436576, ,0.0095530623812873, ,4.7865548317140386e-05, ,0.20733993220717964,-0.23138852237751475,0.09739674915,1.8133986312541668,0.8194090890933463,-1.2075795683557122, ,0.0094074498689957,0.005504385238459683,0.011738254620486369,-0.0009754396578702809,0.01636412703627579,-0.012428070522467716, ,1.2544407844543457
0.011297794557650802,0.021777249262670887,-0.08499232009464634, ,0.011558822688149426,0.021676098164704748,-0.08535140376078233, ,0.000455311221931796, ,0.0031253094031495374,0.002012584811864803,-0.01027394877034885,0.005136432256356861,0.0007408584346824333,-0.0026567278602877544, ,0.010925753055332912, ,0.005189575423444878, ,4.8303349689303835e-05, ,0.20752527779616103,-0.23129584958302407,0.09760156297000001,1.8133986312541668,0.8196823620928773,-1.207802404163105, ,0.011989611883916312,0.005550315460403468,0.010880335737704918,-0.0009754396578702809,0.01362385096429842,-0.010198610862400663, ,1.2592499256134033
0.011297794557650802,0.021777249262670887,-0.08499232009464634, ,0.0115796843163889,0.02167929602252817,-0.08540641934542081, ,0.0005104261580560483, ,0.0031253094031495374,0.002012584811864803,-0.01027394877034885,0.005136432256356861,0.0007408584346824333,-0.0026567278602877544, ,0.010925753055332912, ,0.005189575423444878, ,4.8814561030545985e-05, ,0.20752527779616103,-0.23129584958302407,0.09760156297000001,1.8133986312541668,0.8196823620928773,-1.207802404163105, ,0.011989611883916312,0.005550315460403468,0.010880335737704918,-0.0009754396578702809,0.01362385096429842,-0.010198610862400663, ,1.2640628814697266
0.011329109450214977,0.021793381056749068,-0.08509212201632817, ,0.01160069003155564,0.021682335524142688,-0.08546145867892682, ,0.000471695550978255, ,0.0030006519207304893,0.0015115102795739963,-0.009260831672371204,0.008862941196925005,0.00590180042821005,0.0016616577037707415, ,0.009851475957369793, ,0.010648141003876822, ,4.9336271531127806e-05, ,0.20765656425502285,-0.23121862225428183,0.09770656246000001,1.813188941310682,0.8198189985926427,-1.2079138220668015, ,0.013739241574992149,0.008018215192852346,0.00982047565967941,-0.008113287922892577,0.022603092647318877,-0.01752393017182416, ,1.267394781112671
0.011329109450214977,0.021793381056749068,-0.08509212201632817, ,0.011621839089797564,0.021685217625833742,-0.08551652145090624, ,0.0005267872907993457, ,0.0030006519207304893,0.0015115102795739963,-0.009260831672371204,0.008862941196925005,0.00590180042821005,0.0016616577037707415, ,0.009851475957369793, ,0.010648141003876822, ,4.993170233465644e-05, ,0.20765656425502285,-0.23121862225428183,0.09770656246000001,1.813188941310682,0.8198189985926427,-1.2079138220668015, ,0.013739241574992149,0.008018215192852346,0.00982047565967941,-0.008113287922892577,0.022603092647318877,-0.01752393017182416, ,1.2707269191741943
0.011329109450214977,0.021793381056749068,-0.08509212201632817, ,0.011643130748919558,0.021687943281814084,-0.08557160735155264, ,0.0005827801361737369, ,0.0030006519207304893,0.0015115102795739963,-0.009260831672371204,0.008862941196925005,0.00590180042821005,0.0016616577037707415, ,0.009851475957369793, ,0.010648141003876822, ,5.060148975699268e-05, ,0.20765656425502285,-0.23121862225428183,0.09770656246000001,1.813188941310682,0.8198189985926427,-1.2079138220668015, ,0.013739241574992149,0.008018215192852346,0.00982047565967941,-0.008113287922892577,0.022603092647318877,-0.01752393017182416, ,1.273953914642334
0.01136091875751024,0.02180787589461611,-0.0851909272293273, ,0.011664564268381996,0.021690513444226296,-0.08562671607164894, ,0.0005439544614451682, ,0.0033973889118171976,0.0014714320448746228,-0.010438847165510242,-0.00649643247400279,-0.009043576202067442,0.007406468521875498, ,0.01107596017624222, ,0.011135069890093417, ,5.121387078317688e-05, ,0.2077955734467589,-0.23112594945979112,0.09781026566,1.8129792513671976,0.8199556350924082,-1.2081069187106386, ,0.014481449955512097,0.011120489111603729,0.010910144876712331,-0.01179305473018886,0.008557483834961813,-0.0064007978473631395, ,1.2775018215179443
0.01136091875751024,0.02180787589461611,-0.0851909272293273, ,0.011686138909299223,0.021692929063143948,-0.0856818473025656, ,0.0005999861994274814, ,0.0033973889118171976,0.0014714320448746228,-0.010438847165510242,-0.00649643247400279,-0.009043576202067442,0.007406468521875498, ,0.01107596017624222, ,0.011135069890093417, ,5.190015831126119e-05, ,0.2077955734467589,-0.23112594945979112,0.09781026566,1.8129792513671976,0.8199556350924082,-1.2081069187106386, ,0.014481449955512097,0.011120489111603729,0.010910144876712331,-0.01179305473018886,0.008557483834961813,-0.0064007978473631395, ,1.2812578678131104
0.01136091875751024,0.02180787589461611,-0.0851909272293273, ,0.011707853934438128,0.02169519108657378,-0.08573700073626125, ,0.00065670248813954, ,0.0033973889118171976,0.0014714320448746228,-0.010438847165510242,-0.00649643247400279,-0.009043576202067442,0.007406468521875498, ,0.01107596017624222, ,0.011135069890093417, ,5.26606839942282e-05, ,0.2077955734467589,-0.23112594945979112,0.09781026566,1.8129792513671976,0.8199556350924082,-1.2081069187106386, ,0.014481449955512097,0.011120489111603729,0.010910144876712331,-0.01179305473018886,0.008557483834961813,-0.0064007978473631395, ,1.2847437858581543
0.011380231590479569,0.0218164552595373,-0.08525120213853865, ,0.011729708608216642,0.021697300460457026,-0.08579217606528113, ,0.0006549693439279668, ,0.0037013584165622075,0.0016395880757209113,-0.01146361009059469,2.161166915184779e-05,-0.0038287779871978055,0.004496454153156526, ,0.012157411710355396, ,0.003828813127590327, ,5.341465926986539e-05, ,0.20788052350837535,-0.2310564448639231,0.09787378387000001,1.8129792513671976,0.8200922715921736,-1.2081366578741943, ,0.01595442864130309,0.012105107783106759,0.012021744543396226,-0.01179305473018886,0.015566813752105137,-0.014074779035304035, ,1.2882249355316162
0.011380231590479569,0.0218164552595373,-0.08525120213853865, ,0.011751702196702494,0.02169925812867162,-0.08584737298275817, ,0.0007121413162204468, ,0.0037013584165622075,0.0016395880757209113,-0.01146361009059469,2.161166915184779e-05,-0.0038287779871978055,0.004496454153156526, ,0.012157411710355396, ,0.003828813127590327, ,5.42427194582111e-05, ,0.20788052350837535,-0.2310564448639231,0.09787378387000001,1.8129792513671976,0.8200922715921736,-1.2081366578741943, ,0.01595442864130309,0.012105107783106759,0.012021744543396226,-0.01179305473018886,0.015566813752105137,-0.014074779035304035, ,1.291482925415039
0.011380231590479569,0.0218164552595373,-0.08525120213853865, ,0.01177383396761147,0.02170106503303353,-0.08590259118241132, ,0.000769769720198078, ,0.0037013584165622075,0.0016395880757209113,-0.01146361009059469,2.161166915184779e-05,-0.0038287779871978055,0.004496454153156526, ,0.012157411710355396, ,0.003828813127590327, ,5.514488082421609e-05, ,0.20788052350837535,-0.2310564448639231,0.09787378387000001,1.8129792513671976,0.8200922715921736,-1.2081366578741943, ,0.01595442864130309,0.012105107783106759,0.012021744543396226,-0.01179305473018886,0.015566813752105137,-0.014074779035304035, ,1.2947969436645508
0.01143303991418029,0.021843230532735465,-0.0854266441354324, ,0.011796103190306167,0.02170272211329881,-0.08595783035854598, ,0.0006585714555228758, ,0.003902119659395359,0.0021307977745311057,-0.013719123306637914,0.02770293159324806,0.029162896663627768,0.0014146003270852931, ,0.014421552665885948, ,0.04022345677187152, ,5.589084231248063e-05, ,0.20811220549460208,-0.23088654474069017,0.09806044963,1.8127695614237131,0.8207754540910007,-1.2088571048729575, ,0.015298555788887759,0.01272076964590761,0.014560156782449728,-0.016531291732767187,0.05066953057748801,-0.04227397186210245, ,1.2981898784637451
0.01143303991418029,0.021843230532735465,-0.0854266441354324, ,0.011818509135794535,0.02170423030716506,-0.0860130902060532, ,0.0007154205597179177, ,0.003902119659395359,0.0021307977745311057,-0.013719123306637914,0.02770293159324806,0.029162896663627768,0.0014146003270852931, ,0.014421552665885948, ,0.04022345677187152, ,5.670989098967596e-05, ,0.20811220549460208,-0.23088654474069017,0.09806044963,1.8127695614237131,0.8207754540910007,-1.2088571048729575, ,0.015298555788887759,0.01272076964590761,0.014560156782449728,-0.016531291732767187,0.05066953057748801,-0.04227397186210245, ,1.3015639781951904
0.01143303991418029,0.021843230532735465,-0.0854266441354324, ,0.011841051076728256,0.0217055905502736,-0.08606837042040923, ,0.0007728068959099727, ,0.003902119659395359,0.0021307977745311057,-0.013719123306637914,0.02770293159324806,0.029162896663627768,0.0014146003270852931, ,0.014421552665885948, ,0.04022345677187152, ,5.760216042665921e-05, ,0.20811220549460208,-0.23088654474069017,0.09806044963,1.8127695614237131,0.8207754540910007,-1.2088571048729575, ,0.015298555788887759,0.01272076964590761,0.014560156782449728,-0.016531291732767187,0.05066953057748801,-0.04227397186210245, ,1.3047819137573242
0.011482203200219608,0.02186678552630412,-0.08558940615035275, ,0.01186372828740144,0.021706803776210527,-0.08612367069767567, ,0.0006757175142308166, ,0.005464612329277651,0.0025162042513448037,-0.018169101834700548,-0.005981331301126018,-0.0066461059641703905,0.004963025038432171, ,0.01913921454040102, ,0.008941200624704364, ,5.83585884878974e-05, ,0.20828982835070925,-0.230708921884583,0.09823026362000001,1.8127695614237131,0.8209120905907662,-1.2090502015167945, ,0.01996149380699848,0.01996569357426273,0.018940322853745546,-0.014974738008235296,0.017565381251400204,-0.016519482938486235, ,1.3079888820648193
0.011482203200219608,0.02186678552630412,-0.08558940615035275, ,0.011886540043749224,0.02170787091650927,-0.08617899073449836, ,0.0007323606475664135, ,0.005464612329277651,0.0025162042513448037,-0.018169101834700548,-0.005981331301126018,-0.0066461059641703905,0.004963025038432171, ,0.01913921454040102, ,0.008941200624704364, ,5.918717996917683e-05, ,0.20828982835070925,-0.230708921884583,0.09823026362000001,1.8127695614237131,0.8209120905907662,-1.2090502015167945, ,0.01996149380699848,0.01996569357426273,0.018940322853745546,-0.014974738008235296,0.017565381251400204,-0.016519482938486235, ,1.3112478256225586
0.011482203200219608,0.02186678552630412,-0.08558940615035275, ,0.011909485623346103,0.021708792900651638,-0.08623433022810749, ,0.0007895942027023847, ,0.005464612329277651,0.0025162042513448037,-0.018169101834700548,-0.005981331301126018,-0.0066461059641703905,0.004963025038432171, ,0.01913921454040102, ,0.008941200624704364, ,6.008814620107486e-05, ,0.20828982835070925,-0.230708921884583,0.09823026362000001,1.8127695614237131,0.8209120905907662,-1.2090502015167945, ,0.01996149380699848,0.01996569357426273,0.018940322853745546,-0.014974738008235296,0.017565381251400204,-0.016519482938486235, ,1.3145248889923096
0.011539924490481763,0.021892750398427887,-0.08578268065534057, ,0.011932564305404627,0.02170957065607004,-0.08628968887631719, ,0.0006669169201713362, ,0.005999690686778742,0.002753296031826789,-0.019739900733117724,-0.021955533430149977,-0.02635504254635346,0.015662048439087757, ,0.020814432692947325, ,0.034302051229623945, ,6.082006136542451e-05, ,0.2084983421383133,-0.23050813082985316,0.09843118857000001,1.812350181536744,0.8210487270905317,-1.2092432981606316, ,0.021092896545559185,0.020607370588158695,0.02047405079691517,-0.0231649157632791,0.0,-0.0035807867986792, ,1.3196399211883545
0.011539924490481763,0.021892750398427887,-0.08578268065534057, ,0.011955775370774063,0.02171020510814902,-0.08634506637752479, ,0.0007228640523359394, ,0.005999690686778742,0.002753296031826789,-0.019739900733117724,-0.021955533430149977,-0.02635504254635346,0.015662048439087757, ,0.020814432692947325, ,0.034302051229623945, ,6.162276354113224e-05, ,0.2084983421383133,-0.23050813082985316,0.09843118857000001,1.812350181536744,0.8210487270905317,-1.2092432981606316, ,0.021092896545559185,0.020607370588158695,0.02047405079691517,-0.0231649157632791,0.0,-0.0035807867986792, ,1.3241658210754395
0.011578817132022183,0.02191069939880297,-0.08591553051704912, ,0.011979118101938727,0.021710697180226852,-0.08640046243071094, ,0.0006598490091219431, ,0.00595059304083792,0.0027263153997874926,-0.01949524582809159,0.007722895653327389,-0.001998441879523385,0.004043478277057509, ,0.020564701872249683, ,0.00797709666151488, ,6.233728215902795e-05, ,0.2086527967957978,-0.2303613989052429,0.09857118789000001,1.8121404915932593,0.821458636589828,-1.2095775518717207, ,0.0229385887257604,0.020670211622407054,0.020395405275288096,-0.022469953641362096,0.027264808965479947,-0.034088544054698376, ,1.3282439708709717
0.011578817132022183,0.02191069939880297,-0.08591553051704912, ,0.012002591783016492,0.021711047793597785,-0.08645587673543871, ,0.0007151361786501161, ,0.00595059304083792,0.0027263153997874926,-0.01949524582809159,0.007722895653327389,-0.001998441879523385,0.004043478277057509, ,0.020564701872249683, ,0.00797709666151488, ,6.312142772919005e-05, ,0.2086527967957978,-0.2303613989052429,0.09857118789000001,1.8121404915932593,0.821458636589828,-1.2095775518717207, ,0.0229385887257604,0.020670211622407054,0.020395405275288096,-0.022469953641362096,0.027264808965479947,-0.034088544054698376, ,1.331786870956421
0.011578817132022183,0.02191069939880297,-0.08591553051704912, ,0.01202619569975779,0.021711257867513094,-0.0865113089918535, ,0.0007712823726189053, ,0.00595059304083792,0.0027263153997874926,-0.01949524582809159,0.007722895653327389,-0.001998441879523385,0.004043478277057509, ,0.020564701872249683, ,0.00797709666151488, ,6.397578470556161e-05, ,0.2086527967957978,-0.2303613989052429,0.09857118789000001,1.8121404915932593,0.821458636589828,-1.2095775518717207, ,0.0229385887257604,0.020670211622407054,0.020395405275288096,-0.022469953641362096,0.027264808965479947,-0.034088544054698376, ,1.3351237773895264
0.01165718637977415,0.021938870253311944,-0.08615929112986655, ,0.012049929139543458,0.02171132831918356,-0.08656675890068265, ,0.0006099608113575329, ,0.005621562083820779,0.0012127641822520514,-0.01650604400382587,0.003959913558864768,-0.003848390327788816,0.02836135569132959, ,0.01747919465765631, ,0.005521756811569758, ,6.461252082438117e-05, ,0.20900031977513792,-0.2300447668573997,0.09882655702000001,1.8117211117062906,0.8220051825888897,-1.210104902226647, ,0.02745860577502048,0.02733206842121854,0.017164667586206897,-0.052108855564081985,0.03713574949857228,-0.042701542717336935, ,1.3384227752685547
0.01165718637977415,0.021938870253311944,-0.08615929112986655, ,0.012073791391383884,0.02171126006378053,-0.08662222616323494, ,0.0006630799191625884, ,0.005621562083820779,0.0012127641822520514,-0.01650604400382587,0.003959913558864768,-0.003848390327788816,0.02836135569132959, ,0.01747919465765631, ,0.005521756811569758, ,6.540205565068487e-05, ,0.20900031977513792,-0.2300447668573997,0.09882655702000001,1.8117211117062906,0.8220051825888897,-1.210104902226647, ,0.02745860577502048,0.02733206842121854,0.017164667586206897,-0.052108855564081985,0.03713574949857228,-0.042701542717336935, ,1.3401429653167725
0.01165718637977415,0.021938870253311944,-0.08615929112986655, ,0.012097781745917323,0.021711054014438094,-0.08667771048140041, ,0.000717483894875875, ,0.005621562083820779,0.0012127641822520514,-0.01650604400382587,0.003959913558864768,-0.003848390327788816,0.02836135569132959, ,0.01747919465765631, ,0.005521756811569758, ,6.626118850868907e-05, ,0.20900031977513792,-0.2300447668573997,0.09882655702000001,1.8117211117062906,0.8220051825888897,-1.210104902226647, ,0.02745860577502048,0.02733206842121854,0.017164667586206897,-0.052108855564081985,0.03713574949857228,-0.042701542717336935, ,1.3418138027191162
0.01165718637977415,0.021938870253311944,-0.08615929112986655, ,0.012121899495408331,0.02171071108225488,-0.08673321155764947, ,0.0007729162597632492, ,0.005621562083820779,0.0012127641822520514,-0.01650604400382587,0.003959913558864768,-0.003848390327788816,0.02836135569132959, ,0.01747919465765631, ,0.005521756811569758, ,6.71909978129714e-05, ,0.20900031977513792,-0.2300447668573997,0.09882655702000001,1.8117211117062906,0.8220051825888897,-1.210104902226647, ,0.02745860577502048,0.02733206842121854,0.017164667586206897,-0.052108855564081985,0.03713574949857228,-0.042701542717336935, ,1.3434278964996338
0.01165718637977415,0.021938870253311944,-0.08615929112986655, ,0.012146143933746582,0.021710232176295422,-0.08678872909503313, ,0.0008291845463113529, ,0.005621562083820779,0.0012127641822520514,-0.01650604400382587,0.003959913558864768,-0.003848390327788816,0.02836135569132959, ,0.01747919465765631, ,0.005521756811569758, ,6.819230339575507e-05, ,0.20900031977513792,-0.2300447668573997,0.09882655702000001,1.8117211117062906,0.8220051825888897,-1.210104902226647, ,0.02745860577502048,0.02733206842121854,0.017164667586206897,-0.052108855564081985,0.03713574949857228,-0.042701542717336935, ,1.3450927734375
0.011716469265749464,0.021949441431347538,-0.08631270116730066, ,0.01217051435644526,0.021709618203592053,-0.0868442627971825, ,0.0007390736711036677, ,0.0058739210532207245,0.0006085923458082843,-0.015011493412745288,-0.008573284082152549,-0.020949386171859825,0.015667675372886776, ,0.016131282269669117, ,0.022635750896364586, ,6.90727251381539e-05, ,0.20930150635723266,-0.22975130300817917,0.09898470440000001,1.8117211117062906,0.8220051825888897,-1.2101865809667876, ,0.032354906770702616,0.03094129167214567,0.01551004042843233,-0.037179139518546275,0.02072689386383504,-0.03156143440565298, ,1.34676194190979
0.011716469265749464,0.021949441431347538,-0.08631270116730066, ,0.01219501006063939,0.021708870069146968,-0.08689981236830784, ,0.0007947172044400463, ,0.0058739210532207245,0.0006085923458082843,-0.015011493412745288,-0.008573284082152549,-0.020949386171859825,0.015667675372886776, ,0.016131282269669117, ,0.022635750896364586, ,7.00237663954303e-05, ,0.20930150635723266,-0.22975130300817917,0.09898470440000001,1.8117211117062906,0.8220051825888897,-1.2101865809667876, ,0.032354906770702616,0.03094129167214567,0.01551004042843233,-0.037179139518546275,0.02072689386383504,-0.03156143440565298, ,1.348498821258545
0.011716469265749464,0.021949441431347538,-0.08631270116730066, ,0.012219630345084954,0.02170798867593352,-0.08695537751319866, ,0.0008511776491613736, ,0.0058739210532207245,0.0006085923458082843,-0.015011493412745288,-0.008573284082152549,-0.020949386171859825,0.015667675372886776, ,0.016131282269669117, ,0.022635750896364586, ,0.00039049864322931435, ,0.20930150635723266,-0.22975130300817917,0.09898470440000001,1.8117211117062906,0.8220051825888897,-1.2101865809667876, ,0.032354906770702616,0.03094129167214567,0.01551004042843233,-0.037179139518546275,0.02072689386383504,-0.03156143440565298, ,1.350200891494751
0.011716469265749464,0.021949441431347538,-0.08631270116730066, ,0.012244374510156891,0.021706974924898138,-0.08701095793722359, ,0.0009083151823931157, ,0.0058739210532207245,0.0006085923458082843,-0.015011493412745288,-0.008573284082152549,-0.020949386171859825,0.015667675372886776, ,0.016131282269669117, ,0.022635750896364586, ,0.0003941973327947701, ,0.20930150635723266,-0.22975130300817917,0.09898470440000001,1.8117211117062906,0.8220051825888897,-1.2101865809667876, ,0.032354906770702616,0.03094129167214567,0.01551004042843233,-0.037179139518546275,0.02072689386383504,-0.03156143440565298, ,1.3518869876861572
0.011716469265749464,0.021949441431347538,-0.08631270116730066, ,0.012269241857847897,0.021705829714962276,-0.08706655334632926, ,0.0009660213842154618, ,0.0058739210532207245,0.0006085923458082843,-0.015011493412745288,-0.008573284082152549,-0.020949386171859825,0.015667675372886776, ,0.016131282269669117, ,0.022635750896364586, ,0.00039825282252115794, ,0.20930150635723266,-0.22975130300817917,0.09898470440000001,1.8117211117062906,0.8220051825888897,-1.2101865809667876, ,0.032354906770702616,0.03094129167214567,0.01551004042843233,-0.037179139518546275,0.02072689386383504,-0.03156143440565298, ,1.353489875793457
0.011716469265749464,0.021949441431347538,-0.08631270116730066, ,0.012294231691766872,0.021704553943023806,-0.08712216344704028, ,0.0010242111526322514, ,0.0058739210532207245,0.0006085923458082843,-0.015011493412745288,-0.008573284082152549,-0.020949386171859825,0.015667675372886776, ,0.016131282269669117, ,0.022635750896364586, ,0.00040266097977546144, ,0.20930150635723266,-0.22975130300817917,0.09898470440000001,1.8117211117062906,0.8220051825888897,-1.2101865809667876, ,0.032354906770702616,0.03094129167214567,0.01551004042843233,-0.037179139518546275,0.02072689386383504,-0.03156143440565298, ,1.355139970779419
0.01178326536601212,0.021957672036882394,-0.08648050598693059, ,0.012319343317137677,0.02170314850395884,-0.08717778794645943, ,0.0009156221543733213, ,0.0074509401138524,0.0008512448444259592,-0.01875059163183443,-0.017081586280044185,-0.02482161084632554,0.009183176119188268, ,0.020194697643421054, ,0.030131223623590036, ,0.0004062481208565654, ,0.20967992026806967,-0.2293883345630906,0.09915970355,1.8117211117062906,0.8224150920881861,-1.210684192158158, ,0.04106315082582033,0.03879678722750236,0.019401719269183923,-0.028819739712028336,0.023854424765485938,-0.02770740866086362, ,1.3567249774932861
0.01178326536601212,0.021957672036882394,-0.08648050598693059, ,0.012344576040797372,0.02170161429062385,-0.087233426552266, ,0.0009734087634451782, ,0.0074509401138524,0.0008512448444259592,-0.01875059163183443,-0.017081586280044185,-0.02482161084632554,0.009183176119188268, ,0.020194697643421054, ,0.030131223623590036, ,0.0004101867364300974, ,0.20967992026806967,-0.2293883345630906,0.09915970355,1.8117211117062906,0.8224150920881861,-1.210684192158158, ,0.04106315082582033,0.03879678722750236,0.019401719269183923,-0.028819739712028336,0.023854424765485938,-0.02770740866086362, ,1.3583579063415527
0.01178326536601212,0.021957672036882394,-0.08648050598693059, ,0.012369929171195018,0.021699952193856852,-0.08728907897271662, ,0.0010316899782123131, ,0.0074509401138524,0.0008512448444259592,-0.01875059163183443,-0.017081586280044185,-0.02482161084632554,0.009183176119188268, ,0.020194697643421054, ,0.030131223623590036, ,0.00041447296568376785, ,0.20967992026806967,-0.2293883345630906,0.09915970355,1.8117211117062906,0.8224150920881861,-1.210684192158158, ,0.04106315082582033,0.03879678722750236,0.019401719269183923,-0.028819739712028336,0.023854424765485938,-0.02770740866086362, ,1.3600997924804688
0.01178326536601212,0.021957672036882394,-0.08648050598693059, ,0.012395402018390102,0.02169816310247951,-0.08734474491664417, ,0.001090396760748997, ,0.0074509401138524,0.0008512448444259592,-0.01875059163183443,-0.017081586280044185,-0.02482161084632554,0.009183176119188268, ,0.020194697643421054, ,0.030131223623590036, ,0.0004191025807184612, ,0.20967992026806967,-0.2293883345630906,0.09915970355,1.8117211117062906,0.8224150920881861,-1.210684192158158, ,0.04106315082582033,0.03879678722750236,0.019401719269183923,-0.028819739712028336,0.023854424765485938,-0.02770740866086362, ,1.3632469177246094
0.01178326536601212,0.021957672036882394,-0.08648050598693059, ,0.01242099389405108,0.021696247903298767,-0.08740042409345741, ,0.0011494736081400826, ,0.0074509401138524,0.0008512448444259592,-0.01875059163183443,-0.017081586280044185,-0.02482161084632554,0.009183176119188268, ,0.020194697643421054, ,0.030131223623590036, ,0.0004240710911090845, ,0.20967992026806967,-0.2293883345630906,0.09915970355,1.8117211117062906,0.8224150920881861,-1.210684192158158, ,0.04106315082582033,0.03879678722750236,0.019401719269183923,-0.028819739712028336,0.023854424765485938,-0.02770740866086362, ,1.3661458492279053
0.011862511577493245,0.021969888022188654,-0.08670215760267506, ,0.012446704111454064,0.021694207481108636,-0.0874561162131412, ,0.0009928415098905562, ,0.008939892902680354,0.0021539469743431317,-0.025293110195687783,0.06603813671854736,0.05919682189591594,-0.020409612114078927, ,0.02691287045357447, ,0.0886864638608744, ,0.0004279141344792296, ,0.21013556150764892,-0.22896358425500826,0.09939433204,1.8110920418758367,0.823644820586075,-1.2119319895118474, ,0.04839211706194329,0.04305668854740053,0.026816181010101015,-0.026175182854886896,0.11893782338375089,-0.11375063608015311, ,1.3702008724212646
0.011862511577493245,0.021969888022188654,-0.08670215760267506, ,0.012472531985481143,0.021692042718691983,-0.08751182098625526, ,0.0010511316309327833, ,0.008939892902680354,0.0021539469743431317,-0.025293110195687783,0.06603813671854736,0.05919682189591594,-0.020409612114078927, ,0.02691287045357447, ,0.0886864638608744, ,0.0004320968022406629, ,0.21013556150764892,-0.22896358425500826,0.09939433204,1.8110920418758367,0.823644820586075,-1.2119319895118474, ,0.04839211706194329,0.04305668854740053,0.026816181010101015,-0.026175182854886896,0.11893782338375089,-0.11375063608015311, ,1.3720757961273193
0.011862511577493245,0.021969888022188654,-0.08670215760267506, ,0.01249847683261904,0.021689754496822047,-0.08756753812393452, ,0.001109869381655706, ,0.008939892902680354,0.0021539469743431317,-0.025293110195687783,0.06603813671854736,0.05919682189591594,-0.020409612114078927, ,0.02691287045357447, ,0.0886864638608744, ,0.00043661528610342985, ,0.21013556150764892,-0.22896358425500826,0.09939433204,1.8110920418758367,0.823644820586075,-1.2119319895118474, ,0.04839211706194329,0.04305668854740053,0.026816181010101015,-0.026175182854886896,0.11893782338375089,-0.11375063608015311, ,1.3740899562835693
0.011862511577493245,0.021969888022188654,-0.08670215760267506, ,0.012524537970957794,0.021687343694264453,-0.08762326733788829, ,0.0011689967438750191, ,0.008939892902680354,0.0021539469743431317,-0.025293110195687783,0.06603813671854736,0.05919682189591594,-0.020409612114078927, ,0.02691287045357447, ,0.0886864638608744, ,0.00044146549443304305, ,0.21013556150764892,-0.22896358425500826,0.09939433204,1.8110920418758367,0.823644820586075,-1.2119319895118474, ,0.04839211706194329,0.04305668854740053,0.026816181010101015,-0.026175182854886896,0.11893782338375089,-0.11375063608015311, ,1.3758018016815186
0.011960508792676714,0.021991709782617476,-0.08698819027912971, ,0.012550714720189178,0.02168481118777883,-0.08767900834039973, ,0.0009590408636557898, ,0.010315211798416392,0.002407604832747949,-0.03015579467556128,-0.009263576543272364,-0.04220705248157642,0.11540224307937327, ,0.03196204167432785, ,0.043211389609680684, ,0.0004448705955463506, ,0.21062209367872506,-0.22854655667980014,0.09969247874,1.8096242122714452,0.8243280030849022,-1.2127341152507511, ,0.04922040537265082,0.041768020052143834,0.03129432518664047,-0.16151577035546635,0.04535153742680829,-0.06988401163715154, ,1.3777449131011963
0.011960508792676714,0.021991709782617476,-0.08698819027912971, ,0.012577006401605152,0.02168215785212058,-0.08773476084432645, ,0.0010164936341694492, ,0.010315211798416392,0.002407604832747949,-0.03015579467556128,-0.009263576543272364,-0.04220705248157642,0.11540224307937327, ,0.03196204167432785, ,0.043211389609680684, ,0.00044860669383800484, ,0.21062209367872506,-0.22854655667980014,0.09969247874,1.8096242122714452,0.8243280030849022,-1.2127341152507511, ,0.04922040537265082,0.041768020052143834,0.03129432518664047,-0.16151577035546635,0.04535153742680829,-0.06988401163715154, ,1.3793728351593018
0.011960508792676714,0.021991709782617476,-0.08698819027912971, ,0.012603412338096545,0.021679384560042536,-0.08779052456309852, ,0.0010745288812319636, ,0.010315211798416392,0.002407604832747949,-0.03015579467556128,-0.009263576543272364,-0.04220705248157642,0.11540224307937327, ,0.03196204167432785, ,0.043211389609680684, ,0.0004526711236262773, ,0.21062209367872506,-0.22854655667980014,0.09969247874,1.8096242122714452,0.8243280030849022,-1.2127341152507511, ,0.04922040537265082,0.041768020052143834,0.03129432518664047,-0.16151577035546635,0.04535153742680829,-0.06988401163715154, ,1.3811359405517578
0.011960508792676714,0.021991709782617476,-0.08698819027912971, ,0.01262993185415152,0.021676492182296916,-0.08784629921071972, ,0.0011330667717573857, ,0.010315211798416392,0.002407604832747949,-0.03015579467556128,-0.009263576543272364,-0.04220705248157642,0.11540224307937327, ,0.03196204167432785, ,0.043211389609680684, ,0.0004570607729690586, ,0.21062209367872506,-0.22854655667980014,0.09969247874,1.8096242122714452,0.8243280030849022,-1.2127341152507511, ,0.04922040537265082,0.041768020052143834,0.03129432518664047,-0.16151577035546635,0.04535153742680829,-0.06988401163715154, ,1.383206844329834
0.011960508792676714,0.021991709782617476,-0.08698819027912971, ,0.01265656427585441,0.021673481587636725,-0.0879020845017657, ,0.0011920423943425362, ,0.010315211798416392,0.002407604832747949,-0.03015579467556128,-0.009263576543272364,-0.04220705248157642,0.11540224307937327, ,0.03196204167432785, ,0.043211389609680684, ,0.0004617721936188886, ,0.21062209367872506,-0.22854655667980014,0.09969247874,1.8096242122714452,0.8243280030849022,-1.2127341152507511, ,0.04922040537265082,0.041768020052143834,0.03129432518664047,-0.16151577035546635,0.04535153742680829,-0.06988401163715154, ,1.3849458694458008
0.012071960981620916,0.022019648451460087,-0.08730387780303507, ,0.01268330893088383,0.021670353642817962,-0.08795788015138498, ,0.00096097463549227, ,0.011470097543571532,0.0026142919446765093,-0.03108073046002551,-0.036309880009430286,-0.05330257069946172,-0.022511341133416508, ,0.03323265661905175, ,0.0644945146938195, ,0.0004649518270066172, ,0.21109318038405275,-0.22810636090596934,0.09999710689,1.8089951424409914,0.8244646395846676,-1.2131722481150098, ,0.05301505114998367,0.051884604460618246,0.03192146597194389,0.0,0.0,-0.008861900336748503, ,1.386760950088501
0.012071960981620916,0.022019648451460087,-0.08730387780303507, ,0.012710165148511336,0.021667109212600948,-0.08801368587529741, ,0.0010175539165176739, ,0.011470097543571532,0.0026142919446765093,-0.03108073046002551,-0.036309880009430286,-0.05330257069946172,-0.022511341133416508, ,0.03323265661905175, ,0.0644945146938195, ,0.0004684493085858011, ,0.21109318038405275,-0.22810636090596934,0.09999710689,1.8089951424409914,0.8244646395846676,-1.2131722481150098, ,0.05301505114998367,0.051884604460618246,0.03192146597194389,0.0,0.0,-0.008861900336748503, ,1.3884317874908447
0.012071960981620916,0.022019648451460087,-0.08730387780303507, ,0.012737132259600279,0.021663749159752266,-0.08806950138979418, ,0.0010748472503052265, ,0.011470097543571532,0.0026142919446765093,-0.03108073046002551,-0.036309880009430286,-0.05330257069946172,-0.022511341133416508, ,0.03323265661905175, ,0.0644945146938195, ,0.0004722631321186276, ,0.21109318038405275,-0.22810636090596934,0.09999710689,1.8089951424409914,0.8244646395846676,-1.2131722481150098, ,0.05301505114998367,0.051884604460618246,0.03192146597194389,0.0,0.0,-0.008861900336748503, ,1.390075922012329
0.012071960981620916,0.022019648451460087,-0.08730387780303507, ,0.012764209596604006,0.021660274345046457,-0.08812532641173795, ,0.0011327558033603282, ,0.011470097543571532,0.0026142919446765093,-0.03108073046002551,-0.036309880009430286,-0.05330257069946172,-0.022511341133416508, ,0.03323265661905175, ,0.0644945146938195, ,0.0004763912113138882, ,0.21109318038405275,-0.22810636090596934,0.09999710689,1.8089951424409914,0.8244646395846676,-1.2131722481150098, ,0.05301505114998367,0.051884604460618246,0.03192146597194389,0.0,0.0,-0.008861900336748503, ,1.3917579650878906
0.012071960981620916,0.022019648451460087,-0.08730387780303507, ,0.012791396493564654,0.0216566856272678,-0.0881811606585617, ,0.001191198839905558, ,0.011470097543571532,0.0026142919446765093,-0.03108073046002551,-0.036309880009430286,-0.05330257069946172,-0.022511341133416508, ,0.03323265661905175, ,0.0644945146938195, ,0.0004808310102492402, ,0.21109318038405275,-0.22810636090596934,0.09999710689,1.8089951424409914,0.8244646395846676,-1.2131722481150098, ,0.05301505114998367,0.051884604460618246,0.03192146597194389,0.0,0.0,-0.008861900336748503, ,1.3933918476104736
