NicholasDascanio/dvrk_moveit_final/test/execution/third_experiment_notsharpbends/thirdexp_700vel4.0/thirdexp_700vel4.0_4.csv
Current Position (x),Current Position (y),Current Position (z), ,Planned Position (x),Planned Position (y),Planned Position (z), ,Position Error,,Cartesian linear Velocity(x),Cartesian linear Velocity(y),Cartesian linear Velocity(z),Cartesian Angular Velocity(x),Cartesian Angular Velocity(y),Cartesian Angular Velocity(z), ,Total Linear Velocity, ,Total Angular Velocity, ,MSE, ,Joint 1 Position,Joint 2 Position,Joint 3 Position,Joint 4 Position,Joint 5 Position,Joint 6 Position, ,Joint 1 Velocity,Joint 2 Velocity,Joint 3 Velocity,Joint 4 Velocity,Joint 5 Velocity,Joint 6 Velocity, ,Time Stamp
0.01020257881268316,0.019834033741869154,-0.08005220249377153, ,0.010330599641018338,0.019787197852864976,-0.08010502419850093, ,0.000146195299093225, ,-1.6732277110583966e-05,4.804547758303528e-06,-9.421204068637797e-07,0.006731890008579815,0.0005417031117667708,-0.002886894119911283, ,1.743388560614703e-05, ,0.006753649779853449, ,1.2182941591102083e-05, ,0.17794721088788115,-0.2362229531567793,0.09049919006000001,1.6724869892325662,0.47358210818701657,-1.286764243001636, ,-0.0002108838676603312,-1.6917669294788934e-05,0.0,0.0008572353545864513,0.0,-0.006887316006593314, ,0.019923925399780273
0.01020420763338354,0.019836750332948155,-0.08005454026946536, ,0.010337595544612287,0.019820922569954855,-0.08014557924368722, ,0.000162268135413914, ,-1.8480134430821766e-05,2.39526811930422e-05,9.672811350515156e-06,0.060157334055219634,0.0014403563274890214,-0.019043135663760428, ,3.1761762928707477e-05, ,0.06017457492148512, ,1.4021065204869953e-05, ,0.17794721088788115,-0.23623839862252774,0.09050178264000001,1.6726966791760507,0.47344547168725115,-1.28820472116061, ,-0.00020581078546045377,-0.0003010968780814914,-5.876860365050804e-06,0.00026433356461828616,0.0,-0.06272437208638193, ,0.03634905815124512
0.010206603060719152,0.019838329395814973,-0.08005893621967813, ,0.01034475551583245,0.019854337383428105,-0.08018626119306813, ,0.00018855769772145673, ,0.00022656183109242235,0.00032406462870152855,-0.0011665596338193657,0.21560449112588695,0.004060865452676592,-0.06788682592623928, ,0.0012317505941302335, ,0.2156427305101548, ,1.5531910382143617e-05, ,0.17793948815500693,-0.23626156682115043,0.09050826409000001,1.6726966791760507,0.47276228918842395,-1.29083310250761, ,0.0006321822725841535,-0.0014757657957881315,0.0006126483112243568,0.0002612793832732786,-0.044753750828215096,-0.20599166927617252, ,0.05330514907836914
0.010223946229244338,0.019845308688767636,-0.08007397011356682, ,0.010352078924652286,0.019887443585364865,-0.08022706945091125, ,0.00020404103567437103, ,0.0014114502865423468,0.0005229814336874293,-0.0015709897129509423,0.04853917932147764,-0.12663327773065786,-0.049303313961010106, ,0.0021757091187840152, ,0.13561725169757322, ,1.6691956378642066e-05, ,0.17793948815500693,-0.2362847350197731,0.09051733812000001,1.6729063691195354,0.47139592419076953,-1.2917608919741597, ,0.0006321822725841535,-0.0023572057803313146,0.0013238931603580704,0.00037024755288872973,-0.13142323096458305,-0.05651032968493763, ,0.06985712051391602
0.010245325687394304,0.019858788751016647,-0.08010835503905848, ,0.010359565142352888,0.019920242465376173,-0.08026800342249123, ,0.0002057056596462632, ,0.0016550064371847382,0.0008942592031801178,-0.0021746833061281104,0.3447707999756042,-0.13936304009205022,-0.1450777783767773, ,0.0028754118507698244, ,0.37187223808650716, ,1.7437842837485194e-05, ,0.17794721088788115,-0.23635423961564112,0.09054974537,1.6729063691195354,0.4696196496938188,-1.2967650796972108, ,0.00036176240765299107,-0.005091117154257663,0.001956135517622498,0.00037024755288872973,-0.1504585704535947,-0.36511348496682905, ,0.08696103096008301
0.010258333629213738,0.01986328131589007,-0.08012106221180741, ,0.010367213541521782,0.019952735310606044,-0.08030906251409023, ,0.0002349488585485859, ,0.001905129846352813,0.0006657776937203408,-0.0017364821881361548,0.13793788530977533,-0.1916639773927432,-0.09472802957098787, ,0.0026623579884444536, ,0.236139662982996, ,1.8414785259642193e-05, ,0.17795493362075537,-0.23637740781426378,0.09056011569000001,1.6729063691195354,0.46838992119592987,-1.298539395728722, ,-0.0007757650310558736,-0.004006019430171025,0.0013210425283797299,0.00037024755288872973,-0.20180159965357358,-0.15271192348678986, ,0.10726213455200195
0.01029396184324725,0.019888444377693108,-0.08019115167623662, ,0.010375023496051794,0.019984923405733154,-0.08035024613299666, ,0.00020295378926919722, ,0.00017173341498974692,0.0007928334749638584,-0.0022560053140589253,-0.11952689417671207,0.0352212207761895,0.041447542119381835, ,0.0023974230460870726, ,0.12460823738596725, ,1.867597882454185e-05, ,0.17794721088788115,-0.2364778033416287,0.09062752277000001,1.6731160590630199,0.4655205547008556,-1.2958729047905349, ,0.0009065470134531059,-0.002216873273042592,0.0025259770884871555,0.0070115787170794315,0.03788384555792756,0.1309336155246118, ,0.12378811836242676
0.010295436985946474,0.019900625209559233,-0.08022080207376875, ,0.010382994381139907,0.020016808032973434,-0.08039155368750435, ,0.00022432311406287654, ,5.042268971606024e-05,0.0013212905449844893,-0.0031809100358625585,-0.110591184611435,0.05029565580732377,0.04426039915276449, ,0.003444784435658457, ,0.12149100010504327, ,1.9134068163779143e-05, ,0.17795493362075537,-0.2365318624717483,0.09066122631000001,1.6731160590630199,0.46606710069991736,-1.2942766079018064, ,-0.0012621850210134842,-0.00574137977703836,0.003578704003594698,0.006736777417167019,0.05123337795220681,0.12601280689936922, ,0.14205002784729004
0.01029709249123786,0.01992832259362449,-0.08027943250413508, ,0.010391125573286242,0.020048390472081287,-0.08043298458691275, ,0.00021641801699949885, ,0.00024574529232580344,0.0010334912799405687,-0.002100332826156039,-0.015815993676966626,0.00971236903290626,0.007052690251143304, ,0.002353697719555785, ,0.018560058409938567, ,1.9406647895971618e-05, ,0.17795493362075537,-0.23667087166348433,0.09072863339000001,1.6733257490065043,0.4671601926980409,-1.2930443038877233, ,-0.0007362036753089117,-0.0058631123976468245,0.0023359453761548615,0.0033291622108094676,0.008886610029355509,0.02374607153355121, ,0.15826702117919922
0.010303239544555268,0.01995379966418078,-0.08032287827568467, ,0.01039941645029275,0.020079672000352017,-0.08047453824152531, ,0.00021930478209383783, ,0.00039095720040835266,0.001350532439150155,-0.00216525628345402,0.027477521159779805,0.0024194607702770652,-0.012164603783847924, ,0.0025816894032367876, ,0.027583835111482654, ,1.9654082240423786e-05, ,0.17794721088788115,-0.23674037625935235,0.0907532629,1.673535438949989,0.4672968291978063,-1.293074043051279, ,0.0,-0.008010069822150296,0.0021832252631578952,0.008930808089316103,0.0,-0.002965409122064888, ,0.17495512962341309
0.010308332081609507,0.01996925898418739,-0.08034848454483955, ,0.010407866391262118,0.02011065389262394,-0.08051621406264992, ,0.00024089995864404082, ,0.00038956311424695787,0.0013907453767448947,-0.002123075320544403,0.03990456599336248,0.0025523269754191983,-0.015717200901524526, ,0.0025677579597041087, ,0.03998610708814924, ,2.00501459568506e-05, ,0.17793948815500693,-0.23694116731408219,0.09080641079000001,1.673535438949989,0.4671601926980409,-1.2936160550687072, ,4.773549563880616e-05,-0.009706445632005255,0.0024285426924836105,0.008930808089316103,0.0,-0.030159496573954094, ,0.19377613067626953
0.010316714606357018,0.019999156999866787,-0.08039106400508982, ,0.010416474776596608,0.020141337421279885,-0.08055801146259678, ,0.0002409124682690323, ,0.00042830770528302724,0.0015948507587526099,-0.002269155675264266,0.008672983896769348,0.0010082398199566744,-0.0019676373833968606, ,0.002806432595250172, ,0.008731391478338651, ,2.0381383733084418e-05, ,0.17794721088788115,-0.23715740383456047,0.09085566981000001,1.6737451288934733,0.4671601926980409,-1.293452697588426, ,0.00021687642141966367,-0.011818843089153624,0.0026233220553359684,0.005503713845063638,0.0,0.004088518767590374, ,0.2109849452972412
0.01032163317429827,0.020016388830019972,-0.08041437962566761, ,0.01042524098799709,0.020171723856249494,-0.08059992985467951, ,0.000263234566346336, ,0.00042315713615195886,0.0017625469215649357,-0.0024752982857574107,-0.009321664270992196,0.00213410485215675,0.0005669602324498291, ,0.0030680181251205043, ,0.009562835782766812, ,2.0990560166279658e-05, ,0.17795493362075537,-0.23728096756054806,0.09088159561,1.6739548188369582,0.4671601926980409,-1.2933710188482854, ,-0.00031742535018211505,-0.012996020481850286,0.0028556492506274654,0.009472295009454098,0.0,0.02525160466171249, ,0.2271130084991455
0.010329839236166599,0.020052322349072157,-0.08046353865991172, ,0.010434164408461608,0.02020181446501106,-0.08064196865321342, ,0.00025508605765881746, ,0.0005171965431403287,0.001881096071145494,-0.0025037113331857785,0.007529668150794085,0.0013448052200026276,-0.0040271167056060925, ,0.003174048697332514, ,0.007648817127010284, ,2.146321028172466e-05, ,0.17794721088788115,-0.23755898594402014,0.09093992866,1.6739548188369582,0.4671601926980409,-1.293289340108145, ,0.0007656046796469072,-0.014244512392445327,0.00292970599963215,0.009472295009454098,2.332486368121149e-05,0.008500116302201285, ,0.2429821491241455
0.01033960137365822,0.02008862662177215,-0.08051157845020808, ,0.010443244422284337,0.020231610512593742,-0.08068412727351479, ,0.000246899515972646, ,0.0004760667316782373,0.0019238964215825556,-0.002324136739624355,0.016147126859401784,0.0015633311360622952,-0.006196292611977186, ,0.0030544440670047775, ,0.01622262956449367, ,2.1823818492712067e-05, ,0.17794721088788115,-0.23784472706036644,0.09099566913000001,1.6739548188369582,0.46702355619827546,-1.2930145647241673, ,0.0006556954247009225,-0.015242040083275099,0.002762061994104387,0.009453824696782478,0.0,0.0005029756290652319, ,0.2576289176940918
0.01033960137365822,0.02008862662177215,-0.08051157845020808, ,0.010452480415054605,0.020261113261579124,-0.0807264051319009, ,0.0002977311237771654, ,0.0004760667316782373,0.0019238964215825556,-0.002324136739624355,0.016147126859401784,0.0015633311360622952,-0.006196292611977186, ,0.0030544440670047775, ,0.01622262956449367, ,2.246506379234977e-05, ,0.17794721088788115,-0.23784472706036644,0.09099566913000001,1.6739548188369582,0.46702355619827546,-1.2930145647241673, ,0.0006556954247009225,-0.015242040083275099,0.002762061994104387,0.009453824696782478,0.0,0.0005029756290652319, ,0.2732279300689697
0.010352328123293838,0.020142028229276562,-0.08057729650876655, ,0.010461871773655599,0.020290323972103546,-0.0807688016456889, ,0.0002658301264771119, ,0.000295008756367435,0.0016335022863048399,-0.0017274039693743158,-0.004211330170759081,0.003817632129322513,-0.007206716065965551, ,0.0023956803541179575, ,0.005684154894669988, ,2.284616889621782e-05, ,0.17795493362075537,-0.23824630916982611,0.09107344653,1.6745838886674116,0.46702355619827546,-1.292524492283324, ,-0.00027637034784378563,-0.013235277762687694,0.0020950692516112064,0.01646144067187462,0.0,0.021006244510831686, ,0.28792405128479004
0.010361064341280129,0.020179942294472432,-0.08062586847524197, ,0.010471417886263235,0.020319243901859886,-0.08081131623319537, ,0.0002568534867215347, ,0.00047787030404081805,0.001915699695467766,-0.0027215347490918197,-0.019893096394234807,0.0029661854908357163,-0.0001328449150056716, ,0.0033622933752445855, ,0.020113019175823876, ,2.3137293706760853e-05, ,0.17795493362075537,-0.23854749575192088,0.09113048329000001,1.6745838886674116,0.46702355619827546,-1.2921977773227618, ,-0.00021553931851071414,-0.013749194662195131,0.0031442580971180424,0.014262867828593791,0.0,0.0375535359084906, ,0.30322694778442383
0.01036677374572847,0.020202610519993506,-0.08066115526623568, ,0.010481118142344911,0.020347874306099637,-0.08085394831373549, ,0.0002671055367373139, ,0.0006001535568966074,0.0020682556823338255,-0.0032801479791577997,0.012382465888491,0.002886621673262532,-0.008585139472432633, ,0.003923931271637515, ,0.012714481734796309, ,2.345550934663364e-05, ,0.17794721088788115,-0.2387096731422796,0.09117066828,1.6745838886674116,0.46702355619827546,-1.2918710623621994, ,5.7267600084019624e-05,-0.01397187007633551,0.003734774096131302,0.012711039550587978,0.0,0.0037209673641320886, ,0.32006311416625977
0.010373856658670636,0.02022432832572817,-0.0807005368682914, ,0.010490971932658605,0.020376216437634747,-0.080896697307623, ,0.00027434449857540073, ,0.0007317739940089529,0.0021526472063053033,-0.004014601408039136,-0.01754698159280219,0.00212785422768863,0.0011256008739031632, ,0.004613719501503278, ,0.017675529004519342, ,2.3781514060322807e-05, ,0.17794721088788115,-0.23884868233401563,0.09121474214000001,1.6745838886674116,0.46702355619827546,-1.2917077048819186, ,5.7267600084019624e-05,-0.012883103659852128,0.004479418312710912,0.011607795278473155,0.0,0.03372755067352095, ,0.33514404296875
0.010386521810095785,0.02026430210561817,-0.08076690460395684, ,0.01050097864925155,0.02040427154683976,-0.08093956263616847, ,0.00025000521713077227, ,0.000502006283073754,0.0016678167031873219,-0.002592346628394161,-0.016149396031622208,-0.0008802047744822091,0.010558972974365399, ,0.0031231208598808224, ,0.016173365528365492, ,2.395871401395762e-05, ,0.17795493362075537,-0.23911125525173926,0.09128992696,1.674793578610896,0.46702355619827546,-1.2912993111812154, ,0.0004317742335008867,-0.011869536154905663,0.0029634998176744187,0.0001474457700961993,0.0,0.029157785093372697, ,0.34996700286865234
0.010391909639887047,0.020281618191349098,-0.08079280649014589, ,0.010511137685459,0.02043204088165374,-0.08098254372167965, ,0.00026989355242296946, ,0.0004586874801447981,0.0016541582166499282,-0.0024866394055736638,-0.014024629161786612,0.002573133575600581,-0.002071112700594168, ,0.0030215904989762924, ,0.01425872502815185, ,2.4214681590831917e-05, ,0.1779626563536296,-0.23922709624485264,0.09131974163,1.6750032685543808,0.46702355619827546,-1.291054274960794, ,6.92441267174303e-05,-0.011382624632178335,0.0028530918001074693,0.013148786666138841,0.0,0.028772938770798256, ,0.3654050827026367
0.010401953247687518,0.020316696842058533,-0.0808445881404083, ,0.010521448435903455,0.020459525687582057,-0.08102563998746046, ,0.00025972860920842094, ,0.0005265519563303709,0.0016518440788410695,-0.002739074629028425,-0.01245027768609171,0.0011912640801593464,0.0015276344550067653, ,0.0032416624819534877, ,0.012507138938034316, ,2.440380591160537e-05, ,0.17797037908650382,-0.23947422369682783,0.09137937097000001,1.675212958497865,0.46702355619827546,-1.2907275600002317, ,0.0003655514862310315,-0.010840073323814993,0.0031044263340479442,0.008338441169535497,0.0,0.02570038332699163, ,0.3802061080932617
0.010407567076557427,0.02033225226351539,-0.08087224486870734, ,0.010531910296493053,0.020486727207698553,-0.08106885085781021, ,0.00027924480241442185, ,0.0004756419754657366,0.001625784990390487,-0.002854450208730184,0.027488396195872195,0.0025819791331783007,-0.010434116515868591, ,0.0033192315553338147, ,0.027609392269224393, ,2.4662982212518298e-05, ,0.17797810181937804,-0.2396827374844319,0.09144418547000001,1.675212958497865,0.46702355619827546,-1.2904008450396693, ,-0.0004971681501597675,-0.010418273216325163,0.0034839920209973757,0.006986345065559195,0.0,-0.0052711663163350795, ,0.39672303199768066
0.010418659498939487,0.02036491996329853,-0.0809339087525386, ,0.010542522664420767,0.02051364668264753,-0.08111217575802353, ,0.00026313655400936233, ,0.0005243431316454303,0.0016430486974253616,-0.003128147595123733,0.007168346772223458,0.001971973971298774,-0.0033793805002754664, ,0.0035720935204293443, ,0.007434640306753192, ,2.483524043049611e-05, ,0.17797810181937804,-0.23977541027892257,0.09147918530000002,1.675212958497865,0.46702355619827546,-1.2903191662995288, ,-0.0004971681501597675,-0.00971384122169823,0.0034771472429600526,0.006465152685111134,0.0,0.003667617404176952, ,0.411984920501709
0.010423663381219753,0.020382047194141016,-0.08096528229015837, ,0.010553284938163087,0.020540285350645615,-0.08115561411438864, ,0.0002794051995099767, ,0.0006124500652841715,0.0017166730431463807,-0.0032372793560537347,0.001507380360864856,0.0009297867287731756,-0.0009702702337311691, ,0.0037151095607887157, ,0.0017710727138583605, ,2.5162055313354446e-05, ,0.17797037908650382,-0.23988352853916173,0.09151418513000001,1.675212958497865,0.46702355619827546,-1.2904008450396693, ,0.0003323038047115976,-0.010240021258159473,0.003611156545001134,0.0060131463830209635,0.0,0.010053731273363384, ,0.4250469207763672
0.010434594812660552,0.02041309123649917,-0.08102198847960214, ,0.010564196517478896,0.020566644447483753,-0.0811991653541879, ,0.0002678933283668668, ,0.00046515185582542205,0.001586593549460046,-0.0028125898258273886,-0.002016931614596047,0.0002831627661290794,0.0055571474416862415, ,0.0032625613968956663, ,0.00203671159324806, ,2.5423219571629078e-05, ,0.17797810181937804,-0.2400688741281431,0.09157770334000001,1.6754226484413495,0.46702355619827546,-1.2902374875593883, ,-0.0004920629178487653,-0.010259292292038797,0.0031523474213338617,0.0,0.0,0.01268030316698606, ,0.4393000602722168
0.010439844039910641,0.020432006708038505,-0.08105422257235292, ,0.010575256803408414,0.020592725206529192,-0.0812428289056967, ,0.000282381658845947, ,0.0005716413776964591,0.001603038389928731,-0.002877624979987086,0.006494735831427907,0.0022354267988803343,-0.008418146996961641, ,0.003343236675697023, ,0.006868677186756268, ,2.5723584219054607e-05, ,0.17797037908650382,-0.24018471512125647,0.09161399946000001,1.6756323383848342,0.46702355619827546,-1.2900741300791072, ,0.0005871563138013968,-0.009626234152777361,0.0032323075324675325,0.012230883131176082,0.0,0.005320202412758872, ,0.45242810249328613
0.010445721920433592,0.020448838967732703,-0.08108689974548025, ,0.010586465198271907,0.02061852885872748,-0.08128660419818243, ,0.0002974646160328446, ,0.0006469776716678551,0.0017773729661973404,-0.0033219842982536215,-0.0065964015480060026,0.0018773609061407414,-0.0033415659935619423, ,0.0038227234331624747, ,0.0068583523494988915, ,2.6061871828945412e-05, ,0.17797037908650382,-0.2402851106486214,0.09165029558000001,1.6756323383848342,0.46702355619827546,-1.2897474151185448, ,0.0005354166736467079,-0.010390720629795448,0.003712144376602191,0.011493926754182511,0.0,0.01967823890097596, ,0.46539902687072754
0.01045242073058794,0.020466617589369785,-0.0811205772522968, ,0.01059782110566864,0.020644056632604428,-0.08133049066190454, ,0.00031094938924330125, ,0.000668705144436838,0.0018951498663253136,-0.0035491554336243352,-0.023988009750982583,0.0015871586357459554,0.00317567521139621, ,0.004078635050853936, ,0.02404045930894639, ,2.642909195300182e-05, ,0.17797810181937804,-0.24039322890886053,0.09168788799000001,1.6756323383848342,0.46702355619827546,-1.2895840576382638, ,0.00030888080443858187,-0.011136244836043264,0.0039623909253731346,0.010622027833697948,0.0,0.03849395824414745, ,0.48111701011657715
0.010470720872203795,0.020514355506667952,-0.08121517447545352, ,0.010609323930475681,0.020669309754267978,-0.081374487728113, ,0.00026192048236926916, ,0.0006710605862668341,0.0018029272641466444,-0.0034439653326565757,0.00015060019249716225,0.0013313154990521074,-0.003007958637850084, ,0.003944840458470331, ,0.001339806288795683, ,2.6605007446887725e-05, ,0.1779935472851265,-0.2406712472923326,0.09179288748000002,1.6756323383848342,0.46702355619827546,-1.2892573426777016, ,0.0005732649212143978,-0.01042790242965549,0.0038391929428778023,0.008836860048344828,0.0,0.012175816868708908, ,0.49439191818237305
0.010477597550346286,0.02053363755592267,-0.08124575376879957, ,0.01062097307884689,0.020694289447410297,-0.08141859482904877, ,0.00027611520153633, ,0.0005939869542012689,0.001674617993793426,-0.002786747572023051,-0.0013404442897436066,-0.0012669644496910975,0.005589584183611131, ,0.003305015575920088, ,0.0018444483301567702, ,2.681949945353596e-05, ,0.17800899275087495,-0.2407948110183202,0.09182788731000001,1.6758420283283186,0.46702355619827546,-1.2891756639375611, ,0.0011126313757697185,-0.011228979816157074,0.0031655030842607317,0.00025049818626191555,0.0,0.01301641380024152, ,0.5076401233673096
0.010485767815067283,0.020555949414869254,-0.08127943617523736, ,0.010632767958211487,0.020718996933309704,-0.08146281139794241, ,0.00028604196834753373, ,0.0006058562279057326,0.0016281843535429455,-0.002601438790432632,0.0019487817139151736,0.001582170119369733,-0.008197213731278427, ,0.003128183152947061, ,0.0025101817336547023, ,2.705542675623974e-05, ,0.17803216094949761,-0.24093382021005624,0.09186677601000001,1.6762614082152878,0.46702355619827546,-1.2890939851974204, ,0.0015824021550950196,-0.010534174022056388,0.002977347947663552,0.01402969365745836,0.0,0.01133832491068399, ,0.5274169445037842
0.010494569046890972,0.020583205529090525,-0.08132120552858785, ,0.010644707977273245,0.02074343343083269,-0.08150713686901381, ,0.00028772407314235323, ,0.00042943661770747767,0.001586072156137002,-0.0021751729152564795,0.005165539760640128,0.002607561193655139,-0.007989504561336831, ,0.0027260627110113384, ,0.005786378517580492, ,2.728462501698712e-05, ,0.17804760641524608,-0.24112688853191186,0.09191473874000002,1.6762614082152878,0.46702355619827546,-1.2890939851974204, ,0.00038751784408513044,-0.011341556090905255,0.002534820420114577,0.013129712502953996,0.0,0.008640907402407867, ,0.5403950214385986
0.01049911998665487,0.02059814078291358,-0.08134241159824952, ,0.0106567925460089,0.020767600156435792,-0.08155157067747067, ,0.0003119689658738955, ,0.0005316133909232301,0.001572590002721766,-0.0025498521701271,0.0028058644212839785,-0.0020505076206483366,0.008763205562731372, ,0.0030425972792289192, ,0.003475263521687965, ,2.757833023873633e-05, ,0.1780553291481203,-0.2412272840592768,0.09193936825000001,1.676471098158772,0.46702355619827546,-1.2890939851974204, ,0.0009120007246927531,-0.010955164571041094,0.0029056569719080635,-0.004789730695949554,0.00013094575058101107,0.007495317179751163, ,0.5533270835876465
0.01051240990647519,0.020632604181285798,-0.08140196151065669, ,0.010669021075667535,0.02079149832416758,-0.08159611225950941, ,0.0002957514501029566, ,0.000752531592976422,0.0017379459898345796,-0.0033801962147884624,0.009378857476873637,-0.0029015937365235596,0.006442215636431434, ,0.0038745950127051956, ,0.009817444338628361, ,2.7808069713332863e-05, ,0.1780862200796172,-0.2414512433126293,0.09200677533000001,1.676471098158772,0.46702355619827546,-1.2890123064572798, ,0.0017698736231486786,-0.010395055296419245,0.0037790774661921713,-0.004789730695949554,0.0,0.0012789193105838756, ,0.5693240165710449
0.010521595430965338,0.020651410611526214,-0.08143960978429071, ,0.010681392978769138,0.020815129145670606,-0.08164076105231319, ,0.0003046323149856992, ,0.00069776281732983,0.00169757062759934,-0.0033697723846642497,0.006883223412337369,-0.00230123738093407,0.007008969194037625, ,0.003837184502911199, ,0.0072577171061597966, ,2.8053346600732975e-05, ,0.17810166554536563,-0.24155936157286845,0.09204825661,1.676471098158772,0.46688691969851004,-1.2886558523331617, ,0.0011191548214828104,-0.010002353746861587,0.0037461927375352783,-0.004789730695949554,0.0,0.0022368050151702745, ,0.5827429294586182
0.010535337872926322,0.020684441773530432,-0.08150215056082304, ,0.010693907669103301,0.020838493830183626,-0.08168551649405158, ,0.0002872272304073231, ,0.0006907561408855923,0.0016723266271926075,-0.003033228170648471,0.007423186332472405,0.0008950815569047314,-0.007504694776057565, ,0.003531896590983947, ,0.0074769556681417645, ,2.8319000998984998e-05, ,0.17813255647686255,-0.2417678753604725,0.09211825627,1.6762614082152878,0.46688691969851004,-1.2885741735930214, ,0.00167629735477233,-0.009880223465135384,0.00341526833619211,0.011042831145709763,0.0,0.004396669134688536, ,0.59421706199646
0.010543813960444537,0.02070157083002124,-0.08153440263543055, ,0.01070656456172846,0.02086159358454314,-0.08173037802388085, ,0.0003008344944671419, ,0.0009134483586100636,0.0017307688230415873,-0.003508166474200805,0.004689479395426247,-0.001962552477995167,-0.0025093486455744296, ,0.00401711098096215, ,0.005083584237291388, ,2.861298806911178e-05, ,0.17816344740835943,-0.2418605481549632,0.09215455239,1.676471098158772,0.46688691969851004,-1.2884924948528806, ,0.003344025872530616,-0.009362353142796766,0.003914674740722536,0.006167158533248357,0.0,0.005846693159534197, ,0.6072721481323242
0.010544507765552795,0.020703965644744984,-0.08153774379012597, ,0.010719363072970318,0.020884429613185724,-0.08177534508194165, ,0.00034582654078299627, ,0.0009286757871103606,0.0017782511210216528,-0.0035829548207149176,0.00704187741037007,-0.0009863931639407476,-0.0067449538183671645, ,0.00410635860760651, ,0.0071106264383714686, ,2.902179600253654e-05, ,0.17816344740835943,-0.2418682708878374,0.09215844126000002,1.676680788102257,0.46688691969851004,-1.28841081611274, ,0.003344025872530616,-0.009499556795778704,0.004000203797086892,0.010129534646248644,0.0,0.004239460555153379, ,0.6202030181884766
0.010564022956627611,0.02074499000634946,-0.08162308199554512, ,0.01073230262042129,0.020907003118149733,-0.08182041710935975, ,0.0003057898637724191, ,0.000823074156834785,0.0016257615804574604,-0.003966372654378057,-0.007378981142367951,-0.0122982097053909,0.04672212489619291, ,0.004364935717457804, ,0.01434208226428499, ,2.9304543362742224e-05, ,0.1782097838056048,-0.24206133920969303,0.09225307043000001,1.6773098579327104,0.46688691969851004,-1.2881657798923185, ,0.0015352004871044332,-0.009312975880151432,0.004319092060737527,-0.04428774812365838,0.0,0.00933938937294263, ,0.6318099498748779
0.010572712921675775,0.020762555026531276,-0.08166057783219624, ,0.01074538262293856,0.02092931529907752,-0.08186559354824496, ,0.0003156822105549306, ,0.0008297947188025807,0.0015960899038916865,-0.003861478822317863,-0.010503696442069655,-0.010764887727604675,0.04044992958221158, ,0.004259939078422011, ,0.015040294075466913, ,2.9603328246568535e-05, ,0.17823295200422745,-0.24215401200418374,0.09229455171,1.6773098579327104,0.46688691969851004,-1.2880841011521778, ,0.001798652579410733,-0.00888159588696775,0.004211742866208356,-0.03649850695243723,0.0,0.013568131372515866, ,0.643388032913208
0.010581627320574286,0.020780438296707535,-0.08169930929799088, ,0.01075860250064346,0.02095136735321723,-0.08191087384169028, ,0.0003244942416600744, ,0.000856021391873498,0.0015952255230555598,-0.0036956272763747538,-0.0051724640274315985,-0.009368112874943314,0.03144315503936629, ,0.004115237302834188, ,0.01070121125216211, ,2.9914391758330056e-05, ,0.17825612020285014,-0.24224668479867442,0.09233732928,1.6773098579327104,0.46688691969851004,-1.2879207436718967, ,0.0024244934658025695,-0.008925513328025837,0.0040551964154786155,-0.028318660155085478,0.0,0.009506092786353379, ,0.6608171463012695
0.010605059630485445,0.02082002264250361,-0.08178367654373811, ,0.010771961674920453,0.020973160475424694,-0.08195625743377154, ,0.0002847659598917699, ,0.0008703130746556152,0.0013378169274521606,-0.0027708091267740955,-0.005731054674775073,-0.00893132250479502,0.02214292548448544, ,0.0031975900607033223, ,0.0106119512440739, ,3.011065534578698e-05, ,0.1783410702644666,-0.24245519858627848,0.09243066216000001,1.6773098579327104,0.46675028319874456,-1.287645968287919, ,0.004543982193444178,-0.008068094291512467,0.0031044263340479442,-0.018229378226715845,0.00017042441847262777,0.011034298813214142, ,0.6722719669342041
0.01061368043023688,0.02083575073478038,-0.08181356562339252, ,0.010785459568415484,0.02099469585816574,-0.08200174376954675, ,0.00030030424447785055, ,0.0007906254118732631,0.0015040935088029802,-0.003152124505914267,-0.0031805622485174363,-0.006573214578397873,0.019652066618502443, ,0.0035809600285270277, ,0.00730226853787047, ,3.0339631450792972e-05, ,0.1783796839288377,-0.24254787138076916,0.09246436570000001,1.6773098579327104,0.46675028319874456,-1.287645968287919, ,0.0027559844914734647,-0.008810122654074513,0.003502377203166227,-0.01594591997462547,0.00017042441847262777,0.009540003746709148, ,0.6836750507354736
0.010621542809855812,0.020850834430027717,-0.08184640968009103, ,0.0107990956050352,0.021015974691517825,-0.08204733229505491, ,0.00031490665004880086, ,0.0009314211898031021,0.0016064303436262352,-0.0037286489043378964,0.0019609996253226415,-0.006522072658873168,0.016315667130166325, ,0.0041654515401763495, ,0.00681050296068004, ,3.0597242581178024e-05, ,0.1784028521274604,-0.24262509870951143,0.09250066182000001,1.6773098579327104,0.46675028319874456,-1.2875642895477786, ,0.003185112271368747,-0.008224711900230282,0.004100080185328186,-0.014318457891673162,0.0001704442478330926,0.003848700420589349, ,0.6981351375579834
0.010632847309962393,0.020870312734533124,-0.08189115336402061, ,0.01081286920994564,0.021036998163172033,-0.08209302245731631, ,0.00031771535597471833, ,0.0010545800806335151,0.001843430606645768,-0.004533464216225818,-0.003306651147648212,-0.005980423482702995,0.016717121874140733, ,0.005006263411746064, ,0.006833696286036367, ,3.0852883711811284e-05, ,0.1784414657918315,-0.2427100487711279,0.09254603197000001,1.6773098579327104,0.46675028319874456,-1.287482610807638, ,0.002910991473513193,-0.00851062718952148,0.004908724659476118,-0.012882214858269219,0.00017052804209903016,0.009996630546862607, ,0.7107300758361816
0.010643944092246026,0.02088895699099096,-0.08193882916339217, ,0.010826779809571186,0.021057767458435288,-0.08213881370433108, ,0.00031924863361199946, ,0.0011082784225544308,0.001903447774904226,-0.004705025536712934,0.0025414968233178894,-0.003039210725834689,0.003161209453234489, ,0.005195061096349919, ,0.003961818475552068, ,3.1103559555571776e-05, ,0.17847235672332842,-0.24280272156561858,0.09260177244000001,1.6771001679892257,0.46675028319874456,-1.2874009320674973, ,0.0031113246142639604,-0.008104919667903828,0.00513501338491296,0.0,0.00017044668447267186,0.0056989782264559976, ,0.722149133682251
0.010664761305305484,0.02092436219946359,-0.08202136987435636, ,0.010840826831593283,0.021078283760232068,-0.08218470548507928, ,0.000285253287705212, ,0.000909794052913476,0.0014936223251231031,-0.003423635202163333,0.001207222539337631,-0.002797138570847545,0.0006882072494500854, ,0.003844464964896265, ,0.003046534091987192, ,3.1264725118378954e-05, ,0.17854186131919644,-0.2429571762231031,0.09269251274000001,1.6773098579327104,0.46675028319874456,-1.2871558958470757, ,0.0034806956379862413,-0.006959185015660718,0.003776389644381224,0.0025869338618223566,0.00016989463886588307,0.006381919401213705, ,0.7343480587005615
0.010675033503808953,0.020940929349691342,-0.08205621217845596, ,0.010855009704949447,0.021098548249106445,-0.08223069724951915, ,0.00029610840996789747, ,0.001009853740100774,0.0016217769923753192,-0.0034220484263979708,0.0013061636000118646,-0.0029317559736522485,-0.0027469251091591057, ,0.003919232146990821, ,0.0032095569740640205, ,3.144607566800159e-05, ,0.1785881977164418,-0.24303440355184533,0.09273140144000001,1.6775195478761948,0.46675028319874456,-1.2870742171069351, ,0.004648643416267553,-0.008168119983421361,0.0038189430640134265,0.007006525143235876,0.00016945571713038025,0.008321083767457025, ,0.7460730075836182
0.010684584495552393,0.02095573734984866,-0.08208755572163676, ,0.010869327859832101,0.021118562103224162,-0.08227678844858761, ,0.00031056567084344086, ,0.0010086180987968897,0.0015398971277484693,-0.0033683496430973897,0.0010217125906122008,-0.0031462104989485955,-0.0025618662484112086, ,0.0038385378663526233, ,0.003307950526823716, ,3.172822663289843e-05, ,0.17863453411368713,-0.24311163088058757,0.09276640127,1.6775195478761948,0.46675028319874456,-1.2870742171069351, ,0.004748202924526034,-0.007405002345520277,0.0037470739872971066,0.006491674530296649,0.00016896142129033096,0.007739981912855584, ,0.7560110092163086
0.01069458532950742,0.020971174771520742,-0.08212137301755307, ,0.010883780727687132,0.02113832649837441,-0.08232297853419941, ,0.00032307798257507763, ,0.001020478051077858,0.0016670124736653164,-0.00364479300292716,0.005899343583098067,-0.0027310510713247347,-0.0033217259025321902, ,0.00413579763458927, ,0.006500837947710833, ,3.2031214356135156e-05, ,0.17868087051093248,-0.2431888582093298,0.09280399368000002,1.6775195478761948,0.46675028319874456,-1.2869925383667946, ,0.00429370091907054,-0.00808725073618068,0.004045926217932436,0.006031232327340573,0.00016837148599788864,0.0032548426688648264, ,0.7658369541168213
0.010701430164662615,0.020982827233459633,-0.0821484855901441, ,0.010898367741213071,0.021157842607972013,-0.08236926695924533, ,0.0003437429320225987, ,0.0011048156801167401,0.001780124405978351,-0.004215056706733221,0.0033236068120164395,-0.002612894180659997,-0.0024345143012112313, ,0.0047070334212504054, ,0.004227715329785359, ,3.2372555900922965e-05, ,0.17870403870955515,-0.2432429173394494,0.09283380835,1.6775195478761948,0.46675028319874456,-1.286910859626654, ,0.004070576032801502,-0.007753073967649958,0.004633162164048867,0.005749592191079559,0.00016792395453032734,0.005555500267617369, ,0.7798810005187988
0.010716046698639712,0.02100675130754798,-0.08220781875052097, ,0.010913088334360072,0.02117711160305909,-0.08241565317759333, ,0.00033323142944579394, ,0.0009276852361661135,0.0015920152773407608,-0.003860967382232639,-0.002217662068116165,-0.0014599429714960191,-0.000792465617124906, ,0.004278104915421233, ,0.002655081480933303, ,3.268143610990131e-05, ,0.1787503751068005,-0.2433433128668143,0.09289862285000001,1.6775195478761948,0.46675028319874456,-1.286747502146373, ,0.0027229289810087364,-0.006684462567906009,0.004224028512330948,0.005252266576660949,0.00016692864842309375,0.010164324227147657, ,0.7907619476318359
0.010725539301948592,0.021023332859481512,-0.08224544864081845, ,0.010927941942328066,0.021196134652307557,-0.08246213664408666, ,0.00034319233557415373, ,0.0009601844918087965,0.0016196137644372693,-0.0038542741019785623,0.0014261021103775915,-0.003083304815211294,0.00309320842088853, ,0.004289584112410832, ,0.0033971362884277763, ,3.3004031984714354e-05, ,0.1787812660382974,-0.2434128174626823,0.09294010413,1.6777292378196795,0.46675028319874456,-1.2866658234062325, ,0.0031481791038728262,-0.0072485372500204984,0.004228513809397399,0.0,0.00016613633745494934,0.005983336694794377, ,0.8013620376586914
0.010736698884379486,0.021039716344812723,-0.08228560514449108, ,0.01094292800156655,0.02121491292202026,-0.08250871681454351, ,0.00035071798749789873, ,0.0011305190173871722,0.0016328278679634324,-0.004064603077915053,-0.001996699694523067,-0.004700275862698351,0.003903119053593243, ,0.004523847729098382, ,0.005106799560014739, ,3.333453803577412e-05, ,0.17882760243554274,-0.24348232205855033,0.09298417799000001,1.6777292378196795,0.46675028319874456,-1.2865024659259512, ,0.004715255815232228,-0.006740339460516544,0.004455611613986015,0.0,0.0001652914588327066,0.009041813661277756, ,0.8109400272369385
0.010766625147775096,0.02108214690068122,-0.08238939311450509, ,0.010958045949772625,0.021233447576133862,-0.08255539314575663, ,0.0002951098578585876, ,0.0012899117989065543,0.0017942748907399393,-0.004774534754880814,-0.0025148805156544325,-0.0023820893740616462,-0.006181479262431385, ,0.00526112886727392, ,0.0034639531337581223, ,3.353774878287656e-05, ,0.17895888889440456,-0.24365222218178328,0.09309825151000001,1.677938927763164,0.46675028319874456,-1.2863391084456701, ,0.005011697941630164,-0.005986343589759314,0.005198698276762404,0.010957467555897552,0.0001631464664133766,0.010788027550320111, ,0.8292901515960693
0.010780868983387749,0.021102633286297717,-0.08244291291333108, ,0.010973295225890276,0.02125173977622015,-0.08260216509549222, ,0.000290898369991501, ,0.001066714920565158,0.0016261827503619107,-0.003997933361817802,-0.002454261876753021,-0.0015882707148044016,-0.005328973928023039, ,0.004445876991648189, ,0.002923354956523602, ,3.372692995860281e-05, ,0.17901294802452414,-0.2437217267776513,0.09315528827000001,1.677938927763164,0.46675028319874456,-1.2862574297055296, ,0.004029544092977225,-0.006402183154588585,0.0044136357772236075,0.01022083288303671,0.00016202190816566047,0.011036596695874245, ,0.8391339778900146
0.01079165554407921,0.021117135332699436,-0.08248090168829919, ,0.010988675270109277,0.02126979068148825,-0.08264903212248977, ,0.00030064642166490005, ,0.0010148147303299395,0.0015314395605612928,-0.003621625778538134,-0.0011876179155873748,-0.0019387184533040276,-0.0050297585865379055, ,0.0040609517781326505, ,0.0022735577695679712, ,3.393169004592215e-05, ,0.1790592844217695,-0.2437835086406451,0.09319806584000001,1.677938927763164,0.46675028319874456,-1.2862574297055296, ,0.004221212283107413,-0.006391188972475737,0.003990183246492986,0.0094426010855204,0.00016101854524318727,0.009542428192532704, ,0.8492610454559326
0.010801773092749108,0.021130702771969687,-0.08251517487880349, ,0.011004185523863575,0.02128760144878672,-0.08269599368646095, ,0.0003135018791957602, ,0.001109537616166436,0.0014606365502600476,-0.003650280079856493,0.00029184002614654264,-0.0031079999258212614,-0.005352118744325312, ,0.004085226739734405, ,0.0031216715861350176, ,3.415784588732179e-05, ,0.17910562081901482,-0.24383756777076468,0.09323565825,1.677938927763164,0.46675028319874456,-1.286175750965389, ,0.005280474165170371,-0.005499545930567379,0.004012295093198993,0.008819114529315239,0.00016006315378113713,0.006963482951894535, ,0.8593721389770508
0.010808883655841938,0.021140485609734284,-0.08254003203307081, ,0.011019825429830776,0.02130517323260516,-0.08274304924808953, ,0.00033590837252795146, ,0.0011660057569472502,0.0015318988318116812,-0.003808863170662967,0.0009345006082213757,-0.0035225736979118995,-0.005031899608970562, ,0.004267753754491099, ,0.003644422593820795, ,3.442402738570394e-05, ,0.17913651175051173,-0.24387618143513579,0.09326288034,1.677938927763164,0.46675028319874456,-1.286175750965389, ,0.005607831367285873,-0.005856493355253048,0.004189587459231984,0.008434966121289677,0.0001593942152037703,0.0065891301515711275, ,0.8732061386108398
0.010825530434152793,0.021163093854700794,-0.08259538490555725, ,0.011035594431930465,0.021322507185076552,-0.08279019826902999, ,0.00032785932905956807, ,0.0011111097098310575,0.0013516680943308343,-0.003742926581978191,0.0025746100127244246,-0.004779359386958,0.0004901637380019122, ,0.004131715239775334, ,0.00542870998789905, ,3.466763213418857e-05, ,0.17921373907925398,-0.24396113149675225,0.09332380597,1.6781486177066482,0.46675028319874456,-1.2860940722252483, ,0.005131560661767761,-0.004370148522058828,0.004074907014581735,0.000957571144975791,0.00015797412248542476,0.0019893373517529812, ,0.8829491138458252
0.010836773810887268,0.02117665769260033,-0.08263220421787243, ,0.011051491975323314,0.021339604455978965,-0.08283744021190768, ,0.0003387880621893234, ,0.0011213108040706045,0.0014181005451813953,-0.0037397325273501947,-0.0010440535245181402,-0.004967643362746479,0.0019365974706773434, ,0.004153787001242398, ,0.005076172535485517, ,3.499655837975195e-05, ,0.17926779820937355,-0.2440074678939976,0.09336399096,1.6781486177066482,0.46675028319874456,-1.2859307147449672, ,0.005253859791208621,-0.005120059052816806,0.004089553663671374,0.0009883726673051267,0.00015691619138169795,0.006553552732041079, ,0.8909001350402832
0.010836773810887268,0.02117665769260033,-0.08263220421787243, ,0.01106751750640994,0.021356466192737726,-0.08288477454031781, ,0.0003864783532428241, ,0.0011213108040706045,0.0014181005451813953,-0.0037397325273501947,-0.0010440535245181402,-0.004967643362746479,0.0019365974706773434, ,0.004153787001242398, ,0.005076172535485517, ,3.541288822491743e-05, ,0.17931413460661888,-0.24405380429124296,0.09340547224000001,1.678358307650133,0.46675028319874456,-1.2859307147449672, ,0.005515433455524077,-0.004208575451333353,0.004904190738916256,0.003813028104326828,0.00015594866542697697,0.006242966914255281, ,0.8993089199066162
0.010847660749686443,0.021191366733579582,-0.08267012356842762, ,0.011083670472829503,0.02137309354042707,-0.08293220071882437, ,0.00039674885570739686, ,0.0012884607167714163,0.0015505862317116246,-0.004530559822417587,-0.0011552828697800259,-0.004541634378931479,-0.0010142736555237902, ,0.004958872955132168, ,0.004686269244538158, ,3.584112295119971e-05, ,0.17931413460661888,-0.24405380429124296,0.09340547224000001,1.678358307650133,0.46675028319874456,-1.2859307147449672, ,0.005515433455524077,-0.004208575451333353,0.004904190738916256,0.003813028104326828,0.00015594866542697697,0.006242966914255281, ,0.909904956817627
0.010858106824654821,0.021203337602260917,-0.08270610725716773, ,0.011099950323459042,0.021389487641772644,-0.08297971821296035, ,0.00040988177594744927, ,0.0014880214657078878,0.0017584046056547296,-0.0052351681147595995,-0.0029987451811089414,-0.005420459807638641,-0.00030172654670536256, ,0.005719543673178027, ,0.006194663288274109, ,3.6286443725700576e-05, ,0.17936047100386424,-0.24408469522273984,0.09344436094000001,1.678358307650133,0.46675028319874456,-1.2858490360048267, ,0.00635832123991626,-0.004511139378017956,0.005658547609236235,0.003813028104326828,0.00015517636201449342,0.008483465475500239, ,0.9184780120849609
0.010884490007906419,0.021232944102521665,-0.08279745915832427, ,0.011116356508411737,0.0214056496371528,-0.08302732648922624, ,0.00036936197092392184, ,0.00192920944475868,0.002077720634883886,-0.006631568511559294,-0.0006796634025021588,-0.007577160171342034,-0.001239389829137701, ,0.007212244660428066, ,0.00760758080976904, ,3.664577403601687e-05, ,0.1794763119969776,-0.24415419981860786,0.09354287898000001,1.678358307650133,0.46675028319874456,-1.2857673572646862, ,0.008559239892162123,-0.004046152713232988,0.0071365643010752695,0.003813028104326828,0.00015359454607421103,0.005578077622914915, ,0.9266400337219238
0.010902964629892379,0.021254654471328183,-0.08286574414462108, ,0.011132888479036174,0.021421580664601158,-0.0830750250150903, ,0.0003528849857248937, ,0.0017737624494354428,0.00205811697767086,-0.006016761663421456,0.001199919104423452,-0.007173505612464134,-0.0011165025804249931, ,0.006601780035355796, ,0.007273168549125661, ,3.696709243666992e-05, ,0.17955353932571985,-0.24420053621585322,0.09361158235000001,1.678358307650133,0.46688691969851004,-1.2858787751683827, ,0.007606048852880282,-0.0055889838188103525,0.006667564470489746,0.003813028104326828,0.0,0.005222129942161872, ,0.9345860481262207
0.01092016666982075,0.021272942756700445,-0.08292077683556151, ,0.011149545687915055,0.021437281859808237,-0.08312281325898678, ,0.0003470458055396382, ,0.0016938169484151807,0.0017319951642513261,-0.0055183349816927225,-0.0007690167573944491,-0.00728193370239365,-0.0015991184791332806, ,0.006026677697861577, ,0.0073224272001786925, ,3.727142703958979e-05, ,0.17964621212021054,-0.24424687261309858,0.09367639685000001,1.678358307650133,0.46688691969851004,-1.2857970964282421, ,0.008126121557959063,-0.0033276641785060434,0.005950247112439298,0.003813028104326828,0.0,0.004922246516237466, ,0.9428839683532715
0.01092016666982075,0.021272942756700445,-0.08292077683556151, ,0.011166327588864097,0.021452754356123444,-0.08317069069031652, ,0.0003941882090446508, ,0.0016938169484151807,0.0017319951642513261,-0.0055183349816927225,-0.0007690167573944491,-0.00728193370239365,-0.0015991184791332806, ,0.006026677697861577, ,0.0073224272001786925, ,3.765773015082901e-05, ,0.17964621212021054,-0.24424687261309858,0.09367639685000001,1.678358307650133,0.46688691969851004,-1.2857970964282421, ,0.008126121557959063,-0.0033276641785060434,0.005950247112439298,0.003813028104326828,0.0,0.004922246516237466, ,0.9517879486083984
0.010955210677435948,0.02130894073102591,-0.08302955487878588, ,0.011183233636930724,0.02146799928455727,-0.08321865677944522, ,0.00033623447524193503, ,0.0016987310693572213,0.0016526491481322599,-0.004719681049515326,-0.001693721229302691,-0.008184636472402248,-0.003973889703681199, ,0.005281318553351606, ,0.008358047825066281, ,3.793019023275864e-05, ,0.1798238349763177,-0.2443163772089666,0.09379435924000001,1.678777687537102,0.46688691969851004,-1.2855520602078205, ,0.009849598708385176,-0.004477118810414136,0.005163310055105349,0.007377658934155751,0.0,0.00772076392126725, ,0.9629371166229248
0.01097192313311732,0.021324734558412772,-0.08307450706953727, ,0.011200263288393197,0.021483017773782837,-0.08326671099770352, ,0.0003828793853056612, ,0.0017380096371721263,0.001596933907798771,-0.004624560820082347,-0.003100037678399042,-0.008854876906441963,-0.0037253346740442695, ,0.005196489125502191, ,0.009381848246509205, ,3.828279686440439e-05, ,0.17992423050368261,-0.24436271360621192,0.09384361826000001,1.678777687537102,0.46688691969851004,-1.2853887027275392, ,0.010503258611894939,-0.004095568096811609,0.005063195015893199,0.007377658934155751,0.0,0.008799803724873755, ,0.9716789722442627
0.01097192313311732,0.021324734558412772,-0.08307450706953727, ,0.011217416000759074,0.02149781095013839,-0.08331485281738585, ,0.0003846924277193707, ,0.0017380096371721263,0.001596933907798771,-0.004624560820082347,-0.003100037678399042,-0.008854876906441963,-0.0037253346740442695, ,0.0051920552947191684, ,0.009381848246509205, ,3.863230580364009e-05, ,0.17992423050368261,-0.24436271360621192,0.09384361826000001,1.678777687537102,0.46688691969851004,-1.2853887027275392, ,0.010503258611894939,-0.004095568096811609,0.005063195015893199,0.007377658934155751,0.0,0.008799803724873755, ,0.9798579216003418
0.0109922059361782,0.02134143496308892,-0.08312818719718269, ,0.011234691232764459,0.0215123799376288,-0.08336308171175039, ,0.00037841344631891387, ,0.0019741191733906433,0.0017130805134172719,-0.005358845293611564,0.013085257037971998,-0.009767792623027027,-0.009095876451499672, ,0.005962299408538736, ,0.016328922807611355, ,3.896429848697471e-05, ,0.1800477942296702,-0.24439360453770884,0.09390195131000001,1.678777687537102,0.46688691969851004,-1.285225345247258, ,0.011692575352201919,-0.0032672540836544335,0.005828324742041714,0.007377658934155751,0.0,-0.00898604473957361, ,0.9879260063171387
0.011011379287628279,0.021358158648835078,-0.08317931061547895, ,0.011252088444372636,0.021526725857927805,-0.08341139715501773, ,0.00037445956251239875, ,0.0019464363042334886,0.0016488784620307634,-0.005025907354355402,-0.0076285134169462,-0.010479475604066585,-0.0026331186074135264, ,0.005636236262218855, ,0.012962006892528296, ,3.9283371435602636e-05, ,0.18015591248990936,-0.24442449546920572,0.0939550992,1.678777687537102,0.46688691969851004,-1.2852253452472582, ,0.012108835212258615,-0.003090994905751092,0.005513607310488058,0.007377658934155751,0.0,0.012901378032725865, ,0.9973700046539307
0.011029500222705213,0.021373611349768135,-0.0832282024088687, ,0.011269607096772877,0.021540849830379846,-0.0834597986223708, ,0.0003731713098301702, ,0.0019113971988793455,0.001737588810927119,-0.005420967950158722,-0.006922274253213073,-0.009196511872358551,-0.0028956743458098174, ,0.006004960253356469, ,0.011510591069690441, ,3.9664390525704506e-05, ,0.18027175348302274,-0.24446310913357686,0.09401083967000001,1.678777687537102,0.46688691969851004,-1.2852253452472582, ,0.010794354961963848,-0.0033829255844345257,0.005886478758314857,0.007377658934155751,0.0,0.01206637012295876, ,1.004425048828125
0.011049790047020374,0.021391223862264833,-0.08328785349087785, ,0.011287246652379441,0.021554752972002055,-0.08350828558995378, ,0.0004215354049686509, ,0.0019113971988793455,0.001737588810927119,-0.005420967950158722,-0.006922274253213073,-0.009196511872358551,-0.0028956743458098174, ,0.006004960253356469, ,0.011510591069690441, ,4.012477203685307e-05, ,0.18027175348302274,-0.24446310913357686,0.09401083967000001,1.678777687537102,0.46688691969851004,-1.2852253452472582, ,0.010794354961963848,-0.0033829255844345257,0.005886478758314857,0.007377658934155751,0.0,0.01206637012295876, ,1.0111329555511475
0.011049790047020374,0.021391223862264833,-0.08328785349087785, ,0.011305006574830278,0.02156843639748635,-0.08355685753487158, ,0.0004109780217870057, ,0.0022067007097949466,0.001753263962848958,-0.006115655877218774,-0.00722670745144848,-0.010616547164288068,-0.003537880972129742, ,0.006733848034712017, ,0.012842755379024736, ,4.056038757361758e-05, ,0.1803953172090103,-0.24448627733219952,0.09407565417000001,1.678777687537102,0.46702355619827546,-1.2853367631509545, ,0.012811791758940297,-0.0015127169554428005,0.006598513471416737,0.007377658934155751,0.00059437635165067,0.010499990310474163, ,1.0183029174804688
0.011075221229465948,0.02141392174762394,-0.0833622157562533, ,0.011322886328986011,0.021581901219201227,-0.08360551393518968, ,0.0003856800594604643, ,0.0025382156520654354,0.002437696198075631,-0.007629556202499114,-0.0025356088891165364,-0.011217442244987549,-0.003371243420691408, ,0.008402084818519453, ,0.011500447691549448, ,4.094629173452603e-05, ,0.18053432640074638,-0.24452489099657065,0.09415602415,1.678777687537102,0.46702355619827546,-1.2853367631509545, ,0.013435783881986518,-0.004850293976224855,0.008266119107420863,0.007377658934155751,0.00059437635165067,0.00902778541295691, ,1.024855136871338
0.011075221229465948,0.02141392174762394,-0.0833622157562533, ,0.011340885380928794,0.02159514854719371,-0.08365425426993284, ,0.0004344042906405604, ,0.0025382156520654354,0.002437696198075631,-0.007629556202499114,-0.0025356088891165364,-0.011217442244987549,-0.003371243420691408, ,0.008402084818519453, ,0.011500447691549448, ,4.141047548015632e-05, ,0.1806656128596082,-0.24454805919519332,0.09423639413000001,1.6789873774805866,0.46702355619827546,-1.2852550844108142, ,0.014098490797574028,-0.0024400736129741676,0.008638184121475054,0.0056824583062315415,0.00059437635165067,0.004717628992699829, ,1.0317449569702148
0.011100142151149274,0.021436155759217746,-0.08343676229939473, ,0.011359003197960816,0.02160817948919159,-0.08370307801908444, ,0.0004092985069412443, ,0.0026692237829889173,0.0023190073894649313,-0.00802924854905074,-0.001081261415631313,-0.012222268274489616,-0.0034498136580392077, ,0.008773333638845615, ,0.012270001412026083, ,4.182556339330899e-05, ,0.1806656128596082,-0.24454805919519332,0.09423639413000001,1.6789873774805866,0.46702355619827546,-1.2852550844108142, ,0.014098490797574028,-0.0024400736129741676,0.008638184121475054,0.0056824583062315415,0.00059437635165067,0.004717628992699829, ,1.0395021438598633
0.011128739408378188,0.021459134123701415,-0.08351736519831894, ,0.011377239248603656,0.021620995150605078,-0.08375198466358635, ,0.00037815004443310385, ,0.0027437751922074496,0.002169512476372368,-0.007577816407863481,-0.004865306515247571,-0.014120062779906038,-0.0023596963231452004, ,0.008346160087237327, ,0.014934770015250889, ,4.218232784484853e-05, ,0.1808277902499669,-0.244571227393816,0.09432324556,1.6789873774805866,0.46702355619827546,-1.2851734056706734, ,0.015943706579044148,-0.002037982538695708,0.008189620318766069,0.00554710909666223,0.00059437635165067,0.00821792116781362, ,1.046497106552124
0.011154993935406218,0.02148137545119671,-0.0835917263420507, ,0.011395593002596875,0.021633596634528792,-0.08380097368533818, ,0.00035333220976992933, ,0.002608821827554251,0.002098746633894721,-0.007286327868891035,-0.004458994464128051,-0.013439897636922474,-0.0013002848443643181, ,0.008018806804892241, ,0.014160277524991147, ,4.249258481693346e-05, ,0.18097452217457716,-0.24459439559243867,0.09440361554000001,1.6791970674240708,0.46702355619827546,-1.2851734056706734, ,0.014930292882075327,-0.002113055310328665,0.0078621971964462,0.004270932476220577,0.00059437635165067,0.007657743242881383, ,1.0535459518432617
0.011154993935406218,0.02148137545119671,-0.0835917263420507, ,0.011414063930896667,0.02164598504174403,-0.08385004456719586, ,0.00040117562900271513, ,0.002608821827554251,0.002098746633894721,-0.007286327868891035,-0.004458994464128051,-0.013439897636922474,-0.0013002848443643181, ,0.008018806804892241, ,0.014160277524991147, ,4.2878570275589526e-05, ,0.18097452217457716,-0.24459439559243867,0.09440361554000001,1.6791970674240708,0.46702355619827546,-1.2851734056706734, ,0.014930292882075327,-0.002113055310328665,0.0078621971964462,0.004270932476220577,0.00059437635165067,0.007657743242881383, ,1.0600330829620361
0.011182085295805447,0.02150151272367863,-0.08366381718542024, ,0.011432651505675158,0.021658161470720465,-0.0838991967929724, ,0.00037779070280998374, ,0.0025024173103856797,0.0018606421376559127,-0.006630141442613917,-0.0057771086528989254,-0.013580994605914658,-0.0012860043779136551, ,0.007326858611219764, ,0.014758671554762985, ,4.322065389367845e-05, ,0.1811366995649359,-0.24460984105818712,0.09448139294,1.6791970674240708,0.46702355619827546,-1.2850100481903923, ,0.015063006596582662,-0.0013055101867390712,0.007159016413483147,0.004270932476220577,0.00059437635165067,0.008205814282141068, ,1.0665109157562256
0.011208851175134182,0.021521005341961923,-0.08373288964755178, ,0.011451355200319006,0.021670127017618022,-0.0839484298474359, ,0.0003570756980633272, ,0.002435861880321753,0.001574771271988462,-0.005474519538723704,-0.004234523710356416,-0.01437567645492681,-0.0014809059912167342, ,0.006195457355107239, ,0.014986369129077592, ,4.3524102135010605e-05, ,0.18131432242104303,-0.24462528652393556,0.09455657776000001,1.6791970674240708,0.4671601926980409,-1.2851214660940886, ,0.016822716106802124,-0.001322289895884656,0.0059725577502812155,0.004270932476220577,0.0015708190228710547,0.006674525392010853, ,1.0743680000305176
0.011208851175134182,0.021521005341961923,-0.08373288964755178, ,0.01147017448942805,0.02168188277628929,-0.08399774321630932, ,0.0004053625986112812, ,0.002435861880321753,0.001574771271988462,-0.005474519538723704,-0.004234523710356416,-0.01437567645492681,-0.0014809059912167342, ,0.006195457355107239, ,0.014986369129077592, ,4.390260653774585e-05, ,0.18131432242104303,-0.24462528652393556,0.09455657776000001,1.6791970674240708,0.4671601926980409,-1.2851214660940886, ,0.016822716106802124,-0.001322289895884656,0.0059725577502812155,0.004270932476220577,0.0015708190228710547,0.006674525392010853, ,1.081691026687622
0.011233069405272855,0.02153641341865839,-0.08378904809000239, ,0.011489108848814513,0.02169342983828093,-0.08404713638627044, ,0.00039600495116949125, ,0.0024981496792925934,0.0016717968859218096,-0.00592007128544571,-0.0037195670136388865,-0.014114930762338794,-0.0017228207297780098, ,0.0066394955134171435, ,0.014596795604614384, ,4.4333057892072e-05, ,0.18147649981140176,-0.24463300925680978,0.09461750339000001,1.6791970674240708,0.4671601926980409,-1.2851214660940886, ,0.01657299014293936,-0.001148360237561303,0.006433284135702748,0.004270932476220577,0.0015708190228710547,0.005957257891153584, ,1.086604118347168
0.011233069405272855,0.02153641341865839,-0.08378904809000239, ,0.01150815775550177,0.021704769292835945,-0.08409660884495057, ,0.0004456578494608313, ,0.0024981496792925934,0.0016717968859218096,-0.00592007128544571,-0.0037195670136388865,-0.014114930762338794,-0.0017228207297780098, ,0.0066394955134171435, ,0.014596795604614384, ,4.4839798047314486e-05, ,0.18147649981140176,-0.24463300925680978,0.09461750339000001,1.6791970674240708,0.4671601926980409,-1.2851214660940886, ,0.01657299014293936,-0.001148360237561303,0.006433284135702748,0.004270932476220577,0.0015708190228710547,0.005957257891153584, ,1.0915980339050293
0.011259089643551826,0.021553392287725077,-0.08385129870002236, ,0.01152732068772299,0.021715902226895758,-0.08414616008093397, ,0.0004304655704461248, ,0.0026156654003524037,0.0018113669665963603,-0.006576317987837849,-0.003440985232705373,-0.01404512752774841,-0.001953766930163924, ,0.00730552626793148, ,0.01446049702956853, ,4.5317130589740586e-05, ,0.1816463999346347,-0.24464073198968403,0.09468491047000001,1.6791970674240708,0.4671601926980409,-1.2851214660940886, ,0.016512431104658217,-0.0008467091877899037,0.0071142525770433234,0.004270932476220577,0.0015708190228710547,0.005355920140595413, ,1.096717119216919
0.011259089643551826,0.021553392287725077,-0.08385129870002236, ,0.011546597124920113,0.02172682972510186,-0.08419578958375717, ,0.0004810561978635674, ,0.0026156654003524037,0.0018113669665963603,-0.006576317987837849,-0.003440985232705373,-0.01404512752774841,-0.001953766930163924, ,0.00730552626793148, ,0.01446049702956853, ,4.58710708884474e-05, ,0.1816463999346347,-0.24464073198968403,0.09468491047000001,1.6791970674240708,0.4671601926980409,-1.2851214660940886, ,0.016512431104658217,-0.0008467091877899037,0.0071142525770433234,0.004270932476220577,0.0015708190228710547,0.005355920140595413, ,1.10158109664917
0.01128643994304099,0.021572211735142822,-0.0839231515227902, ,0.011565986547742843,0.021737552869798015,-0.08424549684390896, ,0.00045759206839340654, ,0.0030977912728150344,0.0021825748302054565,-0.008087749962172668,-0.0006741273633791551,-0.016000295886122756,-0.0027827499783576962, ,0.008931497249061848, ,0.01601448973712728, ,4.638221922028137e-05, ,0.18182402279074186,-0.24464073198968403,0.09476268787000001,1.6791970674240708,0.4672968291978063,-1.2851512052576446, ,0.018896244834422697,-0.0006281194546819944,0.008723335991237677,0.004257387752345151,0.001969440743490028,0.0022617327909307872, ,1.1064379215240479
0.01128643994304099,0.021572211735142822,-0.0839231515227902, ,0.011585488438047197,0.02174807274103215,-0.08429528135282864, ,0.0005087609518844006, ,0.0030977912728150344,0.0021825748302054565,-0.008087749962172668,-0.0006741273633791551,-0.016000295886122756,-0.0027827499783576962, ,0.008931497249061848, ,0.01601448973712728, ,4.696984130966699e-05, ,0.18182402279074186,-0.24464073198968403,0.09476268787000001,1.6791970674240708,0.4672968291978063,-1.2851512052576446, ,0.018896244834422697,-0.0006281194546819944,0.008723335991237677,0.004257387752345151,0.001969440743490028,0.0022617327909307872, ,1.11142897605896
0.011314329595024255,0.021594084140447632,-0.08400088460940959, ,0.011605102278894686,0.021758390416558283,-0.08434514260290624, ,0.0004796445268538985, ,0.0032937376991579695,0.002424429854954205,-0.009246091300558293,0.0009143545765788962,-0.01365648962339131,-0.0035976963522740954, ,0.010110231079985633, ,0.013687062707160847, ,4.7505814415560815e-05, ,0.1819939229139748,-0.24464845472255825,0.09484694672,1.6794067573675557,0.46743346569757177,-1.2852626231613409, ,0.01886619116470592,0.0,0.00993068049875312,0.004958345562737035,0.004159837519541241,0.00022854227150239, ,1.1171789169311523
0.011339273417310156,0.021613124603002718,-0.08407082983142926, ,0.011624827554550814,0.02176850697183865,-0.08439508008748181, ,0.0004591547390482521, ,0.0035437502123429354,0.0026467816852273774,-0.010088780304095303,0.0045938357078694585,-0.014365936184922342,-0.005828814494427093, ,0.01101576628660199, ,0.015082550993171549, ,4.8004455826271954e-05, ,0.18213293210571083,-0.24464845472255825,0.09492213154000001,1.67961644731104,0.46743346569757177,-1.2851809444212003, ,0.0199279591680955,0.0,0.010828559836845685,0.006187790643150956,0.004159837519541241,-0.0033920685683594687, ,1.1244781017303467
0.011339273417310156,0.021613124603002718,-0.08407082983142926, ,0.011644663750484147,0.021778423480045314,-0.08444509330084402, ,0.0005105488408429061, ,0.0035437502123429354,0.0026467816852273774,-0.010088780304095303,0.0045938357078694585,-0.014365936184922342,-0.005828814494427093, ,0.01101576628660199, ,0.015082550993171549, ,4.857896283781441e-05, ,0.18213293210571083,-0.24464845472255825,0.09492213154000001,1.67961644731104,0.46743346569757177,-1.2851809444212003, ,0.0199279591680955,0.0,0.010828559836845685,0.006187790643150956,0.004159837519541241,-0.0033920685683594687, ,1.1296300888061523
0.011389893786373347,0.021652963229492887,-0.08422393592870325, ,0.011664610353365221,0.02178814101206254,-0.08449518173823063, ,0.000409043413669518, ,0.003796096013754116,0.002978940223558549,-0.011378403281409741,0.010250438398711878,-0.007048251416407865,-0.005246276007525239, ,0.01235930787040969, ,0.012439820925967019, ,4.8989737448042296e-05, ,0.18241867322205715,-0.24464845472255825,0.09508676037000001,1.67961644731104,0.46770673869710266,-1.2853221014884526, ,0.020824433082833174,3.0575239417975345e-05,0.012215346257668713,0.006187790643150956,0.012591602736345409,-0.008781068706466253, ,1.1351370811462402
0.011389893786373347,0.021652963229492887,-0.08422393592870325, ,0.011684666851065185,0.021797660636488466,-0.08454534489582687, ,0.00045949126586533774, ,0.003796096013754116,0.002978940223558549,-0.011378403281409741,0.010250438398711878,-0.007048251416407865,-0.005246276007525239, ,0.01235930787040969, ,0.012439820925967019, ,4.9475020139845415e-05, ,0.18241867322205715,-0.24464845472255825,0.09508676037000001,1.67961644731104,0.46770673869710266,-1.2853221014884526, ,0.020824433082833174,3.0575239417975345e-05,0.012215346257668713,0.006187790643150956,0.012591602736345409,-0.008781068706466253, ,1.1399359703063965
0.011426478503950623,0.021679309572467186,-0.08432817445839981, ,0.011704832732654716,0.021806983419637414,-0.08459558227076548, ,0.00040655703905219994, ,0.0037763848746547525,0.002787808156488501,-0.010600745799480008,0.009363837852589473,-0.008441597856020016,-0.004962041458491597, ,0.01159347957017642, ,0.012607216180533554, ,4.9873987649324034e-05, ,0.182619464276787,-0.24464073198968403,0.09519824131000001,1.67961644731104,0.46770673869710266,-1.285240422748312, ,0.022203308740868222,7.436531526698644e-06,0.011418502881720433,0.006187790643150956,0.012591602736345409,-0.007829011520586855, ,1.1451900005340576
0.011426478503950623,0.021679309572467186,-0.08432817445839981, ,0.011725107488403027,0.021816110425541328,-0.08464589336112564, ,0.0004569891080826702, ,0.0037763848746547525,0.002787808156488501,-0.010600745799480008,0.009363837852589473,-0.008441597856020016,-0.004962041458491597, ,0.01159347957017642, ,0.012607216180533554, ,5.034686018030049e-05, ,0.182619464276787,-0.24464073198968403,0.09519824131000001,1.67961644731104,0.46770673869710266,-1.285240422748312, ,0.022203308740868222,7.436531526698644e-06,0.011418502881720433,0.006187790643150956,0.012591602736345409,-0.007829011520586855, ,1.150062084197998
0.011465374987900066,0.021706606645219794,-0.08443266831857564, ,0.011745490609776367,0.021825042715952214,-0.08469627766593238, ,0.0004024695671520113, ,0.0037763848746547525,0.002787808156488501,-0.010600745799480008,0.009363837852589473,-0.008441597856020016,-0.004962041458491597, ,0.01159347957017642, ,0.012607216180533554, ,5.080970657108486e-05, ,0.18285886899588794,-0.24464073198968403,0.09531101854000001,1.67961644731104,0.46784337519686814,-1.2853518406520086, ,0.022971905484984453,2.8954222539212275e-05,0.010654723424749164,0.006187790643150956,0.014583533392398458,-0.00945329740603518, ,1.1534299850463867
0.011465374987900066,0.021706606645219794,-0.08443266831857564, ,0.011765981589437305,0.021833781350343914,-0.08474673468515631, ,0.0004529629312961038, ,0.0036941996365060506,0.0026007072976198557,-0.009857082883939423,0.011022385011959828,-0.007264071751576067,-0.004927997991653986, ,0.010843102525712193, ,0.013200743036224255, ,5.1346929075907394e-05, ,0.18285886899588794,-0.24464073198968403,0.09531101854000001,1.67961644731104,0.46784337519686814,-1.2853518406520086, ,0.022971905484984453,2.8954222539212275e-05,0.010654723424749164,0.006187790643150956,0.014583533392398458,-0.00945329740603518, ,1.1568291187286377
0.011465374987900066,0.021706606645219794,-0.08443266831857564, ,0.011786579921243264,0.021842327385913997,-0.0847972639197121, ,0.0005045024093368085, ,0.0036941996365060506,0.0026007072976198557,-0.009857082883939423,0.011022385011959828,-0.007264071751576067,-0.004927997991653986, ,0.010843102525712193, ,0.013200743036224255, ,5.1959442111250375e-05, ,0.18285886899588794,-0.24464073198968403,0.09531101854000001,1.67961644731104,0.46784337519686814,-1.2853518406520086, ,0.022971905484984453,2.8954222539212275e-05,0.010654723424749164,0.006187790643150956,0.014583533392398458,-0.00945329740603518, ,1.1602740287780762
0.01149608202499735,0.021725680380479964,-0.08451071548399745, ,0.011807285100245377,0.021850681877585917,-0.08484786487145912, ,0.0004755443594327849, ,0.0036941996365060506,0.0026007072976198557,-0.009857082883939423,0.011022385011959828,-0.007264071751576067,-0.004927997991653986, ,0.010843102525712193, ,0.013200743036224255, ,5.252422246871281e-05, ,0.18305966005061777,-0.24462528652393556,0.09539527739,1.67961644731104,0.4679800116966335,-1.2854632585557049, ,0.02589982029434246,0.0004927750984384549,0.010303241604139717,0.006187790643150956,0.011159625117028775,-0.0066613297901682465, ,1.1648950576782227
0.01149608202499735,0.021725680380479964,-0.08451071548399745, ,0.011828096622687554,0.021858845878010826,-0.08489853704319951, ,0.0005276099928867387, ,0.003915029277145503,0.002476380829210344,-0.009506071704761246,0.007681379105386558,-0.013536530057427382,-0.005074909130539567, ,0.010574748957221127, ,0.015564098217713162, ,5.316446723833298e-05, ,0.18305966005061777,-0.24462528652393556,0.09539527739,1.67961644731104,0.4679800116966335,-1.2854632585557049, ,0.02589982029434246,0.0004927750984384549,0.010303241604139717,0.006187790643150956,0.011159625117028775,-0.0066613297901682465, ,1.1682579517364502
0.01149608202499735,0.021725680380479964,-0.08451071548399745, ,0.011849013986005064,0.02186682043756956,-0.08494927993867839, ,0.00058036218495487, ,0.003915029277145503,0.002476380829210344,-0.009506071704761246,0.007681379105386558,-0.013536530057427382,-0.005074909130539567, ,0.010574748957221127, ,0.015564098217713162, ,5.388052955023359e-05, ,0.18305966005061777,-0.24462528652393556,0.09539527739,1.67961644731104,0.4679800116966335,-1.2854632585557049, ,0.02589982029434246,0.0004927750984384549,0.010303241604139717,0.006187790643150956,0.011159625117028775,-0.0066613297901682465, ,1.1715409755706787
0.011548205437600628,0.021760429454828457,-0.08464870777853525, ,0.011870036688823627,0.021874606604374663,-0.08500009306258297, ,0.000489983054388158, ,0.004352802812474946,0.0030119197290172034,-0.011815917166768096,0.012532855971111813,-0.006750601467965406,-0.004726685309557839, ,0.012947372369336484, ,0.014235268478289872, ,5.445616508530542e-05, ,0.18339173756420943,-0.24460984105818712,0.09554435074,1.67961644731104,0.4682532846961644,-1.2856044156229571, ,0.02665644425799741,0.0011260798302301592,0.012743049216000004,0.006187790643150956,0.0188968997559044,-0.011875409562899956, ,1.1748180389404297
0.011548205437600628,0.021760429454828457,-0.08464870777853525, ,0.011891164230958061,0.02188220542427232,-0.08505097592054185, ,0.0005424663849019766, ,0.004352802812474946,0.0030119197290172034,-0.011815917166768096,0.012532855971111813,-0.006750601467965406,-0.004726685309557839, ,0.012947372369336484, ,0.014235268478289872, ,5.510714714946663e-05, ,0.18339173756420943,-0.24460984105818712,0.09554435074,1.67961644731104,0.4682532846961644,-1.2856044156229571, ,0.02665644425799741,0.0011260798302301592,0.012743049216000004,0.006187790643150956,0.0188968997559044,-0.011875409562899956, ,1.1781480312347412
0.011548205437600628,0.021760429454828457,-0.08464870777853525, ,0.011912396113411248,0.021889617940844326,-0.0851019280191239, ,0.0005955947445584978, ,0.004352802812474946,0.0030119197290172034,-0.011815917166768096,0.012532855971111813,-0.006750601467965406,-0.004726685309557839, ,0.012947372369336484, ,0.014235268478289872, ,5.583376458997496e-05, ,0.18339173756420943,-0.24460984105818712,0.09554435074,1.67961644731104,0.4682532846961644,-1.2856044156229571, ,0.02665644425799741,0.0011260798302301592,0.012743049216000004,0.006187790643150956,0.0188968997559044,-0.011875409562899956, ,1.1814520359039307
0.011593072322801745,0.02179229733473656,-0.08477844886711612, ,0.01193373183837291,0.021896845195410027,-0.08515294886583878, ,0.0005169423659982344, ,0.0047333789064952295,0.0033914402694077243,-0.013710393766547785,0.02140095844541182,0.005695296147477896,-0.00394613772804805, ,0.014895692001622706, ,0.022145810803376822, ,5.643865240612164e-05, ,0.1836697559476815,-0.24458667285956445,0.09568435006,1.67961644731104,0.46866319419546076,-1.285856990593906, ,0.0282683769909058,0.0023732318775745716,0.014762568600556072,0.006068167330793036,0.033347622670248024,-0.021503895476042156, ,1.1846859455108643
0.011593072322801745,0.02179229733473656,-0.08477844886711612, ,0.0119551709092185,0.021903888227028264,-0.08520403796913517, ,0.000569819267210975, ,0.0047333789064952295,0.0033914402694077243,-0.013710393766547785,0.02140095844541182,0.005695296147477896,-0.00394613772804805, ,0.014895692001622706, ,0.022145810803376822, ,5.711862556445309e-05, ,0.1836697559476815,-0.24458667285956445,0.09568435006,1.67961644731104,0.46866319419546076,-1.285856990593906, ,0.0282683769909058,0.0023732318775745716,0.014762568600556072,0.006068167330793036,0.033347622670248024,-0.021503895476042156, ,1.1879611015319824
0.011593072322801745,0.02179229733473656,-0.08477844886711612, ,0.011976712830508014,0.021910748072499476,-0.08525519483840079, ,0.0006232955459217247, ,0.0047333789064952295,0.0033914402694077243,-0.013710393766547785,0.02140095844541182,0.005695296147477896,-0.00394613772804805, ,0.014895692001622706, ,0.022145810803376822, ,5.7873904933581906e-05, ,0.1836697559476815,-0.24458667285956445,0.09568435006,1.67961644731104,0.46866319419546076,-1.285856990593906, ,0.0282683769909058,0.0023732318775745716,0.014762568600556072,0.006068167330793036,0.033347622670248024,-0.021503895476042156, ,1.1912510395050049
0.011643504425252377,0.02182825822201902,-0.0849244293266361, ,0.011998357107985,0.02191742576636751,-0.08530641898396131, ,0.0005289493129885969, ,0.005251469864417721,0.0038551858925542208,-0.01542890569324926,0.017985823672221353,-0.0019583550405718507,-0.004122623696131016, ,0.01674788120611727, ,0.018092101406489057, ,5.8485149760684614e-05, ,0.18396321979690206,-0.24456350466094176,0.09584120115000001,1.67961644731104,0.4689364671949916,-1.2859981476611584, ,0.02986998475243021,0.0020684647577796297,0.016575246118626433,0.005708124443400467,0.027216450076131073,-0.018088904526044104, ,1.1945750713348389
0.011643504425252377,0.02182825822201902,-0.0849244293266361, ,0.01202010324857501,0.02192392234092162,-0.08535770991708028, ,0.0005819882880514469, ,0.005251469864417721,0.0038551858925542208,-0.01542890569324926,0.017985823672221353,-0.0019583550405718507,-0.004122623696131016, ,0.01674788120611727, ,0.018092101406489057, ,5.9171017000404495e-05, ,0.18396321979690206,-0.24456350466094176,0.09584120115000001,1.67961644731104,0.4689364671949916,-1.2859981476611584, ,0.02986998475243021,0.0020684647577796297,0.016575246118626433,0.005708124443400467,0.027216450076131073,-0.018088904526044104, ,1.2020189762115479
0.011643504425252377,0.02182825822201902,-0.0849244293266361, ,0.01204195076038493,0.021930238826198472,-0.08540906714995754, ,0.0006356361737685374, ,0.005251469864417721,0.0038551858925542208,-0.01542890569324926,0.017985823672221353,-0.0019583550405718507,-0.004122623696131016, ,0.01674788120611727, ,0.018092101406489057, ,5.99317436765335e-05, ,0.18434163370773904,-0.24453261372944488,0.09604212610000001,1.6798261372545245,0.4690731036947571,-1.2860278868247141, ,0.03343796390361902,0.003000847917218442,0.017523445016501653,0.003798828278890393,0.012079695630109652,-0.007814636536948794, ,1.2057960033416748
0.011710363144404063,0.021875071301188518,-0.08511174039788702, ,0.01206389915270148,0.02193637624998412,-0.08546049019572953, ,0.0005003722888059387, ,0.005870387175247895,0.003998410943755131,-0.016350923186157152,0.005958605901058018,-0.02074816676315855,-0.0033544066326584507, ,0.017826985855776835, ,0.021586807072689028, ,6.048967447045267e-05, ,0.18434163370773904,-0.24453261372944488,0.09604212610000001,1.6798261372545245,0.4690731036947571,-1.2860278868247141, ,0.03343796390361902,0.003000847917218442,0.017523445016501653,0.003798828278890393,0.012079695630109652,-0.007814636536948794, ,1.209057092666626
0.011710363144404063,0.021875071301188518,-0.08511174039788702, ,0.012085947935990214,0.02194233563781596,-0.08551197856846836, ,0.0005529728925029131, ,0.005870387175247895,0.003998410943755131,-0.016350923186157152,0.005958605901058018,-0.02074816676315855,-0.0033544066326584507, ,0.017826985855776835, ,0.021586807072689028, ,6.112124397858426e-05, ,0.18434163370773904,-0.24453261372944488,0.09604212610000001,1.6798261372545245,0.4690731036947571,-1.2860278868247141, ,0.03343796390361902,0.003000847917218442,0.017523445016501653,0.003798828278890393,0.012079695630109652,-0.007814636536948794, ,1.2123630046844482
0.01176389690954787,0.021911385310988324,-0.08525635948370046, ,0.012108096621894332,0.02194811801298452,-0.08556353178318074, ,0.00046279320969881585, ,0.005870387175247895,0.003998410943755131,-0.016350923186157152,0.005958605901058018,-0.02074816676315855,-0.0033544066326584507, ,0.017826985855776835, ,0.021586807072689028, ,6.161767360211436e-05, ,0.18465826575558225,-0.24451716826369643,0.09619768090000001,1.6798261372545245,0.4692097401945225,-1.28605762598827, ,0.03367528089370858,0.0021381541459744207,0.014533587153284672,0.003798828278890393,0.007980596260862014,-0.0015475557631365712, ,1.2158660888671875
0.01176389690954787,0.021911385310988324,-0.08525635948370046, ,0.01213034472323356,0.021953724396535805,-0.08561514935580801, ,0.0005145937918853774, ,0.005400348906197909,0.0033486119289210295,-0.013486234701476951,0.000556087131160564,-0.025034714434355346,-0.0024196127530870084, ,0.014908235864196215, ,0.025040880846832, ,6.227702748607834e-05, ,0.18465826575558225,-0.24451716826369643,0.09619768090000001,1.6798261372545245,0.4692097401945225,-1.28605762598827, ,0.03367528089370858,0.0021381541459744207,0.014533587153284672,0.003798828278890393,0.007980596260862014,-0.0015475557631365712, ,1.2178499698638916
0.01176389690954787,0.021911385310988324,-0.08525635948370046, ,0.012152691754002907,0.021959155807272892,-0.08566683080322464, ,0.0005673888926847369, ,0.005400348906197909,0.0033486119289210295,-0.013486234701476951,0.000556087131160564,-0.025034714434355346,-0.0024196127530870084, ,0.014908235864196215, ,0.025040880846832, ,6.301120170875081e-05, ,0.18465826575558225,-0.24451716826369643,0.09619768090000001,1.6798261372545245,0.4692097401945225,-1.28605762598827, ,0.03367528089370858,0.0021381541459744207,0.014533587153284672,0.003798828278890393,0.007980596260862014,-0.0015475557631365712, ,1.219541072845459
0.01176389690954787,0.021911385310988324,-0.08525635948370046, ,0.012175137229371542,0.021964413261758044,-0.08571857564323862, ,0.0006209463280749141, ,0.005400348906197909,0.0033486119289210295,-0.013486234701476951,0.000556087131160564,-0.025034714434355346,-0.0024196127530870084, ,0.014908235864196215, ,0.025040880846832, ,6.382097692844044e-05, ,0.18465826575558225,-0.24451716826369643,0.09619768090000001,1.6798261372545245,0.4692097401945225,-1.28605762598827, ,0.03367528089370858,0.0021381541459744207,0.014533587153284672,0.003798828278890393,0.007980596260862014,-0.0015475557631365712, ,1.2212300300598145
0.01176389690954787,0.021911385310988324,-0.08525635948370046, ,0.012197680665681797,0.021969497774314742,-0.08577038339458995, ,0.0006751044263265126, ,0.005400348906197909,0.0033486119289210295,-0.013486234701476951,0.000556087131160564,-0.025034714434355346,-0.0024196127530870084, ,0.014908235864196215, ,0.025040880846832, ,6.470689497104636e-05, ,0.18465826575558225,-0.24451716826369643,0.09619768090000001,1.6798261372545245,0.4692097401945225,-1.28605762598827, ,0.03367528089370858,0.0021381541459744207,0.014533587153284672,0.003798828278890393,0.007980596260862014,-0.0015475557631365712, ,1.2228989601135254
0.01176389690954787,0.021911385310988324,-0.08525635948370046, ,0.012220321580447682,0.02197441035702959,-0.08582225357695045, ,0.0007297477382011757, ,0.005400348906197909,0.0033486119289210295,-0.013486234701476951,0.000556087131160564,-0.025034714434355346,-0.0024196127530870084, ,0.014908235864196215, ,0.025040880846832, ,6.56693274503953e-05, ,0.18465826575558225,-0.24451716826369643,0.09619768090000001,1.6798261372545245,0.4692097401945225,-1.28605762598827, ,0.03367528089370858,0.0021381541459744207,0.014533587153284672,0.003798828278890393,0.007980596260862014,-0.0015475557631365712, ,1.2246949672698975
0.011816909590989681,0.021940252341019456,-0.0853843517182799, ,0.012243059492354172,0.021979152019754096,-0.08587418571092278, ,0.0006504262170201075, ,0.0056827846797065885,0.002848203192192624,-0.013454985635398911,0.017716909482149663,-0.0011993209629589689,-0.0019892479638619356, ,0.014880959027855538, ,0.017757443830507248, ,6.651435185728796e-05, ,0.18502895693354504,-0.24446310913357686,0.09633638393,1.6798261372545245,0.4696196496938188,-1.2863102009592187, ,0.039722453561519794,0.007888104203135349,0.014533587153284672,0.003798451765027544,0.03861451655684879,-0.023390921312920115, ,1.2264001369476318
0.011816909590989681,0.021940252341019456,-0.0853843517182799, ,0.012265893921255554,0.021983723770107082,-0.0859261793180402, ,0.0007050204549041212, ,0.0056827846797065885,0.002848203192192624,-0.013454985635398911,0.017716909482149663,-0.0011993209629589689,-0.0019892479638619356, ,0.014880959027855538, ,0.017757443830507248, ,0.0003708964439694237, ,0.18502895693354504,-0.24446310913357686,0.09633638393,1.6798261372545245,0.4696196496938188,-1.2863102009592187, ,0.039722453561519794,0.007888104203135349,0.014533587153284672,0.003798451765027544,0.03861451655684879,-0.023390921312920115, ,1.2280941009521484
0.011816909590989681,0.021940252341019456,-0.0853843517182799, ,0.012288824388174798,0.021988126613476103,-0.0859782339207658, ,0.0007600602556343929, ,0.0056827846797065885,0.002848203192192624,-0.013454985635398911,0.017716909482149663,-0.0011993209629589689,-0.0019892479638619356, ,0.014880959027855538, ,0.017757443830507248, ,0.0003739607259510376, ,0.18502895693354504,-0.24446310913357686,0.09633638393,1.6798261372545245,0.4696196496938188,-1.2863102009592187, ,0.039722453561519794,0.007888104203135349,0.014533587153284672,0.003798451765027544,0.03861451655684879,-0.023390921312920115, ,1.2297821044921875
0.011816909590989681,0.021940252341019456,-0.0853843517182799, ,0.0123118504153019,0.021992361553019823,-0.08603034904249136, ,0.0008154718465002465, ,0.0056827846797065885,0.002848203192192624,-0.013454985635398911,0.017716909482149663,-0.0011993209629589689,-0.0019892479638619356, ,0.014880959027855538, ,0.017757443830507248, ,0.0003774100315803283, ,0.18502895693354504,-0.24446310913357686,0.09633638393,1.6798261372545245,0.4696196496938188,-1.2863102009592187, ,0.039722453561519794,0.007888104203135349,0.014533587153284672,0.003798451765027544,0.03861451655684879,-0.023390921312920115, ,1.2314441204071045
0.011816909590989681,0.021940252341019456,-0.0853843517182799, ,0.012334971525993091,0.021996429589669953,-0.08608252420753745, ,0.0008711996766077787, ,0.0056827846797065885,0.002848203192192624,-0.013454985635398911,0.017716909482149663,-0.0011993209629589689,-0.0019892479638619356, ,0.014880959027855538, ,0.017757443830507248, ,0.00038123785828596745, ,0.18502895693354504,-0.24446310913357686,0.09633638393,1.6798261372545245,0.4696196496938188,-1.2863102009592187, ,0.039722453561519794,0.007888104203135349,0.014533587153284672,0.003798451765027544,0.03861451655684879,-0.023390921312920115, ,1.2330830097198486
0.011816909590989681,0.021940252341019456,-0.0853843517182799, ,0.012358187244769572,0.02200033172213285,-0.08613475894115212, ,0.0009272011813275601, ,0.0056827846797065885,0.002848203192192624,-0.013454985635398911,0.017716909482149663,-0.0011993209629589689,-0.0019892479638619356, ,0.014880959027855538, ,0.017757443830507248, ,0.0003854375761555182, ,0.18502895693354504,-0.24446310913357686,0.09633638393,1.6798261372545245,0.4696196496938188,-1.2863102009592187, ,0.039722453561519794,0.007888104203135349,0.014533587153284672,0.003798451765027544,0.03861451655684879,-0.023390921312920115, ,1.234833002090454
0.011882420637086647,0.02197638047426126,-0.08555299414952491, ,0.012381497097316348,0.022004068946891917,-0.0861870527695111, ,0.0008073873285176121, ,0.0072142046023982,0.004187054093416764,-0.01917457172166109,0.05501356617244996,0.03469181618943597,-0.0012825612744075047, ,0.02091029341581764, ,0.06503854227741994, ,0.00038865856663156464, ,0.1854923209059985,-0.24437043633908617,0.09651916082,1.6798261372545245,0.47043946869241143,-1.2869787083813973, ,0.04911849977146521,0.009659638444377977,0.02074064,0.0035975366927017724,0.08500275667357934,-0.06121742066591089, ,1.2385399341583252
0.011882420637086647,0.02197638047426126,-0.08555299414952491, ,0.012404900610480966,0.022007642258209306,-0.08623940521971604, ,0.0008632049461250054, ,0.0072142046023982,0.004187054093416764,-0.01917457172166109,0.05501356617244996,0.03469181618943597,-0.0012825612744075047, ,0.02091029341581764, ,0.06503854227741994, ,0.00039225361496106044, ,0.1854923209059985,-0.24437043633908617,0.09651916082,1.6798261372545245,0.47043946869241143,-1.2869787083813973, ,0.04911849977146521,0.009659638444377977,0.02074064,0.0035975366927017724,0.08500275667357934,-0.06121742066591089, ,1.2402689456939697
0.011882420637086647,0.02197638047426126,-0.08555299414952491, ,0.012428397312272563,0.02201105264812804,-0.08629181581979488, ,0.0009193204827198275, ,0.0072142046023982,0.004187054093416764,-0.01917457172166109,0.05501356617244996,0.03469181618943597,-0.0012825612744075047, ,0.02091029341581764, ,0.06503854227741994, ,0.0003962165237412016, ,0.1854923209059985,-0.24437043633908617,0.09651916082,1.6798261372545245,0.47043946869241143,-1.2869787083813973, ,0.04911849977146521,0.009659638444377977,0.02074064,0.0035975366927017724,0.08500275667357934,-0.06121742066591089, ,1.2421159744262695
0.011882420637086647,0.02197638047426126,-0.08555299414952491, ,0.01245198673186063,0.02201430110647382,-0.08634428409870037, ,0.0009756963125530347, ,0.0072142046023982,0.004187054093416764,-0.01917457172166109,0.05501356617244996,0.03469181618943597,-0.0012825612744075047, ,0.02091029341581764, ,0.06503854227741994, ,0.0004005409997771108, ,0.1854923209059985,-0.24437043633908617,0.09651916082,1.6798261372545245,0.47043946869241143,-1.2869787083813973, ,0.04911849977146521,0.009659638444377977,0.02074064,0.0035975366927017724,0.08500275667357934,-0.06121742066591089, ,1.244157075881958
0.011959238020056707,0.022022546233945752,-0.08576169332394962, ,0.0124756683995738,0.02201738862085706,-0.08639680958630999, ,0.0008185961181043761, ,0.0072142046023982,0.004187054093416764,-0.01917457172166109,0.05501356617244996,0.03469181618943597,-0.0012825612744075047, ,0.02091029341581764, ,0.06503854227741994, ,0.00040363770435731275, ,0.18597113034420043,-0.24427776354459546,0.09674341899000001,1.6798261372545245,0.4709860146914732,-1.2874243799961829, ,0.051240249221636495,0.010154090717339448,0.02624186411861615,0.003433910920573623,0.052864732342377534,-0.03525399806136475, ,1.2461330890655518
0.011959238020056707,0.022022546233945752,-0.08576169332394962, ,0.012499441846898718,0.022020316176675,-0.08644939181342542, ,0.0008745023499782558, ,0.008684821351779852,0.005474709260061634,-0.024486595021944304,0.027653775350205592,0.0011329713708059567,-0.0018901253065468065, ,0.026551683546683878, ,0.027676815424066293, ,0.00040709994439864323, ,0.18597113034420043,-0.24427776354459546,0.09674341899000001,1.6798261372545245,0.4709860146914732,-1.2874243799961829, ,0.051240249221636495,0.010154090717339448,0.02624186411861615,0.003433910920573623,0.052864732342377534,-0.03525399806136475, ,1.2480931282043457
0.011959238020056707,0.022022546233945752,-0.08576169332394962, ,0.012523306606478999,0.022023084757113287,-0.08650203031177137, ,0.0009307376191669838, ,0.008684821351779852,0.005474709260061634,-0.024486595021944304,0.027653775350205592,0.0011329713708059567,-0.0018901253065468065, ,0.026551683546683878, ,0.027676815424066293, ,0.00041092211720717125, ,0.18597113034420043,-0.24427776354459546,0.09674341899000001,1.6798261372545245,0.4709860146914732,-1.2874243799961829, ,0.051240249221636495,0.010154090717339448,0.02624186411861615,0.003433910920573623,0.052864732342377534,-0.03525399806136475, ,1.2498140335083008
0.011959238020056707,0.022022546233945752,-0.08576169332394962, ,0.012547262212113858,0.02202569534314853,-0.08655472461399469, ,0.0009872593348881466, ,0.008684821351779852,0.005474709260061634,-0.024486595021944304,0.027653775350205592,0.0011329713708059567,-0.0018901253065468065, ,0.026551683546683878, ,0.027676815424066293, ,0.0004150984738570334, ,0.18597113034420043,-0.24427776354459546,0.09674341899000001,1.6798261372545245,0.4709860146914732,-1.2874243799961829, ,0.051240249221636495,0.010154090717339448,0.02624186411861615,0.003433910920573623,0.052864732342377534,-0.03525399806136475, ,1.2515909671783447
0.011959238020056707,0.022022546233945752,-0.08576169332394962, ,0.012571308198757212,0.022028148913549504,-0.08660747425366493, ,0.0010440338475084527, ,0.008684821351779852,0.005474709260061634,-0.024486595021944304,0.027653775350205592,0.0011329713708059567,-0.0018901253065468065, ,0.026551683546683878, ,0.027676815424066293, ,0.0004196231887753889, ,0.18597113034420043,-0.24427776354459546,0.09674341899000001,1.6798261372545245,0.4709860146914732,-1.2874243799961829, ,0.051240249221636495,0.010154090717339448,0.02624186411861615,0.003433910920573623,0.052864732342377534,-0.03525399806136475, ,1.2532460689544678
0.011959238020056707,0.022022546233945752,-0.08576169332394962, ,0.012595444102516382,0.022030446444879895,-0.0866602787652726, ,0.0011010342356389809, ,0.008684821351779852,0.005474709260061634,-0.024486595021944304,0.027653775350205592,0.0011329713708059567,-0.0018901253065468065, ,0.026551683546683878, ,0.027676815424066293, ,0.0004244904105387003, ,0.18597113034420043,-0.24427776354459546,0.09674341899000001,1.6798261372545245,0.4709860146914732,-1.2874243799961829, ,0.051240249221636495,0.010154090717339448,0.02624186411861615,0.003433910920573623,0.052864732342377534,-0.03525399806136475, ,1.254884958267212
0.012057879440246912,0.022084900928752687,-0.0860392371703044, ,0.012619669460650804,0.022032588911499732,-0.08671313768422881, ,0.0008789120984729131, ,0.009775724745520383,0.005953989003978843,-0.02687371182981523,0.0037364743790783807,-0.030201057111887673,-0.002669814551891124, ,0.029209778617299235, ,0.03043108731220482, ,0.00042771325938929756, ,0.1865348898440188,-0.24416964528435633,0.0970402694,1.6798261372545245,0.47139592419076953,-1.2877586337072722, ,0.055592818722009836,0.01145268423346256,0.0287005612972973,0.003266250693266706,0.025287131136204545,-0.01341122523488692, ,1.2566239833831787
0.012057879440246912,0.022084900928752687,-0.0860392371703044, ,0.012643983811571198,0.022034577285567458,-0.08676605054686494, ,0.0009350446446540418, ,0.009775724745520383,0.005953989003978843,-0.02687371182981523,0.0037364743790783807,-0.030201057111887673,-0.002669814551891124, ,0.029209778617299235, ,0.03043108731220482, ,0.0004312860156235563, ,0.1865348898440188,-0.24416964528435633,0.0970402694,1.6798261372545245,0.47139592419076953,-1.2877586337072722, ,0.055592818722009836,0.01145268423346256,0.0287005612972973,0.003266250693266706,0.025287131136204545,-0.01341122523488692, ,1.2582850456237793
0.012057879440246912,0.022084900928752687,-0.0860392371703044, ,0.012668386694838215,0.022036412537042097,-0.08681901689043156, ,0.0009915274297571813, ,0.009775724745520383,0.005953989003978843,-0.02687371182981523,0.0037364743790783807,-0.030201057111887673,-0.002669814551891124, ,0.029209778617299235, ,0.03043108731220482, ,0.0004352037877503649, ,0.1865348898440188,-0.24416964528435633,0.0970402694,1.6798261372545245,0.47139592419076953,-1.2877586337072722, ,0.055592818722009836,0.01145268423346256,0.0287005612972973,0.003266250693266706,0.025287131136204545,-0.01341122523488692, ,1.2599430084228516
0.012057879440246912,0.022084900928752687,-0.0860392371703044, ,0.012692877651161194,0.022038095633684928,-0.08687203625309801, ,0.0010483166390993727, ,0.009775724745520383,0.005953989003978843,-0.02687371182981523,0.0037364743790783807,-0.030201057111887673,-0.002669814551891124, ,0.029209778617299235, ,0.03043108731220482, ,0.000439461515884733, ,0.1865348898440188,-0.24416964528435633,0.0970402694,1.6798261372545245,0.47139592419076953,-1.2877586337072722, ,0.055592818722009836,0.01145268423346256,0.0287005612972973,0.003266250693266706,0.025287131136204545,-0.01341122523488692, ,1.2616939544677734
0.012057879440246912,0.022084900928752687,-0.0860392371703044, ,0.012717456222397281,0.022039627541061774,-0.08692510817395181, ,0.001105377151151642, ,0.009775724745520383,0.005953989003978843,-0.02687371182981523,0.0037364743790783807,-0.030201057111887673,-0.002669814551891124, ,0.029209778617299235, ,0.03043108731220482, ,0.00044405403750726334, ,0.1865348898440188,-0.24416964528435633,0.0970402694,1.6798261372545245,0.47139592419076953,-1.2877586337072722, ,0.055592818722009836,0.01145268423346256,0.0287005612972973,0.003266250693266706,0.025287131136204545,-0.01341122523488692, ,1.2633650302886963
0.012057879440246912,0.022084900928752687,-0.0860392371703044, ,0.012742121951549995,0.02204100922254472,-0.0869782321929974, ,0.0011626805015955246, ,0.009775724745520383,0.005953989003978843,-0.02687371182981523,0.0037364743790783807,-0.030201057111887673,-0.002669814551891124, ,0.029209778617299235, ,0.03043108731220482, ,0.000448976136576361, ,0.1865348898440188,-0.24416964528435633,0.0970402694,1.6798261372545245,0.47139592419076953,-1.2877586337072722, ,0.055592818722009836,0.01145268423346256,0.0287005612972973,0.003266250693266706,0.025287131136204545,-0.01341122523488692, ,1.2650139331817627
0.012159466469463094,0.022145716231268583,-0.0863323744866577, ,0.012766874382768247,0.022042241639314005,-0.08703140785115689, ,0.000931825632298733, ,0.010532963115333749,0.006039030257517229,-0.03128359749793243,0.04243156755987525,0.01443526691367114,-0.0015370954923483232, ,0.033557065885634785, ,0.044819470027930866, ,0.00045226082702345206, ,0.1871063720767114,-0.24399202242824916,0.09735267529000001,1.6800358271980091,0.47194247018983126,-1.2880409478417767, ,0.05901551091944699,0.022697187648522073,0.03325430379958247,-0.0018142180709828633,0.07558077447646167,-0.06309410874040818, ,1.2666630744934082
0.012159466469463094,0.022145716231268583,-0.0863323744866577, ,0.012791713061345144,0.022043325750360273,-0.08708463469026761, ,0.0009879853123717617, ,0.010532963115333749,0.006039030257517229,-0.03128359749793243,0.04243156755987525,0.01443526691367114,-0.0015370954923483232, ,0.033557065885634785, ,0.044819470027930866, ,0.0004558805870595893, ,0.1871063720767114,-0.24399202242824916,0.09735267529000001,1.6800358271980091,0.47194247018983126,-1.2880409478417767, ,0.05901551091944699,0.022697187648522073,0.03325430379958247,-0.0018142180709828633,0.07558077447646167,-0.06309410874040818, ,1.2683439254760742
0.012159466469463094,0.022145716231268583,-0.0863323744866577, ,0.01281663753371683,0.02204426251248646,-0.08713791225308297, ,0.001044537102205812, ,0.010532963115333749,0.006039030257517229,-0.03128359749793243,0.04243156755987525,0.01443526691367114,-0.0015370954923483232, ,0.033557065885634785, ,0.044819470027930866, ,0.00045983130192634244, ,0.1871063720767114,-0.24399202242824916,0.09735267529000001,1.6800358271980091,0.47194247018983126,-1.2880409478417767, ,0.05901551091944699,0.022697187648522073,0.03325430379958247,-0.0018142180709828633,0.07558077447646167,-0.06309410874040818, ,1.2700049877166748
0.012159466469463094,0.022145716231268583,-0.0863323744866577, ,0.012841647347461316,0.022045052880309515,-0.087191240083271, ,0.001101432691351884, ,0.010532963115333749,0.006039030257517229,-0.03128359749793243,0.04243156755987525,0.01443526691367114,-0.0015370954923483232, ,0.033557065885634785, ,0.044819470027930866, ,0.0004641086445225127, ,0.1871063720767114,-0.24399202242824916,0.09735267529000001,1.6800358271980091,0.47194247018983126,-1.2880409478417767, ,0.05901551091944699,0.022697187648522073,0.03325430379958247,-0.0018142180709828633,0.07558077447646167,-0.06309410874040818, ,1.2716519832611084
0.012159466469463094,0.022145716231268583,-0.0863323744866577, ,0.01286674205129729,0.02204569780626257,-0.08724461772541382, ,0.00115863288433215, ,0.010532963115333749,0.006039030257517229,-0.03128359749793243,0.04243156755987525,0.01443526691367114,-0.0015370954923483232, ,0.033557065885634785, ,0.044819470027930866, ,0.00046870814279939777, ,0.1871063720767114,-0.24399202242824916,0.09735267529000001,1.6800358271980091,0.47194247018983126,-1.2880409478417767, ,0.05901551091944699,0.022697187648522073,0.03325430379958247,-0.0018142180709828633,0.07558077447646167,-0.06309410874040818, ,1.2733449935913086
0.012159466469463094,0.022145716231268583,-0.0863323744866577, ,0.01289192119508308,0.022046198240597087,-0.08729804472500728, ,0.001216105573042272, ,0.010532963115333749,0.006039030257517229,-0.03128359749793243,0.04243156755987525,0.01443526691367114,-0.0015370954923483232, ,0.033557065885634785, ,0.044819470027930866, ,0.00047362523115625877, ,0.1871063720767114,-0.24399202242824916,0.09735267529000001,1.6800358271980091,0.47194247018983126,-1.2880409478417767, ,0.05901551091944699,0.022697187648522073,0.03325430379958247,-0.0018142180709828633,0.07558077447646167,-0.06309410874040818, ,1.2750029563903809
0.012275534774473776,0.022212162646272997,-0.0866805452182116, ,0.012917184329815427,0.0220465551313843,-0.08735152062846016, ,0.0009430524916546124, ,0.012080343662759962,0.006632690640173202,-0.03510832073511838,0.06075226669458436,0.029300139783648604,-0.002010782373031101, ,0.03771632899658408, ,0.06744837107155335, ,0.00047669338318565973, ,0.18777052710389472,-0.24372944951052553,0.09772341423000001,1.6800358271980091,0.47303556218795484,-1.288932291071348, ,0.0701900455314133,0.027090191709526344,0.03739157633802818,-0.0018142180709828633,0.10219916839100857,-0.08504745587861101, ,1.2766499519348145
0.012275534774473776,0.022212162646272997,-0.0866805452182116, ,0.012942531007628377,0.022046769424517748,-0.08740504498309314, ,0.0009985683763060044, ,0.012080343662759962,0.006632690640173202,-0.03510832073511838,0.06075226669458436,0.029300139783648604,-0.002010782373031101, ,0.03771632899658408, ,0.06744837107155335, ,0.00048008218184228537, ,0.18777052710389472,-0.24372944951052553,0.09772341423000001,1.6800358271980091,0.47303556218795484,-1.288932291071348, ,0.0701900455314133,0.027090191709526344,0.03739157633802818,-0.0018142180709828633,0.10219916839100857,-0.08504745587861101, ,1.2784011363983154
0.012275534774473776,0.022212162646272997,-0.0866805452182116, ,0.012967960781791901,0.022046842063714777,-0.0874586173371387, ,0.0010545998733546332, ,0.012080343662759962,0.006632690640173202,-0.03510832073511838,0.06075226669458436,0.029300139783648604,-0.002010782373031101, ,0.03771632899658408, ,0.06744837107155335, ,0.0004837887475939779, ,0.18777052710389472,-0.24372944951052553,0.09772341423000001,1.6800358271980091,0.47303556218795484,-1.288932291071348, ,0.0701900455314133,0.027090191709526344,0.03739157633802818,-0.0018142180709828633,0.10219916839100857,-0.08504745587861101, ,1.2801110744476318
0.012275534774473776,0.022212162646272997,-0.0866805452182116, ,0.012993473206711157,0.02204677399051886,-0.0875122372397403, ,0.0011110808335175852, ,0.012080343662759962,0.006632690640173202,-0.03510832073511838,0.06075226669458436,0.029300139783648604,-0.002010782373031101, ,0.03771632899658408, ,0.06744837107155335, ,0.00048780985070887283, ,0.18777052710389472,-0.24372944951052553,0.09772341423000001,1.6800358271980091,0.47303556218795484,-1.288932291071348, ,0.0701900455314133,0.027090191709526344,0.03739157633802818,-0.0018142180709828633,0.10219916839100857,-0.08504745587861101, ,1.281872034072876
0.012390325810005369,0.022268814782854134,-0.08699733115549192, ,0.01301906783792504,0.022046566144301352,-0.08756590424095168, ,0.0008763483031993213, ,0.012807718855398718,0.005972830150902279,-0.03405288037053806,0.04964118766327111,0.009646597920628216,0.0008038850347032788, ,0.036868835400926885, ,0.05056934421374151, ,0.0004902846179221878, ,0.18845785032970072,-0.24345915385992767,0.09806044963,1.6798261372545245,0.47385538118654746,-1.289519119753386, ,0.07914674024893309,0.031154609835348256,0.03628430870159454,-0.006457724419488539,0.09233609015065691,-0.07916033918440042, ,1.2883009910583496
0.012390325810005369,0.022268814782854134,-0.08699733115549192, ,0.013044744232104912,0.02204621946226354,-0.08761961789173625, ,0.0009300822168161828, ,0.012807718855398718,0.005972830150902279,-0.03405288037053806,0.04964118766327111,0.009646597920628216,0.0008038850347032788, ,0.036868835400926885, ,0.05056934421374151, ,0.0004930681470291119, ,0.18845785032970072,-0.24345915385992767,0.09806044963,1.6798261372545245,0.47385538118654746,-1.289519119753386, ,0.07914674024893309,0.031154609835348256,0.03628430870159454,-0.006457724419488539,0.09233609015065691,-0.07916033918440042, ,1.2900240421295166
0.012390325810005369,0.022268814782854134,-0.08699733115549192, ,0.013070501947054,0.02204573487943847,-0.08767337774396627, ,0.0009846030725658686, ,0.012807718855398718,0.005972830150902279,-0.03405288037053806,0.04964118766327111,0.009646597920628216,0.0008038850347032788, ,0.036868835400926885, ,0.05056934421374151, ,0.0004961595616551292, ,0.18845785032970072,-0.24345915385992767,0.09806044963,1.6798261372545245,0.47385538118654746,-1.289519119753386, ,0.07914674024893309,0.031154609835348256,0.03628430870159454,-0.006457724419488539,0.09233609015065691,-0.07916033918440042, ,1.2917499542236328
0.012390325810005369,0.022268814782854134,-0.08699733115549192, ,0.013096340541705382,0.022045113328693175,-0.0877271833504225, ,0.0010397996770609933, ,0.012807718855398718,0.005972830150902279,-0.03405288037053806,0.04964118766327111,0.009646597920628216,0.0008038850347032788, ,0.036868835400926885, ,0.05056934421374151, ,0.0004995573123764159, ,0.18845785032970072,-0.24345915385992767,0.09806044963,1.6798261372545245,0.47385538118654746,-1.289519119753386, ,0.07914674024893309,0.031154609835348256,0.03628430870159454,-0.006457724419488539,0.09233609015065691,-0.07916033918440042, ,1.2934379577636719
0.012390325810005369,0.022268814782854134,-0.08699733115549192, ,0.013122259576121759,0.022044355740730413,-0.08778103426479322, ,0.0010955817920634437, ,0.012807718855398718,0.005972830150902279,-0.03405288037053806,0.04964118766327111,0.009646597920628216,0.0008038850347032788, ,0.036868835400926885, ,0.05056934421374151, ,0.0005032593277781987, ,0.18845785032970072,-0.24345915385992767,0.09806044963,1.6798261372545245,0.47385538118654746,-1.289519119753386, ,0.07914674024893309,0.031154609835348256,0.03628430870159454,-0.006457724419488539,0.09233609015065691,-0.07916033918440042, ,1.2951669692993164
0.012390325810005369,0.022268814782854134,-0.08699733115549192, ,0.013148258611493638,0.022043463044090644,-0.08783493004167403, ,0.001151875614755818, ,0.012807718855398718,0.005972830150902279,-0.03405288037053806,0.04964118766327111,0.009646597920628216,0.0008038850347032788, ,0.036868835400926885, ,0.05056934421374151, ,0.0005072631320188013, ,0.18845785032970072,-0.24345915385992767,0.09806044963,1.6798261372545245,0.47385538118654746,-1.289519119753386, ,0.07914674024893309,0.031154609835348256,0.03628430870159454,-0.006457724419488539,0.09233609015065691,-0.07916033918440042, ,1.296868085861206
