NicholasDascanio/dvrk_moveit_final/test/execution/third_experiment_notsharpbends/thirdexp_700vel4.0/thirdexp_700vel4.0_6.csv
Current Position (x),Current Position (y),Current Position (z), ,Planned Position (x),Planned Position (y),Planned Position (z), ,Position Error,,Cartesian linear Velocity(x),Cartesian linear Velocity(y),Cartesian linear Velocity(z),Cartesian Angular Velocity(x),Cartesian Angular Velocity(y),Cartesian Angular Velocity(z), ,Total Linear Velocity, ,Total Angular Velocity, ,MSE, ,Joint 1 Position,Joint 2 Position,Joint 3 Position,Joint 4 Position,Joint 5 Position,Joint 6 Position, ,Joint 1 Velocity,Joint 2 Velocity,Joint 3 Velocity,Joint 4 Velocity,Joint 5 Velocity,Joint 6 Velocity, ,Time Stamp
0.008938166588286516,0.020646574926471446,-0.0752809936384568, ,0.009099357128773633,0.020597938375595138,-0.0754552744244339, ,0.00024232560076158712, ,2.4204908546361016e-05,-3.381708889251945e-05,-0.00027607910737516484,0.008337068152106688,-0.0008695608661511076,0.0015671043401801214, ,0.0002791937438911733, ,0.008382293330158011, ,2.0193800063465593e-05, ,0.17168407452688508,-0.2604259979845989,0.08593106410000001,1.683181176350277,0.46497400870179384,-1.2598153024744643, ,-0.00027643231866889207,0.0010563154148299512,0.00025873523175971104,-0.005226196791251731,0.0,-0.010739231477329247, ,0.017945051193237305
0.008939999166238924,0.02064665744527034,-0.07529914794327829, ,0.009136784951402847,0.020595123833913712,-0.0756013025975219, ,0.00036424963064238947, ,0.00016128799314247326,2.6180904933396206e-05,-0.0007400893803429358,0.1731691225655384,0.00427594168409228,-0.05993665781268251, ,0.0007579126251827771, ,0.173221905910898, ,2.7571601427453478e-05, ,0.17168407452688508,-0.2603873843202278,0.08594921216000001,1.682761796463308,0.46511064520155926,-1.262458761322518, ,0.00040085794545984807,0.00239544050161385,0.000735329841915736,0.004655364662821027,0.0,-0.183272774689899, ,0.03521013259887695
0.008948772437347461,0.020651679095425063,-0.07533643181359952, ,0.009174245799537363,0.020592314216487943,-0.07574700945363746, ,0.0004721614389248329, ,0.0009767940616555156,0.0008718510202129501,-0.005229260484981085,0.2880913821005388,0.006122888764394254,-0.09821079812227754, ,0.005390678627048403, ,0.28815644050326134, ,3.3710520947775295e-05, ,0.17169951999263353,-0.260325602457234,0.08598680457,1.682761796463308,0.46497400870179384,-1.2642259544420544, ,0.0008828137300999692,0.006931076400221489,0.0053578242583249246,0.004551956097253811,0.0,-0.3084823500721452, ,0.05114316940307617
0.008981168091370863,0.020675868601371997,-0.0754576350145629, ,0.009211739380258054,0.020589509545513543,-0.07589239518922274, ,0.0004996372836949959, ,0.0027448077317717198,0.0018629349847605653,-0.009667789544561396,0.07492732442178272,-0.11507200491868545,-0.05969361631929421, ,0.010221088538887103, ,0.13731595018990325, ,3.7580332238662034e-05, ,0.17171496545838197,-0.26021748419699486,0.08610865583,1.6829714864067924,0.4637442802039049,-1.2678788814967987, ,0.001132030390918144,0.008250708998089917,0.009642137723970946,-0.0030242509676090454,-0.1196775069542013,-0.09594505648336416, ,0.0688931941986084
0.0090498900614813,0.02072170105127024,-0.07572215776848508, ,0.009249265401319833,0.02058670984320184,-0.07603746000110052, ,0.00039672238439969584, ,0.003479857262347935,0.0014756700797597193,-0.011162245147077894,0.3809999034647902,-0.1621009190898247,-0.0959825143006427, ,0.011784851525330207, ,0.4140502798413033, ,3.798262189275964e-05, ,0.17178447005425,-0.25997035674501967,0.08637439528,1.6819230366893698,0.46155809620765786,-1.2745091052721338, ,0.004396943945091675,0.01376315323545624,0.010947636783505157,-0.08113226955456104,-0.1509259684449224,-0.4377026881332704, ,0.08501601219177246
0.00909109545248615,0.020735616766156238,-0.07583246967462584, ,0.009286823571150902,0.020583915131779897,-0.07618220408647396, ,0.0004285289268407018, ,0.0038576088502514545,0.0016703774525602122,-0.011196912155882663,-0.052704353775540655,-0.1784800601356648,-0.061961914730355956, ,0.011960022939029542, ,0.18609911498160467, ,3.876814943974521e-05, ,0.17183852918436957,-0.25980045662178675,0.08648069106,1.6817133467458854,0.45937191221141077,-1.2761569258988947, ,0.004950586901169029,0.016336192383968114,0.010955166107290235,0.018504604651962648,-0.18507348203901194,0.02885136530301613, ,0.10844302177429199
0.009144749199884101,0.020745886298322427,-0.07605308675636789, ,0.009324413598852156,0.02058112543349043,-0.07632662764292567, ,0.00036640149488717034, ,0.0013331350147850888,4.09685764171943e-05,-0.005841198972710228,-0.1437471876692142,0.012536957860695499,0.03016689732968542, ,0.005991538436052189, ,0.14429285938122208, ,3.8472593890991297e-05, ,0.17199298384185405,-0.2591980834575972,0.08669976407,1.6817133467458854,0.45896200271211446,-1.273290631243448, ,0.0035508129725297854,0.02521842720129439,0.005688861257142857,0.00904924919439685,0.05038719696118996,0.11985094757508574, ,0.12488317489624023
0.009147453410339085,0.020739160212841484,-0.07610315488740937, ,0.009362035194196894,0.0205783407705917,-0.07647073086841744, ,0.000454994875557044, ,0.00030687160987215143,-0.0005821588158793545,-0.005640400978347025,0.030978361017778167,0.10812469090210479,0.0033826012649107937, ,0.005678662013924553, ,0.11247491999692479, ,3.9329532142785575e-05, ,0.17203159750622518,-0.2589432332727478,0.08675031938000001,1.6817133467458854,0.460055094710238,-1.2730384721110515, ,0.0032433558050035598,0.026844962251335442,0.005705161719197709,0.007762873810756153,0.11290598396866128,-0.05103465145747389, ,0.1416339874267578
0.009176605585081434,0.020726096626736492,-0.07624836577718484, ,0.00939968806762993,0.020575561165357463,-0.07661451396129013, ,0.0004544130410498727, ,0.0016918729350595125,-0.00044768582921243853,-0.0074448801181034386,0.0287320183136388,0.0048724050494916675,-0.018758449614407056, ,0.007647816459813637, ,0.029142223396137926, ,3.999385518215532e-05, ,0.1721397157664643,-0.2583022464441872,0.08689161499,1.6817133467458854,0.46060164070929976,-1.2728307138047128, ,0.0062600805840876475,0.029935943709296774,0.007263479945280439,-0.001404837623871747,0.010846925452244598,-0.06046333789982329, ,0.1587979793548584
0.009197765715919768,0.020722409363611416,-0.07634000760825413, ,0.009437371930267217,0.020572786640077168,-0.07675797712026215, ,0.0005044765706352945, ,0.002297086795346229,0.00010173495542587336,-0.010077283788494774,0.048226441862825785,-0.002705763496318283,-0.01421175246667252, ,0.010336276229879362, ,0.04830228511077031, ,4.101873771954494e-05, ,0.17220922036233235,-0.25797789166346974,0.08698105900000001,1.6812939668589162,0.46060164070929976,-1.2735658224659776, ,0.007885116951811199,0.03111375133064616,0.009992980878293603,-0.014761649707884973,0.007733260056082499,-0.08461942912597903, ,0.17496418952941895
0.009232863668535995,0.020725166236299268,-0.07649032788081245, ,0.00947508649389522,0.020570017217055554,-0.07690112054442999, ,0.0005014915031975001, ,0.0021903695720375603,-0.00010238911475352405,-0.009922816066648592,0.04374558903276563,-0.008736015647980086,0.0038307690676558366, ,0.01016220847480839, ,0.04460935364949215, ,4.1833953130277534e-05, ,0.1723250613554457,-0.25752997315676474,0.08713013235000001,1.6810842769154317,0.46060164070929976,-1.2746276460878052, ,0.0067028246343728455,0.03193033026866446,0.00977227700613497,-0.03439884420384374,0.0054324517014570015,-0.08433469975930266, ,0.19223809242248535
0.009291862404011381,0.020728287403396516,-0.07673890194881547, ,0.009512831470970387,0.02056725291861281,-0.07704394443326669, ,0.000409646617418551, ,0.0022118588156769,-6.846636275415055e-07,-0.009449291299473802,-0.024707397937397933,-0.00513833708625867,-0.0018783150960717126, ,0.009704711533660502, ,0.02523604456950538, ,4.1762699737783894e-05, ,0.17252585241017554,-0.25675769986934227,0.08737642745,1.6810842769154317,0.46060164070929976,-1.275199397268789, ,0.007619825926609741,0.03051348603166263,0.009342411448680353,-0.004403720513480037,0.003633040490837189,-0.006121871177664067, ,0.2084641456604004
0.009314285869805598,0.020728321497570666,-0.07682933438591481, ,0.009550606574618519,0.02056449376708465,-0.07718644898662202, ,0.00045849518954700755, ,0.00213535940377985,-0.000248514083208231,-0.008321133161395268,4.649485612754644e-05,-0.006634485665610669,-0.009140195450933806, ,0.008594345590127027, ,0.006634645576396751, ,4.207230725421698e-05, ,0.17261080247179203,-0.25646423602012175,0.08746587146000001,1.6810842769154317,0.46060164070929976,-1.2753627547490702, ,0.009088342992005265,0.02984180552153169,0.00818541188078109,-0.004620888939427077,0.00320371614670093,-0.0314092895303719, ,0.225938081741333
0.009352224070637493,0.020716459007496774,-0.0769848407488846, ,0.009588411518634165,0.020561739784821894,-0.07732863440472175, ,0.00044487821507707893, ,0.0018999700114327828,-0.000540047207091479,-0.00731308878203458,0.002064680080157308,-0.011601307443710298,0.00615903184268103, ,0.007575143864254408, ,0.011783599506078506, ,4.224241389178676e-05, ,0.17278070259502495,-0.25584641739018377,0.08761753739000001,1.6804552070849783,0.4608749137088306,-1.2761573417374468, ,0.008241355138530257,0.029082728028952128,0.007111076571428573,-0.02235509411735656,0.001727142437239019,-0.035928410839395804, ,0.24374103546142578
0.009370323224425887,0.02071037259051809,-0.07706070145201772, ,0.009626246017480343,0.020558990994190895,-0.07747050088816686, ,0.0005063086426079561, ,0.0018023789767856737,-0.000761725120572942,-0.007070925321722638,-0.002965679676365347,-0.012696233916680096,0.015264207845596503, ,0.007336673635964, ,0.013038005749882764, ,4.307769149166673e-05, ,0.1728579299237672,-0.2555375080752148,0.08769142592000001,1.6802455171414936,0.4610115502085961,-1.2764321171214246, ,0.00763705395370613,0.030464507723425613,0.006813007493584261,-0.03126830515068315,0.002335968681568271,-0.033601220844843835, ,0.25812506675720215
0.009409903959499644,0.020704155622383154,-0.07721816811957066, ,0.009664109786287524,0.02055624741757302,-0.07761204863793342, ,0.0004915682070361937, ,0.002193239321990142,0.0001730915666443829,-0.009287301043443618,-0.007364831491730037,0.0021521197675072653,-0.036831552713098466, ,0.009544329210872607, ,0.007672828246488756, ,4.372687263923669e-05, ,0.17301238458125168,-0.2549660258425222,0.08784568443000002,1.6800358271980091,0.4610115502085961,-1.2767588320819867, ,0.007274501323626201,0.029163165813912345,0.009228743638470453,0.028588702407370967,0.001986312211752063,-0.017243195798826834, ,0.27713513374328613
0.009454936342466344,0.02070615094285076,-0.07739734297871553, ,0.009702002540853384,0.02055350907736507,-0.07775327785537181, ,0.0004593809768641871, ,0.0022507712351251923,7.464615402744671e-05,-0.009214803728285382,-0.008077741163391985,0.001190982572059854,-0.0005903917005896568, ,0.009485997625553163, ,0.008165064319990487, ,4.411645324936129e-05, ,0.17321317563598151,-0.2544022663427038,0.08802457245,1.6802455171414936,0.46128482320812697,-1.276899989149239, ,0.009433748034390751,0.02831054342436479,0.009180871193083574,-0.007547174755318619,0.012636156521404858,-0.021201150092198112, ,0.2925891876220703
0.009477822311858654,0.020708021596720427,-0.07749556716720746, ,0.009739923997642225,0.020550775995978893,-0.07789418874220602, ,0.0005023172629897281, ,0.0024157787715491813,0.00015817742905456202,-0.00947020153181114,-0.011851803875997114,-0.002250979199826288,-0.0008914934971029854, ,0.009774749317770151, ,0.012063668028465464, ,4.470785315804374e-05, ,0.17331357116334645,-0.2541088024934833,0.08812309049000001,1.6802455171414936,0.46155809620765786,-1.2772045036967725, ,0.010667277999405395,0.02811761231362097,0.009458914204275535,-0.006607802233775422,0.010167903408034994,-0.01705496378117071, ,0.3074641227722168
0.009517507571722539,0.020710936888678123,-0.07765621171963993, ,0.009777873873784287,0.020548048195841436,-0.07803478150053349, ,0.00048748170889700816, ,0.0021951597781613716,0.0002458311705638959,-0.009462952536716744,-0.002340797623124683,0.007600717594402168,0.011716392840302218, ,0.009717336575843824, ,0.007952997270289664, ,4.5162992358442747e-05, ,0.17349119401945362,-0.2536608839867782,0.08828383045,1.67961644731104,0.4618313692071887,-1.2775090182443058, ,0.009146900469046357,0.026338312949894745,0.009492736305125149,-0.019212788673121105,0.02192532479909825,-0.02660166561980596, ,0.3261551856994629
0.009567204926936603,0.020711452434138616,-0.07784913784720954, ,0.009815851887075072,0.020545325699394792,-0.07817505633282441, ,0.000442319185711224, ,0.0021119027260491615,4.602569251325255e-05,-0.007444103583966749,0.0005995267031209764,-0.000685411545985562,-0.04229433203177603, ,0.007738018458073863, ,0.000910603314222068, ,4.534591202418377e-05, ,0.1737074305399319,-0.2530739562883372,0.08847568137,1.6791970674240708,0.4619680057069542,-1.2781105085888456, ,0.009994768595297509,0.024796692333020846,0.007415647821229051,0.03373662257548598,0.0005206046653086177,-0.020249779340387356, ,0.3410379886627197
0.009587048127675786,0.020708759134401934,-0.07792597193675414, ,0.009853857755975186,0.020542608529096142,-0.07831501344192113, ,0.0005001466726264784, ,0.0020351183196980612,-0.00017620995687776,-0.007617030479353642,0.014878206099572903,0.010510083118283981,-0.03912798196323235, ,0.00788618474596404, ,0.018216005002579177, ,4.5794855753007304e-05, ,0.17381554880017103,-0.2527959379048651,0.08855216248000002,1.6791970674240708,0.46224127870648507,-1.27857838061666, ,0.009987258018009633,0.02773142652205458,0.007563538233618236,0.027804682978712216,0.013360604298694498,-0.038405091933204974, ,0.3561410903930664
0.009637710566247166,0.02070882029811812,-0.07810805045275344, ,0.009891891199609409,0.02053989670741744,-0.07845465303103741, ,0.0004618184937231652, ,0.0022567667481950306,9.341316600532602e-05,-0.008724527292677201,0.009978544171450658,0.003128493627904476,-0.0042492503900191, ,0.00901216392749329, ,0.010457474150710806, ,4.602693422004515e-05, ,0.17406267625214622,-0.25220901020642406,0.08873364308000001,1.6794067573675557,0.46237791520625043,-1.2790981922210594, ,0.010712116230809213,0.026128012543631823,0.008732901052631581,-0.0076260737732106905,0.015674552327989963,-0.03767554157361079, ,0.37452101707458496
0.009662031602987986,0.020710118132623554,-0.07819372890477307, ,0.009929951937766133,0.020537190256845837,-0.0785939753037585, ,0.0005117446002738439, ,0.0023485450229053548,6.97105654844269e-05,-0.008752590225517371,0.021831352485138105,0.0016495024712235655,-0.009273986975153909, ,0.009062469803722157, ,0.021893578016534042, ,4.6464163781899136e-05, ,0.1741785172452596,-0.2519541600215746,0.08881919822,1.6794067573675557,0.46237791520625043,-1.279343228441481, ,0.011662399110049255,0.026514931980573,0.008761722508250826,-0.00664383518017372,0.014644939576614734,-0.05037669438948707, ,0.3892359733581543
0.009709523348046856,0.020710582655351886,-0.07837956462590459, ,0.009968039690897039,0.020534489199883234,-0.07873298046404001, ,0.00047195588694758637, ,0.0023406081364494152,4.6530785425657296e-05,-0.008951981424797311,0.009709552445069278,-0.005863359816350247,0.00485440573168656, ,0.009253031016500574, ,0.011342589630638642, ,4.6695967285823676e-05, ,0.17439475376573788,-0.2514058459875047,0.08900456769000001,1.678777687537102,0.4626511882057813,-1.2799744579495766, ,0.010597090067947602,0.026566892933502458,0.00892870600896861,-0.019865374581371394,0.009308394173418942,-0.04042917249590122, ,0.4078941345214844
0.009756676212573225,0.02070843209190953,-0.07854099269393938, ,0.010006154180116321,0.02053179355904643,-0.07887166871620745, ,0.00045031884180488384, ,0.002251386467803623,-0.00040147922407794256,-0.007787738287438433,-0.00946739194153755,-0.00832032538868865,0.006348549680236493, ,0.00811657527707407, ,0.012603939705616851, ,4.682067739467211e-05, ,0.17464188121771307,-0.2508729774191832,0.08916530765000001,1.678777687537102,0.4627878247055468,-1.2806576270342571, ,0.011785511867669001,0.028369788208810396,0.007680236991321119,-0.01649813627200492,0.007457749931014978,-0.0217465916290285, ,0.423429012298584
0.009778339792489103,0.0207056800027175,-0.07861454273107901, ,0.010044295127200186,0.020529103356867057,-0.07901004026495617, ,0.000508261597235117, ,0.00231097939705575,-0.00036953046893757266,-0.007805338185925473,-6.185995883449207e-05,-0.009124402558413685,0.0016508352580921575, ,0.008148649135762059, ,0.0091246106619306, ,4.7168179397404375e-05, ,0.1747499994779522,-0.25061040450145955,0.08923789989000001,1.678777687537102,0.4627878247055468,-1.2807393057743977, ,0.012366033562479903,0.028100959892943672,0.007709976534365925,-0.014641383625414743,0.006578400688700891,-0.031045480338098883, ,0.43817615509033203
0.009829831687671545,0.020701472216208945,-0.07879967061524443, ,0.01008246225458631,0.020526418615891454,-0.07914809531535032, ,0.0004646135361433964, ,0.002203877284643444,-0.0001871735078264788,-0.008814376705105596,0.013396877367386867,0.003998896962450232,-0.011333347329205858, ,0.00908764797443803, ,0.013980967309432187, ,4.732300534939958e-05, ,0.17501257239567583,-0.2499925858715216,0.08942197307000001,1.6785679975936174,0.4630610977050777,-1.2812888565423528, ,0.009461024039771884,0.02944366787417647,0.00874248711306257,-0.0032589032940902726,0.014020829359969133,-0.04401837843524096, ,0.4548370838165283
0.00985167205484944,0.020700629029095776,-0.07888428530208985, ,0.010120655285373191,0.02052373935868079,-0.07928583407282212, ,0.0005146681931877221, ,0.0025488305958154224,-1.5919574877497637e-05,-0.00925399293838947,-0.0081870409929917,-0.0073254222895160976,0.003204954210370965, ,0.009598602822431567, ,0.010985872021631747, ,4.7654203651799304e-05, ,0.17511296792304076,-0.24973001295379796,0.08950623192000001,1.678358307650133,0.4631977342048431,-1.2814819531861896, ,0.012198819646195121,0.028259958772623817,0.009228743638470453,-0.01322838601782429,0.008049187752218854,-0.02236457457352704, ,0.4698209762573242
0.00987747055200961,0.020699552097507557,-0.0789805919098566, ,0.010158873943319702,0.02052106560781077,-0.07942325674317231, ,0.0005540735062241608, ,0.002648649703922026,-7.284210235238162e-05,-0.009269100582047933,-0.011830280700076518,-0.011832329150757196,-0.0013259960524185932, ,0.009640377421350405, ,0.016731989904183207, ,4.828043509024048e-05, ,0.17523653164902836,-0.24942882637170322,0.08960215738,1.6781486177066482,0.46333437070460853,-1.2817567285701672, ,0.012834317224570027,0.029109491275604533,0.009223399837869139,-0.008982342892372349,0.002997192661062103,-0.01901024735044922, ,0.4828970432281494
0.009923599844599274,0.020700528365865226,-0.07915147100626373, ,0.01019711795284438,0.020518397385871773,-0.07956036353256833, ,0.0005245731097560371, ,0.0027405810314059522,1.2511587539239187e-05,-0.010017954859608227,0.004161317159748288,0.0018910271828889197,-0.004362070244068181, ,0.010386065689117941, ,0.004570825243811867, ,4.87675112488113e-05, ,0.17546049090238086,-0.24891140326913017,0.08977326766,1.6781486177066482,0.4636076437041394,-1.2823062793381221, ,0.013733276636537017,0.030464507723425613,0.010030737732997482,-0.00734037793754412,0.01744724415560591,-0.03590593056769466, ,0.49851512908935547
0.009954452636591879,0.020698147087519082,-0.07925823824502119, ,0.010235387039024949,0.020515734715468872,-0.07969715464754512, ,0.0005521286266369071, ,0.0019566811739701972,-0.0004379115901975371,-0.006297638312383085,-0.0004410113475380258,-0.0023255359517561874,-0.00916809288461625, ,0.006609131265982995, ,0.0023669808967945382, ,4.932226651129903e-05, ,0.17562266829273956,-0.24856388028979007,0.08987956344,1.677938927763164,0.4637442802039049,-1.2825810547221, ,0.011252368438089093,0.02463575845235482,0.006214908903628561,-2.1568594071225797e-05,0.008830394640738159,-0.02435216845641208, ,0.5117130279541016
0.010004452126732956,0.020687627812885065,-0.07943074578159708, ,0.010273680927597777,0.020513077619221626,-0.07983363029500293, ,0.0005150415987717138, ,0.002835786977157548,9.607437228830195e-05,-0.010665444881125998,-0.02977408250612653,-0.007192603666989319,0.012541839945183436, ,0.01103642299738297, ,0.030630530497968857, ,4.972381140023677e-05, ,0.17587751847758898,-0.24793061619410367,0.09004937743000001,1.6775195478761948,0.4638809167036703,-1.2830191875863586, ,0.012678282105340116,0.030671280400281442,0.010661855100401608,-0.01692841872605988,0.00995021434506964,-0.0028014434044728257, ,0.5255470275878906
0.010029725517291165,0.020692007846564886,-0.07953537320727552, ,0.010311999344957206,0.02051042611976392,-0.07996979068220851, ,0.0005489708369489332, ,0.0027771922419896717,0.0005245515902589077,-0.010921515650299961,0.00023609198752587717,0.007213469539819549,0.008114379049171231, ,0.01128128783515241, ,0.007217321306518176, ,5.021465667863624e-05, ,0.17600108220357658,-0.2476603205435058,0.09015567321000001,1.6775195478761948,0.46429082620296663,-1.2834351200375884, ,0.012799695381504016,0.026500123305911973,0.011061674666666669,-0.01567916739864645,0.024228254010632878,-0.028763798709316012, ,0.5405499935150146
0.010060111758068533,0.0206967543786164,-0.07965242375919175, ,0.010350342018155058,0.020507780239744384,-0.08010563601679346, ,0.0005703912512238878, ,0.002648439108298361,0.0002974473512961103,-0.011210243577750927,0.022290222319250493,0.02290316778042735,0.0017393112265689818, ,0.011522684830787623, ,0.03195948886290973, ,5.074843515267042e-05, ,0.176255932388426,-0.2470347791806936,0.09038641283000001,1.6775195478761948,0.4644274627027321,-1.283873252901847, ,0.013085623491239767,0.032927460637914914,0.010821203478260872,-0.012125997503557804,0.02666720459693073,-0.02049523496822332, ,0.553901195526123
0.01011883015173487,0.020697071269561277,-0.07986591968038748, ,0.010388708674900125,0.020505140001825756,-0.080241166506754, ,0.0005004819771965554, ,0.0026534826621103626,-6.570469640084199e-05,-0.009638022831990035,0.0003147009763749015,0.006701344645789545,-0.008755970851253087, ,0.009996838072871375, ,0.006708723693918536, ,5.10400848316062e-05, ,0.1763872188472878,-0.24672586986572465,0.09048622716000002,1.6773098579327104,0.4644274627027321,-1.283873252901847, ,0.01351423263435927,0.030097349051211794,0.009653825163636366,-0.00010024528072169459,0.020454785711205185,-0.03002891949023532, ,0.5677239894866943
0.010144540716890305,0.02069394114758237,-0.07995727207970939, ,0.010427099043557377,0.02050250542868535,-0.08037638236045053, ,0.0005405000183732022, ,0.0027917695764389954,-0.00029845282863477705,-0.009417062560973445,-0.02534493438168564,-0.01756382659810935,0.007770705716976299, ,0.009826704368003456, ,0.030835914604913226, ,5.1438215372932567e-05, ,0.17651850530614963,-0.2464324060165041,0.09057696746,1.6768904780457412,0.4645640992024975,-1.284066349545684, ,0.013687716941940108,0.03116484123430896,0.00932600206088993,-0.016499983402389885,0.0,-0.008524653434348942, ,0.5831201076507568
0.010198854476680029,0.020688420052122104,-0.08015533037179103, ,0.010465512853147715,0.020499876543014592,-0.08051128378660707, ,0.00048307160761750737, ,0.0024993086017141308,-0.00028925758771402665,-0.009194353067025925,0.018744187949403503,0.02071989903524475,0.007074064563619628, ,0.00953238384454704, ,0.027940270796954898, ,5.164870326891505e-05, ,0.17681969188824437,-0.24577597372219503,0.09077529983,1.676680788102257,0.46524728170132473,-1.285031832764869, ,0.014574864315538439,0.03044496039732781,0.009228743638470453,-0.01813490449797205,0.04022874830646699,-0.05163634770011204, ,0.5969061851501465
0.010225980209547991,0.0206839723363909,-0.080243288543496, ,0.010503949833346989,0.02049725336751945,-0.08064587099431031, ,0.0005236446455326691, ,0.002413321878357967,-0.0005786913192286875,-0.008825203032852716,0.0023364253856362166,0.006816461351665111,0.006698719446462564, ,0.009167508642078536, ,0.0072057598772197265, ,5.1966102749895936e-05, ,0.1769587010799804,-0.24545934167435182,0.09086215126000001,1.676680788102257,0.46524728170132473,-1.2851135115050096, ,0.012685061029069748,0.03249895258851739,0.008732901052631581,-0.01813490449797205,0.024107468485997773,-0.03761677705936361, ,0.609734058380127
0.010248543901406792,0.020679135862270628,-0.080319792989413, ,0.010542409714485989,0.020494635924919694,-0.08078014419300975, ,0.000576472526346374, ,0.0024495424053641787,-0.0006961065904035534,-0.008580341099788209,-0.006762844949424497,0.0002445839838795583,0.007488767785140711, ,0.008950255625935793, ,0.006767262860836089, ,5.2417630009298206e-05, ,0.17706681934021956,-0.24517360055800552,0.09093733608000001,1.676680788102257,0.46524728170132473,-1.2851951902451502, ,0.01300136204390612,0.033053619490933744,0.008450297888594166,-0.01813490449797205,0.017773850025372698,-0.02907277530211008, ,0.623488187789917
0.010306010822086372,0.020676017949933678,-0.08053312074679456, ,0.01058089222754927,0.020492024237949685,-0.08091410359251668, ,0.0005045407831418896, ,0.0030581339855494825,-3.558939790909363e-05,-0.010666330466361834,-0.012513200821954236,-0.009164965574020429,-0.0004424106483376622, ,0.011096127959628754, ,0.015510533540830028, ,5.2651695237505635e-05, ,0.1773293922579432,-0.2445094455308222,0.09114992764,1.676471098158772,0.4655205547008556,-1.2856630622729646, ,0.014753877729861748,0.031780623428824775,0.010661855100401608,-0.00973999888666865,0.007863742224494529,-0.02088235451943932, ,0.6370811462402344
0.010336110092554886,0.020676090804690465,-0.08064216471379297, ,0.010619397104175036,0.02048941832935759,-0.08104774940300391, ,0.0005287694054329464, ,0.002834207106200685,4.938540140203347e-05,-0.0107102394734855,0.042565415444426886,0.023999293221774087,-0.010393888670921562, ,0.011079007104344552, ,0.04886492122344816, ,5.2940823849153216e-05, ,0.17749929238117612,-0.244192813482979,0.09126011229000001,1.6762614082152878,0.46593046420015194,-1.2864057096847568, ,0.01519080223442785,0.03118532420587275,0.010821203478260872,-0.007146424690615678,0.04104938375240049,-0.07532899361979876, ,0.6504240036010742
0.01039773407724225,0.020673032904863824,-0.08084783336622778, ,0.010657924076654245,0.020486818221905796,-0.08118108183500466, ,0.0004619840753590022, ,0.0027164323809341713,-0.00011544748373757554,-0.00919581274278003,0.02297854062686627,0.006137056690302241,-0.006938310156857218, ,0.009589332875751295, ,0.023783959476971542, ,5.304202775590526e-05, ,0.1778004789632709,-0.24356727212016682,0.09146492611000001,1.6758420283283186,0.46593046420015194,-1.2869774608657407, ,0.01521028074346382,0.028361309491473634,0.009244812257690076,-0.008205486856789204,0.023206882964990374,-0.05325618822887083, ,0.6746950149536133
0.010448174829847084,0.020662660231744776,-0.08101097428639448, ,0.010696472877930435,0.0204842239383708,-0.08131410109941277, ,0.0004305546379330642, ,0.002112532274333994,-0.0008028632516162765,-0.006677774733881166,-0.014054948293851979,0.0004589737990184354,0.0020977345499970062, ,0.007049826764351043, ,0.014062439874084379, ,5.305805460097181e-05, ,0.1780553291481203,-0.2429648989559773,0.09162566607000001,1.6758420283283186,0.46593046420015194,-1.2873041758263029, ,0.012540893558671969,0.028730530293209437,0.006549675789473685,-0.008205486856789204,0.015239092855881662,-0.015387489694113451, ,0.6874620914459229
0.01047075664311852,0.020655242886741122,-0.0810759329549111, ,0.010735043241598784,0.020481635501542795,-0.08144680740748196, ,0.00048737540961912114, ,0.0021798932250635737,-0.0008133621024638064,-0.006517688792986119,0.0020863714145779966,-0.002203728048137298,-0.0032625894095291955, ,0.006920531741464616, ,0.003034691290406544, ,5.3351647075433374e-05, ,0.17818661560698212,-0.2426868805725052,0.09168918428,1.6758420283283186,0.46593046420015194,-1.2873858545664434, ,0.01347202463919233,0.028361309491473634,0.006394544969891611,-0.008205486856789204,0.013150442787886105,-0.03202938406186165, ,0.6994051933288574
0.010490462898606652,0.020650582968137897,-0.08114085015740345, ,0.010773634901905596,0.020479052934226128,-0.08157920097082505, ,0.0005493271990476045, ,0.0024870557293254665,-0.0002674140711119455,-0.007964820062820439,-0.0010776043607882513,-0.009356997017210497,-0.0033012655719592953, ,0.008348372004127887, ,0.009418842406827511, ,5.378912386528305e-05, ,0.1783101793329697,-0.24243975312053004,0.09175399878000001,1.6758420283283186,0.46620373719968283,-1.2876903691139767, ,0.013263024676236308,0.026171246982479534,0.007932675059760957,-0.008205486856789204,0.005612368931758133,-0.026944867676660655, ,0.7119340896606445
0.01052465159283308,0.020650130218968596,-0.08127043235156539, ,0.010812247593748023,0.020476476259238947,-0.08171128200141314, ,0.0005542703052148294, ,0.0025541478855048835,0.00013450356782104643,-0.010299454208223069,0.05891306734749488,0.03703272147452327,-0.007862615300116865, ,0.010612281546306127, ,0.0695857158345259, ,5.422371173363965e-05, ,0.1784955249219511,-0.24206133920969303,0.09188492407000001,1.6756323383848342,0.46675028319874456,-1.2885444344294652, ,0.01370946858689263,0.02840375383372367,0.010465710591327202,-0.01038884666047867,0.053547263568017624,-0.08937990892718856, ,0.7232561111450195
0.010553186048555485,0.020652297505686232,-0.08137471406723466, ,0.010850881052673046,0.020473905499413306,-0.08184305071157627, ,0.0005829110016218529, ,0.0026084667315063575,0.00035803055055403103,-0.01062057209800803,-0.010081799668555984,0.017912322685729756,0.010716008195492451, ,0.010942067275130975, ,0.02055465527388884, ,5.4712521876635745e-05, ,0.1786268113808129,-0.24179104355909517,0.09198992356,1.6754226484413495,0.46688691969851004,-1.2889008885535835, ,0.011655237233906999,0.02641161746687191,0.010762710486486488,-0.012452420622296949,0.03340931816884295,-0.016783345602945064, ,0.7350120544433594
0.010583417849842753,0.020656080361831832,-0.0814896516638879, ,0.010889535014877369,0.020471340677594888,-0.08197450731400122, ,0.0006024296399643723, ,0.0032186635529697955,0.0007293780309144148,-0.012665879140022228,-0.009933374561204135,0.00523224230946349,0.005334672842859378, ,0.013088784579511075, ,0.011227108434001104, ,5.523129725920766e-05, ,0.17874265237392628,-0.2415207479084973,0.09210529337000001,1.6750032685543808,0.46688691969851004,-1.2891459247740051, ,0.013337588412996596,0.028009723010174375,0.01285618363196126,-0.01095402557303839,0.021597372991841068,-0.019069893451060208, ,0.7469949722290039
0.010653859984298592,0.02067298176875082,-0.0817400662347394, ,0.010928209217206473,0.02046878181664333,-0.08210565202173244, ,0.0005006177081258361, ,0.0030562131330927928,0.0005308842523589492,-0.010139948059862645,-0.020726092563568325,-0.006392245076515127,0.008611594231342466, ,0.010603811742057843, ,0.0216894352825475, ,5.549641034597832e-05, ,0.17904383895602102,-0.24098787934017582,0.09235936621000002,1.6750032685543808,0.46688691969851004,-1.289554318474708, ,0.015874362923799058,0.02292750460460758,0.010323273830200909,-0.01095402557303839,0.012468770572868432,-0.0031182563011449694, ,0.7603540420532227
0.010682615936456556,0.020674539118079354,-0.08183366472374498, ,0.010966903397154287,0.020466228939431706,-0.08223648504817035, ,0.0005352351862577258, ,0.003175548495678887,-0.00023756068994299157,-0.009743859611502849,-0.029841077900883653,-0.019469448206770847,0.004403798039199018, ,0.010251016703649014, ,0.03563073470938075, ,5.583224630441283e-05, ,0.17919829361350553,-0.2407330291553264,0.09245399538000001,1.6750032685543808,0.46702355619827546,-1.2898290938586854, ,0.016894595256982517,0.030484080166550197,0.00972454915750916,-0.01095402557303839,0.0,-0.002146026205358491, ,0.7717530727386475
0.010712483467632358,0.020674960308043996,-0.08193845781916077, ,0.011005617292862448,0.020463682068846963,-0.08236700660707201, ,0.0005605532958358322, ,0.0031634427370474285,0.00021341509527594946,-0.010638177535856521,-0.002604833560524369,-0.007863132076263154,0.00011051856945932296, ,0.011100618777251658, ,0.008283348820187391, ,5.621451561005459e-05, ,0.17936819373673846,-0.24043184257323166,0.09256029116,1.6750032685543808,0.46743346569757177,-1.2901633475697747, ,0.015795096797348664,0.027837178515245174,0.010733700485175203,-0.01095402557303839,0.010428852853216668,-0.02726593807410167, ,0.7835431098937988
0.0107379097694994,0.02067589213689441,-0.08203075770656278, ,0.011044350643119993,0.020461141227789435,-0.08249721691254905, ,0.000598003472260913, ,0.0027188953232587017,0.00018260806417325537,-0.01067107021204008,0.026253443000381706,0.030425858679830158,0.0030288031657421783, ,0.011013513379218652, ,0.0401867640823436, ,5.666795654794934e-05, ,0.17949175746272605,-0.2401924378541307,0.09264973517000001,1.674793578610896,0.46770673869710266,-1.290467862117308, ,0.014176417920297398,0.02822633597812932,0.010799194250847459,-0.012963040011744508,0.04953869168242672,-0.05711291407752159, ,0.7959849834442139
0.010773240367818163,0.020677870450322943,-0.08216104592174525, ,0.011083103187362404,0.020458606439173146,-0.08262711617906868, ,0.0006010933024771853, ,0.0030109920935269103,0.00034394667261753245,-0.01163824245150863,0.004639941633368402,0.0022178058596638954,0.000846140374176149, ,0.012026348575564566, ,0.005142714037645058, ,5.711428320000511e-05, ,0.17965393485308476,-0.23985263760766481,0.09278454933000001,1.674374198723927,0.46784337519686814,-1.2907426375012858, ,0.012455270862772694,0.02889675443315188,0.011738254620486369,-0.012665006202328086,0.017652796343878733,-0.03580698039956192, ,0.8072600364685059
0.010841835885839507,0.020681118006093128,-0.08239832988422288, ,0.011121874665671385,0.020456077725925562,-0.082756704621452, ,0.0005074419160767701, ,0.0033073852132737788,8.771492880160872e-05,-0.01161164369631633,-0.00875458503187624,-0.006326130751594578,0.0029356261792078536, ,0.012073804710525986, ,0.010801040610802797, ,5.734577122941744e-05, ,0.17997056690092797,-0.23921937351197842,0.09302306669,1.6741645087804424,0.4679800116966335,-1.2911807703655445, ,0.01710779548557252,0.03207061221982791,0.011305047210787794,-0.013490807555805189,0.0,-0.019126870649943905, ,0.8188161849975586
0.010841835885839507,0.020681118006093128,-0.08239832988422288, ,0.011160664818774146,0.020453555110987513,-0.08288598245487434, ,0.0006254932368683684, ,0.0034911163774377398,-3.693004858991889e-05,-0.011286637514573717,-0.015618578392974704,-0.019971317562718305,0.001536211144703261, ,0.011814289812539966, ,0.02535336926429512, ,5.7820501818956525e-05, ,0.17997056690092797,-0.23921937351197842,0.09302306669,1.6741645087804424,0.4679800116966335,-1.2911807703655445, ,0.01710779548557252,0.03207061221982791,0.011305047210787794,-0.013490807555805189,0.0,-0.019126870649943905, ,0.8306870460510254
0.010870504427178594,0.02068023665208158,-0.08250167285144687, ,0.011199473388042872,0.020451038617313337,-0.0830149498948638, ,0.0006513107089957695, ,0.003162837050885012,-0.000276592341780554,-0.010692275652917084,0.04639737838157376,0.03263973156848441,-0.003141277829752222, ,0.011153689980089374, ,0.0567280235668051, ,5.833525588213622e-05, ,0.18014046702416092,-0.23891046419700943,0.09312806618000001,1.6741645087804424,0.4685265576956953,-1.2918714782007519, ,0.019919593106312087,0.033449750284973837,0.010843302600408444,-0.013490807555805189,0.0562130261588467,-0.08195532163178504, ,0.844616174697876
0.010961950254418994,0.020668663644536994,-0.08278396085108565, ,0.011238300115493916,0.020448528267870657,-0.08314360715730144, ,0.0005041570145805999, ,0.0030435882269350656,-0.0007512025944588031,-0.009552350402902955,0.0102998183380575,-0.0019024090042937068,-0.005377400128347036, ,0.010053612925356715, ,0.010474031615519226, ,5.8532396259514095e-05, ,0.18062699919523706,-0.23798373625210248,0.09340936111,1.6739548188369582,0.46866319419546076,-1.2925546472854321, ,0.017080083073878833,0.03522529382274342,0.0094757950743605,-0.011156738371626517,0.017568360007917692,-0.047983838053650196, ,0.8558640480041504
0.010994105217058858,0.02065949055794313,-0.08288155332194116, ,0.011277144743787784,0.020446024085640547,-0.08327195445842056, ,0.0005273446272151138, ,0.0030435882269350656,-0.0007512025944588031,-0.009552350402902955,0.0102998183380575,-0.0019024090042937068,-0.005377400128347036, ,0.010053612925356715, ,0.010474031615519226, ,5.889042522223366e-05, ,0.18079689931846998,-0.23761304507413972,0.09350528657000001,1.6737451288934733,0.46866319419546076,-1.2927180047657132, ,0.017586534758797404,0.03693925323412642,0.010113531123809524,-0.011469906335746892,0.013520676615511,-0.031077505096238314, ,0.8658809661865234
0.010994105217058858,0.02065949055794313,-0.08288155332194116, ,0.011316007016228005,0.02044352609361692,-0.08339999201480547, ,0.0006473330645184809, ,0.0032419316508057153,-0.0007518079348028856,-0.010202118050563928,-0.0078400414936261,-0.006680294733557982,-0.0014334773890701696, ,0.010731195120627096, ,0.010300120282123956, ,5.9480767618187635e-05, ,0.18079689931846998,-0.23761304507413972,0.09350528657000001,1.6737451288934733,0.46866319419546076,-1.2927180047657132, ,0.017586534758797404,0.03693925323412642,0.010113531123809524,-0.011469906335746892,0.013520676615511,-0.031077505096238314, ,0.8760190010070801
0.011033529650746325,0.020653964960959607,-0.08301603070148114, ,0.011354886676760899,0.02044103431480732,-0.08352772004339266, ,0.0006406526210557555, ,0.003587211974785574,-0.00020021386166766612,-0.011329386615155342,0.01075080718834491,-0.011775163655811874,-0.0070455615251553754, ,0.011885418647153744, ,0.015944721624111396, ,6.004379939466904e-05, ,0.1810131358389483,-0.23718829476605738,0.09364010073000001,1.6733257490065043,0.4690731036947571,-1.2933789734373649, ,0.018732124271312826,0.03375913965082561,0.011361491811697575,-0.011215903516419686,0.009062133131453704,-0.047490287919038615, ,0.890192985534668
0.011077695817764313,0.020651660041274895,-0.08316788545151406, ,0.011393783469974716,0.020438548772232223,-0.0836551387614681, ,0.0006186627554120519, ,0.0031353762371667997,-0.00019340016209727203,-0.011425234877572563,0.008750588012961765,0.027150644057631866,0.0036469804496790906, ,0.011849218530307811, ,0.028525954298408002, ,6.0550465981029894e-05, ,0.18124481782517501,-0.23673265352647813,0.09379306295,1.6733257490065043,0.46948301319405333,-1.2942032995892974, ,0.01685259129079573,0.03398887591635773,0.011542617043478264,-0.011215903516419686,0.04744718010400139,-0.0432830737714689, ,0.8997550010681152
0.011111203233024712,0.020648456351022526,-0.08328638457208612, ,0.011432697141099468,0.020436069488925193,-0.08378224838666828, ,0.0006279708868512186, ,0.003353665078008575,-0.0005881276709910359,-0.011327667366670324,0.00753456050556607,0.005952572325367159,0.004915077738366498, ,0.01182831397887152, ,0.009602214993980677, ,6.106338863793888e-05, ,0.1814224406812822,-0.23636196234851534,0.09391232163,1.6733257490065043,0.4698929226933497,-1.2947009107806677, ,0.017787617911615893,0.03758294715186961,0.011313076363636366,-0.01975421730369948,0.02846423550802869,-0.04844472517271627, ,0.9096760749816895
0.011148765222832518,0.020644276722457135,-0.08340480967241962, ,0.011471627436005985,0.020433596487932967,-0.08390904913697894, ,0.000634731130112194, ,0.0034759842146431653,-0.0002564281692398637,-0.011573802713917527,-0.01794850525132977,-0.0034317861798769927,0.009345475771456831, ,0.012087230076701316, ,0.01827363645989065, ,6.157747062698977e-05, ,0.1815923408045151,-0.23601443936917524,0.09402250628000001,1.6733257490065043,0.4698929226933497,-1.2947825895208083, ,0.017573507696013107,0.034608658482301526,0.011500946945848377,-0.017536708595567396,0.01912894470330984,-0.019524198620606562, ,0.9195380210876465
0.01118123608613716,0.020645038499045133,-0.08351326168067338, ,0.011510574101205625,0.020431129792315147,-0.08403554123073492, ,0.0006534496089191683, ,0.003845548975888415,0.0001159155352433836,-0.012928839075233777,-0.01314309629670799,-0.008348052759595414,0.004134694317526825, ,0.013489127591158702, ,0.015570183168479993, ,6.211532059887846e-05, ,0.18175451819487384,-0.2356900845884578,0.09413917238000001,1.6733257490065043,0.4698929226933497,-1.2949459470010896, ,0.018549050343719856,0.03408654510002543,0.013035033977086746,-0.014355054497751114,0.013605583975787011,-0.02312996847072448, ,0.9299521446228027
0.011243190265565804,0.02065247569429565,-0.0837412185691753, ,0.011549536883849352,0.0204286694251444,-0.08416172488661927, ,0.0005663594791786051, ,0.003917463551206189,0.0008075764860317755,-0.015431947615770127,0.035371198176119195,0.03817730086702169,0.004324374598484096, ,0.01594188532362762, ,0.05204447220130743, ,6.247799392394462e-05, ,0.18205570477696859,-0.2351572160201363,0.09437120829000001,1.6729063691195354,0.4705761051921769,-1.2956663939998527, ,0.018491220101027044,0.03315756169059077,0.015802392380952386,-0.016651183042936474,0.061328695181469425,-0.0704613749986018, ,0.9399521350860596
0.011282509561494514,0.020657324295265112,-0.0838899677091574, ,0.01158851553172773,0.02042621540950604,-0.08428760032366277, ,0.0005524153030225986, ,0.0036732747747078636,0.0003806391816031734,-0.01335320351726499,0.034530921159691884,0.028296652903921606,0.008501968613714932, ,0.013854453360944081, ,0.044643976717507396, ,6.280678529335005e-05, ,0.18224105036594998,-0.23482513850654466,0.09451898535000001,1.6724869892325662,0.47112265119123864,-1.2962754230949194, ,0.01916722713764306,0.031876701900729186,0.01373173406896552,-0.02268132932627648,0.055196067669402216,-0.07147083384879993, ,0.9499301910400391
0.011317316334136992,0.020658294190881832,-0.08400554522031739, ,0.011627509793269788,0.02042376776849859,-0.08441316776124352, ,0.0005633637907744249, ,0.0034870595469439925,-0.00038932894998863337,-0.011615806018089038,0.004510826892167542,-0.0021096529658388785,0.007399907284760994, ,0.01213417120223322, ,0.004979757365409892, ,6.314840265418214e-05, ,0.18241867322205715,-0.23450850645870147,0.09463954032,1.6724869892325662,0.4712592876910041,-1.2964685197387564, ,0.017704653275834103,0.03542252391133661,0.0116353626880935,-0.02268132932627648,0.02076537431473434,-0.044103233887901196, ,0.9598281383514404
0.011317316334136992,0.020658294190881832,-0.08400554522031739, ,0.011666519417542714,0.020421326525233083,-0.08453842741908668, ,0.0006797498847284019, ,0.0034870595469439925,-0.00038932894998863337,-0.011615806018089038,0.004510826892167542,-0.0021096529658388785,0.007399907284760994, ,0.01213417120223322, ,0.004979757365409892, ,6.369343792375335e-05, ,0.18260401881103852,-0.2341455380136129,0.09475620642,1.6724869892325662,0.47139592419076953,-1.2965799376424527, ,0.018780316952002926,0.03391599054984659,0.011273044246284503,-0.021292666970498562,-0.0008321713709715786,-0.021206652452832354, ,0.9707059860229492
0.011404257976090855,0.020650196254682892,-0.0842695808870441, ,0.011705544154251233,0.020418891702833376,-0.08466337951726295, ,0.0005471311707616695, ,0.003456859974150575,-0.0005353993220430477,-0.009983685327415264,-0.01769799424250374,-0.019419233550057938,0.005625669633786526, ,0.010578776206715752, ,0.02627404675135651, ,6.398908405855469e-05, ,0.18287431446163638,-0.23368989677403365,0.09490398348000001,1.6724869892325662,0.47139592419076953,-1.2968249738628745, ,0.019040317327141006,0.03266676129379373,0.009961733283302064,-0.01677342125092644,0.003302555009429108,-0.017997405936652708, ,0.9810531139373779
0.011436587260692523,0.020644514439977543,-0.0843747225294242, ,0.01174458375373721,0.02041646332443607,-0.08478802427618927, ,0.0005636377248788395, ,0.00315556017396479,-0.00046263178588672285,-0.010754679570339978,0.03152391168929199,0.032971690848832086,0.0004367067988365089, ,0.011217607625581915, ,0.04561676513903153, ,6.430770678998645e-05, ,0.18307510551636622,-0.23333465106181933,0.09501027926000001,1.6724869892325662,0.47194247018983126,-1.297515681698082, ,0.018791473575934806,0.034283577152626726,0.010880335737704918,-0.013507304790327601,0.0555138665576205,-0.06740266985526315, ,0.9910199642181396
0.011436587260692523,0.020644514439977543,-0.0843747225294242, ,0.011783637966978792,0.02041404141319037,-0.08491236191662732, ,0.0006801603630632913, ,0.003405792745596738,-0.00035799369812175455,-0.011553401826738871,0.010644257904769317,0.0098297864753712,0.002155939672820808, ,0.012050256324408511, ,0.014488779197894349, ,6.482404735546605e-05, ,0.18326817383822183,-0.2329716826167308,0.09512824165000001,1.6720676093455973,0.47221574318936216,-1.2979018749857558, ,0.01763228196924392,0.03490141285710584,0.011618389146608317,-0.01570536953071855,0.03125086534346518,-0.04808221817367703, ,1.0009331703186035
0.011472682620671458,0.020639155554818104,-0.0844924212761249, ,0.011822706545589956,0.0204116259922581,-0.08503639265968345, ,0.0006857049773661406, ,0.0036012960127321933,-0.0002690180522476437,-0.011917170061211704,0.031470479377489945,-0.0008766849566701081,0.0033814084425536784, ,0.012452334959821652, ,0.031482684262945884, ,6.533925689232949e-05, ,0.18326817383822183,-0.2329716826167308,0.09512824165000001,1.6720676093455973,0.47221574318936216,-1.2979018749857558, ,0.01763228196924392,0.03490141285710584,0.011618389146608317,-0.01570536953071855,0.03125086534346518,-0.04808221817367703, ,1.0117230415344238
0.01149217048080359,0.02063754182014205,-0.08455470127631803, ,0.011861789241820112,0.02040921708481356,-0.08516011672680796, ,0.0007451698336286352, ,0.0036012960127321933,-0.0002690180522476437,-0.011917170061211704,0.031470479377489945,-0.0008766849566701081,0.0033814084425536784, ,0.012452334959821652, ,0.031482684262945884, ,6.605952117661002e-05, ,0.18336084663271254,-0.23279405976062362,0.09519046357000001,1.6718579194021128,0.47221574318936216,-1.2981469112061776, ,0.01835530784496533,0.03432077452385923,0.011985561715575624,-0.026248301083764337,0.023013020111006054,-0.0717347697216652, ,1.0202460289001465
0.01149217048080359,0.02063754182014205,-0.08455470127631803, ,0.011900885808553262,0.020406814714043597,-0.08528353433979481, ,0.0008668799519212754, ,0.0036012960127321933,-0.0002690180522476437,-0.011917170061211704,0.031470479377489945,-0.0008766849566701081,0.0033814084425536784, ,0.012452334959821652, ,0.031482684262945884, ,6.697519070909847e-05, ,0.18336084663271254,-0.23279405976062362,0.09519046357000001,1.6718579194021128,0.47221574318936216,-1.2981469112061776, ,0.01835530784496533,0.03432077452385923,0.011985561715575624,-0.026248301083764337,0.023013020111006054,-0.0717347697216652, ,1.0284101963043213
0.011594757707291056,0.02064255509030688,-0.0848836568928283, ,0.011939995999307692,0.020404418903147436,-0.08540664572078067, ,0.0006703846926000034, ,0.00414454601996506,-0.0002779945818044934,-0.012924202377707998,0.010888506885295439,-0.01606893845896307,0.004186285685372545, ,0.013575328717901233, ,0.019410564257508284, ,6.75428873910858e-05, ,0.18383965607091446,-0.2319677273430816,0.09552231381000001,1.6716482294586281,0.47221574318936216,-1.2987186623871616, ,0.021092896545559185,0.03692487998384077,0.012981916479217606,-0.02522908820099303,0.01022312263031021,-0.05345804148091633, ,1.0365221500396729
0.01163765587127879,0.020644302647813112,-0.08502982398805543, ,0.011979119568235067,0.020402029675336764,-0.08552945109224457, ,0.0006518595652224414, ,0.004760537441855369,0.00040822749314489405,-0.015554466844217962,-0.0065651902074050725,-0.011575347155309942,0.00944642771750008, ,0.016271779411894144, ,0.013307496899656587, ,6.80699765324734e-05, ,0.18407133805714118,-0.2315893134322446,0.09567138716000001,1.6716482294586281,0.47276228918842395,-1.2993276914822283, ,0.023066830714261247,0.03640082146469918,0.015786730941526265,-0.022988866673078666,0.016712160709537478,-0.03386010068984322, ,1.0444869995117188
0.01163765587127879,0.020644302647813112,-0.08502982398805543, ,0.012018256270120278,0.020399647053835557,-0.08565195067700748, ,0.0007692559004448706, ,0.004760537441855369,0.00040822749314489405,-0.015554466844217962,-0.0065651902074050725,-0.011575347155309942,0.00944642771750008, ,0.016271779411894144, ,0.013307496899656587, ,6.878363047221134e-05, ,0.18407133805714118,-0.2315893134322446,0.09567138716000001,1.6716482294586281,0.47276228918842395,-1.2993276914822283, ,0.023066830714261247,0.03640082146469918,0.015786730941526265,-0.022988866673078666,0.016712160709537478,-0.03386010068984322, ,1.054427146911621
0.011678965705431026,0.020650649441505072,-0.0851839473231233, ,0.01205740586038053,0.02039727106188016,-0.08577414469823152, ,0.0007454867508709912, ,0.004056449251264403,0.0004453024081583672,-0.01518349714491243,0.07179243611647942,0.053612249333372095,-0.0012092552174351669, ,0.015722329989933396, ,0.08960148634453187, ,6.944628492519803e-05, ,0.18427985184474524,-0.2312417904529045,0.09582953454000001,1.6716482294586281,0.47344547168725115,-1.3002114959612727, ,0.02166102295331449,0.035369713588695784,0.015585921252446186,-0.0190641642504337,0.08027098300256276,-0.1102712425228507, ,1.0637760162353516
0.011722599654273365,0.020654307324157822,-0.08533138722626138, ,0.01209656809506494,0.020394901722718954,-0.08589603337942003, ,0.0007252371605501264, ,0.004280080548918213,0.0003869066066552898,-0.014406813339646172,0.010044510956907343,0.003974986511737966,-0.0037936466482540853, ,0.01503412973307429, ,0.010802411651668146, ,7.006495225076945e-05, ,0.18450381109809777,-0.2308942674735644,0.09597990418,1.6714385395151437,0.47385538118654746,-1.300709107152643, ,0.020760652277066454,0.03397670660883308,0.01465392044158234,-0.009758743499466916,0.027024482788944704,-0.04567813463834974, ,1.0725500583648682
0.01178407794807345,0.02065313915497966,-0.08553153623732208, ,0.012135742730854,0.02039253905961272,-0.08601761694441572, ,0.0006541062474567847, ,0.0038436392035996404,-0.0004202328035607826,-0.012284564242828241,-0.023515161555024124,-0.009000304523714562,0.0034594968680899084, ,0.012878690794207726, ,0.025178721665525518, ,7.055810401408592e-05, ,0.18478182948156985,-0.23037684437099135,0.09618082913,1.6708094696846902,0.47385538118654746,-1.3009541433730647, ,0.018888722443963134,0.036881827267186466,0.012309746151468317,-0.012025019117362626,0.012771409849251403,-0.014827062983496165, ,1.0807220935821533
0.011822714984369464,0.02064727326310667,-0.0856466995967585, ,0.01217492952505875,0.020390183095834284,-0.08613889561740162, ,0.000657576884872055, ,0.004344181776063945,-0.0005028776857739565,-0.012860785423892603,-0.028376868849407322,-0.03061034306405341,0.024538222038198457, ,0.013583983325583991, ,0.04174014178655584, ,7.104890331328337e-05, ,0.1849903432691739,-0.2300138759259028,0.09629619894000001,1.6705997797412053,0.47399201768631294,-1.3011472400169017, ,0.022234522389519864,0.0380196079961822,0.012866568271405495,-0.038024155776718735,0.0,-0.016536822161922312, ,1.0892400741577148
0.01186319833447251,0.020643483674884312,-0.08577614488655837, ,0.012214128235620698,0.02038783385466852,-0.08625986962289964, ,0.0006499986512637349, ,0.0044939538399294795,1.7594491293668326e-05,-0.013828988716843975,0.0003003222824617437,0.0020496100680038494,-0.044275498066754626, ,0.014540868598957174, ,0.002071373731444122, ,7.151975656359858e-05, ,0.1852143025225264,-0.2296354620150658,0.09642712423000001,1.670390089797721,0.4744019271856092,-1.3015631724681316, ,0.023094899381472567,0.03818790404767436,0.014009508812664908,0.033399659001847395,0.017509394083509426,-0.03229737669006655, ,1.1016950607299805
0.011884191182123766,0.020642638225081243,-0.08584440318043521, ,0.012253338621110667,0.02038549135941238,-0.08638053918577049, ,0.0006998829605375313, ,0.0042335686750742205,-9.290897766566618e-05,-0.013408212878950365,0.04267982701902971,0.04991294682448791,-0.03931167917424604, ,0.014061006664245309, ,0.06567244065597691, ,7.206220375491323e-05, ,0.18534558898138823,-0.22944239369321018,0.09649712389000001,1.670390089797721,0.47481183668490556,-1.3019791049193614, ,0.025921043856452004,0.03837320726181592,0.013743581984469372,0.02838855764991037,0.07022232438315179,-0.07468600960868936, ,1.110619068145752
0.011957905675192301,0.020643342137845133,-0.08607078289209712, ,0.012292560440728763,0.020383155633374707,-0.0865009045312124, ,0.0006039002017221216, ,0.004522676558826071,0.00011317113714694887,-0.015241663155542777,0.001278810685400822,0.004758095157656831,-0.012675618916807707, ,0.015898921558051293, ,0.004926865509568759, ,7.244520561489366e-05, ,0.18572400289222524,-0.22884002052902067,0.09672656722,1.6705997797412053,0.4750851096844364,-1.3025286556873166, ,0.02120128274317935,0.03898806144555085,0.015434894883720933,0.0,0.026068206826807695,-0.03990233611202552, ,1.119197130203247
0.012003008643191057,0.02064289286248585,-0.08621860331513836, ,0.012331793454303411,0.020380826699876394,-0.08662096588476155, ,0.0005819568394965428, ,0.004680342123935923,-0.00016738513037693699,-0.014577577600125975,-0.04715753583024917,-0.022046632989084946,-0.005024186518233649, ,0.015311413679561233, ,0.052056570703727344, ,7.27879993924632e-05, ,0.18592479394695507,-0.22846160661818368,0.09687045541000001,1.6705997797412053,0.4752217461842019,-1.3028034310712941, ,0.02191109248637053,0.04009165253843294,0.014748899555555556,0.0,0.0,0.008307117163797055, ,1.1274280548095703
0.012003008643191057,0.02064289286248585,-0.08621860331513836, ,0.012371037422290954,0.02037850458225012,-0.08674072347229075, ,0.0006913434772069553, ,0.004680342123935923,-0.00016738513037693699,-0.014577577600125975,-0.04715753583024917,-0.022046632989084946,-0.005024186518233649, ,0.015311413679561233, ,0.052056570703727344, ,7.329481592534964e-05, ,0.18613330773455913,-0.22806774724159823,0.09700915844,1.670390089797721,0.4753583826839673,-1.302996527715131, ,0.021102277420162505,0.04009165253843294,0.013602742544833478,-0.0057049591152577486,0.0052403998533771135,-0.01353611416316065, ,1.1359221935272217
0.012088216371860954,0.02063242311783428,-0.08649136891602019, ,0.01241029210577515,0.020376189303840397,-0.08686017752000942, ,0.0005526376138001348, ,0.00409049234252236,-0.0005898396652943193,-0.012535834498469544,0.03788944984032923,0.035933896728118885,0.003233501720759685, ,0.013199514574710986, ,0.052219297522033706, ,7.369398261780924e-05, ,0.18638043518653433,-0.22764299693351586,0.09715045405000002,1.669970709910752,0.4759049286830291,-1.3036055568101979, ,0.025668634449140054,0.03879678722750236,0.01276347076923077,-0.018635930957982813,0.06644231215122985,-0.07919688400785171, ,1.1486380100250244
0.012088216371860954,0.02063242311783428,-0.08649136891602019, ,0.012449557266466448,0.020373880888003557,-0.08697932825446275, ,0.0006599360898552558, ,0.00409049234252236,-0.0005898396652943193,-0.012535834498469544,0.03788944984032923,0.035933896728118885,0.003233501720759685, ,0.013199514574710986, ,0.052219297522033706, ,7.42523314853689e-05, ,0.18638043518653433,-0.22764299693351586,0.09715045405000002,1.669970709910752,0.4759049286830291,-1.3036055568101979, ,0.025668634449140054,0.03879678722750236,0.01276347076923077,-0.018635930957982813,0.06644231215122985,-0.07919688400785171, ,1.1551029682159424
0.012133321170608613,0.02062752579196544,-0.08661546405164279, ,0.01248883266670144,0.0203715793581076,-0.08709817590253119, ,0.0006518494702358886, ,0.0043356617361078684,-0.000570563615105011,-0.01166294476679999,0.008212871864382168,-0.004713058075892164,0.021679002011390752, ,0.01245583341901532, ,0.009469105812727691, ,7.479160222137865e-05, ,0.18665073083713218,-0.2272723057555531,0.09727619418000001,1.6697610199672674,0.47617820168256,-1.3039917500978717, ,0.026997707413505198,0.03525146417476626,0.011825398307349667,-0.03721391892347963,0.030717890685222134,-0.050101049551915675, ,1.1615121364593506
0.012178354285807578,0.02061957008732529,-0.08673060199392614, ,0.012528118069442597,0.020369284737532186,-0.08721672069143005, ,0.0006490676765381543, ,0.004465104118281189,-0.000783312319243336,-0.012212278317507203,0.016249234648393864,0.0008488590673890859,-0.05048868838318805, ,0.013026529648406998, ,0.016271383369009122, ,7.532015398520439e-05, ,0.18691330375485582,-0.2268938918447161,0.09739156399000001,1.6695513300237828,0.47617820168256,-1.3042367863182935, ,0.025787212380019235,0.042026989175584936,0.012281273338473403,0.03304030552276891,0.018838195307982898,-0.052863193600847215, ,1.1681010723114014
0.012178354285807578,0.02061957008732529,-0.08673060199392614, ,0.012567413238277215,0.02036699704966856,-0.08733496284870869, ,0.0007618477870555329, ,0.004465104118281189,-0.000783312319243336,-0.012212278317507203,0.016249234648393864,0.0008488590673890859,-0.05048868838318805, ,0.013026529648406998, ,0.016271383369009122, ,7.601169628417543e-05, ,0.18691330375485582,-0.2268938918447161,0.09739156399000001,1.6695513300237828,0.47617820168256,-1.3042367863182935, ,0.025787212380019235,0.042026989175584936,0.012281273338473403,0.03304030552276891,0.018838195307982898,-0.052863193600847215, ,1.1745209693908691
0.012227220865281167,0.020614206070250655,-0.0868647111643572, ,0.01260671793741711,0.020364716317919633,-0.08745290260225039, ,0.0007431233624969655, ,0.004771574042020198,-0.0003236485524652986,-0.014103614303127232,-0.011553955074862954,-0.013195896711750092,-0.005099027877673069, ,0.014892434442876318, ,0.017539241998333645, ,7.666703445934001e-05, ,0.18717587667257943,-0.22647686426950797,0.09752637815000001,1.6697610199672674,0.47617820168256,-1.304318465058434, ,0.024816145805039432,0.039772397970859505,0.014234862841823058,-0.008158769841439775,0.013343307521936614,-0.029571278323136795, ,1.1862101554870605
0.012231043907382534,0.020613616614788284,-0.08687989462588203, ,0.012646031931698153,0.020362442565699784,-0.08757054018027137, ,0.0008439755595149997, ,0.004907301865900641,-0.0002438492641895355,-0.014413659856213769,-0.023269255478030434,-0.02594812046677497,-0.004895547608133828, ,0.015228088012529546, ,0.03485344436557386, ,7.746422647963325e-05, ,0.18719904487120212,-0.22643052787226262,0.09754193363000001,1.6697610199672674,0.4763148381823254,-1.3044298829621304, ,0.024445373920265526,0.03960640298767562,0.014520338669097542,-0.00807894707635212,0.0,-0.01790318805345767, ,1.193572998046875
0.012320920995721126,0.02061872800585926,-0.08720582572526922, ,0.012685354986579484,0.020360175816434716,-0.08768787581132043, ,0.0006572926698291636, ,0.004639928378012383,0.0005820480731258006,-0.01614756461810612,0.012679043697763473,0.011440526169132907,-0.01282460903890802, ,0.016811054648903704, ,0.01707754930563093, ,7.797666860929494e-05, ,0.1876392406450329,-0.22565053185196596,0.09787508016000002,1.6695513300237828,0.4776812031799798,-1.3061974919202193, ,0.02051382221324487,0.03521222321279064,0.01647240074457084,-0.00017010404209383983,0.03212455170673705,-0.04764879184993909, ,1.2001841068267822
0.012320920995721126,0.02061872800585926,-0.08720582572526922, ,0.012724686868143086,0.020357916093561752,-0.08780490972427848, ,0.0007680829194806259, ,0.004639928378012383,0.0005820480731258006,-0.01614756461810612,0.012679043697763473,0.011440526169132907,-0.01282460903890802, ,0.016811054648903704, ,0.01707754930563093, ,7.864554873399207e-05, ,0.1876392406450329,-0.22565053185196596,0.09787508016000002,1.6695513300237828,0.4776812031799798,-1.3061974919202193, ,0.02051382221324487,0.03521222321279064,0.01647240074457084,-0.00017010404209383983,0.03212455170673705,-0.04764879184993909, ,1.2066760063171387
0.012371640467688065,0.020619584881732347,-0.08736982544329372, ,0.012764027343093119,0.02035566342052942,-0.08792164214835761, ,0.0007267211801380227, ,0.005566318422899169,0.00018538924389232905,-0.017244139406345005,-0.04013340532311894,-0.027940632469807127,0.0018487430349283182, ,0.01812121998713989, ,0.048901611843180086, ,7.924633442670644e-05, ,0.18787092263125965,-0.22524894974250628,0.09804100528000001,1.6693416400802985,0.4778178396797452,-1.3065539460443372, ,0.025551142045899512,0.04160321857013186,0.017446671982475355,-0.010922430270902554,0.0,-0.0028531555883597346, ,1.2133700847625732
0.012428827081321195,0.020621050055005544,-0.08753784755574677, ,0.012803376178755491,0.020353417820797585,-0.08803807331310168, ,0.0006798086844820984, ,0.005844406779119335,0.0003913104619416124,-0.017253592776664033,-0.01990193541210837,-0.02896760861000747,0.009027121366786597, ,0.018220776003792877, ,0.035145523936409045, ,7.977216536406192e-05, ,0.1881412182818575,-0.22485509036592083,0.09821081927000001,1.6689222601933293,0.4776812031799798,-1.3066058856209222, ,0.029020471424608806,0.03884442961869455,0.01756208546857773,-0.022925896477722345,0.004900590123479774,-0.023197747639770557, ,1.2202110290527344
0.012428827081321195,0.020621050055005544,-0.08753784755574677, ,0.01284273314307702,0.02035117931783736,-0.08815420344838398, ,0.0007899639416622322, ,0.005844406779119335,0.0003913104619416124,-0.017253592776664033,-0.01990193541210837,-0.02896760861000747,0.009027121366786597, ,0.018220776003792877, ,0.035145523936409045, ,8.045066000412818e-05, ,0.1881412182818575,-0.22485509036592083,0.09821081927000001,1.6689222601933293,0.4776812031799798,-1.3066058856209222, ,0.029020471424608806,0.03884442961869455,0.01756208546857773,-0.022925896477722345,0.004900590123479774,-0.023197747639770557, ,1.2272300720214844
0.012485536740851956,0.020627350611459098,-0.08770637901455275, ,0.012882098004625307,0.02034894793513106,-0.08827003278440838, ,0.0007432862560175594, ,0.005888915547134008,0.0006057828650031205,-0.01747839469274111,-0.024076097807482294,-0.03333608053468551,0.00998528461077653, ,0.018453741632418304, ,0.04112117605138038, ,8.10545047261927e-05, ,0.1884269593982038,-0.22449212192083226,0.09838322584,1.6689222601933293,0.4778178396797452,-1.3066356247844777, ,0.028471929660507284,0.03692487998384077,0.01781746255033557,-0.022925896477722345,-6.335326149746392e-05,-0.017145011489373606, ,1.2339911460876465
0.012553568731387438,0.020634410494533007,-0.08794396984380995, ,0.012921470532587727,0.020346723696172162,-0.08838556155170758, ,0.0006427430791237506, ,0.004781218200498779,0.00039233823561842223,-0.01809977509365639,0.07525689405039596,0.09157402656946943,0.009722793981155598, ,0.018724738588638646, ,0.1185301670535255, ,8.150824412821404e-05, ,0.18878992784329238,-0.22395925335251077,0.09862822465000001,1.6689222601933293,0.47904756817763416,-1.307801743398027, ,0.02603482621631572,0.04104538994743546,0.01869578816901409,-0.024005172588157816,0.12455074724033352,-0.11842350292505269, ,1.2434430122375488
0.012553568731387438,0.020634410494533007,-0.08794396984380995, ,0.012960850496771134,0.020344506624465186,-0.08850078998114344, ,0.0007483123382882634, ,0.004781218200498779,0.00039233823561842223,-0.01809977509365639,0.07525689405039596,0.09157402656946943,0.009722793981155598, ,0.018724738588638646, ,0.1185301670535255, ,8.222283647701351e-05, ,0.18878992784329238,-0.22395925335251077,0.09862822465000001,1.6689222601933293,0.47904756817763416,-1.307801743398027, ,0.02603482621631572,0.04104538994743546,0.01869578816901409,-0.024005172588157816,0.12455074724033352,-0.11842350292505269, ,1.2484831809997559
0.012603810598201096,0.020638261198303757,-0.08811177754062773, ,0.0130002376676011,0.020342296743525678,-0.08861571830390562, ,0.0007061909605328204, ,0.0050069408592478114,-3.273218773343348e-06,-0.015697875448359672,-0.0035149224908083546,-0.0031037713607989467,0.007061035088333703, ,0.01647703738765497, ,0.0046890429227952534, ,8.287187948704428e-05, ,0.18905250076101598,-0.22357311670879956,0.09880063122,1.6689222601933293,0.4797307506764614,-1.3084405116566495, ,0.02458469988561419,0.03881265503413938,0.01594475627627628,-0.020485839423869376,0.02611575443720963,-0.03865741677752519, ,1.253396987915039
0.012603810598201096,0.020638261198303757,-0.08811177754062773, ,0.013039631816121703,0.02034009407688024,-0.08873034675151183, ,0.0008133090648342521, ,0.0050069408592478114,-3.273218773343348e-06,-0.015697875448359672,-0.0035149224908083546,-0.0031037713607989467,0.007061035088333703, ,0.01647703738765497, ,0.0046890429227952534, ,8.366610371541716e-05, ,0.18905250076101598,-0.22357311670879956,0.09880063122,1.6689222601933293,0.4797307506764614,-1.3084405116566495, ,0.02458469988561419,0.03881265503413938,0.01594475627627628,-0.020485839423869376,0.02611575443720963,-0.03865741677752519, ,1.2582080364227295
0.012657157481018647,0.020635650039237133,-0.08827608093689783, ,0.013079032713994299,0.020337898648066382,-0.0888446755558067, ,0.0007680719001464026, ,0.005746504641138597,-6.837410143364727e-05,-0.01744369934296648,-0.05092905416710052,-0.02739408719337126,-0.003042062380327794, ,0.0183659913257135, ,0.05782908400136983, ,8.439029641709804e-05, ,0.1893073509458654,-0.22314064366784297,0.09896655634000001,1.6687125702498449,0.47986738717622685,-1.3086336083004864, ,0.02652234252612375,0.044385847314532635,0.01762036672566372,-0.003380337932265154,0.0,0.00702958133049569, ,1.2630431652069092
0.012657157481018647,0.020635650039237133,-0.08827608093689783, ,0.013118440133497816,0.0203357104806325,-0.08895870494896205, ,0.0008767673386599256, ,0.005746504641138597,-6.837410143364727e-05,-0.01744369934296648,-0.05092905416710052,-0.02739408719337126,-0.003042062380327794, ,0.0183659913257135, ,0.05782908400136983, ,8.526002647206127e-05, ,0.1893073509458654,-0.22314064366784297,0.09896655634000001,1.6687125702498449,0.47986738717622685,-1.3086336083004864, ,0.02652234252612375,0.044385847314532635,0.01762036672566372,-0.003380337932265154,0.0,0.00702958133049569, ,1.2678680419921875
0.012716578460188237,0.020637015027520817,-0.08845306611115698, ,0.013157853847527476,0.02033352959813766,-0.0890724351634746, ,0.0008188073010715628, ,0.00650948735570245,0.0003636779701303155,-0.01984501882772808,-0.04020724024146671,-0.032484660549894386,0.02004885468230282, ,0.020888524590618893, ,0.05169015632550478, ,8.604200872436041e-05, ,0.18957764659646326,-0.22273133882550908,0.09914544436000002,1.6682931903628757,0.4797307506764614,-1.30852219039679, ,0.03020271851001616,0.044489892901299004,0.020061475465994964,-0.03136856206316489,0.006947158144964646,-0.01112337022459382, ,1.274610996246338
0.012716578460188237,0.020637015027520817,-0.08845306611115698, ,0.013197273629594553,0.020331356024151967,-0.08918586643216736, ,0.0009281657086446988, ,0.00650948735570245,0.0003636779701303155,-0.01984501882772808,-0.04020724024146671,-0.032484660549894386,0.02004885468230282, ,0.020888524590618893, ,0.05169015632550478, ,8.696875793939722e-05, ,0.18957764659646326,-0.22273133882550908,0.09914544436000002,1.6682931903628757,0.4797307506764614,-1.30852219039679, ,0.03020271851001616,0.044489892901299004,0.020061475465994964,-0.03136856206316489,0.006947158144964646,-0.01112337022459382, ,1.280738115310669
0.012734093690619308,0.020637296674879554,-0.08851035918500832, ,0.013236699253825712,0.020329189782256053,-0.08929899898818836, ,0.0009846293457986982, ,0.0066028617591366336,0.0003306766121950118,-0.01999833016620827,-0.04152753543369377,-0.03416094939969314,0.02424167638610786, ,0.021062771419468936, ,0.05377270185159689, ,8.796562167490756e-05, ,0.18966259665807975,-0.22260005236664726,0.09920377741000001,1.6680835004193915,0.47986738717622685,-1.3086336083004866, ,0.030971586670519188,0.04486853028769304,0.020317361632653064,-0.035847502102281686,0.004696122564500348,-0.009287801647003354, ,1.286086082458496
0.012734093690619308,0.020637296674879554,-0.08851035918500832, ,0.013276130494962563,0.020327030896041307,-0.08941183306500981, ,0.0010966876980734715, ,0.0066028617591366336,0.0003306766121950118,-0.01999833016620827,-0.04152753543369377,-0.03416094939969314,0.02424167638610786, ,0.021062771419468936, ,0.05377270185159689, ,8.91079959314902e-05, ,0.18966259665807975,-0.22260005236664726,0.09920377741000001,1.6680835004193915,0.47986738717622685,-1.3086336083004866, ,0.030971586670519188,0.04486853028769304,0.020317361632653064,-0.035847502102281686,0.004696122564500348,-0.009287801647003354, ,1.291229009628296
0.012847309691026407,0.020651866594723046,-0.08888635795572719, ,0.013315567128360928,0.02032487938910971,-0.0895243688964279, ,0.0008562964560873243, ,0.00678030191839337,0.0007437700118256086,-0.023076467729850815,0.050614478555899976,0.05541644816230544,0.01708283661243693, ,0.024063438050742167, ,0.07505199279406445, ,8.99126031286116e-05, ,0.19027269255514348,-0.22182777907922482,0.09959266441,1.6676641205324223,0.48164366167317757,-1.3104904347492428, ,0.0345582452871343,0.04821999062930426,0.023774345552238813,-0.03533615190262809,0.09871862584934075,-0.10384996162273553, ,1.2960221767425537
0.012847309691026407,0.020651866594723046,-0.08888635795572719, ,0.013355008929990348,0.020322735285073792,-0.0896366067165618, ,0.000963825263919695, ,0.007262805528150679,0.000516502330741597,-0.022629898518492977,-0.0527363304179816,-0.023063838853653637,-0.00910185423750253, ,0.023772408917791404, ,0.05755914587384824, ,9.085693980144677e-05, ,0.1905970473358609,-0.22132580144240022,0.09982599661000001,1.6674544305889376,0.48205357117247394,-1.3109880459406131, ,0.032410157636089745,0.05055777387238721,0.023018513757225436,0.003030956404784182,0.009021534148601863,0.004329821913778487, ,1.3012540340423584
0.012917617275860356,0.020657126693418387,-0.08911497654579584, ,0.013394455676433745,0.020320598607556514,-0.08974854675985391, ,0.0008614158281438998, ,0.007262805528150679,0.000516502330741597,-0.022629898518492977,-0.0527363304179816,-0.023063838853653637,-0.00910185423750253, ,0.023772408917791404, ,0.05755914587384824, ,9.165483276721855e-05, ,0.1905970473358609,-0.22132580144240022,0.09982599661000001,1.6674544305889376,0.48205357117247394,-1.3109880459406131, ,0.032410157636089745,0.05055777387238721,0.023018513757225436,0.003030956404784182,0.009021534148601863,0.004329821913778487, ,1.3067421913146973
0.012991030586165398,0.020661388588030745,-0.0893390537076481, ,0.013433907144886173,0.02031846938019159,-0.08986018926106876, ,0.000765059144385877, ,0.007262805528150679,0.000516502330741597,-0.022629898518492977,-0.0527363304179816,-0.023063838853653637,-0.00910185423750253, ,0.023772408917791404, ,0.05755914587384824, ,9.231622905073301e-05, ,0.1905970473358609,-0.22132580144240022,0.09982599661000001,1.6674544305889376,0.48205357117247394,-1.3109880459406131, ,0.032410157636089745,0.05055777387238721,0.023018513757225436,0.003030956404784182,0.009021534148601863,0.004329821913778487, ,1.311751127243042
0.012991030586165398,0.020661388588030745,-0.0893390537076481, ,0.01347336311315518,0.0203163476266227,-0.0899715344552924, ,0.0008670235451142286, ,0.007297069298387036,0.00011110159383749288,-0.021475288452347828,-0.06218509082025563,-0.04052701819602063,-0.007957625776207844, ,0.022681436859713272, ,0.07422546838188879, ,9.310934041896155e-05, ,0.1909368475823268,-0.2208083783398272,0.10005414365000001,1.6676641205324223,0.4821902076722393,-1.31118114258445, ,0.03363946882611513,0.051630544917557544,0.021760671475409835,0.0,-0.006876868527417294,0.011645692658994884, ,1.3169901371002197
0.012991030586165398,0.020661388588030745,-0.0893390537076481, ,0.01351282335965956,0.020314233370504198,-0.09008258257793228, ,0.0009724297529758693, ,0.007580020609085767,-0.000116218057200273,-0.02137045081185003,-0.040668044846180876,-0.03226026683580841,-0.012193958089392923, ,0.02267523730796849, ,0.05190963523917225, ,9.403718744937519e-05, ,0.19130753876028955,-0.22026778703863145,0.10027580924000001,1.6676641205324223,0.4821902076722393,-1.31118114258445, ,0.03786789367855977,0.05370511689783292,0.02170137809264305,-0.0003786170264289254,0.0056331194123975725,-0.012378330491974333, ,1.3221709728240967
0.013067398708444972,0.020661067285904115,-0.08955754789894106, ,0.013552287663428853,0.02031212663550069,-0.09019333386471619, ,0.0008724108381066431, ,0.007580020609085767,-0.000116218057200273,-0.02137045081185003,-0.040668044846180876,-0.03226026683580841,-0.012193958089392923, ,0.02267523730796849, ,0.05190963523917225, ,9.495085428943913e-05, ,0.19130753876028955,-0.22026778703863145,0.10027580924000001,1.6676641205324223,0.4821902076722393,-1.31118114258445, ,0.03786789367855977,0.05370511689783292,0.02170137809264305,-0.0003786170264289254,0.0056331194123975725,-0.012378330491974333, ,1.3304340839385986
0.013102710360301915,0.020661436040309573,-0.08965994322078405, ,0.013591755804103304,0.02031002744528685,-0.0903037885516921, ,0.000881583947727523, ,0.007839084362818329,0.0004020633354587935,-0.021920567723563825,-0.009255383752081257,-0.008517487705334168,-0.00972167652124451, ,0.023283560464337306, ,0.012577943549914365, ,9.587186925501656e-05, ,0.19150060708214517,-0.2200283823195305,0.10038080873,1.6674544305889376,0.4824634806717702,-1.3114856571319835, ,0.04200838493070862,0.04958042923640061,0.022498321355932206,-0.003674334378132234,0.034569668671368424,-0.040043965580827644, ,1.3338501453399658
0.013102710360301915,0.020661436040309573,-0.08965994322078405, ,0.013631227561932554,0.02030793582354778,-0.09041394687522752, ,0.0009863135133334785, ,0.007839084362818329,0.0004020633354587935,-0.021920567723563825,-0.009255383752081257,-0.008517487705334168,-0.00972167652124451, ,0.023283560464337306, ,0.012577943549914365, ,9.69270747992708e-05, ,0.19150060708214517,-0.2200283823195305,0.10038080873,1.6674544305889376,0.4824634806717702,-1.3114856571319835, ,0.04200838493070862,0.04958042923640061,0.022498321355932206,-0.003674334378132234,0.034569668671368424,-0.040043965580827644, ,1.3372299671173096
0.013102710360301915,0.020661436040309573,-0.08965994322078405, ,0.013670702717775679,0.020305851793978515,-0.09052380907200908, ,0.0010933067654140672, ,0.007839084362818329,0.0004020633354587935,-0.021920567723563825,-0.009255383752081257,-0.008517487705334168,-0.00972167652124451, ,0.023283560464337306, ,0.012577943549914365, ,9.811840276723838e-05, ,0.19150060708214517,-0.2200283823195305,0.10038080873,1.6674544305889376,0.4824634806717702,-1.3114856571319835, ,0.04200838493070862,0.04958042923640061,0.022498321355932206,-0.003674334378132234,0.034569668671368424,-0.040043965580827644, ,1.340663194656372
0.01320923397997313,0.020653423262793662,-0.0899628562557526, ,0.013710181053100259,0.020303775380284307,-0.09063337537904147, ,0.0009070818631821457, ,0.006655178151324739,-0.0013237384577436827,-0.017990428875326033,0.004574976951505954,0.005064390728246724,0.05721941479784549, ,0.019227563830307378, ,0.006824703876763765, ,9.905743190547837e-05, ,0.1921415939107058,-0.21923294083348538,0.10069191833,1.6666156708149995,0.4838298456694246,-1.31292655112951, ,0.0399566069719877,0.05466413684243708,0.018266985688073393,-0.07802199972048818,0.06241686776986249,-0.07275655793438568, ,1.3439741134643555
0.01320923397997313,0.020653423262793662,-0.0899628562557526, ,0.01374966234998201,0.020301706606180383,-0.09074264603364739, ,0.0010118495576709463, ,0.006655178151324739,-0.0013237384577436827,-0.017990428875326033,0.004574976951505954,0.005064390728246724,0.05721941479784549, ,0.019227563830307378, ,0.006824703876763765, ,0.00010012954612663777, ,0.1921415939107058,-0.21923294083348538,0.10069191833,1.6666156708149995,0.4838298456694246,-1.31292655112951, ,0.0399566069719877,0.05466413684243708,0.018266985688073393,-0.07802199972048818,0.06241686776986249,-0.07275655793438568, ,1.3473010063171387
0.01320923397997313,0.020653423262793662,-0.0899628562557526, ,0.013789146391104012,0.020299645495392007,-0.090851621273467, ,0.0011186421992774255, ,0.006655178151324739,-0.0013237384577436827,-0.017990428875326033,0.004574976951505954,0.005064390728246724,0.05721941479784549, ,0.019227563830307378, ,0.006824703876763765, ,0.00010133635704256964, ,0.1921415939107058,-0.21923294083348538,0.10069191833,1.6666156708149995,0.4838298456694246,-1.31292655112951, ,0.0399566069719877,0.05466413684243708,0.018266985688073393,-0.07802199972048818,0.06241686776986249,-0.07275655793438568, ,1.3506271839141846
0.01328795660885537,0.02064110016839189,-0.09016426933112429, ,0.01382863295975645,0.02029759207165427,-0.09096030133645747, ,0.0010217610691657685, ,0.008286292536744561,-0.0007367380227410344,-0.021740788872115016,-0.019140495981957155,-0.01538056881062097,-0.06067226988745213, ,0.02327804389764185, ,0.02455434027376301, ,0.00010240986733756391, ,0.1925817896845366,-0.21863056766929587,0.10089543586000001,1.6661962909280306,0.4839664821691901,-1.3131196477733469, ,0.045189019789747986,0.06272104531293508,0.022092665076282943,0.04495915638816773,0.019978750074743926,-0.034522391256718625, ,1.353945016860962
0.01328795660885537,0.02064110016839189,-0.09016426933112429, ,0.013868121839835762,0.020295546358712165,-0.09106868646089156, ,0.0011287025627857727, ,0.008286292536744561,-0.0007367380227410344,-0.021740788872115016,-0.019140495981957155,-0.01538056881062097,-0.06067226988745213, ,0.02327804389764185, ,0.02455434027376301, ,0.00010361755730895037, ,0.1925817896845366,-0.21863056766929587,0.10089543586000001,1.6661962909280306,0.4839664821691901,-1.3131196477733469, ,0.045189019789747986,0.06272104531293508,0.022092665076282943,0.04495915638816773,0.019978750074743926,-0.034522391256718625, ,1.3573181629180908
0.01328795660885537,0.02064110016839189,-0.09016426933112429, ,0.013907612815844222,0.020293508380320593,-0.09117677688535838, ,0.001236917706791979, ,0.008286292536744561,-0.0007367380227410344,-0.021740788872115016,-0.019140495981957155,-0.01538056881062097,-0.06067226988745213, ,0.02327804389764185, ,0.02455434027376301, ,0.0001049600378724107, ,0.1925817896845366,-0.21863056766929587,0.10089543586000001,1.6661962909280306,0.4839664821691901,-1.3131196477733469, ,0.045189019789747986,0.06272104531293508,0.022092665076282943,0.04495915638816773,0.019978750074743926,-0.034522391256718625, ,1.3606681823730469
0.013358513658418978,0.020638121368408178,-0.09036817116330595, ,0.013947105672889306,0.020291478160244122,-0.09128457284876172, ,0.0011429759937858228, ,0.009409950083994178,0.00031045693377523956,-0.027619725165194148,-0.03163692509490507,-0.02398988073097964,-0.04648114807419674, ,0.029180348906273378, ,0.03970382014307894, ,0.00010617337456687234, ,0.19293703539675092,-0.2181054218338486,0.10110284226,1.6661962909280306,0.484239755168721,-1.31334248358074, ,0.04422038283246542,0.06468775839023229,0.02814277653710248,0.030607183185256206,0.013497022430258514,-0.026605522212729403, ,1.3651480674743652
0.013358513658418978,0.020638121368408178,-0.09036817116330595, ,0.013986600196683172,0.020289455722257065,-0.09139207459032049, ,0.0012507752236940073, ,0.009409950083994178,0.00031045693377523956,-0.027619725165194148,-0.03163692509490507,-0.02398988073097964,-0.04648114807419674, ,0.029180348906273378, ,0.03970382014307894, ,0.00010752023380754712, ,0.19293703539675092,-0.2181054218338486,0.10110284226,1.6661962909280306,0.484239755168721,-1.31334248358074, ,0.04422038283246542,0.06468775839023229,0.02814277653710248,0.030607183185256206,0.013497022430258514,-0.026605522212729403, ,1.368757963180542
0.013358513658418978,0.020638121368408178,-0.09036817116330595, ,0.014026096173542191,0.020287441090143302,-0.09149928234956713, ,0.0013594320828005102, ,0.009409950083994178,0.00031045693377523956,-0.027619725165194148,-0.03163692509490507,-0.02398988073097964,-0.04648114807419674, ,0.029180348906273378, ,0.03970382014307894, ,0.00010900068867842088, ,0.19293703539675092,-0.2181054218338486,0.10110284226,1.6661962909280306,0.484239755168721,-1.31334248358074, ,0.04422038283246542,0.06468775839023229,0.02814277653710248,0.030607183185256206,0.013497022430258514,-0.026605522212729403, ,1.372406005859375
0.013435019236079818,0.020647051074026333,-0.09061509846557256, ,0.014065593390385978,0.020285434287696538,-0.09160619636634797, ,0.001229091336376528, ,0.009146711081350224,0.0015380895722232662,-0.03088712527680107,0.06546792725791278,0.08829735847445672,-0.03878379542395454, ,0.032249690711736764, ,0.10992017513310362, ,0.00011030532088360758, ,0.19330000384183949,-0.21760344419702402,0.10135691510000001,1.6661962909280306,0.4849229376675481,-1.3141446093196436, ,0.04446904477903973,0.05945923656545788,0.031985565301204825,0.023089582509334267,0.12923730631926483,-0.11802889585786848, ,1.3761210441589355
0.013435019236079818,0.020647051074026333,-0.09061509846557256, ,0.01410509163473747,0.02028343533871982,-0.0917128168808221, ,0.0013364876137036505, ,0.009146711081350224,0.0015380895722232662,-0.03088712527680107,0.06546792725791278,0.08829735847445672,-0.03878379542395454, ,0.032249690711736764, ,0.10992017513310362, ,0.00011174145598262487, ,0.19330000384183949,-0.21760344419702402,0.10135691510000001,1.6661962909280306,0.4849229376675481,-1.3141446093196436, ,0.04446904477903973,0.05945923656545788,0.031985565301204825,0.023089582509334267,0.12923730631926483,-0.11802889585786848, ,1.3795909881591797
0.013573225349573295,0.02067120663521723,-0.09107305583886503, ,0.01414459069472171,0.02028144426702584,-0.09181914413346132, ,0.001017359722334395, ,0.010537875184674056,0.001754971736446168,-0.03374144672204133,0.033528848448028996,0.02402135386502357,-0.02359899705630936, ,0.0353922585617229, ,0.041245186214032885, ,0.00011276055330017191, ,0.19397188160189702,-0.2167462208479851,0.10183135724,1.6664059808715153,0.4866992121644989,-1.3159197570282593, ,0.04800047625618147,0.0621053282450725,0.034779064454148474,0.0,0.07230995359530515,-0.09496360713243049, ,1.3828880786895752
0.013573225349573295,0.02067120663521723,-0.09107305583886503, ,0.014184090359065867,0.02027946109643651,-0.09192517836504906, ,0.0011192557467385187, ,0.010537875184674056,0.001754971736446168,-0.03374144672204133,0.033528848448028996,0.02402135386502357,-0.02359899705630936, ,0.0353922585617229, ,0.041245186214032885, ,0.00011390489983043846, ,0.19397188160189702,-0.2167462208479851,0.10183135724,1.6664059808715153,0.4866992121644989,-1.3159197570282593, ,0.04800047625618147,0.0621053282450725,0.034779064454148474,0.0,0.07230995359530515,-0.09496360713243049, ,1.3861069679260254
0.013573225349573295,0.02067120663521723,-0.09107305583886503, ,0.014223590417098041,0.020277485850783452,-0.0920309198166799, ,0.0012229039934299522, ,0.010537875184674056,0.001754971736446168,-0.03374144672204133,0.033528848448028996,0.02402135386502357,-0.02359899705630936, ,0.0353922585617229, ,0.041245186214032885, ,0.00011517577364112693, ,0.19397188160189702,-0.2167462208479851,0.10183135724,1.6664059808715153,0.4866992121644989,-1.3159197570282593, ,0.04800047625618147,0.0621053282450725,0.034779064454148474,0.0,0.07230995359530515,-0.09496360713243049, ,1.3894059658050537
0.01369157589987568,0.02068211718517795,-0.0914328787322658, ,0.01426309065874737,0.020275518553907353,-0.0921363687297599, ,0.0009934031121017995, ,0.012298102253444099,0.0011916078240288524,-0.03697800081206695,-0.035362684381324117,-0.04063663037893141,-0.002902328089127813, ,0.038987636403091656, ,0.05386822845755315, ,0.00011614781385108814, ,0.1945047501702185,-0.21603572942355642,0.1021995036,1.6657769110410614,0.48697248516402974,-1.3161425928356523, ,0.05494901074607457,0.07396488040410817,0.03783565681710214,-0.020485352816400137,0.018438563963133037,-0.04201018860884523, ,1.3926961421966553
0.01369157589987568,0.02068211718517795,-0.0914328787322658, ,0.014302590874542975,0.020273559229658306,-0.09224152534600495, ,0.001092780054813348, ,0.012298102253444099,0.0011916078240288524,-0.03697800081206695,-0.035362684381324117,-0.04063663037893141,-0.002902328089127813, ,0.038987636403091656, ,0.05386822845755315, ,0.00011724118669366904, ,0.1945047501702185,-0.21603572942355642,0.1021995036,1.6657769110410614,0.48697248516402974,-1.3161425928356523, ,0.05494901074607457,0.07396488040410817,0.03783565681710214,-0.020485352816400137,0.018438563963133037,-0.04201018860884523, ,1.3959650993347168
0.01369157589987568,0.02068211718517795,-0.0914328787322658, ,0.014342090855613377,0.020271607901895704,-0.09234638990744033, ,0.001194232073957184, ,0.012298102253444099,0.0011916078240288524,-0.03697800081206695,-0.035362684381324117,-0.04063663037893141,-0.002902328089127813, ,0.038987636403091656, ,0.05386822845755315, ,0.00011845759949540522, ,0.1945047501702185,-0.21603572942355642,0.1021995036,1.6657769110410614,0.48697248516402974,-1.3161425928356523, ,0.05494901074607457,0.07396488040410817,0.03783565681710214,-0.020485352816400137,0.018438563963133037,-0.04201018860884523, ,1.3992931842803955
0.01369157589987568,0.02068211718517795,-0.0914328787322658, ,0.014381590393686533,0.020269664594487927,-0.09245096265640125, ,0.0012972016103208468, ,0.012298102253444099,0.0011916078240288524,-0.03697800081206695,-0.035362684381324117,-0.04063663037893141,-0.002902328089127813, ,0.038987636403091656, ,0.05386822845755315, ,0.00011994968052176654, ,0.1945047501702185,-0.21603572942355642,0.1021995036,1.6657769110410614,0.48697248516402974,-1.3161425928356523, ,0.05494901074607457,0.07396488040410817,0.03783565681710214,-0.020485352816400137,0.018438563963133037,-0.04201018860884523, ,1.4009571075439453
0.01380698545030903,0.020690936405211892,-0.09177205042371424, ,0.01442108928108855,0.020267729331312594,-0.0925552438355308, ,0.0010814895573649167, ,0.012346873219551548,0.0009301957871806377,-0.03501722182418095,-0.049314405173608286,-0.06020274482149408,0.04110498589114011, ,0.03714184118734641, ,0.07782177324148436, ,0.00012116528087175788, ,0.19504534147141422,-0.21535612893062467,0.10254690932,1.6651478412106078,0.48724575816356064,-1.3165287861233261, ,0.058759716135276016,0.06977716291064028,0.035875701621621625,-0.064067350921021,0.011975679538458616,-0.03209780253691731, ,1.4027891159057617
0.01380698545030903,0.020690936405211892,-0.09177205042371424, ,0.014460587310743315,0.020265802136256464,-0.09265923368778088, ,0.0011811133233705256, ,0.012346873219551548,0.0009301957871806377,-0.03501722182418095,-0.049314405173608286,-0.06020274482149408,0.04110498589114011, ,0.03714184118734641, ,0.07782177324148436, ,0.00012250359910723611, ,0.19504534147141422,-0.21535612893062467,0.10254690932,1.6651478412106078,0.48724575816356064,-1.3165287861233261, ,0.058759716135276016,0.06977716291064028,0.035875701621621625,-0.064067350921021,0.011975679538458616,-0.03209780253691731, ,1.4046120643615723
0.01380698545030903,0.020690936405211892,-0.09177205042371424, ,0.014500084276172467,0.020263883033215132,-0.09276293245641003, ,0.0012824226166386866, ,0.012346873219551548,0.0009301957871806377,-0.03501722182418095,-0.049314405173608286,-0.06020274482149408,0.04110498589114011, ,0.03714184118734641, ,0.07782177324148436, ,0.0001239662964811724, ,0.19504534147141422,-0.21535612893062467,0.10254690932,1.6651478412106078,0.48724575816356064,-1.3165287861233261, ,0.058759716135276016,0.06977716291064028,0.035875701621621625,-0.064067350921021,0.011975679538458616,-0.03209780253691731, ,1.4062941074371338
0.01380698545030903,0.020690936405211892,-0.09177205042371424, ,0.014539579971493941,0.02026197204609334,-0.09286634038498462, ,0.0013849821923769526, ,0.012346873219551548,0.0009301957871806377,-0.03501722182418095,-0.049314405173608286,-0.06020274482149408,0.04110498589114011, ,0.03714184118734641, ,0.07782177324148436, ,0.00012555447771026026, ,0.19504534147141422,-0.21535612893062467,0.10254690932,1.6651478412106078,0.48724575816356064,-1.3165287861233261, ,0.058759716135276016,0.06977716291064028,0.035875701621621625,-0.064067350921021,0.011975679538458616,-0.03209780253691731, ,1.4079539775848389
0.01380698545030903,0.020690936405211892,-0.09177205042371424, ,0.014579074191421921,0.020260069198804635,-0.09296945771737697, ,0.0014884729761158537, ,0.012346873219551548,0.0009301957871806377,-0.03501722182418095,-0.049314405173608286,-0.06020274482149408,0.04110498589114011, ,0.03714184118734641, ,0.07782177324148436, ,0.0001272688406013365, ,0.19504534147141422,-0.21535612893062467,0.10254690932,1.6651478412106078,0.48724575816356064,-1.3165287861233261, ,0.058759716135276016,0.06977716291064028,0.035875701621621625,-0.064067350921021,0.011975679538458616,-0.03209780253691731, ,1.4096460342407227
0.01380698545030903,0.020690936405211892,-0.09177205042371424, ,0.014618566731266519,0.02025817451527142,-0.09307228469776538, ,0.001592656961307972, ,0.012346873219551548,0.0009301957871806377,-0.03501722182418095,-0.049314405173608286,-0.06020274482149408,0.04110498589114011, ,0.03714184118734641, ,0.07782177324148436, ,0.00012910978045147046, ,0.19504534147141422,-0.21535612893062467,0.10254690932,1.6651478412106078,0.48724575816356064,-1.3165287861233261, ,0.058759716135276016,0.06977716291064028,0.035875701621621625,-0.064067350921021,0.011975679538458616,-0.03209780253691731, ,1.411384105682373
0.01392978592202361,0.020696927086785426,-0.09212958731513773, ,0.014658057386932705,0.020256288019424883,-0.09317482157063378, ,0.001347982478798439, ,0.012346873219551548,0.0009301957871806377,-0.03501722182418095,-0.049314405173608286,-0.06020274482149408,0.04110498589114011, ,0.03714184118734641, ,0.07782177324148436, ,0.0007180646049528891, ,0.1957017737657233,-0.21458385564320223,0.10291635197000001,1.6649381512671235,0.4884754866614496,-1.3178582622171562, ,0.06754230715905395,0.07927898208727718,0.036957799350348035,0.017431944558399436,0.14621022226158842,-0.14838317700220233, ,1.413102149963379
0.01392978592202361,0.020696927086785426,-0.09212958731513773, ,0.014697545954919872,0.020254409735205054,-0.0932770685807705, ,0.0014498242409136228, ,0.012296857166639532,0.0005380624957828245,-0.03567862556317607,0.07470034669571039,0.08118717786488455,-0.042988446633217665, ,0.03774210552557214, ,0.11032425767308467, ,0.0007230766572539901, ,0.1957017737657233,-0.21458385564320223,0.10291635197000001,1.6649381512671235,0.4884754866614496,-1.3178582622171562, ,0.06754230715905395,0.07927898208727718,0.036957799350348035,0.017431944558399436,0.14621022226158842,-0.14838317700220233, ,1.4148831367492676
0.01392978592202361,0.020696927086785426,-0.09212958731513773, ,0.014737032232321342,0.020252539686560645,-0.0933790259732684, ,0.0015524895256970985, ,0.012296857166639532,0.0005380624957828245,-0.03567862556317607,0.07470034669571039,0.08118717786488455,-0.042988446633217665, ,0.03774210552557214, ,0.11032425767308467, ,0.0007287189216651677, ,0.1957017737657233,-0.21458385564320223,0.10291635197000001,1.6649381512671235,0.4884754866614496,-1.3178582622171562, ,0.06754230715905395,0.07927898208727718,0.036957799350348035,0.017431944558399436,0.14621022226158842,-0.14838317700220233, ,1.4167160987854004
0.01392978592202361,0.020696927086785426,-0.09212958731513773, ,0.014776516016823962,0.020250677897448867,-0.09348069399352388, ,0.0016557715569497466, ,0.012296857166639532,0.0005380624957828245,-0.03567862556317607,0.07470034669571039,0.08118717786488455,-0.042988446633217665, ,0.03774210552557214, ,0.11032425767308467, ,0.000734982790822496, ,0.1957017737657233,-0.21458385564320223,0.10291635197000001,1.6649381512671235,0.4884754866614496,-1.3178582622171562, ,0.06754230715905395,0.07927898208727718,0.036957799350348035,0.017431944558399436,0.14621022226158842,-0.14838317700220233, ,1.418558120727539
0.01392978592202361,0.020696927086785426,-0.09212958731513773, ,0.014815997106707168,0.020248824391835736,-0.09358207288723676, ,0.0017595114737435618, ,0.012296857166639532,0.0005380624957828245,-0.03567862556317607,0.07470034669571039,0.08118717786488455,-0.042988446633217665, ,0.03774210552557214, ,0.11032425767308467, ,0.0007418588222514965, ,0.1957017737657233,-0.21458385564320223,0.10291635197000001,1.6649381512671235,0.4884754866614496,-1.3178582622171562, ,0.06754230715905395,0.07927898208727718,0.036957799350348035,0.017431944558399436,0.14621022226158842,-0.14838317700220233, ,1.4207220077514648
0.014067006997310144,0.020709456950186948,-0.09254339289128542, ,0.01485547530084288,0.02024697919369553,-0.09368316290040916, ,0.001461041961965179, ,0.014767246667225186,0.0019864470804466547,-0.045986324130271886,0.08218510088835637,0.09036327309180583,-0.017693996563310773, ,0.04834004088898265, ,0.12214624953268571, ,0.0007466533765162544, ,0.19641998792302617,-0.21373435502703753,0.10334542396000002,1.6651478412106078,0.4901151246586349,-1.3194403132819348, ,0.0732794915509427,0.08611337709480106,0.047691052455089825,-0.011692882703857571,0.16753752563541205,-0.16790561403193627, ,1.423065185546875
0.014067006997310144,0.020709456950186948,-0.09254339289128542, ,0.014894950398694387,0.020245142327011287,-0.09378396427934577, ,0.0015620805722063229, ,0.014767246667225186,0.0019864470804466547,-0.045986324130271886,0.08218510088835637,0.09036327309180583,-0.017693996563310773, ,0.04834004088898265, ,0.12214624953268571, ,0.0007520535566201621, ,0.19641998792302617,-0.21373435502703753,0.10334542396000002,1.6651478412106078,0.4901151246586349,-1.3194403132819348, ,0.0732794915509427,0.08611337709480106,0.047691052455089825,-0.011692882703857571,0.16753752563541205,-0.16790561403193627, ,1.424880027770996
0.014067006997310144,0.020709456950186948,-0.09254339289128542, ,0.014934422200316256,0.02024331381577431,-0.09388447727065219, ,0.001663792615907318, ,0.014767246667225186,0.0019864470804466547,-0.045986324130271886,0.08218510088835637,0.09036327309180583,-0.017693996563310773, ,0.04834004088898265, ,0.12214624953268571, ,0.000758051839904946, ,0.19641998792302617,-0.21373435502703753,0.10334542396000002,1.6651478412106078,0.4901151246586349,-1.3194403132819348, ,0.0732794915509427,0.08611337709480106,0.047691052455089825,-0.011692882703857571,0.16753752563541205,-0.16790561403193627, ,1.426537036895752
0.014067006997310144,0.020709456950186948,-0.09254339289128542, ,0.014973890506353626,0.020241493683984303,-0.09398470212123558, ,0.0017660123481532011, ,0.014767246667225186,0.0019864470804466547,-0.045986324130271886,0.08218510088835637,0.09036327309180583,-0.017693996563310773, ,0.04834004088898265, ,0.12214624953268571, ,0.0007646398170830391, ,0.19641998792302617,-0.21373435502703753,0.10334542396000002,1.6651478412106078,0.4901151246586349,-1.3194403132819348, ,0.0732794915509427,0.08611337709480106,0.047691052455089825,-0.011692882703857571,0.16753752563541205,-0.16790561403193627, ,1.428192138671875
0.014067006997310144,0.020709456950186948,-0.09254339289128542, ,0.015013355118041513,0.020239681955649326,-0.09408463907830332, ,0.0018686099432738293, ,0.014767246667225186,0.0019864470804466547,-0.045986324130271886,0.08218510088835637,0.09036327309180583,-0.017693996563310773, ,0.04834004088898265, ,0.12214624953268571, ,0.0007718084542660962, ,0.19641998792302617,-0.21373435502703753,0.10334542396000002,1.6651478412106078,0.4901151246586349,-1.3194403132819348, ,0.0732794915509427,0.08611337709480106,0.047691052455089825,-0.011692882703857571,0.16753752563541205,-0.16790561403193627, ,1.4298810958862305
0.014067006997310144,0.020709456950186948,-0.09254339289128542, ,0.015052815837204287,0.020237878654785633,-0.09418428838936255, ,0.001971482486129872, ,0.014767246667225186,0.0019864470804466547,-0.045986324130271886,0.08218510088835637,0.09036327309180583,-0.017693996563310773, ,0.04834004088898265, ,0.12214624953268571, ,0.0007795482867297335, ,0.19641998792302617,-0.21373435502703753,0.10334542396000002,1.6651478412106078,0.4901151246586349,-1.3194403132819348, ,0.0732794915509427,0.08611337709480106,0.047691052455089825,-0.011692882703857571,0.16753752563541205,-0.16790561403193627, ,1.431814193725586
0.014219070880964786,0.02073366650763081,-0.09301286992315705, ,0.015092272466255299,0.02023608380541782,-0.0942836503022201, ,0.00162017046199068, ,0.017103990638154126,0.003037724678958715,-0.05212047305215929,0.04273626435802527,0.02787420883493654,-0.0030284655976111205, ,0.05493922076400503, ,0.05101936084176633, ,0.0007849368904173037, ,0.19713820208032906,-0.21291574534236973,0.10383153271000001,1.6647284613236386,0.4913448531565239,-1.3207697893757648, ,0.07967837242524835,0.08754330402072949,0.0539959712542373,-0.029682148668247893,0.11436075938829972,-0.134575486395659, ,1.4334709644317627
0.014219070880964786,0.02073366650763081,-0.09301286992315705, ,0.01513172480819618,0.02023429743157842,-0.09438272506498122, ,0.0017201191163958415, ,0.017103990638154126,0.003037724678958715,-0.05212047305215929,0.04273626435802527,0.02787420883493654,-0.0030284655976111205, ,0.05493922076400503, ,0.05101936084176633, ,0.0007908934651050651, ,0.19713820208032906,-0.21291574534236973,0.10383153271000001,1.6647284613236386,0.4913448531565239,-1.3207697893757648, ,0.07967837242524835,0.08754330402072949,0.0539959712542373,-0.029682148668247893,0.11436075938829972,-0.134575486395659, ,1.4351551532745361
0.014219070880964786,0.02073366650763081,-0.09301286992315705, ,0.015171172666615995,0.02023251955730842,-0.09448151292604991, ,0.0018205928556390104, ,0.017103990638154126,0.003037724678958715,-0.05212047305215929,0.04273626435802527,0.02787420883493654,-0.0030284655976111205, ,0.05493922076400503, ,0.05101936084176633, ,0.0007974105498552799, ,0.19713820208032906,-0.21291574534236973,0.10383153271000001,1.6647284613236386,0.4913448531565239,-1.3207697893757648, ,0.07967837242524835,0.08754330402072949,0.0539959712542373,-0.029682148668247893,0.11436075938829972,-0.134575486395659, ,1.4368021488189697
0.014219070880964786,0.02073366650763081,-0.09301286992315705, ,0.015210615845691307,0.02023075020665645,-0.09458001413412742, ,0.0019214648580804703, ,0.017103990638154126,0.003037724678958715,-0.05212047305215929,0.04273626435802527,0.02787420883493654,-0.0030284655976111205, ,0.05493922076400503, ,0.05101936084176633, ,0.0008044800738063818, ,0.19713820208032906,-0.21291574534236973,0.10383153271000001,1.6647284613236386,0.4913448531565239,-1.3207697893757648, ,0.07967837242524835,0.08754330402072949,0.0539959712542373,-0.029682148668247893,0.11436075938829972,-0.134575486395659, ,1.4384710788726807
0.014219070880964786,0.02073366650763081,-0.09301286992315705, ,0.015250054150185117,0.02022898940367946,-0.09467822893821246, ,0.002022633463999663, ,0.017103990638154126,0.003037724678958715,-0.05212047305215929,0.04273626435802527,0.02787420883493654,-0.0030284655976111205, ,0.05493922076400503, ,0.05101936084176633, ,0.0008120935324950899, ,0.19713820208032906,-0.21291574534236973,0.10383153271000001,1.6647284613236386,0.4913448531565239,-1.3207697893757648, ,0.07967837242524835,0.08754330402072949,0.0539959712542373,-0.029682148668247893,0.11436075938829972,-0.134575486395659, ,1.4401299953460693
0.014219070880964786,0.02073366650763081,-0.09301286992315705, ,0.015289487385446564,0.020227237172442104,-0.09477615758760033, ,0.0021240163728616836, ,0.017103990638154126,0.003037724678958715,-0.05212047305215929,0.04273626435802527,0.02787420883493654,-0.0030284655976111205, ,0.05493922076400503, ,0.05101936084176633, ,0.0008202421215656899, ,0.19713820208032906,-0.21291574534236973,0.10383153271000001,1.6647284613236386,0.4913448531565239,-1.3207697893757648, ,0.07967837242524835,0.08754330402072949,0.0539959712542373,-0.029682148668247893,0.11436075938829972,-0.134575486395659, ,1.4417641162872314
0.014403780324916533,0.020764243928112724,-0.09358899767529381, ,0.015328915357409897,0.020225493537017164,-0.09487380033188239, ,0.0016723769547052428, ,0.019191043913156913,0.0036830052435054103,-0.060438797532966035,-0.007484956628002492,-0.0004147600077696095,0.07524860487615705, ,0.0635193587918775, ,0.007442455815174502, ,0.0008255022131282797, ,0.19795681176499685,-0.2119581264659659,0.10442652982000002,1.663680011606216,0.49243794515464734,-1.3218244900856173, ,0.08259089778805116,0.09508711579005087,0.062465927529411776,-0.10627483803015504,0.10526497858039274,-0.10575063155998966, ,1.4434351921081543
