NicholasDascanio/dvrk_moveit_final/test/execution/third_experiment_notsharpbends/thirdexp_700vel4.0/thirdexp_700vel4.0_20.csv
Current Position (x),Current Position (y),Current Position (z), ,Planned Position (x),Planned Position (y),Planned Position (z), ,Position Error,,Cartesian linear Velocity(x),Cartesian linear Velocity(y),Cartesian linear Velocity(z),Cartesian Angular Velocity(x),Cartesian Angular Velocity(y),Cartesian Angular Velocity(z), ,Total Linear Velocity, ,Total Angular Velocity, ,MSE, ,Joint 1 Position,Joint 2 Position,Joint 3 Position,Joint 4 Position,Joint 5 Position,Joint 6 Position, ,Joint 1 Velocity,Joint 2 Velocity,Joint 3 Velocity,Joint 4 Velocity,Joint 5 Velocity,Joint 6 Velocity, ,Time Stamp
0.00920916659951411,0.020195806258156458,-0.07936140559542287, ,0.009381002355110442,0.020139002129007638,-0.07942442968352846, ,0.00019164099684373172, ,1.5211985968214006e-05,-3.9483300965399107e-07,1.6647354105214674e-06,0.08296076497943373,0.0011394350957764122,-0.025023615050972257, ,1.5307898424986243e-05, ,0.08296858946800485, ,1.5970083070310977e-05, ,0.1661700432546888,-0.2428722261614866,0.08976548992000001,1.6726966791760507,0.4631977342048431,-1.2798483783833783, ,0.0001985738525519849,-6.246972517345603e-05,0.0,-0.0013701442375043133,0.0,-0.08721043800211903, ,0.01650691032409668
0.009211433099059217,0.020197365015186187,-0.0793674678894577, ,0.00941883709095786,0.02015627856104225,-0.07949057752562728, ,0.0002446640453508075, ,0.00015999926802145485,0.00018467609971627158,-0.000732222788976166,0.19261867775498442,0.0030757953121432627,-0.05979436121828251, ,0.0007719166018876978, ,0.1926432338206575, ,1.9832047372479053e-05, ,0.16618548872043723,-0.2428722261614866,0.08977197137000001,1.6726966791760507,0.4631977342048431,-1.2813185957059088, ,0.00046650193368569774,-6.246972517345603e-05,0.0007692391485248147,-0.0013517327446146876,0.0,-0.20226187258452866, ,0.03256082534790039
0.009223431822291617,0.020202735914337775,-0.07938911974572753, ,0.00945664550383387,0.02017338668549941,-0.07955669975527092, ,0.00028867465785978194, ,0.0004630580058447576,0.0002563190257993281,-0.0009871431763276545,0.3030545126935936,0.0020495744727503417,-0.09467400336276202, ,0.0011200775912113816, ,0.30306144330724405, ,2.2655615626697534e-05, ,0.16624727058343103,-0.2428722261614866,0.0897940083,1.6726966791760507,0.4627878247055468,-1.284578206561004, ,0.0036814898905310903,-6.246972517345603e-05,0.0010665674431677196,-0.001318306999353061,0.0,-0.3180807165739412, ,0.049408912658691406
0.009237803875587078,0.020204908602692567,-0.07940314149025475, ,0.00949442756860372,0.02019032722418578,-0.07962279626837702, ,0.0003381073172361158, ,0.001892045316784778,0.00034622140393463516,-0.0015910054102569273,0.18732780018220768,-0.14229795616391294,-0.09972421219707843, ,0.002496197699858025, ,0.23524543151679234, ,2.5311595649772302e-05, ,0.16635538884367015,-0.2428722261614866,0.08983160071000001,1.6726966791760507,0.46060164070929976,-1.2871244933293111, ,0.007476981713060198,-6.246972517345603e-05,0.0036425363640521387,0.0011752094974060276,-0.08909128199433583,-0.1726144615284657, ,0.06606888771057129
0.009272363280761333,0.020221135328283707,-0.07945982817748537, ,0.009532183260408725,0.020207100897596836,-0.07968886696098555, ,0.0003466441279120697, ,0.0013219463328295168,0.000727346467337615,-0.0027914780721489474,0.3250792023214624,-0.004042862263078484,-0.1030462968871947, ,0.00317315691665545, ,0.32510434096927565, ,2.7110214330817434e-05, ,0.16644033890528664,-0.24287994889436082,0.08986271167000001,1.6729063691195354,0.4601917312100034,-1.2898123530034227, ,0.010522082353506499,4.226758679274849e-05,0.0030185354405912455,0.0012192275502235883,0.0,-0.3405764966939475, ,0.0834648609161377
0.009329368045554225,0.020244030681311476,-0.07955712521358084, ,0.009569912554665615,0.020223708424918104,-0.07975491172925954, ,0.0003120803754690101, ,0.003117076128928915,0.0014190176161984224,-0.005716970154748031,-0.0685385613103283,-0.15364262222996655,-0.019376303329161133, ,0.006664347105223411, ,0.16823670748704878, ,2.7771153559218007e-05, ,0.16666429815863915,-0.2428722261614866,0.08995863713,1.6729063691195354,0.4574590012146946,-1.2933015067393336, ,0.011725805209251301,-0.0003060305677008151,0.005682772572244025,0.0011979354126269149,-0.14613358987170535,0.06298392660544677, ,0.0999298095703125
0.009368625231621311,0.02026591318363279,-0.07963992136449619, ,0.009607615427066552,0.020240150524025606,-0.07982093046948474, ,0.00030090583948761795, ,0.0022406060611319264,0.000998736735158836,-0.0038599513652373234,-0.04759200515186195,-0.0749325916875479,-0.0034230363077533675, ,0.004573512340568716, ,0.08876875717576972, ,2.809329666887687e-05, ,0.166934593809237,-0.24287994889436082,0.09004678485,1.6729063691195354,0.45704909171539826,-1.2910886420050114, ,0.013791155581815255,0.0009572527665844202,0.0031294325186640476,0.0011677124474665733,0.02120502526261317,0.22363286362952542, ,0.1165008544921875
0.009383069037730741,0.020275179383518235,-0.07967415099725844, ,0.009645291853578514,0.020256427911487337,-0.07988692307806944, ,0.0003382076007825692, ,0.0015631329287448712,0.0009628237765721892,-0.0038105515425625137,-0.1196218050093854,0.03485629530228483,0.05079818020965849, ,0.004229741982223597, ,0.12459669961560015, ,2.879176781636224e-05, ,0.1670967711995957,-0.24287994889436082,0.09008567355000001,1.6729063691195354,0.4575956377144601,-1.2895740238564235, ,0.016967091285262074,0.0008021526712009083,0.004288856090468499,0.0011542828011568182,0.055704022134650366,0.1281674822950376, ,0.13353490829467773
0.009413150273004158,0.020294507751705115,-0.07974442989794411, ,0.009682941810442724,0.020272541302564208,-0.0799528894515452, ,0.00034165096816618387, ,0.0019455611869394452,0.0009223194597356767,-0.003452371503949875,-0.02884652149947633,-0.0010186395820353398,0.013862660434231495, ,0.004068752943988792, ,0.02886450118618711, ,2.937582531639008e-05, ,0.16744429417893583,-0.2428722261614866,0.09016604353,1.6731160590630199,0.45882536621234904,-1.2888615314467395, ,0.018643799913255557,0.0,0.003843825173745174,0.0002334484155444507,0.01876944574992046,0.03144993181928346, ,0.15014290809631348
0.00945646078963414,0.020313412454260573,-0.0798178728046776, ,0.009720565274175117,0.02028849141121062,-0.08001882948656659, ,0.0003327999776700514, ,0.0020321980675179537,0.0009792752502179865,-0.0034539952921880624,0.04724849632563332,-0.007560587509572506,-0.02050395290974036, ,0.004125396039142243, ,0.047849586080045595, ,2.9758587321352345e-05, ,0.16782270808977282,-0.24285678069573816,0.09024641351000001,1.6733257490065043,0.45882536621234904,-1.2892699251474424, ,0.01856356446761948,-0.00029696704809047803,0.003831804551359154,0.009065381535405082,0.008287014590978015,-0.04710855700633214, ,0.16849398612976074
0.009477119681648513,0.02032276117143153,-0.07985069888149726, ,0.00975816222156497,0.020304278950076023,-0.08008474307991124, ,0.000366201022063253, ,0.0021898786389039963,0.000887546054363256,-0.003378866593443852,0.011056909278547676,-0.01180331697849481,-0.010162128063953384, ,0.004123111192780843, ,0.0161732351138679, ,3.0371222578939215e-05, ,0.1680080536787542,-0.24286450342861238,0.09028270963000001,1.6733257490065043,0.45882536621234904,-1.2897599975882856, ,0.020460746347233886,0.0006007340598360668,0.0037488377312308785,0.009065381535405082,0.0065234005700016105,-0.010242505555572014, ,0.1843888759613037
0.009500943321858728,0.020331804640593153,-0.07988725752528537, ,0.009795732629675431,0.020319904630505644,-0.08015063012848024, ,0.00039548384841453944, ,0.0023321399970815844,0.0010861464819768654,-0.0036290329070014335,0.04596559377947868,-0.013585205813444282,-0.019972906667219834, ,0.004448423427057916, ,0.04793113422259325, ,3.112344899389944e-05, ,0.1682242901992325,-0.24285678069573816,0.09032289462000001,1.6733257490065043,0.45882536621234904,-1.2901683912889885, ,0.021547897719907082,-0.0009959000377010206,0.0040510710885045785,0.008420759754422195,0.005330886220356284,-0.04533302166037111, ,0.20130181312561035
0.009565821843609056,0.02036172888253797,-0.0799983281180421, ,0.009833276475842584,0.020335369162541347,-0.08021649052929786, ,0.0003461526438240782, ,0.00238248988157527,0.0011324615838476935,-0.004405436339387059,-0.019107623906965514,-0.018024303949652376,-0.0006542949328076861, ,0.005134841440111994, ,0.02626740989477491, ,3.1627583367021445e-05, ,0.1687880496990509,-0.24286450342861238,0.09044474588000001,1.6733257490065043,0.45882536621234904,-1.2898416763284264, ,0.020020451805584552,0.0006173731462975267,0.004800726799276674,0.007126013235754061,0.0006650503087558451,0.020627172450207273, ,0.2173769474029541
0.009589580862487752,0.020373145796377973,-0.08004099863392003, ,0.00987079373767529,0.020350673254922895,-0.08028232417951206, ,0.00037124616529465095, ,0.0024230278804592874,0.0010640283720420051,-0.004122235837863896,-0.018231685231825306,-0.020516445544592702,0.004753568700724916, ,0.004898576200179277, ,0.027446655224020896, ,3.224613990267472e-05, ,0.16898884075378073,-0.24285678069573816,0.09049141232,1.673535438949989,0.45882536621234904,-1.2898416763284264, ,0.02112106422400863,0.0003218883261738758,0.004516249367734619,0.0010248408304676633,0.0007100373520409784,0.01897567204038591, ,0.23281502723693848
0.009621287336156269,0.020387034527677806,-0.08009232656924198, ,0.009908284393054885,0.020365817615088787,-0.08034813097639396, ,0.0003850368329999773, ,0.0025068448796496646,0.0009746332069156091,-0.0037311603296661658,-0.0009142733254682374,-0.021393851388366587,-0.005063170499314504, ,0.0045995367749723315, ,0.021413378346679498, ,3.288252630452643e-05, ,0.16928230460300125,-0.24284905796286393,0.09054844908000001,1.6737451288934733,0.45896200271211446,-1.2897897367518416, ,0.02285021467817741,0.0004907417899265805,0.00412556630924631,0.0056788203747642685,0.00011934727563479612,0.0014305999677292033, ,0.24869394302368164
0.009689319949594787,0.02041689616000466,-0.08020680533992962, ,0.009945748420134832,0.02038080294917722,-0.08041391081733881, ,0.00033158853892170567, ,0.0023676384974879593,0.001100247827617006,-0.004124560299348666,0.01413014665661147,-0.0025843954596984453,-0.004588429213500003, ,0.004881419363251444, ,0.014364544658142743, ,3.310813264744395e-05, ,0.16991556869868765,-0.2428413352299897,0.09067548550000001,1.6737451288934733,0.45937191221141077,-1.2901239904629307, ,0.022115344105912555,0.00027473860776981257,0.00458779133640553,0.0056788203747642685,0.01858394414590437,-0.01291590656909935, ,0.26470279693603516
0.009714146556985862,0.020427182609308845,-0.08024826680670033, ,0.009983185797340286,0.02039562996202721,-0.08047966359986525, ,0.0003562613623282386, ,0.002358037257553684,0.0011169624944049644,-0.004222445766730198,0.012406351970363848,-0.004040421608862082,-0.004641663273607431, ,0.004963566578066262, ,0.013047703807478954, ,3.345716359655318e-05, ,0.17013180521916596,-0.2428336124971155,0.09072085565000002,1.6737451288934733,0.45937191221141077,-1.2901239904629307, ,0.021562586130077433,0.00033998538687669795,0.004678065057268723,0.0056788203747642685,0.016532124113383864,-0.011308314629297747, ,0.2794349193572998
0.00976143056858359,0.020448238246473148,-0.08032678836628837, ,0.010020596503367722,0.02041029935717947,-0.08054538922161605, ,0.0003411637070723757, ,0.0025406548634580553,0.001036190762205772,-0.00400446364069837,0.0038274635444551673,-0.017037085792553683,-0.005616009010945715, ,0.004854312256187162, ,0.017461722952138534, ,3.368471606645885e-05, ,0.1705565555272483,-0.24282588976424127,0.09080770708000001,1.6739548188369582,0.45950854871117625,-1.290153729626487, ,0.023005319165689885,0.0006288039190424916,0.00442712938299055,0.005960357853587639,0.0046382657256227805,-0.0033312918177581395, ,0.29486083984375
0.00978779276003542,0.02045943797096224,-0.08036864540661172, ,0.01005798051718478,0.020424811836877475,-0.0806110875803576, ,0.00036466231075569453, ,0.002590840083090607,0.0010832964156413244,-0.004154832550229899,0.0015368913895489895,-0.016298022587274266,-0.004536295724799437, ,0.005014839676474231, ,0.016370326024867005, ,3.401714777541866e-05, ,0.1708036829792235,-0.24282588976424127,0.09085437352,1.6739548188369582,0.45964518521094166,-1.2901017900499019, ,0.023396681843804435,0.0005410515853062673,0.004594407706951255,0.005960357853587639,0.005854391327470846,-0.0007646529727460558, ,0.30921483039855957
0.009838277983503634,0.02048231859577183,-0.08045601308701153, ,0.01009533781802955,0.020439168102068483,-0.08067675857398053, ,0.0003415703348514261, ,0.002477207696532213,0.0011848147695094702,-0.004558209308728123,0.010050751910023189,0.0006522853052726143,-0.001082247560456286, ,0.005321429893551349, ,0.010071895954017447, ,3.419970450156639e-05, ,0.1712747696845512,-0.2428104442984928,0.09095159527,1.6741645087804424,0.460055094710238,-1.290109328800429, ,0.022844713904302063,0.0005564171799484663,0.005058371394093365,0.004414887832491625,0.023081543404731966,-0.00885724477197847, ,0.3314018249511719
0.009887171620856491,0.02050463950734763,-0.08053986785362643, ,0.010132668385410475,0.020453368852404445,-0.08074240210049952, ,0.0003223623157585636, ,0.0021495467253400185,0.0009040361892508023,-0.003366941506736859,-0.020561183562304814,-0.0010866958269964977,0.0015698669601569152, ,0.004095622988713998, ,0.02058988044818411, ,3.427145314809085e-05, ,0.1716917972597593,-0.24280272156561858,0.09104363186000002,1.674374198723927,0.460055094710238,-1.2896192563595856, ,0.020806170041322247,0.0005463782761868097,0.0037862637318754467,0.010456009405159734,0.01823804169284567,0.023933225990247612, ,0.34682202339172363
0.009907455498779038,0.020512269810457878,-0.08056669090653042, ,0.010169972199106082,0.020467414786242873,-0.0808080180580536, ,0.0003593964179151214, ,0.0020989951388239413,0.0006655688967750011,-0.002642962696950965,-0.002407026097531515,-0.00996835634197396,0.00855331672046925, ,0.003440060227181371, ,0.010254847764146001, ,3.4511799089516815e-05, ,0.17190803378023758,-0.24279499883274436,0.09107474282000001,1.6745838886674116,0.46032836770976887,-1.289515377206416, ,0.021253514346801967,0.0004397909121028167,0.0030054361358490566,-0.004963575060704773,0.012960300093793791,0.002032657743112419, ,0.36190295219421387
0.009953255371440144,0.020528382317489734,-0.0806329179482369, ,0.010207249239164416,0.02048130660064815,-0.08087360634490577, ,0.0003530721063022592, ,0.0022049571532382637,0.000857250698370738,-0.003486469525901821,0.02504442671868689,0.0044240443777029785,0.004129689310182389, ,0.004213334138484126, ,0.025432174067672984, ,3.470395254877748e-05, ,0.17237139775269106,-0.2427718306341217,0.09114733506000001,1.6745838886674116,0.4608749137088306,-1.2897160126007803, ,0.022381354141148765,0.0008005409119371852,0.003892671436950147,-0.004963575060704773,0.02913016871833013,-0.026688829925051102, ,0.3785698413848877
0.009976171297394414,0.020537415731029154,-0.08066950112765706, ,0.010244499485902593,0.020495044991392347,-0.08093916685944363, ,0.0003827726521388928, ,0.0022828792709371996,0.0010334593504790564,-0.004236176552786268,0.017091269814952865,-0.002956082260882123,0.004076319098900555, ,0.004921866290457665, ,0.017345025939918494, ,3.5010200719211805e-05, ,0.17257991154029512,-0.24276410790124747,0.09119011263000001,1.6745838886674116,0.4608749137088306,-1.2896343338606395, ,0.020692747832200344,0.000842804261546172,0.004676691579565473,-0.004963575060704773,0.019286524418350114,-0.018389359137524493, ,0.39318299293518066
0.010025108341886213,0.020560265583172147,-0.08076796636456313, ,0.010281722919906698,0.02050863065295613,-0.0810046995001795, ,0.0003529302837244234, ,0.0023742715715457485,0.0012482742725500656,-0.005101446107208681,0.010923681289454425,-0.0060931114934992415,-0.007139048065213009, ,0.005763688622723761, ,0.01250811005430646, ,3.531628760144176e-05, ,0.17296604818400635,-0.24274093970262478,0.09129640841000002,1.674374198723927,0.4608749137088306,-1.2896343338606395, ,0.01908627143171174,0.00135535742867117,0.005546243565459611,0.006934951595607526,0.011539490014866642,-0.01088183188048102, ,0.4062988758087158
0.01004202436113346,0.020568673534234257,-0.08080275092216208, ,0.010318919522031506,0.020522064278529848,-0.08107020416574985, ,0.0003877816271456086, ,0.0024347643158698414,0.0012530467486354601,-0.00507166388485552,0.009705131361824276,-0.008071900988633167,-0.0070706129320701324, ,0.005763677470942213, ,0.012623199157309539, ,3.5744138521498974e-05, ,0.17309733464286817,-0.24273321696975056,0.09133400082000001,1.674374198723927,0.4608749137088306,-1.2896343338606395, ,0.019729093879099956,0.0012242802613910268,0.005521251826689776,0.006934951595607526,0.010179161670080207,-0.009557106922338852, ,0.42330288887023926
0.010097873766981324,0.020598450579466007,-0.08091264358099243, ,0.010356089273399554,0.02053534656001462,-0.0811356807549161, ,0.0003469912765151364, ,0.0025481456326788697,0.0011495205776935614,-0.004445661557623841,0.008596899720916477,-0.011482598607313935,-0.011249600387090884, ,0.005251509345780104, ,0.014344223710318134, ,3.5984446270881434e-05, ,0.17359158954681853,-0.2427100487711279,0.09145585208000001,1.6750032685543808,0.4614214597078924,-1.2900800054754253, ,0.022130816594792626,0.0008805537386826018,0.004899665186096586,0.011472684922494456,0.008046754008267105,-0.00737526173633424, ,0.4368898868560791
0.010122685498478775,0.020609227867510207,-0.08095525065280698, ,0.010393232155401314,0.02054847818802303,-0.08120112916656415, ,0.00037059716763244424, ,0.0023997157962925945,0.0009056487288113305,-0.004464007453701592,-0.000622278202301761,-0.019386880232572446,0.027005494911845212, ,0.005148417045041821, ,0.019396864528591, ,3.6300177558917284e-05, ,0.17380010333442258,-0.24269460330537945,0.09150251852,1.675212958497865,0.4614214597078924,-1.2901616842155659, ,0.02047840775970453,0.0017937834273688653,0.00484011288969918,-0.0281670657705417,0.008046754008267105,-0.005628296888067014, ,0.4501609802246094
0.01014705585092619,0.020619495087723823,-0.08099938420137182, ,0.010430348149694908,0.020561459851880525,-0.08126654929970487, ,0.00039370014593388274, ,0.0023588899840418344,0.0008918722340668368,-0.004410370295986894,-0.0005569823772297892,-0.018982501500112943,0.02698767141312009, ,0.005080468894347822, ,0.018990671154586563, ,3.668276543100079e-05, ,0.17400089438915242,-0.24267915783963098,0.09155048125000001,1.675212958497865,0.4614214597078924,-1.2901616842155659, ,0.02007551122455485,0.0017852945835353025,0.004780555678271309,-0.0281670657705417,0.008046754008267105,-0.005693535032624324, ,0.4646008014678955
0.010196570091961425,0.020640939215112477,-0.08109082830092006, ,0.010467437238205105,0.02057429223962594,-0.08133194105347419, ,0.0003687088142422524, ,0.0025703202285878497,0.0010816707713231888,-0.004978610952243519,0.0030808817933319845,-0.016261895746057242,0.020589706705054573, ,0.005706410846479766, ,0.016551165603104528, ,3.695343698062037e-05, ,0.17441792196436054,-0.2426482669081341,0.09165029558000001,1.675212958497865,0.46155809620765786,-1.2901914233791216, ,0.02160185330263391,0.0016279414067983686,0.005410601739130436,-0.021440319149632407,0.010731498015125726,-0.007991908681841256, ,0.47776293754577637
0.010222275838403343,0.020653021919725078,-0.08114404755273624, ,0.01050449940312365,0.020586976038012943,-0.08139730432713277, ,0.0003849041344962451, ,0.0027213582216351947,0.0011148096541578145,-0.005197070700124489,0.0021882265643912214,-0.018642960235760037,0.01751336240767227, ,0.005971443292668648, ,0.018770942918721317, ,3.7265593059820664e-05, ,0.17464188121771307,-0.24262509870951143,0.09170862863000001,1.675212958497865,0.4618313692071887,-1.2903325804463741, ,0.022713485294033216,0.002036917590135942,0.005640513994334278,-0.018560956966178096,0.008714105059159748,-0.007105768370447759, ,0.49076199531555176
0.010270912690603094,0.020673812641108902,-0.08123253002214503, ,0.010541534626908409,0.020599511932510715,-0.08146263902006667, ,0.00036291456106407784, ,0.0027051248886224327,0.0011414771955498735,-0.005121996901078812,0.017090391029389303,-0.0011991157397573606,0.014961312944210225, ,0.005903856629836626, ,0.017132406152361095, ,3.748596658562173e-05, ,0.1750666315257954,-0.24259420777801452,0.09180585038000001,1.675212958497865,0.4621046422067196,-1.2903920587734858, ,0.024464279855238663,0.00184558004550551,0.005642512051009565,-0.015045242550168017,0.027487583724299967,-0.02068616672639739, ,0.5083589553833008
0.010308016295871731,0.02068662575306127,-0.08129673972461325, ,0.010578542892283405,0.02061190060730498,-0.08152794503178659, ,0.0003636267053442336, ,0.0026505796499430062,0.0008357282468014434,-0.004064061601845774,-0.0029372455819903034,-0.015306232971507336,0.0020044434279300255, ,0.004923475488594519, ,0.015585511806748989, ,3.7697022786480204e-05, ,0.17539098630651284,-0.2425555941136434,0.09187585004000001,1.6750032685543808,0.46224127870648507,-1.2902584404567605, ,0.024128385852649575,0.0029062704407835675,0.004475642461365553,0.0,0.009149211835111921,0.0006603326156288669, ,0.5214869976043701
0.01033306304527953,0.020694078906846228,-0.08132935569918244, ,0.010615524182238018,0.02062414274529912,-0.08159322226192929, ,0.00039281156235485525, ,0.0025330913000376535,0.0008283664090432677,-0.003434185284494068,-0.0023484088917526793,-0.01618729021275309,0.0023555931878726883, ,0.004346995630339797, ,0.016356753598348765, ,3.799133046410283e-05, ,0.17561494555986534,-0.24254014864789494,0.09191084987,1.6750032685543808,0.46224127870648507,-1.29017676171662, ,0.023742041921058485,0.0011593168911478114,0.0038034411461318057,0.0,0.008101657769995246,0.0017294079620869245, ,0.5347638130187988
0.010384241691674904,0.020714569253472186,-0.0814138157339887, ,0.010652478480027039,0.020636239028115073,-0.08165847061025613, ,0.0003714062564246811, ,0.0026658665125306857,0.0010595327084747417,-0.004328701871336512,0.011950654428048293,0.003537552445823517,-0.005217039574646833, ,0.0051929869741674265, ,0.012463242637683638, ,3.8203517925460874e-05, ,0.17610920046381573,-0.24249381225064962,0.09200677533000001,1.6754226484413495,0.4627878247055468,-1.2904590758511243, ,0.02544153929181522,0.0016869895876641162,0.0048563449756097565,0.009130964128877974,0.02756019596465686,-0.010855453413726637, ,0.5507409572601318
0.010414966652134377,0.020726264538978117,-0.08145941990210703, ,0.010689405769169994,0.020648190136094386,-0.08172368997665438, ,0.00038891016140775084, ,0.0026705435511250376,0.001108952017164606,-0.004600128659281298,0.007814700582076268,0.0028125565381787627,-0.0019462742200904014, ,0.005433485172223269, ,0.008305420965130995, ,3.8458984238356774e-05, ,0.1763794961144136,-0.24247836678490114,0.09205733064,1.6756323383848342,0.4627878247055468,-1.2903773971109838, ,0.024829131752608785,0.0017629399848840418,0.005128400360592403,0.006665355405976649,0.026854533864457367,-0.0070847411669269725, ,0.5636060237884521
0.01044413447277278,0.02073636802675187,-0.08150696750433839, ,0.010726306033450901,0.020659996748299037,-0.08178888026113643, ,0.00040611348693870723, ,0.0027486669756012936,0.0007704752157490588,-0.004778019430178528,-0.004432470597512314,-0.01091669510145822,0.02696933408053293, ,0.005565812777664037, ,0.011782233448959605, ,3.887009714307212e-05, ,0.17662662356638875,-0.24243975312053004,0.09210918224,1.6758420283283186,0.4627878247055468,-1.2903773971109838, ,0.024894265886272502,0.00462185728333735,0.005203793374714146,-0.02460008574064607,0.02054271408844463,-0.003195106398980103, ,0.5749139785766602
0.01044413447277278,0.02073636802675187,-0.08150696750433839, ,0.010763179256917919,0.02067165954251264,-0.08185404136384068, ,0.00047585399669706823, ,0.0027486669756012936,0.0007704752157490588,-0.004778019430178528,-0.004432470597512314,-0.01091669510145822,0.02696933408053293, ,0.005565812777664037, ,0.011782233448959605, ,3.9469401015706133e-05, ,0.17685058281974128,-0.24240886218903313,0.09215714497000001,1.6758420283283186,0.4629244612053123,-1.2903254575343994, ,0.02354762817828059,0.0025014320042705245,0.004725248151883714,-0.02460008574064607,0.007351670253506766,0.00013625684650860623, ,0.5876069068908691
0.010525404123016446,0.02076504632363082,-0.0816468364122408, ,0.010800025423882977,0.0206831791952413,-0.08191917318503089, ,0.00039533075192058477, ,0.002804947372544541,0.000979669274159432,-0.005140556255506987,0.006975612197834546,0.0016444813046519087,0.02207549950068254, ,0.00593740686373341, ,0.007166831985353804, ,3.9812470020924116e-05, ,0.1773680059223143,-0.2423393575931651,0.09226344075000001,1.6758420283283186,0.463471007204374,-1.290607771668904, ,0.025892753494807852,0.003643490465289763,0.005658547609236235,-0.01879183537619122,0.03298760515021901,-0.012304604507261474, ,0.6006078720092773
0.010554947846039057,0.020775536614759525,-0.08169907655694114, ,0.010836844518921293,0.020694556381714666,-0.08198427562509668, ,0.0004090990598899741, ,0.003036389114621847,0.001120077372224959,-0.005704836634937003,0.002951271222297241,-0.0044584293982238565,0.01967750500528152, ,0.006558917075743812, ,0.005346736245974258, ,4.0180864850708035e-05, ,0.17762285610716372,-0.242300743928794,0.09232047751000001,1.6758420283283186,0.4636076437041394,-1.2906375108324597, ,0.02682978274200474,0.003754844717784484,0.006244144068992553,-0.016592377173603616,0.027158057461538532,-0.0081943216440643, ,0.6119868755340576
0.010587044134715725,0.02078790870571473,-0.081759102334011, ,0.010873636526871167,0.02070579177588678,-0.08204934858455364, ,0.0004160784485644578, ,0.00301982679620047,0.0012005692782631674,-0.0062352011506753915,-0.005479374523376031,-0.009668954885147555,0.018203734339848593, ,0.007031248385624239, ,0.011113605369729067, ,4.055430638702245e-05, ,0.17787770629201313,-0.24226213026442286,0.09238529201000001,1.6758420283283186,0.4636076437041394,-1.2904741533521784, ,0.024661367348874943,0.004326666421225474,0.0067437813378492814,-0.014808666571975953,0.019206137005060683,-0.00015850658819667983, ,0.6257200241088867
0.010645172285575204,0.020810335820196695,-0.0818770731469402, ,0.01091040143283355,0.02071688605043726,-0.08211439196404294, ,0.00036796682048049074, ,0.002569152202260467,0.000984057238788677,-0.0049356983140114215,-0.009680513774797813,-0.0072232557701308745,0.01742985666605502, ,0.005650666291202073, ,0.012078400884869635, ,4.078280278857498e-05, ,0.1783719611959635,-0.24216173473705796,0.09251362472,1.6758420283283186,0.4641541897032012,-1.2906747887465426, ,0.021900978896485294,0.0031029073266318568,0.005381355243243244,-0.012156357507448194,0.018321993946234464,0.005906527416602201, ,0.6378378868103027
0.010673589880585381,0.020819961205556563,-0.08192913068892398, ,0.010947139222171541,0.020727839876772246,-0.08217940566433206, ,0.00038203814575867424, ,0.002966105999368575,0.0009694356755863355,-0.005493106029188082,-0.0035679626881503024,2.5767869482784802e-05,0.0057805754617534875, ,0.006317578980629545, ,0.003568055034013596, ,4.104029219187804e-05, ,0.1786268113808129,-0.24212312107268683,0.09257066148000001,1.6756323383848342,0.4644274627027321,-1.2906525883335136, ,0.026207385130756915,0.005627938552090151,0.005997293493975904,0.0,0.027164721595423786,-0.0003387721544831149, ,0.648993968963623
0.010704560866266935,0.02083010492316982,-0.08198580333069573, ,0.010983849880510245,0.020738653925025132,-0.08224438958631429, ,0.0003914492178220393, ,0.0030734443419157525,0.0010643968953488192,-0.005732104119953323,-0.01032471262143795,-0.007958789931845097,0.005820113134555446, ,0.006590600770466075, ,0.013036181254732281, ,4.131298112506886e-05, ,0.1788739388327881,-0.24206906194256725,0.09263158711000001,1.6756323383848342,0.4644274627027321,-1.290407552113092, ,0.026128012543631823,0.005173366094765678,0.006234368500978474,0.0,0.018932483630252586,0.006671644296544725, ,0.660862922668457
0.010735875638401027,0.02084042572386371,-0.08203916248691204, ,0.011020533393736117,0.020749328864058163,-0.0823093436310095, ,0.0004028976621484154, ,0.0032643561732817825,0.0009809808704243483,-0.005275946502228243,-0.0009315934394281973,-0.02656951740545303,-0.005262698141850553, ,0.006281238427934082, ,0.026585844304951867, ,4.1605286508803904e-05, ,0.17914423448338596,-0.24201500281244767,0.09268992016000001,1.6758420283283186,0.4645640992024975,-1.2901922550562261, ,0.027474505373037285,0.004915050127480462,0.005729788316546763,0.0035409858688176367,0.0,-0.003442393550884224, ,0.6730198860168457
0.010766374649452116,0.02085194286195742,-0.08209665641934823, ,0.011057189747997069,0.020759865361462418,-0.08237426769956344, ,0.00041245570736970713, ,0.0030121727329054833,0.0009949241735971008,-0.005623861509293449,-0.009694495580317153,-0.0014168869454868293,-0.000562543384308853, ,0.0064568472925863405, ,0.009797489859521414, ,4.191139434165259e-05, ,0.17942225286685803,-0.24196094368232812,0.09275343837000001,1.676051718271803,0.46497400870179384,-1.290444830027175, ,0.0259707010285908,0.00604275050597215,0.006124110542099193,0.0078064873410425215,0.023609126856112744,0.006836527904632846, ,0.684208869934082
0.010796988802304616,0.020861387744464673,-0.08215248450244915, ,0.011093818929701411,0.020770264083559975,-0.0824391616932483, ,0.0004226055582118704, ,0.002858076729244052,0.0008554590041416351,-0.005157632694566884,0.02662119585002073,0.015984358389097588,-0.006222856932656159, ,0.005958320880086824, ,0.031051373205489938, ,4.2232053889593795e-05, ,0.1796925485174559,-0.24189916181933432,0.09281436400000001,1.676051718271803,0.46524728170132473,-1.2905043083542866, ,0.026921118172615822,0.0064024455071778185,0.005690893719185424,0.007184624403302021,0.042141269777192354,-0.030441480949088495, ,0.6955950260162354
0.010828476701327012,0.020869623986876654,-0.08220415895668784, ,0.011130420925518254,0.02078052569540392,-0.0825040255134627, ,0.00043477439199867855, ,0.003164011744780572,0.0010930307978807864,-0.005886522280598223,0.0053100231087619566,-0.00044737058128009025,-0.0032916729619412344, ,0.0067717672144134294, ,0.005328834655402893, ,4.257144416952434e-05, ,0.18020224888715472,-0.24179104355909517,0.09292973381000001,1.676051718271803,0.46524728170132473,-1.290422629614146, ,0.027097927343937973,0.005346999286849686,0.006496252659053834,0.006279329682179333,0.018957938573996663,-0.0026684153193135968, ,0.7078518867492676
0.010896968551876975,0.02089133068471957,-0.08232457970014256, ,0.011166995722376286,0.020790650860779986,-0.0825688590617315, ,0.0003777876470382131, ,0.0034196444711752315,0.001046936502740212,-0.005571195064303253,-0.006445358195742505,-0.020452994889802224,-0.0036851561248474555, ,0.006620291443322278, ,0.021444524636059774, ,4.2865576337844206e-05, ,0.18053432640074638,-0.24172153896322715,0.09300102976,1.676051718271803,0.4655205547008556,-1.2905637866813984, ,0.02921703865716465,0.005193472458157816,0.006082020435280642,0.005815634695725493,0.007684610170620841,0.002944020622775521, ,0.7188379764556885
0.010929109475678295,0.020901656638940922,-0.08238346649848989, ,0.011203543307464215,0.02080064024220707,-0.08263366223970638, ,0.0003848586095706589, ,0.0031853245014508455,0.0010517898778653113,-0.0060553430332312,0.016858735659022336,0.009217638277998576,-0.0031845301491310635, ,0.006922408061998703, ,0.019214104592811917, ,4.3168100393634714e-05, ,0.1808277902499669,-0.24165975710023335,0.09306584426,1.676051718271803,0.46593046420015194,-1.2908163616523471, ,0.028209554565538284,0.006633454024303408,0.006628718901373285,0.005460508396031287,0.037050420152698965,-0.021106164628263535, ,0.728693962097168
0.010929109475678295,0.020901656638940922,-0.08238346649848989, ,0.011240063668229845,0.020810494500938657,-0.08269843494916564, ,0.00045189398114116303, ,0.003305227924841061,0.0010547714598475597,-0.006057336305327008,0.012094550050642647,0.005281355322341666,0.002956997381021515, ,0.006980572869291656, ,0.01319738030116653, ,4.3618767166483675e-05, ,0.18110580863343897,-0.24159797523723955,0.09312936247,1.6762614082152878,0.46606710069991736,-1.290846100815903, ,0.02948025522164361,0.00637120325520813,0.006642540250208507,0.0,0.035717311563161123,-0.016930366665191644, ,0.7385208606719971
0.010962217032792878,0.020912533203755117,-0.08244178058133232, ,0.011276556792379915,0.02082021429696336,-0.08276317709201428, ,0.0004589422426482431, ,0.003305227924841061,0.0010547714598475597,-0.006057336305327008,0.012094550050642647,0.005281355322341666,0.002956997381021515, ,0.006980572869291656, ,0.01319738030116653, ,4.407321334079091e-05, ,0.18110580863343897,-0.24159797523723955,0.09312936247,1.6762614082152878,0.46606710069991736,-1.290846100815903, ,0.02948025522164361,0.00637120325520813,0.006642540250208507,0.0,0.035717311563161123,-0.016930366665191644, ,0.7483999729156494
0.010999952582723257,0.020923834786452968,-0.08250527516212224, ,0.011313022667879813,0.020829800289006245,-0.08282788857028395, ,0.00045927636130733556, ,0.003382716190801974,0.0010923311282075537,-0.005925917034343041,0.007660975924106267,-0.007145573862301867,0.001230870923975529, ,0.006910314668600991, ,0.010476152472339063, ,4.451602488911498e-05, ,0.18141471794840797,-0.24153619337424576,0.09319806584000001,1.6762614082152878,0.46606710069991736,-1.2907644220757624, ,0.029379858067638008,0.00548861893903791,0.006488314264765784,0.0,0.02282247471822291,-0.012205843986623806, ,0.7601749897003174
0.011044332988513733,0.020938142311705907,-0.08258491470421826, ,0.011349461282952698,0.0208392531345298,-0.08289256928613314, ,0.0004444476203142727, ,0.0035642437879692423,0.0011147062200726398,-0.006267689763290829,-0.006508076094590962,-0.020795675333972034,0.0014586302340095542, ,0.007295912465621186, ,0.02179025372446332, ,4.4913673927185794e-05, ,0.18179313185924495,-0.24145896604550351,0.09328491727,1.6762614082152878,0.4663403736994482,-1.2909055791430146, ,0.029370764951553937,0.006115761198751521,0.006795568054607509,0.0,0.008898746031388221,0.0010786463320731875, ,0.7701020240783691
0.01108032341933601,0.02094998440218018,-0.08264959920403925, ,0.011385872626080063,0.02084857348973456,-0.08295721914184748, ,0.0004452802679685139, ,0.0034757040915081535,0.0011413593907231565,-0.006141840099321587,0.016374003630787996,0.0022594222814040707,0.0015521831314444586, ,0.007148805494357296, ,0.01652915530833757, ,4.53026080519765e-05, ,0.18211748663996238,-0.24139718418250972,0.09335621322000001,1.6762614082152878,0.46675028319874456,-1.2911581541139634, ,0.030991816315633827,0.005649797185836653,0.006763826547770702,0.0,0.03408509610754033,-0.02077076946155788, ,0.7799758911132812
0.011149844308323333,0.020971455759297635,-0.08276846585112062, ,0.01142225668600035,0.020857762009560514,-0.0830218380398395, ,0.000389014444792384, ,0.0035090335878687905,0.001049338438363548,-0.00601044997807541,0.006641868491214537,-0.005067601096808077,-0.005561521319298071, ,0.007038461253567093, ,0.00835433959610254, ,4.5558500620711274e-05, ,0.18270441433840345,-0.24127362045652212,0.09348584222,1.676471098158772,0.46702355619827546,-1.2911359537009344, ,0.030592179741608886,0.006606561782251134,0.006584874543199669,0.007733847587499881,0.02433991364475035,-0.010766642664779872, ,0.7930099964141846
0.011169502815041655,0.020977195710594577,-0.08280290029068452, ,0.011458613451709147,0.020866819347687936,-0.08308642588264883, ,0.0004197078305458425, ,0.003706104703751458,0.001111414205936068,-0.006292503889516402,-0.012826791868328847,-0.02824305731805986,-0.0060475771746494045, ,0.007386884242487101, ,0.0310192982905671, ,4.587392481644742e-05, ,0.18287431446163638,-0.241235006792151,0.09352343463000001,1.676471098158772,0.4671601926980409,-1.2910840141243498, ,0.02991706858715977,0.00652763078885328,0.00680718441025641,0.007553764291370772,0.0,0.008092475465718861, ,0.8032560348510742
0.011222257870634342,0.02099473436776908,-0.08289400320641073, ,0.01149494291245882,0.020875746156538384,-0.08315098257294234, ,0.0003931332105911281, ,0.0034877114847308246,0.0009902410818835791,-0.005610422517422863,-0.016235468390388665,-0.014698861222867272,0.0016103586969341878, ,0.006679936348871802, ,0.021900843580685694, ,4.6124753883878156e-05, ,0.1833222329683414,-0.24115005673053455,0.09362324896000002,1.676680788102257,0.46743346569757177,-1.2909801349711805, ,0.03023158380327199,0.005940459036529035,0.00615012027799228,0.005043676016838018,0.015049436803933027,0.012751523214463063, ,0.8127648830413818
0.011253564648778022,0.0210027480674875,-0.0829489375346375, ,0.011531245057757884,0.020884543087275515,-0.08321550801351392, ,0.00040266443484189487, ,0.0031176560959092943,0.0008803515333807959,-0.005570701383490573,0.028669271370997854,0.032254634954527524,0.0006791477693666188, ,0.00644418437497796, ,0.04315424187294914, ,4.638928310979964e-05, ,0.18362341955043618,-0.24107282940179228,0.09368417459000002,1.676680788102257,0.4679800116966335,-1.291425806585966, ,0.030592179741608886,0.007337339196416711,0.0062173347072599534,0.004724683747354478,0.06337086956529314,-0.03262160344545945, ,0.8223848342895508
0.011253564648778022,0.0210027480674875,-0.0829489375346375, ,0.011567519877370674,0.02089321078980636,-0.08328000210728538, ,0.0004692228170336379, ,0.0031176560959092943,0.0008803515333807959,-0.005570701383490573,0.028669271370997854,0.032254634954527524,0.0006791477693666188, ,0.00644418437497796, ,0.04315424187294914, ,4.678531447572254e-05, ,0.1839168833996567,-0.24100332480592426,0.09374898909000001,1.676680788102257,0.468116648196399,-1.291455545749522, ,0.03091105588223804,0.0075304991531100355,0.0066370048000000004,0.004448744094544712,0.031217734146346546,-0.012126423295561968, ,0.8319640159606934
0.011288495063159635,0.021012386756275783,-0.08300858484292536, ,0.011603767361317177,0.020901749912782052,-0.0833444647573047, ,0.0004737641290845717, ,0.0035028739941229035,0.0009670891551152075,-0.006055934080268834,0.006876630061990216,0.0004917367478708787,-0.0012607862307997748, ,0.007062557981157076, ,0.006894188704510505, ,4.7277794058280976e-05, ,0.1839168833996567,-0.24100332480592426,0.09374898909000001,1.676680788102257,0.468116648196399,-1.291455545749522, ,0.03091105588223804,0.0075304991531100355,0.0066370048000000004,0.004448744094544712,0.031217734146346546,-0.012126423295561968, ,0.8412609100341797
0.011324831787338195,0.021021418009730473,-0.08306601886430819, ,0.011639987499872455,0.02091016110359912,-0.08340889586674892, ,0.00047881714788386697, ,0.0035547224227645523,0.0009603488595102159,-0.00582564844050954,-0.005602260083100939,-0.010732860619260202,-2.090674142059566e-05, ,0.006891770540817425, ,0.012107006583015908, ,4.7770534256639645e-05, ,0.18421806998175144,-0.24093382021005624,0.09381121101,1.676680788102257,0.468116648196399,-1.2913738670093813, ,0.030880879127390425,0.006873782964888313,0.006379179623548259,0.004204271515910274,0.019839077788708838,0.0008273826670527062, ,0.8507108688354492
0.011368157702736489,0.021033097316601305,-0.08314097015528472, ,0.011676180283566285,0.020918445008400066,-0.08347329533892128, ,0.0004674003527555282, ,0.0038313999119646705,0.001058656706601787,-0.006572178107589089,-0.019912844631479236,-0.02521694567614433,0.00019781732741508976, ,0.007680748946926278, ,0.03213122652949091, ,4.823038874652361e-05, ,0.18458876115971423,-0.24084114741556556,0.09389287728000001,1.676680788102257,0.46838992119592987,-1.291433345336493, ,0.031032354989689596,0.007764442281173507,0.007104733059768065,0.003923355471185574,0.005284618282621712,0.01389868404853619, ,0.8590929508209229
0.011403444024764776,0.02104534931302923,-0.08321527686451408, ,0.011712345703182905,0.020926602272074595,-0.08353766307725342, ,0.000462010797308287, ,0.003446412388532577,0.001440416547524639,-0.007952905027049829,0.053225716760238455,0.05571531550849118,0.0006386324398470312, ,0.008786424560165988, ,0.07705305493643365, ,4.867034662217235e-05, ,0.18490539320755744,-0.2407561973539491,0.09397454355000001,1.676680788102257,0.4690731036947571,-1.2919904348549753, ,0.031433236687138384,0.007822190976118488,0.008785886111417542,0.0037225508409673147,0.08835794803578635,-0.05740708310619575, ,0.8673670291900635
0.01143722394003915,0.02106093404425538,-0.08329379491943426, ,0.011748483749760466,0.020934633538260757,-0.08360199898530431, ,0.0004558774321910209, ,0.003732449989680149,0.0014182158908536083,-0.008202752937934826,0.028588351934423554,0.02232426287780625,0.0020347569663822975, ,0.009122920310916426, ,0.03627211797272938, ,4.9089529460594756e-05, ,0.1852065797896522,-0.24068669275808108,0.09406139498,1.6768904780457412,0.4698929226933497,-1.2925772635370132, ,0.03094129167214567,0.008374819085197558,0.00893371369601795,0.0,0.054567531057720824,-0.03504435613407129, ,0.8761448860168457
0.011452148578081477,0.021066063999737282,-0.08332413168093612, ,0.011784594414590746,0.020942539449345453,-0.08366630296676078, ,0.000492808012926688, ,0.003995969373966183,0.00144715242994622,-0.008319871342987555,0.02234018057258778,0.00814938668222561,0.0004369262234983249, ,0.009342498624941855, ,0.023780162561430583, ,4.957265517470357e-05, ,0.18531469804989134,-0.24065580182658416,0.09409380223000001,1.6768904780457412,0.4698929226933497,-1.2924139060567321, ,0.03249895258851739,0.008348932708397965,0.009040188149829742,0.0,0.041598960390639025,-0.02930501074529957, ,0.8852758407592773
0.011452148578081477,0.021066063999737282,-0.08332413168093612, ,0.011820677689218816,0.020950320646466018,-0.08373057492543777, ,0.0005607194847543461, ,0.003995969373966183,0.00144715242994622,-0.008319871342987555,0.02234018057258778,0.00814938668222561,0.0004369262234983249, ,0.009342498624941855, ,0.023780162561430583, ,5.017779290948273e-05, ,0.18531469804989134,-0.24065580182658416,0.09409380223000001,1.6768904780457412,0.4698929226933497,-1.2924139060567321, ,0.03249895258851739,0.008348932708397965,0.009040188149829742,0.0,0.041598960390639025,-0.02930501074529957, ,0.893380880355835
0.011527029085303448,0.021093372700317085,-0.08348101531112492, ,0.011856733565442581,0.020957977769510583,-0.08379481476527756, ,0.0004748756984079157, ,0.004542469075036622,0.0016726692352861503,-0.009728398803152346,-0.07251598114743603,-0.038237271099137486,0.007316030115500204, ,0.010866167260884255, ,0.08197960926807583, ,5.060688626936875e-05, ,0.1858707348168355,-0.24049362443622546,0.09426231993,1.6771001679892257,0.4701661956928806,-1.2919016332028597, ,0.0308006950855147,0.0097943430153598,0.010336671979234265,0.008483962469921011,-0.008683899520007187,0.06678131292153844, ,0.9013299942016602
0.01157261695161728,0.02110929752724245,-0.08357338089764296, ,0.011892762035312376,0.02096551145711958,-0.08385902239035069, ,0.00045250234356499793, ,0.004147708498967546,0.0013346663010014163,-0.00789712172151479,-0.0067400334372771315,0.00487424947395154,0.0006666204381513279, ,0.009019387529752624, ,0.008317831926372424, ,5.098538325649997e-05, ,0.18622598052904982,-0.24040095164173475,0.09436213426000001,1.6771001679892257,0.47043946869241143,-1.292042790270112, ,0.034697236401634655,0.008848862375704912,0.008619486753246754,0.008483962469921011,0.03891628852937022,0.002008674629906844, ,0.9095168113708496
0.01160719406340927,0.0211201874630284,-0.08364484482998293, ,0.011928763091130615,0.02097292234668651,-0.08392319770485629, ,0.0004500821891956041, ,0.003562551214438396,0.0010074448222088233,-0.0072949158334005,0.0568465838874322,0.04610094527090772,-0.008965115784054501, ,0.00818061814545143, ,0.07319037664805032, ,5.135221647626145e-05, ,0.18655033530976725,-0.24030827884724407,0.09444120795000001,1.6771001679892257,0.4712592876910041,-1.2925479402120095, ,0.0329388898155053,0.010985754403551103,0.008032683570347959,0.008483962469921011,0.078671208744519,-0.06415109560494549, ,0.9188950061798096
0.011641524845036829,0.02112650230824218,-0.08370262970648629, ,0.011964736725451544,0.020980211074358816,-0.0839873406131205, ,0.0004548926742747268, ,0.0040970330746952,0.0007440462888920336,-0.006472025444832563,0.0015514623057796537,-0.008087483779692983,-0.006447486166310563, ,0.007695868908298825, ,0.008234950990606301, ,5.1721176610141186e-05, ,0.18683607642611355,-0.24020788331987916,0.09450342987,1.6771001679892257,0.47139592419076953,-1.2925776793755652, ,0.03594581119639045,0.011422886102550505,0.007054389512843226,0.008483962469921011,0.02658551215922711,-0.010078787634437841, ,0.9291789531707764
0.011688896359333085,0.021133369830389704,-0.08376706498594792, ,0.012000682931080576,0.020987378275039072,-0.08405145101959864, ,0.0004465420659818486, ,0.003915281308384192,0.0006097076664805462,-0.005335657284463503,-0.004739973740520165,-0.019151309123956524,-0.006565034762546889, ,0.006646082291064129, ,0.019729165919967928, ,5.20679223351064e-05, ,0.18724538126844747,-0.2400920423267658,0.09457342953,1.6771001679892257,0.47139592419076953,-1.2924143218952842, ,0.035120999836591706,0.00963513299745691,0.005860489889624725,0.008069376849736491,0.014506007273795463,-0.0025022322553829007, ,0.9379010200500488
0.011729839848999266,0.021138352619308326,-0.08382423869221797, ,0.0120366017010743,0.02099442458238586,-0.0841155288288739, ,0.00044684231828899805, ,0.004278935416156,0.0005635507534105551,-0.006147384623719489,-0.023430224307308224,-0.034525744473753756,-0.005719766315369553, ,0.007511139424830731, ,0.04172532125434837, ,5.250486487896825e-05, ,0.18760834971353602,-0.2399762013336524,0.09463565145000001,1.6771001679892257,0.471532560690535,-1.29244406105884, ,0.036123693018070335,0.012322677776713517,0.006625961530782031,0.00762535649455841,0.0,0.013279076726055229, ,0.9449348449707031
0.011729839848999266,0.021138352619308326,-0.08382423869221797, ,0.012072493028739643,0.02100135062881487,-0.08417957394565785, ,0.0005122927769572228, ,0.004278935416156,0.0005635507534105551,-0.006147384623719489,-0.023430224307308224,-0.034525744473753756,-0.005719766315369553, ,0.007511139424830731, ,0.04172532125434837, ,5.305445272886161e-05, ,0.18760834971353602,-0.2399762013336524,0.09463565145000001,1.6771001679892257,0.471532560690535,-1.29244406105884, ,0.036123693018070335,0.012322677776713517,0.006625961530782031,0.00762535649455841,0.0,0.013279076726055229, ,0.9514219760894775
0.011769685004471883,0.021143513986300815,-0.08388717982649563, ,0.012108356907633804,0.021008157045499527,-0.08424358627479045, ,0.0005099467774194969, ,0.004302555745786707,0.0006394572673233357,-0.006735842963190117,0.0075190049050957025,-0.018673233498175876,-0.010723928454856639, ,0.008018258661772682, ,0.020130202934247266, ,5.3591869635908636e-05, ,0.18797131815862456,-0.2398449148747906,0.09470435482,1.6771001679892257,0.47194247018983126,-1.2926966360297887, ,0.03661147436669397,0.013185624782335802,0.007276752635906807,0.0072258287007133035,0.016476108650578847,-0.01899149823821762, ,0.9582710266113281
0.011796558601113073,0.021150667312428106,-0.08393607094643675, ,0.012144193331563809,0.021014844462372586,-0.08430756572124024, ,0.0005265986328495851, ,0.003852523255056522,0.001084292311777086,-0.007695376153568912,0.05890826738677567,0.05436446834645811,-0.0012949421322373412, ,0.008673894130841537, ,0.08016033531690243, ,5.4151423675883456e-05, ,0.18822616834347397,-0.23976768754604835,0.094758799,1.6773098579327104,0.4724890161888931,-1.293223986384715, ,0.03644275789495806,0.011116757870717652,0.008531768355650778,0.0032077039033153775,0.09211440225662355,-0.06657979763593172, ,0.9657528400421143
0.011796558601113073,0.021150667312428106,-0.08393607094643675, ,0.012180002294586174,0.021021413508126398,-0.0843715121901042, ,0.0005944280349019705, ,0.003852523255056522,0.001084292311777086,-0.007695376153568912,0.05890826738677567,0.05436446834645811,-0.0012949421322373412, ,0.008673894130841537, ,0.08016033531690243, ,5.482370542000879e-05, ,0.18822616834347397,-0.23976768754604835,0.094758799,1.6773098579327104,0.4724890161888931,-1.293223986384715, ,0.03644275789495806,0.011116757870717652,0.008531768355650778,0.0032077039033153775,0.09211440225662355,-0.06657979763593172, ,0.9722490310668945
0.011855339674410287,0.021165735425977418,-0.08405123951706221, ,0.012215783791006208,0.021027864810214614,-0.08443542558660806, ,0.0005445431148334506, ,0.004786117174971994,0.0011804347257841708,-0.009362311735058505,0.0003307829324295382,-0.012852769209776353,-0.0034391708616533434, ,0.010580795091996312, ,0.012857022274899531, ,5.539834904748832e-05, ,0.1887049777816759,-0.2395977874228154,0.09488324284,1.6773098579327104,0.47303556218795484,-1.293424621779079, ,0.03699685830739601,0.014263781986843646,0.010030737732997482,0.0032077039033153775,0.02399202556219382,-0.012871196184473903, ,0.9793038368225098
0.011909828661984201,0.0211787720277176,-0.08415481438078577, ,0.012251537815378175,0.02103419899485252,-0.08449930581610623, ,0.0005063011518396796, ,0.005338468456667661,0.0015109528783248333,-0.010749299159409139,-0.016855337151533523,-0.02502022161651895,-0.0009075233333672165, ,0.012096679564319613, ,0.030168091366797586, ,5.589783633810188e-05, ,0.18910655989113556,-0.23944333276533092,0.09499342749,1.6773098579327104,0.47303556218795484,-1.2931795855586574, ,0.03927853541327433,0.014408888788106708,0.011484363028118241,0.003131234744254615,0.014063751001284206,0.004306293443978226, ,0.9857299327850342
0.011909828661984201,0.0211787720277176,-0.08415481438078577, ,0.012287264362504482,0.021040416687018518,-0.0845631527840817, ,0.0005730097380790892, ,0.005338468456667661,0.0015109528783248333,-0.010749299159409139,-0.016855337151533523,-0.02502022161651895,-0.0009075233333672165, ,0.012096679564319613, ,0.030168091366797586, ,5.6506579182573454e-05, ,0.18910655989113556,-0.23944333276533092,0.09499342749,1.6773098579327104,0.47303556218795484,-1.2931795855586574, ,0.03927853541327433,0.014408888788106708,0.011484363028118241,0.003131234744254615,0.014063751001284206,0.004306293443978226, ,0.9921169281005859
0.011962972594675174,0.021195198805434263,-0.08426607209226579, ,0.012322963427435328,0.021046518510454797,-0.08462696639614674, ,0.0005309839247663195, ,0.005618908947486725,0.001609481955115338,-0.011279958026289357,-0.025103193800329354,-0.029374966111679664,0.0008436274173127113, ,0.01270433087568322, ,0.0386401189235206, ,5.703418750097488e-05, ,0.18950041926772102,-0.23930432357359488,0.09511268617000002,1.6773098579327104,0.47330883518748573,-1.2932390638857691, ,0.04099219937730919,0.014783757837431187,0.012049025355521938,0.0029861268210126073,0.01149957102438393,0.012354108471482534, ,1.003086805343628
0.012063238618599925,0.02122541345495988,-0.08447983760485746, ,0.012358635005468568,0.021052505087668583,-0.08469074655804225, ,0.00040204342475396284, ,0.004603043483872463,0.0010965465238956806,-0.009160274321417396,0.012034332361704004,0.009955712570930525,-0.00037978041369559875, ,0.010310240018404391, ,0.015618620415693316, ,5.733299622047671e-05, ,0.1903190289523888,-0.23901085972437436,0.09533953692000001,1.6775195478761948,0.4750851096844364,-1.2946058178936821, ,0.037792489668845394,0.014662691835363223,0.010210776615384616,0.0027139498077555723,0.049163384837194825,-0.02510837910199427, ,1.0160868167877197
0.012063238618599925,0.02122541345495988,-0.08447983760485746, ,0.012394279092149154,0.021058377039932675,-0.08475449317563793, ,0.0004614375815141072, ,0.004603043483872463,0.0010965465238956806,-0.009160274321417396,0.012034332361704004,0.009955712570930525,-0.00037978041369559875, ,0.010310240018404391, ,0.015618620415693316, ,5.772908085636784e-05, ,0.1903190289523888,-0.23901085972437436,0.09533953692000001,1.6775195478761948,0.4750851096844364,-1.2946058178936821, ,0.037792489668845394,0.014662691835363223,0.010210776615384616,0.0027139498077555723,0.049163384837194825,-0.02510837910199427, ,1.0225019454956055
0.012107118566592433,0.021231333394701277,-0.08454971364146721, ,0.01242989568326866,0.021064134987287004,-0.0848182061549328, ,0.0004519165899574337, ,0.004489265636690871,0.00030384017363054776,-0.005892603050613632,-0.047417467896693585,-0.03849440631106294,0.005049188832433028, ,0.007414080895160669, ,0.06107565449400137, ,5.810365757930337e-05, ,0.19069744286322582,-0.2388641277997641,0.09541861061000001,1.6775195478761948,0.4752217461842019,-1.2943088420966755, ,0.03824947261526432,0.014201876916861835,0.006451523499392467,0.0027139498077555723,0.0,0.017647198666929993, ,1.0289278030395508
0.012107118566592433,0.021231333394701277,-0.08454971364146721, ,0.012465484774865244,0.02106977954853917,-0.08488188540205498, ,0.0005146494564007403, ,0.004489265636690871,0.00030384017363054776,-0.005892603050613632,-0.047417467896693585,-0.03849440631106294,0.005049188832433028, ,0.007414080895160669, ,0.06107565449400137, ,5.867758419593547e-05, ,0.19069744286322582,-0.2388641277997641,0.09541861061000001,1.6775195478761948,0.4752217461842019,-1.2943088420966755, ,0.03824947261526432,0.014201876916861835,0.006451523499392467,0.0027139498077555723,0.0,0.017647198666929993, ,1.0337369441986084
0.012152613766902878,0.021231616602051407,-0.08460565673725924, ,0.012501046363222787,0.021075311341265616,-0.08494553082326173, ,0.0005112250023850289, ,0.004696664026603166,0.00017498499057451512,-0.006423681810046149,-0.04826260903490667,-0.039602638728305474,0.0038670130496925776, ,0.00795945731331178, ,0.06243114939005516, ,5.9239987299622075e-05, ,0.1910990249726855,-0.23870195040940537,0.09548083253,1.6775195478761948,0.4750851096844364,-1.2938707092324169, ,0.03970583328806308,0.01710162940322054,0.006868827736093144,0.0027139498077555723,0.0,0.03341778214683677, ,1.0386090278625488
0.012152613766902878,0.021231616602051407,-0.08460565673725924, ,0.012536580444870883,0.021080730981812762,-0.0850091423249395, ,0.0005770593553961951, ,0.004696664026603166,0.00017498499057451512,-0.006423681810046149,-0.04826260903490667,-0.039602638728305474,0.0038670130496925776, ,0.00795945731331178, ,0.06243114939005516, ,5.9906664083423965e-05, ,0.1910990249726855,-0.23870195040940537,0.09548083253,1.6775195478761948,0.4750851096844364,-1.2938707092324169, ,0.03970583328806308,0.01710162940322054,0.006868827736093144,0.0027139498077555723,0.0,0.03341778214683677, ,1.0437839031219482
0.012152613766902878,0.021231616602051407,-0.08460565673725924, ,0.012572087016584362,0.021086039085297475,-0.08507271981360442, ,0.0006444366050028606, ,0.004891181714654059,0.0005106676259695321,-0.007495964047136006,-0.03965851074373329,-0.025449817180343396,0.005838527416326584, ,0.008965150137389513, ,0.04712208235272528, ,6.0678618589657495e-05, ,0.1914156570205287,-0.23857066395054355,0.09554046187000001,1.6775195478761948,0.4753583826839673,-1.2940118662996691, ,0.04099219937730919,0.016443760450263523,0.008069306747720365,0.0027139498077555723,0.015858604292130936,0.026093891125525532, ,1.0502920150756836
0.012188576080365098,0.02123445945798125,-0.08466070078764729, ,0.012607566075382715,0.021091236265608642,-0.08513626319590148, ,0.0006497885062870777, ,0.004891181714654059,0.0005106676259695321,-0.007495964047136006,-0.03965851074373329,-0.025449817180343396,0.005838527416326584, ,0.008965150137389513, ,0.04712208235272528, ,6.145176346654693e-05, ,0.1914156570205287,-0.23857066395054355,0.09554046187000001,1.6775195478761948,0.4753583826839673,-1.2940118662996691, ,0.04099219937730919,0.016443760450263523,0.008069306747720365,0.0027139498077555723,0.015858604292130936,0.026093891125525532, ,1.0557358264923096
0.012265368009340052,0.021249795577981626,-0.08479810078950467, ,0.01264301761853008,0.021096323135407796,-0.08519977237860553, ,0.0005722875880549633, ,0.004825206990110711,0.0012918624410115163,-0.010281084972621951,0.050372208498348156,0.060734072183389484,0.0004657907532068853, ,0.011430321048779968, ,0.07890492252142045, ,6.208981000874318e-05, ,0.19211842571208312,-0.23832353649856836,0.09569212780000001,1.6777292378196795,0.4767247476816217,-1.2951260453366333, ,0.04217641847043145,0.016032596985719003,0.01126507179632249,0.004921130264022312,0.10427801697191104,-0.06162060492419637, ,1.061290979385376
0.012265368009340052,0.021249795577981626,-0.08479810078950467, ,0.01267844164353446,0.02110130030613023,-0.08526324726862093, ,0.0006395638514355311, ,0.004825206990110711,0.0012918624410115163,-0.010281084972621951,0.050372208498348156,0.060734072183389484,0.0004657907532068853, ,0.011430321048779968, ,0.07890492252142045, ,6.283169940548509e-05, ,0.19211842571208312,-0.23832353649856836,0.09569212780000001,1.6777292378196795,0.4767247476816217,-1.2951260453366333, ,0.04217641847043145,0.016032596985719003,0.01126507179632249,0.004921130264022312,0.10427801697191104,-0.06162060492419637, ,1.0660808086395264
0.012321869380421832,0.021264788198790782,-0.0849174511772725, ,0.012713838148147643,0.02110616838798598,-0.08532668777298143, ,0.0005884508055221601, ,0.006094786366143319,0.0016732915517577265,-0.012544172521056983,-0.009091799781097799,-0.016895389249458805,-0.0029540256522185074, ,0.014046444023458442, ,0.019186315189324888, ,6.34830930655921e-05, ,0.1925508987530397,-0.2381459136424612,0.09582046051000001,1.6777292378196795,0.4772712936806835,-1.2954083594711379, ,0.04430296057818431,0.017596317737524715,0.013419386284751476,0.004878704614470515,0.027075190396002726,-0.005907665039551188, ,1.0709428787231445
0.012321869380421832,0.021264788198790782,-0.0849174511772725, ,0.012749207130364567,0.02111092798996069,-0.08539009379885072, ,0.0006555010023788666, ,0.006094786366143319,0.0016732915517577265,-0.012544172521056983,-0.009091799781097799,-0.016895389249458805,-0.0029540256522185074, ,0.014046444023458442, ,0.019186315189324888, ,6.423682357318057e-05, ,0.1925508987530397,-0.2381459136424612,0.09582046051000001,1.6777292378196795,0.4772712936806835,-1.2954083594711379, ,0.04430296057818431,0.017596317737524715,0.013419386284751476,0.004878704614470515,0.027075190396002726,-0.005907665039551188, ,1.0759108066558838
0.01238520075764545,0.0212815983283173,-0.08504827308237815, ,0.012784548588423227,0.02111557971981669,-0.08545346525352222, ,0.0005926394889575268, ,0.006410445912475775,0.0018361940525019995,-0.013799870674806631,-0.030313433420791278,-0.02833536252294886,-0.00022931868979143968, ,0.015326508279337767, ,0.04149453596073945, ,6.488187037679022e-05, ,0.19298337179399627,-0.23796056805347982,0.09595916354,1.6777292378196795,0.4772712936806835,-1.2950816445105757, ,0.04385256079411774,0.019078597016178284,0.014667413922651935,0.004641612027748061,0.015159960459532254,0.013965539349248914, ,1.0810589790344238
0.01238520075764545,0.0212815983283173,-0.08504827308237815, ,0.012819862520803969,0.021120124184094088,-0.08551680204441883, ,0.000659184447537718, ,0.006410445912475775,0.0018361940525019995,-0.013799870674806631,-0.030313433420791278,-0.02833536252294886,-0.00022931868979143968, ,0.015326508279337767, ,0.04149453596073945, ,6.562751858932208e-05, ,0.19298337179399627,-0.23796056805347982,0.09595916354,1.6777292378196795,0.4772712936806835,-1.2950816445105757, ,0.04385256079411774,0.019078597016178284,0.014667413922651935,0.004641612027748061,0.015159960459532254,0.013965539349248914, ,1.0859589576721191
0.012446338689789971,0.02129923372919936,-0.08518214804162533, ,0.012855148926229243,0.02112456198811161,-0.08558010407909382, ,0.0005966615743533206, ,0.00671796773915689,0.0018878015627208488,-0.014095535394040716,-0.03305302443683496,-0.03361276234402292,-0.00010191752532250358, ,0.015728286725807696, ,0.04714148555562473, ,6.626614321965012e-05, ,0.1934081221020786,-0.23777522246449842,0.09610175544,1.6777292378196795,0.47754456668021433,-1.2951411228376875, ,0.046291191004132086,0.019319409926398776,0.014998880903954804,0.004430495642304208,0.012313688926011274,0.01636493169026166, ,1.09122896194458
0.012446338689789971,0.02129923372919936,-0.08518214804162533, ,0.012890407803663427,0.021128893735967384,-0.08564337126522995, ,0.0006625254358761343, ,0.00671796773915689,0.0018878015627208488,-0.014095535394040716,-0.03305302443683496,-0.03361276234402292,-0.00010191752532250358, ,0.015728286725807696, ,0.04714148555562473, ,6.711008135569602e-05, ,0.1934081221020786,-0.23777522246449842,0.09610175544,1.6777292378196795,0.47754456668021433,-1.2951411228376875, ,0.046291191004132086,0.019319409926398776,0.014998880903954804,0.004430495642304208,0.012313688926011274,0.01636493169026166, ,1.0946450233459473
0.012446338689789971,0.02129923372919936,-0.08518214804162533, ,0.012925639152312122,0.02113312003054049,-0.08570660351064038, ,0.0007296411674486857, ,0.0062705213552482035,0.0020354415002271516,-0.014131040051216123,0.07995804540498834,0.08161405976568296,-0.0007097529336889869, ,0.01559322779595504, ,0.11425472949927656, ,6.805519406162823e-05, ,0.19393326793752588,-0.2375821541426428,0.09626249540000001,1.6777292378196795,0.47850102217857243,-1.2956760119431405, ,0.052487246437207286,0.018629160101780676,0.015479894577259477,0.004219310251039375,0.13616830340770908,-0.09337943047973736, ,1.0993578433990479
0.012513643074220624,0.02132032269912195,-0.08533040149887698, ,0.01296084297162186,0.02113724147349132,-0.08576980072326817, ,0.0006531295138099881, ,0.0062705213552482035,0.0020354415002271516,-0.014131040051216123,0.07995804540498834,0.08161405976568296,-0.0007097529336889869, ,0.01559322779595504, ,0.11425472949927656, ,6.887326229847433e-05, ,0.19393326793752588,-0.2375821541426428,0.09626249540000001,1.6777292378196795,0.47850102217857243,-1.2956760119431405, ,0.052487246437207286,0.018629160101780676,0.015479894577259477,0.004219310251039375,0.13616830340770908,-0.09337943047973736, ,1.1031298637390137
0.012513643074220624,0.02132032269912195,-0.08533040149887698, ,0.012996019261279688,0.021141258665263066,-0.08583296281118674, ,0.0007192486264804159, ,0.0062705213552482035,0.0020354415002271516,-0.014131040051216123,0.07995804540498834,0.08161405976568296,-0.0007097529336889869, ,0.01559322779595504, ,0.11425472949927656, ,6.979045804277002e-05, ,0.19393326793752588,-0.2375821541426428,0.09626249540000001,1.6777292378196795,0.47850102217857243,-1.2956760119431405, ,0.052487246437207286,0.018629160101780676,0.015479894577259477,0.004219310251039375,0.13616830340770908,-0.09337943047973736, ,1.1065869331359863
0.012583275997020823,0.021339919289254477,-0.08548026099254741, ,0.013031168021213088,0.021145172205082247,-0.08589608968259897, ,0.0006414414950707742, ,0.007124865853876662,0.00201545776441681,-0.014596535175836861,0.02044067134660998,0.01970137006596882,0.0008150715191207829, ,0.01636718126542651, ,0.028389511531201988, ,7.057954700343863e-05, ,0.1945047501702185,-0.23736591762216452,0.09642582794000001,1.6777292378196795,0.4797307506764614,-1.296597094336268, ,0.05536577687191993,0.01980320149383781,0.015818084925521354,0.004024907636160096,0.07607962331628361,-0.03616110445860734, ,1.109900951385498
0.012583275997020823,0.021339919289254477,-0.08548026099254741, ,0.013066289251589067,0.021148982690960095,-0.0859591812458392, ,0.0007064865162690067, ,0.007124865853876662,0.00201545776441681,-0.014596535175836861,0.02044067134660998,0.01970137006596882,0.0008150715191207829, ,0.01636718126542651, ,0.028389511531201988, ,7.146564014178052e-05, ,0.1945047501702185,-0.23736591762216452,0.09642582794000001,1.6777292378196795,0.4797307506764614,-1.296597094336268, ,0.05536577687191993,0.01980320149383781,0.015818084925521354,0.004024907636160096,0.07607962331628361,-0.03616110445860734, ,1.1131880283355713
0.012583275997020823,0.021339919289254477,-0.08548026099254741, ,0.01310138295281427,0.021152690719693265,-0.08602223740937151, ,0.0007728051444542691, ,0.007124865853876662,0.00201545776441681,-0.014596535175836861,0.02044067134660998,0.01970137006596882,0.0008150715191207829, ,0.01636718126542651, ,0.028389511531201988, ,7.244981805454725e-05, ,0.1945047501702185,-0.23736591762216452,0.09642582794000001,1.6777292378196795,0.4797307506764614,-1.296597094336268, ,0.05536577687191993,0.01980320149383781,0.015818084925521354,0.004024907636160096,0.07607962331628361,-0.03616110445860734, ,1.116424798965454
0.01266179233387275,0.021359873440036533,-0.0856332850553473, ,0.013136449125534124,0.021156296886865045,-0.08608525808179028, ,0.0006863104978823218, ,0.008368644117965842,0.0018877330745984435,-0.015965891165205824,-0.04784176196565789,-0.05313924561880882,0.0006991504652776477, ,0.018124773687781443, ,0.07150253544782866, ,7.32931371538825e-05, ,0.19505306420428845,-0.2371651265674347,0.09657749387,1.6777292378196795,0.48000402367599226,-1.296574893923239, ,0.05964609777402312,0.02403671265412127,0.016873741016949155,0.0038675246313004874,0.020699834398734764,0.026775281703270426, ,1.1196630001068115
0.01266179233387275,0.021359873440036533,-0.0856332850553473, ,0.01317148777063292,0.021159801786846108,-0.0861482431718205, ,0.0007516647965590227, ,0.008368644117965842,0.0018877330745984435,-0.015965891165205824,-0.04784176196565789,-0.05313924561880882,0.0006991504652776477, ,0.018124773687781443, ,0.07150253544782866, ,7.423270007663289e-05, ,0.19505306420428845,-0.2371651265674347,0.09657749387,1.6777292378196795,0.48000402367599226,-1.296574893923239, ,0.05964609777402312,0.02403671265412127,0.016873741016949155,0.0038675246313004874,0.020699834398734764,0.026775281703270426, ,1.1229348182678223
0.01266179233387275,0.021359873440036533,-0.0856332850553473, ,0.013206498889233104,0.02116320601279551,-0.08621119258831811, ,0.0008181445013288002, ,0.008368644117965842,0.0018877330745984435,-0.015965891165205824,-0.04784176196565789,-0.05313924561880882,0.0006991504652776477, ,0.018124773687781443, ,0.07150253544782866, ,7.526935503201297e-05, ,0.19505306420428845,-0.2371651265674347,0.09657749387,1.6777292378196795,0.48000402367599226,-1.296574893923239, ,0.05964609777402312,0.02403671265412127,0.016873741016949155,0.0038675246313004874,0.020699834398734764,0.026775281703270426, ,1.1261889934539795
0.012741881053650869,0.021377933906764714,-0.08579324726273217, ,0.013241482482695046,0.021166510156661954,-0.08627410624026895, ,0.0007249323735964692, ,0.00835546764837663,0.002193252614387219,-0.01754950195075977,-0.01208510599660871,-0.015365080206576977,-0.00038345494409953973, ,0.01956039916191144, ,0.01954824319599614, ,7.615576500660008e-05, ,0.19567860556710062,-0.23689483091683683,0.09676156705000001,1.6777292378196795,0.4805505696750541,-1.2968572080577436, ,0.05931058847404423,0.02560629831583129,0.018761851024734984,0.0037082306455408468,0.04439444416361764,-0.01013873365836429, ,1.1299169063568115
0.012741881053650869,0.021377933906764714,-0.08579324726273217, ,0.013276438552616298,0.02116971480918452,-0.08633698403679024, ,0.0007904154551628924, ,0.00835546764837663,0.002193252614387219,-0.01754950195075977,-0.01208510599660871,-0.015365080206576977,-0.00038345494409953973, ,0.01956039916191144, ,0.01954824319599614, ,7.713746335298421e-05, ,0.19567860556710062,-0.23689483091683683,0.09676156705000001,1.6777292378196795,0.4805505696750541,-1.2968572080577436, ,0.05931058847404423,0.02560629831583129,0.018761851024734984,0.0037082306455408468,0.04439444416361764,-0.01013873365836429, ,1.1337080001831055
0.012741881053650869,0.021377933906764714,-0.08579324726273217, ,0.013311367100832007,0.021172820559893602,-0.08639982588712967, ,0.0008569267591659355, ,0.00835546764837663,0.002193252614387219,-0.01754950195075977,-0.01208510599660871,-0.015365080206576977,-0.00038345494409953973, ,0.01956039916191144, ,0.01954824319599614, ,7.821515021258538e-05, ,0.19567860556710062,-0.23689483091683683,0.09676156705000001,1.6777292378196795,0.4805505696750541,-1.2968572080577436, ,0.05931058847404423,0.02560629831583129,0.018761851024734984,0.0037082306455408468,0.04439444416361764,-0.01013873365836429, ,1.1371588706970215
0.012823544330505709,0.02140125459406656,-0.08597695347034512, ,0.013346268129413674,0.021175827997112054,-0.08646263170066558, ,0.000748291830749527, ,0.008850303137031454,0.0027370986763530004,-0.020646974205637474,0.043746878145217605,0.03473638898491531,-0.004069609053133415, ,0.022630004830527573, ,0.05586056135591178, ,7.912013726201102e-05, ,0.1962655332655417,-0.2366322579991132,0.09695860313000002,1.6777292378196795,0.4813703886736467,-1.2973623579996412, ,0.06218672448130458,0.027960206705501114,0.02197077451034483,0.0035685849037618974,0.09617757020202185,-0.07385749628209143, ,1.14304780960083
0.012823544330505709,0.02140125459406656,-0.08597695347034512, ,0.01338114164066919,0.0211787377079562,-0.08652540138690754, ,0.0008131565913693728, ,0.008850303137031454,0.0027370986763530004,-0.020646974205637474,0.043746878145217605,0.03473638898491531,-0.004069609053133415, ,0.022630004830527573, ,0.05586056135591178, ,8.011848530598258e-05, ,0.1962655332655417,-0.2366322579991132,0.09695860313000002,1.6777292378196795,0.4813703886736467,-1.2973623579996412, ,0.06218672448130458,0.027960206705501114,0.02197077451034483,0.0035685849037618974,0.09617757020202185,-0.07385749628209143, ,1.147495985031128
0.012915046677128315,0.02142753158111153,-0.0861834768596617, ,0.013415987637142366,0.021181550278336566,-0.08658813485549596, ,0.00068934515326306, ,0.008855410212339697,0.0023912902975335415,-0.019091225427499022,0.030750806875783243,0.012808634163204928,-0.005395656016010548, ,0.021180449656215364, ,0.03331172010753925, ,8.09226010850876e-05, ,0.19692196555985078,-0.23633879414989267,0.09718026872,1.6777292378196795,0.4823268441720048,-1.298142283325516, ,0.06398984595985892,0.02769904890790157,0.02050040092664093,0.0034313846640611156,0.07766667439988391,-0.05507181825864999, ,1.1515588760375977
0.012915046677128315,0.02142753158111153,-0.0861834768596617, ,0.013450806121612516,0.021184266292959178,-0.08665083201620213, ,0.0007514233328283082, ,0.008855410212339697,0.0023912902975335415,-0.019091225427499022,0.030750806875783243,0.012808634163204928,-0.005395656016010548, ,0.021180449656215364, ,0.03331172010753925, ,8.181590128305446e-05, ,0.19692196555985078,-0.23633879414989267,0.09718026872,1.6777292378196795,0.4823268441720048,-1.298142283325516, ,0.06398984595985892,0.02769904890790157,0.02050040092664093,0.0034313846640611156,0.07766667439988391,-0.05507181825864999, ,1.1549139022827148
0.012915046677128315,0.02142753158111153,-0.0861834768596617, ,0.01348559709709423,0.021186886335326283,-0.08671349277892881, ,0.0008150796223185134, ,0.008855410212339697,0.0023912902975335415,-0.019091225427499022,0.030750806875783243,0.012808634163204928,-0.005395656016010548, ,0.021180449656215364, ,0.03331172010753925, ,8.279996143373786e-05, ,0.19692196555985078,-0.23633879414989267,0.09718026872,1.6777292378196795,0.4823268441720048,-1.298142283325516, ,0.06398984595985892,0.02769904890790157,0.02050040092664093,0.0034313846640611156,0.07766667439988391,-0.05507181825864999, ,1.15818190574646
0.01300405235814488,0.02144604378719883,-0.08635883022286427, ,0.013520360566836719,0.02118941098773743,-0.08677611705370951, ,0.0007117322946999354, ,0.009352473820132401,0.001366503218514253,-0.017096878994127526,-0.007850237794680451,-0.03210929628732174,-0.0036397072628299738, ,0.01953559236220675, ,0.03305497966603737, ,8.374857732101719e-05, ,0.19757839785415984,-0.2360376075677979,0.09736823077000001,1.677938927763164,0.48287339017106656,-1.2984245974600204, ,0.07024199967318341,0.033238858689481884,0.018266985688073393,0.0,0.0390461494341372,-0.023451818756485734, ,1.159970998764038
0.01300405235814488,0.02144604378719883,-0.08635883022286427, ,0.013555096534323604,0.021191840831290578,-0.08683870475070923, ,0.0007736590911812579, ,0.009352473820132401,0.001366503218514253,-0.017096878994127526,-0.007850237794680451,-0.03210929628732174,-0.0036397072628299738, ,0.01953559236220675, ,0.03305497966603737, ,8.478759917924044e-05, ,0.19757839785415984,-0.2360376075677979,0.09736823077000001,1.677938927763164,0.48287339017106656,-1.2984245974600204, ,0.07024199967318341,0.033238858689481884,0.018266985688073393,0.0,0.0390461494341372,-0.023451818756485734, ,1.1616837978363037
0.01300405235814488,0.02144604378719883,-0.08635883022286427, ,0.013589805003272625,0.021194176445882854,-0.08690125578022417, ,0.0008371193488224566, ,0.009352473820132401,0.001366503218514253,-0.017096878994127526,-0.007850237794680451,-0.03210929628732174,-0.0036397072628299738, ,0.01953559236220675, ,0.03305497966603737, ,8.591892511855355e-05, ,0.19757839785415984,-0.2360376075677979,0.09736823077000001,1.677938927763164,0.48287339017106656,-1.2984245974600204, ,0.07024199967318341,0.033238858689481884,0.018266985688073393,0.0,0.0390461494341372,-0.023451818756485734, ,1.1633679866790771
0.01300405235814488,0.02144604378719883,-0.08635883022286427, ,0.013624485977634822,0.021196418410211783,-0.08696377005268183, ,0.0009017776348574044, ,0.009352473820132401,0.001366503218514253,-0.017096878994127526,-0.007850237794680451,-0.03210929628732174,-0.0036397072628299738, ,0.01953559236220675, ,0.03305497966603737, ,8.71439381962395e-05, ,0.19757839785415984,-0.2360376075677979,0.09736823077000001,1.677938927763164,0.48287339017106656,-1.2984245974600204, ,0.07024199967318341,0.033238858689481884,0.018266985688073393,0.0,0.0390461494341372,-0.023451818756485734, ,1.1650278568267822
0.01300405235814488,0.02144604378719883,-0.08635883022286427, ,0.013659139461594699,0.021198567301775887,-0.08702624747864121, ,0.0009673828183570309, ,0.009352473820132401,0.001366503218514253,-0.017096878994127526,-0.007850237794680451,-0.03210929628732174,-0.0036397072628299738, ,0.01953559236220675, ,0.03305497966603737, ,8.846363666724519e-05, ,0.19757839785415984,-0.2360376075677979,0.09736823077000001,1.677938927763164,0.48287339017106656,-1.2984245974600204, ,0.07024199967318341,0.033238858689481884,0.018266985688073393,0.0,0.0390461494341372,-0.023451818756485734, ,1.1666758060455322
0.01300405235814488,0.02144604378719883,-0.08635883022286427, ,0.013693765459569563,0.02120062369687601,-0.08708868796879307, ,0.001033744413432639, ,0.009352473820132401,0.001366503218514253,-0.017096878994127526,-0.007850237794680451,-0.03210929628732174,-0.0036397072628299738, ,0.01953559236220675, ,0.03305497966603737, ,8.987872765042691e-05, ,0.19757839785415984,-0.2360376075677979,0.09736823077000001,1.677938927763164,0.48287339017106656,-1.2984245974600204, ,0.07024199967318341,0.033238858689481884,0.018266985688073393,0.0,0.0390461494341372,-0.023451818756485734, ,1.1683518886566162
0.01310658685487486,0.021458138917200442,-0.08653691629537717, ,0.013728363976209015,0.02120258817061632,-0.08715109143395909, ,0.0009105625039207406, ,0.010637117367550658,0.0011064912348654492,-0.017972214286528836,-0.033526536303800945,-0.05044260720576005,-0.00030404456947021415, ,0.020913466357942508, ,0.060568006267466716, ,0.000499586496511524, ,0.19836611660733075,-0.23566691638983514,0.09755878540000001,1.677938927763164,0.4832832996703629,-1.2984321362105475, ,0.08173724509773538,0.03860738061776679,0.0192144891676719,0.0,0.03232701739091813,-0.0025232130056322757, ,1.169994831085205
0.01310658685487486,0.021458138917200442,-0.08653691629537717, ,0.013762935016394756,0.02120446129690515,-0.08721345778509317, ,0.000976142218878153, ,0.010637117367550658,0.0011064912348654492,-0.017972214286528836,-0.033526536303800945,-0.05044260720576005,-0.00030404456947021415, ,0.020913466357942508, ,0.060568006267466716, ,0.0005034609332787324, ,0.19836611660733075,-0.23566691638983514,0.09755878540000001,1.677938927763164,0.4832832996703629,-1.2984321362105475, ,0.08173724509773538,0.03860738061776679,0.0192144891676719,0.0,0.03232701739091813,-0.0025232130056322757, ,1.171638011932373
0.01310658685487486,0.021458138917200442,-0.08653691629537717, ,0.013797478585240068,0.021206243648455834,-0.08727578693328064, ,0.0010424550009754997, ,0.010637117367550658,0.0011064912348654492,-0.017972214286528836,-0.033526536303800945,-0.05044260720576005,-0.00030404456947021415, ,0.020913466357942508, ,0.060568006267466716, ,0.0005078076596311256, ,0.19836611660733075,-0.23566691638983514,0.09755878540000001,1.677938927763164,0.4832832996703629,-1.2984321362105475, ,0.08173724509773538,0.03860738061776679,0.0192144891676719,0.0,0.03232701739091813,-0.0025232130056322757, ,1.1733520030975342
0.01310658685487486,0.021458138917200442,-0.08653691629537717, ,0.013831994688089712,0.021207935796787977,-0.08733807878973857, ,0.0011093599363258847, ,0.010637117367550658,0.0011064912348654492,-0.017972214286528836,-0.033526536303800945,-0.05044260720576005,-0.00030404456947021415, ,0.020913466357942508, ,0.060568006267466716, ,0.0005126200778446837, ,0.19836611660733075,-0.23566691638983514,0.09755878540000001,1.677938927763164,0.4832832996703629,-1.2984321362105475, ,0.08173724509773538,0.03860738061776679,0.0192144891676719,0.0,0.03232701739091813,-0.0025232130056322757, ,1.1755778789520264
0.01310658685487486,0.021458138917200442,-0.08653691629537717, ,0.013866483330519092,0.021209538312228347,-0.08740033326581617, ,0.0011767471178341909, ,0.010637117367550658,0.0011064912348654492,-0.017972214286528836,-0.033526536303800945,-0.05044260720576005,-0.00030404456947021415, ,0.020913466357942508, ,0.060568006267466716, ,0.00051789092736841, ,0.19836611660733075,-0.23566691638983514,0.09755878540000001,1.677938927763164,0.4832832996703629,-1.2984321362105475, ,0.08173724509773538,0.03860738061776679,0.0192144891676719,0.0,0.03232701739091813,-0.0025232130056322757, ,1.178344964981079
0.01310658685487486,0.021458138917200442,-0.08653691629537717, ,0.013900944518334188,0.021211051763911692,-0.08746255027299396, ,0.0012445297984924179, ,0.010637117367550658,0.0011064912348654492,-0.017972214286528836,-0.033526536303800945,-0.05044260720576005,-0.00030404456947021415, ,0.020913466357942508, ,0.060568006267466716, ,0.0005236124932827722, ,0.19836611660733075,-0.23566691638983514,0.09755878540000001,1.677938927763164,0.4832832996703629,-1.2984321362105475, ,0.08173724509773538,0.03860738061776679,0.0192144891676719,0.0,0.03232701739091813,-0.0025232130056322757, ,1.180161952972412
0.01310658685487486,0.021458138917200442,-0.08653691629537717, ,0.013935378257571119,0.021212476719781936,-0.08752472972288505, ,0.001312638743900464, ,0.010637117367550658,0.0011064912348654492,-0.017972214286528836,-0.033526536303800945,-0.05044260720576005,-0.00030404456947021415, ,0.020913466357942508, ,0.060568006267466716, ,0.0005297767608657229, ,0.19836611660733075,-0.23566691638983514,0.09755878540000001,1.677938927763164,0.4832832996703629,-1.2984321362105475, ,0.08173724509773538,0.03860738061776679,0.0192144891676719,0.0,0.03232701739091813,-0.0025232130056322757, ,1.1820259094238281
0.01310658685487486,0.021458138917200442,-0.08653691629537717, ,0.013969784554495589,0.021213813746593174,-0.087586871527234, ,0.0013810181195503264, ,0.010637117367550658,0.0011064912348654492,-0.017972214286528836,-0.033526536303800945,-0.05044260720576005,-0.00030404456947021415, ,0.020913466357942508, ,0.060568006267466716, ,0.0005363755310880842, ,0.19836611660733075,-0.23566691638983514,0.09755878540000001,1.677938927763164,0.4832832996703629,-1.2984321362105475, ,0.08173724509773538,0.03860738061776679,0.0192144891676719,0.0,0.03232701739091813,-0.0025232130056322757, ,1.1839189529418945
0.01310658685487486,0.021458138917200442,-0.08653691629537717, ,0.014004163415602702,0.021215063409910383,-0.0876489755979178, ,0.0014496224601528126, ,0.010637117367550658,0.0011064912348654492,-0.017972214286528836,-0.033526536303800945,-0.05044260720576005,-0.00030404456947021415, ,0.020913466357942508, ,0.060568006267466716, ,0.0005434005074655051, ,0.19836611660733075,-0.23566691638983514,0.09755878540000001,1.677938927763164,0.4832832996703629,-1.2984321362105475, ,0.08173724509773538,0.03860738061776679,0.0192144891676719,0.0,0.03232701739091813,-0.0025232130056322757, ,1.1856608390808105
0.01310658685487486,0.021458138917200442,-0.08653691629537717, ,0.014038514847616472,0.021216226274110673,-0.08771104184694548, ,0.0015184144102937313, ,0.010637117367550658,0.0011064912348654492,-0.017972214286528836,-0.033526536303800945,-0.05044260720576005,-0.00030404456947021415, ,0.020913466357942508, ,0.060568006267466716, ,0.000550843361685568, ,0.19836611660733075,-0.23566691638983514,0.09755878540000001,1.677938927763164,0.4832832996703629,-1.2984321362105475, ,0.08173724509773538,0.03860738061776679,0.0192144891676719,0.0,0.03232701739091813,-0.0025232130056322757, ,1.1872968673706055
0.013221936620028591,0.021474040701044,-0.08675618611576284, ,0.014072838857489263,0.021217302902384303,-0.08777307018645854, ,0.0013505562291925692, ,0.01171906840282477,0.002170854050939544,-0.023742223577374127,0.08489498563722365,0.0778338370425438,-0.0008320088599367029, ,0.02656581171239807, ,0.11517489844153583, ,0.0005569017925000149, ,0.19930056728511192,-0.2352189978831301,0.09779600647000002,1.677938927763164,0.4847863011677827,-1.2996577331512082, ,0.09340250153392793,0.04335173209614928,0.02573313654281099,0.0,0.17499930703024894,-0.12241343299073469, ,1.1892409324645996
0.013221936620028591,0.021474040701044,-0.08675618611576284, ,0.014107135452402069,0.021218293856735185,-0.0878350605287302, ,0.0014187858965203158, ,0.01171906840282477,0.002170854050939544,-0.023742223577374127,0.08489498563722365,0.0778338370425438,-0.0008320088599367029, ,0.02656581171239807, ,0.11517489844153583, ,0.0005633821241091901, ,0.19930056728511192,-0.2352189978831301,0.09779600647000002,1.677938927763164,0.4847863011677827,-1.2996577331512082, ,0.09340250153392793,0.04335173209614928,0.02573313654281099,0.0,0.17499930703024894,-0.12241343299073469, ,1.1908938884735107
0.013363334344337912,0.02150954659153826,-0.08706543640140878, ,0.014141404639763091,0.021219199697982583,-0.08789701278616649, ,0.0011752506060016157, ,0.013121524424941916,0.0037634907380171266,-0.029622514266615965,0.08942581660709202,0.07667482443793347,-0.001404788503945333, ,0.03261643170620223, ,0.1177963605942802, ,0.0005679483068098799, ,0.2003663044217549,-0.2347401884449282,0.09813044929,1.677938927763164,0.4868358486642643,-1.3010022867460922, ,0.09508711579005087,0.04147593599583513,0.031985565301204825,0.0,0.17543590357216324,-0.12525990702893727, ,1.192600965499878
0.013363334344337912,0.02150954659153826,-0.08706543640140878, ,0.0141756464272082,0.021220020985761597,-0.0879589268713059, ,0.001241773415794678, ,0.013121524424941916,0.0037634907380171266,-0.029622514266615965,0.08942581660709202,0.07667482443793347,-0.001404788503945333, ,0.03261643170620223, ,0.1177963605942802, ,0.000572939603913471, ,0.2003663044217549,-0.2347401884449282,0.09813044929,1.677938927763164,0.4868358486642643,-1.3010022867460922, ,0.09508711579005087,0.04147593599583513,0.031985565301204825,0.0,0.17543590357216324,-0.12525990702893727, ,1.1943268775939941
0.013363334344337912,0.02150954659153826,-0.08706543640140878, ,0.014209860822600182,0.021220758278524175,-0.088020802696819, ,0.0013087133095290569, ,0.013121524424941916,0.0037634907380171266,-0.029622514266615965,0.08942581660709202,0.07667482443793347,-0.001404788503945333, ,0.03261643170620223, ,0.1177963605942802, ,0.0005783497046900561, ,0.2003663044217549,-0.2347401884449282,0.09813044929,1.677938927763164,0.4868358486642643,-1.3010022867460922, ,0.09508711579005087,0.04147593599583513,0.031985565301204825,0.0,0.17543590357216324,-0.12525990702893727, ,1.1959848403930664
0.013363334344337912,0.02150954659153826,-0.08706543640140878, ,0.01424404783402835,0.021221412133540292,-0.08808264017550912, ,0.0013760019021979895, ,0.013121524424941916,0.0037634907380171266,-0.029622514266615965,0.08942581660709202,0.07667482443793347,-0.001404788503945333, ,0.03261643170620223, ,0.1177963605942802, ,0.0005841719835039827, ,0.2003663044217549,-0.2347401884449282,0.09813044929,1.677938927763164,0.4868358486642643,-1.3010022867460922, ,0.09508711579005087,0.04147593599583513,0.031985565301204825,0.0,0.17543590357216324,-0.12525990702893727, ,1.1976318359375
0.013363334344337912,0.02150954659153826,-0.08706543640140878, ,0.014278207469808353,0.02122198310689891,-0.08814443922031236, ,0.0014435832766445623, ,0.013121524424941916,0.0037634907380171266,-0.029622514266615965,0.08942581660709202,0.07667482443793347,-0.001404788503945333, ,0.03261643170620223, ,0.1177963605942802, ,0.0005903996015702188, ,0.2003663044217549,-0.2347401884449282,0.09813044929,1.677938927763164,0.4868358486642643,-1.3010022867460922, ,0.09508711579005087,0.04147593599583513,0.031985565301204825,0.0,0.17543590357216324,-0.12525990702893727, ,1.1993248462677002
0.013363334344337912,0.02150954659153826,-0.08706543640140878, ,0.014312339738481361,0.021222471753508765,-0.08820619974429715, ,0.0015114113289309704, ,0.013121524424941916,0.0037634907380171266,-0.029622514266615965,0.08942581660709202,0.07667482443793347,-0.001404788503945333, ,0.03261643170620223, ,0.1177963605942802, ,0.0005970255852202961, ,0.2003663044217549,-0.2347401884449282,0.09813044929,1.677938927763164,0.4868358486642643,-1.3010022867460922, ,0.09508711579005087,0.04147593599583513,0.031985565301204825,0.0,0.17543590357216324,-0.12525990702893727, ,1.2010149955749512
0.013502224289973856,0.02154672683922819,-0.08738266652083035, ,0.01434644464881441,0.0212228786270995,-0.0882679216606648, ,0.0012654099499305096, ,0.01571107429994203,0.003907354026597518,-0.036180059398789335,0.03329526520108292,0.02880565589593432,-0.0023908300329601225, ,0.03963712867057087, ,0.044025884464412676, ,0.0006017997592539405, ,0.20131620056528451,-0.2342691017396005,0.09847007727000001,1.677938927763164,0.48820221366191874,-1.3018714295626348, ,0.10474276110206487,0.05689265081443092,0.038568550895883784,0.0,0.13659957851088,-0.08476083009470683, ,1.202800989151001
0.013502224289973856,0.02154672683922819,-0.08738266652083035, ,0.014380522209799044,0.021223204280222594,-0.08832960488274964, ,0.0013314527191865201, ,0.01571107429994203,0.003907354026597518,-0.036180059398789335,0.03329526520108292,0.02880565589593432,-0.0023908300329601225, ,0.03963712867057087, ,0.044025884464412676, ,0.0006069746029414056, ,0.20131620056528451,-0.2342691017396005,0.09847007727000001,1.677938927763164,0.48820221366191874,-1.3018714295626348, ,0.10474276110206487,0.05689265081443092,0.038568550895883784,0.0,0.13659957851088,-0.08476083009470683, ,1.2044439315795898
0.013502224289973856,0.02154672683922819,-0.08738266652083035, ,0.014414572430651805,0.02122344926425244,-0.08839124932401851, ,0.0013979008516942831, ,0.01571107429994203,0.003907354026597518,-0.036180059398789335,0.03329526520108292,0.02880565589593432,-0.0023908300329601225, ,0.03963712867057087, ,0.044025884464412676, ,0.0006125445061016371, ,0.20131620056528451,-0.2342691017396005,0.09847007727000001,1.677938927763164,0.48820221366191874,-1.3018714295626348, ,0.10474276110206487,0.05689265081443092,0.038568550895883784,0.0,0.13659957851088,-0.08476083009470683, ,1.2060999870300293
0.013502224289973856,0.02154672683922819,-0.08738266652083035, ,0.014448595320813348,0.021223614129387346,-0.08845285489807156, ,0.001464692156753449, ,0.01571107429994203,0.003907354026597518,-0.036180059398789335,0.03329526520108292,0.02880565589593432,-0.0023908300329601225, ,0.03963712867057087, ,0.044025884464412676, ,0.0006185035805817197, ,0.20131620056528451,-0.2342691017396005,0.09847007727000001,1.677938927763164,0.48820221366191874,-1.3018714295626348, ,0.10474276110206487,0.05689265081443092,0.038568550895883784,0.0,0.13659957851088,-0.08476083009470683, ,1.2077629566192627
0.013502224289973856,0.02154672683922819,-0.08738266652083035, ,0.014482590889948082,0.021223699424650123,-0.08851442151864149, ,0.0015317750343913116, ,0.01571107429994203,0.003907354026597518,-0.036180059398789335,0.03329526520108292,0.02880565589593432,-0.0023908300329601225, ,0.03963712867057087, ,0.044025884464412676, ,0.0006248457434553974, ,0.20131620056528451,-0.2342691017396005,0.09847007727000001,1.677938927763164,0.48820221366191874,-1.3018714295626348, ,0.10474276110206487,0.05689265081443092,0.038568550895883784,0.0,0.13659957851088,-0.08476083009470683, ,1.209406852722168
0.013502224289973856,0.02154672683922819,-0.08738266652083035, ,0.014516559147944159,0.021223705697889506,-0.08857594909959421, ,0.0015991063675149032, ,0.01571107429994203,0.003907354026597518,-0.036180059398789335,0.03329526520108292,0.02880565589593432,-0.0023908300329601225, ,0.03963712867057087, ,0.044025884464412676, ,0.0006315647822420146, ,0.20131620056528451,-0.2342691017396005,0.09847007727000001,1.677938927763164,0.48820221366191874,-1.3018714295626348, ,0.10474276110206487,0.05689265081443092,0.038568550895883784,0.0,0.13659957851088,-0.08476083009470683, ,1.2110769748687744
0.013681710854106927,0.02159775758978215,-0.08781086385612341, ,0.014550500104912623,0.021223633495781182,-0.08863743755492914, ,0.0012561797958831197, ,0.017514854796506333,0.0052371789899316274,-0.04287341018255185,0.007750977111636808,0.032227152425518914,0.009958771879107032, ,0.04660823406863451, ,0.03314396087408973, ,0.0006358429672669537, ,0.20246688776354396,-0.23364356037678832,0.09892637135000001,1.6781486177066482,0.48970521515933857,-1.302443596582171, ,0.10932827368487416,0.05960863163220527,0.04564129375358167,-0.0039008414075729176,0.1462181575936189,-0.061018446777158175, ,1.212744951248169
0.013681710854106927,0.02159775758978215,-0.08781086385612341, ,0.014584413771187089,0.02122348336382836,-0.08869888679877834, ,0.0013204311793500862, ,0.017514854796506333,0.0052371789899316274,-0.04287341018255185,0.007750977111636808,0.032227152425518914,0.009958771879107032, ,0.04660823406863451, ,0.03314396087408973, ,0.0006405000299341859, ,0.20246688776354396,-0.23364356037678832,0.09892637135000001,1.6781486177066482,0.48970521515933857,-1.302443596582171, ,0.10932827368487416,0.05960863163220527,0.04564129375358167,-0.0039008414075729176,0.1462181575936189,-0.061018446777158175, ,1.2144010066986084
0.013681710854106927,0.02159775758978215,-0.08781086385612341, ,0.014618300157323537,0.02122325584636313,-0.08876029674540738, ,0.0013852342365021735, ,0.017514854796506333,0.0052371789899316274,-0.04287341018255185,0.007750977111636808,0.032227152425518914,0.009958771879107032, ,0.04660823406863451, ,0.03314396087408973, ,0.0006455320178164021, ,0.20246688776354396,-0.23364356037678832,0.09892637135000001,1.6781486177066482,0.48970521515933857,-1.302443596582171, ,0.10932827368487416,0.05960863163220527,0.04564129375358167,-0.0039008414075729176,0.1462181575936189,-0.061018446777158175, ,1.216059923171997
0.013681710854106927,0.02159775758978215,-0.08781086385612341, ,0.014652159274099973,0.021222951486547077,-0.08882166730921512, ,0.0014505079702198738, ,0.017514854796506333,0.0052371789899316274,-0.04287341018255185,0.007750977111636808,0.032227152425518914,0.009958771879107032, ,0.04660823406863451, ,0.03314396087408973, ,0.0006509345409868952, ,0.20246688776354396,-0.23364356037678832,0.09892637135000001,1.6781486177066482,0.48970521515933857,-1.302443596582171, ,0.10932827368487416,0.05960863163220527,0.04564129375358167,-0.0039008414075729176,0.1462181575936189,-0.061018446777158175, ,1.2177870273590088
0.013681710854106927,0.02159775758978215,-0.08781086385612341, ,0.014685991132515766,0.021222570826372772,-0.08888299840473401, ,0.0015161848420832476, ,0.017514854796506333,0.0052371789899316274,-0.04287341018255185,0.007750977111636808,0.032227152425518914,0.009958771879107032, ,0.04660823406863451, ,0.03314396087408973, ,0.0006567028763275376, ,0.20246688776354396,-0.23364356037678832,0.09892637135000001,1.6781486177066482,0.48970521515933857,-1.302443596582171, ,0.10932827368487416,0.05960863163220527,0.04564129375358167,-0.0039008414075729176,0.1462181575936189,-0.061018446777158175, ,1.2196629047393799
0.013681710854106927,0.02159775758978215,-0.08781086385612341, ,0.014719795743791548,0.021222114406664206,-0.08894428994662944, ,0.0015822081853707768, ,0.017514854796506333,0.0052371789899316274,-0.04287341018255185,0.007750977111636808,0.032227152425518914,0.009958771879107032, ,0.04660823406863451, ,0.03314396087408973, ,0.0006628320505596121, ,0.20246688776354396,-0.23364356037678832,0.09892637135000001,1.6781486177066482,0.48970521515933857,-1.302443596582171, ,0.10932827368487416,0.05960863163220527,0.04564129375358167,-0.0039008414075729176,0.1462181575936189,-0.061018446777158175, ,1.2216498851776123
0.01386225778740135,0.021648259994083957,-0.0882428737126281, ,0.014753573119368512,0.021221582767078247,-0.08900554184970076, ,0.0012482624581196483, ,0.018538144259883076,0.004531198621708979,-0.04280004088554708,0.03104770348455352,0.036928960222417574,0.0033166244339199553, ,0.04686190407307533, ,0.04824483778385462, ,0.0006666835663988229, ,0.2036098522289292,-0.23301801901397612,0.09938655430000001,1.6781486177066482,0.4912082166567584,-1.3032607998221288, ,0.12104201729396784,0.06687592780723804,0.04564129375358167,-0.0039008414075729176,0.16261631083893913,-0.09185602313758043, ,1.2238519191741943
0.01386225778740135,0.021648259994083957,-0.0882428737126281, ,0.014787323270908152,0.021220976446105218,-0.08906675402888058, ,0.0013103801565413225, ,0.018538144259883076,0.004531198621708979,-0.04280004088554708,0.03104770348455352,0.036928960222417574,0.0033166244339199553, ,0.04686190407307533, ,0.04824483778385462, ,0.0006708907336546562, ,0.2036098522289292,-0.23301801901397612,0.09938655430000001,1.6781486177066482,0.4912082166567584,-1.3032607998221288, ,0.12104201729396784,0.06687592780723804,0.04564129375358167,-0.0039008414075729176,0.16261631083893913,-0.09185602313758043, ,1.2265758514404297
0.01386225778740135,0.021648259994083957,-0.0882428737126281, ,0.014821046210292156,0.021220295981070225,-0.08912792639923556, ,0.00137322492490318, ,0.018538144259883076,0.004531198621708979,-0.04280004088554708,0.03104770348455352,0.036928960222417574,0.0033166244339199553, ,0.04686190407307533, ,0.04824483778385462, ,0.00067545134528614, ,0.2036098522289292,-0.23301801901397612,0.09938655430000001,1.6781486177066482,0.4912082166567584,-1.3032607998221288, ,0.12104201729396784,0.06687592780723804,0.04564129375358167,-0.0039008414075729176,0.16261631083893913,-0.09185602313758043, ,1.228562831878662
0.01386225778740135,0.021648259994083957,-0.0882428737126281, ,0.014854741949621485,0.0212195419081338,-0.08918905887596566, ,0.0014366942516759475, ,0.018538144259883076,0.004531198621708979,-0.04280004088554708,0.03104770348455352,0.036928960222417574,0.0033166244339199553, ,0.04686190407307533, ,0.04824483778385462, ,0.0006803625898434936, ,0.2036098522289292,-0.23301801901397612,0.09938655430000001,1.6781486177066482,0.4912082166567584,-1.3032607998221288, ,0.12104201729396784,0.06687592780723804,0.04564129375358167,-0.0039008414075729176,0.16261631083893913,-0.09185602313758043, ,1.2305359840393066
0.013973372226723107,0.021672551000561018,-0.08849065528610127, ,0.014888410501216542,0.021218714762293082,-0.08925015137440472, ,0.0012728301862783384, ,0.018883274616033806,0.0037658269741217684,-0.04097731475859146,0.012262144692294271,0.026365717546386076,0.006349769109886157, ,0.04527581957124849, ,0.029075689469906612, ,0.0006841604590514094, ,0.20435123458485474,-0.23260871417164222,0.09965099746000002,1.6781486177066482,0.4921646721551165,-1.303795688927582, ,0.12789345223513582,0.0701900455314133,0.04376047120879121,-0.0039008414075729176,0.15904035649458026,-0.0758297273144379, ,1.2329208850860596
0.013973372226723107,0.021672551000561018,-0.08849065528610127, ,0.014922051877616206,0.021217815077383025,-0.08931120381002028, ,0.0013341955328784682, ,0.018883274616033806,0.0037658269741217684,-0.04097731475859146,0.012262144692294271,0.026365717546386076,0.006349769109886157, ,0.04527581957124849, ,0.029075689469906612, ,0.0006883008098401167, ,0.20435123458485474,-0.23260871417164222,0.09965099746000002,1.6781486177066482,0.4921646721551165,-1.303795688927582, ,0.12789345223513582,0.0701900455314133,0.04376047120879121,-0.0039008414075729176,0.15904035649458026,-0.0758297273144379, ,1.2346129417419434
0.013973372226723107,0.021672551000561018,-0.08849065528610127, ,0.01495566609157787,0.021216843386076854,-0.08937221609841431, ,0.0013963237921901144, ,0.018883274616033806,0.0037658269741217684,-0.04097731475859146,0.012262144692294271,0.026365717546386076,0.006349769109886157, ,0.04527581957124849, ,0.029075689469906612, ,0.0006927819679562559, ,0.20435123458485474,-0.23260871417164222,0.09965099746000002,1.6781486177066482,0.4921646721551165,-1.303795688927582, ,0.12789345223513582,0.0701900455314133,0.04376047120879121,-0.0039008414075729176,0.15904035649458026,-0.0758297273144379, ,1.236279010772705
0.013973372226723107,0.021672551000561018,-0.08849065528610127, ,0.014989253156076996,0.021215800219887424,-0.089433188155322, ,0.001459110533109924, ,0.018883274616033806,0.0037658269741217684,-0.04097731475859146,0.012262144692294271,0.026365717546386076,0.006349769109886157, ,0.04527581957124849, ,0.029075689469906612, ,0.0006976016444666564, ,0.20435123458485474,-0.23260871417164222,0.09965099746000002,1.6781486177066482,0.4921646721551165,-1.303795688927582, ,0.12789345223513582,0.0701900455314133,0.04376047120879121,-0.0039008414075729176,0.15904035649458026,-0.0758297273144379, ,1.2379050254821777
0.013973372226723107,0.021672551000561018,-0.08849065528610127, ,0.015022813084306487,0.021214686109168043,-0.08949411989661298, ,0.001522467601259564, ,0.018883274616033806,0.0037658269741217684,-0.04097731475859146,0.012262144692294271,0.026365717546386076,0.006349769109886157, ,0.04527581957124849, ,0.029075689469906612, ,0.0007027570566966121, ,0.20435123458485474,-0.23260871417164222,0.09965099746000002,1.6781486177066482,0.4921646721551165,-1.303795688927582, ,0.12789345223513582,0.0701900455314133,0.04376047120879121,-0.0039008414075729176,0.15904035649458026,-0.0758297273144379, ,1.2395248413085938
0.013973372226723107,0.021672551000561018,-0.08849065528610127, ,0.015056345889676524,0.021213501583113623,-0.08955501123829107, ,0.0015863202436051163, ,0.018883274616033806,0.0037658269741217684,-0.04097731475859146,0.012262144692294271,0.026365717546386076,0.006349769109886157, ,0.04527581957124849, ,0.029075689469906612, ,0.0007082450268016339, ,0.20435123458485474,-0.23260871417164222,0.09965099746000002,1.6781486177066482,0.4921646721551165,-1.303795688927582, ,0.12789345223513582,0.0701900455314133,0.04376047120879121,-0.0039008414075729176,0.15904035649458026,-0.0758297273144379, ,1.241182804107666
0.014238823566446252,0.021709954921383518,-0.08901630770678545, ,0.01508985158581418,0.02121224716976153,-0.08961586209649416, ,0.001153874846763243, ,0.018587315637727163,0.0009354926680413098,-0.03258576474208074,-0.006961695254077279,-0.024812888536673815,-0.0023362899138169085, ,0.04527581957124849, ,0.025770291001599076, ,0.0007109958281594215, ,0.20623558140616552,-0.2315970361651188,0.10021358732,1.677938927763164,0.49421421965159806,-1.3050585637823253, ,0.13833373405024896,0.07804024799216347,0.034855167439824954,-0.0046506845563676,0.11722534442523135,-0.06650537954273122, ,1.2436139583587646
0.014238823566446252,0.021709954921383518,-0.08901630770678545, ,0.015123330186562688,0.021210923395992502,-0.08967667238749379, ,0.0012113900841144872, ,0.018587315637727163,0.0009354926680413098,-0.03258576474208074,-0.006961695254077279,-0.024812888536673815,-0.0023362899138169085, ,0.037525931207295686, ,0.025770291001599076, ,0.0007140657315701888, ,0.20623558140616552,-0.2315970361651188,0.10021358732,1.677938927763164,0.49421421965159806,-1.3050585637823253, ,0.13833373405024896,0.07804024799216347,0.034855167439824954,-0.0046506845563676,0.11722534442523135,-0.06650537954273122, ,1.2453207969665527
