NicholasDascanio/dvrk_moveit_final/test/execution/third_experiment_notsharpbends/thirdexp_700vel4.0/thirdexp_700vel4.0_5.csv
Current Position (x),Current Position (y),Current Position (z), ,Planned Position (x),Planned Position (y),Planned Position (z), ,Position Error,,Cartesian linear Velocity(x),Cartesian linear Velocity(y),Cartesian linear Velocity(z),Cartesian Angular Velocity(x),Cartesian Angular Velocity(y),Cartesian Angular Velocity(z), ,Total Linear Velocity, ,Total Angular Velocity, ,MSE, ,Joint 1 Position,Joint 2 Position,Joint 3 Position,Joint 4 Position,Joint 5 Position,Joint 6 Position, ,Joint 1 Velocity,Joint 2 Velocity,Joint 3 Velocity,Joint 4 Velocity,Joint 5 Velocity,Joint 6 Velocity, ,Time Stamp
0.006375783297384434,0.020248679702862774,-0.07161483104850973, ,0.0065725122937067984,0.02020634024318894,-0.07183089940005283, ,0.0002952633745963585, ,4.7029672056048886e-05,-4.0533735140477355e-05,-7.273683604600436e-06,0.046736929229151465,6.938135817968706e-05,-0.014233282825844623, ,6.251144064343508e-05, ,0.04673698072772326, ,2.460528121636321e-05, ,0.14183571196800734,-0.2693766453858251,0.08194367606000001,1.6781486177066482,0.43491397875339693,-1.2540894738935808, ,0.0006386286342089717,0.0005243891065678276,0.0,-0.0007849113401783025,0.0,-0.0496623453343914, ,0.01706409454345703
0.006386065939223976,0.02025429733548468,-0.07166353006303784, ,0.0066577136758581455,0.020206086073241886,-0.07203732475528085, ,0.0004645850735597913, ,0.0011228373239273082,0.0007277729717616793,-0.00391818827507319,0.012955154619561392,-0.0076229976884040415,-0.005563771260295168, ,0.004140364297178702, ,0.015031504384148592, ,3.4538565825279534e-05, ,0.14192838476249803,-0.26926852712558597,0.08199423137,1.6781486177066482,0.4353238882526933,-1.2568740898088868, ,0.0077612680469402425,0.004845677439647254,0.0040551964154786155,-0.0007849113401783025,0.0,-0.018727951165234735, ,0.03825116157531738
0.006425438753910393,0.020286643116849377,-0.07183007635051758, ,0.006742731574185169,0.02020584134597348,-0.07224314543439528, ,0.0005270955587274127, ,0.002830767777861914,0.002484755652978619,-0.011540911628199674,0.2487488193704064,-0.02522174427049668,-0.09530410372462964, ,0.012140012276645561, ,0.2500242214615984, ,4.021700021511133e-05, ,0.14211373035147942,-0.2691063497352273,0.08216534165000001,1.6777292378196795,0.4350506152531624,-1.261306942189506, ,0.013992471477214802,0.009976714717390256,0.011931694022471913,0.0075231149699954225,-0.019112113147662802,-0.27145031113048745, ,0.054548025131225586
0.006460064891308181,0.020314996238847707,-0.07196576088591135, ,0.006827566170377379,0.020205606032237325,-0.07244836236280956, ,0.0006163826676051955, ,0.00350847437602683,0.0028686561294664435,-0.013995401404994313,0.1109157588109762,-0.031607873725265336,-0.05298521333641214, ,0.014710874920387267, ,0.11533153383661246, ,4.531730177354186e-05, ,0.1422913532075866,-0.2689827860092397,0.08230534097,1.6777292378196795,0.43477734225363146,-1.2632077536257678, ,0.018520090077765568,0.013883970966857466,0.014454456914700545,0.007085936170911581,-0.01816237789619575,-0.13096588564280176, ,0.07087922096252441
0.006544182455983296,0.020371489150127455,-0.07226871125535406, ,0.006912217646096989,0.02020538010297446,-0.07265297646508573, ,0.0005574063761011558, ,0.0041737508350793194,0.002235974170296586,-0.013453797703322484,0.5526744598430401,-0.04706973922270543,-0.19789932556240958, ,0.014262694316484673, ,0.5546752369382529, ,4.732178943442142e-05, ,0.1427701626457885,-0.2686198175641511,0.08261645057000001,1.6777292378196795,0.4340941597548043,-1.269675035759374, ,0.02664895859547059,0.01996569357426273,0.013767339256698359,0.006303741695534075,-0.034508204124712095,-0.6014392913931306, ,0.08726716041564941
0.006597599263384383,0.02038424535623025,-0.07238807144824665, ,0.006996686182978945,0.02020516352921256,-0.07285698866493769, ,0.0006412675153699434, ,0.006407954540457484,0.001163216476385016,-0.012406046635096719,0.2616987863783156,-0.27966189427286053,-0.17820981470643996, ,0.014011600446619147, ,0.3830104823712922, ,5.003226719290092e-05, ,0.14304045829638637,-0.2683881355779244,0.08272533893,1.6777292378196795,0.432454521757619,-1.2739738539847159, ,0.03232184657986061,0.027960206705501114,0.011851794285714288,0.006007845843278951,-0.2543152543347065,-0.34322145426323436, ,0.10326218605041504
0.006721110848348616,0.020401344655743437,-0.07261007850433922, ,0.007080971962630671,0.020204956282065284,-0.07306039988523554, ,0.0006089809200464646, ,0.004885298846002978,0.0004296701965113549,-0.010363032228559063,-0.3227904028419863,-0.07658098632495801,0.07527427351695251, ,0.011464868000229307, ,0.3317503451601474, ,5.1541409527865585e-05, ,0.1438127315838088,-0.2678012078794833,0.08294700452,1.677938927763164,0.4279455172653595,-1.2740542852091996, ,0.042554682313215596,0.03194107760298579,0.010397396553524807,0.0,-0.030446307816546572,0.30231180201315455, ,0.12204718589782715
0.006782636450946308,0.020393805225489087,-0.07279860768155837, ,0.007165075166631982,0.02020475833273098,-0.07326321104800852, ,0.0006307569952316184, ,0.0014387748763470285,-0.00047245875512660185,-0.01040782631725492,-0.5347286889817151,0.3659643116572608,0.27875957343063673, ,0.010517420742285026, ,0.6479696351718596, ,5.2948030258999274e-05, ,0.14473945952871575,-0.26699804366056396,0.08314533689,1.6777292378196795,0.4320446122583227,-1.2632664002757752, ,0.048840422829887174,0.046885840690944064,0.011500946945848377,-0.004091134404065365,0.44323899395927463,0.5419601829983443, ,0.13870906829833984
0.0068451929345035405,0.020390857927523088,-0.073033549013927, ,0.007248995976534857,0.020204569652492278,-0.07346542307444823, ,0.0006198995259869063, ,0.005638417090954961,2.604347304608106e-05,-0.013147926776034387,0.10629403745689735,-0.006499103386337099,-0.03113919834412626, ,0.014305956943246519, ,0.10649253659675242, ,5.39308479046179e-05, ,0.14581291939823296,-0.2660867611814055,0.08339681715000001,1.6773098579327104,0.4381932547477675,-1.2633794815336803, ,0.05582173032851222,0.046862687189368285,0.013318404280936457,-0.009364365695406949,0.050904688083879546,-0.15781209478411146, ,0.15853118896484375
0.006978460347060907,0.020382912841927534,-0.07328975208124901, ,0.0073327345738634885,0.02020439021271511,-0.0736670368849121, ,0.0005474708941967398, ,0.006957681949620221,-0.0004230275912325478,-0.012657864487652111,0.19918611579182655,-0.11858858863118808,-0.12797285978960948, ,0.014450253417943213, ,0.2318153613392193, ,5.401087158256457e-05, ,0.14699449752798932,-0.2650828059077563,0.08364959370000001,1.6771001679892257,0.43723679924940945,-1.2678269955768013, ,0.06021379540512105,0.05140679391033087,0.012434669414519907,0.023457705866717905,-0.07222519128824376,-0.2634997923774535, ,0.17452311515808105
0.007050109586653403,0.0203781335140169,-0.07341718757420063, ,0.007416291140114005,0.02020421998484791,-0.0738680533989258, ,0.0006063124917300835, ,0.0075710678812581905,-0.0004922719462644237,-0.012956861058463907,0.03941787021664612,-0.16518387242074573,-0.09017392228756363, ,0.015014781018051405, ,0.1698219062287203, ,5.4601976724568474e-05, ,0.14759687069217883,-0.26457310553805746,0.08377403754000001,1.6771001679892257,0.43628034375105135,-1.2695791111952839, ,0.06292900633850848,0.05286737691279709,0.012621879175911255,0.022396645297551424,-0.1145002036583184,-0.1006908355009643, ,0.1934950351715088
0.007126314219721123,0.020370163350616765,-0.07355432323360327, ,0.007499665856754561,0.02020405894042098,-0.07406847353518649, ,0.000656759204412207, ,0.0064231368811333974,-0.0006061511100315034,-0.01215999969858311,0.06338933991765815,-0.07210679587503667,-0.06616400038285705, ,0.013765525752092065, ,0.09600832339277433, ,5.55096770292121e-05, ,0.1482841939179848,-0.2639861778396164,0.08390885170000001,1.6771001679892257,0.43573379775198956,-1.2710937293438715, ,0.05934768077452831,0.05179964058868492,0.012049025355521938,0.018831139920224414,-0.020545175759079846,-0.11858502287090388, ,0.21136903762817383
0.0072991110418108825,0.020342199064235178,-0.07387382784621303, ,0.007582858905225071,0.0202039070510458,-0.07426829821156537, ,0.0005052171810670103, ,0.005466751881965189,-0.0010202884889287437,-0.009852638214727242,-0.05633771638833987,-0.04343917811618938,-0.014745380280327281, ,0.011313745822225017, ,0.07114000555536354, ,5.513180135326429e-05, ,0.14996774968456575,-0.26249569039489107,0.08422514646000001,1.6771001679892257,0.43587043425175503,-1.2713685047278491, ,0.05379645213065237,0.04851581879267422,0.00974239236697248,0.013404127710855855,0.00735932237397088,0.011286473211384264, ,0.2280571460723877
0.007406661251887627,0.020323461347882987,-0.07408080192870739, ,0.007665870466937294,0.020203764288414285,-0.07446752834511026, ,0.00048070169997195577, ,0.005355147098528548,-0.0005313285935860867,-0.011237856344652823,-0.01491086834651015,-0.01982898492314732,-0.0068156221739729085, ,0.012459908737398304, ,0.024809725083051744, ,5.463450337044254e-05, ,0.15104120955408296,-0.26151490331986454,0.08443125657,1.6773098579327104,0.43641698025081677,-1.2717324976024942, ,0.05211254341486588,0.04633639724534706,0.011289023047484055,0.0,0.033103646274027135,-0.030018082632086655, ,0.24521517753601074
0.007459430663913592,0.0203203770143314,-0.07420117954139376, ,0.007748700723274659,0.020203630624298297,-0.07466616485204847, ,0.0005599269826979007, ,0.005248611970657067,-3.239331113955707e-05,-0.012476149557774022,-0.004347561714866831,-0.0063024650824030715,-0.005928064738788987, ,0.013535260792946554, ,0.007656504209105251, ,5.47238582980312e-05, ,0.151558632656656,-0.2610515393474111,0.08455310783,1.6773098579327104,0.43696352624987855,-1.27217816921728, ,0.04922040537265082,0.04415865126034006,0.012641913904761905,0.0,0.04403590479117539,-0.03805532822902589, ,0.26137614250183105
0.00756276114199418,0.020323478932518922,-0.0744535993164258, ,0.007831349855592348,0.02020350603054891,-0.07486420864778864, ,0.0005051073324370462, ,0.0051256488191795116,0.0004962277628769285,-0.01326844886845959,-0.016290960556284477,-0.01946478382306043,-0.000515814756977305, ,0.014232717702010839, ,0.025382529304223297, ,5.446378885023326e-05, ,0.15247763786868873,-0.2602329296627433,0.08480847696,1.6768904780457412,0.43751007224894034,-1.2726238408320656, ,0.04373130947394967,0.03944178784641346,0.01347615187817259,-0.0052870599554607515,0.02628355603447644,-0.022735417452683013, ,0.27997422218322754
0.007661409673394878,0.020335419172229426,-0.07470934777012568, ,0.007913818045217215,0.02020339047909578,-0.07506166064692318, ,0.00045306282691687954, ,0.004487501647776528,0.0005505296112571418,-0.011623449006862432,-0.012045363239409787,-0.01402403851920741,0.0007056558081087458, ,0.012471780975738759, ,0.01848686614307269, ,5.393137570148062e-05, ,0.1533194157519792,-0.259499270039692,0.08506903125000001,1.6768904780457412,0.43805661824800207,-1.273151191186992, ,0.03835769666874324,0.03291603938899437,0.011851794285714288,-0.004846102782319869,0.02627048062163937,-0.02036433819001558, ,0.29888010025024414
0.0077456617684965555,0.02033875457335335,-0.07491843038478964, ,0.007996105473447585,0.020203283941946683,-0.0752585217632311, ,0.00046552236493372035, ,0.003472645131405691,6.0116433560922534e-05,-0.00931259467854482,0.029114249183936212,0.03536328692999953,0.001665308973595942, ,0.009939179938059328, ,0.04580612948063411, ,5.3525928492243885e-05, ,0.15407624357365318,-0.2588196695467602,0.08528162281000001,1.6768904780457412,0.4387398007468293,-1.2737899594456146, ,0.03458343351256224,0.0314020322827501,0.009566853765765769,-0.004240180964989829,0.07291729013553588,-0.05854855104893604, ,0.31548404693603516
0.007779762730853583,0.020339900714655752,-0.07501091140419808, ,0.00807821232155345,0.020203186391187036,-0.07545479290967864, ,0.0005520812941389354, ,0.0035118656740293712,0.0002226621914392104,-0.00958637510646963,0.05646900720570643,0.061086966428094656,0.0018684260651432262, ,0.010211824844064986, ,0.08318873818747939, ,5.3894242302237285e-05, ,0.15443921201874175,-0.25851076023179126,0.08537754827,1.6768904780457412,0.4396962562451874,-1.27465156351163, ,0.037642578960123275,0.030523300597771235,0.009980458345864663,-0.003991234976707077,0.10234461029520465,-0.084207869283038, ,0.33083605766296387
0.007862841934015622,0.02035090513268606,-0.07523224104275283, ,0.008160138770776334,0.020203097798979115,-0.07565047499842337, ,0.0005339963096513892, ,0.004776539111407801,0.0009192724550232591,-0.012493295706385292,-0.03172460462984463,-0.03693226746500623,-0.00437354541613474, ,0.013406820105325427, ,0.04868719148470626, ,5.413898294689356e-05, ,0.15516514890891886,-0.2579006643347275,0.08560439902000001,1.676680788102257,0.44051607524378,-1.2754017496739491, ,0.03691051791461329,0.030820702032630976,0.012732862925659475,0.0,0.0,0.0013326371764371793, ,0.3455781936645508
0.007910102693246898,0.02036286315293451,-0.07536730908483534, ,0.008241885002329323,0.020203018137561826,-0.0758455689408142, ,0.0006036244025886341, ,0.004781290618141577,0.001308798143653667,-0.01407963031480017,-0.01603220268684364,-0.017141714909901653,-0.003925588221496392, ,0.014926810856891027, ,0.02347060629276545, ,5.469579421993945e-05, ,0.15553584008688162,-0.2575917550197585,0.08574310205,1.676680788102257,0.4407893482433109,-1.2756245854813422, ,0.03564873837658557,0.031236649624249765,0.014428271304347828,0.0,0.019005960339035958,-0.014211554731384114, ,0.3602712154388428
0.008004697202525935,0.020390263199247898,-0.0756644620903773, ,0.008323451197396987,0.02020294737925005,-0.0760400756473947, ,0.0005270454153893999, ,0.004789246565441306,0.0010905027896285196,-0.013417462527669467,0.0012507745468070877,-0.0021800739201937,0.005742103425516131, ,0.014288260204804268, ,0.002513309452087458, ,5.4855350492462136e-05, ,0.1563081133743041,-0.25693532272544944,0.08605032278000001,1.676471098158772,0.4421557132409653,-1.2766570857781656, ,0.0391812310315734,0.03128814426589871,0.013815101058109283,-0.009770337626862174,0.04049584618533338,-0.03242817115388371, ,0.3776700496673584
0.008054500279362616,0.020397887140038255,-0.07579092157395036, ,0.008404837537135406,0.020202885496434262,-0.07623399602790336, ,0.0005975590405455915, ,0.005018264807189173,0.0004782202997348173,-0.012211143323263098,-0.020960191642473543,-0.026832061746910323,0.004509782147883665, ,0.013210741750235858, ,0.034048331820690475, ,5.531288743569312e-05, ,0.1567251409495122,-0.2566032452118578,0.08617995178000001,1.676471098158772,0.4424289862404962,-1.2768799215855586, ,0.04208290091284735,0.034697236401634655,0.012444384000000001,-0.009691607861778672,0.018169448281694124,-0.014222490711352034, ,0.39209604263305664
0.00815145986188619,0.02040519323352629,-0.07603475419789117, ,0.008486044202672221,0.02020283246158002,-0.07642733099127744, ,0.0005854763934959264, ,0.0049257302011664625,0.0004524363791875935,-0.012541026357779997,-0.0012482228525081314,-0.00294570124122229,0.004307458587598571, ,0.013481278084752513, ,0.0031992039439832807, ,5.568432983643333e-05, ,0.15759780976429957,-0.25586958558880646,0.08643013575000001,1.676471098158772,0.44352207823861967,-1.2777712648151298, ,0.04407661010611741,0.03682457957255366,0.011345307350427351,-0.008439026508739192,0.07180713097263569,-0.0579604243880613, ,0.4080531597137451
0.008198343709793363,0.020405957788682098,-0.07614746417739397, ,0.008567071375106525,0.020202788247227727,-0.07662008144565234, ,0.0006329336742487925, ,0.004897457694329468,5.7529432248476837e-05,-0.011686365212857958,0.0010997309385257688,0.000523309401960277,0.00299418273044779, ,0.012671208837029652, ,0.0012178024868819382, ,5.6222185778151256e-05, ,0.15803028280525613,-0.25549889441084367,0.08654550556000001,1.676471098158772,0.44406862423768145,-1.2782169364299156, ,0.04436509656777502,0.03818790404767436,0.011931694022471913,-0.007937448935781525,0.04808076704965197,-0.038613165528420354, ,0.4236412048339844
0.008301286486753377,0.02040769849197672,-0.07639160474966189, ,0.008647919235508967,0.020202752825991776,-0.07681224829836523, ,0.0005823212031015291, ,0.0052130197504381675,-6.931193783058549e-05,-0.012404077652717792,-0.006432975705282322,-0.005713860233455228,0.0014052056307283986, ,0.01345516709215598, ,0.008604131655627319, ,5.652266424704168e-05, ,0.15894156528441464,-0.25470345292479857,0.08679439324,1.676471098158772,0.44488844323627413,-1.278885443852094, ,0.046133661428522495,0.04187861498608596,0.012611885605700713,-0.007095027713975929,0.043271054263098206,-0.03474166972985498, ,0.4380910396575928
0.00835210904364359,0.02040439438731242,-0.07651246289158542, ,0.00872858796492165,0.020202726170560636,-0.07700383245595527, ,0.0006510380147146179, ,0.005021447354764624,-0.00019474368052165396,-0.011995561597106104,0.0268459426616057,0.031125996713089226,0.00036313891280173404, ,0.013005627884409983, ,0.04110391782301653, ,5.706385830214146e-05, ,0.15942037472261655,-0.2542787026167162,0.08691754079000001,1.676051718271803,0.44557162573510134,-1.2794425333705761, ,0.04856547674435557,0.0424025654863587,0.012309746151468317,-0.0051107237743350355,0.08297125583187812,-0.06713899602726758, ,0.45364904403686523
0.008465005136160374,0.020400270480344616,-0.07676629122176105, ,0.008809077744358192,0.020202708253696227,-0.07719483482416534, ,0.000584008914548364, ,0.006002037903939803,1.1707346829780765e-06,-0.012973071799720976,-0.02555915474984149,-0.03055646470551738,-0.0173468788406729, ,0.014294231434101851, ,0.03983676140655083, ,5.73228075294543e-05, ,0.16043205272913996,-0.25340603380192883,0.08717550250000002,1.6756323383848342,0.44639144473369397,-1.2801927195328953, ,0.051884604460618246,0.04337154550204332,0.01318610225165563,0.011526435683340375,0.018890428595868376,-0.014929568167282437, ,0.46962714195251465
0.008523680968711702,0.020399962633433428,-0.07689630003616105, ,0.008889388754803806,0.02020269904823349,-0.07738525630794375, ,0.0006416645093582508, ,0.006070515045997749,2.891249056201539e-05,-0.013471232175152217,-0.029239205648687247,-0.032951931425420126,-0.017626315246849055, ,0.014775861571246933, ,0.04405406324036159, ,5.777034931448334e-05, ,0.1609417530988388,-0.25297356076097227,0.08730772408000001,1.6756323383848342,0.4466647177332248,-1.280415555340288, ,0.05121259663166258,0.044448216186637364,0.013672799587982834,0.011526435683340375,0.01575347672456561,-0.012390690526137614, ,0.48430919647216797
0.008636681618409931,0.020397854490583324,-0.07716433693621072, ,0.008969521177215233,0.020202698527080225,-0.077575097811446, ,0.0005635534744996139, ,0.0053859988449592834,-0.00018627754545616365,-0.012577972261910176,0.013755838577828765,0.01707447596041991,-0.01695294797955692, ,0.013683898169133884, ,0.021926251605983025, ,5.7920764247825636e-05, ,0.16198432203685909,-0.25206227828181377,0.08758253756,1.6756323383848342,0.44816771923064463,-1.2815594735408082, ,0.049143936591647217,0.04422038283246542,0.012866568271405495,0.011526435683340375,0.0648355299376261,-0.053863119985345584, ,0.5005521774291992
0.008692607534085472,0.020395284078616627,-0.07728923642930388, ,0.009049475192520588,0.020202706663216552,-0.07776436023803521, ,0.0006246464761627147, ,0.005669716625671478,-0.00027764420202370523,-0.012294111079583536,-0.012661950121837219,-0.014393163979169888,-0.017690048978361603, ,0.013541341889025312, ,0.01916997311844493, ,5.8266448521846644e-05, ,0.16247857694080947,-0.25162208250798296,0.08770957398000001,1.6756323383848342,0.448577628729941,-1.2818937272518973, ,0.049867021312911604,0.04411759254229232,0.012493185505882354,0.011526435683340375,0.03336237058422752,-0.02819886889666223, ,0.5149030685424805
0.008800978140805164,0.02038719493246527,-0.07752661781701431, ,0.009129250981619813,0.020202723429694747,-0.07795304449028398, ,0.0005688870722971059, ,0.005330232556525278,-0.0003295294668034655,-0.011996094346947568,0.006674550436451273,0.009200158928763637,-0.017169383818755067, ,0.013131117559332151, ,0.011366279048831933, ,5.841089344262745e-05, ,0.16344391855008752,-0.2507494136931956,0.08795068392000001,1.6756323383848342,0.4493974477285336,-1.282562234674076, ,0.04821999062930426,0.04367093490955857,0.012243513850883937,0.011526435683340375,0.05583722477779918,-0.04646269304100227, ,0.5302791595458984
0.008853713451592873,0.020384695763334584,-0.07764669424212012, ,0.009208848725384113,0.020202748799638674,-0.0781411514699754, ,0.0006353846948638813, ,0.005205253480282376,-0.0001535309719759361,-0.011929240485853638,0.020437537443992917,0.019742329039363328,0.0037944997331993825, ,0.013016336432448157, ,0.028415704303983682, ,5.875690812363765e-05, ,0.16393045072116366,-0.25031694065223903,0.08807383147,1.6758420283283186,0.45008063022736083,-1.283119324192558, ,0.04844152197982173,0.040313059285671526,0.012271811648690295,-0.009509464414983397,0.0722012581045646,-0.05977479720293302, ,0.5445890426635742
0.008967407022383125,0.020380796775925893,-0.07790957416767139, ,0.009288268604656556,0.0202027827462438,-0.07832868207810488, ,0.0005570391281863397, ,0.0057717814297945135,6.498353214854079e-05,-0.013602414277899546,-0.024179145860752285,-0.02763330130875359,0.0018866103433509886, ,0.014776446051753335, ,0.03671825118526268, ,5.8843493875397154e-05, ,0.1648880695975675,-0.24944427183745166,0.08834086721000001,1.6754226484413495,0.45076381272618804,-1.2836764137110401, ,0.04647254728622467,0.04227035258729211,0.013827093333333334,-0.00901818832060745,0.0215436326656776,-0.018408217723387778, ,0.5588819980621338
0.009002464749677652,0.02038162158143857,-0.07799671203901015, ,0.009367510800251657,0.02020282524277657,-0.07851563721488035, ,0.0006591737918868823, ,0.005471822503328629,0.00014380267160418836,-0.013577841008942408,0.007725684273822714,0.00841305680110717,0.002774468585817942, ,0.014639647781979329, ,0.011422139062219996, ,5.9230306851541355e-05, ,0.16518925617966226,-0.2491739761868538,0.08843031122,1.6754226484413495,0.45117372222548435,-1.2840106674221294, ,0.04647254728622467,0.041403552163381666,0.013923786293706296,-0.00901818832060745,0.058426745309598065,-0.048466683636376205, ,0.5753781795501709
0.009128450326830514,0.020382344372291104,-0.07830722713616164, ,0.009446575492955496,0.020202876262574363,-0.07870201777972415, ,0.0005378401955709909, ,0.005304816792976336,-0.00022901389407589104,-0.011909049448527984,-0.023637936567781927,-0.02591085413975941,0.0019673441326173617, ,0.013039132921257003, ,0.035073126006819826, ,5.9244165671038795e-05, ,0.16624727058343103,-0.24820091184470153,0.08874790227000001,1.675212958497865,0.45240345072337335,-1.2849317498152568, ,0.04355068451513115,0.04012555668434282,0.012076430265352543,-0.008684707321131593,0.020222273823827117,-0.016804206596812067, ,0.5899510383605957
0.009181108254654666,0.020379324283539165,-0.0784247083060114, ,0.009525462863525907,0.020202935779045063,-0.07888782467127382, ,0.0006034648033998372, ,0.005293452109181299,-0.0002131864195790629,-0.01164078740480397,-0.020884435990648362,-0.025842454348922267,0.0017230466089947136, ,0.012789605743944246, ,0.033226373555819054, ,5.94432232131365e-05, ,0.1666874663572618,-0.24779160700236763,0.08886716095000001,1.675212958497865,0.45267672372290424,-1.285072906882509, ,0.04387283474732814,0.039020123996081735,0.011825398307349667,-0.008684707321131593,0.020594384531560157,-0.01852065122059714, ,0.6051900386810303
0.009262331034305286,0.02037811194466843,-0.07862848819925686, ,0.009604173092692217,0.02020300376566691,-0.07907305878738344, ,0.0005875047872678627, ,0.004519465566599608,-0.0002436290913110524,-0.011330543295916146,0.022279005604853196,0.02773606251899262,0.0027057934780982795, ,0.012201071080951986, ,0.0355758776146356, ,5.975335895153752e-05, ,0.16741340324743892,-0.24712745197518432,0.08907715993000001,1.675212958497865,0.4540430887205586,-1.2861870859194733, ,0.039855918336191,0.0384665348838552,0.011618389146608317,-0.008684707321131593,0.07127319233296911,-0.059808736919040546, ,0.6222410202026367
0.009322677829099997,0.02037749191667828,-0.07877127294639243, ,0.009682706361155587,0.020203080195987953,-0.07925772102512378, ,0.0006298188037123777, ,0.004837675635035083,-5.949204447874763e-05,-0.011460310602850368,-0.022736394322111744,-0.024960670050389815,0.0020500294783663314, ,0.012439668965329139, ,0.033763567324058615, ,6.016471920113123e-05, ,0.16789221268564083,-0.24667181073560507,0.08922234441000002,1.675212958497865,0.4543163617200895,-1.286409921726866, ,0.03762765327457208,0.03613744918449001,0.011626869722627739,-0.008684707321131593,0.015095977080763778,-0.013976015049091642, ,0.6352951526641846
0.009423326331625343,0.020377810365363062,-0.07901025153355518, ,0.009761062849588723,0.02020316504362616,-0.07944181228078491, ,0.0005751622575587703, ,0.005129917744750776,0.00019994434472847043,-0.012206052380989253,-0.008901555999234069,-0.012839798219711665,-5.258679173989492e-05, ,0.01324174265481516, ,0.015623631030862404, ,6.0413643614790965e-05, ,0.16869537690456018,-0.24593815111255374,0.08946604693000001,1.6750032685543808,0.4548629077191513,-1.2868555933416517, ,0.04097449980935698,0.03543575114207273,0.012502991773940349,-0.006106959681714485,0.03026168485898181,-0.026306971439160866, ,0.6490311622619629
0.009469993111499483,0.020380151718449094,-0.07913996406434402, ,0.009839242738635963,0.020203258282269036,-0.07962533344987552, ,0.0006349960750392391, ,0.004798984644379007,0.00043631984982395037,-0.013487059570598026,0.044509995503661616,0.05060078007953335,0.005113970737428272, ,0.014322060064431923, ,0.06739123235358516, ,6.080763563068943e-05, ,0.1691124044797683,-0.24556745993459095,0.08960086109000001,1.674793578610896,0.4559559997172748,-1.287746936571223, ,0.040763291047453076,0.03656914896280184,0.013997198172231988,-0.0105878907740749,0.09599193466404929,-0.07988879013350303, ,0.6646201610565186
0.00957621190712812,0.020393834032439995,-0.07941670883705851, ,0.009917246208913492,0.02020335988567318,-0.07980828542712494, ,0.0006886418050423512, ,0.005603174176403503,0.0006600272945606746,-0.013881342937697529,-0.03388548863449617,-0.04200266755225955,0.002574622920952049, ,0.014829139882895628, ,0.053967118749186284, ,6.13220903889511e-05, ,0.16992329143156187,-0.24487241397591075,0.08988604489,1.674793578610896,0.4567758187158674,-1.2884154439934017, ,0.039789074028708925,0.034333191591342536,0.01418415985752449,-0.009235419274337978,0.0,-0.001536072169990583, ,0.6777260303497314
0.009627948462650632,0.020398371265808655,-0.07955227169105195, ,0.00999507344100906,0.020203469827664414,-0.07999066910648352, ,0.0006041188742147115, ,0.005425124798741998,0.0004252594928026243,-0.013784041478342914,-0.017281248595919844,-0.01986428200838576,0.0018724097346535073, ,0.014819332785075787, ,0.026329275628847307, ,6.16052378979364e-05, ,0.17030170534239888,-0.2445094455308222,0.09002474792000001,1.674793578610896,0.45704909171539826,-1.2886382798007945, ,0.0399566069719877,0.036867498662964564,0.014096293380530976,-0.008571416103175722,0.022631015180594335,-0.019948501000613322, ,0.6909360885620117
0.009664692552031513,0.020402344805753203,-0.07964971697996727, ,0.010072724615482273,0.020203588082137184,-0.08017248538112405, ,0.000692301380349972, ,0.005025902621288535,0.0005758962482914586,-0.01367099279262642,0.04064893889743583,0.043664762006598516,0.0027742217670457137, ,0.0145769474713849, ,0.05965691239957687, ,6.209291388122853e-05, ,0.17060289192449365,-0.2442545953459728,0.09012585854,1.674793578610896,0.4575956377144601,-1.28908395141558, ,0.041952670892338985,0.03517306951759481,0.014222153142857146,-0.00813408257312987,0.08948351438610107,-0.07443201556694168, ,0.7043750286102295
0.009730953268093383,0.020408680707633044,-0.07982483728357605, ,0.010150199912864413,0.020203714623054647,-0.08035373514344174, ,0.0007053451574581589, ,0.005775782245747357,0.0002586994037401764,-0.01341305492712659,-0.0334128282993223,-0.03860994408327125,-0.002918262077462603, ,0.014606047665604163, ,0.051060204101869934, ,6.259315811721973e-05, ,0.17159140173239437,-0.24342054019555653,0.09044733846000001,1.674374198723927,0.45882536621234904,-1.2901683912889885, ,0.04280421360327955,0.037597837384497144,0.013684545979381443,-0.0035453798840370736,0.005159160275291961,-0.004086251481553692, ,0.7177700996398926
0.00984674298062227,0.02041346081948602,-0.08009451953807041, ,0.010227499513658549,0.02020384942444827,-0.08053441928505614, ,0.000618404610087593, ,0.006016275313762583,0.00017508157217999186,-0.013310111761998873,-0.03795062826166861,-0.045724391150703106,-0.0031036804839156304, ,0.014607713624137311, ,0.05942196322754325, ,6.287000363521935e-05, ,0.17203159750622518,-0.24304212628471955,0.09058344891,1.674374198723927,0.45896200271211446,-1.290279809192685, ,0.04534015363519865,0.03820327760002849,0.013579549462915603,-0.0035453798840370736,0.0004813164596594356,-0.00025993245356461527, ,0.7307841777801514
0.009902537498391486,0.020414337068025305,-0.0802266452717876, ,0.010304623598339367,0.020203992460417743,-0.08071453869681118, ,0.0006663017934105473, ,0.005214688974688137,3.864169178665705e-05,-0.012847638981413764,0.022805299910697772,0.02729057428784902,-0.0021685184505182632, ,0.013865651866386254, ,0.035564825304482045, ,6.324723634729509e-05, ,0.17248723874580443,-0.2426482669081341,0.09071955936000001,1.674374198723927,0.45950854871117625,-1.2907254808074706, ,0.04371116607944301,0.03871764241471676,0.013274009600000001,-0.0035453798840370736,0.07339383733749277,-0.05970364123815901, ,0.746819019317627
0.010013960809889994,0.020414798384140478,-0.08048606747049768, ,0.010381572347353507,0.020204143705130642,-0.08089409426877614, ,0.0005882172255029586, ,0.0056072725140226135,-0.000415897946761908,-0.011639875325953886,-0.017437219422940752,-0.01969525267207234,-0.002885403087167343, ,0.012926761920619732, ,0.026305120895968013, ,6.343372009950505e-05, ,0.17342941215645982,-0.2418605481549632,0.09098789139,1.674374198723927,0.4608749137088306,-1.2917579811042943, ,0.04620104262827205,0.04005780563886483,0.011887172776119406,-0.0035453798840370736,0.027950509299101263,-0.021882522850538634, ,0.7616620063781738
0.010075508952955824,0.02041148633402027,-0.08061191089085508, ,0.010458345941119319,0.020204303132822322,-0.08107308689024652, ,0.0006341705928056087, ,0.006001569770904567,-0.00025744489162420444,-0.012051843434051428,-0.0418961553576743,-0.049199311247606695,0.0018129485814962895, ,0.013465958849860911, ,0.06462089295838837, ,6.371590458059542e-05, ,0.17392366706041018,-0.2414512433126293,0.0911162241,1.6741645087804424,0.4610115502085961,-1.29178772026785, ,0.04718893165513216,0.03894006629399704,0.012271811648690295,-0.008250532003494314,0.0,0.0022566257078192138, ,0.7744760513305664
0.010133124667609843,0.020407408202724235,-0.08073467273887214, ,0.010534944560027031,0.02020447071779585,-0.08125151744974536, ,0.0006853986459636799, ,0.005911031969698931,-0.00031302112216090696,-0.012175567978147237,-0.01662065429479253,-0.0245193514005945,-0.0016164049500219915, ,0.013538195476510381, ,0.02962168926171264, ,6.410030591389719e-05, ,0.1744024764986121,-0.2410419384702954,0.09124196423000001,1.6739548188369582,0.4614214597078924,-1.2920402952387988, ,0.04821999062930426,0.04012555668434282,0.012463858779342725,-0.006013708410739115,0.02561741685730233,-0.023396741045132743, ,0.7887852191925049
0.0102389832782539,0.020409477747501237,-0.08098932579266359, ,0.010611368384438487,0.020204646434421412,-0.08142938683502274, ,0.0006117844842167326, ,0.005388054167883192,-3.909472852077721e-05,-0.011961155275974104,-0.005411782692766678,-0.010337709764058458,-0.0007310236292117261, ,0.013118761056205143, ,0.011668564189696596, ,6.431317050939301e-05, ,0.17532920444351904,-0.24029283338149562,0.09150770368000001,1.6739548188369582,0.46333437070460853,-1.2936818246306894, ,0.04295923112651461,0.03602769231528883,0.01230024055598456,-0.006013708410739115,0.03471696234883353,-0.030339358155976666, ,0.8027980327606201
0.010295265391324082,0.02040569395604162,-0.08110369838812524, ,0.01068761759468761,0.02020483025713665,-0.08160669593305735, ,0.0006687996764575521, ,0.006178130000377327,-0.0002543350186732728,-0.013293773210773418,-0.04489178940035844,-0.0514960316562174,-0.0020933097219628066, ,0.014661459094604564, ,0.06831627636749234, ,6.46393741296518e-05, ,0.17577712295022407,-0.2399066967377844,0.09162436978,1.6739548188369582,0.463471007204374,-1.2937115637942451, ,0.04560160574650206,0.04208290091284735,0.013487562675698563,-0.006013708410739115,-0.0045825164362244784,0.0022605201469275775, ,0.8157820701599121
0.010358722431292156,0.020407055920627897,-0.0812451202208141, ,0.010763692371079938,0.02020502216044614,-0.08178344563005736, ,0.0007032869532572284, ,0.006209710192621608,0.0003561070274514436,-0.014395600860763209,-0.03707375382104218,-0.04531563601020965,-0.0013517775475953343, ,0.01568185693831427, ,0.05854886396134945, ,6.502642602200111e-05, ,0.17622504145692908,-0.23950511462832472,0.09176825797,1.6739548188369582,0.46333437070460853,-1.2936001458905486, ,0.04391343894422526,0.03805009685584233,0.014721637264325326,-0.006013708410739115,0.0,-0.0014762147361747709, ,0.8292391300201416
0.010401671960824045,0.02040982297621102,-0.08134468814483688, ,0.01083959289389283,0.02020522211892134,-0.08195963681146037, ,0.0007821752469910585, ,0.006397449314081199,0.00027490951820530966,-0.01386324228685464,-0.033626780263269755,-0.046692052751135436,-0.0018000601542396116, ,0.015270639137687479, ,0.057540486867294155, ,6.556213939381102e-05, ,0.1765416735047723,-0.23924254171060108,0.09187066488000001,1.6739548188369582,0.463471007204374,-1.2936298850541046, ,0.047401069709525866,0.03750867255275525,0.014222153142857146,-0.005794589769141635,0.002080544792339195,-0.004354230371397893, ,0.842703104019165
0.010556744405337637,0.020404224935193033,-0.08168649786574689, ,0.010915319343375597,0.020205430107200478,-0.08213527036193477, ,0.0006078586374809686, ,0.005941816611709832,-0.00014866007714381882,-0.013334052848368238,-0.022274173124975077,-0.02684694204395851,-0.0021546273071026936, ,0.014598775627730032, ,0.034884045980937174, ,6.57298688149991e-05, ,0.1777773107646482,-0.23818452730683232,0.09222195947,1.673535438949989,0.4645640992024975,-1.294521228283676, ,0.044344365214238686,0.04057158681422436,0.013626014987168523,-0.005849048897459414,0.019214023993930643,-0.018325433812240083, ,0.8558981418609619
0.010609957525418,0.0204060423515452,-0.08181694421775167, ,0.010990871899749361,0.020205646099988157,-0.08231034716538012, ,0.0006547525387036003, ,0.005378109580241774,0.00024352703469055352,-0.013316419341477799,0.020721042375415208,0.019958532582490206,-0.0011121503042979867, ,0.014363509047297513, ,0.028769848821934306, ,6.598514324704584e-05, ,0.17818661560698212,-0.23782155886174378,0.09235677363000001,1.673535438949989,0.46511064520155926,-1.2950485786386021, ,0.041952670892338985,0.036109947320574876,0.013803129566724439,-0.005849048897459414,0.0645087195778888,-0.05589027983966385, ,0.871516227722168
0.010669929930087522,0.020409557793833712,-0.08196003108331143, ,0.011066250743207075,0.02020587007205554,-0.0824848681049277, ,0.0006884858561902033, ,0.005732124679747412,0.00044807807470954045,-0.013920116007028825,-0.0024093859214621865,-0.0018863316514862428,0.0006067323803873553, ,0.0150607986824851, ,0.003059879893712437, ,6.642770155458663e-05, ,0.17863453411368713,-0.23744314495090676,0.09250455069,1.673535438949989,0.4655205547008556,-1.2954645110898322, ,0.042612007884360474,0.03525146417476626,0.014402180397830021,-0.005849048897459414,0.042997361452426754,-0.03215120020745321, ,0.883538007736206
0.010745305376883108,0.020417328961597755,-0.08214275174417039, ,0.011141456053913491,0.020206101998239887,-0.08265883406294114, ,0.0006840271549498656, ,0.0061380142919565134,0.00048360028395153215,-0.015189099020405302,-0.03519143588502554,-0.03559120929438627,-0.00030936202453604364, ,0.016389564293616158, ,0.05005167859546594, ,6.684973092658617e-05, ,0.17915195721626018,-0.23700294917707598,0.09269251274000001,1.673535438949989,0.46565719120062105,-1.2955759289935285, ,0.04099219937730919,0.03800438188164629,0.015555480000000002,-0.005849048897459414,0.006956475954511772,-0.0029338205223602863, ,0.8949570655822754
0.010857291874577193,0.02042575564830864,-0.0824297379684116, ,0.011216488012005305,0.020206341853444637,-0.08283224592101779, ,0.0005823889854994856, ,0.005620654672252936,0.0002190941473298794,-0.013887357761359973,0.013519121734925357,0.018086751987114447,0.0011658975405955069, ,0.014983272899540942, ,0.022580893104438202, ,6.706729911862681e-05, ,0.17997056690092797,-0.23627701228689887,0.09298936315,1.6733257490065043,0.46675028319874456,-1.2964672722230999, ,0.04270789449076092,0.037287599826511114,0.01435028064864865,-0.007040578214594962,0.07566165265735462,-0.05959182136288574, ,0.9072191715240479
0.010894727142701871,0.020425883989978272,-0.08251920010820459, ,0.011291346797590937,0.020206589612639093,-0.08300510455998787, ,0.0006644548975210554, ,0.005781201603887098,0.00014896706108612546,-0.013683411570025214,-0.006420610373615706,-0.005111307995374847,-0.000423204671761423, ,0.014855310005677273, ,0.008206657498086556, ,6.743312239009147e-05, ,0.18024858528440005,-0.23602988483492368,0.09308139974000001,1.6731160590630199,0.46702355619827546,-1.2966901080304927, ,0.04280421360327955,0.03755320204134183,0.014108779025686451,-0.005633433053137926,0.03980984285319332,-0.030503461615978302, ,0.9206781387329102
0.010976516137341685,0.020432263033524214,-0.08271365906413149, ,0.011366032590750759,0.02020684525085843,-0.08317741085991658, ,0.0006462213028926212, ,0.006311885593236524,0.0005425589078139229,-0.01453680247852156,-0.026092879608931436,-0.03274827341121409,-0.00033075256145238737, ,0.015857266353634398, ,0.041872271595325944, ,6.775569543853959e-05, ,0.18083551298284112,-0.23554335266384754,0.09328232469000002,1.6731160590630199,0.46743346569757177,-1.297024361741582, ,0.044448216186637364,0.03519916229913605,0.014998880903954804,-0.005633433053137926,0.013298832501952733,-0.009136687130083535, ,0.932164192199707
0.011036817046307396,0.02043513759785735,-0.08285396363663071, ,0.011440545571537057,0.020207108743203396,-0.08334916570010344, ,0.0006783944017358617, ,0.005791678434245299,0.00011321064407124982,-0.013548401492157365,0.0037604359581757513,0.005044996454920318,-0.0004826157820455825, ,0.014734840980761381, ,0.006292250100418509, ,6.812882986937337e-05, ,0.18128343148954615,-0.23517266148588478,0.09342750917,1.6731160590630199,0.46784337519686814,-1.297358615452671, ,0.04397448635703002,0.037419929636620976,0.014021841126760566,-0.005633433053137926,0.05134466029272055,-0.04030664026234071, ,0.9435670375823975
0.011091345968979427,0.020435557669075993,-0.08297894644494874, ,0.011514885919973737,0.020207380064840234,-0.0835203699590838, ,0.0007242862216150345, ,0.00543577105687995,8.002406366627748e-05,-0.012917140962051031,0.01050270485999879,0.013454811433410386,-0.0002341049313377534, ,0.01401451181693733, ,0.01706863792089687, ,6.857537213025681e-05, ,0.1817081817976285,-0.23481741577367043,0.09355713817000001,1.6731160590630199,0.46838992119592987,-1.2978042870674569, ,0.04160321857013186,0.0359186001356816,0.013385555899159665,-0.005633433053137926,0.057493925381815914,-0.045439567760473254, ,0.9556820392608643
0.011212368060897307,0.02043759047068338,-0.08325673857892456, ,0.011589053816056835,0.02020765919100069,-0.08369102451462883, ,0.0006191646190369385, ,0.006357052430004253,0.0004098453297477746,-0.014785179405727492,-0.020849614447027768,-0.025619095333690785,0.003594926297173528, ,0.016099118573750782, ,0.033030951572314164, ,6.882338819821606e-05, ,0.1825962960781643,-0.23406831068487066,0.09384361826000001,1.6726966791760507,0.4690731036947571,-1.2983613765859392, ,0.04465738426280978,0.036767509321375735,0.015257482298850577,-0.010192666066451283,0.0218332163326986,-0.016561836833555218, ,0.9679291248321533
0.01127530232604802,0.020441448540551112,-0.08340841202097804, ,0.011663049439753957,0.020207946096981733,-0.08386113024374642, ,0.0006401757606835136, ,0.0063095795652225025,0.000279337329563167,-0.015015401722663798,-0.009334117333583735,-0.012696626363865315,0.002528780519506634, ,0.016289601361805506, ,0.01575846769642064, ,6.91022826406386e-05, ,0.18304421458486933,-0.23368217404115943,0.09400046935,1.6726966791760507,0.46948301319405333,-1.2986139515568875, ,0.04469945433748034,0.03881265503413938,0.015494952840466926,-0.010192666066451283,0.03499705131347683,-0.029909157360620806, ,0.9793810844421387
0.011340259297164331,0.020445115112231235,-0.08356198150424902, ,0.011736872971004713,0.020208240758145334,-0.08403068802268149, ,0.0006581015623153147, ,0.006160190788914209,0.00039352649628310397,-0.014972239280064832,0.02254992181351172,0.021562982929649675,0.0029852329114104723, ,0.016194775784759002, ,0.03120032779067915, ,6.940556191686616e-05, ,0.18352302402307125,-0.23328831466457398,0.09415991302000001,1.6726966791760507,0.4700295591931152,-1.2990596231716733, ,0.046381691866310255,0.03753834713547103,0.015601186601371206,-0.010192666066451283,0.07161908203131398,-0.05972160013635841, ,0.9907770156860352
0.011404480298867321,0.02045055927335271,-0.08371786662340333, ,0.01181052458972055,0.020208543149918615,-0.08419969872691654, ,0.0006749858858617234, ,0.006459066979154993,0.0004481487178614378,-0.015610921690282071,-0.00099008836308232,-0.004332160698935629,0.0026359812662166008, ,0.01690033311904385, ,0.004443755636131247, ,6.973055668051505e-05, ,0.18398638799552472,-0.232909900753737,0.09432194927000001,1.6726966791760507,0.4705761051921769,-1.299505294786459, ,0.0457114362035023,0.03835769666874324,0.01617138225380711,-0.010192666066451283,0.044541685143641166,-0.037595770592911, ,1.0027902126312256
0.011474471835779019,0.02045497125989294,-0.0838871526882587, ,0.011884004475784703,0.020208853247793486,-0.0843681632311724, ,0.0006779839242223486, ,0.00665110482835088,0.00023154720476418586,-0.015292729996664265,-0.016957260929098147,-0.023839591328995102,0.0010994593796611, ,0.016678081433325043, ,0.029255323900611287, ,7.005291665922261e-05, ,0.18444202923510397,-0.23251604137715154,0.09448528181000002,1.6726966791760507,0.4709860146914732,-1.299921227237689, ,0.04658661833994638,0.04022761405615548,0.015912898621378624,-0.009478895141757879,0.025370281958756048,-0.023342334381656723, ,1.0141410827636719
0.01153737742542216,0.020456496200842743,-0.08402633527567165, ,0.011957312809052172,0.020209171027326688,-0.08453608240940827, ,0.0007052358529115881, ,0.0062058260563368425,5.7512834726045e-06,-0.013209873512379438,-0.004126678265853139,-0.012311073949344468,-0.0016690076620289947, ,0.014594967226130889, ,0.012984283309010405, ,7.041342913623104e-05, ,0.1849285614061801,-0.23212218200056609,0.09464083661000001,1.6724869892325662,0.4712592876910041,-1.3001440630450816, ,0.04683955654416129,0.03678176029398092,0.013696312570937234,-0.0059045104694713,0.03651801396721072,-0.03239117303876931, ,1.0257320404052734
0.01159535184601443,0.020453885001317344,-0.08415400416547518, ,0.012030449769349926,0.020209496464139554,-0.08470345713482307, ,0.0007422496382754048, ,0.006115794185108496,-0.00012489355284365407,-0.01361626610531207,0.003988947074970619,0.0010583368559936848,0.0068749972432935805, ,0.014506582180049262, ,0.002821232459698005, ,7.08269542346088e-05, ,0.18585528935108706,-0.23133446324739518,0.0949143538,1.6720676093455973,0.47221574318936216,-1.3010056671110972, ,0.04606647648469455,0.0387334455340697,0.014108779025686451,-0.014933934635502676,0.0514481440351344,-0.043705134953960674, ,1.038020133972168
0.011694298509407917,0.02045027833108549,-0.08436978118544686, ,0.012103415536476574,0.020209829533918006,-0.08487028827985492, ,0.0006897098791880448, ,0.006332507084510175,-0.00012509248217244806,-0.013587314119393516,-0.006989148114265826,-0.01086469906200823,0.006942270218980906, ,0.014991043962430969, ,0.012918568573115775, ,7.114485784042156e-05, ,0.1861178622688107,-0.23111050399404268,0.09499602007,1.6720676093455973,0.4724890161888931,-1.3013101816586308, ,0.04751975040484265,0.03860738061776679,0.01407138826855124,-0.014355705027362333,0.04068575364883163,-0.03263468328691558, ,1.052563190460205
0.01178945812842773,0.020448691371790218,-0.0845690909885523, ,0.012176210290202612,0.020210170212412393,-0.08503657671618238, ,0.0006519298149696151, ,0.0062780817502200575,-0.00022458689741642682,-0.013571010515937046,-0.028125347681285738,-0.031898097701499796,0.00468941142633411, ,0.014954500197619819, ,0.04252673698799939, ,7.139431620360902e-05, ,0.18678974002886822,-0.23056991269284696,0.09519305615000001,1.6720676093455973,0.47276228918842395,-1.301614696206164, ,0.04491099931778078,0.03903617505490365,0.01373173406896552,-0.012490657017225595,0.01711748592401245,-0.013749301801438343, ,1.0644891262054443
0.011850056013339494,0.02044640360494689,-0.08470261206150298, ,0.012248834210270305,0.020210518475437245,-0.08520232331472437, ,0.0006814522589787641, ,0.0060236544611130165,-0.0001236045867262552,-0.012996846105119135,-0.009767322978148354,-0.016631189724917762,0.0032468300320115024, ,0.014325421454215472, ,0.019287215946912826, ,7.16854893535345e-05, ,0.1872531040013217,-0.23014516238476462,0.09533953692000001,1.6720676093455973,0.47317219868772026,-1.3021123073975345, ,0.04387283474732814,0.03672482258454752,0.013430701112984824,-0.011355215243969265,0.030327856883792775,-0.02785397644968781, ,1.0759220123291016
0.01194048312683044,0.02044267358991453,-0.08490270735341846, ,0.01232128747639365,0.020210874298871452,-0.08536752894564152, ,0.0006440512220088702, ,0.00614290033461251,-0.00023022693778209657,-0.013770316740656768,-0.008473539476915804,-0.0014013803228635601,0.004318023753773333, ,0.015080114459176862, ,0.008588611234984049, ,7.19109296016076e-05, ,0.18793270449425345,-0.22955051195344933,0.09554694332000001,1.6720676093455973,0.47399201768631294,-1.3028624935598536, ,0.04486853028769304,0.0399566069719877,0.014234862841823058,-0.01007346270021265,0.046708257415281736,-0.031311579222218916, ,1.0898711681365967
0.01204333923371176,0.02044215778965033,-0.08512680037206094, ,0.012393570268258455,0.020211237658657955,-0.08553219447833563, ,0.0005833783213828195, ,0.0064124392435795765,-1.8880506069952144e-05,-0.013408656135326935,-0.023536932115211823,-0.023892154143963833,-0.004891853384998698, ,0.014863101724793165, ,0.03353836265528973, ,7.203632429466648e-05, ,0.188674086850179,-0.2289404160563856,0.09577897923,1.6718579194021128,0.47453856368537467,-1.3033081651746392, ,0.04620104262827205,0.036881827267186466,0.013887368369659986,0.0,0.022823692204760784,-0.011912776636858777, ,1.1013951301574707
0.012102639670659367,0.0204407261089749,-0.08525477726309454, ,0.012465682765522288,0.020211608530803678,-0.08569632078145073, ,0.0006158375045067178, ,0.006212226522677971,-6.758758680670064e-05,-0.013690020141599007,-0.021348012243418348,-0.018540960064184035,0.007863375480704966, ,0.015033728011652349, ,0.028275507881996256, ,7.232144783308064e-05, ,0.18909883715826134,-0.22858517034417125,0.09591120081000001,1.6716482294586281,0.47481183668490556,-1.3035310009820322, ,0.043791851203724405,0.037375715462178334,0.014146369023090587,-0.013445889734813143,0.02891583192551112,-0.01692370227337399, ,1.1111230850219727
0.01216698650638389,0.020440639246279715,-0.08540830001451635, ,0.012537625147814382,0.02021198689137941,-0.08585990872287323, ,0.0006273797314120572, ,0.005885412932668907,7.242004403341061e-05,-0.014415927195417344,0.019078451775537134,0.029183247602262655,0.003375269422839756, ,0.015571200562396517, ,0.03486615321713938, ,7.261906482448614e-05, ,0.1895622011307148,-0.22817586550183735,0.09607064448000001,1.6714385395151437,0.47549501918373277,-1.3040064117603736, ,0.04263115074504527,0.03800438188164629,0.015013017455230917,-0.009260342965544835,0.07530073396192931,-0.05631152044247549, ,1.120955228805542
0.012217122469326994,0.020442635378977995,-0.08553024906880648, ,0.012609397594735785,0.02021237271651971,-0.08602295916973283, ,0.0006705698407263197, ,0.00598444099140079,0.0002877543095038429,-0.014714153520011661,0.00991358867807982,0.017140307004957778,0.0029584687290096657, ,0.015887185097828615, ,0.019800724102331396, ,7.297707618390596e-05, ,0.18991744684292913,-0.2278669561868684,0.09619768090000001,1.6714385395151437,0.4760415651827945,-1.3044520833751594, ,0.04173128476625804,0.03624787683669625,0.015316164923076924,-0.008599598279043164,0.06196805001989317,-0.04558941881504651, ,1.1336312294006348
0.012298216082448294,0.020448175678402063,-0.08572538609147044, ,0.012681000285859079,0.02021276598242304,-0.08618547298840255, ,0.0006431340638392466, ,0.006300864971571161,0.0006389485399334806,-0.015334791781346556,-0.022423526398255227,-0.022675920883595647,0.0021914276806381796, ,0.016591111885702822, ,0.03189061109582103, ,7.328715413970024e-05, ,0.19045031541125063,-0.22740359221441492,0.09639990214000001,1.6714385395151437,0.47645147468209087,-1.3047863370862487, ,0.039789074028708925,0.033615636400450156,0.015881168015952143,-0.00760275473799965,0.01922996065757592,-0.011401372896495331, ,1.1432700157165527
0.012364219880562627,0.02045598734551583,-0.08588715622640018, ,0.01275243340072875,0.020213166665351202,-0.08634745104449924, ,0.0006492633822450113, ,0.00661980489913491,0.0006133074431074095,-0.016246555833349077,-0.008816174148322916,-0.007153849524465251,0.0009528136426757712, ,0.017554160172691555, ,0.011353473377615246, ,7.360083745917151e-05, ,0.1908827884522072,-0.22705606923507482,0.09656841984,1.6714385395151437,0.4768613841813871,-1.3051205907973378, ,0.04299816110488028,0.03635898144002712,0.016873741016949155,-0.00696141961900226,0.038133268607138934,-0.027210234485790588, ,1.153135061264038
0.012426511600735327,0.02046133935630143,-0.08604759256290974, ,0.012823697118860822,0.020213574741629617,-0.08650889420288406, ,0.0006572235868675809, ,0.006436628475648543,0.0006179871312505295,-0.01640044586685183,0.011029639311657879,0.016617049089751392,0.00027860854659041465, ,0.017629144019476902, ,0.019944374577000417, ,7.392074630503583e-05, ,0.19129981602741533,-0.22668537805711203,0.09673564125,1.6714385395151437,0.47754456668021433,-1.3056776803158199, ,0.042612007884360474,0.03671061568993066,0.017090999484978543,-0.0064354514023580054,0.06179558468490585,-0.04683305475223462, ,1.1627471446990967
0.012493770632662618,0.020467863141428077,-0.08621076384830363, ,0.01289479161974297,0.020213990187647118,-0.08666980332766287, ,0.0006602927777514849, ,0.0068389132503213,0.000692012990618707,-0.01662690137642595,1.7975934605481632e-05,0.0004202781550363896,-0.00022118676206227047, ,0.017991761053493358, ,0.00041914928379942326, ,7.423952321668476e-05, ,0.1917400118012461,-0.2263224096120235,0.09690545524000001,1.6714385395151437,0.4779544761795107,-1.3060119340269092, ,0.045189019789747986,0.036386864094505665,0.01733276552774755,-0.005980458975299502,0.047825408360533755,-0.03572059545051112, ,1.1738221645355225
0.012561550743197517,0.02047524724601631,-0.08638248824417197, ,0.012965717082834578,0.020214412979855857,-0.08683017928218707, ,0.0006571241967985382, ,0.006842250376456955,0.0009469828794232414,-0.01767674302643796,0.0008676304356971057,0.0025806158042899906,0.00812575974761435, ,0.018978419607827444, ,0.0027222480819592753, ,7.454810493315477e-05, ,0.19218020757507692,-0.22596716389980914,0.09708434326000001,1.6710191596281745,0.47850102217857243,-1.306457605641695, ,0.04295923112651461,0.035688958841094694,0.018414811005780348,-0.014673957438413565,0.04971190993459464,-0.03749714655454194, ,1.184589147567749
0.012629742294427461,0.02048420404067114,-0.08655723515647248, ,0.01303647368756652,0.02021484309477123,-0.08699002292905336, ,0.0006521433902420935, ,0.006689255246006634,0.0007696984866785127,-0.016749013184758695,0.01934887600729795,0.021669380028511223,0.007167601175904692, ,0.01805181470572538, ,0.029050640534635776, ,7.484413782425761e-05, ,0.19258951241741082,-0.2256350863862175,0.09725415725000001,1.6708094696846902,0.47918420467739964,-1.307014695160177, ,0.04484732587829433,0.035303921710740614,0.01762036672566372,-0.01371055641297492,0.07707824595944798,-0.06000932347017001, ,1.1943840980529785
0.012699283299154377,0.02048731599180063,-0.0867213131073549, ,0.01310706161334138,0.02021528050897174,-0.08714933513010428, ,0.0006507605622635851, ,0.006760641525757187,0.0003541993251331764,-0.01535307707319777,-0.013954380042342302,-0.012838371713668107,-0.046680261873590284, ,0.016779413178572972, ,0.018961741944483985, ,7.513310019577343e-05, ,0.19307604458848696,-0.2252335042767578,0.09743693414000001,1.670390089797721,0.47945747767693053,-1.30723753096757, ,0.04397448635703002,0.03849774505414636,0.015928811520000002,0.041872930266946586,0.02218878722354284,-0.01544920560870103, ,1.2050940990447998
0.012767045613020337,0.020487403374963006,-0.08686536538226666, ,0.01317748103953326,0.020215725199098946,-0.08730811674642917, ,0.0006620385495161384, ,0.006843176000294783,6.943556850423439e-05,-0.013775794717452067,-0.03240651853068424,-0.0386935755412037,-0.0387966082567386, ,0.015382015445531326, ,0.050471524004396064, ,7.54331569405767e-05, ,0.1934930721636951,-0.2248782585645435,0.09757693346000001,1.670390089797721,0.479594114176696,-1.3073489488712662, ,0.04608884971271043,0.0374051799599806,0.014441352239347238,0.034502942254611424,0.0,0.002496146308267158, ,1.215386152267456
0.01283189904777729,0.020486384819102883,-0.08699823390740678, ,0.013247732145487837,0.020216177141857358,-0.08746636863836411, ,0.0006819673601591679, ,0.006519910707706722,-0.0001274043561744155,-0.012653635092788811,-0.012235924346302525,-0.017219711020643104,-0.03191322080681956, ,0.014235165912903771, ,0.02112429804386692, ,7.57562110511622e-05, ,0.1940027725333939,-0.22449212192083226,0.09772471052000001,1.670390089797721,0.48000402367599226,-1.3076832025823555, ,0.04716547791176481,0.03609621208005735,0.013197026942833473,0.02678080584092676,0.024419148651539362,-0.01757224920872315, ,1.2249422073364258
0.012893403937241608,0.020483289492644673,-0.0871282762221961, ,0.013317815110522335,0.020216636314014384,-0.08762409166549226, ,0.0007050260388738332, ,0.006516034968860732,-9.435631509560334e-05,-0.014695155730060076,0.032156271426966934,0.03968913364402133,-0.028877596398052607, ,0.016075298341254256, ,0.05108084216429061, ,7.610605570558518e-05, ,0.19446613650584738,-0.22411370800999528,0.09786082097000001,1.670390089797721,0.48068720617481947,-1.3082402921008376, ,0.04795196642671591,0.04088623074470952,0.01540504015473888,0.022502443582103657,0.08403328860945648,-0.06630566592953605, ,1.2348930835723877
0.012957973293277551,0.02048354338541955,-0.08727316676034463, ,0.013387730113925326,0.020217102692400353,-0.08778128668664475, ,0.0007168454696049037, ,0.006942076892237319,0.00031943043959922665,-0.015114148209010343,0.006315067875974158,0.004176177609627297,-0.02522911839418018, ,0.016635262049856877, ,0.00757098097959784, ,7.646645617008849e-05, ,0.19492950047830085,-0.22373529409915827,0.09801248690000001,1.670390089797721,0.4813703886736467,-1.3087973816193197, ,0.04844152197982173,0.03705464332622834,0.015833808667992052,0.019427428912796297,0.04913177781397539,-0.037958254744267464, ,1.2455430030822754
0.013028828766516412,0.020485181711519904,-0.08742511008707853, ,0.013457477334957035,0.02021757625390813,-0.08793795455990047, ,0.0007199734227551888, ,0.0073785630352917915,0.000393328903745799,-0.016320206008542,-0.013379603759407287,-0.01711274241901304,-0.02341544455416141, ,0.017914994397251336, ,0.02172230632489401, ,7.68252126065372e-05, ,0.19540830991650276,-0.22335688018832128,0.09817063428000002,1.670390089797721,0.48164366167317757,-1.3090202174267125, ,0.04856547674435557,0.03894006629399704,0.016999798847385277,0.017130443512848755,0.028143957205896488,-0.02094493518675416, ,1.255885124206543
0.013028828766516412,0.020485181711519904,-0.08742511008707853, ,0.013527056952849122,0.02021805697549324,-0.08809409614258676, ,0.0008758591740218064, ,0.0073785630352917915,0.000393328903745799,-0.016320206008542,-0.013379603759407287,-0.01711274241901304,-0.02341544455416141, ,0.017914994397251336, ,0.02172230632489401, ,7.739048222286224e-05, ,0.19540830991650276,-0.22335688018832128,0.09817063428000002,1.670390089797721,0.48164366167317757,-1.3090202174267125, ,0.04856547674435557,0.03894006629399704,0.016999798847385277,0.017130443512848755,0.028143957205896488,-0.02094493518675416, ,1.2654390335083008
0.01317684616417111,0.02049309106338188,-0.08776418523704178, ,0.013596469146804653,0.020218544834173846,-0.08824971229128009, ,0.0006979939827276098, ,0.006930634140881429,-0.0003538272155992129,-0.014472918027562547,-0.005251563789008989,-0.005159130927395916,-0.007660943495301702, ,0.016050677229506392, ,0.0073617198497444025, ,7.770622693825472e-05, ,0.1963890969915293,-0.22255371596940193,0.09852452145000001,1.6705997797412053,0.48260011717153567,-1.3098001427525876, ,0.048840422829887174,0.041403552163381666,0.015055587448015127,0.0,0.04443001446372704,-0.03441302812865112, ,1.2753360271453857
0.013247187212726837,0.020493625887586263,-0.08791524911767802, ,0.013665714095997998,0.02021903980703058,-0.08840480386180578, ,0.000700161492195625, ,0.007414585268292207,0.0002457302437512729,-0.016106482628664744,0.01203933620184066,0.009268316072204087,-0.007316906130027252, ,0.017732885854280712, ,0.0151936241581616, ,7.80197981588527e-05, ,0.19688335189547965,-0.2221675793256907,0.09868266883000001,1.6705997797412053,0.4831466631705974,-1.3102458143673732, ,0.052026831994775646,0.03908440756114941,0.016909566369426754,0.0,0.062329534054488156,-0.049083935174690986, ,1.2851121425628662
0.013320778425701996,0.02049448123574586,-0.08807914341418631, ,0.01373479197957515,0.02021954187120628,-0.08855937170923861, ,0.0006910991913849598, ,0.007128820410308194,-1.432526866148832e-05,-0.01546110529569323,0.01240329023239266,0.011944474492313858,0.0021835613025385113, ,0.017025453374881448, ,0.017219500457166727, ,7.831631465144823e-05, ,0.19738532953230425,-0.22177371994910525,0.09885377911000001,1.6701803998542366,0.4836932091696592,-1.3106914859821588, ,0.05045026132826729,0.03963949104363859,0.016204284354018314,-0.010123788179753181,0.06568477464398485,-0.05189239065143805, ,1.296741008758545
0.013394429555013848,0.020495042167447356,-0.08823498881761489, ,0.013803702976653098,0.02022005100390648,-0.08871341668790429, ,0.0006870357347005431, ,0.007410346011958177,0.00014923081435373194,-0.01576496573862156,-0.005698542803681502,-0.010988193165687244,0.0017864010820231153, ,0.017420380093235873, ,0.012377916033896486, ,7.87066107696032e-05, ,0.19790275263487728,-0.22138758330539401,0.09901711165,1.669970709910752,0.484239755168721,-1.3111371575969446, ,0.05058472364524029,0.03843537527682089,0.01648945291925466,-0.009439496629396702,0.042354947843526024,-0.03293545107448312, ,1.3050191402435303
0.013468594528367826,0.02049627999351253,-0.08840050838733406, ,0.01387244726632047,0.02022056718239859,-0.08886693965137789, ,0.0006757756375023622, ,0.0073033158688875,-5.0731710946749753e-05,-0.016239993790964746,-0.012442508755602134,-0.012666806240726473,0.0011556154718151048, ,0.017806695221680328, ,0.017755643465145122, ,7.90770078610131e-05, ,0.19838928480595344,-0.22097827846306012,0.09918951822000001,1.669970709910752,0.48464966466801723,-1.311471411308034, ,0.04775890365297976,0.04147593599583513,0.016873741016949155,-0.009439496629396702,0.03777387341002891,-0.02926226816505762, ,1.3137881755828857
0.013541519244220809,0.020496382422900476,-0.08856454431336719, ,0.01394102502763712,0.020221090384012312,-0.0890199414524854, ,0.0006654150073265071, ,0.007085589243807547,8.11716500343366e-05,-0.016145227780485997,0.008600788471736913,0.01046857122194854,0.0013335547972144228, ,0.0176318048949195, ,0.013548558917042207, ,7.942906779324445e-05, ,0.19887581697702958,-0.220561250887852,0.0993606285,1.669970709910752,0.4851962106670791,-1.3119170829228195, ,0.04747220688267672,0.03980576407653976,0.016873741016949155,-0.009439496629396702,0.06097608120205094,-0.04824048429071911, ,1.3219490051269531
0.013541519244220809,0.020496382422900476,-0.08856454431336719, ,0.014009436439633993,0.020221620586139587,-0.0891724229433045, ,0.0008148355646619912, ,0.007085589243807547,8.11716500343366e-05,-0.016145227780485997,0.008600788471736913,0.01046857122194854,0.0013335547972144228, ,0.0176318048949195, ,0.013548558917042207, ,7.997011730839441e-05, ,0.19887581697702958,-0.220561250887852,0.0993606285,1.669970709910752,0.4851962106670791,-1.3119170829228195, ,0.04747220688267672,0.03980576407653976,0.016873741016949155,-0.009439496629396702,0.06097608120205094,-0.04824048429071911, ,1.3303160667419434
0.013609309294893079,0.020499365651588424,-0.08872328287713026, ,0.014077681681313486,0.020222157766234098,-0.08932438497516357, ,0.0008108887940549011, ,0.0075811156882261335,0.0006680505085071252,-0.018368507699588497,0.011687679802231326,0.012424499178757093,0.0014381025667142876, ,0.019882698048052407, ,0.017057782620509648, ,8.049912401047026e-05, ,0.19953224927133867,-0.22001293685378207,0.09961470134000001,1.669970709910752,0.4860160296656717,-1.312585590344998, ,0.04792774826185393,0.03879678722750236,0.019237695072463774,-0.009439496629396702,0.063414806183636,-0.05030222155687388, ,1.3422729969024658
0.013643887796286181,0.020502636322458793,-0.08880749785335056, ,0.01414576093164904,0.02022270190181173,-0.08947582839864328, ,0.0008814225102827934, ,0.0075811156882261335,0.0006680505085071252,-0.018368507699588497,0.011687679802231326,0.012424499178757093,0.0014381025667142876, ,0.019882698048052407, ,0.017057782620509648, ,8.11115624890258e-05, ,0.19953224927133867,-0.22001293685378207,0.09961470134000001,1.669970709910752,0.4860160296656717,-1.312585590344998, ,0.04792774826185393,0.03879678722750236,0.019237695072463774,-0.009439496629396702,0.063414806183636,-0.05030222155687388, ,1.3503971099853516
0.013772168535387626,0.02051140394037088,-0.08911242680023031, ,0.014213674369585408,0.020223252970450068,-0.08962675406357662, ,0.0007365398271093629, ,0.007290909773278282,0.00034041420094597127,-0.01646066052066841,-0.0017348413941533176,-0.00445955962885686,0.004089207852330879, ,0.018006293120100596, ,0.004784990937821671, ,8.153212413408836e-05, ,0.20034313622313224,-0.21934878182659875,0.09993358868,1.6697610199672674,0.48697248516402974,-1.313365515670873, ,0.04709525635656118,0.03719989869011007,0.01722033677837838,-0.011878262751319793,0.045940856627407226,-0.03613067820166586, ,1.3586440086364746
0.01384460731940874,0.020511652093731472,-0.08926454251264772, ,0.01428142217403831,0.020223810949788614,-0.08977716281904884, ,0.000732420179887312, ,0.007140804073875861,-0.0006118174968392247,-0.014443330737836645,-0.028427256905041345,-0.03060138236545672,0.0032116065629967123, ,0.01612374665744465, ,0.041767845399021, ,8.194217408259451e-05, ,0.2007756092640888,-0.21900125884725866,0.10008136574000001,1.6697610199672674,0.48710912166379516,-1.3134769335745693, ,0.04709525635656118,0.0412774865413096,0.01478998284122563,-0.011878262751319793,0.02048456310622876,-0.015413109942115685, ,1.3670341968536377
0.013914436255295436,0.020506688264017237,-0.08941253471684296, ,0.014349004523894805,0.020224375817528516,-0.08992705551339795, ,0.0007302612872140245, ,0.007420429412641033,-0.00022016574294910757,-0.016275862485912878,-0.002757431593447915,-0.0014359887539828265,0.0017240069471383985, ,0.0178889615484718, ,0.0031087538584169895, ,8.234437033955946e-05, ,0.20128530963378763,-0.2185456176076794,0.10024599457000001,1.6697610199672674,0.487655667662857,-1.313922605189355, ,0.04896643011273001,0.042554682313215596,0.016963590543130992,-0.010640540771350746,0.05062784777871736,-0.04003515167338526, ,1.375838041305542
0.013961182032578123,0.02050813753526029,-0.08952364860456125, ,0.014416421598012869,0.020224947551432636,-0.09007643299421605, ,0.0007700715618197849, ,0.007011462539268967,0.00031248499108942616,-0.016786001656368565,0.032619408331400146,0.03769376492638074,0.0016111453890776716, ,0.018194177788975145, ,0.0498482134233903, ,8.279119042699335e-05, ,0.2015942189487566,-0.21828304468995577,0.10036266067,1.6697610199672674,0.48820221366191874,-1.314368276804141, ,0.04656375935155582,0.03820327760002849,0.01765943627494457,-0.00990753999819653,0.08775234217828304,-0.07033500101213042, ,1.384627103805542
0.014060638200522661,0.02050915298002644,-0.08974642324571673, ,0.01448367357522156,0.020225526129325374,-0.09022529610834783, ,0.0006990867880669356, ,0.007397689858536914,0.00010337431736952543,-0.016354614650750304,-0.0001858479442081417,-0.001408517672719133,-0.0009173054657642777, ,0.017950206736055383, ,0.001420313856296068, ,8.314451240460421e-05, ,0.20225065124306568,-0.2177578988545085,0.10059599287000001,1.6693416400802985,0.48902203266051136,-1.3150367842263193, ,0.04800047625618147,0.0391812310315734,0.017109357164339423,-0.007275488244890741,0.04890457753579763,-0.03870568351996456, ,1.3925631046295166
0.014060638200522661,0.02050915298002644,-0.08974642324571673, ,0.014550760634320956,0.020226111529092785,-0.09037364570189324, ,0.0008448316238109742, ,0.007397689858536914,0.00010337431736952543,-0.016354614650750304,-0.0001858479442081417,-0.001408517672719133,-0.0009173054657642777, ,0.017950206736055383, ,0.001420313856296068, ,8.367297184030366e-05, ,0.20225065124306568,-0.2177578988545085,0.10059599287000001,1.6693416400802985,0.48902203266051136,-1.3150367842263193, ,0.04800047625618147,0.0391812310315734,0.017109357164339423,-0.007275488244890741,0.04890457753579763,-0.03870568351996456, ,1.4005341529846191
0.014134927924596564,0.020512039278326486,-0.08991922027585433, ,0.014617682954082037,0.020226703728682197,-0.09052148262020522, ,0.0008229147743280317, ,0.00829205377242813,0.0005261630105741287,-0.019807024875416468,-0.017701620450492048,-0.018375685804066802,-0.0016143859501145821, ,0.021479134938211613, ,0.02551490048525792, ,8.416813697509744e-05, ,0.20270629248264493,-0.21737176221079726,0.10077617718000001,1.669131950136814,0.4894319421598077,-1.3153710379374086, ,0.04831819834952687,0.04270789449076092,0.020606483208279434,-0.007202005630549928,0.03198082497878716,-0.024937917684457984, ,1.409170150756836
0.01422010957466726,0.02052048876877669,-0.0901266150917594, ,0.014684440713246946,0.02022730270610241,-0.0906688077078922, ,0.0007717086928304489, ,0.008038995041306457,0.0010340820643485271,-0.019824652322072304,-0.005742521408315851,-0.00894691000634865,0.010906932454303677, ,0.021417553704403403, ,0.010631118879334212, ,8.459498370010348e-05, ,0.2032005473865953,-0.21696245736846337,0.10099265761000001,1.6689222601933293,0.48984185165910404,-1.315705291648498, ,0.04626862094513446,0.036696419782857995,0.02074064,-0.019147939947768682,0.04206791510527934,-0.03319633457103084, ,1.4177851676940918
0.014297619664399377,0.020525973090091902,-0.09031514005677925, ,0.01475103409052854,0.02022790843942359,-0.09081562180881782, ,0.0007381796271393937, ,0.00788212013507211,0.0006895001917469358,-0.01893329708688102,0.012512654051217487,0.015329599584015778,-0.04484011543721079, ,0.020520062546645065, ,0.01978789281031589, ,8.497612603219401e-05, ,0.20366391135904877,-0.21656859799187791,0.10118969369000001,1.6687125702498449,0.4903883976581658,-1.3161509632632835, ,0.047235909187889884,0.040763291047453076,0.01983662704856787,0.038121174546771976,0.05517534291896517,-0.043914758785614204, ,1.4262681007385254
0.01437833868187645,0.02052917671420924,-0.09050576135100459, ,0.014817463264610536,0.02022852090677716,-0.09096192576610061, ,0.0007009352946627218, ,0.007746859341968352,0.00037450382510942966,-0.017957955861014632,0.014147940929951497,0.017011627244462424,-0.036710990548029614, ,0.019561243863451365, ,0.022125953684738842, ,8.530792250395093e-05, ,0.20416588899587337,-0.21613612495092135,0.10138932235,1.6687125702498449,0.491071580156993,-1.3167080527817656, ,0.04817103632409685,0.04125953980803077,0.01882838241134752,0.029416034411034568,0.05973645626704771,-0.047664330657727516, ,1.4345571994781494
0.014452780882493918,0.02052994530915165,-0.09067022450390047, ,0.014883728414147628,0.020229140086355568,-0.09110772042211478, ,0.0006838144745133759, ,0.008015123286530897,0.00024258937016025862,-0.017340093579918118,0.01288088845957471,0.011209694539227108,-0.03191245750845635, ,0.019104447028404727, ,0.017075507942419303, ,8.56152998778979e-05, ,0.2046446984340753,-0.2157422655743359,0.10156172892000001,1.6687125702498449,0.49161812615605477,-1.3171537243965514, ,0.0521698414285161,0.04095681551940906,0.01824606130584193,0.024417721157458928,0.059001746617091816,-0.0470913611679955, ,1.4430551528930664
0.014452780882493918,0.02052994530915165,-0.09067022450390047, ,0.014949829717765196,0.02022976595641261,-0.0912530066184914, ,0.0008226786623843064, ,0.008015123286530897,0.00024258937016025862,-0.017340093579918118,0.01288088845957471,0.011209694539227108,-0.03191245750845635, ,0.019104447028404727, ,0.017075507942419303, ,8.608394852753546e-05, ,0.2046446984340753,-0.2157422655743359,0.10156172892000001,1.6687125702498449,0.49161812615605477,-1.3171537243965514, ,0.0521698414285161,0.04095681551940906,0.01824606130584193,0.024417721157458928,0.059001746617091816,-0.0470913611679955, ,1.4511921405792236
0.014535949732700535,0.020533083498435165,-0.09084749371755055, ,0.01501576735405951,0.020230398495262956,-0.09139778519611697, ,0.0007903568006253623, ,0.008136292393326238,0.0002980890336094358,-0.017308124999291345,0.00015984812665674548,-0.005888608169346051,-0.008100419083253829, ,0.019127448914393958, ,0.0058906454921663865, ,8.661116011916101e-05, ,0.205185289735271,-0.215332960732002,0.10174839468,1.6689222601933293,0.4921646721551165,-1.317599396011337, ,0.05240029903836045,0.039004086131718366,0.018204356022857145,0.0,0.04720038204594238,-0.03749505987817035, ,1.4579050540924072
0.01460328345311341,0.02053432735218104,-0.09098983086249007, ,0.015081541501597387,0.02023103768128246,-0.09154205699513566, ,0.000790992469616606, ,0.008071379087507387,-5.740645236177967e-05,-0.017332193316568455,-0.008101179248264761,-0.010186402119402343,-0.008381594326088664, ,0.019119502635736228, ,0.01301500400459005, ,8.713415756520803e-05, ,0.20561004004335334,-0.21500088321841035,0.10189746803000001,1.6689222601933293,0.49243794515464734,-1.3178222318187298, ,0.05099244575952218,0.04253560804951626,0.01812151481228669,-0.00043501377293891187,0.04150633025872244,-0.03287262350238608, ,1.4659712314605713
0.01460328345311341,0.02053432735218104,-0.09098983086249007, ,0.01514715233891652,0.020231683492907708,-0.09168582285494788, ,0.0009336977691233691, ,0.008071379087507387,-5.740645236177967e-05,-0.017332193316568455,-0.008101179248264761,-0.010186402119402343,-0.008381594326088664, ,0.019119502635736228, ,0.01301500400459005, ,8.781935796200256e-05, ,0.20561004004335334,-0.21500088321841035,0.10189746803000001,1.6689222601933293,0.49243794515464734,-1.3178222318187298, ,0.05099244575952218,0.04253560804951626,0.01812151481228669,-0.00043501377293891187,0.04150633025872244,-0.03287262350238608, ,1.472527027130127
0.014700984639158999,0.020535908366711486,-0.09121496141201708, ,0.015212600044525123,0.020232335908636295,-0.09182908361421216, ,0.0008550161633201361, ,0.008042176401970457,0.0006669465432844129,-0.01923812223102826,0.02573868985024639,0.027722558549913113,-0.006404344047397061, ,0.02086208920381641, ,0.037828795547329395, ,8.840646604064141e-05, ,0.20622013594041708,-0.2144834601158373,0.10213339281000001,1.6687125702498449,0.49325776415324,-1.3184907392409084, ,0.04942549039503686,0.03927853541327433,0.020265663511450382,-0.002263161797938932,0.07874946701017163,-0.06327097461112483, ,1.4791672229766846
0.014785380936633107,0.02053998293787748,-0.09141742527690475, ,0.015277884796902097,0.020232994907026552,-0.09197184011084449, ,0.0008026066979274566, ,0.00863765581984557,0.0004239646150067332,-0.020479668050111664,0.010509900396568985,0.01305943466964145,0.0015309249305653005, ,0.022230736548743822, ,0.016763151184926682, ,8.892732547656356e-05, ,0.20673755904299013,-0.21405870980775496,0.10234598437,1.6682931903628757,0.49407758315183264,-1.3191592466630868, ,0.051884604460618246,0.04407661010611741,0.021467400970350405,-0.011550684512734064,0.06834342344475854,-0.054807980137238664, ,1.4856491088867188
0.014785380936633107,0.02053998293787748,-0.09141742527690475, ,0.01534300677449683,0.020233660466697678,-0.09211409318201903, ,0.0009434649974531379, ,0.00863765581984557,0.0004239646150067332,-0.020479668050111664,0.010509900396568985,0.01305943466964145,0.0015309249305653005, ,0.022230736548743822, ,0.016763151184926682, ,8.960602720352301e-05, ,0.20673755904299013,-0.21405870980775496,0.10234598437,1.6682931903628757,0.49407758315183264,-1.3191592466630868, ,0.051884604460618246,0.04407661010611741,0.021467400970350405,-0.011550684512734064,0.06834342344475854,-0.054807980137238664, ,1.4920260906219482
0.014876663462470411,0.020547102612555185,-0.09163662313765719, ,0.015407966155729438,0.020234332566329304,-0.09225584366416821, ,0.0008738087400186723, ,0.008937550173348598,0.0007679075262838653,-0.021767191884661072,-0.005525380583049639,-0.005363327422749496,0.0018958700024292235, ,0.023543154580763, ,0.007700014608571978, ,9.019842333134438e-05, ,0.2072627048784374,-0.21361079130104993,0.10257542770000001,1.6682931903628757,0.49462412915089443,-1.3196049182778726, ,0.05018346988813896,0.043134973435668536,0.02275544502857143,-0.011550684512734064,0.04793525607582044,-0.03818840123238271, ,1.5005311965942383
0.014960784340400667,0.020554486431014932,-0.09183806228099296, ,0.015472763118990311,0.020235011184661988,-0.09239709239298384, ,0.0008226186047439911, ,0.009143020423631304,0.00059449084612251,-0.021379140194877914,-0.0015753807989582007,-0.0029712890895815707,0.0016067636153920455, ,0.02325974800605774, ,0.0033624272753192807, ,9.072682712015286e-05, ,0.20774923704951354,-0.21320920919159025,0.10278672297000001,1.6682931903628757,0.49517067514995616,-1.3200505898926582, ,0.053463065666744095,0.04399487323063087,0.022403391729957808,-0.011550684512734064,0.05367839784170935,-0.04289041194035699, ,1.507643222808838
0.015047461874603766,0.020560435353849132,-0.09203667030743501, ,0.015537397842640414,0.020235696300496556,-0.09253784020341588, ,0.0007724402696557253, ,0.00881035141334114,0.00038043438572835315,-0.019513246197517223,0.004207877767373691,0.0006210223610385258,0.0014299526421073336, ,0.02141340233389657, ,0.004253125319395982, ,9.119326557251631e-05, ,0.20826666015208659,-0.21279990434925636,0.10299542566000001,1.6682931903628757,0.49571722114901795,-1.320496261507444, ,0.05422682374769759,0.04186014184317194,0.02052681896907217,-0.011008458016309772,0.05797152236107257,-0.046409921728322395, ,1.5153820514678955
0.015047461874603766,0.020560435353849132,-0.09203667030743501, ,0.015601870505011085,0.020236387892694593,-0.09267808792967452, ,0.0009076300197052847, ,0.00881035141334114,0.00038043438572835315,-0.019513246197517223,0.004207877767373691,0.0006210223610385258,0.0014299526421073336, ,0.02141340233389657, ,0.004253125319395982, ,9.180874965121838e-05, ,0.20826666015208659,-0.21279990434925636,0.10299542566000001,1.6682931903628757,0.49571722114901795,-1.320496261507444, ,0.05422682374769759,0.04186014184317194,0.02052681896907217,-0.011008458016309772,0.05797152236107257,-0.046409921728322395, ,1.5220119953155518
0.015149671352527174,0.02056121134552828,-0.09225533042814069, ,0.01566618128440419,0.0202370859401779,-0.09281783640522943, ,0.0008296100061967151, ,0.009091580752693909,-8.595746944653035e-05,-0.018713521728736835,-0.006799387881762939,-0.012671237904938874,-0.0006019030609443703, ,0.020805290787711036, ,0.01438018256619047, ,9.233061760561097e-05, ,0.20888447878202454,-0.212305649445306,0.10321838754000001,1.6682931903628757,0.49626376714807974,-1.3209419331222296, ,0.05765306291523134,0.04491099931778078,0.019665199407407408,-0.009484808923372357,0.0477717709420282,-0.038113475588522995, ,1.5288991928100586
0.015232576138375014,0.02056038109422264,-0.09242561541486283, ,0.015730330359091667,0.02023779042192884,-0.0929570864628103, ,0.0007964204171783833, ,0.008825970375174923,-7.432298242614919e-05,-0.018571944277554132,-0.0001959491838454275,-0.0033649523759267225,-0.0033521286120329176, ,0.02056259689868373, ,0.0033703250750128765, ,9.281050293904462e-05, ,0.20942507008322025,-0.21188862187009788,0.10340375701000001,1.6680835004193915,0.496673676647376,-1.321276186833319, ,0.055658030239572304,0.044282287241470264,0.01952060235294118,-0.006588541507986051,0.0544189810896104,-0.043550917362908906, ,1.5360541343688965
0.015232576138375014,0.02056038109422264,-0.09242561541486283, ,0.015794317907315836,0.020238501316990017,-0.09309583893440716, ,0.0009318583433733277, ,0.008825970375174923,-7.432298242614919e-05,-0.018571944277554132,-0.0001959491838454275,-0.0033649523759267225,-0.0033521286120329176, ,0.02056259689868373, ,0.0033703250750128765, ,9.343759055830317e-05, ,0.20942507008322025,-0.21188862187009788,0.10340375701000001,1.6680835004193915,0.496673676647376,-1.321276186833319, ,0.055658030239572304,0.044282287241470264,0.01952060235294118,-0.006588541507986051,0.0544189810896104,-0.043550917362908906, ,1.5428881645202637
0.015325802632517656,0.02055955728001421,-0.09262257542446627, ,0.01585814410728957,0.02023921860446421,-0.09323409465127083, ,0.00087175689132184, ,0.009174668166906676,0.00022123764467745833,-0.01968483841136219,0.0036253182525069275,-0.0011136517675623442,0.004481320886325998, ,0.021719031869531235, ,0.0037921230199865485, ,9.399216353056221e-05, ,0.21001972051453555,-0.2114252578976444,0.10361116341000001,1.6678738104759065,0.4973568591462032,-1.321833276351801, ,0.05706370508627226,0.04329240034601769,0.02074064,-0.014698374236173456,0.0598345075441194,-0.047984868240147575, ,1.550016164779663
0.015352593180162681,0.02056072645566747,-0.09268046987051265, ,0.015921809137195434,0.020239942263514568,-0.0933718544439135, ,0.0009512738470138711, ,0.00922728275617298,0.0003337525878390712,-0.019934194064833675,0.0040376955227193825,-0.001268935413924076,0.004605078092170523, ,0.021968755787861692, ,0.004232024872132872, ,9.462997416569705e-05, ,0.21018189790489425,-0.2113016941716568,0.10367208904000001,1.6678738104759065,0.4974934956459687,-1.3219446942554975, ,0.056960949314808385,0.042650310812795855,0.021014263218997364,-0.014698374236173456,0.05957097139205991,-0.04777481551341763, ,1.5567841529846191
0.015352593180162681,0.02056072645566747,-0.09268046987051265, ,0.0159853131751866,0.020240672273364263,-0.09350911914210855, ,0.0010906094108475571, ,0.00922728275617298,0.0003337525878390712,-0.019934194064833675,0.0040376955227193825,-0.001268935413924076,0.004605078092170523, ,0.021968755787861692, ,0.004232024872132872, ,9.54159449319054e-05, ,0.21018189790489425,-0.2113016941716568,0.10367208904000001,1.6678738104759065,0.4974934956459687,-1.3219446942554975, ,0.056960949314808385,0.042650310812795855,0.021014263218997364,-0.014698374236173456,0.05957097139205991,-0.04777481551341763, ,1.5633270740509033
0.015516337438210058,0.020566153148757368,-0.09304371137232524, ,0.01604865639938609,0.020241408613296645,-0.09364588957489073, ,0.0008668570109217163, ,0.00931794076637358,0.00022958837443266486,-0.020383670328530026,-0.010739673847695103,-0.01475931609192039,-0.0029335905735617305, ,0.022413628599794292, ,0.01825306787681197, ,9.594912430684396e-05, ,0.21114723951417233,-0.21052169815136013,0.10405319830000001,1.6676641205324223,0.4983133146445613,-1.3226948804178167, ,0.05494901074607457,0.04459442742409342,0.02138095506040269,-0.007066566146975869,0.042227571748616355,-0.033621438598492225, ,1.5698261260986328
0.015613981537808245,0.020569627346986263,-0.09325548431419661, ,0.01611183898788724,0.02024215126265497,-0.09378216657055727, ,0.000795296690281851, ,0.009529892157965014,0.0003805170338997768,-0.02058867843047835,0.0009822615000871187,-0.004664477556519186,-0.0036586913650045777, ,0.022690467541881445, ,0.004766391615846195, ,9.639934333644404e-05, ,0.21173416721261337,-0.2100660569117809,0.10427616018000001,1.6676641205324223,0.49885986064362303,-1.3231405520326023, ,0.057478462482417184,0.04351074807816175,0.02170137809264305,-0.006304507154022371,0.05485225773800602,-0.04393186848170031, ,1.5762951374053955
0.015613981537808245,0.020569627346986263,-0.09325548431419661, ,0.016174861118753138,0.020242900200842615,-0.09391795095666748, ,0.0009274689130826529, ,0.009529892157965014,0.0003805170338997768,-0.02058867843047835,0.0009822615000871187,-0.004664477556519186,-0.0036586913650045777, ,0.022690467541881445, ,0.004766391615846195, ,9.698961734487202e-05, ,0.21173416721261337,-0.2100660569117809,0.10427616018000001,1.6676641205324223,0.49885986064362303,-1.3231405520326023, ,0.057478462482417184,0.04351074807816175,0.02170137809264305,-0.006304507154022371,0.05485225773800602,-0.04393186848170031, ,1.5827951431274414
0.015703446414230497,0.020573028155352866,-0.09345054948441994, ,0.016237722970017136,0.020243655407322682,-0.09405324356004334, ,0.0008701597519994419, ,0.009385612802295887,0.00020201304373027184,-0.020558436661919886,0.011020672503288488,0.009649054958943533,-0.0048023244681407, ,0.02260043926401939, ,0.01464772376929689, ,9.761848911464924e-05, ,0.21228248124668334,-0.20964902933657276,0.10448227029000001,1.6676641205324223,0.49954304314245024,-1.3236976415510844, ,0.056960949314808385,0.045146023576817684,0.02167185240816327,-0.0057354863905943595,0.06870304772539634,-0.05524026502468095, ,1.5884251594543457
0.015703446414230497,0.020573028155352866,-0.09345054948441994, ,0.016300424719682367,0.020244416861618344,-0.09418804520677036, ,0.0010041256993201754, ,0.009385612802295887,0.00020201304373027184,-0.020558436661919886,0.011020672503288488,0.009649054958943533,-0.0048023244681407, ,0.02260043926401939, ,0.01464772376929689, ,9.83882620929785e-05, ,0.21228248124668334,-0.20964902933657276,0.10448227029000001,1.6676641205324223,0.49954304314245024,-1.3236976415510844, ,0.056960949314808385,0.045146023576817684,0.02167185240816327,-0.0057354863905943595,0.06870304772539634,-0.05524026502468095, ,1.5948190689086914
0.015703446414230497,0.020573028155352866,-0.09345054948441994, ,0.01636296654572207,0.02024518454331238,-0.09432235672219617, ,0.0011412695113939737, ,0.009385612802295887,0.00020201304373027184,-0.020558436661919886,0.011020672503288488,0.009649054958943533,-0.0048023244681407, ,0.02260043926401939, ,0.01464772376929689, ,9.930099642427843e-05, ,0.21228248124668334,-0.20964902933657276,0.10448227029000001,1.6676641205324223,0.49954304314245024,-1.3236976415510844, ,0.056960949314808385,0.045146023576817684,0.02167185240816327,-0.0057354863905943595,0.06870304772539634,-0.05524026502468095, ,1.601100206375122
0.015882695455147717,0.020576429842717243,-0.09383293669646385, ,0.016425348626079025,0.020245958432047437,-0.09445617893093322, ,0.0008900082583989143, ,0.009806999496876386,0.00021111063549564637,-0.020652258588306976,0.00423879409855537,-0.0018773659305480956,0.006764411626136308, ,0.022863455373815487, ,0.004635528155102681, ,9.993766875667206e-05, ,0.21337138658194899,-0.20882269691903074,0.10488541648000001,1.6672447406454531,0.5006361351405738,-1.3245889847806558, ,0.06013747880764941,0.04446904477903973,0.021820289753424663,-0.017699063165538622,0.06272767139053828,-0.05039330201601011, ,1.6062140464782715
0.015882695455147717,0.020576429842717243,-0.09383293669646385, ,0.01648757113866616,0.020246738507525782,-0.09458951265685728, ,0.0010232195037515022, ,0.009806999496876386,0.00021111063549564637,-0.020652258588306976,0.00423879409855537,-0.0018773659305480956,0.006764411626136308, ,0.022863455373815487, ,0.004635528155102681, ,0.00010071302405943893, ,0.21337138658194899,-0.20882269691903074,0.10488541648000001,1.6672447406454531,0.5006361351405738,-1.3245889847806558, ,0.06013747880764941,0.04446904477903973,0.021820289753424663,-0.017699063165538622,0.06272767139053828,-0.05039330201601011, ,1.6110482215881348
0.015986740936661838,0.020579714668587316,-0.09405763638780534, ,0.016549634261365954,0.02024752474950942,-0.09472235872310852, ,0.0009322310981641556, ,0.010360668992490822,0.0004510868306687629,-0.02267739760143472,0.0012386658220582818,-0.004093530997085497,0.0076702658310831605, ,0.024936144515027195, ,0.004276130447099432, ,0.00010138619930087678, ,0.21399692794476116,-0.20835161021370305,0.10512263755000001,1.6670350507019687,0.501319317639401,-1.3251460742991379, ,0.060909461847542215,0.04622354678931845,0.02391713441441442,-0.01908011727960465,0.06153345900719291,-0.04943347141256018, ,1.6158812046051025
0.015986740936661838,0.020579714668587316,-0.09405763638780534, ,0.0166115381720308,0.02024831713781969,-0.09485471795209169, ,0.0010656148126076072, ,0.010360668992490822,0.0004510868306687629,-0.02267739760143472,0.0012386658220582818,-0.004093530997085497,0.0076702658310831605, ,0.024936144515027195, ,0.004276130447099432, ,0.00010219712178725056, ,0.21399692794476116,-0.20835161021370305,0.10512263755000001,1.6670350507019687,0.501319317639401,-1.3251460742991379, ,0.060909461847542215,0.04622354678931845,0.02391713441441442,-0.01908011727960465,0.06153345900719291,-0.04943347141256018, ,1.6207351684570312
0.016096659134067118,0.020585959142797046,-0.09430480371954578, ,0.01667328304848256,0.020249115652337817,-0.09498659116547616, ,0.0009543546495767765, ,0.011204022659965257,0.0012310888252554863,-0.025483131242718136,0.017202598256757,0.011298218218288537,-0.05272686635536969, ,0.0278645954823371, ,0.02058077683829906, ,0.0001028847685857803, ,0.2146301920404476,-0.20787280077550113,0.10538319184000002,1.6666156708149995,0.5020025001382282,-1.32570316381762, ,0.063054446218253,0.04716547791176481,0.02695230375634518,0.04374270827776944,0.0661281513372559,-0.05319314555336911, ,1.6255581378936768
0.016096659134067118,0.020585959142797046,-0.09430480371954578, ,0.016734869068512986,0.02024992027300408,-0.09511797918419702, ,0.0010869629150748, ,0.011204022659965257,0.0012310888252554863,-0.025483131242718136,0.017202598256757,0.011298218218288537,-0.05272686635536969, ,0.0278645954823371, ,0.02058077683829906, ,0.00010370837557976704, ,0.2146301920404476,-0.20787280077550113,0.10538319184000002,1.6666156708149995,0.5020025001382282,-1.32570316381762, ,0.063054446218253,0.04716547791176481,0.02695230375634518,0.04374270827776944,0.0661281513372559,-0.05319314555336911, ,1.6328761577606201
0.01620217347296071,0.0205971762364029,-0.0945502225359907, ,0.01679629640988308,0.020250730979818495,-0.09524888282845434, ,0.0009803736962263306, ,0.01140358435291398,0.0014883396595150537,-0.026938694669121185,0.02463961859602509,0.021019029468534987,-0.044081931767150626, ,0.029290786290440345, ,0.032386667281652834, ,0.00010441433398639893, ,0.21521711973888863,-0.20743260500167032,0.10564244984000001,1.6666156708149995,0.5026856826370554,-1.326260253336102, ,0.06247329924849953,0.047118640297155304,0.028495190554561723,0.03445265033923039,0.07733049978480729,-0.06233948539037401, ,1.6384811401367188
0.016320061064725676,0.020611488966936636,-0.09483809417124023, ,0.016857565250323808,0.020251547752840243,-0.09537930291771408, ,0.0011119225287058343, ,0.010945965420755028,0.00165588872198088,-0.027525719353858107,0.054002833284857756,0.058499648790092666,-0.03772963458112303, ,0.029668524607727075, ,0.07961469154644521, ,0.00010525416524480759, ,0.2158658293003235,-0.20693062736484574,0.10594707799000001,1.6666156708149995,0.503778774635179,-1.3271515965656735, ,0.059125820285651574,0.04615609997980096,0.029173647472527476,0.027267820861794047,0.11337429568296371,-0.09174331008487069, ,1.643876075744629
0.016320061064725676,0.020611488966936636,-0.09483809417124023, ,0.016918675767535342,0.020252370572187893,-0.0955092402707087, ,0.0009683711430534074, ,0.010945965420755028,0.00165588872198088,-0.027525719353858107,0.054002833284857756,0.058499648790092666,-0.03772963458112303, ,0.029668524607727075, ,0.07961469154644521, ,0.00010593824139503714, ,0.2158658293003235,-0.20693062736484574,0.10594707799000001,1.6666156708149995,0.503778774635179,-1.3271515965656735, ,0.059125820285651574,0.04615609997980096,0.029173647472527476,0.027267820861794047,0.11337429568296371,-0.09174331008487069, ,1.6487340927124023
0.016433665743437572,0.020625136699650572,-0.09510295177937714, ,0.016979628139187325,0.020253199418039193,-0.09563869570543675, ,0.0008505491363437132, ,0.010945965420755028,0.00165588872198088,-0.027525719353858107,0.054002833284857756,0.058499648790092666,-0.03772963458112303, ,0.029668524607727075, ,0.07961469154644521, ,0.00010649491267210986, ,0.21648364793026145,-0.20646726339239227,0.10622707663000001,1.666825360758484,0.5044619571340061,-1.327627007344015, ,0.06309637071706833,0.04909308926977277,0.02699798562711865,0.0,0.04983467902026628,-0.040636839185385014, ,1.6535720825195312
0.016433665743437572,0.020625136699650572,-0.09510295177937714, ,0.017040422542918897,0.020254034270631216,-0.09576767003916371, ,0.0009735097284745443, ,0.011460439022383664,0.0007938870641224844,-0.025627507805013598,-0.0066008355327017414,-0.01385684213936642,-0.011438715529885094, ,0.02808453445496984, ,0.015348356572909472, ,0.00010717618870383716, ,0.21648364793026145,-0.20646726339239227,0.10622707663000001,1.666825360758484,0.5044619571340061,-1.327627007344015, ,0.06309637071706833,0.04909308926977277,0.02699798562711865,0.0,0.04983467902026628,-0.040636839185385014, ,1.6588342189788818
0.016548131972780093,0.020629452585620274,-0.09534848094237705, ,0.017101059156338576,0.020254875110259953,-0.09589616408842183, ,0.0008637092009621854, ,0.011768947357073314,0.00021253921320689805,-0.024234310999461856,-0.046995226332687275,-0.06186382140678783,-0.010261537704008051, ,0.02694169861811522, ,0.07768960894565984, ,0.0001077392007857174, ,0.21711691202594788,-0.20596528575556766,0.10648503834,1.666825360758484,0.5047352301335369,-1.3277681644112673, ,0.06517647085059805,0.051490472902046,0.02540480306220096,-0.0011136520584929706,0.0035735212763821924,-0.0034954074678075825, ,1.663985013961792
0.016548131972780093,0.020629452585620274,-0.09534848094237705, ,0.01716153815702408,0.020255721917280676,-0.0960241786690111, ,0.0009861587991316372, ,0.011768947357073314,0.00021253921320689805,-0.024234310999461856,-0.046995226332687275,-0.06186382140678783,-0.010261537704008051, ,0.02694169861811522, ,0.07768960894565984, ,0.00010842547531653985, ,0.21711691202594788,-0.20596528575556766,0.10648503834,1.666825360758484,0.5047352301335369,-1.3277681644112673, ,0.06517647085059805,0.051490472902046,0.02540480306220096,-0.0011136520584929706,0.0035735212763821924,-0.0034954074678075825, ,1.6689200401306152
0.016548131972780093,0.020629452585620274,-0.09534848094237705, ,0.017221859722522576,0.020256574672107563,-0.0961517145959991, ,0.0011127134947818698, ,0.011768947357073314,0.00021253921320689805,-0.024234310999461856,-0.046995226332687275,-0.06186382140678783,-0.010261537704008051, ,0.02694169861811522, ,0.07768960894565984, ,0.0001092381038705463, ,0.21711691202594788,-0.20596528575556766,0.10648503834,1.666825360758484,0.5047352301335369,-1.3277681644112673, ,0.06517647085059805,0.051490472902046,0.02540480306220096,-0.0011136520584929706,0.0035735212763821924,-0.0034954074678075825, ,1.674194097518921
0.01665986203009205,0.020627768321365238,-0.09557900251273527, ,0.017282024030350156,0.020257433355213857,-0.09627877268372133, ,0.001006931891401485, ,0.011350495098157049,-0.00010488733663989385,-0.02276945964150718,-0.02419823697428616,-0.03610590283555297,0.006182397162770011, ,0.025441954183845605, ,0.04346475321524553, ,0.00010993688738884861, ,0.21776562158738272,-0.20545558538586886,0.10672744457000001,1.6664059808715153,0.5051451396328334,-1.3281024181223566, ,0.0665010102021519,0.05069281066157627,0.023989173975903617,-0.018768648852097947,0.03461891589647683,-0.028810333747756267, ,1.6801621913909912
0.01671065189462323,0.02062653898317389,-0.09567869021924973, ,0.017342031257992326,0.020258297947131652,-0.09640535374578131, ,0.0010306702876794038, ,0.011285692465411442,-0.00024562639812533596,-0.0221293360499151,-0.012388491668940335,-0.023644667580027624,0.0024686783658943692, ,0.024842195973008758, ,0.026693439716323656, ,0.00011065571777399, ,0.2180668081694775,-0.20523162613251633,0.10683244406000002,1.6661962909280306,0.5052817761325988,-1.3282138360260531, ,0.06822210032959797,0.05091037637257016,0.02339032528634362,-0.01521266894043525,0.048224377628947705,-0.03990047369059159, ,1.6856651306152344
0.01671065189462323,0.02062653898317389,-0.09567869021924973, ,0.017401881582903678,0.020259168428451883,-0.09653145859505148, ,0.0011575722479416144, ,0.011285692465411442,-0.00024562639812533596,-0.0221293360499151,-0.012388491668940335,-0.023644667580027624,0.0024686783658943692, ,0.024842195973008758, ,0.026693439716323656, ,0.00011161401952669589, ,0.2180668081694775,-0.20523162613251633,0.10683244406000002,1.6661962909280306,0.5052817761325988,-1.3282138360260531, ,0.06822210032959797,0.05091037637257016,0.02339032528634362,-0.01521266894043525,0.048224377628947705,-0.03990047369059159, ,1.688948154449463
0.01671065189462323,0.02062653898317389,-0.09567869021924973, ,0.0174615751825078,0.020260044779824442,-0.0966570880436735, ,0.0012866491706029614, ,0.011285692465411442,-0.00024562639812533596,-0.0221293360499151,-0.012388491668940335,-0.023644667580027624,0.0024686783658943692, ,0.024842195973008758, ,0.026693439716323656, ,0.0001127002515303216, ,0.2180668081694775,-0.20523162613251633,0.10683244406000002,1.6661962909280306,0.5052817761325988,-1.3282138360260531, ,0.06822210032959797,0.05091037637257016,0.02339032528634362,-0.01521266894043525,0.048224377628947705,-0.03990047369059159, ,1.6922450065612793
0.016879425081829217,0.02061915203749595,-0.09600494379768787, ,0.017521112234197295,0.02026092698195783,-0.09678224290305744, ,0.0010697109381220121, ,0.011156789592085117,-0.00023427613830435487,-0.021408303942083935,0.01876833010425027,0.011308728662806999,-0.05510020347424418, ,0.02414216885426171, ,0.02191193880036592, ,0.00011356091456300392, ,0.21912482257324623,-0.20445163011221967,0.10717855349000001,1.6657769110410614,0.5063748681307223,-1.3292685367359054, ,0.06977716291064028,0.051771381101184274,0.022787999313304726,0.04459401995611939,0.07285540303938594,-0.058816536899531396, ,1.6960861682891846
0.016879425081829217,0.02061915203749595,-0.09600494379768787, ,0.017580492915333822,0.020261815015619345,-0.09690692398388345, ,0.0011969770719056823, ,0.011156789592085117,-0.00023427613830435487,-0.021408303942083935,0.01876833010425027,0.011308728662806999,-0.05510020347424418, ,0.02414216885426171, ,0.02191193880036592, ,0.00011454754248037898, ,0.21912482257324623,-0.20445163011221967,0.10717855349000001,1.6657769110410614,0.5063748681307223,-1.3292685367359054, ,0.06977716291064028,0.051771381101184274,0.022787999313304726,0.04459401995611939,0.07285540303938594,-0.058816536899531396, ,1.6993861198425293
0.016879425081829217,0.02061915203749595,-0.09600494379768787, ,0.017639717403248004,0.020262708861634816,-0.0970311320961015, ,0.0013259557215184027, ,0.011156789592085117,-0.00023427613830435487,-0.021408303942083935,0.01876833010425027,0.011308728662806999,-0.05510020347424418, ,0.02414216885426171, ,0.02191193880036592, ,0.00011566110657840703, ,0.21912482257324623,-0.20445163011221967,0.10717855349000001,1.6657769110410614,0.5063748681307223,-1.3292685367359054, ,0.06977716291064028,0.051771381101184274,0.022787999313304726,0.04459401995611939,0.07285540303938594,-0.058816536899531396, ,1.702688217163086
0.017003324928240884,0.020617221761662988,-0.09626307372378291, ,0.01769878587523915,0.020263608500888944,-0.0971548680489314, ,0.0011849073319724346, ,0.012902914140664239,0.0006028033901075416,-0.029035650120950413,0.03515307123146205,0.037066738966290216,-0.04624622830362754, ,0.0317791998513922, ,0.05108484038407801, ,0.00011662725158227291, ,0.2198662049291718,-0.2038647024137786,0.10745207068000001,1.6657769110410614,0.5073313236290804,-1.3300484620617805, ,0.07238515755794873,0.05886907044570147,0.030750601389961392,0.03297527068652568,0.10394050523198374,-0.08416435339390772, ,1.7059550285339355
0.017003324928240884,0.020617221761662988,-0.09626307372378291, ,0.017757698508575528,0.020264513914324746,-0.09727813265086369, ,0.001312945905103198, ,0.012902914140664239,0.0006028033901075416,-0.029035650120950413,0.03515307123146205,0.037066738966290216,-0.04624622830362754, ,0.0317791998513922, ,0.05108484038407801, ,0.00011771895168534536, ,0.2198662049291718,-0.2038647024137786,0.10745207068000001,1.6657769110410614,0.5073313236290804,-1.3300484620617805, ,0.07238515755794873,0.05886907044570147,0.030750601389961392,0.03297527068652568,0.10394050523198374,-0.08416435339390772, ,1.7092339992523193
0.017003324928240884,0.020617221761662988,-0.09626307372378291, ,0.01781645548049426,0.02026542508294371,-0.09740092670965961, ,0.0014420997245802056, ,0.012902914140664239,0.0006028033901075416,-0.029035650120950413,0.03515307123146205,0.037066738966290216,-0.04624622830362754, ,0.0317791998513922, ,0.05108484038407801, ,0.00011893657209019855, ,0.2198662049291718,-0.2038647024137786,0.10745207068000001,1.6657769110410614,0.5073313236290804,-1.3300484620617805, ,0.07238515755794873,0.05886907044570147,0.030750601389961392,0.03297527068652568,0.10394050523198374,-0.08416435339390772, ,1.7145800590515137
0.01713003919756987,0.020630043969190846,-0.09655911252341802, ,0.017875056968200933,0.020266341987805945,-0.09752325103235102, ,0.0012715713405967136, ,0.014040735530898728,0.0019113066491928056,-0.033575358478891267,0.03962919998736186,0.0366432278636733,-0.01379749954067485, ,0.03644310695237093, ,0.05397366924537073, ,0.0001199775571822593, ,0.22054580542210356,-0.20333955657833133,0.10776577286000001,1.665986600984546,0.5082877791274385,-1.3308283873876554, ,0.07390727535706447,0.05376597255437438,0.03563492510067114,-9.091447388691645e-05,0.11183204498719398,-0.09059937491430596, ,1.718189001083374
0.017189260765095495,0.02063886927333451,-0.09669954262988359, ,0.017933503148870194,0.020267264610029798,-0.09764510642524185, ,0.0012593957450653763, ,0.014599872917269703,0.0022011826182997845,-0.034965262857569686,0.03853470032798126,0.03316931804699178,-0.013275211213233001, ,0.03795485609007723, ,0.050843628187955764, ,0.00012100212063019986, ,0.22085471473707252,-0.20312332005785305,0.10791484621000001,1.665986600984546,0.5086976886267348,-1.3311626410987447, ,0.0760392159923644,0.05370511689783292,0.03713009678321679,-0.0006441625236153934,0.11058430194349492,-0.08958192412685607, ,1.7300381660461426
0.017189260765095495,0.02063886927333451,-0.09669954262988359, ,0.017991794199645,0.0202681929307921,-0.09776649369390693, ,0.0013855848719984555, ,0.014599872917269703,0.0022011826182997845,-0.034965262857569686,0.03853470032798126,0.03316931804699178,-0.013275211213233001, ,0.03795485609007723, ,0.050843628187955764, ,0.0001221491423260254, ,0.22085471473707252,-0.20312332005785305,0.10791484621000001,1.665986600984546,0.5086976886267348,-1.3311626410987447, ,0.0760392159923644,0.05370511689783292,0.03713009678321679,-0.0006441625236153934,0.11058430194349492,-0.08958192412685607, ,1.7333450317382812
