NicholasDascanio/dvrk_moveit_final/test/execution/third_experiment_notsharpbends/thirdexp_500vel3.0/thirdexp_500vel3.0_25.csv
Current Position (x),Current Position (y),Current Position (z), ,Planned Position (x),Planned Position (y),Planned Position (z), ,Position Error,,Cartesian linear Velocity(x),Cartesian linear Velocity(y),Cartesian linear Velocity(z),Cartesian Angular Velocity(x),Cartesian Angular Velocity(y),Cartesian Angular Velocity(z), ,Total Linear Velocity, ,Total Angular Velocity, ,MSE, ,Joint 1 Position,Joint 2 Position,Joint 3 Position,Joint 4 Position,Joint 5 Position,Joint 6 Position, ,Joint 1 Velocity,Joint 2 Velocity,Joint 3 Velocity,Joint 4 Velocity,Joint 5 Velocity,Joint 6 Velocity, ,Time Stamp
0.010302757988699774,0.020051854877518416,-0.07940297720805287, ,0.01033710188729175,0.019950981201617875,-0.07943978617892718, ,0.00011273820203023165, ,4.705217604022788e-05,0.0001308678534753373,-0.000573820159122458,0.04277311578689403,-0.19281472300433747,-0.09504969051506783, ,0.0005904319413435269, ,0.19750204262578744, ,9.39485016918597e-06, ,0.13317080568312745,-0.2169701801013376,0.08932086245000001,3.0010824711505126,0.2632985350480037,-0.21666259018637754, ,-0.0003329126713856725,-5.339545173265601e-05,0.0005899110224478201,-0.0012372200882617159,0.0,-0.21978814736638963, ,0.023431062698364258
0.010305838883124151,0.020048181952026515,-0.07942176764136494, ,0.010340160285749193,0.019983252767163093,-0.07951126579584925, ,0.00011577425180615743, ,0.00036887328154803177,-0.0009732133791957822,-0.001541765731193049,-0.0972366303829425,-0.24133793748892152,-0.1328807082921728, ,0.0018601756232052187, ,0.2601902426295553, ,1.0386929719835868e-05, ,0.13316308295025323,-0.2169779028342118,0.08933641793000001,3.0010824711505126,0.2623420795496456,-0.22160017667034193, ,-0.0002551034982823444,-0.00015679293928941664,0.0009778169091800518,-0.0012372200882617159,-0.149673291533752,-0.2515412807422832, ,0.045675039291381836
0.010313199597459553,0.020027977777981876,-0.07944756981950772, ,0.010343431814923905,0.02001521088648679,-0.07958261764024925, ,0.0001389780355966204, ,0.00025457435561674843,-0.0009019167463777739,-0.0008492248845190977,-0.12440193479546532,-0.034366586026050264,-0.02800221819507328, ,0.0012646915926109526, ,0.1290616272016616, ,1.1484077794781546e-05, ,0.13316308295025323,-0.2170010710328345,0.08935067712000001,3.0010824711505126,0.25919944005504053,-0.22622529401769376, ,-0.00024864491709846657,-0.0009556933230601337,0.00035569997324653735,-0.0012372200882617159,-0.13178588816227835,-0.018563312001628307, ,0.06747198104858398
0.010320110505381707,0.02003650042189192,-0.07949882389433528, ,0.010346915643168593,0.020046856900149724,-0.07965384215878439, ,0.0001576592349546704, ,8.340164260490059e-05,0.00026842487639267736,-0.0007527878844688446,0.004362875109983931,-0.08171327049084783,-0.043722071767978384, ,0.0008035529523676073, ,0.08182965998667927, ,1.250356486637333e-05, ,0.13316308295025323,-0.21705513016295408,0.08940123243,3.0006630912635437,0.25837962105644785,-0.22955904486240275, ,-0.0005312911473007444,-0.0029878813606706526,0.0008909565537526237,0.0018476132486314144,-0.01703415427799626,-0.11923457952210537, ,0.0900111198425293
0.010327629477649338,0.020045316990396737,-0.0795566536400768, ,0.010350610940478578,0.020078192146134342,-0.07972493979703037, ,0.00017300044543510113, ,0.0004585920111661061,0.0014934348513427624,-0.0034893192642258828,0.020515045353753484,0.13858537854548642,0.07136115263268406, ,0.0038230881778489505, ,0.14009558962346058, ,1.342596480428425e-05, ,0.13314763748450478,-0.2170937438273252,0.08945826919000001,3.0006630912635437,0.2575598020578552,-0.22529667287403948, ,0.0005659024668390143,-0.003490711686927465,0.0038756232408759133,0.0018476132486314144,0.04720003585557676,0.15030190145130962, ,0.11228013038635254
0.0103345457891202,0.020076061858548648,-0.07962780715413098, ,0.010354516878490412,0.020109217959846437,-0.07979591099948244, ,0.00017250238921779961, ,0.0003992303630720134,0.0008094122234108543,-0.0038039588981735118,-0.03673644952465609,0.046294310624258886,0.01751045077929677, ,0.0039095570502550485, ,0.059099322492364374, ,1.4042783210331946e-05, ,0.1331321920187563,-0.21715552569031898,0.08953734288000001,3.0006630912635437,0.25865289405597874,-0.2258613011430486, ,-0.0018702128721567496,-0.002711286432066201,0.0038456811974891363,0.0018476132486314144,-0.029667191664024428,0.05468088038725415, ,0.1353740692138672
0.010341657976501517,0.020097132327510675,-0.079690261808128, ,0.010358632630480613,0.02013993567411745,-0.07986675620955672, ,0.0001824021356622037, ,0.0003463774433079553,0.00077243589505212,-0.00269604816035777,-0.005878879616798295,-0.010707820438978184,-0.008147980836888651, ,0.00282582912225174, ,0.012215508338164373, ,1.4625759648649782e-05, ,0.13311674655300787,-0.21724047575193545,0.08960345367000001,3.0006630912635437,0.25865289405597874,-0.22610633736347027, ,-0.0004155894598028631,-0.003270050741941631,0.0028009163917707054,0.0018476132486314144,-0.011824055251903068,-0.011255889400805985, ,0.16108107566833496
0.010347472015575478,0.02012128160155726,-0.07976048464604607, ,0.01036295737136428,0.0201703466192062,-0.07993747586959035, ,0.0001843178380203564, ,0.0001621047252003485,0.0008175006354672379,-0.002283097007232794,0.001902336204920399,0.011161494579484869,0.0031120053747055276, ,0.002430456166104824, ,0.011322448684908587, ,1.5089908935648058e-05, ,0.13307041015576251,-0.21735631674504882,0.08967734220000001,3.0006630912635437,0.2585162575562133,-0.226158276940055, ,-0.0018216143240630683,-0.0036789408006420317,0.002416018735021993,0.0018476132486314144,0.0,0.01016610668399558, ,0.18373703956604004
0.010351518187558586,0.02013867863458426,-0.07980944707665898, ,0.01036749027769366,0.02020045212280137,-0.0800080704208435, ,0.00020861999991572216, ,0.0002526090987504387,0.0009454499554520005,-0.0027006526604867066,0.00366646053131905,0.004543118892335735,0.0001100749611180965, ,0.0028724922571922843, ,0.005838052924901903, ,1.5717310137378946e-05, ,0.13303951922426563,-0.21743354407379106,0.08972919380000001,3.0006630912635437,0.2585162575562133,-0.22607659819991444, ,-0.0013932284236367587,-0.004073467514461083,0.002860264234153349,0.0018476132486314144,0.0,0.003128268499467043, ,0.20818090438842773
0.010358842498910364,0.02015931097969216,-0.07987227899737838, ,0.010372230527656923,0.020230253510023208,-0.08007854030350026, ,0.00021853102371652622, ,0.00032456951959297154,0.0010541726011699785,-0.003177773764235622,0.0038403634950337226,0.0037392295427441094,-0.00023439972600224112, ,0.0033637585143363852, ,0.0053600586772222765, ,1.6318858395641072e-05, ,0.1330240737585172,-0.21752621686828177,0.08979530459000001,3.0006630912635437,0.25837962105644785,-0.225965180296218, ,-0.001291745193253108,-0.004091675932275487,0.003354846571187869,0.0018476132486314144,0.0,0.0023293819104043567, ,0.2301950454711914
0.010370008796099882,0.020192368125910784,-0.07997323137653238, ,0.010377177301076753,0.020259752103425562,-0.08014888595666923, ,0.00018827246057873017, ,0.00027924106045892146,0.0010426322661014182,-0.0025016146742080033,0.0055629692308721244,0.0026157334887230337,-0.0003001893753884267, ,0.0027245428222685024, ,0.006147250462579603, ,1.6542821579768924e-05, ,0.13299318282702027,-0.2176652260600178,0.08990160037000001,3.0006630912635437,0.2582429845566825,-0.2258537623925216, ,-0.0007341455766155099,-0.005702961425309911,0.0026956864985615164,0.0018476132486314144,0.0,0.0016856830745177946, ,0.25304198265075684
0.010375343769179453,0.020213193168340714,-0.08002250684610031, ,0.010382329779409038,0.02028894922299803,-0.08021910781838555, ,0.00021080732069753486, ,0.00027540419475307286,0.0011090656474157293,-0.0025310617804134143,0.006305442507399661,0.0024823521971160103,-0.0003200948522418417, ,0.0027770754071567414, ,0.006776479730713696, ,1.6914781455997166e-05, ,0.13297773736127183,-0.21778106705313116,0.08995474826000001,3.0006630912635437,0.2582429845566825,-0.2258537623925216, ,-0.0008287294378294227,-0.006401035508262516,0.0027397336635706917,0.0018476132486314144,0.0,0.0014263378163311689, ,0.2806720733642578
0.010385494340543438,0.020249887651267284,-0.08011593507435219, ,0.010387687145741413,0.020317846186168345,-0.08028920632561039, ,0.00018613462164013538, ,0.0002774560419368493,0.0012867226443258719,-0.0030594294549946815,0.007075188752946677,0.003072017239255433,-0.0003487775853672709, ,0.0033305773686730777, ,0.007713338158026272, ,1.7043469388422647e-05, ,0.13294684642977495,-0.217981858107861,0.09005456259000001,3.0006630912635437,0.258106348056917,-0.22574234448882516, ,-0.0016683537997141422,-0.007106853095845315,0.0032917568753874768,0.0018476132486314144,1.4561572364464342e-05,0.0011394757973248902, ,0.30287814140319824
0.010391579592530278,0.0202728643772107,-0.0801742916214042, ,0.01039324858479209,0.020346444307803375,-0.08035918191423409, ,0.00019900053292369827, ,0.00031724920280288367,0.0012573068721618804,-0.002855324568039217,0.0047515824105073354,0.003569287344307359,0.00015340948947764957, ,0.003135976086693407, ,0.005942840007966191, ,1.7366939660960905e-05, ,0.13292367823115225,-0.21811314456672282,0.09011678451,3.0006630912635437,0.2579697115571516,-0.22563092658512876, ,-0.0008796914182369076,-0.007517227349753461,0.003088175944164405,0.0018106345235991614,-0.0024052780581882184,0.0029878616300255244, ,0.3244130611419678
0.010398575007994593,0.020297667740295282,-0.08023476146494196, ,0.01039901328290833,0.020374744900212433,-0.08042903501907503, ,0.00020900548916544747, ,0.0003821370918071057,0.0013254939867502675,-0.003171289576039787,0.0005982947231047767,0.00555963226456167,0.0009770084911659058, ,0.0034583291689693914, ,0.0055917320368639506, ,1.77182932090729e-05, ,0.1329082327654038,-0.2182598764913331,0.09018159901,3.0006630912635437,0.2578330750573861,-0.22551950868143233, ,-0.0006604569606528432,-0.007885784538296296,0.0034086906740851707,0.001757174971388223,-0.006393403453409888,0.0061351095115923775, ,0.34479498863220215
0.010404638545165353,0.020325548903013066,-0.08030370734599424, ,0.01040498042806521,0.020402749273148345,-0.08049876607388269, ,0.00020978065058151578, ,0.0002927840470242438,0.001338243855265039,-0.003577586073968684,-0.0002637628958901372,0.007227884581140367,0.0008728375620413852, ,0.003830893006989518, ,0.007232695610729357, ,1.8034746112845603e-05, ,0.13286961910103268,-0.21840660841594337,0.09025548754000001,3.0006630912635437,0.2578330750573861,-0.22551950868143233, ,-0.0024154236432990524,-0.0070058141880203475,0.0037916713925255897,0.0017064734872264567,-0.006393403453409888,0.00604914084032456, ,0.36669301986694336
0.010412725638004864,0.020353731859734187,-0.0803736605122198, ,0.010411149209864268,0.02043045873381015,-0.08056837551133751, ,0.00020929268790993163, ,0.0004320091181579186,0.0014012255735479182,-0.0036491297135744817,0.0008846039200080232,0.005189495477323973,0.0008234028274358733, ,0.003932710598636576, ,0.005264350554189626, ,1.8314388808645132e-05, ,0.13285417363528423,-0.21855334034055363,0.09033067236,3.0006630912635437,0.2578330750573861,-0.22551950868143233, ,-0.0008158623360450971,-0.00743263016879742,0.0038945749437652817,0.001659036823591757,-0.005761824954356593,0.00546343163832163, ,0.3862481117248535
0.010421993534701036,0.020382625808228666,-0.08045464652294976, ,0.010417518819532026,0.02045787458684457,-0.08063786376305195, ,0.0001981185474146522, ,0.00041027376636136766,0.0012221329574743666,-0.0035011428924570645,-0.0019844867390631264,0.005819993703509026,0.0008488291568110756, ,0.0037309429213688064, ,0.00614902543500393, ,1.85024625269324e-05, ,0.13283100543666157,-0.2187077949980381,0.09041622750000002,3.0006630912635437,0.2575598020578552,-0.22529667287403948, ,-0.0008538498299522221,-0.005833572926754811,0.0037035134898860734,0.0016108593435369696,-0.006897336587230046,0.006325530048490055, ,0.40897202491760254
0.01042833075668471,0.020406350734120626,-0.08051845931116161, ,0.010424088449918878,0.020484998134348568,-0.0807072312595723, ,0.0002045440276226046, ,0.00026718823553953765,0.0012035605957076273,-0.0027750964688213822,0.013340892563689897,-0.0015389807043586223,-0.001636450179771347, ,0.003036627746697928, ,0.013429366174161739, ,1.8706881155320642e-05, ,0.13280011450516466,-0.21884680418977415,0.09048363458000001,3.0006630912635437,0.2572865290583244,-0.22507383706664666, ,-0.0012121298808744647,-0.006146874326775902,0.003009979501133787,0.0015656850602994879,0.006311297385821851,-0.004498895210068743, ,0.42929601669311523
0.010435799725545281,0.020431588661228593,-0.08058384707532887, ,0.010430857295497468,0.020511830675870833,-0.08077647843037888, ,0.00020873439457125468, ,0.0004001941482507023,0.001362618393748103,-0.003484501086678086,0.013319711530549045,-0.0020539701594479605,-0.0016205767158344753, ,0.0037627957779203915, ,0.013477147626974025, ,1.891391943313279e-05, ,0.13278466903941621,-0.21897036791576174,0.09055233795,3.0006630912635437,0.2572865290583244,-0.22507383706664666, ,-0.000752118451557613,-0.006122221036511274,0.0037330235575345682,0.0015268973270279012,0.006311297385821851,-0.00454095830452086, ,0.4507319927215576
0.010442903109355419,0.02045878168207598,-0.08065253297287517, ,0.01043782455236155,0.0205383735084144,-0.08084560570388845, ,0.00020889645765773848, ,0.0003949630759552832,0.0011701572628795168,-0.003577197573098721,-0.005041307536035386,0.007271770493326307,0.0012504130640857262, ,0.003784389822444448, ,0.008848357316177119, ,1.91034840545031e-05, ,0.13276150084079355,-0.21909393164174934,0.09062752277000001,3.0006630912635437,0.2574231655580898,-0.22518525497034306, ,-0.0011887447696291645,-0.005232605888944485,0.0037576814154281677,0.001488779564673847,-0.009072018565606441,0.007965139103282093, ,0.47051310539245605
0.010450152794385893,0.020483241850152385,-0.08071978643428569, ,0.01044498941822455,0.020564627926438338,-0.08091461350745298, ,0.00021120592393571145, ,0.00026169944340919543,0.0010880256278754307,-0.0027289249858122562,0.003207991291767042,0.003443403386325751,3.808943084847565e-05, ,0.002949460619127645, ,0.004706191119968604, ,1.9287871695090818e-05, ,0.1327383326421709,-0.21921749536773694,0.09069881872,3.0006630912635437,0.2572865290583244,-0.22507383706664666, ,-0.0013263041335833253,-0.005788969299044103,0.002918968576140737,0.0014506244224217488,-0.0022998985887534257,0.002407692680842925, ,0.4963669776916504
0.010456658105352058,0.020503705267048734,-0.08077198156494969, ,0.01045235109241822,0.02059059522185995,-0.08098350226736362, ,0.00022871253170123358, ,0.00035458594308257295,0.001015491286070698,-0.0025651382289071717,-0.0021746520999810343,0.004843957421199308,0.0009804109607800056, ,0.0027815261775719995, ,0.0053097113992461725, ,1.953616757998008e-05, ,0.13273060990929664,-0.2193333363608503,0.09075455919000001,3.0006630912635437,0.2571498925585589,-0.2249624191629502, ,0.0,-0.0058228594692904265,0.00274540012409514,0.0014167733499257959,-0.0070682235249504705,0.0062606796113008935, ,0.5166590213775635
0.010462152459315907,0.020526750300553315,-0.08082739932747403, ,0.010459908775891312,0.020616276684056366,-0.0810522724088491, ,0.00024204939616856276, ,0.00037359281975369023,0.0011290521854463663,-0.0031185921021337102,-0.0008392449016087081,0.004645913478590497,0.000698355698509658, ,0.0033376559337240687, ,0.0047211062009284285, ,1.982285107759368e-05, ,0.13270744171067397,-0.21946462281971213,0.0908180774,3.0006630912635437,0.2571498925585589,-0.2249624191629502, ,-0.0006443571043760021,-0.005559193185289426,0.0033109148867179385,0.0013822304466833825,-0.005663050298911282,0.005092160145456133, ,0.5381419658660889
0.0104735400376441,0.02056435699242243,-0.08093524068234817, ,0.010467661671208177,0.020641673599867457,-0.08112092435607884, ,0.00020122335766228216, ,0.00038110199213894707,0.0012239690833335665,-0.003415251758605441,0.004685109558544877,0.0020033507773634922,-0.00026879923261383413, ,0.0036479149688590936, ,0.0050954553720050045, ,1.991792481911009e-05, ,0.13266882804630284,-0.21962680021007083,0.09092826205000001,3.0006630912635437,0.2570132560587935,-0.2248510012592538, ,-0.0009541678386525558,-0.005361020005673936,0.0036309121312970145,0.0013374964344287706,-0.0006284678803624106,0.0009599137991008839, ,0.5580630302429199
0.01047791159378449,0.020576395922502766,-0.08096799710575109, ,0.01047560898254748,0.020666787253596816,-0.08118945853216229, ,0.00023920923507161717, ,0.0003576020467387042,0.0011706663423895454,-0.003166291451453966,0.004709220325344188,0.0018738242961843562,-0.00025535068088323987, ,0.0033946635274480284, ,0.005068330420105408, ,2.015867948457044e-05, ,0.13266882804630284,-0.2196808593401904,0.09096326188000001,3.0006630912635437,0.2570132560587935,-0.2248510012592538, ,-0.0008353034904846015,-0.005385526760446638,0.003375463343928799,0.001323129318893748,-0.0006284678803624106,0.0009512929066240461, ,0.5785689353942871
0.010487022112702688,0.02060093624508551,-0.08103498602396675, ,0.010483749915700835,0.02069161892701483,-0.08125787535915155, ,0.00024065267880128726, ,0.0004011145081543392,0.001166246506280555,-0.003237517780996024,-0.0002830465419001083,0.004162697104210873,0.0006802585020818537, ,0.003464468955601842, ,0.004172308973530854, ,2.0467563698285314e-05, ,0.13266882804630284,-0.219804423066178,0.09103455783000002,3.0006630912635437,0.256876619559028,-0.22473958335555738, ,-0.000490506013574044,-0.0056014709934169085,0.003438862590673575,0.001292214272890423,-0.005209423771265367,0.004668707113440862, ,0.5972409248352051
0.010494943332354904,0.020625993133835594,-0.0811073868688651, ,0.010492083678071402,0.02071616989935986,-0.08132617525804148, ,0.0002366609091114038, ,0.0004698433240816406,0.0013575858605016338,-0.0038610212647783317,0.0017246430981707618,0.003493068178504133,0.0004905485776665996, ,0.0041196210171432655, ,0.0038956280954038007, ,2.0742735017248037e-05, ,0.13264565984768018,-0.21992026405929135,0.09111103894000001,3.0006630912635437,0.2567399830592626,-0.22462816545186098, ,-0.0006427833738276066,-0.0060406963197385515,0.004096916543209877,0.001264869683487721,-0.00382539901261068,0.003524596619740099, ,0.6153969764709473
0.010502806327890173,0.02064941505125403,-0.081175874041905, ,0.010500609478672655,0.020740441447340687,-0.08139435864877094, ,0.00023669844606243783, ,0.00034380628413128186,0.0011859192226414197,-0.003407296134085152,0.0014550850942282104,0.003972395963698587,0.0003006414105245882, ,0.0036241239091662158, ,0.00423050846407423, ,2.100191657741087e-05, ,0.13263021438193173,-0.22001293685378207,0.09118363118,3.0006630912635437,0.2567399830592626,-0.22462816545186098, ,-0.0014265824564799186,-0.00520016916722135,0.003603803511312218,0.0012414571881471537,-0.0033290336975052527,0.003106709041297261, ,0.6364281177520752
0.010512246986032326,0.020674570513266367,-0.08124535709680196, ,0.010509326528126832,0.02076443484513877,-0.08146242595022413, ,0.00023495321735031728, ,0.00034784930647639256,0.0012057007773416234,-0.0031078653457316465,0.0056179729217591436,0.001585726672960348,-0.00018602040105006432, ,0.0033516474324871925, ,0.005837477926383531, ,2.1240129690332685e-05, ,0.13263021438193173,-0.22013650057976966,0.09125751971000001,3.0006630912635437,0.2566033465594972,-0.22451674754816453, ,-0.0008457683731673398,-0.005867504075145636,0.003327514418216002,0.0012134450019267585,-0.0002472820544249772,0.0005788383421736734, ,0.6542320251464844
0.010520432167552704,0.0206973443212512,-0.08131021776290946, ,0.010518234038663825,0.020788151364409646,-0.08153037758023152, ,0.00023816191135669193, ,0.0005507708881223804,0.0013379004444157984,-0.004054303758665844,-0.0010151650318141222,0.0039014481775217135,0.0008337775848673069, ,0.004304730553461285, ,0.0040313591787738, ,2.14762572814539e-05, ,0.1326224916490575,-0.2202446188400088,0.09132622308,3.0006630912635437,0.2564667100597317,-0.2244053296444681, ,0.0,-0.005456181380421473,0.004284241936525013,0.0011918355501580097,-0.005724943806823671,0.005034161486482227, ,0.6765940189361572
0.010531382070606948,0.020728726771403597,-0.08140188224442602, ,0.01052733122411964,0.02081159227428552,-0.08159821395557061, ,0.0002131413655912502, ,0.0005062161525141531,0.001301453705359255,-0.003896604578072345,-0.0010297791721422317,0.004166842672870786,0.0008513841539437737, ,0.004139270923497751, ,0.004292204807032584, ,2.1615419932429046e-05, ,0.13260704618330907,-0.22036818256599638,0.09142344483,3.0006630912635437,0.2564667100597317,-0.2244053296444681, ,-0.0002825401651484349,-0.0054422372640218096,0.00411810018614271,0.0011663748240188345,-0.005724943806823671,0.005021123736787711, ,0.6943409442901611
0.010539992277475776,0.020751357488628448,-0.08146642963353731, ,0.010536617299935146,0.020834758841377185,-0.0816659354919673, ,0.00021626318147480213, ,0.00043781963436706364,0.001154037500820173,-0.0033680090557196246,-0.0009349540272901946,0.003883412720863179,0.0007385134480415707, ,0.00358705639556252, ,0.003994375165195518, ,2.1757517709528617e-05, ,0.13260704618330907,-0.22046085536048707,0.09149214820000001,3.0006630912635437,0.2564667100597317,-0.2244053296444681, ,-0.000250066260621547,-0.005069054588997566,0.003565885721961048,0.0011459715425752189,-0.005315393578977201,0.0046769598789407575, ,0.7153959274291992
0.010546043830972218,0.02076681691857591,-0.08151051807750898, ,0.010546091483154722,0.020857652329775787,-0.08173354260409713, ,0.0002408132339769761, ,0.00037232151307200936,0.0011213410751861233,-0.0028781822189514316,0.002355048625494229,0.002492183817734406,0.0003868469197779484, ,0.0031112637306220103, ,0.003428882326984761, ,2.197078637502621e-05, ,0.13260704618330907,-0.22053808268922934,0.09153881464000001,3.0006630912635437,0.2563300735599663,-0.2242939117407717, ,-0.000216427654238335,-0.00572323219231911,0.003083393635307782,0.0011307319607129981,-0.002990487853603311,0.0027736755769117365, ,0.7334439754486084
0.010554205616817747,0.020787876586416783,-0.08157042607107406, ,0.010555752992424814,0.02088027400105526,-0.08180103570558592, ,0.0002484360685022089, ,0.000363799180204918,0.0010318780931469732,-0.00276913182949081,-0.0009436740097358771,0.0036370357087764766,0.0006920821747653147, ,0.00297745081096792, ,0.003757465797680971, ,2.2197171974720913e-05, ,0.13260704618330907,-0.22063847821659424,0.09160233285000001,3.0006630912635437,0.2561934370602008,-0.2241008150969347, ,-0.0001809663355170387,-0.005227082711399209,0.0029503262678273762,0.0011092493155770628,-0.005512166781169091,0.00451463120786291, ,0.7542860507965088
0.010561557689342232,0.02080813459636597,-0.08163034921320304, ,0.010565601047992711,0.020902625114274008,-0.08186841520901135, ,0.00025616444929752905, ,0.0005088860131053965,0.0011271515241391534,-0.003744732105672742,-0.002388286803657149,0.003452631115736046,0.0005164169993290127, ,0.003943659984831315, ,0.004198163258079489, ,2.2436038459522622e-05, ,0.13259932345043482,-0.22071570554533648,0.09166585106000001,3.0006630912635437,0.2561934370602008,-0.2241008150969347, ,0.0,-0.0037719686389088894,0.003930128675055515,0.0010924006562370316,-0.005512166781169091,0.004514987351051802, ,0.7728171348571777
0.010574428530409774,0.020840737438289177,-0.08172684261403737, ,0.010575634871705108,0.02092470692597722,-0.08193568152590323, ,0.0002250911398328042, ,0.0004738873641977155,0.0010610810934172108,-0.0034870176822987143,-0.0020179185248716345,0.003167269449888893,0.0004267113635818417, ,0.0036755618124876665, ,0.003755474727071087, ,2.2571358436248508e-05, ,0.13259932345043482,-0.22083926927132408,0.09176825797,3.0006630912635437,0.2561934370602008,-0.22401913635679413, ,0.0,-0.0036272693113103454,0.0036626377374108995,0.001066429799195823,-0.005060518766740829,0.004126513732235355, ,0.7909529209136963
0.010584157257650918,0.020862483606803664,-0.08179850153895067, ,0.010585853687006829,0.020946520690198773,-0.0820028350667456, ,0.00022094637322037908, ,0.0005008245376379424,0.0010423324308253456,-0.003713921311717631,-9.852973663309066e-05,0.0016368766269497176,-0.00020744723633761108, ,0.003889793519389036, ,0.0016398391671965194, ,2.2688388887640945e-05, ,0.13259932345043482,-0.22091649660006632,0.09184344279000001,3.0006630912635437,0.2560568005604354,-0.22390771845309773, ,0.0,-0.002547186894240581,0.003885075980487805,0.001047905656565787,-0.0024273804525283705,0.0019793659963381746, ,0.8152909278869629
0.01059336647486225,0.020885264723708837,-0.0818723655807663, ,0.010596256718939335,0.020968067658463194,-0.08206987624097682, ,0.0002141848276875749, ,0.0004815354829054194,0.0009942687116284562,-0.0034617363559505633,4.099823645654384e-05,0.001431811441350036,-0.00018712841286169855, ,0.003633739849016458, ,0.0014323981156939031, ,2.2780960322730034e-05, ,0.1325916007175606,-0.22098600119593434,0.09192122019000001,3.0006630912635437,0.2560568005604354,-0.22390771845309773, ,0.0001746064265334215,-0.002806941902342064,0.0036542352649690303,0.0010303945865887691,-0.0023893029768509797,0.0019483163681252936, ,0.8337061405181885
0.010597369603546496,0.02089325806404125,-0.08190110102844352, ,0.010606843194139574,0.020989349079787962,-0.08213680545699141, ,0.0002547151543647332, ,0.0004198308953620182,0.0009970684828559838,-0.0030042551735304486,0.0011828253310003935,0.001475740952123245,-6.258499186923981e-06, ,0.0031931101903770365, ,0.0018912659455247354, ,2.304553930080121e-05, ,0.1325916007175606,-0.22101689212743125,0.09195103486,3.0006630912635437,0.2559201640606699,-0.2237963005494013, ,0.00016478861592235356,-0.0038611274803204356,0.0031813084721390057,0.0010225428917195927,-0.0024430253904224966,0.0019921233941536678, ,0.85093092918396
0.010606331275010277,0.02091590923694357,-0.08196829112989151, ,0.010617612340838481,0.021010366200684985,-0.08220362312214063, ,0.00025383169034107634, ,0.000448859518157286,0.0010803023381321677,-0.003235496779494786,0.0015239736146695653,0.0014926599700323135,5.925132312758477e-05, ,0.0034404894156115856, ,0.0021331968989696058, ,2.329761808890875e-05, ,0.1325916007175606,-0.22110184218904771,0.09202233081000001,3.0006630912635437,0.2559201640606699,-0.2237963005494013, ,0.00014345675514474324,-0.00420794206702342,0.003427762324080052,0.001002358306555096,-0.0024430253904224966,0.0019921233941536678, ,0.8670210838317871
0.010611909466222237,0.020928768106246942,-0.08201011359961094, ,0.010628563388859678,0.021031120265163548,-0.08227032964273369, ,0.00028011730877003, ,0.0005281844207515986,0.0010951846447049942,-0.0038355122400793324,0.0001446706510515576,0.0014988937028882448,-0.00011555659596113748, ,0.004023625520860594, ,0.0015058589242553937, ,2.3610543174865085e-05, ,0.1325916007175606,-0.22114045585341882,0.09206640467,3.0006630912635437,0.2559201640606699,-0.2237963005494013, ,0.00013520133010228304,-0.0028176356169528323,0.004018368193743693,0.0009931162746858167,-0.0024430253904224966,0.0019921233941536678, ,0.8852889537811279
0.01062694377118772,0.02096093930526403,-0.08212155520840506, ,0.010639695569618092,0.021051612514731557,-0.08233692542403881, ,0.00023402685542578256, ,0.0006032324456521148,0.0012770516983772382,-0.004401946872548713,2.7181668788081077e-05,0.0019085082500366359,0.00012591976652907215, ,0.004622973793193838, ,0.001908701372861141, ,2.3790997382743633e-05, ,0.1325916007175606,-0.22123312864790953,0.09218307077000001,3.0006630912635437,0.25578352756090456,-0.2236848826457049, ,0.0001193370873881915,-0.0034892002483608,0.004615708930744713,0.0009724122664303748,-0.0031298171728184184,0.0025521560413734323, ,0.9012720584869385
0.010633323300030731,0.02097409429331163,-0.08216454616322955, ,0.010651008116118653,0.021071844188397765,-0.08240341087028413, ,0.00025869701000531017, ,0.0005519668302750796,0.0012645018762017738,-0.004093382023210107,0.0008048725970018628,0.00195411639719067,0.00019448810581336256, ,0.004319653778323142, ,0.0021133834583274827, ,2.402852322894493e-05, ,0.13259932345043482,-0.22127174231228064,0.09222844092000002,3.0006630912635437,0.25578352756090456,-0.2236848826457049, ,0.0,-0.004132349107467309,0.004309743376623377,0.0009646820140157738,-0.00300557181293765,0.0024508422813921188, ,0.917151927947998
0.010643697131464108,0.020997685122776912,-0.08224104133256004, ,0.010662500262954922,0.021091816522673935,-0.08246978638465961, ,0.00024806970202036416, ,0.0004724692202415549,0.001219847534622747,-0.0035135674669833448,0.003540665808960317,0.0009646650362599608,-1.2307828057016648e-05, ,0.003749188114358176, ,0.003669726484010113, ,2.423072586038227e-05, ,0.13259932345043482,-0.22135669237389713,0.09230881090000001,3.0006630912635437,0.2556468910611391,-0.22357346474200845, ,0.0,-0.004943985107623572,0.003734774096131302,0.0009493722166452049,-0.001304411922182803,0.0010636604580453919, ,0.9343209266662598
0.010654630795278317,0.021022666811342385,-0.08231816329000095, ,0.010674171246307745,0.021111530751576964,-0.08253605236931669, ,0.0002361234422616829, ,0.00048672101204580464,0.0011788300371200744,-0.0035935817020652993,0.0028605069053850058,0.0009185180318421418,-8.784986948155477e-05, ,0.003813183322291487, ,0.0030043592546970237, ,2.439616954505642e-05, ,0.13260704618330907,-0.2214416424355136,0.09239047717000001,3.0006630912635437,0.2556468910611391,-0.2234917860018679, ,4.282325877638668e-05,-0.00425980588850625,0.0038034411461318057,0.000934053750186087,-0.001304411922182803,0.0010636604580453919, ,0.9529440402984619
0.010660321551769603,0.021035340946920333,-0.08235597441780919, ,0.01068602030394387,0.021130988106630718,-0.08260220922537038, ,0.00026540607656697996, ,0.0004362975997916254,0.0011272789832631994,-0.0033812560899042065,0.0028253105093646994,0.0011807876831323853,-8.496055183783869e-05, ,0.003590822502882192, ,0.0030621297465973376, ,2.462754580361775e-05, ,0.1326147689161833,-0.22148797883275895,0.09242806958000001,3.0006630912635437,0.2556468910611391,-0.22357346474200845, ,-0.00022110283388126605,-0.0042252970112001955,0.0035563321098459485,0.0009269151852889517,-0.001304411922182803,0.0010636604580453919, ,0.9688889980316162
0.010667760867524547,0.02105369328563436,-0.0824153163757676, ,0.010698046675214639,0.021150189816867886,-0.08266825735290026, ,0.00027241135916178, ,0.0005330526284379844,0.0011751538119293661,-0.0037579461979989712,-0.0010794007166565857,0.002478139631521473,0.0004895973888865782, ,0.003973322440154044, ,0.0027030133538272906, ,2.4867974982791924e-05, ,0.13260704618330907,-0.22155748342862697,0.09249288408,3.0006630912635437,0.25551025456137366,-0.2233803680981715, ,0.00028427910619165266,-0.004117242812218963,0.0039594361222967936,0.0009149924748051316,-0.00467372680387853,0.003642586126174565, ,0.9890151023864746
0.010680011562407268,0.021081628138292223,-0.08250229620001524, ,0.010710249601054598,0.021169137108832874,-0.08273419715095084, ,0.00024970024019042945, ,0.00056676042027935,0.001177585449104257,-0.003930700883306052,-0.0012483861537749942,0.0022417311791533964,0.0004188638276763226, ,0.004142261978431624, ,0.002565896671771438, ,2.5046756106458318e-05, ,0.1326147689161833,-0.22165015622311765,0.09258492067000001,3.0006630912635437,0.25551025456137366,-0.22329868935803093, ,0.0004150034442881646,-0.0036594934389531223,0.004130915850622407,0.0008989264646744712,-0.004411568482917198,0.003485560720307704, ,1.005113124847412
0.01069020650289599,0.021104441380207638,-0.0825787192206571, ,0.010722628323980172,0.021187831206582457,-0.08280002901753354, ,0.0002387112561626065, ,0.000578109978195809,0.0012210895222939718,-0.004019830024233119,-0.0005431737330564999,0.0019878421667596626,0.0003758088148174779, ,0.004240790514995019, ,0.002060716655582454, ,2.519416067254529e-05, ,0.1326147689161833,-0.22171193808611145,0.09266529065000001,3.0006630912635437,0.25551025456137366,-0.22329868935803093, ,0.0004150034442881646,-0.0038730109158726955,0.004229636622411047,0.0008864726093153621,-0.003975503964472476,0.0031318681329452107, ,1.0278310775756836
0.010701228231761504,0.021126905710322046,-0.08265647228602271, ,0.01073518208808833,0.02120627333168923,-0.08286575334962733, ,0.00022638605801688743, ,0.0004949071611854775,0.0010988423607522298,-0.003487232748717266,-0.0002639518785333737,0.0016837805081624416,0.001151941576300857, ,0.0036896042979840506, ,0.0017043435329006042, ,2.530863878080403e-05, ,0.1326224916490575,-0.22176599721623103,0.09274695692000001,3.0006630912635437,0.25551025456137366,-0.22329868935803093, ,0.00029977270607868593,-0.0038219023175013814,0.0036778599676749024,0.0,-0.0035840820150957937,0.0028156550510830655, ,1.0432789325714111
0.010706255542544632,0.021136013378028715,-0.08269287776591902, ,0.010747910139055178,0.021224464703242633,-0.0829313705431795, ,0.0002577548198346134, ,0.0004650521547948516,0.0008986491885163613,-0.0032868171280459714,0.000593698145227832,0.00023143422472208532,0.0004017754302958439, ,0.0034390421201137998, ,0.0006372118206848235, ,2.549015758343688e-05, ,0.1326224916490575,-0.2217891654148537,0.09278454933000001,3.0006630912635437,0.2553736180616082,-0.2231872714543345, ,0.00029977270607868593,-0.001812221028189362,0.003437378403107467,0.0,-0.0010763342445886332,0.0007721645343324934, ,1.0601019859313965
0.010715344599534635,0.021154919353980547,-0.08276100688012915, ,0.010760811724134706,0.02124240653785165,-0.08299688099310712, ,0.00025565184124946025, ,0.0005335226410853489,0.001048086116240242,-0.003828156784273517,0.0008864173507420581,0.00027854601596050447,0.00044207778769213323, ,0.0040047366056440705, ,0.000929151645620204, ,2.5718404018434302e-05, ,0.1326224916490575,-0.22182777907922482,0.09285584528000002,3.0006630912635437,0.2553736180616082,-0.2231872714543345, ,0.00025499283177267347,-0.002108061567859385,0.0040032197838652936,0.0,-0.0010763342445886332,0.0007748317247573706, ,1.0736989974975586
0.010722674211730971,0.021165449469260546,-0.0828061864185673, ,0.010773886092157268,0.021260100049646298,-0.08306228509329829, ,0.0002777911450408852, ,0.0006593243076495695,0.0011729595079476188,-0.0048294477005695995,-0.002776477553722216,0.0018121652918219784,0.0007885836360890781, ,0.005013392827465178, ,0.003315534349700304, ,2.5989195073105965e-05, ,0.13263021438193173,-0.22184322454497327,0.09290251172000001,3.000872781207028,0.2552369815618427,-0.22307585355063805, ,0.00012627434960462165,-0.0011871288284447299,0.005007485545425967,0.0,-0.003496358378457044,0.002749466288793523, ,1.0874159336090088
0.01073808033834009,0.02119262731401964,-0.08291317052304464, ,0.010787132493528416,0.021277546450279985,-0.08312758323661258, ,0.0002357757098841807, ,0.0008098695063392342,0.001427864361859151,-0.005864597910771532,-0.0025672716733246524,0.0016681964707162406,0.0008178262935888567, ,0.0060900077100272555, ,0.0030616590881830078, ,2.616201009355087e-05, ,0.13263021438193173,-0.2218586700107217,0.09295695590000001,3.0010824711505126,0.2552369815618427,-0.22307585355063805, ,0.00012627434960462165,-0.0016195876910932753,0.005729788316546763,0.0,-0.003496358378457044,0.0027506969434904255, ,1.1015660762786865
0.01074589709261495,0.021207326949430796,-0.08297175589657839, ,0.010800550180227436,0.021294746948931534,-0.0831927758148825, ,0.0002438832109544346, ,0.0006897665224259269,0.0012162819170313279,-0.004964322426184043,-0.0026443634655643608,0.001669265808344229,0.0008081409250001043, ,0.005157481624617851, ,0.003127155810290125, ,2.6347717679860975e-05, ,0.13263793711480595,-0.22188956094221862,0.09307491829,3.0010824711505126,0.2552369815618427,-0.22307585355063805, ,0.0002731098409732089,-0.001320722277354727,0.005151620802069858,0.0,-0.003496358378457044,0.0027531122493262136, ,1.1164829730987549
0.010752515325000923,0.021218890083469458,-0.0830164704425605, ,0.010814138405806004,0.021311702752307284,-0.08325786321891458, ,0.0002658609938683053, ,0.000637639762510469,0.0011577573082091387,-0.004562919684907052,-0.0021503495828737807,0.0015169077340773831,0.0007991622226399489, ,0.004750497079502139, ,0.0026315414540387973, ,2.657509043890979e-05, ,0.13264565984768018,-0.22190500640796706,0.09312158473000001,3.0010824711505126,0.2552369815618427,-0.2229941748104975, ,0.0002910732443401493,-0.0016787954237394483,0.0047449542806076855,0.0,-0.003387867967526727,0.002583377637168906, ,1.1297459602355957
0.010765375814741476,0.0212402804134236,-0.0831066850589942, ,0.010827896425386927,0.021328415064642794,-0.08332284583849063, ,0.00024166511145284146, ,0.0006370461533570691,0.001103387749231583,-0.004416464619617387,-0.001233494608630651,0.0008153190176740982,0.0006320003730741863, ,0.0045965695973185835, ,0.0014785981096472516, ,2.674637079061684e-05, ,0.1326533825805544,-0.22192817460658973,0.09321491761,3.0010824711505126,0.25510034506207735,-0.22296443564694166, ,0.0005316417572386481,-0.00131443358279459,0.0045930829065743955,0.0,-0.002220963299304187,0.0018774293284830768, ,1.1430749893188477
0.0107721412132289,0.02125278028887,-0.08315248916134178, ,0.010841823495662675,0.021344885087705275,-0.08338772406236773, ,0.00026205795754823927, ,0.0007282321605200623,0.0013528766991861673,-0.005078629090094645,-0.00036359923975657255,0.001826326328812124,0.0012955775557249114, ,0.005305946746582756, ,0.0018621677926270138, ,2.6955382586510953e-05, ,0.13266110531342862,-0.22195134280521242,0.09326288034,3.0010824711505126,0.25510034506207735,-0.2228827569068011, ,0.0005642874003037934,-0.002425361043152251,0.00530253379494008,0.0,-0.002220963299304187,0.0030647009934492092, ,1.1567189693450928
0.01077926351489334,0.021265205198965093,-0.08320096216258749, ,0.010855918874894059,0.021361114020795297,-0.0834524982782813, ,0.0002799017038533856, ,0.0006388594780455188,0.0010754710018604549,-0.004405531105743479,-0.0019692843318024574,0.0027954073155079077,0.0015921052564404153, ,0.004579681608169358, ,0.0034194124026686056, ,2.7195564310767704e-05, ,0.13266882804630284,-0.22196678827096086,0.09331343565000001,3.0010824711505126,0.25510034506207735,-0.22280107816666053, ,0.0005688801620899541,-0.0010231308413622305,0.004575929767308246,0.0,-0.002220963299304187,0.0041723763946350184, ,1.1699399948120117
0.010786360272180903,0.021276490025042397,-0.08324433792788849, ,0.010870181822908916,0.021377103060749157,-0.08351716887294384, ,0.00030263139278729296, ,0.0006437912517075429,0.0011012504929702326,-0.004398131387620708,-0.0015819064429340502,0.0026764764736500507,0.0016148983043492036, ,0.0045793863701173755, ,0.0031090115249923288, ,2.7475600469246995e-05, ,0.1326842735120513,-0.2219822337367093,0.09335880580000001,3.0010824711505126,0.25510034506207735,-0.22280107816666053, ,0.0006388459354556848,-0.001321222331027419,0.004575929767308246,0.0,-0.002140484207583192,0.004104198223932139, ,1.1869049072265625
0.010806922016715728,0.021308688758385663,-0.08337257986002786, ,0.01088461160110077,0.021392853401940616,-0.08358173623204776, ,0.00023846539938360262, ,0.0007333880746967009,0.0011675888130700243,-0.004240416642076751,5.8441230768950314e-05,0.001678232043597579,0.0019704734033708995, ,0.004458952231513034, ,0.0016792488792895148, ,2.762165562116787e-05, ,0.13272288717642242,-0.22202857013395466,0.09349232367000002,3.0010824711505126,0.2549637085623119,-0.22260798152282354, ,0.0019503052833665206,-0.0023636220183358985,0.004453120357841768,0.0,-0.0014690814405474292,0.004355964594599612, ,1.20235013961792
0.010814023607978708,0.02131997900237562,-0.08341595360634116, ,0.010899207472427352,0.021408366236282977,-0.08364620074026526, ,0.0002609259215954978, ,0.0007189091457103518,0.001051655002034125,-0.0043778600960159945,-0.0015594846063744716,0.002000634470961332,0.0017197414898821222, ,0.004559437204675436, ,0.0025366373244575615, ,2.780831442091001e-05, ,0.1327383326421709,-0.2220440155997031,0.09353769382,3.0010824711505126,0.2549637085623119,-0.22260798152282354, ,0.0015616081494166322,-0.0007165589653781176,0.004554993285673435,0.0,-0.0014690814405474292,0.0042805841937814185, ,1.2161600589752197
0.010827750328095348,0.02134105678815444,-0.08349910290689934, ,0.010913968701409489,0.021423642753231543,-0.08371056278125075, ,0.0002428360104790184, ,0.0006790347293310702,0.001067309792556136,-0.0041483771446433285,-0.0007755875102478519,0.0019926091463112355,0.0017616219085365512, ,0.004336965677881608, ,0.002138229633942618, ,2.7955574351052564e-05, ,0.13276922357366777,-0.22206718379832577,0.09362454525000001,3.0010824711505126,0.2549637085623119,-0.22260798152282354, ,0.001449754565377386,-0.0014806855669937014,0.004326130233568713,0.0,-0.0014690814405474292,0.0041486619691160085, ,1.236191987991333
0.01083600052815248,0.02135141462713296,-0.08354121794744848, ,0.010928894554129466,0.021438684139784964,-0.08377482273764034, ,0.0002661136334375071, ,0.0007772581042748729,0.0009315026079567922,-0.0036614517540330457,-0.0010947121169201219,2.094818267801314e-05,0.0016913239538138335, ,0.003857208344956614, ,0.0010949122280930102, ,2.814404214287477e-05, ,0.13280011450516466,-0.2220749065312,0.09366861911,3.0010824711505126,0.2549637085623119,-0.22260798152282354, ,0.0033686396032986503,-0.0011469856179433695,0.003843825173745174,0.0,-0.0014690814405474292,0.004084241983195842, ,1.2492649555206299
0.010843226653592079,0.02136071080156365,-0.08357564901370626, ,0.01094398429822989,0.021453491580487746,-0.08383898099105415, ,0.00029682335855634834, ,0.0007233908108420614,0.0009711243824647628,-0.004060678809740292,-0.0016122051032035956,0.0011923984445101569,0.0015728959895065708, ,0.004237391795350312, ,0.0020052476757758965, ,2.838638893397155e-05, ,0.13284645090241,-0.22209807472982268,0.09374639651000001,3.0010824711505126,0.2549637085623119,-0.22260798152282354, ,0.002103147788284863,-0.0006039583154051416,0.004230760031872511,0.0,-0.0014690814405474292,0.003977308539128013, ,1.2631909847259521
0.010856614252467613,0.0213790489494233,-0.08365848731266659, ,0.010959237202912241,0.02146806625743216,-0.08390303792209666, ,0.0002797508742715991, ,0.000677108214930641,0.001005718456296991,-0.00428624501424124,-0.002453454781919295,0.0014091959731749805,0.00015296066405055535, ,0.004454418196596594, ,0.0028293589752828533, ,2.8644961034537664e-05, ,0.13286189636815846,-0.22209807472982268,0.09379047037,3.000872781207028,0.25482707206254646,-0.22241488487898659, ,0.0011634461581065795,-0.0005464485040203435,0.0044481461938006145,0.00088414066492202,-0.0025620857921228165,0.0031037039420202138, ,1.2742879390716553
0.010864896979971474,0.021390551593072016,-0.08370569744481876, ,0.010974652538935573,0.02148240935026031,-0.08396699391035804, ,0.00029792612034279016, ,0.0008813331234211713,0.0011842818624938798,-0.0051191552576353525,-0.002666911426044414,0.0005801703456527699,0.00026420878100236265, ,0.005327759581291836, ,0.002729287575321708, ,2.8932509947493246e-05, ,0.13288506456678115,-0.2221057974626969,0.09383972939000002,3.000872781207028,0.25482707206254646,-0.22233320613884602, ,0.0022524094485506384,-0.00038986737164182215,0.005318467953255426,0.0008809599793378214,-0.0025620857921228165,0.003400199179596903, ,1.285201072692871
0.010876131375800388,0.021403818624744164,-0.08376285760662606, ,0.01099022957861509,0.02149652203616614,-0.08403084933441538, ,0.0003056663025888147, ,0.001037659138429333,0.0013470501747523255,-0.005829619211491364,-0.002124615166320703,0.0009499442681063815,-0.003982561135197554, ,0.006072539897922068, ,0.0023273111061023013, ,2.9229017779632012e-05, ,0.13291595549827803,-0.2221057974626969,0.09389676615,3.0010824711505126,0.25482707206254646,-0.22233320613884602, ,0.002850748184661466,-0.0003657198664432499,0.006040504937428897,0.0004426277228705923,-0.0025620857921228165,0.003400199179596903, ,1.2991249561309814
0.010890563792590421,0.021422159824255018,-0.08384257010562085, ,0.011005967595820832,0.02151040548989756,-0.08409460457183286, ,0.0002909066988976231, ,0.001215235926721117,0.0015955267252292795,-0.006938428711857968,-0.0021146549084473084,0.0005153517592096818,-0.0038259006367301423, ,0.007222485505561754, ,0.00217654238112075, ,2.9493181301528844e-05, ,0.13295456916264917,-0.2221057974626969,0.09398232129,3.0015018510374816,0.25482707206254646,-0.22233320613884602, ,0.0031948812413863962,-0.0002990698438769399,0.007210869859665008,0.005082361535368808,-0.0024764925748341693,0.003330403650164397, ,1.3177719116210938
0.010909988267632295,0.02144857921043321,-0.08395461848986896, ,0.011021865865976364,0.021524060883758175,-0.08415825999916461, ,0.00024430297650127866, ,0.0007815533528469259,0.0010454655353658933,-0.004691054823689078,-0.006201095986871984,-0.0032064422259571648,0.023954793386911238, ,0.004869272962962821, ,0.006981035805315195, ,2.9668293543831977e-05, ,0.1330009055598945,-0.22211352019557112,0.09409898739000001,3.001711540980966,0.25482707206254646,-0.2221698486585649, ,0.0023816423860971315,-2.2313818125021284e-06,0.00486079082087275,-0.022847462607819283,-0.0023004672759926775,0.005142557155156444, ,1.329360008239746
0.01091744558437148,0.02145686064152411,-0.08399062630328266, ,0.011037923666057345,0.021537489387609705,-0.0842218159919538, ,0.0002728820899397765, ,0.000726945085308936,0.000772550401583161,-0.0034639234593253597,-0.005890182257770528,-0.004310389033783813,0.02264347488600746, ,0.003622712935371182, ,0.007298883486781803, ,2.9891484623080397e-05, ,0.1330317964913914,-0.22211352019557112,0.09413657980000001,3.001711540980966,0.25482707206254646,-0.2221698486585649, ,0.0036281548981767844,-2.795614967171964e-05,0.003607067826086957,-0.021552408119631876,-0.0022140675617046968,0.004966849761926436, ,1.340325117111206
0.010924212108041266,0.02146465413893999,-0.0840214563729493, ,0.011054140274590299,0.021550692168873797,-0.08428527292473502, ,0.0003064034008521906, ,0.0006499824041330182,0.0007418079454991812,-0.003412412842395425,-0.0058726815727006415,-0.0015280451424355638,0.020143129654308072, ,0.0035520863672824005, ,0.0060682213496995735, ,3.0170251901476116e-05, ,0.13310902382013365,-0.22212124292844534,0.09422472752000001,3.001711540980966,0.25482707206254646,-0.22200649117828378, ,0.0026401973940004017,0.00015667461488848224,0.0036375454487325874,-0.014939513337761182,-0.0020263286434772337,0.0046673093493588705, ,1.356003999710083
0.010943122127696733,0.021485786789158072,-0.08411335306065139, ,0.01107051497165101,0.021563670392534248,-0.08434863117103471, ,0.0002786585394190558, ,0.0008786040343653558,0.0010113991193226772,-0.004557110625670749,-0.004826264004059004,-0.001983779926907783,0.014909332587585006, ,0.004749961103248217, ,0.005218065261176014, ,3.0395264718222023e-05, ,0.13313991475163053,-0.22212124292844534,0.09426491251,3.001711540980966,0.25482707206254646,-0.22192481243814322, ,0.0034640712552960313,0.00014401890847377515,0.004736488706512043,-0.013367952732294148,-0.001959425692752581,0.005336529230738, ,1.368412971496582
0.010952772015094252,0.021497780996038614,-0.08416565130827586, ,0.01108704703886353,0.021576425221138767,-0.0844118911033724, ,0.00029128805818129486, ,0.0008914339024576696,0.0012173026198393274,-0.0054657487733193785,-0.004572056996060454,-0.00042526829706419564,0.013637690436835541, ,0.005670175457934338, ,0.004591791961929443, ,3.063839165467958e-05, ,0.13317080568312745,-0.22212124292844534,0.09431935669000001,3.001711540980966,0.25482707206254646,-0.22192481243814322, ,0.002154595731690362,0.00013270240914494417,0.005662570750088874,-0.012064333392090692,-0.0018937446878622027,0.005282970775346337, ,1.379188060760498
0.010958962828764659,0.021507205015730453,-0.08420692379485319, ,0.01110373575939848,0.021588957814801274,-0.08447505309326175, ,0.00031549333157024085, ,0.0008610867441634891,0.0012941970220030797,-0.005807455020914501,-0.004418549061163525,0.0006254428427300606,0.01290110608575901, ,0.006011900708817534, ,0.004462594307078867, ,3.0919189878376545e-05, ,0.13317852841600167,-0.22212124292844534,0.09436213426000001,3.001711540980966,0.25482707206254646,-0.22192481243814322, ,0.0012449265586625404,0.0001258045275850323,0.006006339185520362,-0.011310156915014233,-0.0018505277816842987,0.005247730286173584, ,1.3903939723968506
0.010974140189707403,0.021525682189555324,-0.08429054754421, ,0.011120580417972014,0.021601269331203776,-0.08453811751121214, ,0.000297403841599621, ,0.0011040503490551707,0.0013707404628255503,-0.006062474579939191,-0.004395580527020339,1.2612853502480016e-05,0.012512609731642855, ,0.006312800853985885, ,0.004395597691354353, ,3.116414338130577e-05, ,0.13322486481324702,-0.22211352019557112,0.09444898569000001,3.001711540980966,0.25482707206254646,-0.2217614549578621, ,0.0036439123606762905,0.0,0.006300953924050633,-0.0101053340981797,-0.001772061890459281,0.006965191947085532, ,1.4044411182403564
0.010989284240433266,0.021541873598996068,-0.08436397476309332, ,0.011137580300844165,0.02161336092559838,-0.08460108472672848, ,0.0002886577458742523, ,0.001300048908007932,0.0013170106366961398,-0.005653603069654486,-0.0038647124305481923,-0.002725830643823784,0.011705619423419402, ,0.005948770616656018, ,0.004729286319694618, ,3.139005669587673e-05, ,0.13328664667624082,-0.2221057974626969,0.09452546680000001,3.001711540980966,0.25482707206254646,-0.2217614549578621, ,0.006536033364323985,-0.0003479264315904858,0.005919290791527314,-0.009236103015158087,-0.0017068138563845322,0.0069119865503621016, ,1.41538405418396
0.0110017254270166,0.021554152542443836,-0.08441718414538864, ,0.011154734695817643,0.02162523375080955,-0.0846639551083135, ,0.00029893190305589943, ,0.0011729669201237239,0.0012592627509412668,-0.0054094418686580666,-0.003995305099549875,-0.0003430222367620658,0.011722272019477776, ,0.005676588359393658, ,0.004010002800680973, ,3.162948607121655e-05, ,0.13334842853923462,-0.2221057974626969,0.09458120727000001,3.001711540980966,0.25482707206254646,-0.22167977621772153, ,0.0054149695361569,-0.0003479264315904858,0.005654530181043664,-0.008667341662798698,-0.0016594069152112366,0.008197271375358594, ,1.4262809753417969
0.01101301456723187,0.021567374911599147,-0.08447165055710777, ,0.011172042892236583,0.0216368889572359,-0.08472672902346835, ,0.000308524285422492, ,0.0011602214590726379,0.0011720611988916847,-0.005312614671041844,-0.004870812418752337,0.0009862594959183634,0.011720161484710475, ,0.005562707607901847, ,0.004969659664403673, ,3.193435431432815e-05, ,0.13339476493647995,-0.22211352019557112,0.09463824403000001,3.001711540980966,0.25482707206254646,-0.22159809747758097, ,0.00539815710551683,0.0003827567853821836,0.005538529735744089,-0.00814808799028425,-0.0016128112472588699,0.009552889001472687, ,1.4360589981079102
0.01101301456723187,0.021567374911599147,-0.08447165055710777, ,0.011189504180984964,0.021648327692852402,-0.0847894068386937, ,0.00037238554086143884, ,0.0011602214590726379,0.0011720611988916847,-0.005312614671041844,-0.004870812418752337,0.0009862594959183634,0.011720161484710475, ,0.005562707607901847, ,0.004969659664403673, ,3.23414227396262e-05, ,0.13344882406659953,-0.22211352019557112,0.09468879934,3.0015018510374816,0.25482707206254646,-0.2215164187374404, ,0.005099777098946452,0.0003827567853821836,0.005771308521739132,0.0,-0.0015729775563117527,0.008267694854562496, ,1.44566011428833
0.011036510865859632,0.021591780577928887,-0.08458098360095816, ,0.011207117854485476,0.02165955110321229,-0.08485198891949049, ,0.00032732777355118684, ,0.0011611872491295383,0.0012263900938186082,-0.005484446088331021,-0.003425425743651433,0.0025111803766047136,0.0034944385366764935, ,0.005738600646984147, ,0.004247300724817288, ,3.26686327934984e-05, ,0.1335028831967191,-0.2221057974626969,0.09475231755,3.0015018510374816,0.25482707206254646,-0.22143473999729985, ,0.00491152094741632,0.0002447399046039962,0.005717448499641064,0.0,-0.0015272040773293655,0.008679551000870474, ,1.454690933227539
0.01104935599497359,0.021605113654235432,-0.08464195830604472, ,0.011224883206697988,0.02167056033144912,-0.08491447563036174, ,0.0003306943629198433, ,0.0013167884469648802,0.0013595300312324154,-0.006250975845598026,-0.0038547915962477202,0.0018827704224318859,0.0034222078297486587, ,0.006531229037641611, ,0.0042900155209387985, ,3.2997072582900454e-05, ,0.13355694232683868,-0.22209807472982268,0.09481583576000001,3.0015018510374816,0.25482707206254646,-0.22143473999729985, ,0.005515848060763302,0.0007253815756696529,0.006506867450980393,0.0,-0.001485679542663465,0.008645690527187482, ,1.4642670154571533
0.011062169919030303,0.021619456472649724,-0.08470402711844685, ,0.01124279953311827,0.021681356518278887,-0.08497686733481258, ,0.0003330172019595339, ,0.0013982259574264648,0.001529957535350777,-0.006966374275397487,-0.003562529237682861,0.002238129729484282,0.00226595076518784, ,0.007268161833154077, ,0.004207234584399086, ,3.332501534248925e-05, ,0.133603278724084,-0.22209807472982268,0.09488065026,3.001711540980966,0.25482707206254646,-0.22143473999729985, ,0.0051537667956362216,0.0006517963057837267,0.0071945851490514915,0.0011574489752574021,-0.001450653550116673,0.00853957943722626, ,1.472947120666504
0.011075161010533494,0.02163228239610919,-0.08476241547386074, ,0.011260866130776724,0.021691940802002152,-0.08503916439535224, ,0.000338578621039414, ,0.0016639779337700136,0.001672572190955172,-0.007368924863402825,-0.0024316891380560084,-0.0008768339765563616,-0.0008005691441935196, ,0.007737400980982338, ,0.0025849425832189664, ,3.365771965313667e-05, ,0.13365733785420358,-0.22209035199694846,0.09494157589,3.0019212309244505,0.25482707206254646,-0.22135306125715928, ,0.0076848071683909775,0.0001622807968893813,0.00770252007736944,0.0037291472032547333,-0.001421360529366029,0.00702844442377769, ,1.4828829765319824
0.011092646842693872,0.021649700171065572,-0.08483791700488502, ,0.011279082298236865,0.021702314318505733,-0.08510136717349479, ,0.00032700522768740393, ,0.0015221509213234276,0.0014094630052891113,-0.006211055692556748,-0.00247465928885581,-0.0007305366938731019,-0.0005592851356886929, ,0.006548338889108134, ,0.0025802351082244287, ,3.3967501213643684e-05, ,0.13374228791582005,-0.22209035199694846,0.09502064958,3.0019212309244505,0.25482707206254646,-0.22118970377687816, ,0.007834940405599662,0.0001622807968893813,0.006506867450980393,0.0036442791115478606,-0.0013839402319620734,0.0073810778485670445, ,1.4926249980926514
0.011110148762123703,0.021665314486927705,-0.08490848362290701, ,0.011297447335594133,0.021712478201264918,-0.08516347602976027, ,0.0003198848216576651, ,0.001588319403093552,0.0013680719981582687,-0.006155254872743611,-0.002570870920530364,-0.0026875763981280294,-0.0009142158649675411, ,0.006502425860155744, ,0.003719198213368354, ,3.426192492052863e-05, ,0.13383496071031076,-0.22208262926407424,0.09509453811000002,3.0019212309244505,0.25482707206254646,-0.2211080250367376, ,0.008680585007881558,0.0005052238362036722,0.006451523499392467,0.0034236473565750145,-0.001346990227747489,0.006166584270022453, ,1.502450942993164
0.01112630992360316,0.02168044744598279,-0.08497395544013624, ,0.011315960544474372,0.021722433581345735,-0.08522549132367518, ,0.00031780574926717494, ,0.0016706228854966503,0.0015024022768953128,-0.006743527321665188,-0.0034168354156052395,0.0011097510713490037,0.0011691956325243975, ,0.007107978205172708, ,0.0035925336118324317, ,3.454929860826322e-05, ,0.13391991077192722,-0.22208262926407424,0.09515805632,3.0019212309244505,0.25482707206254646,-0.22102634629659704, ,0.0087078631314599,0.0005052238362036722,0.0069467123942433505,0.003259800413331711,-0.0013177730605469103,0.010557463235477883, ,1.5114619731903076
0.01114349931366727,0.021695489094263068,-0.08504201134979254, ,0.011334621228032662,0.02173218158740672,-0.08528741341377408, ,0.00031320296647730834, ,0.0017478786640849455,0.0015773680855351345,-0.0070157141959032495,-0.0034397009709785115,0.0013361935980254597,0.00168896030446439, ,0.0074002307788491655, ,0.0036901136980663513, ,3.4825769022235194e-05, ,0.1340125835664179,-0.2220749065312,0.09523453743000002,3.0019212309244505,0.25482707206254646,-0.2208629888163159, ,0.009166348361762309,0.00037693902474261433,0.00735062829718505,0.003097816248535686,-0.0012872689398388073,0.011367953454702269, ,1.5203609466552734
0.01114349931366727,0.021695489094263068,-0.08504201134979254, ,0.011353428690951775,0.021741723345701038,-0.08534924265760137, ,0.0003749653663353598, ,0.0017478786640849455,0.0015773680855351345,-0.0070157141959032495,-0.0034397009709785115,0.0013361935980254597,0.00168896030446439, ,0.0074002307788491655, ,0.0036901136980663513, ,3.5195725521837105e-05, ,0.1340125835664179,-0.2220749065312,0.09523453743000002,3.0019212309244505,0.25482707206254646,-0.2208629888163159, ,0.009166348361762309,0.00037693902474261433,0.00735062829718505,0.003097816248535686,-0.0012872689398388073,0.011367953454702269, ,1.5292859077453613
0.01116052891683067,0.021712049124592403,-0.08511374437355965, ,0.011372382239441007,0.021751059980078334,-0.08541097941171087, ,0.00036708629101553787, ,0.001734343559082173,0.0016389195942877529,-0.007287085299149176,-0.0032788677799132212,0.0012611967754760497,0.0015159904162515532, ,0.007667830017322123, ,0.0035130571695658488, ,3.554877293046143e-05, ,0.1340975336280344,-0.2220749065312,0.09530972225,3.0019212309244505,0.25482707206254646,-0.2208629888163159, ,0.00857661950599288,0.00036590868767424954,0.007625089286740067,0.00295657579239105,-0.001259252457868433,0.010642976201535283, ,1.538701057434082
0.01118475933589101,0.021733057389726064,-0.08521035940719207, ,0.01139148118123468,0.021760192611987233,-0.08547262403166768, ,0.00033504175095170913, ,0.0016120533252348558,0.0014108347306949571,-0.006391536706174842,-0.0028860648461047095,-0.00349316001278663,0.0017714935938952722, ,0.006740987466767478, ,0.0045311727515338, ,3.584775999903485e-05, ,0.134221097354022,-0.22205946106545155,0.09541083287,3.0021309208679354,0.25482707206254646,-0.22078131007617535, ,0.008605408772449294,0.0006235552055566237,0.006692777949579833,0.0005171893293997762,-0.0012212957646046373,0.00587303470989278, ,1.5477449893951416
0.011199872803626606,0.021745339739816925,-0.08527264833841658, ,0.011410724825590886,0.02176912236047667,-0.08553417687204912, ,0.00033678088145833965, ,0.0016259818534210574,0.0013130852431642783,-0.006628540515224199,-0.004507841804512462,-0.003286446370186487,0.0015438808998107186, ,0.006950220083237584, ,0.005578651690343286, ,3.620152172968491e-05, ,0.13429832468276423,-0.22203629286682888,0.09547564737000001,3.0021309208679354,0.25482707206254646,-0.22078131007617535, ,0.008384993949738786,0.0022870560315947606,0.006898575799047208,0.0005171893293997762,-0.0011976442392218473,0.005853748476844532, ,1.5543689727783203
0.011199872803626606,0.021745339739816925,-0.08527264833841658, ,0.011430112483290051,0.021777850342198906,-0.08559563828644617, ,0.000397982104983284, ,0.0016259818534210574,0.0013130852431642783,-0.006628540515224199,-0.004507841804512462,-0.003286446370186487,0.0015438808998107186, ,0.006950220083237584, ,0.005578651690343286, ,3.664603407959924e-05, ,0.13429832468276423,-0.22203629286682888,0.09547564737000001,3.0021309208679354,0.25482707206254646,-0.22078131007617535, ,0.008384993949738786,0.0022870560315947606,0.006898575799047208,0.0005171893293997762,-0.0011976442392218473,0.005853748476844532, ,1.5609970092773438
0.011219115019016748,0.02176120349773643,-0.08534696194709049, ,0.011449643466633599,0.021786377671410603,-0.08565700862746384, ,0.00038717702435881466, ,0.0019159671255410842,0.0015677176123183654,-0.007596689831301094,-0.0038914080199771326,0.0008340222630616694,-0.004954240286932616, ,0.007989891421735392, ,0.0039797769049458335, ,3.706994680455339e-05, ,0.13439872021012914,-0.22202084740108044,0.09555342477,3.00234061081142,0.25482707206254646,-0.2206996313360348, ,0.00997165795934445,0.001994786793069727,0.00792872649079144,0.009220972952193235,-0.0011720242739011676,0.010160099107251394, ,1.5678250789642334
0.011219115019016748,0.02176120349773643,-0.08534696194709049, ,0.011469317089442743,0.02179470545997511,-0.08571828824672256, ,0.00044900632324917797, ,0.0019159671255410842,0.0015677176123183654,-0.007596689831301094,-0.0038914080199771326,0.0008340222630616694,-0.004954240286932616, ,0.007989891421735392, ,0.0039797769049458335, ,3.7584096702324355e-05, ,0.13439872021012914,-0.22202084740108044,0.09555342477,3.00234061081142,0.25482707206254646,-0.2206996313360348, ,0.00997165795934445,0.001994786793069727,0.00792872649079144,0.009220972952193235,-0.0011720242739011676,0.010160099107251394, ,1.5778870582580566
0.01124969379877981,0.02178584885088779,-0.08546877292684499, ,0.011489132667056888,0.02180283481736509,-0.0857794774948594, ,0.0003926280979298299, ,0.002394983547398978,0.0018573178093495221,-0.00911563255665891,-0.0041163699238954245,-0.004263614862512733,-0.006027192570689576, ,0.009606265275603135, ,0.005926453417106228, ,3.800815095660141e-05, ,0.13456089760048787,-0.2219822337367093,0.09568046119000001,3.00234061081142,0.25482707206254646,-0.2204545951156131, ,0.013085623491239767,0.002699017528309014,0.009521106706515244,0.009220972952193235,-0.0011387326184473354,0.007899266415466413, ,1.5847620964050293
0.01124969379877981,0.02178584885088779,-0.08546877292684499, ,0.011509089516332489,0.021810766850663757,-0.08584057672152935, ,0.0004540320547485575, ,0.002394983547398978,0.0018573178093495221,-0.00911563255665891,-0.0041163699238954245,-0.004263614862512733,-0.006027192570689576, ,0.009606265275603135, ,0.005926453417106228, ,3.852098293530239e-05, ,0.13456089760048787,-0.2219822337367093,0.09568046119000001,3.00234061081142,0.25482707206254646,-0.2204545951156131, ,0.013085623491239767,0.002699017528309014,0.009521106706515244,0.009220972952193235,-0.0011387326184473354,0.007899266415466413, ,1.5913739204406738
0.011285335010586714,0.021814479526189534,-0.08560777214643912, ,0.011529186955641592,0.021818502664567474,-0.08590158627540526, ,0.0003818464339621133, ,0.0023954461394116184,0.001702082228939875,-0.008591024341019878,-0.0048277059222957535,-0.0038889214607330993,-0.004993493967805784, ,0.009079699628781284, ,0.006199226387396595, ,3.8920807988089494e-05, ,0.13475396592234348,-0.22194362007233817,0.09582564567000001,3.00234061081142,0.25482707206254646,-0.22029123763533198, ,0.013583873684292985,0.0031075978225261567,0.008984101252115061,0.008786616459686961,-0.0011051704117694553,0.009377886875593919, ,1.5985920429229736
0.011309347166333156,0.021829070249139562,-0.08569420264474607, ,0.011549424304870397,0.021826043361387496,-0.08596250650418052, ,0.000360046046340069, ,0.002222110372727587,0.0015070202804153957,-0.008060135164198422,-0.005397748856613932,0.0005220404820004457,-0.0028454319003349913, ,0.008495567285315015, ,0.0054229313996860835, ,3.9284460637380675e-05, ,0.13489297511407952,-0.22189728367509284,0.09591508968000001,3.00234061081142,0.254690435562781,-0.22009814099149497, ,0.012717360165970353,0.003985845217997339,0.008401271898734177,0.008230070561981974,0.0,0.012994920782431663, ,1.6051990985870361
0.011309347166333156,0.021829070249139562,-0.08569420264474607, ,0.011569800885418213,0.021833390041052076,-0.08602333775456866, ,0.0004197436371231051, ,0.002222110372727587,0.0015070202804153957,-0.008060135164198422,-0.005397748856613932,0.0005220404820004457,-0.0028454319003349913, ,0.008495567285315015, ,0.0054229313996860835, ,3.9733702088587463e-05, ,0.13489297511407952,-0.22189728367509284,0.09591508968000001,3.00234061081142,0.254690435562781,-0.22009814099149497, ,0.012717360165970353,0.003985845217997339,0.008401271898734177,0.008230070561981974,0.0,0.012994920782431663, ,1.6119029521942139
0.011331689805274625,0.021844501130762018,-0.08577225485123974, ,0.01159031602019571,0.02184054380110856,-0.08608408037230483, ,0.0004051398957025971, ,0.002404452283355339,0.00166338217223593,-0.008560210899365627,-0.005370247740381097,-0.0002431380200017979,-0.0007763779648555736, ,0.009045741632141785, ,0.005375744685656273, ,4.0157315109975367e-05, ,0.1350165388400671,-0.22186639274359593,0.09599675595000001,3.002759990698389,0.254690435562781,-0.2200164622513544, ,0.014046320538553994,0.0035458445036094157,0.008943745940482875,0.006619541428636776,0.0,0.014038173699258884, ,1.6212971210479736
0.01135937011988379,0.021863307863254286,-0.085871658168653, ,0.011610969033623878,0.02184750573672539,-0.08614473470214824, ,0.0003716483737941118, ,0.002527061952588402,0.001701891514301561,-0.008709540601748394,-0.006033918254894741,0.001735926056422134,0.0007646323011494887, ,0.009227056645115785, ,0.006278658986131973, ,4.052778181862461e-05, ,0.1351709934975516,-0.2218200563463506,0.09609268141,3.002759990698389,0.254690435562781,-0.21985310477107328, ,0.01491152444350578,0.003606988986341645,0.009159753605520415,0.006619541428636776,0.0,0.017581316212032787, ,1.6285109519958496
0.011384842287993475,0.021879067991922754,-0.08595460055321613, ,0.011631759251632486,0.021854276940693966,-0.08620530108788076, ,0.00035275110380389376, ,0.0025601832566665723,0.0014976367250816827,-0.008082102795488162,-0.006970756389180089,0.001503629295978438,0.0012069453473096106, ,0.008609171833856425, ,0.00713108064830886, ,4.086723520826928e-05, ,0.13534089362078452,-0.22178144268197947,0.09618731058,3.002759990698389,0.254690435562781,-0.21968974729079216, ,0.016506686651325583,0.0042235151539180005,0.008463768076514347,0.006619541428636776,0.0,0.01882153775713199, ,1.635364055633545
0.011384842287993475,0.021879067991922754,-0.08595460055321613, ,0.011652686001658806,0.021860858503431144,-0.08626577987230999, ,0.0004109798158704124, ,0.0025601832566665723,0.0014976367250816827,-0.008082102795488162,-0.006970756389180089,0.001503629295978438,0.0012069453473096106, ,0.008609171833856425, ,0.00713108064830886, ,4.128884063260496e-05, ,0.13534089362078452,-0.22178144268197947,0.09618731058,3.002759990698389,0.254690435562781,-0.21968974729079216, ,0.016506686651325583,0.0042235151539180005,0.008463768076514347,0.006619541428636776,0.0,0.01882153775713199, ,1.6419579982757568
0.011409319829483023,0.021890980173373126,-0.08602651786222607, ,0.011673748612646287,0.021867251512980756,-0.08632617139726917, ,0.00040034718901604604, ,0.002553009472123357,0.0012690635634684598,-0.007439309769078222,-0.00084129147014595,-0.027958065374781193,-0.017350345625784313, ,0.007966913425736313, ,0.027970719834364922, ,4.17520614893846e-05, ,0.13550307101114326,-0.2217273835518599,0.09626249540000001,3.0029696806418733,0.254690435562781,-0.21952638981051104, ,0.01729171675628112,0.0051531784614592445,0.007789149887530563,0.01059146018692686,0.0,-0.014774664846992611, ,1.6463849544525146
0.011409319829483023,0.021890980173373126,-0.08602651786222607, ,0.011694946415043152,0.021873457055015928,-0.08638647600361929, ,0.0004598472242070862, ,0.002553009472123357,0.0012690635634684598,-0.007439309769078222,-0.00084129147014595,-0.027958065374781193,-0.017350345625784313, ,0.007966913425736313, ,0.027970719834364922, ,4.229907181093739e-05, ,0.13550307101114326,-0.2217273835518599,0.09626249540000001,3.0029696806418733,0.254690435562781,-0.21952638981051104, ,0.01729171675628112,0.0051531784614592445,0.007789149887530563,0.01059146018692686,0.0,-0.014774664846992611, ,1.6507670879364014
0.011409319829483023,0.021890980173373126,-0.08602651786222607, ,0.011716278740801,0.021879476212841063,-0.08644669403124883, ,0.0005204845121231621, ,0.002553009472123357,0.0012690635634684598,-0.007439309769078222,-0.00084129147014595,-0.027958065374781193,-0.017350345625784313, ,0.007966913425736313, ,0.027970719834364922, ,4.293079118557693e-05, ,0.13550307101114326,-0.2217273835518599,0.09626249540000001,3.0029696806418733,0.254690435562781,-0.21952638981051104, ,0.01729171675628112,0.0051531784614592445,0.007789149887530563,0.01059146018692686,0.0,-0.014774664846992611, ,1.6553480625152588
0.01143656651553564,0.021904143761897296,-0.08610718321395255, ,0.011737744923373577,0.02188531006739393,-0.08650682581907616, ,0.0005007767498860403, ,0.002899062291182571,0.001289020234987298,-0.00842959067983557,-0.008998523114294374,-0.003675231988161237,-0.004501791753006565, ,0.009006893713369452, ,0.009720118612561978, ,4.3530379577939486e-05, ,0.13568841660012462,-0.2216656016888661,0.09634675425000001,3.0029696806418733,0.254690435562781,-0.21944471107037045, ,0.01966368453345851,0.007448179991982961,0.008790734834437087,0.01059146018692686,0.0,0.015529320387384336, ,1.6603119373321533
0.01143656651553564,0.021904143761897296,-0.08610718321395255, ,0.011759344297715326,0.021890959697247456,-0.0865668717050495, ,0.0005618476885033076, ,0.002899062291182571,0.001289020234987298,-0.00842959067983557,-0.008998523114294374,-0.003675231988161237,-0.004501791753006565, ,0.009006893713369452, ,0.009720118612561978, ,4.421451060005394e-05, ,0.13568841660012462,-0.2216656016888661,0.09634675425000001,3.0029696806418733,0.254690435562781,-0.21944471107037045, ,0.01966368453345851,0.007448179991982961,0.008790734834437087,0.01059146018692686,0.0,0.015529320387384336, ,1.6650669574737549
0.01143656651553564,0.021904143761897296,-0.08610718321395255, ,0.011781076200280047,0.021896426178612035,-0.0866268320261485, ,0.0006235233532042838, ,0.002899062291182571,0.001289020234987298,-0.00842959067983557,-0.008998523114294374,-0.003675231988161237,-0.004501791753006565, ,0.009006893713369452, ,0.009720118612561978, ,4.4983324295462235e-05, ,0.13568841660012462,-0.2216656016888661,0.09634675425000001,3.0029696806418733,0.254690435562781,-0.21944471107037045, ,0.01966368453345851,0.007448179991982961,0.008790734834437087,0.01059146018692686,0.0,0.015529320387384336, ,1.6697840690612793
0.01150325391920068,0.021941750341890387,-0.0863149477495823, ,0.011802939969019599,0.021901710585337655,-0.08668670711838582, ,0.00047918674736897415, ,0.002899062291182571,0.001289020234987298,-0.00842959067983557,-0.008998523114294374,-0.003675231988161237,-0.004501791753006565, ,0.009006893713369452, ,0.009720118612561978, ,4.5540946213482364e-05, ,0.13568841660012462,-0.2216656016888661,0.09634675425000001,3.0029696806418733,0.254690435562781,-0.21944471107037045, ,0.01966368453345851,0.007448179991982961,0.008790734834437087,0.01059146018692686,0.0,0.015529320387384336, ,1.6751151084899902
0.01150325391920068,0.021941750341890387,-0.0863149477495823, ,0.011824934943382518,0.021906813988915568,-0.08674649731680716, ,0.0005393832209568776, ,0.0035402923743281453,0.002140772500342179,-0.011494110824049355,-0.0069802808540056155,-0.0075495725917804745,0.0006462709071045, ,0.012216020654430634, ,0.01028203124378275, ,4.618137668281081e-05, ,0.1361208896410812,-0.22153431523000428,0.09656453097,3.0031793705853578,0.25482707206254646,-0.21931109275364521, ,0.02223973319861045,0.005894444614780575,0.012030824410876134,0.005500034581398474,0.0011007880734868825,0.015157863950537854, ,1.6797490119934082
0.01150325391920068,0.021941750341890387,-0.0863149477495823, ,0.01184706046431256,0.021911737458480428,-0.08680620295549236, ,0.0006003627161692212, ,0.0035402923743281453,0.002140772500342179,-0.011494110824049355,-0.0069802808540056155,-0.0075495725917804745,0.0006462709071045, ,0.012216020654430634, ,0.01028203124378275, ,4.69050233534712e-05, ,0.1361208896410812,-0.22153431523000428,0.09656453097,3.0031793705853578,0.25482707206254646,-0.21931109275364521, ,0.02223973319861045,0.005894444614780575,0.012030824410876134,0.005500034581398474,0.0011007880734868825,0.015157863950537854, ,1.6841859817504883
0.011542371607485648,0.021963071074119246,-0.08644317460262084, ,0.011869315874247494,0.021916482060812637,-0.08686582436755796, ,0.0005363729239351399, ,0.004059150527328675,0.0021730490286731843,-0.013461131404079656,-0.010062740569003388,-0.008005822562087438,-0.01036387508715117, ,0.01422676715780608, ,0.012858907444623811, ,4.753366380407943e-05, ,0.13636029436018215,-0.2214416424355136,0.09669804884000001,3.0033890605288422,0.25482707206254646,-0.21922941401350465, ,0.02472562312623001,0.010492705312826403,0.013997198172231988,0.016090595108717357,0.0011007880734868825,0.014820471936882742, ,1.6885831356048584
0.011542371607485648,0.021963071074119246,-0.08644317460262084, ,0.011891700517117763,0.021921048860339992,-0.08692536188515657, ,0.000596909648937643, ,0.004059150527328675,0.0021730490286731843,-0.013461131404079656,-0.010062740569003388,-0.008005822562087438,-0.01036387508715117, ,0.01422676715780608, ,0.012858907444623811, ,4.824448862182659e-05, ,0.13636029436018215,-0.2214416424355136,0.09669804884000001,3.0033890605288422,0.25482707206254646,-0.21922941401350465, ,0.02472562312623001,0.010492705312826403,0.013997198172231988,0.016090595108717357,0.0011007880734868825,0.014820471936882742, ,1.692918062210083
0.011584415724942447,0.02198546490224416,-0.0865788196573473, ,0.01191421373834495,0.02192543891914007,-0.08698481583947844, ,0.0005265004731212571, ,0.004328143528455144,0.0024478248782995402,-0.014695784410532115,-0.008830792866161249,-0.009608051909020792,-0.01754595104938353, ,0.015514211307010391, ,0.013049784622755101, ,4.885184949171021e-05, ,0.13661514454503157,-0.22134124690814866,0.09683934445,3.0038084404158116,0.25482707206254646,-0.21922941401350465, ,0.02560629831583129,0.010577794913044777,0.015286767293666029,0.02242796370716651,0.0011007880734868825,0.012419568400055668, ,1.6982331275939941
0.011584415724942447,0.02198546490224416,-0.0865788196573473, ,0.011936854884840604,0.021929653296941767,-0.08704418656075305, ,0.0005864253162181893, ,0.004328143528455144,0.0024478248782995402,-0.014695784410532115,-0.008830792866161249,-0.009608051909020792,-0.01754595104938353, ,0.015514211307010391, ,0.013049784622755101, ,4.954018979767467e-05, ,0.13661514454503157,-0.22134124690814866,0.09683934445,3.0038084404158116,0.25482707206254646,-0.21922941401350465, ,0.02560629831583129,0.010577794913044777,0.015286767293666029,0.02242796370716651,0.0011007880734868825,0.012419568400055668, ,1.703023910522461
0.01163038678425476,0.022009763728803613,-0.0867296249224434, ,0.011959623305004791,0.021933693051128026,-0.08710347437824963, ,0.000503931394342739, ,0.004638785844540353,0.0023281078215643316,-0.014487707210877524,-0.007739621091005186,-0.02213539473091131,-0.02199623334556209, ,0.01538934957587388, ,0.023449451939535747, ,5.0108800773443474e-05, ,0.1369008856613779,-0.2212254059150353,0.09699619554000001,3.0038084404158116,0.25482707206254646,-0.21906605653322353, ,0.02935259559494921,0.011435012272387872,0.0150983995450237,0.02242796370716651,0.0011007880734868825,0.002441686546109183, ,1.7082300186157227
0.01163038678425476,0.022009763728803613,-0.0867296249224434, ,0.011982518348724798,0.02193755923673709,-0.08716267962027809, ,0.0005628023620129792, ,0.004638785844540353,0.0023281078215643316,-0.014487707210877524,-0.007739621091005186,-0.02213539473091131,-0.02199623334556209, ,0.01538934957587388, ,0.023449451939535747, ,5.0756678589222316e-05, ,0.1369008856613779,-0.2212254059150353,0.09699619554000001,3.0038084404158116,0.25482707206254646,-0.21906605653322353, ,0.02935259559494921,0.011435012272387872,0.0150983995450237,0.02242796370716651,0.0011007880734868825,0.002441686546109183, ,1.7128050327301025
0.011677790057631638,0.022032212674182188,-0.0868753043420817, ,0.012005539367373695,0.021941252906465425,-0.08722180261419082, ,0.00048554540668622684, ,0.004780714918683913,0.002148026509787737,-0.014235426966140264,-0.010745711918417581,-0.01641495192901928,-0.018429223882715715, ,0.015169595707493039, ,0.019619388035159172, ,5.129303620026671e-05, ,0.13720979497634686,-0.22110184218904771,0.09714786147000001,3.0038084404158116,0.25482707206254646,-0.21873934157266126, ,0.03124693498797194,0.012780732869827713,0.014831295642458102,0.02242796370716651,0.0011007880734868825,0.011098550656256884, ,1.7184839248657227
0.011677790057631638,0.022032212674182188,-0.0868753043420817, ,0.012028685713809089,0.021944775110668863,-0.08728084368638292, ,0.0005433555454889705, ,0.004780714918683913,0.002148026509787737,-0.014235426966140264,-0.010745711918417581,-0.01641495192901928,-0.018429223882715715, ,0.015169595707493039, ,0.019619388035159172, ,5.190692126027845e-05, ,0.13720979497634686,-0.22110184218904771,0.09714786147000001,3.0038084404158116,0.25482707206254646,-0.21873934157266126, ,0.03124693498797194,0.012780732869827713,0.014831295642458102,0.02242796370716651,0.0011007880734868825,0.011098550656256884, ,1.722952127456665
0.011724223705609469,0.022052942063535395,-0.08701450372513507, ,0.012051956742371703,0.021948126897365156,-0.08733980316229403, ,0.0004735133432762256, ,0.004801836686974884,0.0017578122976040465,-0.013540236518340517,-0.016331142532743925,-0.00400989425386531,-0.01207108053340342, ,0.014473615464512939, ,0.016816212808667467, ,5.2420392789105775e-05, ,0.13751870429131585,-0.22096283299731168,0.09729304595,3.0038084404158116,0.2549637085623119,-0.21860572325593597, ,0.03246559752256955,0.015273932328741475,0.01407138826855124,0.02242796370716651,0.0009871773634765205,0.026602186062543897, ,1.7279810905456543
0.011724223705609469,0.022052942063535395,-0.08701450372513507, ,0.012075351808884017,0.021951309312236076,-0.08739868136640835, ,0.0005302948435541823, ,0.004801836686974884,0.0017578122976040465,-0.013540236518340517,-0.016331142532743925,-0.00400989425386531,-0.01207108053340342, ,0.014473615464512939, ,0.016816212808667467, ,5.3009664337548955e-05, ,0.13751870429131585,-0.22096283299731168,0.09729304595,3.0038084404158116,0.2549637085623119,-0.21860572325593597, ,0.03246559752256955,0.015273932328741475,0.01407138826855124,0.02242796370716651,0.0009871773634765205,0.026602186062543897, ,1.732485055923462
0.011771309478698748,0.022068009355086876,-0.08714319841886735, ,0.012098870270648973,0.021954323398629114,-0.0874574786222572, ,0.00046796646820209076, ,0.004659774853875314,0.0012820196738049378,-0.012139897577003542,-0.021006819512124773,0.0006872726996821924,0.0013203165561148063, ,0.013066529352240713, ,0.021018052861765654, ,5.35095913258459e-05, ,0.13784305907203329,-0.22080065560695294,0.09742656382,3.0040181303592957,0.2549637085623119,-0.21836068703551428, ,0.033215590324981024,0.016915675857124918,0.01259194586561265,0.012242668063771233,0.0009871773634765205,0.035328038560138844, ,1.7368640899658203
0.011771309478698748,0.022068009355086876,-0.08714319841886735, ,0.012122511486448538,0.021957170197559626,-0.08751619525241856, ,0.0005241705895298465, ,0.004659774853875314,0.0012820196738049378,-0.012139897577003542,-0.021006819512124773,0.0006872726996821924,0.0013203165561148063, ,0.013066529352240713, ,0.021018052861765654, ,5.4158778909575557e-05, ,0.13784305907203329,-0.22080065560695294,0.09742656382,3.0040181303592957,0.2549637085623119,-0.21836068703551428, ,0.033215590324981024,0.016915675857124918,0.01259194586561265,0.012242668063771233,0.0009871773634765205,0.035328038560138844, ,1.7392101287841797
0.011771309478698748,0.022068009355086876,-0.08714319841886735, ,0.012146274816542445,0.021959850747713075,-0.08757483157851893, ,0.0005818973048950202, ,0.004659774853875314,0.0012820196738049378,-0.012139897577003542,-0.021006819512124773,0.0006872726996821924,0.0013203165561148063, ,0.013066529352240713, ,0.021018052861765654, ,5.488569147980344e-05, ,0.13784305907203329,-0.22080065560695294,0.09742656382,3.0040181303592957,0.2549637085623119,-0.21836068703551428, ,0.033215590324981024,0.016915675857124918,0.01259194586561265,0.012242668063771233,0.0009871773634765205,0.035328038560138844, ,1.741908073425293
0.011771309478698748,0.022068009355086876,-0.08714319841886735, ,0.012170159622666708,0.02196236608544696,-0.08763338792123439, ,0.0006407243447804367, ,0.004659774853875314,0.0012820196738049378,-0.012139897577003542,-0.021006819512124773,0.0006872726996821924,0.0013203165561148063, ,0.013066529352240713, ,0.021018052861765654, ,5.5691521814467306e-05, ,0.13784305907203329,-0.22080065560695294,0.09742656382,3.0040181303592957,0.2549637085623119,-0.21836068703551428, ,0.033215590324981024,0.016915675857124918,0.01259194586561265,0.012242668063771233,0.0009871773634765205,0.035328038560138844, ,1.746088981628418
0.011811756097719246,0.022075373786026312,-0.0872383266773215, ,0.012194165268032457,0.021964717244792698,-0.08769186460029196, ,0.0006286278121388083, ,0.00470095838993187,0.0007050513290582667,-0.010623935955502529,-0.020641951155451085,-0.012639720502266784,-0.007529211765692642, ,0.011638905547649105, ,0.024204391059043918, ,5.6478522213264476e-05, ,0.13814424565412803,-0.22063847821659424,0.09752508186000002,3.00422782030278,0.2549637085623119,-0.21819732955523316, ,0.03589143024147911,0.019482024544953968,0.011000560441988952,0.01525995088144548,0.0009871773634765205,0.022474217285341658, ,1.7490301132202148
0.011811756097719246,0.022075373786026312,-0.0872383266773215, ,0.012218291117324382,0.021966905257457734,-0.08775026193446933, ,0.0006626566617534317, ,0.00470095838993187,0.0007050513290582667,-0.010623935955502529,-0.020641951155451085,-0.012639720502266784,-0.007529211765692642, ,0.011638905547649105, ,0.024204391059043918, ,5.7310042294938234e-05, ,0.13814424565412803,-0.22063847821659424,0.09752508186000002,3.00422782030278,0.2549637085623119,-0.21819732955523316, ,0.03589143024147911,0.019482024544953968,0.011000560441988952,0.01525995088144548,0.0009871773634765205,0.022474217285341658, ,1.751594066619873
0.011811756097719246,0.022075373786026312,-0.0872383266773215, ,0.012242536536699563,0.021968931152827782,-0.08780858024159745, ,0.0007225586123905378, ,0.00470095838993187,0.0007050513290582667,-0.010623935955502529,-0.020641951155451085,-0.012639720502266784,-0.007529211765692642, ,0.011638905547649105, ,0.024204391059043918, ,5.82213417060281e-05, ,0.13814424565412803,-0.22063847821659424,0.09752508186000002,3.00422782030278,0.2549637085623119,-0.21819732955523316, ,0.03589143024147911,0.019482024544953968,0.011000560441988952,0.01525995088144548,0.0009871773634765205,0.022474217285341658, ,1.7539520263671875
0.011811756097719246,0.022075373786026312,-0.0872383266773215, ,0.012266900893785966,0.021970795957968407,-0.08786681983856102, ,0.0007830050837847623, ,0.00470095838993187,0.0007050513290582667,-0.010623935955502529,-0.020641951155451085,-0.012639720502266784,-0.007529211765692642, ,0.011638905547649105, ,0.024204391059043918, ,0.0003254480039788366, ,0.13814424565412803,-0.22063847821659424,0.09752508186000002,3.00422782030278,0.2549637085623119,-0.21819732955523316, ,0.03589143024147911,0.019482024544953968,0.011000560441988952,0.01525995088144548,0.0009871773634765205,0.022474217285341658, ,1.7562251091003418
0.011880464014419822,0.02208567474005131,-0.08739193190771678, ,0.01229138355768112,0.02197250069762777,-0.08792498104129928, ,0.0006824988012631327, ,0.0054617644471794055,0.000919501565766462,-0.01276953362138008,-0.023799400532479965,0.0241569095395816,-0.03659409860479777, ,0.013918956243679918, ,0.033911169320465215, ,0.00032811256216752545, ,0.13866166875670108,-0.22034501436737372,0.09768452553000001,3.004856890133234,0.25510034506207735,-0.21790035375822678, ,0.03967263443079882,0.022653841384213603,0.012897823093117412,0.05747517528437042,0.0016222102112273054,0.058155571726186156, ,1.7585361003875732
0.011880464014419822,0.02208567474005131,-0.08739193190771678, ,0.012315983898950864,0.021974046394237952,-0.08798306416480717, ,0.0007426814948440095, ,0.0054617644471794055,0.000919501565766462,-0.01276953362138008,-0.023799400532479965,0.0241569095395816,-0.03659409860479777, ,0.013918956243679918, ,0.033911169320465215, ,0.0003311834431503142, ,0.13866166875670108,-0.22034501436737372,0.09768452553000001,3.004856890133234,0.25510034506207735,-0.21790035375822678, ,0.03967263443079882,0.022653841384213603,0.012897823093117412,0.05747517528437042,0.0016222102112273054,0.058155571726186156, ,1.7607800960540771
0.011880464014419822,0.02208567474005131,-0.08739193190771678, ,0.012340701289627927,0.021975434067917247,-0.0880410695231369, ,0.0008033374129448101, ,0.0054617644471794055,0.000919501565766462,-0.01276953362138008,-0.023799400532479965,0.0241569095395816,-0.03659409860479777, ,0.013918956243679918, ,0.033911169320465215, ,0.0003346551635164502, ,0.13866166875670108,-0.22034501436737372,0.09768452553000001,3.004856890133234,0.25510034506207735,-0.21790035375822678, ,0.03967263443079882,0.022653841384213603,0.012897823093117412,0.05747517528437042,0.0016222102112273054,0.058155571726186156, ,1.7630460262298584
0.011880464014419822,0.02208567474005131,-0.08739193190771678, ,0.012365535103210505,0.021976664736472435,-0.08809899742939843, ,0.0008643603380603417, ,0.0054617644471794055,0.000919501565766462,-0.01276953362138008,-0.023799400532479965,0.0241569095395816,-0.03659409860479777, ,0.013918956243679918, ,0.033911169320465215, ,0.0003385216246445078, ,0.13866166875670108,-0.22034501436737372,0.09768452553000001,3.004856890133234,0.25510034506207735,-0.21790035375822678, ,0.03967263443079882,0.022653841384213603,0.012897823093117412,0.05747517528437042,0.0016222102112273054,0.058155571726186156, ,1.7653279304504395
0.011880464014419822,0.02208567474005131,-0.08739193190771678, ,0.012390484714661037,0.021977739415400484,-0.08815684819576078, ,0.000925671689475823, ,0.0054617644471794055,0.000919501565766462,-0.01276953362138008,-0.023799400532479965,0.0241569095395816,-0.03659409860479777, ,0.013918956243679918, ,0.033911169320465215, ,0.0003427763352592275, ,0.13866166875670108,-0.22034501436737372,0.09768452553000001,3.004856890133234,0.25510034506207735,-0.21790035375822678, ,0.03967263443079882,0.022653841384213603,0.012897823093117412,0.05747517528437042,0.0016222102112273054,0.058155571726186156, ,1.7675609588623047
0.011946772150642467,0.022100398210298466,-0.08756358714748856, ,0.012415549500404745,0.021978659117890816,-0.08821462213345312, ,0.000811430319386854, ,0.007003009389516928,0.0018683352617695033,-0.01929701814246228,-0.023440363940008736,-0.011693622466816763,-0.034420979334257425, ,0.020613290041877157, ,0.026195205520336513, ,0.0003461479466558291, ,0.13913275546202877,-0.2200592732510274,0.09786211726,3.0050665800767185,0.2552369815618427,-0.21735834174079868, ,0.04709525635656118,0.02866111191738773,0.019935934317897377,0.04498811386250619,0.004453099764111025,0.02838539962207432, ,1.7706921100616455
0.011946772150642467,0.022100398210298466,-0.08756358714748856, ,0.012440728838328332,0.021979424854827078,-0.0882723195527656, ,0.0008723126643201813, ,0.007003009389516928,0.0018683352617695033,-0.01929701814246228,-0.023440363940008736,-0.011693622466816763,-0.034420979334257425, ,0.020613290041877157, ,0.026195205520336513, ,0.0003499062660677173, ,0.13913275546202877,-0.2200592732510274,0.09786211726,3.0050665800767185,0.2552369815618427,-0.21735834174079868, ,0.04709525635656118,0.02866111191738773,0.019935934317897377,0.04498811386250619,0.004453099764111025,0.02838539962207432, ,1.7729671001434326
0.011946772150642467,0.022100398210298466,-0.08756358714748856, ,0.012466022107778618,0.021980037634789555,-0.08832994076305087, ,0.0009334907874254309, ,0.007003009389516928,0.0018683352617695033,-0.01929701814246228,-0.023440363940008736,-0.011693622466816763,-0.034420979334257425, ,0.020613290041877157, ,0.026195205520336513, ,0.0003540451633823111, ,0.13913275546202877,-0.2200592732510274,0.09786211726,3.0050665800767185,0.2552369815618427,-0.21735834174079868, ,0.04709525635656118,0.02866111191738773,0.019935934317897377,0.04498811386250619,0.004453099764111025,0.02838539962207432, ,1.7751610279083252
0.011946772150642467,0.022100398210298466,-0.08756358714748856, ,0.012491428689561242,0.021980498464056884,-0.08838748607272456, ,0.0009949050877047594, ,0.007003009389516928,0.0018683352617695033,-0.01929701814246228,-0.023440363940008736,-0.011693622466816763,-0.034420979334257425, ,0.020613290041877157, ,0.026195205520336513, ,0.00035855826144091984, ,0.13913275546202877,-0.2200592732510274,0.09786211726,3.0050665800767185,0.2552369815618427,-0.21735834174079868, ,0.04709525635656118,0.02866111191738773,0.019935934317897377,0.04498811386250619,0.004453099764111025,0.02838539962207432, ,1.7773690223693848
0.012016372401096133,0.022126591371901146,-0.08777307186032955, ,0.012516947965939116,0.021980808346608215,-0.08844495578926673, ,0.0008504449426891113, ,0.0077602955459604005,0.0030238232396268844,-0.02428188945415044,-0.003510984524139747,-0.008080425093584687,-0.015433828605459953, ,0.025670524914943656, ,0.008809758263564539, ,0.00036199802844265544, ,0.13958839670160803,-0.21978125486755531,0.09807989398000001,3.0050665800767185,0.2556468910611391,-0.2172025230110446, ,0.0481955010454397,0.030582320837405984,0.025163999241706165,0.03159925740748771,0.02961519863879,0.0332747074333207, ,1.7796220779418945
0.012016372401096133,0.022126591371901146,-0.08777307186032955, ,0.012542579320631351,0.021980968284125203,-0.08850235021922309, ,0.0009110141220697945, ,0.0077602955459604005,0.0030238232396268844,-0.02428188945415044,-0.003510984524139747,-0.008080425093584687,-0.015433828605459953, ,0.025670524914943656, ,0.008809758263564539, ,0.000365810640203955, ,0.13958839670160803,-0.21978125486755531,0.09807989398000001,3.0050665800767185,0.2556468910611391,-0.2172025230110446, ,0.0481955010454397,0.030582320837405984,0.025163999241706165,0.03159925740748771,0.02961519863879,0.0332747074333207, ,1.7819809913635254
0.012016372401096133,0.022126591371901146,-0.08777307186032955, ,0.012568322138811696,0.02198097927599419,-0.0885596696682052, ,0.0009718989179917118, ,0.0077602955459604005,0.0030238232396268844,-0.02428188945415044,-0.003510984524139747,-0.008080425093584687,-0.015433828605459953, ,0.025670524914943656, ,0.008809758263564539, ,0.00036999055936111195, ,0.13958839670160803,-0.21978125486755531,0.09807989398000001,3.0050665800767185,0.2556468910611391,-0.2172025230110446, ,0.0481955010454397,0.030582320837405984,0.025163999241706165,0.03159925740748771,0.02961519863879,0.0332747074333207, ,1.7842941284179688
0.012016372401096133,0.022126591371901146,-0.08777307186032955, ,0.012594175807107272,0.021980842319308035,-0.088616914440893, ,0.0010330391391916536, ,0.0077602955459604005,0.0030238232396268844,-0.02428188945415044,-0.003510984524139747,-0.008080425093584687,-0.015433828605459953, ,0.025670524914943656, ,0.008809758263564539, ,0.00037453198799008823, ,0.13958839670160803,-0.21978125486755531,0.09807989398000001,3.0050665800767185,0.2556468910611391,-0.2172025230110446, ,0.0481955010454397,0.030582320837405984,0.025163999241706165,0.03159925740748771,0.02961519863879,0.0332747074333207, ,1.7866520881652832
0.012097839325600821,0.022157556986875212,-0.08803122057435449, ,0.012620139713597104,0.021980558408868176,-0.08867408484103424, ,0.0008469950751281135, ,0.008655959096502248,0.003545001523834605,-0.028561291176091335,-0.0026802681734623135,-0.011433120295538514,0.019246928050247126, ,0.030053951775594875, ,0.01174227708927736, ,0.0003777460225964694, ,0.1400903743384326,-0.21944917735396366,0.09834692972,3.005276270020203,0.2559201640606699,-0.21677192889731295, ,0.05214117668047844,0.0362894613990328,0.02955252601113173,0.0,0.04196028065962419,0.03991828523950417, ,1.7917070388793945
0.012097839325600821,0.022157556986875212,-0.08803122057435449, ,0.012646213247811018,0.02198012853718704,-0.08873118117144671, ,0.0009067191686518178, ,0.008655959096502248,0.003545001523834605,-0.028561291176091335,-0.0026802681734623135,-0.011433120295538514,0.019246928050247126, ,0.030053951775594875, ,0.01174227708927736, ,0.00038132016547522173, ,0.1400903743384326,-0.21944917735396366,0.09834692972,3.005276270020203,0.2559201640606699,-0.21677192889731295, ,0.05214117668047844,0.0362894613990328,0.02955252601113173,0.0,0.04196028065962419,0.03991828523950417, ,1.7941179275512695
0.012097839325600821,0.022157556986875212,-0.08803122057435449, ,0.012672395800727976,0.02197955369448938,-0.08878820373401904, ,0.0009668628750895648, ,0.008655959096502248,0.003545001523834605,-0.028561291176091335,-0.0026802681734623135,-0.011433120295538514,0.019246928050247126, ,0.030053951775594875, ,0.01174227708927736, ,0.000385249982318271, ,0.1400903743384326,-0.21944917735396366,0.09834692972,3.005276270020203,0.2559201640606699,-0.21677192889731295, ,0.05214117668047844,0.0362894613990328,0.02955252601113173,0.0,0.04196028065962419,0.03991828523950417, ,1.7965960502624512
0.012195897369832462,0.02219517782374916,-0.0883490257791949, ,0.012698686764774987,0.021978834868715002,-0.08884515282971109, ,0.0007387445432038555, ,0.009827404292844594,0.003731939985753347,-0.03137476554196647,-0.039480560335611065,0.014336777840087151,-0.04705334917011278, ,0.033088988561236675, ,0.04200270754641279, ,0.00038760661272417487, ,0.14066185657112523,-0.2190553179773782,0.09867489109000001,3.0061150297941412,0.2560568005604354,-0.2159848806594632, ,0.05793464075608717,0.037287599826511114,0.032375633170731714,0.07205972087791028,0.0,0.06428883088010788, ,1.7990450859069824
0.012195897369832462,0.02219517782374916,-0.0883490257791949, ,0.012725085533825566,0.021977973045520224,-0.0889020287585563, ,0.0007956320278737222, ,0.009827404292844594,0.003731939985753347,-0.03137476554196647,-0.039480560335611065,0.014336777840087151,-0.04705334917011278, ,0.033088988561236675, ,0.04200270754641279, ,0.00039030876779139043, ,0.14066185657112523,-0.2190553179773782,0.09867489109000001,3.0061150297941412,0.2560568005604354,-0.2159848806594632, ,0.05793464075608717,0.037287599826511114,0.032375633170731714,0.07205972087791028,0.0,0.06428883088010788, ,1.8012950420379639
0.012195897369832462,0.02219517782374916,-0.0883490257791949, ,0.012751591503198467,0.021976969208280708,-0.08895883181966134, ,0.0008533899323939856, ,0.009827404292844594,0.003731939985753347,-0.03137476554196647,-0.039480560335611065,0.014336777840087151,-0.04705334917011278, ,0.033088988561236675, ,0.04200270754641279, ,0.00039335535440061803, ,0.14066185657112523,-0.2190553179773782,0.09867489109000001,3.0061150297941412,0.2560568005604354,-0.2159848806594632, ,0.05793464075608717,0.037287599826511114,0.032375633170731714,0.07205972087791028,0.0,0.06428883088010788, ,1.8035039901733398
0.012195897369832462,0.02219517782374916,-0.0883490257791949, ,0.012778204069656301,0.0219758243380922,-0.08901556231120815, ,0.000911848667728278, ,0.009827404292844594,0.003731939985753347,-0.03137476554196647,-0.039480560335611065,0.014336777840087151,-0.04705334917011278, ,0.033088988561236675, ,0.04200270754641279, ,0.0003967441995857661, ,0.14066185657112523,-0.2190553179773782,0.09867489109000001,3.0061150297941412,0.2560568005604354,-0.2159848806594632, ,0.05793464075608717,0.037287599826511114,0.032375633170731714,0.07205972087791028,0.0,0.06428883088010788, ,1.8058099746704102
0.012294924582660108,0.022229848606539305,-0.0886506139360481, ,0.012804922631404266,0.021974539413773968,-0.0890722205304548, ,0.0007092481329411786, ,0.009669067628844428,0.002352900247903713,-0.027328092655209628,-0.01609758982781058,-0.009467545928453521,-0.049807686544658634, ,0.02908352895642953, ,0.01867489175359812, ,0.0003987734459062558, ,0.1412796752010632,-0.2186460131350443,0.09898729698000001,3.00653440968111,0.2564667100597317,-0.2155840257092874, ,0.06259692714938705,0.04469945433748034,0.02819258676106195,0.06750632753513496,0.027160019689138618,0.0396489035659426, ,1.8084840774536133
0.012294924582660108,0.022229848606539305,-0.0886506139360481, ,0.012831746588088618,0.021973115411870095,-0.08912880677373633, ,0.0007633860024742814, ,0.009669067628844428,0.002352900247903713,-0.027328092655209628,-0.01609758982781058,-0.009467545928453521,-0.049807686544658634, ,0.02908352895642953, ,0.01867489175359812, ,0.00040112578498088824, ,0.1412796752010632,-0.2186460131350443,0.09898729698000001,3.00653440968111,0.2564667100597317,-0.2155840257092874, ,0.06259692714938705,0.04469945433748034,0.02819258676106195,0.06750632753513496,0.027160019689138618,0.0396489035659426, ,1.8108561038970947
0.012294924582660108,0.022229848606539305,-0.0886506139360481, ,0.012858675340795522,0.021971553306651515,-0.08918532133646581, ,0.0008188060718533057, ,0.009669067628844428,0.002352900247903713,-0.027328092655209628,-0.01609758982781058,-0.009467545928453521,-0.049807686544658634, ,0.02908352895642953, ,0.01867489175359812, ,0.00040380322271724986, ,0.1412796752010632,-0.2186460131350443,0.09898729698000001,3.00653440968111,0.2564667100597317,-0.2155840257092874, ,0.06259692714938705,0.04469945433748034,0.02819258676106195,0.06750632753513496,0.027160019689138618,0.0396489035659426, ,1.8131310939788818
0.012294924582660108,0.022229848606539305,-0.0886506139360481, ,0.01288570829204953,0.021969854070118245,-0.0892417645131359, ,0.0008752608497127909, ,0.009669067628844428,0.002352900247903713,-0.027328092655209628,-0.01609758982781058,-0.009467545928453521,-0.049807686544658634, ,0.02908352895642953, ,0.01867489175359812, ,0.0004068061375388775, ,0.1412796752010632,-0.2186460131350443,0.09898729698000001,3.00653440968111,0.2564667100597317,-0.2155840257092874, ,0.06259692714938705,0.04469945433748034,0.02819258676106195,0.06750632753513496,0.027160019689138618,0.0396489035659426, ,1.81541109085083
0.012294924582660108,0.022229848606539305,-0.0886506139360481, ,0.01291284484581231,0.02196801867200137,-0.08929813659731915, ,0.0009325588255406564, ,0.009669067628844428,0.002352900247903713,-0.027328092655209628,-0.01609758982781058,-0.009467545928453521,-0.049807686544658634, ,0.02908352895642953, ,0.01867489175359812, ,0.00041013368619711657, ,0.1412796752010632,-0.2186460131350443,0.09898729698000001,3.00653440968111,0.2564667100597317,-0.2155840257092874, ,0.06259692714938705,0.04469945433748034,0.02819258676106195,0.06750632753513496,0.027160019689138618,0.0396489035659426, ,1.8178119659423828
0.012389348611720915,0.022248434923092017,-0.08889690503799823, ,0.01294008440748134,0.021966048079764836,-0.08935443788166948, ,0.0007696678173433413, ,0.009768070865543904,0.0012229078049560624,-0.023471681358281482,0.004566281870769417,-0.04712072336756033,-0.03291491809932859, ,0.025452515351501285, ,0.0473413812309395, ,0.0004123949071477218, ,0.1419438302282465,-0.21817492642971661,0.09924266611000002,3.00653440968111,0.2571498925585589,-0.21556936404678556, ,0.0703983245982721,0.049632291610078864,0.024281724878048784,0.039775524638092884,0.05113689586751835,0.009023799276974352, ,1.820054054260254
0.012389348611720915,0.022248434923092017,-0.08889690503799823, ,0.012967426383888368,0.021963943258608093,-0.08941066865792344, ,0.0008240524710196394, ,0.009768070865543904,0.0012229078049560624,-0.023471681358281482,0.004566281870769417,-0.04712072336756033,-0.03291491809932859, ,0.025452515351501285, ,0.0473413812309395, ,0.0004149677669219213, ,0.1419438302282465,-0.21817492642971661,0.09924266611000002,3.00653440968111,0.2571498925585589,-0.21556936404678556, ,0.0703983245982721,0.049632291610078864,0.024281724878048784,0.039775524638092884,0.05113689586751835,0.009023799276974352, ,1.8222730159759521
0.012389348611720915,0.022248434923092017,-0.08889690503799823, ,0.012994870183298252,0.02196170517146741,-0.08946682921690095, ,0.0008795930273769466, ,0.009768070865543904,0.0012229078049560624,-0.023471681358281482,0.004566281870769417,-0.04712072336756033,-0.03291491809932859, ,0.025452515351501285, ,0.0473413812309395, ,0.00041785363810487177, ,0.1419438302282465,-0.21817492642971661,0.09924266611000002,3.00653440968111,0.2571498925585589,-0.21556936404678556, ,0.0703983245982721,0.049632291610078864,0.024281724878048784,0.039775524638092884,0.05113689586751835,0.009023799276974352, ,1.8245201110839844
