NicholasDascanio/dvrk_moveit_final/test/execution/third_experiment_notsharpbends/thirdexp_500vel3.0/thirdexp_500vel3.0_3.csv
Current Position (x),Current Position (y),Current Position (z), ,Planned Position (x),Planned Position (y),Planned Position (z), ,Position Error,,Cartesian linear Velocity(x),Cartesian linear Velocity(y),Cartesian linear Velocity(z),Cartesian Angular Velocity(x),Cartesian Angular Velocity(y),Cartesian Angular Velocity(z), ,Total Linear Velocity, ,Total Angular Velocity, ,MSE, ,Joint 1 Position,Joint 2 Position,Joint 3 Position,Joint 4 Position,Joint 5 Position,Joint 6 Position, ,Joint 1 Velocity,Joint 2 Velocity,Joint 3 Velocity,Joint 4 Velocity,Joint 5 Velocity,Joint 6 Velocity, ,Time Stamp
0.00950973226249467,0.019998496099134972,-0.07801265010079, ,0.009577602442340107,0.01988309284689543,-0.07809028207491614, ,0.000154761091190377, ,0.00015952344857547924,0.0002359704140812613,-0.0010859001534300513,0.05250278496945602,-0.23885535841197517,-0.12680329693206158, ,0.0011226348071329806, ,0.2445576101282897, ,1.2896757599198084e-05, ,0.1257569821238719,-0.2180050263064837,0.08791957296000001,3.0038084404158116,0.28420391951211615,-0.30468835463407856, ,0.0002642925593868251,8.773616266043447e-05,0.0011220843437015258,0.0005101023178894547,0.0,-0.2751158185884863, ,0.02230691909790039
0.009516711312876725,0.019995214978344025,-0.07804350394895987, ,0.009614271004783518,0.01990316562029882,-0.07819969053392584, ,0.0002058767279825817, ,0.0004617385161633674,-0.00040675968347006735,-0.00235867453914554,-0.05270159500863097,-0.24631706642143672,-0.13849178865443815, ,0.0024376220952023807, ,0.25189195169128215, ,1.6392628144225397e-05, ,0.12577242758962037,-0.21799730357360947,0.08794679505000001,3.0040181303592957,0.2831108275139926,-0.3090244507735032, ,0.00045161332749782954,0.0,0.0019841401207598922,-3.114999277693233e-05,-0.10579957307652077,-0.2668676606591456, ,0.0462489128112793
0.009527996702528614,0.019978561635715666,-0.0780824288279276, ,0.009650957474025054,0.019923072926939237,-0.07830890296972998, ,0.00026360744495138873, ,0.0006667469359335284,-0.0006887547754560918,-0.0023926419072152535,-0.1368496572172217,-0.011769902402738543,-0.01634073516422669, ,0.002577531748291952, ,0.13735486625148255, ,1.9507664503885858e-05, ,0.12581104125399148,-0.217981858107861,0.08797531343000001,3.0040181303592957,0.2803780975186838,-0.31341207065096033, ,0.0024957667431091306,0.00014728792107014636,0.0019026291829909224,-3.0353109654747107e-05,-0.13758365353447796,0.010528157917993886, ,0.06830883026123047
0.009551015608655226,0.01999592504562037,-0.07819425153639746, ,0.009687661635635725,0.019942815398499007,-0.07841791945780117, ,0.0002674324407620899, ,0.0010078693487178309,0.0012097619222430401,-0.005429451988278196,0.04403092473226118,-0.20562062250036567,-0.10592790473699559, ,0.0056531649034511754, ,0.21028210272274173, ,2.1230421544915177e-05, ,0.1259037140484822,-0.21797413537498678,0.08808809066,3.00422782030278,0.2795582785200912,-0.31503056795271756, ,0.004024322883356452,0.0001346685419063359,0.005642512051009565,0.00043147584213397324,0.0,-0.2318476227413326, ,0.09809184074401855
0.009581452559229953,0.020020999585834837,-0.07832180108448061, ,0.009724383275874562,0.019962393665661344,-0.07852674007398615, ,0.0002566395001933123, ,0.0009663521080070261,0.0017925843304266616,-0.003683723230112122,0.10369034140882491,0.053244513207645484,0.0412861528484675, ,0.004209158088550311, ,0.11656185090980446, ,2.208302317461057e-05, ,0.12608133690458934,-0.2179432444434899,0.08822031224000002,3.00422782030278,0.2794216420203257,-0.31091689178213355, ,0.008042018348981389,0.000982006667919734,0.0043628626458504524,0.00043147584213397324,0.11703416148740685,0.05235212089158253, ,0.12051987648010254
0.009599919354780573,0.020041194885098146,-0.07838384295924444, ,0.009761122181687853,0.019981808358110285,-0.0786353648945048, ,0.0003045921780146282, ,0.0009700657311279697,0.0006793909283305951,-0.003323888070692711,-0.0009032888117767717,-0.0039052838531693146,-0.0028069510928686774, ,0.003528573573372116, ,0.004008387736432304, ,2.3434022307973837e-05, ,0.12622034609632538,-0.21792779897774145,0.08828901561000001,3.004437510246265,0.2802414610189184,-0.3116670779444527, ,0.0067654426407971315,0.0009437450448096062,0.003480946573426574,0.003869681568603604,0.0,0.0023267966422180417, ,0.1442108154296875
0.009622518001588037,0.020054488028725337,-0.07845879796503, ,0.009797878140708389,0.020001060104531718,-0.07874379399595055, ,0.00033886348153263333, ,0.0011515958920014307,0.0008667039739537199,-0.004467557853855632,0.009188135691231851,-0.054195261477731974,-0.029010792892545503, ,0.004694296758247062, ,0.05496861106432025, ,2.488573423093071e-05, ,0.12645202808255213,-0.2178814625804961,0.08841734832,3.004437510246265,0.2802414610189184,-0.312157150385296, ,0.007583172309497037,0.0023104369251096255,0.0053452387651006725,0.003869681568603604,0.0,-0.03086872631931598, ,0.16639184951782227
0.009663333300863912,0.020089050720585783,-0.07862541770319545, ,0.00983465094125457,0.02002014953261419,-0.07885202745528926, ,0.00029231675859747757, ,0.0016012077483566905,0.0012795481998545243,-0.006012149025811137,-0.0008541986213886424,-0.00867695845624972,-0.002625456429334087, ,0.006351932442785444, ,0.008718902194727306, ,2.5415727112493767e-05, ,0.12662192820578505,-0.21785829438187343,0.08854049587000001,3.0046472001897495,0.2801048245191529,-0.311964053741459, ,0.010368303511123425,0.0010257136823678492,0.006290999810426541,0.0031259522882639153,0.0,0.0011677692467740941, ,0.18912792205810547
0.009694590896419596,0.020110994119831898,-0.07873582775615182, ,0.009871440372329903,0.020039077269048758,-0.07896006534985892, ,0.00029450003223746015, ,0.001259239911956046,0.0008239967247964234,-0.004241198601226255,0.0006311599393871973,-0.0021799567941348658,-0.003731068632020795, ,0.004500269029000583, ,0.0022694874137348772, ,2.5854235385455966e-05, ,0.1268304419933891,-0.2178196807175023,0.08865586568000001,3.004856890133234,0.2801048245191529,-0.31163733878089683, ,0.008911017513208032,0.001668354225084398,0.00467531890813032,0.006652307324539837,0.0,0.009219476274731188, ,0.21338987350463867
0.009723818610155414,0.020127575655343066,-0.07882797040390832, ,0.009908246223621906,0.020057843939530615,-0.07906790775736912, ,0.00031055754762179924, ,0.0014643611607882217,0.0009159144860377993,-0.00442363292214162,-0.00027873445048265285,0.0015303584891729126,-0.0005556990150528238, ,0.0047488715696272655, ,0.0015555347329261624, ,2.6364188265526944e-05, ,0.12704667851386742,-0.21778106705313116,0.08875179114000001,3.004856890133234,0.2799681880193875,-0.31128088465677867, ,0.011064118171676667,0.0014565248985193779,0.004663001030444965,0.006652307324539837,0.0027602754485997268,0.012403441672632722, ,0.23520302772521973
0.009749709498169862,0.020145301614287944,-0.07891990981498472, ,0.009945068285501601,0.020076450168758968,-0.07917555475590099, ,0.00032902874214153847, ,0.001234125261186934,0.0009535629372336,-0.00457429629782354,0.00012462869136430034,0.0016012983690439268,-0.0018826586387841182, ,0.004832859821663301, ,0.001606140334680709, ,2.6947999510940063e-05, ,0.12721657863710034,-0.21774245338876005,0.08884771660000002,3.0050665800767185,0.2799681880193875,-0.31128088465677867, ,0.007931195743653661,0.001281620782278398,0.004789179651232712,0.006387685519090523,0.0023669095908905226,0.009009788571526114, ,0.2585258483886719
0.009779171551202807,0.020163400328809748,-0.07901938990525914, ,0.009981906349022553,0.02009489658043807,-0.07928300642390584, ,0.00033954061714527015, ,0.0015274517946769833,0.000944045636679383,-0.004730476702583723,0.00029668517869804343,-0.006664424177581996,-0.0045402812681628055, ,0.005059816299321814, ,0.006671024609849643, ,2.774972365595502e-05, ,0.12741736969183018,-0.21768839425864048,0.08894753093,3.0050665800767185,0.2799681880193875,-0.311035848436357, ,0.010823100086504422,0.0019644461528758837,0.004959156762141968,0.006387685519090523,0.002054641242899717,0.007263519019680767, ,0.2787919044494629
0.009826464576975764,0.020190079788624478,-0.07916699005643685, ,0.010018760205920242,0.020113183797277435,-0.07939026284020564, ,0.0003123306967153497, ,0.0015680241052417688,0.0008546986071828646,-0.004514705386203702,-0.002394016497192772,0.003891578768439746,-0.002429081054708759, ,0.004855077139238499, ,0.004568993152125813, ,2.8231132762199286e-05, ,0.12776489267117028,-0.21760344419702402,0.08910567831,3.005485959963688,0.2799681880193875,-0.31054577599551364, ,0.012003983563528617,0.0023412731092732368,0.0047463681525625745,0.00979150154973112,0.0017047372654209506,0.015580183421106193, ,0.30115294456481934
0.009858953606588346,0.020207254016060487,-0.07926497124420435, ,0.010055629648611198,0.02013131244099317,-0.07949732408399204, ,0.00031374580552874797, ,0.0016065135881227308,0.0009696662989703262,-0.004801558302444789,0.00016823422210984393,-0.005771333808281298,-0.007422633697124427, ,0.005155201331854873, ,0.005773785078085361, ,2.8660381759817663e-05, ,0.12801202012314547,-0.21754166233403022,0.08920808522000001,3.005485959963688,0.2799681880193875,-0.31046409725537305, ,0.011991158624123187,0.001712561926291191,0.005055160748968582,0.00979150154973112,0.001531010672992824,0.0044864633200520825, ,0.3213808536529541
0.009892498021472221,0.020227212856484725,-0.07937557357422025, ,0.010092514470192254,0.02014928313230779,-0.07960419023482615, ,0.00031360038133819554, ,0.0016772187196431993,0.0010565101345495459,-0.005719184558905706,-0.0024663368088647607,-0.0005316936729175496,-0.004337741914438893, ,0.006052961945754568, ,0.0025229960954629297, ,2.9036442202384123e-05, ,0.12825142484224644,-0.21747988047103642,0.08932345503000001,3.005485959963688,0.2799681880193875,-0.31013738229481086, ,0.011390822417293337,0.003065661611332005,0.005968082248032972,0.009008722884460902,0.0013861814842938665,0.010034924285972704, ,0.3414919376373291
0.009927600248434516,0.020246398975134826,-0.07948482574728935, ,0.010129414464439799,0.02016709649095133,-0.07971086137263733, ,0.0003132251038884869, ,0.0017827423032697922,0.0008613122170723158,-0.005036837292648009,-0.003106921278373234,-0.002018818425929509,-0.005287772402622459, ,0.005412001364352695, ,0.003705210442748908, ,2.936699713274737e-05, ,0.1284985522942216,-0.2174103758751684,0.08943752855,3.0059053398506568,0.2799681880193875,-0.30989234607438915, ,0.013715412857128309,0.003623308751195524,0.005276187982775754,0.010216058523150965,0.0012691941077311298,0.010716131684489483, ,0.36126089096069336
0.009940368027122016,0.02025203229712142,-0.07952085343758959, ,0.010166329425808997,0.020184753135661995,-0.07981733757772397, ,0.00037879794695124815, ,0.0018809133529053515,0.0008152532510773054,-0.005083866747535872,-0.003981359947762688,-0.0024462340573553083,-0.005015179223882888, ,0.005481621476463943, ,0.004672824060564402, ,3.005672588429268e-05, ,0.12859894782158654,-0.21737948494367149,0.08947512096000002,3.0059053398506568,0.2799681880193875,-0.30981066733424856, ,0.014841561082025459,0.004314050453276794,0.005322021891079186,0.010216058523150965,0.001231990829864014,0.011524883507856923, ,0.38591599464416504
0.009999457648117308,0.02027761634480531,-0.07967798705413318, ,0.010203259149432967,0.02020225368418643,-0.079923618930752, ,0.0003279475588647689, ,0.0016211361292204408,0.0006081436378065849,-0.004182232494760168,-0.0035185557086282225,-0.003822018504990658,-0.006169884367826074, ,0.004526476518650717, ,0.00519500321922033, ,3.0384937460899167e-05, ,0.12907775725978846,-0.21725592121768392,0.08963974979000001,3.0059053398506568,0.2799681880193875,-0.309728988594108, ,0.013029924695657115,0.004310235797462754,0.004372443458687895,0.00972973041085531,0.0010775833442983505,0.008006902347379946, ,0.405458927154541
0.010033637589526766,0.020291727319814823,-0.07976438179879856, ,0.010240203431122129,0.020219598753280575,-0.08002970551275485, ,0.0003439020939334922, ,0.0018549562300084993,0.0008020884305304282,-0.004708082052183143,-0.0027228593556894026,-0.009319071255822882,-0.0031481835386897214, ,0.005123499299865976, ,0.009708709998178576, ,3.076775081299373e-05, ,0.1293480529103863,-0.2171864166218159,0.08973049009,3.0063247197376257,0.2799681880193875,-0.3094022736335458, ,0.015173799417727977,0.003424531926592439,0.004954529244167964,0.005413513430638316,0.0010059047836076444,0.005234235858509397, ,0.4272339344024658
0.010070289493128014,0.02031092919593599,-0.07987744719209008, ,0.01027716206736318,0.020236788958710644,-0.08013559740513267, ,0.0003390200130382363, ,0.001868302311591364,0.001111790974110727,-0.005947058560005635,-0.004269592078865618,0.0014477262773700842,0.001550900816516255, ,0.006331993225971424, ,0.004508361171774012, ,3.1089565609477115e-05, ,0.12961834856098417,-0.21710918929307363,0.08984845248000001,3.0063247197376257,0.2799681880193875,-0.30899387993284294, ,0.013309528970332508,0.0029599788780864376,0.00622462349355217,0.005413513430638316,0.0009405657308480981,0.015472372355770434, ,0.44749903678894043
0.010098415527404172,0.020325217002211113,-0.07996320004582397, ,0.0103141348553187,0.02025382491525312,-0.08024129468965259, ,0.00035912155246139375, ,0.0017582223173879155,0.0007077339177828984,-0.0048021382883193815,-0.007137333848279133,0.005935598231324304,0.0038956170104255702, ,0.005162631611483068, ,0.009282933710404864, ,3.148221641133899e-05, ,0.12982686234858823,-0.21704740743007986,0.08993789649,3.0063247197376257,0.2799681880193875,-0.3089122011927024, ,0.01376315323545624,0.0047171023037901084,0.005010635898081159,0.005413513430638316,0.0008943182130902998,0.021156254527535022, ,0.46930384635925293
0.010145581414689929,0.02034627915510602,-0.0800892644235551, ,0.010351121592826031,0.020270707236695343,-0.08034679744844686, ,0.00033805493427901663, ,0.0018753666776643797,0.0009586135644583666,-0.005269698104624657,-0.0018402622392386168,-0.009834872497496466,-0.0059239355173286564, ,0.005675002930002963, ,0.01000556235737972, ,3.174152914393125e-05, ,0.13019755352655102,-0.21695473463558915,0.09007011807000001,3.00653440968111,0.2799681880193875,-0.3087488437124213, ,0.014343552230724118,0.0030005285594208566,0.005536604629822733,0.007366389402594748,0.0008325422960508474,0.0032320435696323443, ,0.48966383934020996
0.010180070224266287,0.020364448281658124,-0.08019476255260789, ,0.010388122078396681,0.020287436535837002,-0.08045210576401421, ,0.0003397674373132713, ,0.0016582548583344056,0.000819021162248993,-0.00517492812508202,-0.005779338087070769,0.0008145508277984663,0.00328226229618914, ,0.005495496878278275, ,0.005836457664069193, ,3.1987409484921656e-05, ,0.13044468097852618,-0.21688523003972113,0.09018030272000001,3.0067440996245947,0.2799681880193875,-0.30850380749199957, ,0.011941228332511737,0.004291463593910538,0.005384993752535498,0.002666438111116052,0.0007879795181231368,0.013874333278986538, ,0.512009859085083
0.010219673449584826,0.02038435010026356,-0.08031397991780638, ,0.010425136111215491,0.02030401342448994,-0.08055721971921757, ,0.00032838161914039904, ,0.0018799425300871078,0.0008848552619470222,-0.0053519931528539545,-0.010182723247308885,0.019574958620147184,0.014335006529027732, ,0.005741165688187484, ,0.02206505955851048, ,3.23053144992244e-05, ,0.13073814482774673,-0.21680027997810467,0.09030474656000001,3.0067440996245947,0.2799681880193875,-0.30801373505115626, ,0.014332720368293427,0.004030087623478504,0.005598879268892795,0.002666438111116052,0.0007424725789813495,0.03817639188047839, ,0.5306320190429688
0.010258229145671975,0.020403112938827597,-0.08042148891659931, ,0.010462163491139913,0.020320438513479054,-0.08066213939728487, ,0.0003260934401706622, ,0.0018482927304955155,0.0009429519526283571,-0.005459898851753441,-0.003900759814238922,-0.0024930252634018666,-0.003269524822516768, ,0.00584087663574114, ,0.0046293733096734275, ,3.2591970957600956e-05, ,0.13102388594409303,-0.21673077538223665,0.09041752379000001,3.0071634795115636,0.2799681880193875,-0.30776869883073454, ,0.01356833593915796,0.003625040551070506,0.005713347030129125,0.007989783393398316,0.0007074875582750339,0.010640464088233853, ,0.5491878986358643
0.010293473215596996,0.02042025919037247,-0.08052578199693342, ,0.010499204018699214,0.020336712412643045,-0.08076686488180809, ,0.00032775933975029686, ,0.0017638681647896282,0.0008647464659632179,-0.005255067238297084,-0.003462298771382521,-0.005506371621238036,-0.005274282915872773, ,0.005610236094156604, ,0.006504432120164508, ,3.286665772845952e-05, ,0.13128645886181667,-0.2166535480534944,0.09052641215000001,3.0071634795115636,0.2799681880193875,-0.3076053413504534, ,0.012830846614179391,0.003975805675505442,0.005487017402686876,0.007989783393398316,0.0006752790381132424,0.006337853055535656, ,0.5686888694763184
0.010313978627386972,0.02043049776898598,-0.08058521637352663, ,0.010536257495093597,0.020352835730834684,-0.08087139625674254, ,0.0003705917062701582, ,0.0019750713310606395,0.001066832924659313,-0.005785257336070354,-0.0031448121595997586,-0.004438803461121958,-0.0037100963413037517, ,0.006205500922284247, ,0.005439927683808099, ,3.329387377783445e-05, ,0.1315799227110372,-0.21658404345762639,0.09065344857,3.0071634795115636,0.2799681880193875,-0.3074419838701723, ,0.01428095433536054,0.0037141693670005387,0.00635120076555024,0.007551430399087786,0.0006446952097992511,0.01337203148797843, ,0.5860459804534912
0.01035367111012834,0.020451658078752245,-0.08070407423052385, ,0.010573323722193622,0.020368809075921798,-0.08097573360640692, ,0.00035904044864371265, ,0.0017853189346060505,0.0008041235646470155,-0.005019235230627705,-0.005082033647555033,-0.0014428572217101334,3.806355735288831e-05, ,0.005387643335063844, ,0.005282887446420587, ,3.365037169483843e-05, ,0.13172665463564745,-0.21654542979325525,0.09071307791000001,3.007373169455048,0.2799681880193875,-0.3072786263898912, ,0.013495014442330885,0.0040594358924605145,0.00524837282372323,0.005335200379957765,0.0006305806647786613,0.012429187558615877, ,0.6052589416503906
0.010392780341986475,0.020466176879955708,-0.08080447650417753, ,0.010610402502539378,0.020384633054787653,-0.08107987701548236, ,0.0003603529406203202, ,0.0019464664133196597,0.0007030170357049399,-0.0049668548529124504,-0.007775722284913688,0.011922553447296102,-0.002874891641117892, ,0.005380763103926136, ,0.014234083557888437, ,3.3990483512232515e-05, ,0.13202784121774222,-0.21644503426589035,0.0908180774,3.0077925493420175,0.2799681880193875,-0.30687023268918834, ,0.015202970451533286,0.005181309335026305,0.005193613146397131,0.015157776751928934,0.0006025785050024656,0.02731829079977305, ,0.6234688758850098
0.010432548319473815,0.02048458009411125,-0.08091727050338451, ,0.01064749363933945,0.02040030827333204,-0.08118382656901252, ,0.00035264056265929495, ,0.0021678835285008466,0.0010991131229447,-0.0066718814232055446,-0.0065869187956215935,0.005445907276552559,-0.003538765451056298, ,0.007100828851302486, ,0.008546659702165078, ,3.428293530412177e-05, ,0.13232902779983696,-0.21636008420427386,0.09093603979,3.0077925493420175,0.2799681880193875,-0.30654351772862615, ,0.01519323431931969,0.004945782253092589,0.006892605590653397,0.0127574087664,0.0005790708865169906,0.021150361538713174, ,0.6415829658508301
0.01047529489075318,0.020505799214335107,-0.0810518569692466, ,0.010684596936470551,0.020415835336471025,-0.08128758235240217, ,0.0003278220583268605, ,0.0019997395351363466,0.0008717471980632971,-0.005849248504161528,-0.0086655875703074,0.011846693969252201,0.0014606671494037512, ,0.00624280461404603, ,0.014677757290975417, ,3.44715218389594e-05, ,0.13263021438193173,-0.21625196594403473,0.09107603911,3.0077925493420175,0.2799681880193875,-0.30621680276806384, ,0.014470408898821407,0.0054232150198123335,0.0060913237170172095,0.010710473224731303,0.0005566846333535976,0.0274930183033405, ,0.6598808765411377
0.01049523360060512,0.020513819413666746,-0.08111055815095644, ,0.010721712198476483,0.020431214848138618,-0.08139114445141776, ,0.0003699253188772568, ,0.0020234450809451555,0.0008549758001578059,-0.0059162454358860665,-0.007275988088836269,0.0029760996406623373,-0.002263896140396184, ,0.006310885331876927, ,0.007861117254679854, ,3.479396411349906e-05, ,0.132776946306542,-0.21619018408104093,0.09113696474,3.0077925493420175,0.2799681880193875,-0.3061351240279233, ,0.014651372789635755,0.005782282349260505,0.0061548730757341585,0.009926214940726558,0.0005462149728325267,0.017711251132087852, ,0.6810178756713867
0.010541238095433282,0.020531718961138125,-0.08123207646856048, ,0.010758839230567384,0.020446447411286532,-0.08149451295218607, ,0.00035141769899011354, ,0.0017801760710426686,0.0005406218648757203,-0.003980020269912291,-0.0068114781599612085,0.009475562993952313,-0.0023070392814578664, ,0.004393388236157524, ,0.011669726979552987, ,3.5037517400439465e-05, ,0.1331244692858821,-0.21607434308792756,0.09126400116000001,3.0082119292289864,0.2799681880193875,-0.3058900878075016, ,0.01469447840793911,0.004458076558280737,0.004185184319495534,0.013274728054684753,0.0005238357164478355,0.024400217353432608, ,0.6989188194274902
0.010578706124826287,0.02054103186831835,-0.0813218391876391, ,0.010795977838619089,0.020461533627885144,-0.0815976879411948, ,0.0003600270860430782, ,0.0019459417936121045,0.0007002649651524542,-0.005206375709648232,-0.006849043307247969,0.0006057263564438386,-0.0028854042352552084, ,0.0056020896561516575, ,0.006875775942978582, ,3.529637112394454e-05, ,0.13342565586797686,-0.21594305662906574,0.09135733404000002,3.008421619172471,0.2799681880193875,-0.30556337284693935, ,0.014792976080821633,0.005722932766497699,0.0054253445231607625,0.009425447231682612,0.0005054197051350891,0.015281426474290628, ,0.7174768447875977
0.010592998660836078,0.02054675201116834,-0.08136163845278395, ,0.010833127829172227,0.020476474098924537,-0.08170066950529051, ,0.00042135858481685503, ,0.0019949398240841133,0.0008151303943203098,-0.005772200988479347,-0.008182221579630377,0.006068736240096245,0.00042479737265940456, ,0.006161373768313645, ,0.01018716364461924, ,3.58496536221961e-05, ,0.133533774128216,-0.2159044429646946,0.09139881532000001,3.008421619172471,0.2799681880193875,-0.30540001536665823, ,0.014470408898821407,0.005825705629306244,0.006004075205427818,0.008819240804875063,0.000499394505716931,0.021331605222697312, ,0.73478102684021
0.010650727486345305,0.02057590369467168,-0.0815528430108016, ,0.010870289009431404,0.020491269424414333,-0.08180345773167985, ,0.0003437702145951093, ,0.0019892354876823353,0.000955261773585638,-0.0062955625448376,-0.0059168100567219785,-0.0034214473454074793,-0.0030166551498726508, ,0.006671108651303082, ,0.006834832353120238, ,3.613792268815802e-05, ,0.13391991077192722,-0.2157422655743359,0.09159714769,3.008421619172471,0.2799681880193875,-0.3051549791462365, ,0.013543162774150247,0.005486219439975009,0.006541606373716633,0.007028556211090134,0.000476765081571621,0.009818716909313527, ,0.7505719661712646
0.010671326633935078,0.020584693749846606,-0.08161528357967657, ,0.010907461187264624,0.020505920203384646,-0.08190605270792778, ,0.0003827681868210944, ,0.0020207931932938127,0.0007698725723376499,-0.0057935708652297885,-0.007270209524615265,-0.00282779709555887,-0.0016780503455217487, ,0.006183993230764393, ,0.0078007933197968456, ,3.6532459855343395e-05, ,0.13405891996366326,-0.2156804837113421,0.09165807332,3.008421619172471,0.2799681880193875,-0.3049916216659554, ,0.014676297797474605,0.00636447893630792,0.006029073247539744,0.0065658278609953815,0.00046938117193150365,0.011985434130218693, ,0.76749587059021
0.010714514849596232,0.020602468809669608,-0.08173715344579813, ,0.010944644171202358,0.020520427033887255,-0.08200845452195778, ,0.0003650953732407489, ,0.00213224989026577,0.0010075282918454733,-0.005938662025420984,-0.005349436073255344,0.003636974761387566,-0.004969770679013018, ,0.006389781647723552, ,0.006468697266856887, ,3.685796031443073e-05, ,0.13437555201150647,-0.21556464271822873,0.09178899861,3.00884099905944,0.2799681880193875,-0.3046649067053932, ,0.01558242061715448,0.004038711651310087,0.006229492186155652,0.013389295601574883,0.0004545360585825505,0.018700467030194023, ,0.7842018604278564
0.010754376660145596,0.020620413755680037,-0.0818523512519889, ,0.010981837770436743,0.02053479051299539,-0.08211066326205128, ,0.0003546758956077812, ,0.0020353290807288995,0.0008046603240190564,-0.006185296363445892,-0.007445165647870273,-0.001933608656118503,-0.006848211631025098, ,0.006561092424860983, ,0.007692159963627548, ,3.713979755468369e-05, ,0.134669015860727,-0.2154565244579896,0.09190955358000001,3.00884099905944,0.2801048245191529,-0.30453128838866783, ,0.014029707504209163,0.0068845107317824054,0.0064048297225572995,0.011309169691515205,0.0,0.011106000047883959, ,0.800156831741333
0.01076093348030744,0.02062357262427848,-0.08187224600298822, ,0.011019041794820932,0.020549011236804724,-0.0822126790168469, ,0.0004336749237019713, ,0.0020953377800895516,0.000872477674507315,-0.006415908842004603,-0.006769501998575343,-0.004755340602157234,-0.007804505505967455, ,0.006805552437098487, ,0.008272811534158403, ,3.763607281416707e-05, ,0.13471535225797235,-0.21544107899224116,0.09193029422000001,3.00884099905944,0.2801048245191529,-0.3044496096485273, ,0.014376146274575181,0.006696195987875743,0.006650860759916493,0.011027701785736244,0.0,0.008334718146284848, ,0.8164880275726318
0.01081930769329456,0.020650825078177885,-0.0820432661738653, ,0.011056256054868246,0.020563089800434153,-0.08231450187534024, ,0.00037068964211025435, ,0.0021591895673658988,0.0009184344253328641,-0.006281035121233652,-0.01164564069004035,0.007790746884736113,0.011294681633698329, ,0.006704999893782914, ,0.014011305232834783, ,3.793645693856787e-05, ,0.13512465710030624,-0.21530206980050512,0.09210658966000002,3.0090506890029243,0.2802414610189184,-0.3039892763712398, ,0.01568026132823377,0.005987628156610854,0.006544293968775678,0.0,-0.0009014989179713305,0.02699188595877288, ,0.8325090408325195
0.010840994453030408,0.020660625733146344,-0.08210394220066174, ,0.011093480361751363,0.020577026798026046,-0.08241613192688332, ,0.00041012234907915416, ,0.0022447692551044738,0.0009374451247483651,-0.006035563768020156,-0.012085061283840109,0.016235219469208414,0.01112885338682023, ,0.006507366776847178, ,0.020239344096050486, ,3.8333619439966714e-05, ,0.13528683449066495,-0.21524801067038554,0.09217270045,3.009260378946409,0.2802414610189184,-0.30382591889095867, ,0.01686756870929093,0.004910445095638341,0.006318449631098771,0.004914143428029014,-0.0008907949487791958,0.036909873102158666, ,0.8480989933013916
0.010890046223921103,0.020678709289842737,-0.08223601341401786, ,0.011130714527301626,0.020590822822747313,-0.0825175692611842, ,0.0003806822276179043, ,0.0022638329771295512,0.0007853079349830062,-0.005882445264582671,-0.00808252097040151,0.004548417542527779,-0.004263387181122024, ,0.006351756496584044, ,0.009274440162869083, ,3.8636441250042554e-05, ,0.13564980293575352,-0.21512444694439795,0.09231010719,3.0094700688898937,0.2801048245191529,-0.30346946476684056, ,0.01704939661488875,0.006442824011839897,0.006140636669236701,0.013576890644718051,0.0005682752988185143,0.02136844464713917, ,0.8644568920135498
0.010938002204564123,0.02069664814911011,-0.0823652370620068, ,0.011167958364008235,0.020604478466789627,-0.08261881396830605, ,0.0003545085796051251, ,0.0023590031784985663,0.0008630208939383781,-0.006397174732232854,-0.0093936726040278,-0.008935614054956761,0.011724176584097933, ,0.006872666557767736, ,0.012964809015834524, ,3.8858804982462733e-05, ,0.13600504864796784,-0.21499316048553613,0.09244492135000001,3.009679758833378,0.2801048245191529,-0.3032244285464189, ,0.01791860678974146,0.006758873450052754,0.006667564470489746,-0.007353266348460561,0.0005659910335404592,0.01202048521441271, ,0.8796288967132568
0.010961058537384582,0.020705547327728873,-0.08242863683375189, ,0.011205211685017395,0.020617994321370486,-0.08271986613866766, ,0.00038998820041525413, ,0.0023958111887947353,0.0009286953756474656,-0.006499464624699551,-0.0058451368195994525,-0.0046584833757797265,-0.010289765505520118, ,0.006988950333263494, ,0.007474428419894369, ,3.916523762022381e-05, ,0.136182671504075,-0.21493137862254233,0.09251103214,3.0094700688898937,0.2801048245191529,-0.3031427498062783, ,0.017492523789579866,0.00635098624103912,0.006786881772475501,0.014957370923921524,0.0005579565978174737,0.010980049048435104, ,0.8979978561401367
0.0110096649992486,0.020722632779804035,-0.0825606615831002, ,0.01124247430413166,0.020631370976733156,-0.08282072586304129, ,0.0003607801530588379, ,0.0023346330842814755,0.000705974495509615,-0.005832810115834499,-0.0055149276725819886,-0.012147545502024529,-0.01186378170487572, ,0.006322229470203763, ,0.013340812651643047, ,3.938621591031889e-05, ,0.13654563994916355,-0.21478464669793207,0.09264843888,3.0094700688898937,0.2801048245191529,-0.3029793923259972, ,0.01785791147129672,0.007195485480693621,0.006084343590527121,0.012884692970915199,0.0005419602598352946,0.0033198353874471748, ,0.9133059978485107
0.011033520601834934,0.020729040907254935,-0.08261783445259059, ,0.011279746035809071,0.020644609022148167,-0.08292139323255451, ,0.0003998795324239785, ,0.0023863233620110037,0.0006697078154883421,-0.00605198148060023,-0.006945095855823097,-0.00820545201178341,-0.012419316498290443, ,0.006539841556775961, ,0.010750060048461326, ,3.979717630469594e-05, ,0.13672326280527072,-0.21470741936918983,0.09270806822000001,3.0098894487768626,0.2801048245191529,-0.30281603484571606, ,0.018017266291716492,0.008162821210839236,0.006293485389174239,0.015245833836824173,0.0005344857992014587,0.007448887257755469, ,0.9265828132629395
0.011087665443782086,0.020749421753248405,-0.08276712798732996, ,0.011317026695162382,0.02065770904591332,-0.08302186833868737, ,0.0003548386266053345, ,0.0026880068203546906,0.001111678533559778,-0.007611597999749115,-0.004534200074241809,-0.0019370880617766775,-0.02578350027481017, ,0.0081484743319247, ,0.004930644473394909, ,4.008444256404534e-05, ,0.13701672665449124,-0.21458385564320223,0.09282214174,3.0103088286638315,0.2801048245191529,-0.3025709986252944, ,0.01886619116470592,0.007383221482707294,0.008081588797564689,0.031017734145646916,0.0005231382775658654,0.011728246866653615, ,0.9404778480529785
0.011113390907114783,0.020760611113050675,-0.08284137762531359, ,0.011354316097958419,0.02067067163535422,-0.08312215127327345, ,0.0003807465017830674, ,0.0027038027502150727,0.0010180888936276245,-0.007600302060997035,-0.00678302409825946,0.002639812595085108,-0.023486617325133817, ,0.00813090682063165, ,0.007278598841428594, ,4.042649096989606e-05, ,0.13729474503796332,-0.21447573738296308,0.09294140042000001,3.0103088286638315,0.2802414610189184,-0.3024373803085691, ,0.018676823766674035,0.008106578493686852,0.007909042462760677,0.031017734145646916,0.0002927547738667633,0.016831455476460713, ,0.9535360336303711
0.01114093242166458,0.020770791090176967,-0.08292268883225906, ,0.011391614060617075,0.02068349737682581,-0.08322224212849894, ,0.0004002419940320073, ,0.0027681628885925643,0.001061094800077707,-0.008147559599989933,-0.008029360120862677,0.0005457533645129905,-0.019428984711739906, ,0.008670142754760224, ,0.008047883869800756, ,4.0805536758868736e-05, ,0.13748781335981894,-0.2143830645884724,0.09302565927,3.0103088286638315,0.2802414610189184,-0.30235570156842856, ,0.01865112845095731,0.008944736550307876,0.008454783184713377,0.026127485955259384,0.0002927547738667633,0.015596122545218437, ,0.9675829410552979
0.011163844568012938,0.020780690428883065,-0.0829939121128199, ,0.011428920400210676,0.020696186855711562,-0.08332214099690177, ,0.0004302792709853789, ,0.0027956361734485366,0.0011990641044723957,-0.008198470091481672,-0.007103924813705757,-0.000361162129807616,-0.015654191798648714, ,0.008744612523253826, ,0.007113096991000443, ,4.124498237600657e-05, ,0.13764226801730345,-0.21431355999260437,0.09309954780000002,3.0103088286638315,0.2802414610189184,-0.30219234408814744, ,0.018968007507189844,0.007487353701104987,0.008540917705093834,0.022526078017669045,0.0002927547738667633,0.01579927987348461, ,0.9816930294036865
0.011208091753840348,0.02079752466237501,-0.08311979272781851, ,0.011466234934463145,0.0207087406564257,-0.08342184797137205, ,0.00040713372689160263, ,0.002648428586360077,0.0009052440728245514,-0.0071978795984176894,-0.008078806056025024,-0.003377144197555162,-0.012246001603514375, ,0.007722895281029701, ,0.008756265808051151, ,4.161802871394013e-05, ,0.13795890006514663,-0.21418227353374256,0.09323047309000002,3.0103088286638315,0.2802414610189184,-0.3020289866078663, ,0.01894906980001413,0.008281538974406198,0.007488862961918196,0.01780301705530305,0.0002927547738667633,0.013472743687152875, ,0.9946229457855225
0.011259441519635928,0.02081350004978507,-0.08324728918226909, ,0.011503557481749388,0.0207211593624123,-0.0835213631451504, ,0.0003784652462677711, ,0.002499863233197369,0.0006294197182002202,-0.0056225636814543215,-0.005236764829325549,-0.009754503342448765,-0.002730198265042153, ,0.006185362375670517, ,0.011071315898136883, ,4.191470399961785e-05, ,0.13833731397598364,-0.21402009614338383,0.09336139838000002,3.010728208550801,0.2803780975186838,-0.30181368955100046, ,0.01999514149988849,0.007763974938730882,0.005890832662721894,0.006842293462005467,0.003444682550398281,0.009685309748888942, ,1.0121839046478271
0.011312403981194964,0.02082594779758511,-0.08337036420364295, ,0.01154088786109422,0.02073344355614725,-0.08362068661182864, ,0.000351316418770451, ,0.0024511074181788653,0.0006801273978243238,-0.005798177820310616,-0.007817569207520747,0.004724247940944768,0.0021556797803971408, ,0.00633161645148099, ,0.009134161174877177, ,4.214158626046499e-05, ,0.13873889608544332,-0.2138501960201509,0.09348713851000001,3.0111475884377694,0.2803780975186838,-0.3013236171101571, ,0.019040317327141006,0.0076630921071069395,0.006051980060790275,0.008753172505837735,0.003248782118481747,0.025215728547983, ,1.0269019603729248
0.011335269733425154,0.020833185043758414,-0.08342709624730235, ,0.011578225892171891,0.020745593819137792,-0.08371981846534843, ,0.000390366769386592, ,0.0025457171935380487,0.0007820551674994373,-0.006812950994535931,-0.012834253717433226,0.013725776585913637,0.006131694190493442, ,0.007314956429701816, ,0.018791354307008967, ,4.244992090580984e-05, ,0.13893196440729894,-0.21376524595853444,0.09355195301000001,3.0111475884377694,0.28051473401844923,-0.3012716775335724, ,0.01849482392486275,0.008693311991883442,0.007079471786666667,0.008753172505837735,0.001171149732324377,0.03463678387089518, ,1.039867877960205
0.011363766652586033,0.02084378487583919,-0.0835051197394232, ,0.011615571395305068,0.02075761073192385,-0.08381875880000103, ,0.0004113405789069219, ,0.0026155673898193123,0.0009150791798668567,-0.0070469886423260315,-0.0048771533022893224,-0.004775827288009164,-0.0027775906450164672, ,0.007572226330557223, ,0.006826062791990837, ,4.2796471909066615e-05, ,0.139140478194903,-0.21367257316404373,0.09363361928000001,3.0111475884377694,0.28065137051821465,-0.3013014166971283, ,0.01894150530109197,0.008114380665582547,0.007354021939058173,0.008753172505837735,0.004617981051465239,0.01343843788274727, ,1.053297996520996
0.011390536142916779,0.020854080494998976,-0.08357639208026008, ,0.011652924191464182,0.020769494874078483,-0.08391750771042739, ,0.0004385910263918549, ,0.0026281238844194925,0.000736474845023745,-0.006912087030700221,-0.026092272363202114,0.010804480956897516,0.0035738345426840007, ,0.007431445180392784, ,0.02824081213502364, ,4.319344176700866e-05, ,0.13934126924963283,-0.21357990036955304,0.09370880410000001,3.0111475884377694,0.28092464351774554,-0.30127921628409937, ,0.019036497805109485,0.008010235647357866,0.007142964807174889,0.008753172505837735,-0.013194606625859522,0.034008276508715934, ,1.0669009685516357
0.011417115535654236,0.020863497188021007,-0.08364854946788457, ,0.01169028410226667,0.020781246824208267,-0.08401606529161677, ,0.00046524624536473303, ,0.0028822082399404167,0.0009272109330749532,-0.00792146233695964,-0.027655645845640352,0.015052658373518563,0.006374783435755827, ,0.008480354356314612, ,0.031486778813630996, ,4.3731841413941036e-05, ,0.13953433757148845,-0.2135026730408108,0.09378398892,3.0111475884377694,0.28092464351774554,-0.3010341800636777, ,0.020320544230935926,0.00837488898518265,0.008193833086419754,0.008753172505837735,-0.013194606625859522,0.04035002224961041, ,1.0778608322143555
0.011456880194265516,0.020877681294116754,-0.08376248787318734, ,0.011727650949976104,0.020792867159954348,-0.08411443163890651, ,0.0004520781500254084, ,0.0029939308348305013,0.0013357441897408058,-0.008809606881698922,-0.0022040044666120973,0.023721698667083815,0.011583303157911482, ,0.009399840838772334, ,0.023823865561215934, ,4.423059983906006e-05, ,0.1398046332220863,-0.21338683204769743,0.09390195131000001,3.0113572783812543,0.2807880070179801,-0.3005143684592785, ,0.02042111933687772,0.00865401160422963,0.009223399837869139,0.010585261416604656,0.013943811202627516,0.04600067192957646, ,1.0901949405670166
0.011491207084643592,0.020891109609117657,-0.08385816900737857, ,0.01176502455750146,0.020804356457992737,-0.08421260684798242, ,0.000456210807110367, ,0.0030263870096883896,0.0013515059504938315,-0.008832082974965835,0.001985656238575481,-0.003479978194015741,3.5400637622965705e-05, ,0.009433518767846505, ,0.004006622665835456, ,4.4727550807168024e-05, ,0.14003631520831303,-0.21329415925320674,0.09400176564000001,3.0117766582682233,0.2807880070179801,-0.3002693322388568, ,0.020760652277066454,0.008364024545043829,0.009250180905923347,0.00832403659028775,0.012427903398473206,0.015984192995726294, ,1.1041970252990723
0.011541767712100125,0.02091318976069175,-0.08401245195301285, ,0.011802404748396415,0.0208157152940347,-0.084310591014877, ,0.00040782329083639726, ,0.0028711899474115838,0.0011570293895985756,-0.008742675730351108,-0.010428627700100028,0.007242916731635424,0.003606255189203392, ,0.009274525737124376, ,0.012697088934559486, ,4.511287619796417e-05, ,0.14035294725615624,-0.21314742732859646,0.09415602415,3.0119863482117077,0.28092464351774554,-0.29997235644185044, ,0.01894150530109197,0.00940517342487723,0.009112592402745997,0.00824709219619837,0.002923303854056737,0.0396254936424314, ,1.1153228282928467
0.011570331185409724,0.020925864783714436,-0.08409498153866511, ,0.011839791346858388,0.020826944242828323,-0.0844083842359697, ,0.00042498859125267806, ,0.002937497063652794,0.00106964460562707,-0.008089119478528936,-0.000726352309535532,-0.0014984348899540027,0.0009027900421938624, ,0.00867219018006594, ,0.0016651907286290468, ,4.552576276165538e-05, ,0.14056918377663452,-0.21304703180123155,0.09424935703000001,3.0119863482117077,0.2811979165172765,-0.29986847728868105, ,0.020819864317347694,0.009551722982500219,0.008454783184713377,0.00824709219619837,0.011351808042345944,0.018503793793773017, ,1.126183032989502
0.011599303393063707,0.020935960942640032,-0.08417437293202214, ,0.011877184177727944,0.020838043878158168,-0.08450598660798617, ,0.00044359115420478573, ,0.0029101089060500737,0.0009197389987376484,-0.007654770704156212,0.014605172422367774,-0.05578581572841153,-0.026596208576950317, ,0.008240762598454045, ,0.05766600620546933, ,4.596830854115642e-05, ,0.14077769756423858,-0.21294663627386662,0.09433231959,3.0119863482117077,0.28133455301704186,-0.2994898227515341, ,0.021239243858207427,0.010624284197904517,0.008008452247360484,0.00824709219619837,0.01603463818880312,-0.043917467291435475, ,1.1397039890289307
0.01165517069271405,0.0209510672312912,-0.08431313744802124, ,0.011914583066487905,0.020849014772846113,-0.08460339822799826, ,0.00040244354179752524, ,0.00274320552602709,0.000511443366582934,-0.006676548892705585,-0.03238794190491869,0.016688740195901747,0.007282582353696235, ,0.007236232168189148, ,0.036434774829770505, ,4.631841401598754e-05, ,0.14120244787232095,-0.21273812248626256,0.09447750407000001,3.0119863482117077,0.28160782601657275,-0.29930426485822414, ,0.020364150549028064,0.00942344543245998,0.00686586703448276,0.00824709219619837,-0.016655258771817092,0.03358707185802651, ,1.1520888805389404
0.01168364645435915,0.020955892702751562,-0.08438241364730129, ,0.01195198783926266,0.02085985749875259,-0.08470061919342288, ,0.0004271821963069154, ,0.0029031360813305436,0.0007425894645578957,-0.00738556479125056,0.002053506400673098,-0.03243609453978982,-0.017118135895695264, ,0.007970332835293366, ,0.03250103222295118, ,4.6711165273471436e-05, ,0.141410961659925,-0.21263000422602343,0.09454880002,3.012196038155192,0.28147118951680733,-0.29902948947424657, ,0.02134434133119001,0.01119999197780061,0.0076913623949782725,0.009952380161944361,0.00886147292974993,-0.01640001076374356, ,1.1637239456176758
0.011714535866296932,0.020964795216601675,-0.08446483219680559, ,0.011989398322817226,0.02087057262677629,-0.08479764960202173, ,0.00044180843320671927, ,0.0029553025422478993,0.001086001984256622,-0.00820742546265495,-0.002155691985552621,-0.007302909917625583,-0.007465825808042072, ,0.008790622625904437, ,0.007614424729379143, ,4.712518636062723e-05, ,0.14162719818040329,-0.21252188596578428,0.09463435516,3.012405728098677,0.28147118951680733,-0.29878445325382486, ,0.020447520266854296,0.009197988385076112,0.008568483873050026,0.01273164785514294,0.007422659706397654,0.010914698533764472, ,1.174682855606079
0.011741550655366617,0.020973084540463923,-0.08453850531586087, ,0.012026814344556654,0.02088116072685554,-0.08489448955190126, ,0.00046534947747675154, ,0.0032282838247653764,0.001027589998466273,-0.009076576920385417,-0.007445419183869152,-0.0024391810243245557,-0.0039053480048637625, ,0.00968824061684385, ,0.00783478201922248, ,4.757739806470915e-05, ,0.14181254376938468,-0.2124292131712936,0.09471083627000002,3.0126154180421616,0.28147118951680733,-0.2987844532538249, ,0.022141143620735132,0.011876963899683452,0.00942533226035503,0.01210970136558761,0.006322255122509466,0.01873960606413656, ,1.1872739791870117
0.011778703003295088,0.020985794477230434,-0.08464571612738027, ,0.012064235732525231,0.020891622367968432,-0.08499113914151148, ,0.00045794583120272765, ,0.003365747951399516,0.00120978149429823,-0.009890751887586206,-0.012268191874909776,-0.007984105049108252,-0.0056494009801815875, ,0.010517547406029915, ,0.014637430466415512, ,4.8006362666812814e-05, ,0.14206739395423407,-0.21229020397955756,0.09482231721,3.0126154180421616,0.28160782601657275,-0.298569156196959, ,0.02228674061965025,0.011165034439398945,0.010256800721184806,0.010626750057127196,-7.087041852569638e-05,0.013833587742164831, ,1.1988098621368408
0.011815450331113088,0.02100060756574573,-0.08475078327927951, ,0.012101662315405517,0.02090195811813391,-0.08508759846964598, ,0.0004528724830769948, ,0.0029769222930146446,0.0009777594355548313,-0.008019575005912294,-0.0017494126193424381,-0.0004520070439112497,0.00017304588299609425, ,0.008609974629922973, ,0.0018068540919501893, ,4.8417251990640865e-05, ,0.14232224413908348,-0.21216664025356996,0.09493250186,3.0126154180421616,0.28188109901610364,-0.29862863452407074, ,0.021013494587792468,0.010244996431334329,0.008374769463722398,0.009399696257326867,0.011063578493916574,0.01970040383763732, ,1.209873914718628
0.01184559931887624,0.02100806560963122,-0.08482690276387964, ,0.01213909392251773,0.020912168544411833,-0.08518386763544125, ,0.0004719737800062288, ,0.0030979933304174268,0.0006585449492336991,-0.007601262155514465,-0.0024813634447622772,-0.018571249776260755,0.0012794282197966618, ,0.00823470888874212, ,0.018736287183456407, ,4.895040289493908e-05, ,0.1425384806595618,-0.2120585219933308,0.09501157555,3.0128251079856456,0.28188109901610364,-0.29830191956350843, ,0.02332766508320324,0.012784176419031495,0.00791297144560358,0.00046086189368179205,0.011063578493916574,0.0037476249632069627, ,1.2185978889465332
0.011877184776489956,0.02101427183348076,-0.08490716651138785, ,0.012176530383819018,0.020922254212904164,-0.08527994673837622, ,0.00048686767479190664, ,0.0030984210142233634,0.0008170967609112244,-0.0077960418974722025,-0.005568995446604396,-0.004598570368950655,0.008329772505117664, ,0.00842888659107563, ,0.007222224790459528, ,4.950376042956294e-05, ,0.1427624399129143,-0.2119349582673432,0.09509194553000001,3.0128251079856456,0.28188109901610364,-0.29813856208322737, ,0.022877758331357467,0.011342587054870495,0.008139402922841084,0.00046086189368179205,0.009519248593137372,0.019507186003351305, ,1.2277920246124268
0.011910740269226007,0.02102448054862528,-0.08498987452674694, ,0.012213971529902445,0.020932215688755078,-0.08537583587827181, ,0.0004994278393213509, ,0.003431639288046407,0.0009677426846664014,-0.008722058884592699,-0.00888402616179438,-0.0030705704527875235,-0.004083396220408728, ,0.009422684611791451, ,0.009399695381862127, ,5.007246382126691e-05, ,0.14300956736488948,-0.21181911727422986,0.09518138954000001,3.013244487872615,0.28201773551586906,-0.2980866225066427, ,0.024770801764153166,0.011497043162004963,0.009096979737292977,0.013125667837196316,0.004745045880936174,0.021020800704561173, ,1.2372548580169678
0.011946408358683195,0.021035394065882465,-0.08508859410756955, ,0.012251417191996454,0.020942053536152003,-0.08547153515529049, ,0.0004983840777142535, ,0.0035487972673151737,0.0012456255729591881,-0.01029213214331803,-0.011752220667259915,0.007928336356381476,0.0016362035672113874, ,0.01095780676814634, ,0.014176497892870973, ,5.0630692702220435e-05, ,0.14325669481686465,-0.21169555354824227,0.09528379645000001,3.013244487872615,0.28201773551586906,-0.297841586286221, ,0.023477719336583564,0.012130505120602169,0.010690477530201345,0.012370467577024839,0.004745045880936174,0.03232261969910669, ,1.2460029125213623
0.011984662812820407,0.021048678900828854,-0.08520117457432817, ,0.012288867201964022,0.020951768318326222,-0.08556704466993571, ,0.00048558510915709734, ,0.003789477095375985,0.0014283876599842735,-0.011709991096720959,-0.011597570791668562,-0.0025016557560662255,0.0002365151772230024, ,0.012390493107574802, ,0.011864304008542175, ,5.115683087758887e-05, ,0.14350382226883984,-0.21156426708938045,0.09540046255000001,3.0134541778160995,0.28201773551586906,-0.29759655006579927, ,0.023933654869727813,0.013477764743427179,0.012131615780654989,0.008710387175912009,0.004745045880936174,0.02177696736460796, ,1.2550568580627441
0.01201979643038008,0.021062532384942226,-0.08531404615880005, ,0.012326321392301717,0.020961360597553214,-0.08566236452305147, ,0.00047488837185104244, ,0.0038843827214846824,0.0017213685319997507,-0.012529872319751589,-0.015033188929639302,0.018554709498923478,0.01106343454851217, ,0.01323061748744951, ,0.023880404208134663, ,5.165546749814364e-05, ,0.14372005878931812,-0.21144070336339285,0.09551712865,3.0134541778160995,0.28201773551586906,-0.2973515138453776, ,0.02359446582756608,0.012139815985476626,0.01300311144489796,0.008710387175912009,0.004473302068015436,0.045546587435153885, ,1.2640399932861328
0.01201979643038008,0.021062532384942226,-0.08531404615880005, ,0.012363779596139199,0.02097083093515325,-0.08575749481582158, ,0.0005686653546975298, ,0.0038843827214846824,0.0017213685319997507,-0.012529872319751589,-0.015033188929639302,0.018554709498923478,0.01106343454851217, ,0.01323061748744951, ,0.023880404208134663, ,5.2318550803464074e-05, ,0.14372005878931812,-0.21144070336339285,0.09551712865,3.0134541778160995,0.28201773551586906,-0.2973515138453776, ,0.02359446582756608,0.012139815985476626,0.01300311144489796,0.008710387175912009,0.004473302068015436,0.045546587435153885, ,1.274718999862671
0.012106081691681253,0.021098695924376628,-0.08557620612162609, ,0.012401241647238189,0.020980179891492794,-0.08585243564976992, ,0.0004212697492503596, ,0.0041548666353542546,0.0014276784700454426,-0.011807853909441574,-0.01661647241407178,0.031183275048821457,0.008648643899371557, ,0.012598674395273733, ,0.035334169987703404, ,5.270399725080316e-05, ,0.14426065009051384,-0.21115496224704655,0.09579064584000001,3.0140832476465533,0.28242764501516543,-0.2968689801550613, ,0.027466553273074033,0.013912467608630812,0.012281273338473403,0.01880197893538638,0.006306718236163506,0.06176838805926105, ,1.2864949703216553
0.012148380054776848,0.021111806149652593,-0.08568353219476359, ,0.012438707379991856,0.02098940802598377,-0.08594718712675892, ,0.0004108347351546749, ,0.0038255424635183833,0.0007664331720783507,-0.008214015329151664,0.011373942226694557,-0.013972879658072743,-0.011445318269148477, ,0.009093527520988921, ,0.018016877929410178, ,5.30650419189466e-05, ,0.14454639120686014,-0.21102367578818473,0.09589823791,3.0140832476465533,0.2827009180146963,-0.2966834222617513, ,0.029701703148191167,0.014270216775709891,0.008844426163242644,0.01880197893538638,0.025574115156671257,0.011190977724811136, ,1.2962069511413574
0.012182551040498018,0.02111618222497815,-0.08575573673421752, ,0.012476176629423928,0.020998515897085505,-0.08604174934898973, ,0.00042645582069032956, ,0.0037163776649315173,0.0005420032415930937,-0.00743296808077017,0.0026009135530645996,0.012723858709085408,0.005096871309427678, ,0.008327919605282428, ,0.012986966892638693, ,5.344890509639202e-05, ,0.14483985505608069,-0.21087694386357447,0.09597860789000001,3.0140832476465533,0.2827009180146963,-0.29619334982090795, ,0.029907639949092592,0.014909181705965557,0.007842841713441656,0.01597839030868989,0.023495984959008665,0.0416545171317612, ,1.3048880100250244
0.01221499508601535,0.021118929402682788,-0.08582151847713726, ,0.012513649231188001,0.021007504062304626,-0.08613612241900183, ,0.00044786777640719023, ,0.0037226795693765737,0.0002890818492686303,-0.007690110113365596,-0.011067385403919492,-0.006159778511777438,-0.00462334005965559, ,0.008548666857909375, ,0.012666091113622527, ,5.3865403594651135e-05, ,0.14510242797380432,-0.21073021193896418,0.09604731126,3.0140832476465533,0.2828375545144617,-0.2959780527640421, ,0.029361677462398136,0.01673372272235422,0.007996391325301206,0.013933943971441747,0.00787866768853299,0.022115647082596182, ,1.3196778297424316
0.012268203939593193,0.021124631807192994,-0.08592805683099819, ,0.012551125021566707,0.021016373078195805,-0.08623030643967215, ,0.0004279241953579091, ,0.0035058986313291312,0.0004176169028960149,-0.007135234817963526,-0.01371604916077031,0.00435877570266225,0.01176806252213313, ,0.00796098643374167, ,0.014391973864357165, ,5.433678055849885e-05, ,0.14552717828188666,-0.2105139754184859,0.09615879220000001,3.0142929375900374,0.28297419101422716,-0.2956810769670357, ,0.028026267441958293,0.013733276636537017,0.007460801648711945,0.003322570200224491,0.006236056204291155,0.035410551385252016, ,1.326427936553955
0.012268203939593193,0.021124631807192994,-0.08592805683099819, ,0.01258860383747095,0.021025123500362463,-0.0863243015142147, ,0.0005191992360026282, ,0.0035058986313291312,0.0004176169028960149,-0.007135234817963526,-0.01371604916077031,0.00435877570266225,0.01176806252213313, ,0.00796098643374167, ,0.014391973864357165, ,5.496387368231422e-05, ,0.14552717828188666,-0.2105139754184859,0.09615879220000001,3.0142929375900374,0.28297419101422716,-0.2956810769670357, ,0.028026267441958293,0.013733276636537017,0.007460801648711945,0.003322570200224491,0.006236056204291155,0.035410551385252016, ,1.3329739570617676
0.012305881436475555,0.021129841728032693,-0.08601132238328911, ,0.012626085516439083,0.02103375588345776,-0.0864181077461803, ,0.0005265334498543182, ,0.0038497732449883255,0.0005739927910445829,-0.009324063129343942,-0.004809045498785413,-0.017486967192406395,-0.013066148524555975, ,0.010103879205631381, ,0.018136175719377992, ,5.559722189388581e-05, ,0.14581291939823296,-0.2103517980281272,0.09624564363000002,3.0145026275335223,0.2831108275139926,-0.29554745865031046, ,0.027935514147327284,0.017777621123730006,0.009665540970873788,0.015942690551916175,0.012002898520471914,0.0064501473703236, ,1.3401789665222168
0.012348885925018848,0.021138687810767644,-0.08612121026169002, ,0.012663569896636221,0.021042270781184085,-0.08651172523945581, ,0.0005107095000545993, ,0.004337366060933969,0.0011569792626426783,-0.011571177048232321,-0.013010366648568198,-0.0018564736854582622,-0.0006603291754077633, ,0.012411425528208493, ,0.013142143182802123, ,5.619638188408257e-05, ,0.14611410598032773,-0.2101664524391458,0.09635971715000001,3.0147123174770067,0.28324746401375805,-0.2954138403335852, ,0.029683122164050918,0.016182970934254907,0.012021744543396226,0.012405607970371851,0.006665726727911889,0.027959637060586334, ,1.3467960357666016
0.012348885925018848,0.021138687810767644,-0.08612121026169002, ,0.012701056816853367,0.021050668746295208,-0.08660515409826416, ,0.0006049572957855989, ,0.004337366060933969,0.0011569792626426783,-0.011571177048232321,-0.013010366648568198,-0.0018564736854582622,-0.0006603291754077633, ,0.012411425528208493, ,0.013142143182802123, ,5.69526525082305e-05, ,0.14611410598032773,-0.2101664524391458,0.09635971715000001,3.0147123174770067,0.28324746401375805,-0.2954138403335852, ,0.029683122164050918,0.016182970934254907,0.012021744543396226,0.012405607970371851,0.006665726727911889,0.027959637060586334, ,1.3533108234405518
0.012391088994225015,0.021150983302122922,-0.0862333749322349, ,0.012738546116506738,0.021058950330595592,-0.08669839442716291, ,0.0005877411422859137, ,0.00466062887738187,0.0015166552997012486,-0.012736764381624785,-0.01121333910143098,-0.00819793594643316,-0.000705969918133713, ,0.013647229453036373, ,0.013890456882047212, ,5.7671416619887776e-05, ,0.14639984709667403,-0.21002744324740977,0.09647638325,3.014922007420491,0.28324746401375805,-0.295250482853304, ,0.03138126374288055,0.015003469021102098,0.013274009600000001,0.010379936426728579,0.006665726727911889,0.02312661513656101, ,1.3631420135498047
0.012419731116248271,0.021160264907077994,-0.08631319517923344, ,0.012776037635636804,0.021067116084941842,-0.08679144633104453, ,0.000603618425027565, ,0.005052975530692559,0.001782095568662121,-0.01440771046016737,-0.01399197177403199,0.010704778811107613,-0.007311589413177629, ,0.01537174508745312, ,0.017617234251917913, ,5.841001726340047e-05, ,0.14658519268565542,-0.20993477045291908,0.09655934581000002,3.0151316973639757,0.28324746401375805,-0.29500544663288236, ,0.032521227401806296,0.016081501704536653,0.014998880903954804,0.025935768684271505,0.006358014414441622,0.042408520290242974, ,1.370115041732788
0.012494077258628587,0.021187701714893977,-0.08653219497851256, ,0.012813531214907761,0.021075166559242905,-0.08688430991513578, ,0.0004885692581743197, ,0.005029284921812035,0.0018826274802526992,-0.014468064193212306,-0.0004822697532032446,-0.011669348430869447,-0.018001659584506658, ,0.015432526512307717, ,0.011679282639361075, ,5.894472580671807e-05, ,0.14706400212385734,-0.20967992026806967,0.09678749285,3.0151316973639757,0.28352073701328895,-0.29465653125929125, ,0.03209230353685181,0.01583991680161422,0.0150983995450237,0.02583823972293118,0.014677081070435813,0.015153754311177148, ,1.3767869472503662
0.012494077258628587,0.021187701714893977,-0.08653219497851256, ,0.012851026695606489,0.02108310230246118,-0.0869769852849975, ,0.0005798209675262723, ,0.005029284921812035,0.0018826274802526992,-0.014468064193212306,-0.0004822697532032446,-0.011669348430869447,-0.018001659584506658, ,0.015432526512307717, ,0.011679282639361075, ,5.962891390537022e-05, ,0.14706400212385734,-0.20967992026806967,0.09678749285,3.0151316973639757,0.28352073701328895,-0.29465653125929125, ,0.03209230353685181,0.01583991680161422,0.0150983995450237,0.02583823972293118,0.014677081070435813,0.015153754311177148, ,1.383424997329712
0.012545328006571104,0.02120656037783782,-0.0866761082143182, ,0.012888523919642009,0.021090923862612097,-0.0870694725465232, ,0.0005346875127148572, ,0.005286264854949728,0.0018121832219775398,-0.014649249295449397,-0.012764243679309343,0.021252307762490423,0.004653168807362548, ,0.015678938390940828, ,0.02479084160106314, ,6.0229928721246475e-05, ,0.14740380237032322,-0.20952546561058516,0.09693786249000001,3.0151316973639757,0.28365737351305437,-0.2943595554622849, ,0.0346718821916225,0.01676624409160261,0.015286767293666029,0.02132748981058566,0.011854389786955062,0.057281397404495615, ,1.3903858661651611
0.012599969727857336,0.021223937206831786,-0.08682930763036424, ,0.012926022729544493,0.021098631786766284,-0.08716177180593948, ,0.00048222861409078676, ,0.005233323103374602,0.0016876758320413373,-0.014761015024156355,-0.00848765275539218,-0.013427724976020666,4.716642025075213e-05, ,0.01575193591155514, ,0.01588531858505562, ,6.0736716667342356e-05, ,0.14775904808253754,-0.20933239728872957,0.09709730616000001,3.01534138730746,0.2837940100128198,-0.2939809009251379, ,0.03413559048865855,0.018302206665085977,0.015360473982642238,0.008610043743451841,0.01241953200007853,0.019909848722868967, ,1.397068977355957
0.012599969727857336,0.021223937206831786,-0.08682930763036424, ,0.012963522968464628,0.02110622662104878,-0.08725388316980538, ,0.0005712189855503558, ,0.005233323103374602,0.0016876758320413373,-0.014761015024156355,-0.00848765275539218,-0.013427724976020666,4.716642025075213e-05, ,0.01575193591155514, ,0.01588531858505562, ,6.138723311474758e-05, ,0.14775904808253754,-0.20933239728872957,0.09709730616000001,3.01534138730746,0.2837940100128198,-0.2939809009251379, ,0.03413559048865855,0.018302206665085977,0.015360473982642238,0.008610043743451841,0.01241953200007853,0.019909848722868967, ,1.4050519466400146
0.012639213792132967,0.0212365190246389,-0.08693471057728314, ,0.013001024480172816,0.021113708910640433,-0.08734580674501152, ,0.0005612391265772119, ,0.005236563510051209,0.001730699848772054,-0.013980295871556126,0.00226382846236907,0.01616420836192547,0.005492860250867426, ,0.015028825370520103, ,0.016321948940763904, ,6.211800754866044e-05, ,0.14801389826738695,-0.20920111082986775,0.09720749081,3.015760767194429,0.28393064651258526,-0.2937656038682721, ,0.03525146417476626,0.017434676016621492,0.01465392044158234,0.01980724151971602,0.026766750419856107,0.050394493443416004, ,1.4098520278930664
0.012639213792132967,0.0212365190246389,-0.08693471057728314, ,0.013038527109058309,0.021121079199778413,-0.08743754263877987, ,0.0006523937157168154, ,0.005236563510051209,0.001730699848772054,-0.013980295871556126,0.00226382846236907,0.01616420836192547,0.005492860250867426, ,0.015028825370520103, ,0.016321948940763904, ,6.299534592178253e-05, ,0.14801389826738695,-0.20920111082986775,0.09720749081,3.015760767194429,0.28393064651258526,-0.2937656038682721, ,0.03525146417476626,0.017434676016621492,0.01465392044158234,0.01980724151971602,0.026766750419856107,0.050394493443416004, ,1.4146389961242676
0.012704095102977295,0.021256467365206016,-0.08710294590792207, ,0.013076030700128534,0.021128338031756656,-0.08752909095866339, ,0.0005799593251166369, ,0.005156986689457316,0.001396210114646101,-0.013227895592194326,-0.00025196146708071805,0.008038533454170558,-0.04627078094595441, ,0.014266083421790093, ,0.008042456072361292, ,6.374694961925451e-05, ,0.14844637130834354,-0.20898487430938945,0.09738378625,3.016389837024883,0.28420391951211615,-0.29317165227425934, ,0.034111050164798984,0.018281052120684028,0.013815101058109283,0.06226702138666028,0.015064892878892502,0.03135822096678006, ,1.4191110134124756
0.012704095102977295,0.021256467365206016,-0.08710294590792207, ,0.013113535099008233,0.021135485948926672,-0.08762045181254527, ,0.0006708874531205989, ,0.005156986689457316,0.001396210114646101,-0.013227895592194326,-0.00025196146708071805,0.008038533454170558,-0.04627078094595441, ,0.014266083421790093, ,0.008042456072361292, ,6.464363865206324e-05, ,0.14844637130834354,-0.20898487430938945,0.09738378625,3.016389837024883,0.28420391951211615,-0.29317165227425934, ,0.034111050164798984,0.018281052120684028,0.013815101058109283,0.06226702138666028,0.015064892878892502,0.03135822096678006, ,1.4236118793487549
0.012758344049243387,0.02127070372565583,-0.08724414000767386, ,0.013151040151938749,0.021142523492698056,-0.08771162530863844, ,0.0006238452595084585, ,0.005305275872013715,0.0012312585304047633,-0.013819582109594391,0.004494262829703128,-0.013793300957075068,0.03053842510595047, ,0.014854049930260998, ,0.01450699988363601, ,6.545705638595194e-05, ,0.1488170624863063,-0.20876091505603694,0.09753156331000001,3.0165995269683674,0.28461382901141247,-0.2928524760642241, ,0.03718532192730046,0.02305002223912334,0.014415214045248871,-0.016793793074994783,0.03538879538381757,0.025825655939203843, ,1.4282050132751465
0.012758344049243387,0.02127070372565583,-0.08724414000767386, ,0.013188545705777198,0.021149451203539105,-0.08780261155548574, ,0.0007153084014042499, ,0.005305275872013715,0.0012312585304047633,-0.013819582109594391,0.004494262829703128,-0.013793300957075068,0.03053842510595047, ,0.014854049930260998, ,0.01450699988363601, ,6.641507980993939e-05, ,0.1488170624863063,-0.20876091505603694,0.09753156331000001,3.0165995269683674,0.28461382901141247,-0.2928524760642241, ,0.03718532192730046,0.02305002223912334,0.014415214045248871,-0.016793793074994783,0.03538879538381757,0.025825655939203843, ,1.4326939582824707
0.012812809061126813,0.021285671653117313,-0.08739318782833075, ,0.013226051607995655,0.021156269620977452,-0.0878934106619582, ,0.0006616170884634488, ,0.005775100363983215,0.0019650022240625155,-0.016112337068028847,0.02508643043920515,0.009161048617802498,0.020757499373311446, ,0.017228477116345082, ,0.026706791609095764, ,6.727911073942234e-05, ,0.1491877536642691,-0.20852923306981022,0.09768711811000001,3.016389837024883,0.2850237385107088,-0.29245162111404827, ,0.038065359630353304,0.022460814570052258,0.016909566369426754,0.0059429197111216,0.0561637385140238,0.04481191570418058, ,1.4370989799499512
0.012812809061126813,0.021285671653117313,-0.08739318782833075, ,0.013263557706680508,0.021162979283600922,-0.08798402273725596, ,0.0007532022627493225, ,0.005775100363983215,0.0019650022240625155,-0.016112337068028847,0.02508643043920515,0.009161048617802498,0.020757499373311446, ,0.017228477116345082, ,0.026706791609095764, ,6.828667432455342e-05, ,0.1491877536642691,-0.20852923306981022,0.09768711811000001,3.016389837024883,0.2850237385107088,-0.29245162111404827, ,0.038065359630353304,0.022460814570052258,0.016909566369426754,0.0059429197111216,0.0561637385140238,0.04481191570418058, ,1.4415929317474365
0.012812809061126813,0.021285671653117313,-0.08739318782833075, ,0.013301063850531506,0.021169580729057873,-0.08807444789090657, ,0.0008461590364029739, ,0.006798490934198778,0.002258521230189588,-0.01936861379405109,-0.01028814817820338,0.021576730044971182,0.024786248893631756, ,0.020650995071247926, ,0.02390394416363806, ,6.943859914233567e-05, ,0.14958161304085452,-0.2083129965493319,0.09786470984000001,3.0165995269683674,0.2852970115102396,-0.2917759907798949, ,0.043450980567065374,0.02401846154352589,0.020188607756653994,0.0074093256600381175,0.02600527758049809,0.06907496214017572, ,1.4469249248504639
0.01287386346619876,0.021305537361230496,-0.08756328619476181, ,0.01333856988886117,0.021176074494057912,-0.08816468623276529, ,0.0007709699727945475, ,0.006798490934198778,0.002258521230189588,-0.01936861379405109,-0.01028814817820338,0.021576730044971182,0.024786248893631756, ,0.020650995071247926, ,0.02390394416363806, ,7.046140298458467e-05, ,0.14958161304085452,-0.2083129965493319,0.09786470984000001,3.0165995269683674,0.2852970115102396,-0.2917759907798949, ,0.043450980567065374,0.02401846154352589,0.020188607756653994,0.0074093256600381175,0.02600527758049809,0.06907496214017572, ,1.452996015548706
0.012948289430466258,0.021333480042642305,-0.08778265513281158, ,0.013376075671593778,0.0211824611143724,-0.08825473787301434, ,0.0006547288739555855, ,0.007646079261032421,0.003058556738051676,-0.023713929060945743,0.020322006310519416,-0.005047848644007449,-0.015957959663831286, ,0.025103141813196183, ,0.020939370028057555, ,7.12901224490789e-05, ,0.15003725428043377,-0.20804270089873406,0.09809415317,3.0170189068553364,0.28584355750930146,-0.29140487499327505, ,0.04484732587829433,0.02765062399722342,0.02473417937888199,0.035197159038430334,0.049363055205844705,0.030379831135158228, ,1.457718849182129
0.012948289430466258,0.021333480042642305,-0.08778265513281158, ,0.013413581049264774,0.021188741124835438,-0.08834460292216227, ,0.0007437949736373409, ,0.007646079261032421,0.003058556738051676,-0.023713929060945743,0.020322006310519416,-0.005047848644007449,-0.015957959663831286, ,0.025103141813196183, ,0.020939370028057555, ,7.225670561425444e-05, ,0.15003725428043377,-0.20804270089873406,0.09809415317,3.0170189068553364,0.28584355750930146,-0.29140487499327505, ,0.04484732587829433,0.02765062399722342,0.02473417937888199,0.035197159038430334,0.049363055205844705,0.030379831135158228, ,1.4623818397521973
0.013024839128993375,0.021364993684583056,-0.08801563115395304, ,0.01345108587301996,0.0211949150593442,-0.08843428149104388, ,0.0006211933115405162, ,0.007834186789106391,0.0032992585544334378,-0.0233184034748806,0.04128334790904627,0.0036972767742445324,-0.05692905596821011, ,0.02481949899318951, ,0.04144849545837634, ,7.302061571090829e-05, ,0.1504851727871388,-0.20778012798101042,0.09833785569,3.0176479766857898,0.2863901035083632,-0.2910337592066551, ,0.04622354678931845,0.02544153929181522,0.0244682204608295,0.07983590236532265,0.06172611920302921,0.029758985363553536, ,1.466822862625122
0.013024839128993375,0.021364993684583056,-0.08801563115395304, ,0.013488589994614617,0.02120098345085931,-0.08852377369081935, ,0.0007072291424308618, ,0.007834186789106391,0.0032992585544334378,-0.0233184034748806,0.04128334790904627,0.0036972767742445324,-0.05692905596821011, ,0.02481949899318951, ,0.04144849545837634, ,7.391708202242434e-05, ,0.1504851727871388,-0.20778012798101042,0.09833785569,3.0176479766857898,0.2863901035083632,-0.2910337592066551, ,0.04622354678931845,0.02544153929181522,0.0244682204608295,0.07983590236532265,0.06172611920302921,0.029758985363553536, ,1.4713268280029297
0.013101553223561402,0.021390232101379594,-0.0882386115409261, ,0.013526093266412825,0.02120694683140629,-0.08861307963297348, ,0.0005950244449895107, ,0.0076987568712416415,0.0021826016014149154,-0.021254988507292495,-0.007506911006480801,0.015191435635357202,-0.017007777311664918, ,0.022711432001486065, ,0.016944883929208322, ,7.46291684570496e-05, ,0.1504851727871388,-0.20778012798101042,0.09833785569,3.0176479766857898,0.2863901035083632,-0.2910337592066551, ,0.04622354678931845,0.02544153929181522,0.0244682204608295,0.07983590236532265,0.06172611920302921,0.029758985363553536, ,1.476308822631836
0.013101553223561402,0.021390232101379594,-0.0882386115409261, ,0.01356359554138665,0.021212805732075242,-0.08870219942931644, ,0.0006781422787646127, ,0.0076987568712416415,0.0021826016014149154,-0.021254988507292495,-0.007506911006480801,0.015191435635357202,-0.017007777311664918, ,0.022711432001486065, ,0.016944883929208322, ,7.546866677744724e-05, ,0.15096398222534071,-0.20750210959753834,0.09856989160000001,3.0176479766857898,0.2866633765078941,-0.2903581288725018, ,0.04851581879267422,0.029127360822121175,0.022123349333333337,0.04506643548547504,0.02630857664672153,0.058683086382263334, ,1.4808368682861328
0.013101553223561402,0.021390232101379594,-0.0882386115409261, ,0.013601096673115319,0.021218560683022275,-0.08879113319198187, ,0.0007643918555024175, ,0.0076987568712416415,0.0021826016014149154,-0.021254988507292495,-0.007506911006480801,0.015191435635357202,-0.017007777311664918, ,0.022711432001486065, ,0.016944883929208322, ,7.643932266660472e-05, ,0.15096398222534071,-0.20750210959753834,0.09856989160000001,3.0176479766857898,0.2866633765078941,-0.2903581288725018, ,0.04851581879267422,0.029127360822121175,0.022123349333333337,0.04506643548547504,0.02630857664672153,0.058683086382263334, ,1.4852018356323242
0.013182935127431787,0.021410260494132808,-0.08845505952095918, ,0.013638596515784503,0.021224212213469304,-0.08887988103342688, ,0.0006501650413769676, ,0.007723799352953057,0.0014774393227442433,-0.019624948653643587,-0.011835813265896616,-0.0019396190933349561,-0.009318899654113505, ,0.02114186635695194, ,0.011993568563586606, ,7.734568241180275e-05, ,0.15146595986216532,-0.20719320028256938,0.09877989058000002,3.0176479766857898,0.2870732860071904,-0.2898755951821854, ,0.051630544917557544,0.03275696981652426,0.02050040092664093,0.03126722612613674,0.025318060860615988,0.04633382036952379, ,1.4875199794769287
0.013182935127431787,0.021410260494132808,-0.08845505952095918, ,0.013676094924185523,0.021229760851705456,-0.08896844306643201, ,0.0007344040923175992, ,0.007723799352953057,0.0014774393227442433,-0.019624948653643587,-0.011835813265896616,-0.0019396190933349561,-0.009318899654113505, ,0.02114186635695194, ,0.011993568563586606, ,7.838205214351536e-05, ,0.15146595986216532,-0.20719320028256938,0.09877989058000002,3.0176479766857898,0.2870732860071904,-0.2898755951821854, ,0.051630544917557544,0.03275696981652426,0.02050040092664093,0.03126722612613674,0.025318060860615988,0.04633382036952379, ,1.490022897720337
0.013182935127431787,0.021410260494132808,-0.08845505952095918, ,0.013713591753714543,0.021235207125087557,-0.0890568194041006, ,0.0008211912651692404, ,0.007723799352953057,0.0014774393227442433,-0.019624948653643587,-0.011835813265896616,-0.0019396190933349561,-0.009318899654113505, ,0.02114186635695194, ,0.011993568563586606, ,7.955183043174485e-05, ,0.15146595986216532,-0.20719320028256938,0.09877989058000002,3.0176479766857898,0.2870732860071904,-0.2898755951821854, ,0.051630544917557544,0.03275696981652426,0.02050040092664093,0.03126722612613674,0.025318060860615988,0.04633382036952379, ,1.4968128204345703
0.013218700978213935,0.021415758994382153,-0.08854370774300355, ,0.013751086860371816,0.02124055156004001,-0.08914501015985753, ,0.0008220078886995057, ,0.00779218632863578,0.001234808719936871,-0.018574614057243515,-0.0023835482850795555,-0.025929719063686758,-0.015683597326370823, ,0.020180664204395227, ,0.026038998100864713, ,8.071921417115956e-05, ,0.15175170097851162,-0.20700785469358798,0.09888748265000001,3.0176479766857898,0.2872099225069558,-0.28966029812531957, ,0.05428886816846154,0.033544341307342095,0.019354570498177404,0.02681875695057716,0.03164251065452029,0.021781797292293355, ,1.500208854675293
0.013218700978213935,0.021415758994382153,-0.08854370774300355, ,0.013788580100760856,0.021245794682056365,-0.08923301544744938, ,0.0009103818941453161, ,0.00779218632863578,0.001234808719936871,-0.018574614057243515,-0.0023835482850795555,-0.025929719063686758,-0.015683597326370823, ,0.020180664204395227, ,0.026038998100864713, ,8.202166735793217e-05, ,0.15175170097851162,-0.20700785469358798,0.09888748265000001,3.0176479766857898,0.2872099225069558,-0.28966029812531957, ,0.05428886816846154,0.033544341307342095,0.019354570498177404,0.02681875695057716,0.03164251065452029,0.021781797292293355, ,1.5026040077209473
0.013218700978213935,0.021415758994382153,-0.08854370774300355, ,0.013826071332087738,0.02125093701569958,-0.0893208353809444, ,0.0009999961985293544, ,0.00779218632863578,0.001234808719936871,-0.018574614057243515,-0.0023835482850795555,-0.025929719063686758,-0.015683597326370823, ,0.020180664204395227, ,0.026038998100864713, ,0.0004590327440132082, ,0.15175170097851162,-0.20700785469358798,0.09888748265000001,3.0176479766857898,0.2872099225069558,-0.28966029812531957, ,0.05428886816846154,0.033544341307342095,0.019354570498177404,0.02681875695057716,0.03164251065452029,0.021781797292293355, ,1.5048799514770508
0.01333982468837792,0.02143170538177422,-0.08880597771352378, ,0.013863560412160244,0.021255979084602555,-0.08940847007473081, ,0.0008174202622863487, ,0.007564473519167917,0.0006645058248361145,-0.015174899835668719,-0.0016184267455570459,-0.025881276172810594,-0.0017599495122695569, ,0.016968807048110726, ,0.025931813603621862, ,0.00046209588519502995, ,0.1526320925261732,-0.20650587705676338,0.09916229613000001,3.0182770465162436,0.28775646850601755,-0.28920750359855907, ,0.057513297914224715,0.032005713847713585,0.015928811520000002,0.015854072436293498,0.03368015705227875,0.027859251913328983, ,1.5071308612823486
0.01333982468837792,0.02143170538177422,-0.08880597771352378, ,0.013901047199387088,0.021260921411468833,-0.08949591964351745, ,0.0009056256059432662, ,0.007564473519167917,0.0006645058248361145,-0.015174899835668719,-0.0016184267455570459,-0.025881276172810594,-0.0017599495122695569, ,0.016968807048110726, ,0.025931813603621862, ,0.00046585461164204894, ,0.1526320925261732,-0.20650587705676338,0.09916229613000001,3.0182770465162436,0.28775646850601755,-0.28920750359855907, ,0.057513297914224715,0.032005713847713585,0.015928811520000002,0.015854072436293498,0.03368015705227875,0.027859251913328983, ,1.5093739032745361
0.01333982468837792,0.02143170538177422,-0.08880597771352378, ,0.013938531552777215,0.02126576451807302,-0.08958318420233286, ,0.000995005631125609, ,0.007564473519167917,0.0006645058248361145,-0.015174899835668719,-0.0016184267455570459,-0.025881276172810594,-0.0017599495122695569, ,0.016968807048110726, ,0.025931813603621862, ,0.00047030125886459985, ,0.1526320925261732,-0.20650587705676338,0.09916229613000001,3.0182770465162436,0.28775646850601755,-0.28920750359855907, ,0.057513297914224715,0.032005713847713585,0.015928811520000002,0.015854072436293498,0.03368015705227875,0.027859251913328983, ,1.5116150379180908
0.01333982468837792,0.02143170538177422,-0.08880597771352378, ,0.013976013331938895,0.02127050892526221,-0.08967026386652459, ,0.0010852238672536298, ,0.007564473519167917,0.0006645058248361145,-0.015174899835668719,-0.0016184267455570459,-0.025881276172810594,-0.0017599495122695569, ,0.016968807048110726, ,0.025931813603621862, ,0.00047542561393450845, ,0.1526320925261732,-0.20650587705676338,0.09916229613000001,3.0182770465162436,0.28775646850601755,-0.28920750359855907, ,0.057513297914224715,0.032005713847713585,0.015928811520000002,0.015854072436293498,0.03368015705227875,0.027859251913328983, ,1.5138659477233887
0.01333982468837792,0.02143170538177422,-0.08880597771352378, ,0.014013492397079115,0.02127515515295538,-0.08975715875175894, ,0.0011760448645302887, ,0.007564473519167917,0.0006645058248361145,-0.015174899835668719,-0.0016184267455570459,-0.025881276172810594,-0.0017599495122695569, ,0.016968807048110726, ,0.025931813603621862, ,0.00048121585567496947, ,0.15324218842323695,-0.20614290861167484,0.09934896189,3.0191158062901815,0.287893105005783,-0.288665491581131, ,0.06783198109969318,0.04355068451513115,0.023253739445255477,0.09429998155357122,0.015179054265057399,0.06565688325597484, ,1.5166218280792236
0.013424962186048316,0.021438663247185123,-0.08898513640737984, ,0.0140509686090025,0.021279703720144896,-0.08984386897402022, ,0.0010745109556563445, ,0.009865111788537119,0.0009903817619586266,-0.022401731040485345,-0.0264584265670819,0.010629856184962587,-0.06569561110433347, ,0.02449773132853324, ,0.028513795560147177, ,0.00048607893026498075, ,0.15324218842323695,-0.20614290861167484,0.09934896189,3.0191158062901815,0.287893105005783,-0.288665491581131, ,0.06783198109969318,0.04355068451513115,0.023253739445255477,0.09429998155357122,0.015179054265057399,0.06565688325597484, ,1.5189259052276611
0.013424962186048316,0.021438663247185123,-0.08898513640737984, ,0.014088441829110915,0.021284155144896955,-0.08993039464961095, ,0.0011651571288615952, ,0.009865111788537119,0.0009903817619586266,-0.022401731040485345,-0.0264584265670819,0.010629856184962587,-0.06569561110433347, ,0.02449773132853324, ,0.028513795560147177, ,0.0004915998912291808, ,0.15324218842323695,-0.20614290861167484,0.09934896189,3.0191158062901815,0.287893105005783,-0.288665491581131, ,0.06783198109969318,0.04355068451513115,0.023253739445255477,0.09429998155357122,0.015179054265057399,0.06565688325597484, ,1.5211918354034424
0.013424962186048316,0.021438663247185123,-0.08898513640737984, ,0.014125911919402401,0.02128850994435219,-0.09001673589515055, ,0.0012562141721098301, ,0.009865111788537119,0.0009903817619586266,-0.022401731040485345,-0.0264584265670819,0.010629856184962587,-0.06569561110433347, ,0.02449773132853324, ,0.028513795560147177, ,0.0004977661354298313, ,0.15324218842323695,-0.20614290861167484,0.09934896189,3.0191158062901815,0.287893105005783,-0.288665491581131, ,0.06783198109969318,0.04355068451513115,0.023253739445255477,0.09429998155357122,0.015179054265057399,0.06565688325597484, ,1.523447036743164
0.013424962186048316,0.021438663247185123,-0.08898513640737984, ,0.014163378742470482,0.02129276863472616,-0.09010289282757547, ,0.0013475621186540756, ,0.009865111788537119,0.0009903817619586266,-0.022401731040485345,-0.0264584265670819,0.010629856184962587,-0.06569561110433347, ,0.02449773132853324, ,0.028513795560147177, ,0.0005045645032956252, ,0.15324218842323695,-0.20614290861167484,0.09934896189,3.0191158062901815,0.287893105005783,-0.288665491581131, ,0.06783198109969318,0.04355068451513115,0.023253739445255477,0.09429998155357122,0.015179054265057399,0.06565688325597484, ,1.525697946548462
0.013530594641073548,0.021460053827376962,-0.08925938117702598, ,0.014200842161503375,0.021296931731310063,-0.09018886556413802, ,0.0011574894309464097, ,0.011483338806862368,0.003233904540232417,-0.03285583863020271,-0.020791851093256923,0.008072305458777448,-0.01762454009341981, ,0.03495470413009453, ,0.022303024442772438, ,0.0005097464471658696, ,0.1539217889161687,-0.2056949901049698,0.09963414569000001,3.019744876120635,0.2883030145050794,-0.288101279150674, ,0.0688157661772812,0.04411759254229232,0.03410880411134904,0.050181039187606774,0.02950989474391671,0.07227058048189963, ,1.5279710292816162
0.013530594641073548,0.021460053827376962,-0.08925938117702598, ,0.01423830204028328,0.021300999748471466,-0.0902746542224068, ,0.0012477689367785707, ,0.011483338806862368,0.003233904540232417,-0.03285583863020271,-0.020791851093256923,0.008072305458777448,-0.01762454009341981, ,0.03495470413009453, ,0.022303024442772438, ,0.0005155576478714813, ,0.1539217889161687,-0.2056949901049698,0.09963414569000001,3.019744876120635,0.2883030145050794,-0.288101279150674, ,0.0688157661772812,0.04411759254229232,0.03410880411134904,0.050181039187606774,0.02950989474391671,0.07227058048189963, ,1.5302848815917969
0.013530594641073548,0.021460053827376962,-0.08925938117702598, ,0.014275758243185468,0.021304973199654853,-0.0903602589202654, ,0.00133837610579651, ,0.011483338806862368,0.003233904540232417,-0.03285583863020271,-0.020791851093256923,0.008072305458777448,-0.01762454009341981, ,0.03495470413009453, ,0.022303024442772438, ,0.0005219859170740207, ,0.1539217889161687,-0.2056949901049698,0.09963414569000001,3.019744876120635,0.2883030145050794,-0.288101279150674, ,0.0688157661772812,0.04411759254229232,0.03410880411134904,0.050181039187606774,0.02950989474391671,0.07227058048189963, ,1.534186840057373
0.013530594641073548,0.021460053827376962,-0.08925938117702598, ,0.01431321063517762,0.021308852597382036,-0.09044567977591234, ,0.001429214459729268, ,0.011483338806862368,0.003233904540232417,-0.03285583863020271,-0.020791851093256923,0.008072305458777448,-0.01762454009341981, ,0.03495470413009453, ,0.022303024442772438, ,0.0005290186964744489, ,0.1539217889161687,-0.2056949901049698,0.09963414569000001,3.019744876120635,0.2883030145050794,-0.288101279150674, ,0.0688157661772812,0.04411759254229232,0.03410880411134904,0.050181039187606774,0.02950989474391671,0.07227058048189963, ,1.536578893661499
0.013530594641073548,0.021460053827376962,-0.08925938117702598, ,0.014350659081818977,0.02131263845325337,-0.09053091690786037, ,0.0015202105427511267, ,0.011483338806862368,0.003233904540232417,-0.03285583863020271,-0.020791851093256923,0.008072305458777448,-0.01762454009341981, ,0.03495470413009453, ,0.022303024442772438, ,0.0005366432491381157, ,0.1539217889161687,-0.2056949901049698,0.09963414569000001,3.019744876120635,0.2883030145050794,-0.288101279150674, ,0.0688157661772812,0.04411759254229232,0.03410880411134904,0.050181039187606774,0.02950989474391671,0.07227058048189963, ,1.540022850036621
0.013618715489612888,0.021490987975255834,-0.08952551548208387, ,0.014388103449259542,0.02131633127794748,-0.09061597043493606, ,0.0013459401170051275, ,0.012433909594316641,0.004966920260350432,-0.03839613435273195,0.041424885728326755,-0.021040524934697165,-0.005958026302968378, ,0.04066368819850656, ,0.04646118159265601, ,0.0005428210878241235, ,0.15443921201874175,-0.20536291259137815,0.09991155175000001,3.019744876120635,0.2888495605041411,-0.28764848462391357, ,0.0705553468836214,0.04337154550204332,0.04012295093198993,0.03264770375016257,0.08835660921480003,0.03703218218339908, ,1.5422868728637695
0.013618715489612888,0.021490987975255834,-0.08952551548208387, ,0.014425543604239399,0.021319931581222966,-0.09070084047627981, ,0.0014358345094310076, ,0.012433909594316641,0.004966920260350432,-0.03839613435273195,0.041424885728326755,-0.021040524934697165,-0.005958026302968378, ,0.04066368819850656, ,0.04646118159265601, ,0.000549586341018115, ,0.15443921201874175,-0.20536291259137815,0.09991155175000001,3.019744876120635,0.2888495605041411,-0.28764848462391357, ,0.0705553468836214,0.04337154550204332,0.04012295093198993,0.03264770375016257,0.08835660921480003,0.03703218218339908, ,1.5445818901062012
0.013618715489612888,0.021490987975255834,-0.08952551548208387, ,0.014462979414087848,0.02132343987191811,-0.0907855271513442, ,0.0015259368754224861, ,0.012433909594316641,0.004966920260350432,-0.03839613435273195,0.041424885728326755,-0.021040524934697165,-0.005958026302968378, ,0.04066368819850656, ,0.04646118159265601, ,0.000556927322479802, ,0.15443921201874175,-0.20536291259137815,0.09991155175000001,3.019744876120635,0.2888495605041411,-0.28764848462391357, ,0.0705553468836214,0.04337154550204332,0.04012295093198993,0.03264770375016257,0.08835660921480003,0.03703218218339908, ,1.5468089580535889
0.013824569663920521,0.021571029414792983,-0.09015789143454098, ,0.014500410746722564,0.021326856657951778,-0.09087003057989472, ,0.0010116934648062288, ,0.014012971277428482,0.005124505136144524,-0.04373545798790258,0.006122911358988083,0.0341027657605907,0.02530857117091111, ,0.04621054211242277, ,0.03464575959905481, ,0.0005603210996613426, ,0.15554356281975584,-0.2047064802970691,0.10053895611000001,3.0203739459510888,0.2899426525022646,-0.28641618060983026, ,0.07765707165177642,0.05074702757137475,0.04551089005714286,0.030692983839722812,0.07520263065035827,0.10810209503963317, ,1.549057960510254
0.013824569663920521,0.021571029414792983,-0.09015789143454098, ,0.014537837470648953,0.021330182446324477,-0.09095435088200875, ,0.0010959497606169383, ,0.014012971277428482,0.005124505136144524,-0.04373545798790258,0.006122911358988083,0.0341027657605907,0.02530857117091111, ,0.04621054211242277, ,0.03464575959905481, ,0.0005642887193721247, ,0.15554356281975584,-0.2047064802970691,0.10053895611000001,3.0203739459510888,0.2899426525022646,-0.28641618060983026, ,0.07765707165177642,0.05074702757137475,0.04551089005714286,0.030692983839722812,0.07520263065035827,0.10810209503963317, ,1.5513010025024414
0.013824569663920521,0.021571029414792983,-0.09015789143454098, ,0.014575259454959385,0.021333417743118324,-0.09103848817807442, ,0.0011812895892234464, ,0.014012971277428482,0.005124505136144524,-0.04373545798790258,0.006122911358988083,0.0341027657605907,0.02530857117091111, ,0.04621054211242277, ,0.03464575959905481, ,0.0005688254904739728, ,0.15554356281975584,-0.2047064802970691,0.10053895611000001,3.0203739459510888,0.2899426525022646,-0.28641618060983026, ,0.07765707165177642,0.05074702757137475,0.04551089005714286,0.030692983839722812,0.07520263065035827,0.10810209503963317, ,1.553548812866211
0.013824569663920521,0.021571029414792983,-0.09015789143454098, ,0.01461267656933222,0.021336563053498146,-0.0911224425887918, ,0.0012674564679321539, ,0.014012971277428482,0.005124505136144524,-0.04373545798790258,0.006122911358988083,0.0341027657605907,0.02530857117091111, ,0.04621054211242277, ,0.03464575959905481, ,0.0005739249866597989, ,0.15554356281975584,-0.2047064802970691,0.10053895611000001,3.0203739459510888,0.2899426525022646,-0.28641618060983026, ,0.07765707165177642,0.05074702757137475,0.04551089005714286,0.030692983839722812,0.07520263065035827,0.10810209503963317, ,1.555830955505371
0.013824569663920521,0.021571029414792983,-0.09015789143454098, ,0.014650088684031146,0.0213396188817119,-0.09120621423517045, ,0.0013542574281520088, ,0.014012971277428482,0.005124505136144524,-0.04373545798790258,0.006122911358988083,0.0341027657605907,0.02530857117091111, ,0.04621054211242277, ,0.03464575959905481, ,0.0005795795695691628, ,0.15554356281975584,-0.2047064802970691,0.10053895611000001,3.0203739459510888,0.2899426525022646,-0.28641618060983026, ,0.07765707165177642,0.05074702757137475,0.04551089005714286,0.030692983839722812,0.07520263065035827,0.10810209503963317, ,1.5580430030822754
0.013972448896799383,0.021621695010148618,-0.09059621763134328, ,0.014687495669904509,0.021342585731091268,-0.09128980323853063, ,0.0010345312329173126, ,0.015539303160220487,0.004978922704242189,-0.04429024775415403,0.03847080559702314,0.025894170389137695,-0.04819633528949499, ,0.0472004836852802, ,0.046371764206058215, ,0.00058285260311843, ,0.15643167710029166,-0.20411955259862802,0.10102895373000001,3.021422395668511,0.2908991080006227,-0.2853174949124723, ,0.09037803957949597,0.057029411994273305,0.046304684651162796,0.1035292743437991,0.0992372719825723,0.09578189919628927, ,1.561156988143921
0.013972448896799383,0.021621695010148618,-0.09059621763134328, ,0.014724897398384274,0.021345464104052532,-0.0913732097205017, ,0.0011163328211760057, ,0.015539303160220487,0.004978922704242189,-0.04429024775415403,0.03847080559702314,0.025894170389137695,-0.04819633528949499, ,0.0472004836852802, ,0.046371764206058215, ,0.0005866631761045555, ,0.15643167710029166,-0.20411955259862802,0.10102895373000001,3.021422395668511,0.2908991080006227,-0.2853174949124723, ,0.09037803957949597,0.057029411994273305,0.046304684651162796,0.1035292743437991,0.0992372719825723,0.09578189919628927, ,1.5633959770202637
0.013972448896799383,0.021621695010148618,-0.09059621763134328, ,0.014762293741485499,0.02134825450209656,-0.09145643380302206, ,0.0011994150458197101, ,0.015539303160220487,0.004978922704242189,-0.04429024775415403,0.03847080559702314,0.025894170389137695,-0.04819633528949499, ,0.0472004836852802, ,0.046371764206058215, ,0.0005910089340457977, ,0.15643167710029166,-0.20411955259862802,0.10102895373000001,3.021422395668511,0.2908991080006227,-0.2853174949124723, ,0.09037803957949597,0.057029411994273305,0.046304684651162796,0.1035292743437991,0.0992372719825723,0.09578189919628927, ,1.565626859664917
0.013972448896799383,0.021621695010148618,-0.09059621763134328, ,0.014799684571805432,0.021350957425810682,-0.09153947560833854, ,0.00128349262278404, ,0.015539303160220487,0.004978922704242189,-0.04429024775415403,0.03847080559702314,0.025894170389137695,-0.04819633528949499, ,0.0472004836852802, ,0.046371764206058215, ,0.0005958855797411375, ,0.15643167710029166,-0.20411955259862802,0.10102895373000001,3.021422395668511,0.2908991080006227,-0.2853174949124723, ,0.09037803957949597,0.057029411994273305,0.046304684651162796,0.1035292743437991,0.0992372719825723,0.09578189919628927, ,1.5678198337554932
0.014130961232489995,0.02166692552847547,-0.09102969736679556, ,0.014837069762522654,0.021353573374867825,-0.09162233525900633, ,0.0009736521450905632, ,0.01512851139036988,0.003523552270916573,-0.03836687594042697,0.026884695677937845,0.012744939804646447,0.013463469525692145, ,0.04139208193510621, ,0.029751255732273548, ,0.0005985273039743503, ,0.15740474144244396,-0.2035171794344385,0.10148265523000001,3.021632085611996,0.29199219999874626,-0.2843302271188108, ,0.09683361383517426,0.058759716135276016,0.04022427151515152,0.04268134407569203,0.09985692087912341,0.10223335521274406, ,1.5701298713684082
0.014130961232489995,0.02166692552847547,-0.09102969736679556, ,0.01487444918739641,0.02135610284802804,-0.09170501287788743, ,0.0010513972214594857, ,0.01512851139036988,0.003523552270916573,-0.03836687594042697,0.026884695677937845,0.012744939804646447,0.013463469525692145, ,0.04139208193510621, ,0.029751255732273548, ,0.0006016722339568859, ,0.15740474144244396,-0.2035171794344385,0.10148265523000001,3.021632085611996,0.29199219999874626,-0.2843302271188108, ,0.09683361383517426,0.058759716135276016,0.04022427151515152,0.04268134407569203,0.09985692087912341,0.10223335521274406, ,1.5724518299102783
0.014130961232489995,0.02166692552847547,-0.09102969736679556, ,0.014911822720765884,0.021358546343139096,-0.0917875085881518, ,0.0011309819773252761, ,0.01512851139036988,0.003523552270916573,-0.03836687594042697,0.026884695677937845,0.012744939804646447,0.013463469525692145, ,0.04139208193510621, ,0.029751255732273548, ,0.0006053226459801162, ,0.15740474144244396,-0.2035171794344385,0.10148265523000001,3.021632085611996,0.29199219999874626,-0.2843302271188108, ,0.09683361383517426,0.058759716135276016,0.04022427151515152,0.04268134407569203,0.09985692087912341,0.10223335521274406, ,1.574841022491455
0.014130961232489995,0.02166692552847547,-0.09102969736679556, ,0.014949190237549299,0.021360904357136806,-0.09186982251327516, ,0.0012120057441180714, ,0.01512851139036988,0.003523552270916573,-0.03836687594042697,0.026884695677937845,0.012744939804646447,0.013463469525692145, ,0.04139208193510621, ,0.029751255732273548, ,0.0006094780096659926, ,0.15740474144244396,-0.2035171794344385,0.10148265523000001,3.021632085611996,0.29199219999874626,-0.2843302271188108, ,0.09683361383517426,0.058759716135276016,0.04022427151515152,0.04268134407569203,0.09985692087912341,0.10223335521274406, ,1.577219009399414
0.014284612745441265,0.021693302834209456,-0.09139452100047055, ,0.014986551613243072,0.021363177386045762,-0.09195195477703977, ,0.0009552137985374728, ,0.01523377541577304,0.0016539377822694257,-0.033472268836163735,-0.0007600143825254105,-0.0020867974369292025,0.05387763967204144, ,0.03681298961842473, ,0.0022114086766893883, ,0.0006118299538079755, ,0.1584318649147158,-0.2028839153387521,0.10186506078000002,3.0218417755554805,0.29294865549710436,-0.2833132201615933, ,0.10650610724856428,0.0659923098459463,0.03508548792951543,0.0,0.08671632841350686,0.10800421353860744, ,1.5795588493347168
0.014284612745441265,0.021693302834209456,-0.09139452100047055, ,0.015023906723921239,0.021365365924980007,-0.0920339055035331, ,0.0010309756281349552, ,0.01523377541577304,0.0016539377822694257,-0.033472268836163735,-0.0007600143825254105,-0.0020867974369292025,0.05387763967204144, ,0.03681298961842473, ,0.0022114086766893883, ,0.0006146620191750497, ,0.1584318649147158,-0.2028839153387521,0.10186506078000002,3.0218417755554805,0.29294865549710436,-0.2833132201615933, ,0.10650610724856428,0.0659923098459463,0.03508548792951543,0.0,0.08671632841350686,0.10800421353860744, ,1.5817928314208984
0.014284612745441265,0.021693302834209456,-0.09139452100047055, ,0.015061255446234496,0.021367470468143746,-0.09211567481714807, ,0.001108784669257263, ,0.01523377541577304,0.0016539377822694257,-0.033472268836163735,-0.0007600143825254105,-0.0020867974369292025,0.05387763967204144, ,0.03681298961842473, ,0.0022114086766893883, ,0.0006179782785715746, ,0.1584318649147158,-0.2028839153387521,0.10186506078000002,3.0218417755554805,0.29294865549710436,-0.2833132201615933, ,0.10650610724856428,0.0659923098459463,0.03508548792951543,0.0,0.08671632841350686,0.10800421353860744, ,1.5840258598327637
0.014284612745441265,0.021693302834209456,-0.09139452100047055, ,0.015098597657409545,0.021369491508831835,-0.09219726284258224, ,0.001188200183652443, ,0.01523377541577304,0.0016539377822694257,-0.033472268836163735,-0.0007600143825254105,-0.0020867974369292025,0.05387763967204144, ,0.03681298961842473, ,0.0022114086766893883, ,0.0006217797579387804, ,0.1584318649147158,-0.2028839153387521,0.10186506078000002,3.0218417755554805,0.29294865549710436,-0.2833132201615933, ,0.10650610724856428,0.0659923098459463,0.03508548792951543,0.0,0.08671632841350686,0.10800421353860744, ,1.586249828338623
0.014438850168523556,0.021702807732338673,-0.09170955075972366, ,0.015135933235248231,0.021371429539430283,-0.09227866970483664, ,0.000958974807977781, ,0.015371489125684725,0.0006145444963488924,-0.030063559992203854,0.0032976228084249676,-0.007182666345438259,0.012303078034406497, ,0.033770963597206945, ,0.007901927201986141, ,0.0006240128377403632, ,0.15945126565411344,-0.20224292851019146,0.10217228151,3.022470845385934,0.293768474495697,-0.2823481527809606, ,0.11151226975143451,0.06993142340344198,0.031794034970059885,0.03848409249781941,0.08641950238045924,0.0998560495070317, ,1.5888309478759766
0.014438850168523556,0.021702807732338673,-0.09170955075972366, ,0.015173262058126732,0.02137328505141709,-0.09235989552921667, ,0.0010348402485597325, ,0.015371489125684725,0.0006145444963488924,-0.030063559992203854,0.0032976228084249676,-0.007182666345438259,0.012303078034406497, ,0.033770963597206945, ,0.007901927201986141, ,0.0006267156496536485, ,0.15945126565411344,-0.20224292851019146,0.10217228151,3.022470845385934,0.293768474495697,-0.2823481527809606, ,0.11151226975143451,0.06993142340344198,0.031794034970059885,0.03848409249781941,0.08641950238045924,0.0998560495070317, ,1.5913269519805908
0.014438850168523556,0.021702807732338673,-0.09170955075972366, ,0.015210584004994913,0.02137505853536295,-0.09244094044133058, ,0.001112620113441289, ,0.015371489125684725,0.0006145444963488924,-0.030063559992203854,0.0032976228084249676,-0.007182666345438259,0.012303078034406497, ,0.033770963597206945, ,0.007901927201986141, ,0.0006298914958221952, ,0.15945126565411344,-0.20224292851019146,0.10217228151,3.022470845385934,0.293768474495697,-0.2823481527809606, ,0.11151226975143451,0.06993142340344198,0.031794034970059885,0.03848409249781941,0.08641950238045924,0.0998560495070317, ,1.5935330390930176
0.014438850168523556,0.021702807732338673,-0.09170955075972366, ,0.015247898955375377,0.02137675048093157,-0.09252180456708899, ,0.0011919016395160417, ,0.015371489125684725,0.0006145444963488924,-0.030063559992203854,0.0032976228084249676,-0.007182666345438259,0.012303078034406497, ,0.033770963597206945, ,0.007901927201986141, ,0.0006335409123396878, ,0.15945126565411344,-0.20224292851019146,0.10217228151,3.022470845385934,0.293768474495697,-0.2823481527809606, ,0.11151226975143451,0.06993142340344198,0.031794034970059885,0.03848409249781941,0.08641950238045924,0.0998560495070317, ,1.595801830291748
0.014438850168523556,0.021702807732338673,-0.09170955075972366, ,0.015285206789362791,0.021378361376880803,-0.09260248803270539, ,0.0012723686339612252, ,0.015371489125684725,0.0006145444963488924,-0.030063559992203854,0.0032976228084249676,-0.007182666345438259,0.012303078034406497, ,0.033770963597206945, ,0.007901927201986141, ,0.0006376623815114396, ,0.15945126565411344,-0.20224292851019146,0.10217228151,3.022470845385934,0.293768474495697,-0.2823481527809606, ,0.11151226975143451,0.06993142340344198,0.031794034970059885,0.03848409249781941,0.08641950238045924,0.0998560495070317, ,1.597977876663208
0.014583640620136373,0.021709238566144207,-0.09198621789545687, ,0.015322507387623118,0.021379891711062436,-0.09268299096469422, ,0.0010676545139055994, ,0.01585670734050653,0.0005965215446739457,-0.030498677733134773,0.016102328571092638,0.005097475809142705,-0.0596956892928545, ,0.034379650217902805, ,0.01688913429168401, ,0.0006404187413344791, ,0.160571061920876,-0.2015633280172597,0.10248727998000001,3.0235192951033567,0.2945882934942896,-0.2812197279200468, ,0.11351308798860141,0.0705553468836214,0.03211453935483872,0.11255865453049123,0.08860946591889068,0.09834991070259401, ,1.6001958847045898
0.014583640620136373,0.021709238566144207,-0.09198621789545687, ,0.015359800631392723,0.021381341970423687,-0.09276331348987156, ,0.001146219046874236, ,0.01585670734050653,0.0005965215446739457,-0.030498677733134773,0.016102328571092638,0.005097475809142705,-0.0596956892928545, ,0.034379650217902805, ,0.01688913429168401, ,0.0006436403993315475, ,0.160571061920876,-0.2015633280172597,0.10248727998000001,3.0235192951033567,0.2945882934942896,-0.2812197279200468, ,0.11351308798860141,0.0705553468836214,0.03211453935483872,0.11255865453049123,0.08860946591889068,0.09834991070259401, ,1.6024630069732666
0.014583640620136373,0.021709238566144207,-0.09198621789545687, ,0.015397086402477755,0.021382712641007332,-0.09284345573535413, ,0.0012260383088416099, ,0.01585670734050653,0.0005965215446739457,-0.030498677733134773,0.016102328571092638,0.005097475809142705,-0.0596956892928545, ,0.034379650217902805, ,0.01688913429168401, ,0.0006473264620499656, ,0.160571061920876,-0.2015633280172597,0.10248727998000001,3.0235192951033567,0.2945882934942896,-0.2812197279200468, ,0.11351308798860141,0.0705553468836214,0.03211453935483872,0.11255865453049123,0.08860946591889068,0.09834991070259401, ,1.604909896850586
0.014583640620136373,0.021709238566144207,-0.09198621789545687, ,0.015434364583253141,0.02138400420795259,-0.09292341782855867, ,0.0013068482558336442, ,0.01585670734050653,0.0005965215446739457,-0.030498677733134773,0.016102328571092638,0.005097475809142705,-0.0596956892928545, ,0.034379650217902805, ,0.01688913429168401, ,0.0006514743978599259, ,0.160571061920876,-0.2015633280172597,0.10248727998000001,3.0235192951033567,0.2945882934942896,-0.2812197279200468, ,0.11351308798860141,0.0705553468836214,0.03211453935483872,0.11255865453049123,0.08860946591889068,0.09834991070259401, ,1.607403039932251
0.014583640620136373,0.021709238566144207,-0.09198621789545687, ,0.015471635056662048,0.02138521715549539,-0.09300319989720175, ,0.001388443872013711, ,0.01585670734050653,0.0005965215446739457,-0.030498677733134773,0.016102328571092638,0.005097475809142705,-0.0596956892928545, ,0.034379650217902805, ,0.01688913429168401, ,0.000656080457073387, ,0.160571061920876,-0.2015633280172597,0.10248727998000001,3.0235192951033567,0.2945882934942896,-0.2812197279200468, ,0.11351308798860141,0.0705553468836214,0.03211453935483872,0.11255865453049123,0.08860946591889068,0.09834991070259401, ,1.6097948551177979
0.014583640620136373,0.021709238566144207,-0.09198621789545687, ,0.015508897706214941,0.021386351966969516,-0.0930828020692994, ,0.0014706642314230383, ,0.01585670734050653,0.0005965215446739457,-0.030498677733134773,0.016102328571092638,0.005097475809142705,-0.0596956892928545, ,0.034379650217902805, ,0.01688913429168401, ,0.0006611399836221427, ,0.160571061920876,-0.2015633280172597,0.10248727998000001,3.0235192951033567,0.2945882934942896,-0.2812197279200468, ,0.11351308798860141,0.0705553468836214,0.03211453935483872,0.11255865453049123,0.08860946591889068,0.09834991070259401, ,1.6126010417938232
0.014720030402914277,0.021711327445777938,-0.09225701013125534, ,0.015546152415988853,0.021387409124806644,-0.09316222447316605, ,0.001267601539896545, ,0.01571337907980014,-5.603639680422205e-05,-0.0314813578515763,0.011970249033560365,-0.06430693032525901,-0.025834609057419522, ,0.035185072322822815, ,0.06541129281556983, ,0.0006648835734756884, ,0.16155184899590253,-0.20090689572295062,0.10277116749000001,3.023728985046841,0.2954081124928823,-0.2807447329802575, ,0.11151226975143451,0.07875264859624131,0.03291076760330579,0.0455248009375757,0.09060764496338253,0.0317126016870231, ,1.614872932434082
