NicholasDascanio/dvrk_moveit_final/test/execution/third_experiment_notsharpbends/thirdexp_500vel3.0/thirdexp_500vel3.0_28.csv
Current Position (x),Current Position (y),Current Position (z), ,Planned Position (x),Planned Position (y),Planned Position (z), ,Position Error,,Cartesian linear Velocity(x),Cartesian linear Velocity(y),Cartesian linear Velocity(z),Cartesian Angular Velocity(x),Cartesian Angular Velocity(y),Cartesian Angular Velocity(z), ,Total Linear Velocity, ,Total Angular Velocity, ,MSE, ,Joint 1 Position,Joint 2 Position,Joint 3 Position,Joint 4 Position,Joint 5 Position,Joint 6 Position, ,Joint 1 Velocity,Joint 2 Velocity,Joint 3 Velocity,Joint 4 Velocity,Joint 5 Velocity,Joint 6 Velocity, ,Time Stamp
0.009983811536985429,0.0196794936253013,-0.0787302202403512, ,0.010039990967419369,0.019587575192633017,-0.07879947438359017, ,0.00012806741593332383, ,-2.0350840524074166e-05,1.77577003202723e-06,-2.1368249812172863e-06,0.02522660419242321,-0.1133947362548996,-0.05629921003727898, ,2.0539622446464286e-05, ,0.11616689618561489, ,1.0672284661110319e-05, ,0.13039062184840663,-0.21415910533511986,0.08854827361,2.999614641546121,0.26548471904425075,-0.21942542152720698, ,-0.00024730014497656113,-2.3837252232623557e-05,0.0,-0.00035123789180994275,0.0,-0.12939620523948436, ,0.02421283721923828
0.009986582759922397,0.019681780906924448,-0.07874874073084093, ,0.010059317544348903,0.01962314188032585,-0.078893789472068, ,0.00017253411731469278, ,0.00017767577140620993,0.0002575278813041982,-0.0011513496414217823,0.06365257567484918,-0.28676992595864703,-0.142384633238352, ,0.0011931032169078615, ,0.293749282253367, ,1.3663706056728027e-05, ,0.13039062184840663,-0.21417455080086834,0.08858068086000001,2.999614641546121,0.2641183540465964,-0.227050867685283, ,0.000343600768724397,-0.0002734328091568568,0.0011320947065667252,-0.00034028769099048915,-0.1566640001036795,-0.2105949588139182, ,0.04839301109313965
0.009999575665404426,0.019662326856099244,-0.0788031077154494, ,0.010078715152929418,0.01965839898079756,-0.07898781786055174, ,0.0002009883688023525, ,0.00043385982768212475,0.0004333369627274121,-0.0027794300119120094,-0.011710669471547927,-0.04143697433554702,-0.021682376439491585, ,0.0028462688672118404, ,0.04305998863667701, ,1.5674684439074033e-05, ,0.13040606731415508,-0.21418227353374256,0.08860790295000001,2.999614641546121,0.261522260551053,-0.2285277920812357, ,0.0005524786456427061,-6.247996193673802e-05,0.0027915898212408,-0.0003322053879727665,-0.020601277524167492,-0.043168355781323164, ,0.07093095779418945
0.010007403096973583,0.019678007921335814,-0.07886278890352234, ,0.01009818357508824,0.01969334775427042,-0.07908156058668224, ,0.000237355124304914, ,0.00043279677211874887,0.0007819383398762733,-0.0029680177734799466,0.043656775435890305,-0.1909610285898289,-0.09347297587771973, ,0.0030996564514503425, ,0.19588779564157358, ,1.759392919893531e-05, ,0.13040606731415508,-0.21421316446523944,0.08867012487,2.999614641546121,0.261522260551053,-0.23212165664742043, ,0.0005524786456427061,-0.0015472471930001812,0.003100196870377579,-0.00032609777309992394,0.0,-0.21642776053914015, ,0.09527182579040527
0.010023555926753183,0.019691158103362402,-0.07896374068294773, ,0.010117722593125404,0.019727989458615383,-0.07917501868589599, ,0.00023422703583325782, ,0.0005818019208885059,0.00153090745780638,-0.004439835213694323,0.02753098642529519,0.11816616316986103,0.06244440042595707, ,0.004732262444568862, ,0.12133094135508399, ,1.8714847349779634e-05, ,0.13042923551277774,-0.21423633266386213,0.08876734662,2.9994049516026364,0.26015589555339863,-0.22774032800483376, ,0.0007834570813017651,-0.001087833229419218,0.004797834795180723,0.0009069428646232327,0.049826937449667236,0.1561895751550952, ,0.1172478199005127
0.010038685991890173,0.019728896416297145,-0.07907845235950607, ,0.010137331989713397,0.01976232534935367,-0.07926819319142633, ,0.0002164488617425158, ,0.0005805503274387919,0.0010996386376713322,-0.0040769684049740285,-0.004122177789492648,0.006350941323940521,0.002636664053781504, ,0.004262383745195337, ,0.007571446645254604, ,1.9187434256952525e-05, ,0.13043695824565196,-0.21429811452685593,0.08889308675,2.999614641546121,0.2611123510517567,-0.2280301808898653, ,0.0004637789968367392,-0.0030194937061639223,0.004251083939151322,0.0005652412895570774,-0.005658603028829138,0.008500277091765276, ,0.14481592178344727
0.010051709564509967,0.01975168971166141,-0.07916694534862442, ,0.010157011547896964,0.01979635667965847,-0.07936108513430626, ,0.000225330650644502, ,0.0005070315106958913,0.0009451518533411254,-0.003434723731619436,0.0031302593879891367,-0.004308814787512508,-0.0020883680014068618, ,0.003598294052917641, ,0.005325824652684905, ,1.9652105202438314e-05, ,0.1304524037114004,-0.21435217365697548,0.08898512334000001,2.999614641546121,0.26097571455199126,-0.22816379920659058, ,0.0006845449377714611,-0.002250455984740642,0.003598105154732325,0.0005526085760726823,0.0,-0.0042537889278568206, ,0.1669619083404541
0.010068537568996231,0.019782533327716918,-0.07927148731491669, ,0.010176761051092713,0.019830084700357225,-0.07945369554337006, ,0.00021719413811882801, ,0.0007159407810794011,0.001058125135604401,-0.0034956781258353165,0.002181354458106117,0.002440724826556616,0.0026323090820494525, ,0.0037218228818757517, ,0.0032734453453334552, ,1.990421600846813e-05, ,0.13049101737577154,-0.2144448464514662,0.08909530799000001,2.999614641546121,0.26097571455199126,-0.22808212046645002, ,0.003175330885331584,-0.003360462254932663,0.003709550889613414,0.0005362672501138566,0.0,0.006255028016331602, ,0.19215893745422363
0.010080472907219024,0.019804444167866402,-0.07934688262585378, ,0.01019658028308895,0.019863510659932904,-0.07954602544525481, ,0.00023796561880959761, ,0.0005068274629238333,0.0011198360362675223,-0.0038517461350686564,0.0032802568542488154,0.00011189929528555365,-8.741187442077615e-05, ,0.00404312442478753, ,0.0032821647786699802, ,2.0327297081565047e-05, ,0.1305141855743942,-0.21452207378020843,0.08917438168000001,2.999614641546121,0.2608390780522258,-0.22788902382261303, ,0.0,-0.0032409806044427234,0.0040418197208830255,0.0005256348918665597,0.0,0.0, ,0.21447992324829102
0.010102332764978721,0.01984083584925314,-0.07946689296912277, ,0.010216469028045377,0.019896635804526344,-0.07963807586440308, ,0.00021317669945813343, ,0.0006857699438432837,0.0011030760788256306,-0.003789973546940389,0.0031144566068239503,-0.0023128813051780453,0.0003511528252318878, ,0.004006364528854565, ,0.0038793374570508833, ,2.042439246041292e-05, ,0.13058369017026222,-0.2146379147733218,0.08930141810000002,2.9998243314896054,0.2608390780522258,-0.22788902382261303, ,0.0023253924761319996,-0.003133664717703463,0.004000203797086892,5.873864891880861e-05,0.0,0.0, ,0.24024081230163574
0.010115819187129301,0.019865728245456335,-0.07954104862873937, ,0.010236427070492842,0.019929461377937586,-0.07972984782306447, ,0.00023292339831608455, ,0.0006714762540388744,0.0011035826845850777,-0.003271650937665945,0.004432835489241756,-0.0029737898049964776,0.0005245108937984798, ,0.0035174529079128472, ,0.005337926180095767, ,2.0680459189983948e-05, ,0.13063002656750758,-0.2147383103006867,0.08938049179,2.9998243314896054,0.2608390780522258,-0.22788902382261303, ,0.002986306905259721,-0.004463389800243952,0.003499299543057997,5.8739435405281024e-05,0.0,0.0, ,0.26370692253112793
0.010128748950440065,0.019887540779945773,-0.07960961268795796, ,0.010256454195333038,0.01996198862162817,-0.07982134234129754, ,0.0002582257864885612, ,0.0005700473137570893,0.0011035162004168295,-0.003647033081948866,0.003504590342990352,-0.0011065844746289532,0.0004026088082171215, ,0.003852733087735707, ,0.003675143810310679, ,2.110194439153085e-05, ,0.13067636296475293,-0.2148309830951774,0.08945049145,2.9998243314896054,0.26070244155246036,-0.22769592717877607, ,0.0011629253300505476,-0.0035271717972383686,0.003752370204946997,5.8851495991870516e-05,0.0,0.0, ,0.28684496879577637
0.010151217375749732,0.019926921129087633,-0.07973611992461005, ,0.010276550187838246,0.01999421877472248,-0.07991256043697224, ,0.00022664629116012877, ,0.000816327784228785,0.0013667376802669023,-0.00418144646815226,0.00018640390677113558,0.00018161984180913493,0.001468006378667613, ,0.0044742437913001835, ,0.000260251618820251, ,2.1220329597931e-05, ,0.13073814482774673,-0.21499316048553613,0.0895866019,3.00003402143309,0.2604291685529295,-0.22747309137138322, ,0.003200539635854955,-0.0056698511390475,0.004446904388609716,0.00047462149667276964,-0.004731434933783523,0.004471146674454113, ,0.3111448287963867
0.01016616809485824,0.019953251818631456,-0.07981645679498917, ,0.010296714833651095,0.020026153074010056,-0.08000350312577141, ,0.0002394647654756886, ,0.0007210655696343426,0.001270100307460384,-0.003507683875100756,0.0014231848556251702,-0.0026238884072126963,0.00011915100594934189, ,0.0037995968884034156, ,0.002985003346024354, ,2.1564172144699153e-05, ,0.1307922039578663,-0.21509355601290103,0.08967215704,3.00003402143309,0.2604291685529295,-0.2273097338911021, ,0.0031127303775622768,-0.006271816560999433,0.003763007682494685,0.00047462149667276964,-0.004731434933783523,0.0011819946688770358, ,0.331697940826416
0.01017724945766562,0.019975170123283828,-0.0798768560181256, ,0.010316947918784243,0.02005779275394706,-0.08009417142119266, ,0.0002712344807483435, ,0.0007208843574975229,0.001297942905815525,-0.003874905484827821,0.0005229290337929711,-0.000729643507413034,0.0006766342602801435, ,0.004149605108921835, ,0.0008976823205944509, ,2.2078551687672828e-05, ,0.13083081762223742,-0.21519395154026597,0.08973697154000002,3.00003402143309,0.2604291685529295,-0.22714637641082097, ,0.002511443884644231,-0.005652384591406837,0.004123430370178619,0.00047462149667276964,-0.004731434933783523,0.0026519843721583666, ,0.35263991355895996
0.010196794680411259,0.020009298703644103,-0.07998590755886549, ,0.010337249229620161,0.020089139046658263,-0.08018456633455122, ,0.0002560610667849511, ,0.0008037988172373381,0.0015408663314747492,-0.004981716662956754,0.0010282017186175902,0.00557091922744303,0.003564682605024034, ,0.005276159825104389, ,0.005665009862708247, ,2.24392693077728e-05, ,0.13089259948523121,-0.21532523799912778,0.08985234135,3.00003402143309,0.26029253205316405,-0.2271166372472651, ,0.0017625072785061838,-0.0054417382991377,0.005262243647175422,0.00047462149667276964,-0.0028042315757996275,0.008661662549739432, ,0.3733649253845215
0.01021318252571229,0.02003467283657327,-0.08006958427810046, ,0.010357618552910805,0.02012019318193885,-0.08027468887498056, ,0.0002650346978900809, ,0.00077499214327459,0.0012751859030139178,-0.004019524336179291,-0.005623400624852906,0.007384448053743308,0.004458218095089747, ,0.004287573649340654, ,0.009281848231725892, ,2.2814753082297357e-05, ,0.130954381348225,-0.2154333562593669,0.08994048907,3.00003402143309,0.26001925905363316,-0.22689380143987226, ,0.0028688198427411333,-0.005389271182297364,0.0042556269088966075,0.00047462149667276964,-0.008709882117628196,0.012905518519863247, ,0.3964347839355469
0.010231103896370351,0.020064122923727425,-0.08015414259381373, ,0.010378055675777414,0.020150956387256204,-0.08036454004943552, ,0.00027092797048556926, ,0.0008272318778570037,0.0013557142424946195,-0.004203095226447218,-0.003150017293456864,0.004994677783327747,2.7756508943861105e-05, ,0.004493137341505263, ,0.005905032920874359, ,2.3185347391590536e-05, ,0.13103160867696725,-0.2155569199853545,0.09003122937000001,3.0002437113765743,0.26001925905363316,-0.2268121226997317, ,0.0031290349328787228,-0.005709039464504072,0.004460602497899749,0.003754446984115382,-0.007609175037156406,0.009513053268828595, ,0.417921781539917
0.0102555467233522,0.02010561602126719,-0.08028091181116363, ,0.010398560385710158,0.020181429887751654,-0.08045412086269363, ,0.00023706966382116673, ,0.0007971334972576227,0.0014007847232975676,-0.004093808542044723,0.005642744620417163,-0.00017521700912987532,-0.0017154271536549202, ,0.0043996463531052535, ,0.005645464259181405, ,2.3338043828670384e-05, ,0.13112428147145794,-0.21572682010858746,0.09016604353,3.0002437113765743,0.2598826225538677,-0.2266190260558947, ,0.0030473571857901997,-0.005714936978357721,0.004378452864211106,0.0036108423251095968,-1.978409681468401e-05,0.0023896367085195587, ,0.4441978931427002
0.01027183089531834,0.020131943616273632,-0.08036002536779953, ,0.010419132470567923,0.02021161490624262,-0.0805434323173576, ,0.00024836138520818133, ,0.0007490984608963479,0.0012225980243855974,-0.0034034746271498716,-0.0042538324591830014,0.003953262504326377,-4.386111693909769e-05, ,0.003693173969772044, ,0.0058071830143565425, ,2.3534551473542937e-05, ,0.13119378606732596,-0.21584266110170083,0.09025030238000001,3.0002437113765743,0.2597459860541023,-0.22642592941205775, ,0.0034292121348477164,-0.006376273246061832,0.003635055116385213,0.003406238480050508,-0.009498026047111679,0.009073830848021195, ,0.4645979404449463
0.010287533857542129,0.020158062230222422,-0.08043223758571347, ,0.010439771718578022,0.020241512663224038,-0.08063247541385625, ,0.0002650198651427466, ,0.0007337630658837913,0.0012215080668892446,-0.003846330800332738,-0.004166812202328157,0.0043401606028957655,0.0019406673692312286, ,0.004101798486020365, ,0.006016586835287293, ,2.379537942393931e-05, ,0.131263290663194,-0.21595850209481418,0.09032807978000001,3.0004534013200588,0.2597459860541023,-0.22634425067191719, ,0.0026049908102740715,-0.005068385504600882,0.004072823196113527,0.0013347207841398155,-0.007827662090219043,0.00879357731398843, ,0.49196290969848633
0.010312165509121346,0.02019640304024433,-0.0805587189589583, ,0.010460477918335948,0.02027112437687033,-0.08072125115044818, ,0.00023237160356789834, ,0.0008113000245204114,0.001254985910314566,-0.003954219192272542,-0.000532546099160764,0.00396772676840014,0.0024884016789453152, ,0.004227179530775977, ,0.004003306144886211, ,2.388088735235454e-05, ,0.1313559634576847,-0.21609751128655022,0.09045770878,3.0004534013200588,0.2594727130545714,-0.22587637864410265, ,0.0034305280618487327,-0.0048722301531906095,0.004225148944297083,0.0013347207841398155,-0.003783544707400792,0.008685662835978304, ,0.5120558738708496
0.010320648477404097,0.0202110806572131,-0.08060376059869247, ,0.010481250858805047,0.020300451263037516,-0.08080976052322196, ,0.00027607281467619427, ,0.0006705529504451787,0.0011811597718262988,-0.0036528749810809395,-0.0005572881641588093,0.005066212692863915,0.002414383517459133, ,0.00389721378594228, ,0.005096771575895535, ,2.4156314507782485e-05, ,0.13138685438918157,-0.21615929314954402,0.09050956038,3.0004534013200588,0.2594727130545714,-0.22587637864410265, ,0.0021958012300040443,-0.004668346376071977,0.0038775101071080826,0.0013347207841398155,-0.003783544707400792,0.008521427654738314, ,0.5332667827606201
0.010337436117774094,0.02023843184386303,-0.08068763779542867, ,0.010502090329316306,0.020329494535264454,-0.08089800452609935, ,0.00028223675259775945, ,0.0007900484986693226,0.001311416354664363,-0.004058589817816507,0.0013016041385485438,-0.0021679357823010444,-0.0007047035774676464, ,0.004337757576768743, ,0.002528659286745366, ,2.4436963520889483e-05, ,0.1314563589850496,-0.21625968867690895,0.09059900439000002,3.0004534013200588,0.2594727130545714,-0.22571302116382153, ,0.0029928549332208215,-0.005107519937317616,0.004314412654387867,0.0013347207841398155,-0.003783544707400792,0.0012032579784019086, ,0.5534219741821289
0.010353768393733998,0.02026525814201264,-0.08077738567558446, ,0.010522996119568011,0.020358255404775233,-0.0809859841508368, ,0.00028425312302574415, ,0.0007364087293037829,0.001294597271907491,-0.004301865205231868,-0.0017718194601920728,0.00789258317660024,0.0022153075492745864, ,0.004552397627295946, ,0.00808901798278338, ,2.4704965401463394e-05, ,0.13150269538229495,-0.21635236147139963,0.09069363356000001,3.0006630912635437,0.25933607655480595,-0.2256016032601251, ,0.001898259839275246,-0.004354590175558166,0.004536830395898605,0.0025956430891679733,-0.004346494021157434,0.011175210509572302, ,0.5760409832000732
0.010371569018116394,0.020290715001950767,-0.08085786456986019, ,0.010543968019625526,0.020386735080480445,-0.08107370038702676, ,0.00029244892062401474, ,0.0009145163418133674,0.001240152282878056,-0.003909977822873326,-0.0013862644000189833,0.005444533995316616,0.0024381961424844736, ,0.004202647308486948, ,0.005618245144088637, ,2.498650850190855e-05, ,0.1315876454439114,-0.21645275699876457,0.09077918870000001,3.0006630912635437,0.25919944005504053,-0.22532682787614758, ,0.00469143330981289,-0.004628016207987239,0.004168754650615023,0.0025956430891679733,-0.004157123664519208,0.011537512775724547, ,0.595566987991333
0.010390117761565199,0.020319583615403147,-0.08094517159871481, ,0.010565005819921031,0.02041493476897984,-0.08116115422210106, ,0.00029381315329420727, ,0.0009190452459137009,0.001372782582625619,-0.0044686193073984705,-0.001275117095073699,0.006297282356367772,0.0024539318789735904, ,0.00476421396430211, ,0.006425082637611588, ,2.5351960195600922e-05, ,0.1316725955055279,-0.2165608752590037,0.09087252158,3.0006630912635437,0.25919944005504053,-0.22532682787614758, ,0.003838403889005393,-0.00474048816334116,0.004739307206188635,0.0025956430891679733,-0.004157123664519208,0.011537512775724547, ,0.6194589138031006
0.01041262801556531,0.020352820382805094,-0.08105136335506441, ,0.01058610931125322,0.020442855674563012,-0.08124834664133199, ,0.0002774968986930549, ,0.00096084003459636,0.0013562121539948142,-0.003971749115117992,0.00027573287506066244,0.003300208429469013,0.0017638679463819538, ,0.004305498346552573, ,0.003311707008172898, ,2.5633776109292423e-05, ,0.1317729910328928,-0.2166844389849913,0.09098529881,3.0006630912635437,0.25906280355527506,-0.22513373123231056, ,0.0051361469018279555,-0.0057633518035407625,0.00426245959860851,0.0025956430891679733,-0.003997113884241316,0.009580152255429453, ,0.6376478672027588
0.01043218402374624,0.020376653056433047,-0.08112663584884872, ,0.01060727828478698,0.020470498999212237,-0.08133527862783424, ,0.0002880917743503275, ,0.0011177378735755718,0.0014214827986977646,-0.004140847914217888,0.0025930395692224605,-6.059633042295304e-05,0.0009807164460117785, ,0.0045184701780250245, ,0.00259374727091469, ,2.5937884407739266e-05, ,0.13188110929313196,-0.21677711177948197,0.09106566879000001,3.000872781207028,0.2589261670555097,-0.22502231332861417, ,0.006780274286241132,-0.005841220905331812,0.004464353004484305,0.0027021877610611746,-0.0021712201189464813,0.007316489756015238, ,0.6585268974304199
0.010454196369982393,0.020405602985285442,-0.0812191551821987, ,0.010628512532053255,0.020497865942603655,-0.08142195116256709, ,0.0002828865272610095, ,0.0010390019233838198,0.0014012609884294976,-0.004738048513444993,-0.004411163078799154,0.004343277648003063,0.0015205787060980742, ,0.005048976239818127, ,0.006190510322066043, ,2.6206152920191564e-05, ,0.1319969502862453,-0.21688523003972113,0.09116418683000001,3.000872781207028,0.2587895305557442,-0.22466585920449605, ,0.004774302124928281,-0.004651515460888857,0.005013790217186026,0.0027021877610611746,-0.00742509200697105,0.010860091584496029, ,0.6759297847747803
0.010464481448943524,0.020421190590024285,-0.08126777244494171, ,0.010649811844948539,0.02052495770210957,-0.08150836522433601, ,0.0003209359043961395, ,0.001064311677637175,0.0015183410172256789,-0.004967510415266264,-0.003025561413904702,0.0040470061743763126,0.0014940682970183811, ,0.005302289931484658, ,0.005052947438868531, ,2.6591227941072555e-05, ,0.13204328668349066,-0.2169392891698407,0.09121603843000001,3.000872781207028,0.2587895305557442,-0.22466585920449605, ,0.004715381382880357,-0.005348179504831735,0.0052674641269841276,0.0027021877610611746,-0.006813212250085038,0.010361144671017213, ,0.694025993347168
0.010489726390036567,0.02045285659857731,-0.08137235922833584, ,0.010671176015734939,0.020551775472799853,-0.08159452178979568, ,0.00030342233612232493, ,0.001329556657432907,0.0014953651996055968,-0.005436495222891189,-0.003706626260000541,0.00190446239398446,0.0012350893915371304, ,0.005793040505126334, ,0.004167259350281001, ,2.6896589936337687e-05, ,0.13217457314235248,-0.2170319619643314,0.09132751937000001,3.0010824711505126,0.2587895305557442,-0.22450250172421493, ,0.0071598118959916805,-0.0036978196896874553,0.005748398238902924,0.002963299188801105,-0.005846976716374277,0.010488496625236814, ,0.7122609615325928
0.010515016116340039,0.02048409241820845,-0.08147464953764455, ,0.01069260483703949,0.0205783204474438,-0.08168042183345027, ,0.0002876784888280712, ,0.001140141240719492,0.0014651903711183352,-0.004817100854075105,0.003756813235848047,-0.001429261079475839,-0.00039168094334219043, ,0.0051624766837961, ,0.0040195062294508315, ,2.7134313770230702e-05, ,0.13231358233408852,-0.21714008022457054,0.09143640773,3.0010824711505126,0.25865289405597874,-0.22430940508037792, ,0.005936622709515874,-0.004371673473617654,0.005133358530454399,0.002963299188801105,-0.00010272628529271855,0.004414368392426137, ,0.7304408550262451
0.010537336437127221,0.02051148967046998,-0.0815688606010209, ,0.010714098101854252,0.020604593816512373,-0.08176606632765723, ,0.00028071901742759834, ,0.0011299313404817873,0.0013871121473422662,-0.004811898752115056,-0.004396987679267989,0.0036045175086997453,0.001314846662044988, ,0.0051337310549067405, ,0.005685599752214282, ,2.7337650854146846e-05, ,0.1324294233272019,-0.217225030286187,0.09153622206,3.0010824711505126,0.2585162575562133,-0.22411630843654096, ,0.005705434408469275,-0.004182171001907848,0.005093959552286537,0.002963299188801105,-0.0069545111436054175,0.010938864046927593, ,0.7519328594207764
0.010559184500795587,0.020538463662722314,-0.08165216892244155, ,0.01073565560353583,0.020630596768179656,-0.08185145624262773, ,0.0002816842118588797, ,0.0010732043744650405,0.0011400311655684792,-0.0038581504881240935,-0.004472722828193363,0.0025647754273982605,0.0007781637934264762, ,0.004163743973499152, ,0.005155901631719359, ,2.7533859592544682e-05, ,0.1325529870531895,-0.21731770308067772,0.09162566607000001,3.001292161093997,0.2585162575562133,-0.22411630843654096, ,0.006534025244149497,-0.003721938399231425,0.004109600495356037,0.003332392866495371,-0.006689914200478544,0.010565524228494789, ,0.7696778774261475
0.01057775537498654,0.020559944741308997,-0.08172276418905268, ,0.010757277135805121,0.020656330488324545,-0.08193659254642947, ,0.0002953656060776326, ,0.0010820031577783997,0.001284436046714295,-0.004029696722835247,0.00041569044106691804,-8.355977055491372e-05,-0.0001624256032383285, ,0.004365657163540284, ,0.0004240043814268605, ,2.7762111049496885e-05, ,0.13266110531342862,-0.21739493040941996,0.09170085089,3.001292161093997,0.25837962105644785,-0.22392321179270397, ,0.006404135011768086,-0.004593228003563798,0.00431792125779344,0.003332392866495371,-0.003304825765293241,0.006881144788557735, ,0.7881929874420166
0.010602405044506661,0.02058906660220475,-0.081824315615314, ,0.010778962492747018,0.020681796160533086,-0.08202147620498837, ,0.00028043466554200885, ,0.001119494450646805,0.0014003144823763634,-0.004810653249639739,-0.0006520175850057547,0.0019385668176340296,0.0003298863352015041, ,0.005133861428092051, ,0.0020452788712415366, ,2.7935220180494018e-05, ,0.13279239177229044,-0.21747988047103642,0.09180844296000001,3.001292161093997,0.2582429845566825,-0.22364843640872645, ,0.005584195669029548,-0.003952881015467929,0.005102117719410635,0.003332392866495371,-0.0034710387450587535,0.00827304716163813, ,0.8065738677978516
0.010612650601473804,0.020602525335682513,-0.08187212294112914, ,0.010800711468810308,0.020706994966099762,-0.08210610818209059, ,0.00031785198833838196, ,0.0010775036001080848,0.0013959859903625313,-0.004823961682530124,-0.0006872833291765247,0.002298736524234793,0.00023576175515682945, ,0.00513618508311891, ,0.0023992801774986388, ,2.820875707004309e-05, ,0.1328387281695358,-0.2175107714025333,0.09185899827,3.001292161093997,0.2582429845566825,-0.22364843640872645, ,0.00505263771594488,-0.0038791380832577365,0.005108663091725466,0.003332392866495371,-0.0034710387450587535,0.008078229565454424, ,0.8257718086242676
0.01063865246257477,0.020633138029045688,-0.08197985526766584, ,0.010822523858807116,0.020731928084029655,-0.08219048943938476, ,0.0002965382262236728, ,0.0011251573267899429,0.0013705069408848592,-0.004659335900903421,-0.0025342978509706967,0.0010657365136053395,-0.00030579751595393676, ,0.0049853464596244625, ,0.002749264941384916, ,2.8409516757474616e-05, ,0.1329700146283976,-0.2175957214641498,0.09197307179000001,3.0015018510374816,0.258106348056917,-0.22345533976488943, ,0.005835861022409559,-0.004207654250454521,0.004945300068301771,0.003470445532223645,-0.005751938299961944,0.007884981925360727, ,0.843303918838501
0.010649655596760009,0.020646406477611866,-0.08202357105500802, ,0.010844399457912891,0.020756596691040106,-0.08227462093638335, ,0.00033629317199530676, ,0.0011289236940688167,0.0013418221557091406,-0.00454900939413058,-0.002463997388459658,0.0004838092732504284,-0.0004896656569552103, ,0.004875288901436527, ,0.0025110461157136442, ,2.879125718717735e-05, ,0.1330935783543852,-0.21767294879289203,0.09207029354000001,3.0015018510374816,0.2579697115571516,-0.22309888564077135, ,0.006104539804454736,-0.0030779266578059837,0.004832770485436894,0.003470445532223645,-0.00452389545865723,0.008512301484943769, ,0.8588387966156006
0.010682233063189434,0.020686459418656485,-0.08216443352547821, ,0.010866338061665884,0.02078100196156262,-0.08235850363046501, ,0.0002837184317818644, ,0.0010002855803599238,0.0012756803325637619,-0.00447824563902066,-0.0020948423061883,0.0025999726394380688,-0.00012906051329551348, ,0.0047626269596278, ,0.003338895058625786, ,2.9015179888734902e-05, ,0.1331939738817501,-0.21774245338876005,0.09216881158000001,3.0015018510374816,0.2579697115571516,-0.22309888564077135, ,0.00462444595004097,-0.0034744966372961144,0.004735080713436386,0.003470445532223645,-0.00452389545865723,0.008061071144162792, ,0.8787739276885986
0.010692454042609567,0.020699461751930943,-0.08220696991125713, ,0.010888339465967144,0.020805145067744696,-0.0824421384768767, ,0.0003237967210781072, ,0.0011142554252989141,0.0013053243184165046,-0.004495739572945033,-0.0018093792875167483,0.0011169669664078043,-0.00017107029940233837, ,0.004812183603812469, ,0.0021263740906948387, ,2.9337881658405927e-05, ,0.1332480330118697,-0.21778106705313116,0.09221418173000001,3.0015018510374816,0.2579697115571516,-0.22309888564077135, ,0.005953621231922705,-0.003728247516635295,0.004773392724003596,0.003470445532223645,-0.00452389545865723,0.007886210940376236, ,0.8946578502655029
0.010714956865079742,0.020724928878047645,-0.08229759198134069, ,0.010910403467079981,0.020829027179451308,-0.08252552642873519, ,0.00031778914848937495, ,0.0012029666266836494,0.0015008814361399839,-0.0048182537906966295,0.0014029304597678535,-0.0025753208937807012,-0.0015153990238035875, ,0.005187999940422773, ,0.0029326590296229354, ,2.9632957713210474e-05, ,0.13336387400498306,-0.21785057164899918,0.09231010719,3.001711540980966,0.2578330750573861,-0.22290578899693436, ,0.0064997913155787086,-0.004988545751086465,0.005144964961240311,0.003541747825963263,-0.0032791127162565296,0.0040981240741806944, ,0.9109687805175781
0.010729530356314285,0.020740490255055144,-0.08235672111230181, ,0.010932529861629832,0.020852649464267282,-0.08260866843702933, ,0.00034244115086653766, ,0.001316533336093489,0.0014173690590791662,-0.005495744415244482,-0.0057478969548908415,0.003379877917545794,0.0008871717614673052, ,0.00582626825269583, ,0.0066679748895863335, ,2.9980922782473522e-05, ,0.1334411013337253,-0.21788918531337031,0.09237232911000001,3.001711540980966,0.2576964385576207,-0.22263101361295684, ,0.006709587371634621,-0.0026458692763935083,0.0057838821786492375,0.003541747825963263,-0.006721276548113394,0.011637596761486936, ,0.9261858463287354
0.010754800450951545,0.020771638424154304,-0.08246411069083001, ,0.010954718446603996,0.020876013087498892,-0.08269156545062215, ,0.00032030757575506486, ,0.00133169236822936,0.0015346053389502698,-0.00583239775326868,-0.005385849243163493,0.004847718508687121,0.0007301776019476145, ,0.006176186660251497, ,0.007246222468335543, ,3.0260520545202003e-05, ,0.1335646650597129,-0.21796641264211256,0.09248640263,3.0019212309244505,0.2576964385576207,-0.22254933487281628, ,0.006314811429924264,-0.003122713207866537,0.006138270335260117,0.004239570587889439,-0.006721276548113394,0.012683982091637921, ,0.9416508674621582
0.010774104661134484,0.02079335396121995,-0.08254502050273956, ,0.01097696901935119,0.0208991192121755,-0.08277421841625235, ,0.00032383934242612427, ,0.001328359400987568,0.0015697516670604478,-0.005850920924178745,-0.004865141202134298,0.004433033976314917,0.0005376148130534687, ,0.00620176867155038, ,0.006581898076928308, ,3.053916656164407e-05, ,0.1336650605870778,-0.2180050263064837,0.09257195777,3.0019212309244505,0.2576964385576207,-0.22246765613267572, ,0.00623307903487053,-0.0034641744107078917,0.006164400743034057,0.004239570587889439,-0.0066489446227458796,0.012108617791032004, ,0.9601149559020996
0.010800038256156675,0.020822417738129786,-0.08264611086790136, ,0.010999281377581573,0.020921968999051563,-0.08285662827853671, ,0.0003064732535913468, ,0.001372870618093066,0.0013557097536495177,-0.004875876823316215,-0.003760789008720228,0.001087032693556659,-1.0899371602423073e-05, ,0.005243748417526903, ,0.003914737703738376, ,3.0765814697731696e-05, ,0.13381179251168807,-0.2180745309023517,0.09267954984000001,3.0019212309244505,0.2576964385576207,-0.22238597739253516, ,0.008318581596190843,-0.003347647052085611,0.005181786441119064,0.004239570587889439,-0.005714156653502149,0.010531488765279259, ,0.9753849506378174
0.010819209880496576,0.020840250553882646,-0.0827148394427166, ,0.011021655319366136,0.020944563606608277,-0.08293879597997189, ,0.0003194086712464306, ,0.0013106809628570064,0.001288463007636591,-0.004769602619009114,-0.0010423744167704146,-0.0007753786631884892,-0.0010218058553045813, ,0.004993879012562325, ,0.001622551489445094, ,3.1015930006294936e-05, ,0.13392763350480144,-0.21811314456672282,0.09275214208,3.0019212309244505,0.2575598020578552,-0.22219288074869814, ,0.007779100044886696,-0.002565940361306782,0.005061586120114395,0.004239570587889439,-0.002773419910728621,0.007346377165616179, ,0.9963798522949219
0.010840990770027443,0.020861969458119176,-0.08279436937377786, ,0.011044090643136604,0.02096690419105585,-0.0830207224609363, ,0.0003217088383921107, ,0.0013343543952890596,0.0013333198004815906,-0.005241845410833959,-0.0018693865074963425,0.0015182000405526731,0.0005771036728307586, ,0.005570923321466967, ,0.0024082220246568653, ,3.126320501420994e-05, ,0.13405119723078904,-0.2181672036968424,0.09283640093000001,3.0021309208679354,0.2574231655580898,-0.22183642662458, ,0.0073147887646158654,-0.0018442346524917658,0.005530837333333334,0.003536601271972556,-0.002361079815644821,0.009533316110987277, ,1.0115058422088623
0.010867196375424486,0.020888289197146255,-0.08289206931238485, ,0.01106658714768518,0.020988991906334485,-0.08310240865969232, ,0.00030682300553624585, ,0.0013623940540963475,0.0013866488397024773,-0.004837491771705886,0.0016504206779194488,-0.008217063041796284,-0.0035350539135934433, ,0.005213467100175033, ,0.008381170013658066, ,3.1467810991969884e-05, ,0.13420565188827352,-0.21821354009408775,0.09294010413,3.0021309208679354,0.2574231655580898,-0.22134635418373663, ,0.008275657395584555,-0.003441650588761841,0.005158293886010364,0.003536601271972556,-0.002361079815644821,-0.00043941452268463077, ,1.0272629261016846
0.010894849621482752,0.02091412276940476,-0.08298700543886403, ,0.011089144632164188,0.02101082790411718,-0.08318385551238759, ,0.000293005777590951, ,0.001255724703521218,0.0012480442277241935,-0.004391524110471772,0.002660800887108335,-0.013135588264788903,-0.007660615213466073, ,0.004734970215138003, ,0.01340237064065747, ,3.163424371656293e-05, ,0.13437555201150647,-0.2182598764913331,0.09304121475,3.00234061081142,0.2574231655580898,-0.22134635418373663, ,0.007672526723777175,-0.0030058897287342577,0.004682190335097002,0.0047883273078171825,-0.002361079815644821,-0.007023939917317122, ,1.0434298515319824
0.010908281299938441,0.020926729308216763,-0.08303325543448269, ,0.011111762896085734,0.02103241333381079,-0.08326506395305822, ,0.00032605070544409364, ,0.001493304312149357,0.00127688448404265,-0.00496122029104826,0.0010066391839281179,-0.012789903951548528,-0.006715160959142007, ,0.005336112679711862, ,0.012829456829140405, ,3.186985407563535e-05, ,0.13446050207312293,-0.21828304468995577,0.09309047377000002,3.00234061081142,0.2574231655580898,-0.22134635418373663, ,0.00956291583424454,-0.0018338436357268533,0.0052674641269841276,0.0047883273078171825,-0.002361079815644821,-0.004482667743950771, ,1.0592308044433594
0.010923402765785295,0.020940375390897853,-0.08308710362104135, ,0.01113444173932166,0.021053749342558194,-0.08334603491362957, ,0.00035275560314156713, ,0.001424882355148609,0.0013116252725519197,-0.005295485419930775,0.0003516301849341125,-0.010133008798933358,-0.006125444900980097, ,0.005638511897150715, ,0.010139107798127186, ,3.2228824028274805e-05, ,0.13455317486761365,-0.2182984901557042,0.09314751053,3.00234061081142,0.2574231655580898,-0.22134635418373663, ,0.00820736338367409,-0.0014102459266859637,0.005589056673684211,0.0047883273078171825,-0.00231507685787131,-0.0030461679761645127, ,1.0756888389587402
0.01094645934222662,0.020963180226004994,-0.0831753196820754, ,0.011157180962102987,0.02107483707524016,-0.08342676932391846, ,0.00034655125948039833, ,0.0014603906345267447,0.0015625214470511874,-0.006183642661942899,0.0015852829104771814,-0.011097202327311989,-0.007002818271775883, ,0.0065430612597245814, ,0.011209862280975449, ,3.2564741386412415e-05, ,0.13468446132647544,-0.21832938108720112,0.09324084341000001,3.00234061081142,0.2574231655580898,-0.22126467544359607, ,0.00719096655854209,-0.002000943145658476,0.006509526571311812,0.0047883273078171825,-0.002101456071420155,-0.005295051668300842, ,1.0897479057312012
0.010979476018307996,0.02099377649023517,-0.0832969283005152, ,0.011179980365019816,0.021095677674476964,-0.0835072681116357, ,0.00030794265788035703, ,0.0013368011842190889,0.001242295895268661,-0.004582584119598144,7.527288363947014e-05,-0.0037812280284045914,-0.0028152154128323523, ,0.00493258691871963, ,0.003781976915433173, ,3.280836521663294e-05, ,0.13487752964833105,-0.21837571748444645,0.09336917612000001,3.00234061081142,0.2572865290583244,-0.22115325753989967, ,0.00826995141576373,-0.0024012416295923844,0.0048756692745638205,0.0047883273078171825,-0.0021549796366190383,0.004254534601319094, ,1.1033549308776855
0.010993623914017583,0.021006093369377667,-0.08334450042192053, ,0.011202839749021027,0.021116272280630143,-0.08358753220238756, ,0.0003390797906362795, ,0.0014812604529925136,0.0012449409929255924,-0.005058069367626989,-0.0010690757383777251,-0.005206236205081078,-0.0022638413363296056, ,0.005415540262355422, ,0.005314867359281304, ,3.311227461692457e-05, ,0.13496247970994754,-0.21839116295019492,0.09341973143000001,3.002550300754904,0.2572865290583244,-0.22115325753989967, ,0.009227314185528877,-0.0011953068101330149,0.005352423225806452,0.003918457239059018,-0.0020535553356733705,0.003920966669318278, ,1.1210649013519287
0.011022370913470338,0.021031345368393645,-0.08344511158340218, ,0.011225758915413891,0.021136622031804726,-0.08366756251967776, ,0.00031927147420877553, ,0.0013833489642947026,0.0014495195979732404,-0.005229307086170703,0.0029929948733356223,-0.004249768697305641,-0.005687532979399347, ,0.005600036966252889, ,0.005197936935171135, ,3.336670041124361e-05, ,0.13513237983318047,-0.21842977661456603,0.09352602721000002,3.002759990698389,0.2571498925585589,-0.22104183963620322, ,0.007712545347530112,-0.0029267992891067055,0.0055578546824843,0.007211860882207346,-0.0004336281763306229,0.002225763031105298, ,1.1348998546600342
0.011037092700143228,0.02104528708482782,-0.08350027996451724, ,0.011248737665863887,0.02115672806385069,-0.0837473599849094, ,0.00034389129066823203, ,0.0015016402953961987,0.0013121567442155135,-0.005520491862518743,0.0007347376976213089,-0.005291865667594916,-0.0060610417403198285, ,0.005869625993390337, ,0.005342628248425486, ,3.3666056844995215e-05, ,0.13521732989479693,-0.21844522208031447,0.09358436026000001,3.002759990698389,0.2571498925585589,-0.22096016089606266, ,0.008627517294298592,-0.000618941303403716,0.005819806912678116,0.007211860882207346,-0.0004336281763306229,0.0020811862902067888, ,1.1480178833007812
0.011051007912131584,0.021058949609514065,-0.0835542774731068, ,0.01127177580239444,0.021176591510364967,-0.08382692551738752, ,0.00037002031600579286, ,0.0014456542464145457,0.00138658358590173,-0.005578374767967261,0.0014626083682547184,-0.004637589863608506,-0.006018131101031179, ,0.005927123694741176, ,0.004862762340494738, ,3.401178518848456e-05, ,0.1352945572235392,-0.21846066754606294,0.09364139702,3.002759990698389,0.2571498925585589,-0.22096016089606266, ,0.007865810521796445,-0.0013291221015960693,0.005886478758314857,0.007211860882207346,-0.0004336281763306229,0.0019589886481636266, ,1.1618139743804932
0.011082815202277342,0.021088527683584754,-0.0836719550532925, ,0.011294873127386564,0.02119621350269282,-0.08390626003431974, ,0.0003338616829957833, ,0.0016711784021491757,0.0015387714740855614,-0.006292971138900191,0.0016412211603139117,-0.007530140787948477,-0.006732217829018724, ,0.006690451453848245, ,0.007706920092635015, ,3.42755879768278e-05, ,0.13547990281252056,-0.21849155847755983,0.09376584086,3.002759990698389,0.2571498925585589,-0.2208784821559221, ,0.009345941531521962,-0.0011936440366584616,0.006639771371404753,0.007211860882207346,-0.0004336281763306229,0.0003535947018066124, ,1.1785378456115723
0.011098805713528006,0.02110194441382913,-0.08373007509435203, ,0.011318029443578672,0.02121559516993049,-0.08398536445082001, ,0.00035517346987856013, ,0.001489816839608658,0.0013461409098337988,-0.005334280051755122,-0.0006915134825953721,-0.005517230901945022,-0.005924579357427772, ,0.0056996660634867306, ,0.005560397773813439, ,3.457582882425269e-05, ,0.13557257560701128,-0.21850700394330827,0.09382676649,3.002759990698389,0.2570132560587935,-0.2207670642522257, ,0.008710899388481217,-0.0017055873015107915,0.005642512051009565,0.006933342944142453,-0.002902664142772831,0.002366927976621945, ,1.1918249130249023
0.01112864316370956,0.021127854589769617,-0.08383411295672034, ,0.011341244554066106,0.021234737638926266,-0.08406423967990892, ,0.00033103118599925037, ,0.0015389253888043993,0.001254984223602915,-0.00527876983379283,-0.0020258687943257806,-0.00699292166826495,-0.0027344366642311486, ,0.005639919122820837, ,0.007280459719787432, ,3.482101972316883e-05, ,0.13575019846311842,-0.21853017214193096,0.09393695114000002,3.0029696806418733,0.2570132560587935,-0.2207670642522257, ,0.00944531207452394,-0.0008138365637456728,0.005573412008397481,0.003510510484581853,-0.002902664142772831,0.002366927976621945, ,1.2072999477386475
0.011161852999953308,0.02115744999215682,-0.0839515923368783, ,0.011364518262301128,0.021253642034282677,-0.08414288663251668, ,0.0002948213443335447, ,0.001675650018695753,0.001499337915889986,-0.005936568766938125,-0.0008151665900083633,-0.007411546887002889,-0.0025224649142577063, ,0.0063481230214738, ,0.007456240101696233, ,3.498944173492281e-05, ,0.13595098951784826,-0.21856106307342785,0.09406139498,3.0029696806418733,0.2570132560587935,-0.22060370677194455, ,0.009968546134471094,-0.0018592688331455255,0.006283554840236687,0.003510510484581853,-0.002706585615248825,0.00245566272538477, ,1.225977897644043
0.011177468026041986,0.021169909500666245,-0.0840029671109311, ,0.011387850372092464,0.02127230947835812,-0.08422130621748455, ,0.00032002883059431103, ,0.0014054230751699831,0.0011835885514790707,-0.004621119958178191,-0.0011783543101800934,-0.0051445814383889905,-0.0019488595675526917, ,0.004973011717991964, ,0.005277805884000355, ,3.52027986732654e-05, ,0.1360513850452132,-0.21856878580630207,0.09411583916,3.0029696806418733,0.2570132560587935,-0.22052202803180398, ,0.008902867218682475,-0.0016423556014737804,0.004907212421441775,0.003510510484581853,-0.002590767450682443,0.0038030336066394253, ,1.2390639781951904
0.0112056920952936,0.02119058688862821,-0.08408966650866478, ,0.011411240687605052,0.021290741091268862,-0.08429949934156715, ,0.00031033998432628175, ,0.001558229576390304,0.0011031596983534378,-0.0048936103376888895,-0.0028861930521366643,-0.00490951441634951,-0.0017241004423456288, ,0.005252852831552043, ,0.005695036376719882, ,3.539268984622841e-05, ,0.13623673063419459,-0.2185765085391763,0.09420787575,3.0031793705853578,0.2570132560587935,-0.22044034929166342, ,0.010225787707640056,0.0,0.0051700134761441105,0.0038264428909956763,-0.002387361087779711,0.005463773734865092, ,1.2537038326263428
0.011223370732730319,0.021203452995727665,-0.08414499885796635, ,0.011434689013359756,0.021308937990890828,-0.08437746690943423, ,0.0003313968842430917, ,0.0016636244958235407,0.0012783459199072567,-0.005463797020235068,-0.0009008354053300902,-0.006060500865148074,-0.0019424148920719924, ,0.005852767946226577, ,0.006127084975303238, ,3.561814580298167e-05, ,0.13635257162730793,-0.21859195400492476,0.09426620880000001,3.0031793705853578,0.256876619559028,-0.220328931387967, ,0.010549337709547904,-0.0003767810082080831,0.0057775885092491855,0.0038264428909956763,-0.0009679510888049189,0.0043059114259155415, ,1.2678008079528809
0.011240059012291076,0.021217602420002847,-0.08420388591173326, ,0.011458195154233105,0.021326901292861085,-0.0844552098236728, ,0.0003502760750351433, ,0.0018018957472049066,0.0015419475304311494,-0.006528593242319271,-0.0007407895500397345,-0.005427584840972525,-0.0016454749877130486, ,0.006946003181258607, ,0.005477904207179767, ,3.5941195232663166e-05, ,0.13645296715467287,-0.21859967673779898,0.09432843072000001,3.0031793705853578,0.256876619559028,-0.22024725264782644, ,0.010442600903760505,-0.0006553365843854408,0.006883669628349179,0.0038264428909956763,-0.0009679510888049189,0.004903796041217271, ,1.278791904449463
0.01125781512977885,0.021232782995909964,-0.0842704546455044, ,0.011481758915457002,0.021344632110580276,-0.08453272898478877, ,0.0003625587850865678, ,0.0017957933202857386,0.0016330272941917465,-0.006942724279403558,-0.0007217308863038171,-0.004762639722601952,-0.001687699131270005, ,0.007354799263921331, ,0.004817013231140793, ,3.628107034218594e-05, ,0.13655336268203777,-0.21859967673779898,0.09439843038000001,3.0031793705853578,0.256876619559028,-0.22024725264782644, ,0.00969205761663694,-0.0006553365843854408,0.007303444071526824,0.0038264428909956763,-0.0009679510888049189,0.00480653035696616, ,1.2902588844299316
0.011275901919291714,0.021249529314555236,-0.08434062632729464, ,0.011505380102618461,0.021362131555213926,-0.08461002529120908, ,0.00037136949656975746, ,0.0017423164251894382,0.0016082547484681032,-0.006849630999276541,-0.0002628190331770071,-0.00497441200785579,-0.0040225158638331334, ,0.00724842015115744, ,0.004981348571458619, ,3.6630912229587096e-05, ,0.13664603547652848,-0.2186073994706732,0.09447231891,3.0033890605288422,0.256876619559028,-0.22016557390768587, ,0.009153427864356894,-0.0006172316640135241,0.007201090198915011,0.005651680580804503,-0.0009679510888049189,0.0035036909261618975, ,1.3018360137939453
0.011280269719876368,0.02125346515623708,-0.08435791598487918, ,0.011529058521659313,0.02137940073569426,-0.0846870996392838, ,0.000431413393849777, ,0.0017502067077396753,0.0016054254822007667,-0.006835757202153398,-0.0002717930057641712,-0.005101268219703564,-0.003956593435196347, ,0.007236586973533073, ,0.005108502125055217, ,3.7083939296561264e-05, ,0.13666920367515115,-0.2186073994706732,0.09449046697,3.0033890605288422,0.256876619559028,-0.22016557390768587, ,0.009265499428683061,-0.0006172316640135241,0.007188091841155235,0.00558350896924359,-0.0009679510888049189,0.0035036909261618975, ,1.3131208419799805
0.011333915475824761,0.0212979804694133,-0.08454973602283845, ,0.011552793978875922,0.021396440758722463,-0.08476395292328823, ,0.00032170033899122443, ,0.002000476806139003,0.0015914933291265162,-0.006921886623994985,-0.0008656560946225367,-0.0077500241073757,-0.0031928358705204728, ,0.007378839536403743, ,0.007798218915182886, ,3.7330378071440864e-05, ,0.13698583572299436,-0.21861512220354742,0.09469268821000001,3.0033890605288422,0.256876619559028,-0.2200838951675453, ,0.012005993261484275,-0.00016973164042490902,0.0073000969385884525,0.0048573561614987,-0.0009679510888049189,0.003786848453408772, ,1.3250868320465088
0.011353764300345905,0.021312132909496517,-0.08461657353648504, ,0.011576586280918816,0.0214132527287702,-0.08484058603542416, ,0.00033174757355152905, ,0.0017378929699675106,0.0013877326739359724,-0.006099616508630188,-0.003714070883862319,-0.003101528414127146,0.0022362493981033403, ,0.006492410607911818, ,0.004838780072568231, ,3.7590406177523884e-05, ,0.13710167671610773,-0.21861512220354742,0.09476268787000001,3.0035987504723267,0.2567399830592626,-0.2198091197835678, ,0.010337856370339064,-0.00016442616192918852,0.006422907870967743,0.001029580558098214,-0.002451425382625075,0.008341959111799992, ,1.3367829322814941
0.011369348342623644,0.02132400586026164,-0.08466808990686399, ,0.011600435234792645,0.0214298377480813,-0.08491699986582248, ,0.0003557495015885699, ,0.0017673133697899616,0.0012897406184367657,-0.005642782357783621,-0.002920341519683454,-0.001165755099082966,-0.004776935613550216, ,0.006052092212383919, ,0.0031444194729229077, ,3.788844786615789e-05, ,0.13719434951059842,-0.21861512220354742,0.09481713205,3.0038084404158116,0.2567399830592626,-0.21972744104342723, ,0.011188038382276676,-0.00015499169850273086,0.005963613448146762,0.008836445844415175,-0.002451425382625075,0.009582687512505225, ,1.3496229648590088
0.011388644686501158,0.021338344067649666,-0.08473061409777771, ,0.011624340647855605,0.021446196916673738,-0.08499319530254493, ,0.0003689630229960831, ,0.0018671462036637468,0.0013495872715973674,-0.005905801494795573,-0.002749430695361525,-0.002710194979271379,-0.005185288348353666, ,0.006339251694438642, ,0.0038606370963614753, ,3.820450558387848e-05, ,0.13731791323658601,-0.21861512220354742,0.09488324284,3.0038084404158116,0.2567399830592626,-0.21964576230328667, ,0.011906768075090435,-0.00014323326378326697,0.006244144068992553,0.008836445844415175,-0.002451425382625075,0.008644574326112852, ,1.3608429431915283
0.011408958270804077,0.02135324455768036,-0.08479555370926442, ,0.011648302327819398,0.021462331332341635,-0.08506917323158611, ,0.0003795433374861183, ,0.0020658446827356513,0.0015770178654654905,-0.0069159469581704675,-0.00272169952684534,-0.0035426454321762033,-0.005269929122849597, ,0.007388167697705016, ,0.004467434291700597, ,3.853351223233699e-05, ,0.13744919969544783,-0.21861512220354742,0.09495194621000001,3.0038084404158116,0.2567399830592626,-0.2195640835631461, ,0.012570796338385318,-0.0001330602881170188,0.007296752872194229,0.008836445844415175,-0.002451425382625075,0.00845322501327887, ,1.371729850769043
0.011429154383762647,0.02136898847167506,-0.08486433814568575, ,0.011672320082748794,0.02147824209065666,-0.08514493453687533, ,0.00038704036633484544, ,0.0019939223935865496,0.0014473958114615958,-0.006338924460309385,-0.0029644028122592565,-0.0023741759480825552,-0.004657199036358411, ,0.006800929676168628, ,0.003797944869402284, ,3.886979736239436e-05, ,0.13757276342143543,-0.21861512220354742,0.09502453845000002,3.0038084404158116,0.2567399830592626,-0.21948240482300554, ,0.012642811292095761,-0.00012389501317976965,0.006701224871687001,0.008836445844415175,-0.0024124292934536618,0.009856634866602109, ,1.3842120170593262
0.011469149567508425,0.021398327179507348,-0.08498902074332779, ,0.011696393721061354,0.02149393028497019,-0.08522048010027865, ,0.0003381616374135787, ,0.001974147861960197,0.0013885687119855525,-0.006117896762662972,-0.0028616801179233626,-0.0030772111339910156,-0.004377139378308564, ,0.006576780644615518, ,0.004202193818695911, ,3.911647429310038e-05, ,0.13783533633915904,-0.21862284493642165,0.09515676003000001,3.0038084404158116,0.2567399830592626,-0.21940072608286498, ,0.012746399134784526,0.0,0.006472495538399026,0.008301799381825679,-0.0022244109741066187,0.0092786494543679, ,1.3977789878845215
0.011490313590512061,0.02141273080221264,-0.08505126905999011, ,0.011720523051527314,0.021509397006415087,-0.085295810801601, ,0.0003494873593793151, ,0.002078943585078514,0.0013433085096404042,-0.00590036513563951,-0.00311483547612728,-0.006322059858699572,-0.0010837540844037324, ,0.006398499270601012, ,0.007047739619826063, ,3.937821746982455e-05, ,0.1379743455308951,-0.21862284493642165,0.09522287082000001,3.0040181303592957,0.2567399830592626,-0.21931904734272442, ,0.014387043899101089,0.0,0.006266251581431944,0.004506325833604242,-0.002143208074561118,0.008378198744918991, ,1.4099140167236328
0.011511853289566838,0.021427350659097878,-0.08511475798039983, ,0.011744707883269086,0.02152464334390722,-0.0853709275185875, ,0.00035959694189597366, ,0.001999104199848424,0.0014261406600739003,-0.006284052777854988,-0.003442151747492335,-0.0029287472740554587,-0.00017260375120820817, ,0.006746822518714614, ,0.0045195087618744665, ,3.9652594964844535e-05, ,0.13812107745550536,-0.21862284493642165,0.09529027790000001,3.0040181303592957,0.2567399830592626,-0.21923736860258386, ,0.012830846614179391,0.0,0.006645311439299125,0.004506325833604242,-0.002066025588770495,0.010453603180159567, ,1.42156982421875
0.011531089663381597,0.02144140821379522,-0.08517600287529009, ,0.01176894802576114,0.021539670384147617,-0.08544583112692644, ,0.00037287979303975507, ,0.0020971557786132215,0.0015006496909621015,-0.0066062742756691,-0.003487234527695347,-0.0030076644853575412,8.793724634727738e-05, ,0.007091746728424724, ,0.004605088242875073, ,4.0011505204677667e-05, ,0.13824464118149296,-0.21862284493642165,0.09535509240000001,3.0040181303592957,0.2567399830592626,-0.2191556898624433, ,0.01342627922445823,0.0,0.006986320842105265,0.004506325833604242,-0.0019976313688919033,0.011030012923176359, ,1.436445951461792
0.011573281012517707,0.021471556199515154,-0.08530690688040149, ,0.011793243288829601,0.02155447921162436,-0.08552052250025034, ,0.00031763384892196723, ,0.0020284205896808883,0.0014052771527986031,-0.006173822372515421,-0.0033061295804390567,-0.0012827314794696743,-0.0014387850446640645, ,0.00664871240558584, ,0.0035462492695137317, ,4.0273714569242155e-05, ,0.13851493683209082,-0.21862284493642165,0.09549379543000001,3.00422782030278,0.2567399830592626,-0.2189106536420216, ,0.013231586943456605,0.0,0.006538920985221676,0.0066406721798928665,-0.0018719241062171814,0.012222670738616598, ,1.4452919960021973
0.011573281012517707,0.021471556199515154,-0.08530690688040149, ,0.011817593482652046,0.02156907090861371,-0.08559500251013824, ,0.0003901240744008679, ,0.0020284205896808883,0.0014052771527986031,-0.006173822372515421,-0.0033061295804390567,-0.0012827314794696743,-0.0014387850446640645, ,0.00664871240558584, ,0.0035462492695137317, ,4.0652275257050256e-05, ,0.13851493683209082,-0.21862284493642165,0.09549379543000001,3.00422782030278,0.2567399830592626,-0.2189106536420216, ,0.013231586943456605,0.0,0.006538920985221676,0.0066406721798928665,-0.0018719241062171814,0.012222670738616598, ,1.4540197849273682
0.011594905377787722,0.021485856576362282,-0.08537180530550316, ,0.011841998417757175,0.02158344655518293,-0.08566927202611796, ,0.00039882981864560233, ,0.0021396919929376514,0.0014647051845307533,-0.006422371012556457,-0.0033155678166552046,0.0004646310814251406,-0.003045557378850725, ,0.0069260733843324405, ,0.0033479637187803627, ,4.1040158208802965e-05, ,0.13865394602382686,-0.21861512220354742,0.0955624988,3.004437510246265,0.2567399830592626,-0.2187472961617405, ,0.014021415714904076,0.0,0.00680718441025641,0.009305269839431508,-0.0018122787674337303,0.014438627473976473, ,1.4629168510437012
0.011617102145208382,0.021502443914320983,-0.08544413538719559, ,0.01186645790502463,0.021597607229191313,-0.08574333191566758, ,0.0004009400380360362, ,0.002242155471943978,0.0016972057230246757,-0.007462753265949647,-0.003779993205645225,0.0029811071229594805,-0.0015983276918026272, ,0.007974989325076126, ,0.004814075733330987, ,4.142642151255635e-05, ,0.13893196440729894,-0.2186073994706732,0.09571675731000001,3.004437510246265,0.2567399830592626,-0.2185022599413188, ,0.014155271712182395,0.00019330743100766796,0.008322263072100313,0.00829016040719067,-0.001707837095424568,0.0186660182774554, ,1.4763338565826416
0.011663684815684916,0.021538325086235488,-0.08560398531860058, ,0.011890971755684501,0.021611554006292413,-0.0858171830442177, ,0.0003201173191743793, ,0.002251789486737245,0.0017331284936007562,-0.007702328669059677,-0.004126602107080793,0.0034580571730338855,-0.0002646140524266708, ,0.008209759874328227, ,0.005383955539688131, ,4.1676683478721914e-05, ,0.13906325086616075,-0.2186073994706732,0.09580101616000002,3.004437510246265,0.2567399830592626,-0.2185022599413188, ,0.013136342962136043,0.00019330743100766796,0.008202271637487128,0.007745964023644413,-0.0016606435814050398,0.017523939173138946, ,1.485476016998291
0.011663684815684916,0.021538325086235488,-0.08560398531860058, ,0.011915539781317238,0.021625287959935614,-0.08589082627515282, ,0.00039149865832674836, ,0.002251789486737245,0.0017331284936007562,-0.007702328669059677,-0.004126602107080793,0.0034580571730338855,-0.0002646140524266708, ,0.008209759874328227, ,0.005383955539688131, ,4.20386672539423e-05, ,0.13906325086616075,-0.2186073994706732,0.09580101616000002,3.004437510246265,0.2567399830592626,-0.2185022599413188, ,0.013136342962136043,0.00019330743100766796,0.008202271637487128,0.007745964023644413,-0.0016606435814050398,0.017523939173138946, ,1.494297981262207
0.011686805073218644,0.021554525191655516,-0.08567762944551535, ,0.011940161793853368,0.02163881016136803,-0.08596426246981456, ,0.00039172959376224364, ,0.00230236262855485,0.0015718852097216405,-0.006968995835895728,-0.0036822432663401066,-0.0005663366953460888,-0.0008708324507790006, ,0.007505904325705174, ,0.0037255383888674443, ,4.239638713353666e-05, ,0.13921770552364524,-0.21859967673779898,0.09588527501,3.004437510246265,0.2567399830592626,-0.2185022599413188, ,0.014970333105926926,0.00021033832613201152,0.007381284300278036,0.007231474529527811,-0.001611613813595762,0.014825943312521024, ,1.5031650066375732
0.011709870055223679,0.02157061375538972,-0.08574726350280622, ,0.011964837605572995,0.02165212167963665,-0.08603749248750235, ,0.0003948225639498371, ,0.002294117756150302,0.001640625608053073,-0.0072904263134346645,-0.0037567227666212358,-0.005114506508854658,0.0038347815247688046, ,0.0078169651717597, ,0.0063459532128146735, ,4.2754474598426474e-05, ,0.1393644374482555,-0.21859967673779898,0.09595916354,3.0046472001897495,0.2567399830592626,-0.21842058120117824, ,0.014512454742081479,0.00021033832613201152,0.00770624650217707,0.0005577260882768503,-0.0015690305549915478,0.010776017221088435, ,1.5136709213256836
0.011728017593086587,0.021583047637779747,-0.08580096410702012, ,0.011989567029105828,0.021665223581589392,-0.08611051718547577, ,0.00041350223893512147, ,0.002534627239890218,0.0017473448262405118,-0.007724358865514472,-0.0024048972869948277,-0.0033766001507800373,-0.006654604830481103, ,0.008315243175652473, ,0.004145471268811272, ,4.3137546226453985e-05, ,0.13948027844136887,-0.21859967673779898,0.09601620030000001,3.004856890133234,0.2567399830592626,-0.21833890246103768, ,0.01624669432605218,0.00021033832613201152,0.008181207765793529,0.011923393713772181,-0.001539854673799488,0.011915168642777883, ,1.5240569114685059
0.011774344055012037,0.021614663472482084,-0.08594438070170858, ,0.012014349877430613,0.02167811693187781,-0.08618333741895687, ,0.00034457139901938975, ,0.0022879113185403015,0.001591975414441118,-0.006670653530112128,-0.0007224843520156859,-0.002676891301546873,-0.010230345127720815, ,0.0072295603213810445, ,0.002772673343734707, ,4.3407595228202135e-05, ,0.1397737422905894,-0.2185842312720505,0.09616786623000001,3.0050665800767185,0.2567399830592626,-0.21801218750047544, ,0.014984516273246611,-0.0006889652299707949,0.007098400855614974,0.015120472752111104,-0.0014641768657877152,0.010476718123763315, ,1.532848834991455
0.011774344055012037,0.021614663472482084,-0.08594438070170858, ,0.012039185963875052,0.021690802792958225,-0.0862559540411319, ,0.0004159523754616292, ,0.0022879113185403015,0.001591975414441118,-0.006670653530112128,-0.0007224843520156859,-0.002676891301546873,-0.010230345127720815, ,0.0072295603213810445, ,0.002772673343734707, ,4.378563266119562e-05, ,0.1397737422905894,-0.2185842312720505,0.09616786623000001,3.0050665800767185,0.2567399830592626,-0.21801218750047544, ,0.014984516273246611,-0.0006889652299707949,0.007098400855614974,0.015120472752111104,-0.0014641768657877152,0.010476718123763315, ,1.5415558815002441
0.01179814330240199,0.02163107566485757,-0.08601247675993083, ,0.012064075102115362,0.021703282225093993,-0.08632836790315304, ,0.00041919055786861936, ,0.0023126005555243845,0.0015596575253711273,-0.006990656280481485,-0.0013729257995477482,-0.005615402803095832,-0.010389907311252042, ,0.007526614654523886, ,0.005780800740118332, ,4.4164001695651174e-05, ,0.13993591968094812,-0.21859195400492476,0.09624045847000001,3.0050665800767185,0.2567399830592626,-0.2178488300201943, ,0.014765355773840172,0.0004406905139433694,0.007401864089219333,0.013679093844927943,-0.001428311010312527,0.007239456454076874, ,1.5503017902374268
0.01182037062362919,0.021646709126783552,-0.08608367815092555, ,0.0120890171061762,0.02171555628635684,-0.08640057985414057, ,0.00042111465596292536, ,0.0024382243326704933,0.001637075685162272,-0.0074729203937617655,-0.0034174895927777584,0.0005585786011665875,-0.00577028426367958, ,0.008029289751084868, ,0.003462834368733525, ,4.460940702107706e-05, ,0.14007492887268416,-0.2185842312720505,0.09631564329000002,3.0050665800767185,0.2567399830592626,-0.21776715128005375, ,0.015430397001377364,0.0007936830385697941,0.007901196190476193,0.012464802086826552,-0.0013945826716778521,0.015302014455591241, ,1.5573639869689941
0.011829577729944035,0.02165289337585925,-0.08611051454681778, ,0.012114011790430153,0.021727626032629333,-0.08647259074118509, ,0.0004664620834323457, ,0.002613689743612632,0.0016629117295594324,-0.007566318970277819,-0.0030057817251420583,-0.0034253284613470904,-0.0064048880353907486, ,0.008175930054505004, ,0.004557145383783261, ,4.512036533500811e-05, ,0.14013671073567796,-0.2185842312720505,0.09634416167000001,3.0050665800767185,0.2567399830592626,-0.2176854725399132, ,0.01727912264356715,0.0007936830385697941,0.008020549607250755,0.01207892598785696,-0.0013827668713010549,0.012969925941760604, ,1.5668659210205078
0.01187826717010995,0.02168478295847682,-0.08625486681804855, ,0.012139058969597527,0.02173949251760602,-0.08654440140934866, ,0.00039349177640632345, ,0.0027449422665929034,0.001988631050354405,-0.008766842247996157,-0.004024024571876107,-0.004195778809088863,0.004542445020177654, ,0.00939930234127045, ,0.005813542963067658, ,4.551506056497952e-05, ,0.1404378973177727,-0.21856878580630207,0.09649064244000001,3.0050665800767185,0.2567399830592626,-0.21752211505963207, ,0.01718836108648266,0.00013357212097827074,0.009271717997671713,0.010580057353708384,-0.0013312711092676047,0.014442437759215453, ,1.5734899044036865
0.01187826717010995,0.02168478295847682,-0.08625486681804855, ,0.012164158458746157,0.02175115679279575,-0.08661601270166794, ,0.0004653661612703487, ,0.0027449422665929034,0.001988631050354405,-0.008766842247996157,-0.004024024571876107,-0.004195778809088863,0.004542445020177654, ,0.00939930234127045, ,0.005813542963067658, ,4.601554911836675e-05, ,0.1404378973177727,-0.21856878580630207,0.09649064244000001,3.0050665800767185,0.2567399830592626,-0.21752211505963207, ,0.01718836108648266,0.00013357212097827074,0.009271717997671713,0.010580057353708384,-0.0013312711092676047,0.014442437759215453, ,1.5800259113311768
0.011907380400137599,0.02170303106717637,-0.08634901607403825, ,0.012189310073291054,0.02176261990752327,-0.086687425459155, ,0.0004444728140543614, ,0.003080748839709003,0.0021285523044075757,-0.009981386462174984,-0.003636193060933559,-0.009018992149639641,0.0029838542273963845, ,0.010660667147662815, ,0.009724403338964377, ,4.64798311891232e-05, ,0.14063096563962832,-0.2185456176076794,0.09659564193,3.005276270020203,0.2566033465594972,-0.21732901841579505, ,0.018903773218818882,0.0017554072144390317,0.010521011571994717,0.0015160017991531752,0.0,0.010853458753406238, ,1.5874547958374023
0.01193935708222652,0.0217261988909702,-0.08645606321078754, ,0.01221451362899411,0.021773882908930967,-0.08675864052080022, ,0.00041174982614745263, ,0.003203589700358343,0.0022974961224360583,-0.010837973725839433,-0.001992162577879303,-0.0073918094936343635,-0.009280645130505858, ,0.011532699158602755, ,0.00765554764812468, ,4.689055567265274e-05, ,0.14080086576286127,-0.21853017214193096,0.09669675255000001,3.005485959963688,0.2566033465594972,-0.21732901841579505, ,0.018319872887735674,0.0020464171834714004,0.011550987324147935,0.01349432969525172,0.0,0.009509657519624109, ,1.5941858291625977
0.01193935708222652,0.0217261988909702,-0.08645606321078754, ,0.012239768941963793,0.02178494684198094,-0.08682965872357351, ,0.0004829826232822252, ,0.003203589700358343,0.0022974961224360583,-0.010837973725839433,-0.001992162577879303,-0.0073918094936343635,-0.009280645130505858, ,0.011532699158602755, ,0.00765554764812468, ,4.740453608746395e-05, ,0.14080086576286127,-0.21853017214193096,0.09669675255000001,3.005485959963688,0.2566033465594972,-0.21732901841579505, ,0.018319872887735674,0.0020464171834714004,0.011550987324147935,0.01349432969525172,0.0,0.009509657519624109, ,1.6053218841552734
0.01196772521347173,0.021745710025281587,-0.08654699930592298, ,0.012265075828654912,0.021795812749456637,-0.0869004809024265, ,0.00046462555933380646, ,0.0034222379184192827,0.0022855112244075547,-0.011123669336587582,-0.0037765436475845214,-0.011323502851202373,-0.00246141347631404, ,0.011860492967701574, ,0.011936659014700028, ,4.7886467254984753e-05, ,0.14098621135184264,-0.2185147266761825,0.09680434462000001,3.005695649907172,0.2566033465594972,-0.21716566093551393, ,0.02037726896252325,0.0014512168761146387,0.011092487130919221,0.008510115870546706,0.0,0.0062647924603192445, ,1.6131010055541992
0.012001317781264526,0.02176847649200124,-0.08665526498023575, ,0.012290434105868326,0.02180648167196436,-0.08697110789029482, ,0.0004298713606313153, ,0.0034222379184192827,0.0022855112244075547,-0.011123669336587582,-0.0037765436475845214,-0.011323502851202373,-0.00246141347631404, ,0.011860492967701574, ,0.011936659014700028, ,4.831237790805969e-05, ,0.14118700240657248,-0.21849155847755983,0.09691841814,3.0059053398506568,0.2566033465594972,-0.2170023034552328, ,0.020674714936486007,0.0028953967786667567,0.011703755709037473,0.00619526464258723,0.0,0.009094471875703964, ,1.6202960014343262
0.012041355971597695,0.021795669076362528,-0.08678309114092242, ,0.012315843590750698,0.021816954647936017,-0.08704154051809991, ,0.0003776143657078312, ,0.0033657581848545236,0.0020976014394352297,-0.010028216703179476,-0.0069582790817051265,0.004770852249148539,0.006047196131048305, ,0.010783941311207317, ,0.008436739746091574, ,4.865708491840584e-05, ,0.14143412985854767,-0.21846839027893716,0.09705323230000001,3.0059053398506568,0.2566033465594972,-0.21667558849467056, ,0.021735442409177914,0.002297381429622298,0.010598011656686628,0.00619526464258723,0.0,0.028576076833034876, ,1.6276710033416748
0.012072945167093858,0.021814031330903226,-0.0868752058401876, ,0.012341304100794055,0.021827232713629897,-0.08711177961475056, ,0.00035799154265648306, ,0.0029642775593825823,0.0016740026897693865,-0.008639640048387687,-0.0080126434335617,0.006771642985568236,0.005714816287349961, ,0.009286151335193643, ,0.01049083196798428, ,4.896979920734576e-05, ,0.14164264364615173,-0.21843749934744025,0.09715045405000002,3.0059053398506568,0.2566033465594972,-0.21651223101438943, ,0.019390466195028766,0.0034378288084874194,0.009107382229845628,0.00619526464258723,0.0,0.028184976763334542, ,1.634202003479004
0.012072945167093858,0.021814031330903226,-0.0868752058401876, ,0.012366815453835705,0.021837316903133168,-0.08718182600714527, ,0.0004253444370024901, ,0.0029642775593825823,0.0016740026897693865,-0.008639640048387687,-0.0080126434335617,0.006771642985568236,0.005714816287349961, ,0.009286151335193643, ,0.01049083196798428, ,4.937866123286772e-05, ,0.14164264364615173,-0.21843749934744025,0.09715045405000002,3.0059053398506568,0.2566033465594972,-0.21651223101438943, ,0.019390466195028766,0.0034378288084874194,0.009107382229845628,0.00619526464258723,0.0,0.028184976763334542, ,1.641023874282837
0.012103344901904015,0.02182974353103012,-0.08695870975475022, ,0.012392377468057858,0.02184720824836326,-0.08725168052017448, ,0.0004119183293351776, ,0.003240382868599594,0.0015405453065581048,-0.008264795482148337,-0.008909010913320099,0.004302364125228784,0.006214730003458357, ,0.009010005845636921, ,0.009893471279466222, ,4.9764307937014754e-05, ,0.1418511574337558,-0.21839888568306914,0.09723860177000002,3.0059053398506568,0.2566033465594972,-0.21643055227424887, ,0.023066830714261247,0.004073788246545447,0.008752094241758242,0.00619526464258723,0.0,0.029555413408217792, ,1.6488299369812012
0.012103344901904015,0.02182974353103012,-0.08695870975475022, ,0.01241798996198729,0.021856907779070102,-0.08732134397672174, ,0.00048087731195314045, ,0.003240382868599594,0.0015405453065581048,-0.008264795482148337,-0.008909010913320099,0.004302364125228784,0.006214730003458357, ,0.009010005845636921, ,0.009893471279466222, ,5.0320209826342905e-05, ,0.1418511574337558,-0.21839888568306914,0.09723860177000002,3.0059053398506568,0.2566033465594972,-0.21643055227424887, ,0.023066830714261247,0.004073788246545447,0.008752094241758242,0.00619526464258723,0.0,0.029555413408217792, ,1.6534178256988525
0.012110754389823343,0.021833278370739617,-0.08697701388249929, ,0.01244365275449513,0.021866416522837422,-0.08739081719766605, ,0.0005321208903704185, ,0.0032624594052394016,0.0015016279671796104,-0.008157772276968046,-0.00874259799402084,0.0023611206036309026,0.00543837453011707, ,0.008913348217450018, ,0.009055819899975125, ,5.0947361673316355e-05, ,0.14190521656387536,-0.21839116295019492,0.09725804612000001,3.0059053398506568,0.2566033465594972,-0.21643055227424887, ,0.023477719336583564,0.00424583919356208,0.008642871144872492,0.00619526464258723,0.0,0.027817525116760087, ,1.658935785293579
0.012110754389823343,0.021833278370739617,-0.08697701388249929, ,0.012469365664796565,0.02187573550508506,-0.08746010100188432, ,0.0006031399669317886, ,0.002546064732759396,0.0009146598810059916,-0.004786828939795885,-0.00024451221378205787,-0.01725984922288642,-0.010620372519650293, ,0.005498434288066964, ,0.01726158100830249, ,5.1673804055323826e-05, ,0.14232224413908348,-0.21832938108720112,0.09738897141000001,3.0061150297941412,0.2567399830592626,-0.21621525521738308, ,0.020656713443289246,0.0024388486347102587,0.005166659591307169,0.011213083494509604,0.0008253835777624526,0.000975744419846292, ,1.6640088558197021
0.012165578652622619,0.021857370557553903,-0.08709919601569809, ,0.012495128512450613,0.02188486574907071,-0.08752919620625274, ,0.0005424566890971446, ,0.002546064732759396,0.0009146598810059916,-0.004786828939795885,-0.00024451221378205787,-0.01725984922288642,-0.010620372519650293, ,0.005498434288066964, ,0.01726158100830249, ,5.230835475039102e-05, ,0.14232224413908348,-0.21832938108720112,0.09738897141000001,3.0061150297941412,0.2567399830592626,-0.21621525521738308, ,0.020656713443289246,0.0024388486347102587,0.005166659591307169,0.011213083494509604,0.0008253835777624526,0.000975744419846292, ,1.668759822845459
0.012165578652622619,0.021857370557553903,-0.08709919601569809, ,0.0125209411173597,0.021893808275891186,-0.0875981036256487, ,0.0006136114339940803, ,0.002546064732759396,0.0009146598810059916,-0.004786828939795885,-0.00024451221378205787,-0.01725984922288642,-0.010620372519650293, ,0.005498434288066964, ,0.01726158100830249, ,5.304177654360903e-05, ,0.14232224413908348,-0.21832938108720112,0.09738897141000001,3.0061150297941412,0.2567399830592626,-0.21621525521738308, ,0.020656713443289246,0.0024388486347102587,0.005166659591307169,0.011213083494509604,0.0008253835777624526,0.000975744419846292, ,1.6732828617095947
0.012197463146194912,0.021869657365481944,-0.08717090670062383, ,0.012546803299769448,0.02190256410448511,-0.08766682407295281, ,0.0006074993304926254, ,0.003849266282902198,0.0015898074239851425,-0.0102766723357878,-0.011669983534208584,-0.012028558361555218,-0.005015083237189142, ,0.011088477481565818, ,0.01675931434532671, ,5.376220151114552e-05, ,0.14256164885818445,-0.21826759922420733,0.09746545252000001,3.0063247197376257,0.256876619559028,-0.21624499438093892, ,0.02641161746687191,0.008291489306813999,0.010777274370771315,0.00995133563349443,-0.0021392946517291046,0.014206003702928356, ,1.6777257919311523
0.012197463146194912,0.021869657365481944,-0.08717090670062383, ,0.012572714880268456,0.021911134251633973,-0.08773535835905158, ,0.0006790728022177795, ,0.003849266282902198,0.0015898074239851425,-0.0102766723357878,-0.011669983534208584,-0.012028558361555218,-0.005015083237189142, ,0.011088477481565818, ,0.01675931434532671, ,5.45810387592766e-05, ,0.14256164885818445,-0.21826759922420733,0.09746545252000001,3.0063247197376257,0.256876619559028,-0.21624499438093892, ,0.02641161746687191,0.008291489306813999,0.010777274370771315,0.00995133563349443,-0.0021392946517291046,0.014206003702928356, ,1.6824448108673096
0.012251770479489542,0.02190239167573469,-0.08734115175850962, ,0.01259867567978787,0.021919519731964376,-0.08780370729283807, ,0.0005784411903055526, ,0.0045989843869187995,0.003219352433491066,-0.015510209874057625,-0.011950180566591065,0.015107857164030488,0.004562112657979217, ,0.01649489308299579, ,0.019262742952431567, ,5.525143749182946e-05, ,0.1428860036389019,-0.2181980946283393,0.09764434054000001,3.0067440996245947,0.256876619559028,-0.2158366006802361, ,0.02617846663681953,0.0033686584109995136,0.01630379889457523,0.013985272148222622,-0.0021392946517291046,0.04376093679758597, ,1.6884629726409912
0.012251770479489542,0.02190239167573469,-0.08734115175850962, ,0.01262468551960126,0.021927721557949687,-0.08787187168121519, ,0.0006491308546288252, ,0.0045989843869187995,0.003219352433491066,-0.015510209874057625,-0.011950180566591065,0.015107857164030488,0.004562112657979217, ,0.01649489308299579, ,0.019262742952431567, ,5.6018713816110324e-05, ,0.1428860036389019,-0.2181980946283393,0.09764434054000001,3.0067440996245947,0.256876619559028,-0.2158366006802361, ,0.02617846663681953,0.0033686584109995136,0.01630379889457523,0.013985272148222622,-0.0021392946517291046,0.04376093679758597, ,1.692903995513916
0.012302265166460123,0.021937085141834702,-0.08751143031976422, ,0.012650744221324235,0.02193574073991205,-0.08793985232909649, ,0.0005522543591279412, ,0.0045989843869187995,0.003219352433491066,-0.015510209874057625,-0.011950180566591065,0.03831215335039926,-0.003790124312578561, ,0.01649489308299579, ,0.019262742952431567, ,5.664402195743946e-05, ,0.1431717447552482,-0.21815175823109395,0.09782322856,3.0069537895680796,0.256876619559028,-0.2154282069795333, ,0.028489024784890654,0.005201960165224424,0.018985472610250298,0.03320071714887584,-0.0021392946517291046,0.06800683336196425, ,1.697624921798706
0.012302265166460123,0.021937085141834702,-0.08751143031976422, ,0.012676851606914143,0.021943578286023713,-0.08800765003940896, ,0.0006217645635268833, ,0.005232899466889169,0.003642218572416701,-0.018103652083996745,-0.015771673644825075,0.03831215335039926,-0.003790124312578561, ,0.019193520045531664, ,0.04143144746808008, ,5.736424365660661e-05, ,0.1431717447552482,-0.21815175823109395,0.09782322856,3.0069537895680796,0.256876619559028,-0.2154282069795333, ,0.028489024784890654,0.005201960165224424,0.018985472610250298,0.03320071714887584,-0.0021392946517291046,0.06800683336196425, ,1.7020537853240967
0.012302265166460123,0.021937085141834702,-0.08751143031976422, ,0.012703007498669889,0.021951235202309488,-0.08807526561309466, ,0.0006918850186565596, ,0.005232899466889169,0.003642218572416701,-0.018103652083996745,-0.015771673644825075,0.03831215335039926,-0.003790124312578561, ,0.019193520045531664, ,0.04143144746808008, ,5.817943649748704e-05, ,0.1431717447552482,-0.21815175823109395,0.09782322856,3.0069537895680796,0.256876619559028,-0.2154282069795333, ,0.028489024784890654,0.005201960165224424,0.018985472610250298,0.03320071714887584,-0.0021392946517291046,0.06800683336196425, ,1.706540822982788
0.012358444558084106,0.021973915206968387,-0.08771302127603682, ,0.012729211719231508,0.021958712492648122,-0.0881426998491126, ,0.0005677350495331859, ,0.005620693480715262,0.0038855700463334784,-0.020409980346877958,-0.007826081481132924,0.004859522343485248,-0.018347540327941857, ,0.02152340929195613, ,0.00921189269622126, ,5.881517759120283e-05, ,0.14347293133734293,-0.2180668081694775,0.09803322754,3.0069537895680796,0.2567399830592626,-0.2149083953751341, ,0.02906491318789304,0.008515337595725868,0.021323710200803217,0.031698681670152,0.0021140851306651284,0.030413745706519, ,1.7115049362182617
0.012358444558084106,0.021973915206968387,-0.08771302127603682, ,0.01275546409158002,0.021966011158774237,-0.08820995354444056, ,0.0006361042865254493, ,0.005620693480715262,0.0038855700463334784,-0.020409980346877958,-0.007826081481132924,0.004859522343485248,-0.018347540327941857, ,0.02152340929195613, ,0.00921189269622126, ,5.954337131499924e-05, ,0.14347293133734293,-0.2180668081694775,0.09803322754,3.0069537895680796,0.2567399830592626,-0.2149083953751341, ,0.02906491318789304,0.008515337595725868,0.021323710200803217,0.031698681670152,0.0021140851306651284,0.030413745706519, ,1.716012954711914
0.012412509648298129,0.022011214234139428,-0.08790504756397952, ,0.012781764439037089,0.02197313220028028,-0.08827702749407791, ,0.0005255172786717192, ,0.005594011844430896,0.003720493345174829,-0.018984681615384677,-0.009564180318140603,0.013193923142217793,-0.006821474604005361, ,0.02013835085811766, ,0.016295726031911328, ,6.01126017576347e-05, ,0.14376639518656348,-0.21799730357360947,0.09823415249,3.0069537895680796,0.2567399830592626,-0.21450000167443128, ,0.031083177713223314,0.006878137563409511,0.019911014400000003,0.025898709910677224,0.0021140851306651284,0.04359197169420666, ,1.720606803894043
0.012412509648298129,0.022011214234139428,-0.08790504756397952, ,0.012808112585264682,0.021980076614618045,-0.0883439224910467, ,0.0005916776459308248, ,0.005594011844430896,0.003720493345174829,-0.018984681615384677,-0.009564180318140603,0.013193923142217793,-0.006821474604005361, ,0.02013835085811766, ,0.016295726031911328, ,6.0771054889499993e-05, ,0.14376639518656348,-0.21799730357360947,0.09823415249,3.0069537895680796,0.2567399830592626,-0.21450000167443128, ,0.031083177713223314,0.006878137563409511,0.019911014400000003,0.025898709910677224,0.0021140851306651284,0.04359197169420666, ,1.7252488136291504
0.012412509648298129,0.022011214234139428,-0.08790504756397952, ,0.012834508354264845,0.02198684539710067,-0.08841063932639333, ,0.0006590142474005465, ,0.005594011844430896,0.003720493345174829,-0.018984681615384677,-0.009564180318140603,0.013193923142217793,-0.006821474604005361, ,0.02013835085811766, ,0.016295726031911328, ,6.15196233262988e-05, ,0.14376639518656348,-0.21799730357360947,0.09823415249,3.0069537895680796,0.2567399830592626,-0.21450000167443128, ,0.031083177713223314,0.006878137563409511,0.019911014400000003,0.025898709910677224,0.0021140851306651284,0.04359197169420666, ,1.7315208911895752
0.012467924119237774,0.02204443711958493,-0.08808276464579487, ,0.012860951570379453,0.021993439540904682,-0.0884771787891917, ,0.0005591366978598606, ,0.005512257952344021,0.0027426623898821664,-0.015908355150316914,-0.0065179331925908045,-0.010178080984340601,-0.012064081547195488, ,0.017058222307927307, ,0.012086180816908536, ,6.212531423075333e-05, ,0.14409847270015513,-0.21790463077911876,0.09842081825000001,3.0069537895680796,0.256876619559028,-0.21452974083798712, ,0.035147015392026214,0.010319573561855989,0.016714387743966424,0.021791980889557153,0.005070488757953249,0.022243651702813824, ,1.7360680103302002
0.012536333886756344,0.022071406764141006,-0.08825509252599266, ,0.012887442058289853,0.021999860037071228,-0.0885435416665443, ,0.0004599986836470064, ,0.005298212626062539,0.0016601245948603058,-0.01180654381918711,-0.011047405902679245,-0.008092937751352227,-0.001543747184676707, ,0.013046898008945037, ,0.013694545966003549, ,6.259033923793547e-05, ,0.14456955940548283,-0.21776562158738272,0.09860229885,3.007373169455048,0.256876619559028,-0.21428470461756544, ,0.03942540156147519,0.012138263182203988,0.012483394608150471,0.014639643590329597,0.005070488757953249,0.031223841123214163, ,1.7404987812042236
0.012536333886756344,0.022071406764141006,-0.08825509252599266, ,0.01291397964301654,0.022006107874508553,-0.08860972874358411, ,0.0005221562113353984, ,0.005298212626062539,0.0016601245948603058,-0.01180654381918711,-0.011047405902679245,-0.008092937751352227,-0.001543747184676707, ,0.013046898008945037, ,0.013694545966003549, ,6.3138647984979e-05, ,0.14456955940548283,-0.21776562158738272,0.09860229885,3.007373169455048,0.256876619559028,-0.21428470461756544, ,0.03942540156147519,0.012138263182203988,0.012483394608150471,0.014639643590329597,0.005070488757953249,0.031223841123214163, ,1.7449398040771484
0.012536333886756344,0.022071406764141006,-0.08825509252599266, ,0.012940564149919093,0.022012184039993166,-0.08867574080347745, ,0.0005863910044185886, ,0.005298212626062539,0.0016601245948603058,-0.01180654381918711,-0.011047405902679245,-0.008092937751352227,-0.001543747184676707, ,0.013046898008945037, ,0.013694545966003549, ,6.38603753731633e-05, ,0.14456955940548283,-0.21776562158738272,0.09860229885,3.007373169455048,0.256876619559028,-0.21428470461756544, ,0.03942540156147519,0.012138263182203988,0.012483394608150471,0.014639643590329597,0.005070488757953249,0.031223841123214163, ,1.747215986251831
0.012536333886756344,0.022071406764141006,-0.08825509252599266, ,0.0129671954046956,0.02201808951817247,-0.08874157862742464, ,0.0006520376547754574, ,0.005298212626062539,0.0016601245948603058,-0.01180654381918711,-0.011047405902679245,-0.008092937751352227,-0.001543747184676707, ,0.013046898008945037, ,0.013694545966003549, ,6.467053691503973e-05, ,0.14498658698069095,-0.21764978059426934,0.09872933527000001,3.008002239285502,0.256876619559028,-0.21403966839714372, ,0.043134973435668536,0.011383990110181236,0.012542371275590552,0.05277873923735197,0.005070488757953249,0.020726756707487498, ,1.7501709461212158
0.012592848620177191,0.02208870219993752,-0.08837487419821968, ,0.012993873233382552,0.022023825291565526,-0.08880724299466282, ,0.0005932727279878149, ,0.0057280232029320675,0.001748696382787217,-0.01178272260999937,-0.0028721332381281862,-0.012816320968743035,-0.04282011635883519, ,0.013217440786956134, ,0.013134192225088721, ,6.539763759051811e-05, ,0.14498658698069095,-0.21764978059426934,0.09872933527000001,3.008002239285502,0.256876619559028,-0.21403966839714372, ,0.043134973435668536,0.011383990110181236,0.012542371275590552,0.05277873923735197,0.005070488757953249,0.020726756707487498, ,1.7526588439941406
0.012592848620177191,0.02208870219993752,-0.08837487419821968, ,0.01302059746235453,0.022029392340565696,-0.08887273468246801, ,0.0006590537103899315, ,0.0057280232029320675,0.001748696382787217,-0.01178272260999937,-0.0028721332381281862,-0.012816320968743035,-0.04282011635883519, ,0.013217440786956134, ,0.013134192225088721, ,6.621309922897885e-05, ,0.14498658698069095,-0.21764978059426934,0.09872933527000001,3.008002239285502,0.256876619559028,-0.21403966839714372, ,0.043134973435668536,0.011383990110181236,0.012542371275590552,0.05277873923735197,0.005070488757953249,0.020726756707487498, ,1.7549848556518555
0.012592848620177191,0.02208870219993752,-0.08837487419821968, ,0.013047367918323845,0.022034791643442506,-0.08893805446615671, ,0.0007257176824929608, ,0.0057280232029320675,0.001748696382787217,-0.01178272260999937,-0.0028721332381281862,-0.012816320968743035,-0.04282011635883519, ,0.013217440786956134, ,0.013134192225088721, ,6.71177694392175e-05, ,0.14498658698069095,-0.21764978059426934,0.09872933527000001,3.008002239285502,0.256876619559028,-0.21403966839714372, ,0.043134973435668536,0.011383990110181236,0.012542371275590552,0.05277873923735197,0.005070488757953249,0.020726756707487498, ,1.7573988437652588
0.012648326542067196,0.022102949638794528,-0.08849824309849602, ,0.013074184428340404,0.022040024176342675,-0.08900320311908742, ,0.0006635504317846031, ,0.005848564403157733,0.0015770801473606547,-0.013850239396587794,-0.015730290184800676,0.0019262459696810235,-0.017390369455574546, ,0.01511694475454202, ,0.015847774076092926, ,6.793480048352624e-05, ,0.14539589182302484,-0.21749532593678486,0.09885896427000002,3.0082119292289864,0.256876619559028,-0.21379463217672204, ,0.04147593599583513,0.017945715120739555,0.014507114316939893,0.034141166318523535,0.005070488757953249,0.04014621340746069, ,1.7606818675994873
0.012648326542067196,0.022102949638794528,-0.08849824309849602, ,0.013101046819791306,0.022045090913292577,-0.08906818141266362, ,0.000730159546904313, ,0.005848564403157733,0.0015770801473606547,-0.013850239396587794,-0.015730290184800676,0.0019262459696810235,-0.017390369455574546, ,0.01511694475454202, ,0.015847774076092926, ,0.0003783651421043494, ,0.14539589182302484,-0.21749532593678486,0.09885896427000002,3.0082119292289864,0.256876619559028,-0.21379463217672204, ,0.04147593599583513,0.017945715120739555,0.014507114316939893,0.034141166318523535,0.005070488757953249,0.04014621340746069, ,1.7632439136505127
0.012648326542067196,0.022102949638794528,-0.08849824309849602, ,0.013127954920400508,0.022049992826199988,-0.08913299011633519, ,0.0007973403175298048, ,0.005848564403157733,0.0015770801473606547,-0.013850239396587794,-0.015730290184800676,0.0019262459696810235,-0.017390369455574546, ,0.01511694475454202, ,0.015847774076092926, ,0.00038149182251797216, ,0.14539589182302484,-0.21749532593678486,0.09885896427000002,3.0082119292289864,0.256876619559028,-0.21379463217672204, ,0.04147593599583513,0.017945715120739555,0.014507114316939893,0.034141166318523535,0.005070488757953249,0.04014621340746069, ,1.765744924545288
0.012648326542067196,0.022102949638794528,-0.08849824309849602, ,0.013154908558228684,0.02205473088485593,-0.08919762999759993, ,0.0008649233619042873, ,0.005848564403157733,0.0015770801473606547,-0.013850239396587794,-0.015730290184800676,0.0019262459696810235,-0.017390369455574546, ,0.01511694475454202, ,0.015847774076092926, ,0.0003850727968837967, ,0.14539589182302484,-0.21749532593678486,0.09885896427000002,3.0082119292289864,0.256876619559028,-0.21379463217672204, ,0.04147593599583513,0.017945715120739555,0.014507114316939893,0.034141166318523535,0.005070488757953249,0.04014621340746069, ,1.7696449756622314
0.012648326542067196,0.022102949638794528,-0.08849824309849602, ,0.013181907561672913,0.022059306056935842,-0.08926210182200674, ,0.0009327880875120308, ,0.005848564403157733,0.0015770801473606547,-0.013850239396587794,-0.015730290184800676,0.0019262459696810235,-0.017390369455574546, ,0.01511694475454202, ,0.015847774076092926, ,0.00038910011519723963, ,0.14539589182302484,-0.21749532593678486,0.09885896427000002,3.0082119292289864,0.256876619559028,-0.21379463217672204, ,0.04147593599583513,0.017945715120739555,0.014507114316939893,0.034141166318523535,0.005070488757953249,0.04014621340746069, ,1.772134780883789
0.012732435156673702,0.022131274723787918,-0.08872020661528729, ,0.013208951759466233,0.02206371930800254,-0.08932640635315592, ,0.0007740219177328667, ,0.006320344613454229,0.0023722707436822357,-0.01725297557058944,-0.022873157664330457,0.032405907095479004,0.010148379298722815, ,0.018526726385238883, ,0.03966513112956997, ,0.00039190976339093035, ,0.14596737405571747,-0.21724047575193545,0.09909100018000001,3.0082119292289864,0.2570132560587935,-0.21325262015929397, ,0.0412774865413096,0.017560499918295853,0.018039424144960365,0.022447024940504705,0.006390294210210289,0.07718092429041976, ,1.7744479179382324
0.012732435156673702,0.022131274723787918,-0.08872020661528729, ,0.013236040980677561,0.022067971601507017,-0.08939054435270291, ,0.0008408203098549721, ,0.006320344613454229,0.0023722707436822357,-0.01725297557058944,-0.022873157664330457,0.032405907095479004,0.010148379298722815, ,0.018526726385238883, ,0.03966513112956997, ,0.0003951627383653075, ,0.14596737405571747,-0.21724047575193545,0.09909100018000001,3.0082119292289864,0.2570132560587935,-0.21325262015929397, ,0.0412774865413096,0.017560499918295853,0.018039424144960365,0.022447024940504705,0.006390294210210289,0.07718092429041976, ,1.77671480178833
0.012732435156673702,0.022131274723787918,-0.08872020661528729, ,0.013263175054711349,0.022072063898790784,-0.08945451658035833, ,0.000907965795593911, ,0.006320344613454229,0.0023722707436822357,-0.01725297557058944,-0.022873157664330457,0.032405907095479004,0.010148379298722815, ,0.018526726385238883, ,0.03966513112956997, ,0.00039885196899285143, ,0.14596737405571747,-0.21724047575193545,0.09909100018000001,3.0082119292289864,0.2570132560587935,-0.21325262015929397, ,0.0412774865413096,0.017560499918295853,0.018039424144960365,0.022447024940504705,0.006390294210210289,0.07718092429041976, ,1.778980016708374
0.012732435156673702,0.022131274723787918,-0.08872020661528729, ,0.013290353811307151,0.02207599715908759,-0.08951832379389214, ,0.0009753562759993752, ,0.006320344613454229,0.0023722707436822357,-0.01725297557058944,-0.022873157664330457,0.032405907095479004,0.010148379298722815, ,0.018526726385238883, ,0.03966513112956997, ,0.00040296985690004087, ,0.14596737405571747,-0.21724047575193545,0.09909100018000001,3.0082119292289864,0.2570132560587935,-0.21325262015929397, ,0.0412774865413096,0.017560499918295853,0.018039424144960365,0.022447024940504705,0.006390294210210289,0.07718092429041976, ,1.7812278270721436
0.012804054117328729,0.02216236594221395,-0.08892810978795579, ,0.013317577080539579,0.022079772339525065,-0.08958196674913335, ,0.0008354977334681034, ,0.008256012429911613,0.003262257210787569,-0.02403040335975072,-0.02127239137601572,-0.005316243257500308,0.0016782293877346298, ,0.025617656976868693, ,0.021926446680660183, ,0.00040603743049272213, ,0.1464230152952967,-0.2170396846972056,0.0993087769,3.0082119292289864,0.2572865290583244,-0.21274034730542177, ,0.05157442476003847,0.024667777894065705,0.025045301132075475,0.017221414846285147,0.009977306239205685,0.04681499202436234, ,1.784221887588501
0.012804054117328729,0.02216236594221395,-0.08892810978795579, ,0.013344844692817855,0.022083390395126825,-0.08964544619997399, ,0.0009018110176654033, ,0.008256012429911613,0.003262257210787569,-0.02403040335975072,-0.02127239137601572,-0.005316243257500308,0.0016782293877346298, ,0.025617656976868693, ,0.021926446680660183, ,0.0004095287937826706, ,0.1464230152952967,-0.2170396846972056,0.0993087769,3.0082119292289864,0.2572865290583244,-0.21274034730542177, ,0.05157442476003847,0.024667777894065705,0.025045301132075475,0.017221414846285147,0.009977306239205685,0.04681499202436234, ,1.7865447998046875
0.012804054117328729,0.02216236594221395,-0.08892810978795579, ,0.013372156478885558,0.02208685227881401,-0.08970876289836925, ,0.0009684326953199888, ,0.008256012429911613,0.003262257210787569,-0.02403040335975072,-0.02127239137601572,-0.005316243257500308,0.0016782293877346298, ,0.025617656976868693, ,0.021926446680660183, ,0.00041343721267454, ,0.1464230152952967,-0.2170396846972056,0.0993087769,3.0082119292289864,0.2572865290583244,-0.21274034730542177, ,0.05157442476003847,0.024667777894065705,0.025045301132075475,0.017221414846285147,0.009977306239205685,0.04681499202436234, ,1.7888288497924805
0.012804054117328729,0.02216236594221395,-0.08892810978795579, ,0.01339951226982035,0.022090158941407426,-0.08977191759434099, ,0.0010352757489919323, ,0.008256012429911613,0.003262257210787569,-0.02403040335975072,-0.02127239137601572,-0.005316243257500308,0.0016782293877346298, ,0.025617656976868693, ,0.021926446680660183, ,0.0004177555358434108, ,0.1464230152952967,-0.2170396846972056,0.0993087769,3.0082119292289864,0.2572865290583244,-0.21274034730542177, ,0.05157442476003847,0.024667777894065705,0.025045301132075475,0.017221414846285147,0.009977306239205685,0.04681499202436234, ,1.7910888195037842
0.012804054117328729,0.02216236594221395,-0.08892810978795579, ,0.01342691189703371,0.022093311331628916,-0.08983491103597871, ,0.0011022744015888213, ,0.008256012429911613,0.003262257210787569,-0.02403040335975072,-0.02127239137601572,-0.005316243257500308,0.0016782293877346298, ,0.025617656976868693, ,0.021926446680660183, ,0.0004224763556071722, ,0.1464230152952967,-0.2170396846972056,0.0993087769,3.0082119292289864,0.2572865290583244,-0.21274034730542177, ,0.05157442476003847,0.024667777894065705,0.025045301132075475,0.017221414846285147,0.009977306239205685,0.04681499202436234, ,1.7933177947998047
0.01289729336308905,0.022203654636887442,-0.08920689139960043, ,0.013454355192270603,0.022096310396103467,-0.08989774396944203, ,0.0008939339689358062, ,0.009803120780724088,0.004770195244365441,-0.030856711527236604,0.004610946098299521,0.0008649054584904665,-0.009625269938543702, ,0.03272602307011849, ,0.004688380507569784, ,0.0004257055173422998, ,0.14697905206224088,-0.21676166631373353,0.09960044215000001,3.0090506890029243,0.2576964385576207,-0.2122578136151054, ,0.057029411994273305,0.027474505373037285,0.03224455773279353,0.035540414450851134,0.037539571226646404,0.05152370475245804, ,1.795516014099121
0.01289729336308905,0.022203654636887442,-0.08920689139960043, ,0.013481841987609239,0.022099157079361165,-0.089960417138962, ,0.0009593841117288692, ,0.009803120780724088,0.004770195244365441,-0.030856711527236604,0.004610946098299521,0.0008649054584904665,-0.009625269938543702, ,0.03272602307011849, ,0.004688380507569784, ,0.00042933598397077984, ,0.14697905206224088,-0.21676166631373353,0.09960044215000001,3.0090506890029243,0.2576964385576207,-0.2122578136151054, ,0.057029411994273305,0.027474505373037285,0.03224455773279353,0.035540414450851134,0.037539571226646404,0.05152370475245804, ,1.7977869510650635
0.01289729336308905,0.022203654636887442,-0.08920689139960043, ,0.013509372115460765,0.0221018523238387,-0.09002293128684397, ,0.0010251464322814697, ,0.009803120780724088,0.004770195244365441,-0.030856711527236604,0.004610946098299521,0.0008649054584904665,-0.009625269938543702, ,0.03272602307011849, ,0.004688380507569784, ,0.0004333617302431493, ,0.14697905206224088,-0.21676166631373353,0.09960044215000001,3.0090506890029243,0.2576964385576207,-0.2122578136151054, ,0.057029411994273305,0.027474505373037285,0.03224455773279353,0.035540414450851134,0.037539571226646404,0.05152370475245804, ,1.8000988960266113
0.01289729336308905,0.022203654636887442,-0.08920689139960043, ,0.013536945408568951,0.022104397069881224,-0.09008528715346881, ,0.0010911397272158156, ,0.009803120780724088,0.004770195244365441,-0.030856711527236604,0.004610946098299521,0.0008649054584904665,-0.009625269938543702, ,0.03272602307011849, ,0.004688380507569784, ,0.0004377763476724961, ,0.14697905206224088,-0.21676166631373353,0.09960044215000001,3.0090506890029243,0.2576964385576207,-0.2122578136151054, ,0.057029411994273305,0.027474505373037285,0.03224455773279353,0.035540414450851134,0.037539571226646404,0.05152370475245804, ,1.8025429248809814
0.01289729336308905,0.022203654636887442,-0.08920689139960043, ,0.013564561700009995,0.022106792255744277,-0.09014748547729544, ,0.0011573014185305773, ,0.009803120780724088,0.004770195244365441,-0.030856711527236604,0.004610946098299521,0.0008649054584904665,-0.009625269938543702, ,0.03272602307011849, ,0.004688380507569784, ,0.0004425731814782166, ,0.14697905206224088,-0.21676166631373353,0.09960044215000001,3.0090506890029243,0.2576964385576207,-0.2122578136151054, ,0.057029411994273305,0.027474505373037285,0.03224455773279353,0.035540414450851134,0.037539571226646404,0.05152370475245804, ,1.8049437999725342
0.01289729336308905,0.022203654636887442,-0.08920689139960043, ,0.01359222082319214,0.022109038817595825,-0.09020952699486202, ,0.001223582635113428, ,0.009803120780724088,0.004770195244365441,-0.030856711527236604,0.004610946098299521,0.0008649054584904665,-0.009625269938543702, ,0.03272602307011849, ,0.004688380507569784, ,0.00044774542951553587, ,0.14697905206224088,-0.21676166631373353,0.09960044215000001,3.0090506890029243,0.2576964385576207,-0.2122578136151054, ,0.057029411994273305,0.027474505373037285,0.03224455773279353,0.035540414450851134,0.037539571226646404,0.05152370475245804, ,1.8072969913482666
0.01289729336308905,0.022203654636887442,-0.08920689139960043, ,0.01361992261185541,0.022111137689517505,-0.09027141244078872, ,0.0012899447522494443, ,0.009803120780724088,0.004770195244365441,-0.030856711527236604,0.004610946098299521,0.0008649054584904665,-0.009625269938543702, ,0.03272602307011849, ,0.004688380507569784, ,0.0004532862145335221, ,0.14789805727427358,-0.21632147053990275,0.10009821751,3.009679758833378,0.258106348056917,-0.2109584925233834, ,0.0665010102021519,0.030830715256163342,0.032441571323828924,0.053683738795083355,0.027165651270791315,0.08933027202550196, ,1.8104188442230225
0.0130530576276315,0.022274295171860123,-0.08968366330087878, ,0.013647666900071404,0.02211308980350685,-0.0903331425477792, ,0.0008951930796268305, ,0.010808589811452088,0.00440308624547614,-0.03102239370168109,-0.013471293601696646,0.027242833036191915,-0.013146639760298708, ,0.03314516093156631, ,0.030391100184678582, ,0.00045617449469753066, ,0.14789805727427358,-0.21632147053990275,0.10009821751,3.009679758833378,0.258106348056917,-0.2109584925233834, ,0.0665010102021519,0.030830715256163342,0.032441571323828924,0.053683738795083355,0.027165651270791315,0.08933027202550196, ,1.8131029605865479
0.0130530576276315,0.022274295171860123,-0.08968366330087878, ,0.013675453522242862,0.022114896089479166,-0.09039471804662265, ,0.0009583233110687912, ,0.010808589811452088,0.00440308624547614,-0.03102239370168109,-0.013471293601696646,0.027242833036191915,-0.013146639760298708, ,0.03314516093156631, ,0.030391100184678582, ,0.0004594352012973441, ,0.14789805727427358,-0.21632147053990275,0.10009821751,3.009679758833378,0.258106348056917,-0.2109584925233834, ,0.0665010102021519,0.030830715256163342,0.032441571323828924,0.053683738795083355,0.027165651270791315,0.08933027202550196, ,1.815713882446289
0.0130530576276315,0.022274295171860123,-0.08968366330087878, ,0.013703282313103545,0.022116557475268906,-0.09045613966619587, ,0.0010219555066129959, ,0.010808589811452088,0.00440308624547614,-0.03102239370168109,-0.013471293601696646,0.027242833036191915,-0.013146639760298708, ,0.03314516093156631, ,0.030391100184678582, ,0.000463064364557445, ,0.14789805727427358,-0.21632147053990275,0.10009821751,3.009679758833378,0.258106348056917,-0.2109584925233834, ,0.0665010102021519,0.030830715256163342,0.032441571323828924,0.053683738795083355,0.027165651270791315,0.08933027202550196, ,1.8179879188537598
0.0130530576276315,0.022274295171860123,-0.08968366330087878, ,0.013731153107717838,0.02211807488663221,-0.09051740813346523, ,0.0010859782242268153, ,0.010808589811452088,0.00440308624547614,-0.03102239370168109,-0.013471293601696646,0.027242833036191915,-0.013146639760298708, ,0.03314516093156631, ,0.030391100184678582, ,0.0004670574021194282, ,0.14867033056169604,-0.21593533389619152,0.10045728984,3.009679758833378,0.2585162575562133,-0.20998588639222368, ,0.06866638318268507,0.03823406186884399,0.03005436135849057,0.031176340022884892,0.04038575180749446,0.0666910711611799, ,1.8202478885650635
0.013174819602763347,0.022319523121839907,-0.09002731157058161, ,0.013759065741480512,0.022119449247247736,-0.09057852417348819, ,0.0008277731811935493, ,0.010656535736075858,0.0032940554604685493,-0.02880066369056082,-0.006759052516719688,0.0019796629712914428,3.288328616006216e-05, ,0.030885122377735417, ,0.007041593609689639, ,0.0004693549548523844, ,0.14867033056169604,-0.21593533389619152,0.10045728984,3.009679758833378,0.2585162575562133,-0.20998588639222368, ,0.06866638318268507,0.03823406186884399,0.03005436135849057,0.031176340022884892,0.04038575180749446,0.0666910711611799, ,1.823004961013794
0.013174819602763347,0.022319523121839907,-0.09002731157058161, ,0.013787020050116382,0.022120681478719532,-0.09063948850941628, ,0.0008883062485534212, ,0.010656535736075858,0.0032940554604685493,-0.02880066369056082,-0.006759052516719688,0.0019796629712914428,3.288328616006216e-05, ,0.030885122377735417, ,0.007041593609689639, ,0.00047200654531884663, ,0.14867033056169604,-0.21593533389619152,0.10045728984,3.009679758833378,0.2585162575562133,-0.20998588639222368, ,0.06866638318268507,0.03823406186884399,0.03005436135849057,0.031176340022884892,0.04038575180749446,0.0666910711611799, ,1.825218915939331
0.013174819602763347,0.022319523121839907,-0.09002731157058161, ,0.01381501586968007,0.022121772500577976,-0.09070030186249567, ,0.0009496696801489238, ,0.010656535736075858,0.0032940554604685493,-0.02880066369056082,-0.006759052516719688,0.0019796629712914428,3.288328616006216e-05, ,0.030885122377735417, ,0.007041593609689639, ,0.0004750107159781553, ,0.14867033056169604,-0.21593533389619152,0.10045728984,3.009679758833378,0.2585162575562133,-0.20998588639222368, ,0.06866638318268507,0.03823406186884399,0.03005436135849057,0.031176340022884892,0.04038575180749446,0.0666910711611799, ,1.8274807929992676
0.013174819602763347,0.022319523121839907,-0.09002731157058161, ,0.013843053036555785,0.022122723230282297,-0.09076096495207017, ,0.0010116883925027134, ,0.010656535736075858,0.0032940554604685493,-0.02880066369056082,-0.006759052516719688,0.0019796629712914428,3.288328616006216e-05, ,0.030885122377735417, ,0.007041593609689639, ,0.0004783649514564337, ,0.14939626745187315,-0.21552602905385762,0.10074636251,3.0098894487768626,0.25906280355527506,-0.20953309186546318, ,0.07640655520005699,0.04208290091284735,0.028804360795660042,0.0,0.04981919683435899,0.04198772494117455, ,1.830030918121338
0.013283075368231992,0.022348549328648062,-0.09030375979202393, ,0.013871131387456876,0.02212353458322174,-0.09082147849558282, ,0.0008151528527954682, ,0.011140345759984106,0.0027186703172905977,-0.027544087787979753,-0.001100101452579192,-0.03301162042984643,0.020576731820366075, ,0.029835804732201345, ,0.03302970560717259, ,0.00048045680177530975, ,0.14939626745187315,-0.21552602905385762,0.10074636251,3.0098894487768626,0.25906280355527506,-0.20953309186546318, ,0.07640655520005699,0.04208290091284735,0.028804360795660042,0.0,0.04981919683435899,0.04198772494117455, ,1.8324048519134521
