NicholasDascanio/dvrk_moveit_final/test/execution/third_experiment_notsharpbends/thirdexp_500vel3.0/thirdexp_500vel3.0_7.csv
Current Position (x),Current Position (y),Current Position (z), ,Planned Position (x),Planned Position (y),Planned Position (z), ,Position Error,,Cartesian linear Velocity(x),Cartesian linear Velocity(y),Cartesian linear Velocity(z),Cartesian Angular Velocity(x),Cartesian Angular Velocity(y),Cartesian Angular Velocity(z), ,Total Linear Velocity, ,Total Angular Velocity, ,MSE, ,Joint 1 Position,Joint 2 Position,Joint 3 Position,Joint 4 Position,Joint 5 Position,Joint 6 Position, ,Joint 1 Velocity,Joint 2 Velocity,Joint 3 Velocity,Joint 4 Velocity,Joint 5 Velocity,Joint 6 Velocity, ,Time Stamp
0.006885669182392671,0.02208640425779224,-0.07767839104593056, ,0.007007267449974933,0.02200348264925799,-0.07779763511379557, ,0.00018942354542640687, ,0.00048623775508035354,0.00033217765788508724,-0.0013769183787201544,0.064074085739625,-0.29576694546384846,-0.148171094470836, ,0.0014975557994682343, ,0.3026277820894489, ,1.5785295452200573e-05, ,0.09263418082632299,-0.2505254544398431,0.08776661074000001,2.9832588259543282,0.231735503602187,-0.2528375394590504, ,0.004561865139808524,0.0002762300812715654,0.0014505644277613334,0.0,-0.0007417272284917487,-0.3329981394578718, ,0.024299144744873047
0.006902890748190307,0.02205627742186972,-0.07771416013949368, ,0.0070914554231529415,0.02197418608285343,-0.07790399717258806, ,0.00027988162447600156, ,0.0012613685588898007,-0.0027318923245257636,-0.0016909257090519574,-0.2571438369338628,-0.1943291697552213,-0.10942474999951748, ,0.003451596162312645, ,0.32231472056176524, ,2.13320531773822e-05, ,0.09273457635368791,-0.2504482271111009,0.08778735138,2.9836782058412967,0.2280463181085201,-0.2567719489711948, ,0.008955741699032132,0.00710956360711562,0.00045871449931847837,0.0,-0.28739974479933794,-0.16163920653070463, ,0.046463966369628906
0.006933950724425856,0.022034103897548007,-0.07777398876063188, ,0.007175489451964728,0.02194495999945219,-0.07801014627299406, ,0.0003493679466034465, ,0.0016877159905669843,-0.0004733685102340647,-0.0035943104819588065,-0.08237591253595632,0.03287282223996472,0.023706968094115995, ,0.003998941216374112, ,0.08869280358378545, ,2.5583534890807965e-05, ,0.09299714927141155,-0.2502706042549937,0.08783661040000001,2.9843072756717506,0.22545022461297673,-0.2608625930516455, ,0.016263400438469716,0.01058426934679716,0.003354140138976627,-0.003087333869512792,-0.059710159207134655,0.06720838274566898, ,0.06872200965881348
0.006973012051795534,0.0220371784160458,-0.0778766780936898, ,0.00725936947060184,0.021915804541799512,-0.07811608275898536, ,0.0003924879392035463, ,0.002275895477334616,0.0004220216429148883,-0.006157410466843498,0.010956299224000559,-0.08540534823769476,-0.03253457735592237, ,0.00657810809792866, ,0.08610524949988115, ,2.883716799308098e-05, ,0.09337556318224854,-0.2500003086043958,0.08793901731,2.984097585728266,0.22531358811321128,-0.2594443153057001, ,0.021855583039721505,0.015584979727126093,0.006236809522317934,0.0,0.012215338678654845,-0.07454025807321113, ,0.09507298469543457
0.007050447069305689,0.022021910675517273,-0.0780084211169754, ,0.007343095413962066,0.021886719852093305,-0.07822180697408618, ,0.00038659169207714607, ,0.003268771583001334,-0.0007689551448341091,-0.004412514385727847,-0.008176450626315668,0.0805662074184519,0.03543717466802944, ,0.005544947509297008, ,0.08098004767203365, ,3.072601438051052e-05, ,0.09417100466829367,-0.24936704450870942,0.08806605373000001,2.9847266555587195,0.22558686111274218,-0.2562366440271893, ,0.036082487284589654,0.028134284482203013,0.004291166896551724,0.02085211201414153,0.02329391585014542,0.15148684846099447, ,0.11701202392578125
0.007094668437365362,0.022013300349026245,-0.07805883306977403, ,0.0074266672176489575,0.02185770607198496,-0.07832731926137401, ,0.0004544420801792661, ,0.0033879738642201415,-0.0012111035248032265,-0.0030297109299268327,0.044561945011131775,-0.12390856470504515,-0.08455425887884462, ,0.004703646135855425, ,0.13167801392101955, ,3.309991658009376e-05, ,0.09470387323661517,-0.24896546239924974,0.08812049791000001,2.985146035445689,0.22681658961063117,-0.2578928350815816, ,0.03924604696380099,0.029945390204629465,0.0029634998176744187,0.038748298177610295,0.049323885508080194,-0.11586307260955964, ,0.1441800594329834
0.007232417486718854,0.021947707853387597,-0.07820250137587431, ,0.0075100848179711355,0.021828763342579285,-0.07843261996348058, ,0.0003797387363149795, ,0.003775104128849966,-0.001585256925668096,-0.004059817389992932,-0.011199955240994689,-0.06603036581409537,-0.0191881019510461, ,0.005765983692669252, ,0.06697348882834646, ,3.377685505945546e-05, ,0.09627158801008273,-0.24771437967362536,0.08825271949,2.985355725389173,0.22681658961063117,-0.2561775815386298, ,0.04303716170452189,0.03384341710359157,0.003832726544754572,0.004996722831044459,0.016440689864790716,-0.030408247019870608, ,0.16645503044128418
0.007315072714570125,0.02191423036264573,-0.07829338000671353, ,0.007593348151941666,0.021799891804435353,-0.07853770942259351, ,0.0003875659794179621, ,0.004295241445504484,-0.0016051593773924277,-0.004590354305557009,-0.021876632016078375,-0.042224528288139905,-0.03252869913122941, ,0.0064882191973264945, ,0.047555208079501726, ,3.438414077681408e-05, ,0.09719059322211546,-0.24701933371494517,0.08833827463,2.985984795219627,0.22681658961063117,-0.25601422405834867, ,0.04802476799517752,0.03519916229913605,0.004371243556531285,0.0300167683953731,0.009885458018699304,-0.0033830832499680196, ,0.19002008438110352
0.007398761813166055,0.02187877757286627,-0.07838298817684693, ,0.0076764571572776105,0.021771091597566097,-0.07864258798045702, ,0.0003950987616431929, ,0.004142156183210805,-0.001744582005045877,-0.0047682730802362195,-0.035999459809696245,-0.029290184594066578,-0.021741327938489534, ,0.0065526675778759605, ,0.04640986983045196, ,3.494128592762987e-05, ,0.09814048936564507,-0.24629339682476806,0.08842253348000001,2.985984795219627,0.2269532261103966,-0.2558806057416234, ,0.04579968221933918,0.03613744918449001,0.004483200540388405,0.02429857347952911,0.0,0.01204671109396767, ,0.2122490406036377
0.007485872847264395,0.02184763276251697,-0.07849230586756135, ,0.0077594117723993015,0.021742362861439095,-0.07874725597837287, ,0.00038846474053601027, ,0.004099329144274105,-0.001322775796086701,-0.005375964312649074,-0.03520433299266916,-0.012469673098308086,-0.004750959978442947, ,0.006888775473963736, ,0.03734752741677868, ,3.5324147508607436e-05, ,0.09909810824204891,-0.24554429173596828,0.08852753297,2.9864041751065957,0.22722649910992745,-0.2556133691081729, ,0.04461539330440563,0.033065136431522923,0.00518516,0.01616242656607568,0.0023656044001150673,0.03169927116094421, ,0.23492693901062012
0.007577677940446072,0.02181324992913515,-0.07860708900639678, ,0.007842211936429772,0.02171370573497719,-0.0788517137572022, ,0.0003738028227933467, ,0.0038524961550173787,-0.001550378985748118,-0.004479965558759637,-0.01432074459962856,-0.027277446388944752,-0.04137124266691619, ,0.006108640849775472, ,0.030808161347035578, ,3.550773097027951e-05, ,0.1001020635156981,-0.2447256820513005,0.08863771762000001,2.9870332449370496,0.22763640860922377,-0.2554575503784188, ,0.04206424714471222,0.034608658482301526,0.0042738963026562925,0.04263330207708913,0.016758102625657995,0.0022224775107679874, ,0.2616760730743408
0.007678062136620108,0.02176651109310645,-0.07872213544421161, ,0.007924857589194187,0.021685120356558216,-0.07895596165736543, ,0.0003495813858959945, ,0.0037097749890382895,-0.0017480743171994588,-0.004306910507502995,-0.034038666913823366,-0.0037198074323409654,-0.010111933902786696, ,0.005947072591400419, ,0.034241317309968926, ,3.546268241448606e-05, ,0.10122185978246065,-0.24379123137351932,0.08874530969000001,2.9870332449370496,0.2277730451089892,-0.2542621084398662, ,0.040658501096174283,0.03503024789902945,0.0040275123944374215,0.023179915704267008,0.005414611362237351,0.034714444263789106, ,0.2835960388183594
0.007750485884908256,0.021740557986963956,-0.07881381756532842, ,0.008007348671219149,0.02165660686401593,-0.07906000001884429, ,0.00036555722186099146, ,0.0035444381778358502,-0.0011974044228708655,-0.004649058861788264,0.0027654381118671027,-0.003007961159190293,-0.05730147520524193, ,0.005967459061341186, ,0.004086009803455875, ,3.554548845779008e-05, ,0.10200185580275732,-0.24310390814771335,0.0888347537,2.988081694654472,0.22859286410758187,-0.25444054342120137, ,0.03736100061357117,0.032410157636089745,0.004539416221145626,0.06732256501228832,0.031971268526527964,0.015235308163983066, ,0.3058021068572998
0.007849805261204025,0.02170204369186985,-0.0789531493311238, ,0.008089685123732185,0.021628165394639864,-0.079163829181182, ,0.00032769856647333836, ,0.0032581088904184924,-0.0011501449299468158,-0.005067763886857813,-0.0321778982121453,0.011738445393332632,0.020142638863056422, ,0.0061335420202886515, ,0.034252127382994116, ,3.535002142888471e-05, ,0.10306759293940031,-0.24218490293568062,0.08896827157000001,2.988291384597957,0.22886613710711273,-0.2533565193863452, ,0.0344078830886406,0.030059214937748106,0.004887637778459651,0.0,0.007819040627872916,0.05112162139487463, ,0.33136415481567383
0.007915576783914692,0.021682104880582975,-0.07904525251189656, ,0.008171866888661046,0.021599796085176263,-0.07926744948348452, ,0.00034904276210094955, ,0.00306739068330713,-0.0010815185333499836,-0.0038782971646008193,0.0033542907185210814,-0.015172241240314563,0.008620063300515193, ,0.0050615962738023304, ,0.015538602562690214, ,3.555460798014952e-05, ,0.10377808436382896,-0.24159025250436533,0.08905901187000001,2.988501074541441,0.22954931960593997,-0.2530968215034217, ,0.033952394117520844,0.028643809706752423,0.003799811908396947,0.0,0.0355694016565629,0.015356421372858933, ,0.35256195068359375
0.007977456536580333,0.021656374599165848,-0.0791230314953991, ,0.008253893908633143,0.021571499071827798,-0.07937086126442183, ,0.000380842579318857, ,0.003296572910411419,-0.001074494693741024,-0.0043452981928661545,-0.017576363748914036,0.012774327263863437,-0.008330623354915603, ,0.005559095986350829, ,0.021728138395390853, ,3.5934927402008966e-05, ,0.10443451665813805,-0.2410419384702954,0.0891329004,2.9891301443718947,0.22954931960593997,-0.25236171284215664, ,0.03509502276570665,0.027993198099843887,0.004239768836837903,0.02773160560770526,0.01635818285111971,0.04411609619580211, ,0.3752291202545166
0.00804895724952946,0.021638192561304184,-0.07922582234683986, ,0.008335766126974837,0.021543274490254737,-0.07947406486222806, ,0.0003910154969300903, ,0.003202453602623661,-0.0006597753678662648,-0.004773424647705748,0.02768073102201437,-0.034461910852164365,-0.026243297085956574, ,0.005785896255579171, ,0.04420233214455266, ,3.633493420858891e-05, ,0.1052067899455605,-0.24042411984035744,0.08923530731000001,2.9891301443718947,0.23036913860453262,-0.2522134328629295, ,0.03392811639559198,0.02791086516425611,0.004818152304900182,0.0244460429652844,0.05094377716177991,-0.0157562198573411, ,0.3956489562988281
0.00811586854524029,0.021617371736510866,-0.07932699562078653, ,0.008417483487710929,0.02151512247557469,-0.07957706061470313, ,0.00040491849311443935, ,0.003581317077375785,-0.001172575359979897,-0.005287537977144159,-0.035164658096036965,-2.721159532782444e-05,-0.005134401125706897, ,0.006492982584550583, ,0.03516466856589265, ,3.677259760879756e-05, ,0.10589411317136647,-0.23985263760766481,0.08933382535,2.9897592142023486,0.23050577510429804,-0.2511813484046581, ,0.037170756583811505,0.030040184095748903,0.00512345175940817,0.018660185279445,0.0,0.037148891518970106, ,0.4163241386413574
0.008188964633762123,0.021598284146136217,-0.0794259327289009, ,0.008499045935563934,0.021487043162363276,-0.07967984885921303, ,0.00041593072912513154, ,0.003665695022203099,-0.0008267309454204033,-0.004389247642834201,0.04862008548188938,-0.04738242975193513,-0.05013360452187893, ,0.005778087825747016, ,0.06788967049437042, ,3.722702194380266e-05, ,0.10667410919166315,-0.2392502644434753,0.08943234339,2.990178594089317,0.23118895760312522,-0.25092165052173454, ,0.03982246813196424,0.030880879127390425,0.0044933177771509175,0.04429963582577324,0.06996650852026594,-0.032151348711554124, ,0.4366891384124756
0.008263500717863137,0.02157073182984433,-0.07952233489525565, ,0.008580453415953477,0.021459036684654386,-0.07978242993269094, ,0.00042495205233557265, ,0.0038458618520128456,-0.001597914273322162,-0.004586777964744637,-0.04378837856753412,0.02785092149586683,0.0010004474291948184, ,0.006195362419384464, ,0.051895047198286845, ,3.76857405909524e-05, ,0.1074772734105825,-0.23860155488204046,0.08952567627000001,2.990178594089317,0.23146223060265614,-0.2496742690065973, ,0.04097449980935698,0.03301911675660083,0.004373644019769358,0.027000480278106705,0.0,0.07090109115359025, ,0.45840001106262207
0.008342561677387547,0.02154997414821945,-0.0796185215548687, ,0.00866170587499567,0.02143110317594101,-0.07988480417163832, ,0.00043230748190498287, ,0.003944345169560922,-0.0012231438756946347,-0.005149020867548131,0.01096268834053553,-0.013883749163789483,-0.0018804017202283774, ,0.00660048147120602, ,0.017690082613584648, ,3.8140061647471474e-05, ,0.10833449675962142,-0.23792967712198293,0.08962289802000001,2.990807663919771,0.2326919591005451,-0.2493701702976161, ,0.04247848771641485,0.035369713588695784,0.0051185126992287925,0.014410575323313794,0.04960830620917838,0.020391990522658415, ,0.47794413566589355
0.008466129579141559,0.021507572969829927,-0.07976484359852662, ,0.008742803259502415,0.021403242769174755,-0.07998697191212506, ,0.00036982983096994353, ,0.0040651979312938055,-0.0013306668997633917,-0.004724753802442746,0.00812611551850158,-0.019348038131070715,0.026633158271510304, ,0.00637336701535527, ,0.02098524077981746, ,3.8264217143465404e-05, ,0.10966280681398803,-0.2368793854510884,0.08976678621,2.991646423693709,0.23364841459890315,-0.24753637593899303, ,0.04510310910573705,0.03534336743332245,0.004704315274660367,-0.013168350475427937,0.05045251623273278,0.02443343390823357, ,0.4998819828033447
0.008553115621487943,0.02147752023056941,-0.07987160059307584, ,0.008823745516980843,0.02137545559676712,-0.08008893348979068, ,0.00036178905152333985, ,0.00425706640675907,-0.0016332338873139437,-0.005414729219811978,-0.026672249472841185,-0.015987451590223647,0.01018433312292801, ,0.007078796497012245, ,0.031096744132410505, ,3.834229381266788e-05, ,0.11058953475889498,-0.23614572582803706,0.08986919312000001,2.991646423693709,0.23433159709773038,-0.24694996309550726, ,0.04557970295795907,0.03714166010116273,0.00532380064171123,0.0012572494269032484,0.01649322636089374,0.031236611107110367, ,0.519888162612915
0.008640160235203998,0.02144379574714001,-0.07997301117136191, ,0.008904532595632581,0.021347741790589975,-0.08019068923984528, ,0.0003556723900250735, ,0.004234833400688972,-0.0018026158485462628,-0.004497406297173009,-0.01863616834561043,-0.00046121987230827045,-0.020674435231104397, ,0.006435052542976826, ,0.0186418747055272, ,3.838794788900867e-05, ,0.11150081723805347,-0.23541206620498573,0.08996771116,2.9922754935241627,0.23474150659702667,-0.24614071444462865, ,0.045755516662714935,0.0374051799599806,0.00435928065681445,0.037213244495562056,0.02221427255187784,0.037615420560335566, ,0.540053129196167
0.008679024931138155,0.02142939085097893,-0.08001771942544984, ,0.00898516444435316,0.021320101481974954,-0.08029223949706962, ,0.00042547248730198374, ,0.004128569625042834,-0.0015517323045298628,-0.004945364301181887,-0.014075010252473824,0.008093380021887784,-0.00729179093788941, ,0.0066264310428127225, ,0.016236031252371417, ,3.871981907697923e-05, ,0.11241209971721196,-0.23466296111618595,0.09006493291,2.9922754935241627,0.23528805259608845,-0.24527952621716537, ,0.043771652010364745,0.036178780617030414,0.00484011288969918,0.028454482533999917,0.028444894261616564,0.04668576482221078, ,0.5598881244659424
0.0088021365822768,0.02138673504881136,-0.08016998559308361, ,0.009065641012731305,0.021292534801714738,-0.08039358459581684, ,0.0003581965737489895, ,0.003781613126963182,-0.0010753167104152021,-0.0049149677494235095,0.035944106131624715,-0.021274188729541524,-0.00425007104614372, ,0.006293950416677242, ,0.041768048420215816, ,3.875869188520394e-05, ,0.11326932306625088,-0.2339601924246315,0.09016474724000001,2.9926948734111316,0.23624450809444655,-0.24450755548036965, ,0.04050232247480613,0.034850143796720814,0.004983983579474344,0.01401042616398213,0.07179783277471322,0.006378048979039763, ,0.5824930667877197
0.008880450278568371,0.021359742383184575,-0.08026968874024985, ,0.009145962251048348,0.021265041880063455,-0.08049472487001218, ,0.00036070216594859326, ,0.003953969854261196,-0.0013820164464798564,-0.0051961676121859545,-0.02504150932190941,0.029818386331347903,-0.017579561526072277, ,0.006674129525314699, ,0.03893858431860024, ,3.880453720945782e-05, ,0.11408793275091868,-0.23327286919882553,0.09026326528,2.993323943241585,0.23692769059327373,-0.2436761064164622, ,0.040381677258923734,0.033461544978304225,0.005092331048593351,0.045715332713446466,0.01609971365341176,0.0650530091467537, ,0.6053099632263184
0.008954263280262715,0.021340699130976835,-0.08036686983462345, ,0.009226128110277525,0.021237622846736918,-0.08059566065315443, ,0.0003699735731316067, ,0.0033197631827855366,-0.000618667243679713,-0.0040040239505421136,0.053877846746439015,-0.04293354602191378,-0.0301104979978638, ,0.005237917958950435, ,0.06889202960444261, ,3.888189817306412e-05, ,0.11487565150408958,-0.23264732783601336,0.09036178332000001,2.993323943241585,0.23802078259139725,-0.2434239472840657, ,0.0355952518974009,0.02702846526871854,0.004188485805942677,0.026950489714951318,0.07396981590656042,-0.027454966157013042, ,0.6268980503082275
0.009024831905673415,0.021313171708354388,-0.08045715865503583, ,0.00930613854208327,0.021210277830912814,-0.08069639227831625, ,0.00038334488415924466, ,0.003514582739217285,-0.0013802463810980558,-0.004661564375075308,-0.03558215205602535,0.021384694814414577,0.011025596627480533, ,0.005998962770872111, ,0.041513789456547615, ,3.914381737152329e-05, ,0.11560931112714092,-0.23201406374032693,0.09044993104000001,2.9937433231285544,0.23843069209069356,-0.2425330198930465, ,0.036220206701706406,0.03044496039732781,0.0045188117787234045,0.013031870895888788,0.005180268133902782,0.06113806105971723, ,0.6450021266937256
0.009105281832233282,0.021294388925245496,-0.0805582010977608, ,0.009385993498820612,0.021183006961231616,-0.08079692007814497, ,0.0003849567940191287, ,0.00371971546109588,-0.0005898258286520124,-0.005492169213918694,0.03704964472589008,-0.012385949073879757,-0.04080878323273632, ,0.006659436935205337, ,0.039065175076764984, ,3.9396656297744923e-05, ,0.11645108901043139,-0.23134990871314365,0.09055363424000001,2.9945820829024923,0.239797057088348,-0.2424220178279023, ,0.037375715462178334,0.029711002366459228,0.005656538181818183,0.0505569294699145,0.06315883277241537,0.004986307801855648, ,0.6629650592803955
0.00917958725667277,0.021276911108211567,-0.08067598416569362, ,0.009465692933534494,0.021155810365796796,-0.08089724438486284, ,0.0003814156954462257, ,0.0037821752843389955,-0.0009990074198881057,-0.00615530390586139,-0.03550994563998512,0.01594471201418371,0.019281083514050123, ,0.007293190788671906, ,0.03892544247319636, ,3.962351398632118e-05, ,0.11720019409923116,-0.23074753554895414,0.09067159663,2.9945820829024923,0.24034360308740974,-0.24147915086029842, ,0.03739044190641086,0.03000219461222598,0.006088995229357799,0.0035021595003116076,0.005409147603078963,0.05876299858953794, ,0.6857120990753174
0.009254835491385706,0.021257336711366807,-0.08077712654311567, ,0.009545236799959151,0.021128688172174982,-0.08099736553026865, ,0.0003865081863551294, ,0.003769140296597052,-0.0010455801877445217,-0.004443623855130482,0.026394915516069803,-0.039753682717091426,-0.030128909866204402, ,0.005919919718232695, ,0.047718412095742284, ,3.985524756786971e-05, ,0.11797246738665361,-0.23012199418614193,0.09077400354000001,2.995211152732946,0.24130005858576783,-0.24127893130448663, ,0.03967263443079882,0.030760759014091015,0.004523945333712014,0.028366132519118164,0.05174426669452065,-0.01578063315276812, ,0.7036311626434326
0.009290656953381183,0.02124375287626786,-0.08082080061894631, ,0.009624625052517276,0.021101640507397112,-0.08109728384573774, ,0.00045626044242694485, ,0.0038543462818497695,-0.0014809164068982483,-0.004761962184952039,-0.017117303801845278,0.0023730169405778425,-0.022302718146046407, ,0.006302807510589448, ,0.017281009704188853, ,4.0301411405155385e-05, ,0.11834315856461639,-0.2298208076040472,0.09081678111000001,2.99542084267643,0.24143669508553328,-0.24090027676733966, ,0.03944178784641346,0.03326215967699642,0.0046670997714620575,0.03743507069218757,0.018748410131561755,0.034768268419557505, ,0.7213201522827148
0.009380890897541554,0.02121457061554457,-0.08092934281606554, ,0.00970385764631952,0.021074667497958104,-0.08119699966222241, ,0.0004421771030042887, ,0.0038739614144681503,-0.0008616183988511919,-0.004581530119464448,0.06627116381300127,-0.039513562280882784,-0.023823717819195202, ,0.006061384457497057, ,0.0771569099642815, ,4.0680417138582746e-05, ,0.11930077744102023,-0.2290639797823732,0.09092566947000001,2.99542084267643,0.24239315058389135,-0.2404550209911062, ,0.04131342688657849,0.03336741967597425,0.00480507134841629,0.0263344694474253,0.09451678628141422,-0.019966310565062872, ,0.7396631240844727
0.009463364655522414,0.021186416239731966,-0.08103626128815791, ,0.009782934537163675,0.02104776926981795,-0.0812965133102529, ,0.0004348321590258406, ,0.0042139369357414025,-0.0015440888303079174,-0.005561063370607595,-0.03414935054333396,0.03814397611087899,0.01734698614544659, ,0.007146110874188898, ,0.0511970804905935, ,4.101803695931478e-05, ,0.1201425553243107,-0.22835348835794453,0.09103196525000001,2.996049912506884,0.24307633308271853,-0.2394602144469176, ,0.042881582267722894,0.03572927016508689,0.0054644293379073755,0.017988036848872752,0.016009804452173558,0.08478804222832621, ,0.7576329708099365
0.00951740142285877,0.02116933877189678,-0.08110471983232029, ,0.009861855681534124,0.021020945948401468,-0.08139582511993777, ,0.00047477516243307863, ,0.004456477236730841,-0.001354007261619804,-0.005932027450993124,0.0028186091939966847,-0.007748628780983327,-0.05377559375131204, ,0.007542047116357422, ,0.008245350109519945, ,4.145969619653936e-05, ,0.12069086935838064,-0.22789784711836528,0.09110066862,2.9966789823373374,0.24362287908178032,-0.23925245614057877, ,0.04426163318958525,0.0368102954066993,0.005939154183445191,0.06515768628695887,0.03617001110496842,0.018960402792581172, ,0.7766139507293701
0.009616694072754178,0.02114121137440311,-0.08124232545858937, ,0.009940621036601012,0.02099419765859965,-0.0814949354209652, ,0.00043629520239499346, ,0.004409852472842957,-0.0020350452954224483,-0.0057046147656993375,-0.04816221258812546,0.0009712533698213854,0.007255823393977852, ,0.007492051642353721, ,0.04817200482075521, ,4.176739511660606e-05, ,0.12171027009777827,-0.22706379196794904,0.09123937165000001,2.9966789823373374,0.24471597107990384,-0.2391636544884634, ,0.04478383273169929,0.03999028299977698,0.0054794673271413834,0.009577556864986259,0.0,0.049496337553052876, ,0.7942409515380859
0.00969763945678766,0.021105423262777097,-0.0813390435724124, ,0.010019230560219704,0.020967524524769358,-0.08159384454260254, ,0.000432851515141865, ,0.004490826199548006,-0.0020239922479337903,-0.005109324759728806,-0.03945890467700833,-0.008134056620153932,-0.00481220361426752, ,0.007097130693077357, ,0.040288559566298586, ,4.205105130686185e-05, ,0.1225366025153203,-0.22636874600926882,0.09133270453,2.9970983622243064,0.24471597107990384,-0.237938473386355, ,0.046381691866310255,0.03871764241471676,0.0049330478538247135,0.017788749652912095,0.004345550824074436,0.038180195972783625, ,0.818681001663208
0.00979543539982512,0.02107272764413197,-0.08145186253042574, ,0.010097684210929981,0.020940926670733988,-0.0816925528136975, ,0.0004082372507064912, ,0.003988391402461031,-0.0016613942603694526,-0.004767946816229765,0.0034725287269941063,-0.04906660397636703,0.03167181907947061, ,0.006434346408922135, ,0.0491893289146065, ,4.2252817712062966e-05, ,0.1235482805218437,-0.22553469085885258,0.09144677805000001,2.9979371219982447,0.2459456995777928,-0.23812444711821718, ,0.042650310812795855,0.03733160564849362,0.004722446344500445,-0.03308908247811259,0.04431783851616395,-0.005901870658834015, ,0.8360540866851807
0.00987316278635902,0.021036502632924822,-0.08154616642646241, ,0.010175981947955414,0.020914404219784213,-0.08179106056267867, ,0.0004081428733599349, ,0.004161347613448486,-0.001713212286273292,-0.0050699876019297,-0.029577473629535847,0.0031888697613993017,0.018021009353928863, ,0.006779135976030577, ,0.02974887953034761, ,4.24454559858636e-05, ,0.12435144474076305,-0.2248473676330466,0.09153751835000001,2.99772743205476,0.2459456995777928,-0.23689926601610875, ,0.04282352958414746,0.03589143024147911,0.004968437779164068,0.0012719057247000218,0.015806505835505105,0.049373333639825295, ,0.8552441596984863
0.009962612129284152,0.021006404138125028,-0.08164857962836355, ,0.010254123731202599,0.020887957294678093,-0.0818893681175559, ,0.00039621681602770707, ,0.004214620788661491,-0.0009918280560979168,-0.005248368642713624,0.0631872671859017,-0.05848634268012695,-0.05088876778963989, ,0.0068038316186469685, ,0.08610042398581776, ,4.2597749448607685e-05, ,0.12527044995279576,-0.22409053981137259,0.09164122155000001,2.998566191828698,0.24703879157591632,-0.2366471068837122, ,0.04303716170452189,0.03547549217139095,0.00547193800068705,0.043193318784054004,0.08687532244387142,-0.04211610843731578, ,0.8733260631561279
0.010045353043851324,0.020981656408117673,-0.08176627911981676, ,0.010332109521260567,0.020861586017641775,-0.08198747580592125, ,0.0003815418062923102, ,0.0041183068633121956,-0.001239660217425689,-0.005886987998003485,-0.02543914596692083,0.03861492034213956,0.00044622558035519594, ,0.007290667772139211, ,0.04624134744452559, ,4.2705012108353605e-05, ,0.1260967823703378,-0.22341866205131505,0.09175918394,2.998566191828698,0.24758533757497808,-0.23570423991610834, ,0.04000714230964198,0.03280226116780877,0.005882131285081241,0.03297717737786523,0.018586621793062523,0.07797508519327037, ,0.8915369510650635
0.01008855269021898,0.020970431444340173,-0.08182900387032888, ,0.010409939279400008,0.02083529051036968,-0.08208538395494887, ,0.0004327622436506988, ,0.004038703261701285,-0.001314995168005062,-0.005976605400367957,-0.02071484718440262,-0.014842383662480326,0.0028323546107689706, ,0.0073321312344816, ,0.02548335219377222, ,4.2939863002126463e-05, ,0.12652153267842015,-0.22307113907197496,0.09182270215,2.9987758817721826,0.24799524707427442,-0.23530338496593253, ,0.03954039231602949,0.033544341307342095,0.005939154183445191,0.006030727238459743,0.01681553721143737,0.02385786910671189, ,0.9100360870361328
0.010168911181699533,0.020950564223968942,-0.08193503432238287, ,0.010487612967572595,0.02080907089402537,-0.08218309289139614, ,0.00042793018636000336, ,0.00403962288979391,-0.0011964911191810809,-0.005232479214152155,0.002829070908782919,-0.03081363688516222,-0.014452434233419482, ,0.006717810864899402, ,0.030943236035930063, ,4.32622709650255e-05, ,0.1273246968973395,-0.22243015224341434,0.09193159051000001,2.9994049516026364,0.24908833907239794,-0.23521458331381717, ,0.04053692505701443,0.03194107760298579,0.005290206416472933,0.016863050372019368,0.03346442569943285,0.0015633558203976376, ,0.926037073135376
0.010243190773328784,0.02092263212935674,-0.08203530172315592, ,0.01056513054841024,0.020782927289241884,-0.08228060294160405, ,0.00042817677296083824, ,0.0043237637177573375,-0.001358882212044488,-0.005511144500496565,-0.023777403863018184,0.018527150832066675,-0.02775500113310612, ,0.0071354192069253515, ,0.030143328405058067, ,4.3574064189417683e-05, ,0.1280197428560197,-0.2218509472778475,0.09202621968000001,2.9998243314896054,0.24908833907239794,-0.23415275969198987, ,0.04191561022900653,0.032577048252135525,0.0055155164542936294,0.052121810880125505,0.01332299663525085,0.05356374381874997, ,0.9424519538879395
0.010292730382250174,0.020908974853167978,-0.08210014053541989, ,0.010642491985224465,0.020756859816121603,-0.08237791443149729, ,0.0004718373668466545, ,0.004238902996093202,-0.0013845340650465053,-0.0055734159728840936,-0.010104084843220607,-0.02556588051379193,-0.03128421723466162, ,0.007137800697298971, ,0.027490121345433407, ,4.3981934403404794e-05, ,0.12855261142434118,-0.22143391970263937,0.09209621934000001,2.9998243314896054,0.2496348850714597,-0.23394500138565105, ,0.04156677247414401,0.03367528089370858,0.005577314957983194,0.03410324400523819,0.020729788807374607,0.006412480979860021, ,0.9583580493927002
0.010380444535841084,0.02088611661803748,-0.0822178956627198, ,0.010719697242005676,0.02073086859423806,-0.0824750276865856, ,0.00045311281733244823, ,0.004446781742398052,-0.0013120231591243897,-0.00628820921228891,-0.01907860843396527,0.01835651511413835,0.014913128006680012, ,0.007812608254105572, ,0.026475553574577395, ,4.4331067279627425e-05, ,0.12939438930763167,-0.22075431920970762,0.09221158915000001,3.0002437113765743,0.2507279770695832,-0.23352948477297344, ,0.04331215954288945,0.03525146417476626,0.00626378746362564,0.012310844040310328,0.02850209173021148,0.06598192490430514, ,0.9741699695587158
0.010398935930342898,0.02088079051211349,-0.08224356359697793, ,0.010796746283422375,0.020704953742634834,-0.08257194303196343, ,0.0005449813756811346, ,0.004596829334233391,-0.0014912036149647037,-0.006642433462352281,-0.049265453955044745,0.03280618708552114,0.015882639907137296, ,0.008214405057649015, ,0.05918894197023403, ,4.488582828370247e-05, ,0.12960290309523573,-0.22058441908647466,0.09224270011,3.0004534013200588,0.25086461356934864,-0.23323250897596706, ,0.04419978647343771,0.03543575114207273,0.006587597816377173,0.015969655894322327,0.0,0.08339279094742516, ,0.99104905128479
0.010511884232099549,0.020848319758261895,-0.08239138293176648, ,0.010873639074820519,0.02067911537982734,-0.08266866079231092, ,0.00048618895489469503, ,0.004533485424848872,-0.0015641508038340734,-0.0051876913551352965,0.027226732019525354,-0.038191376524555606,-0.03392615549857008, ,0.007064785872947419, ,0.046902837585226856, ,4.528580074162986e-05, ,0.13071497662912404,-0.21968858207306463,0.09239306975000001,3.001292161093997,0.25195770556747216,-0.23265363488300828, ,0.045910470033125685,0.038701852185346976,0.005291963960132891,0.03562294077086138,0.06059231027599086,-0.009431053239740706, ,1.007200002670288
0.010593828927274581,0.020816359276636068,-0.08248642038942741, ,0.010950375582222843,0.020653353623802516,-0.08276518129189456, ,0.0004810446972525366, ,0.004874846320554968,-0.0018196194807704614,-0.005599700815224623,-0.04279490709224549,0.03294807359682599,0.013459701756313974, ,0.007644069003080426, ,0.05400906980563486, ,4.566118767998484e-05, ,0.1315490317795403,-0.2190167043130071,0.09248769892000001,3.001292161093997,0.25236761506676847,-0.23159935001170798, ,0.048840422829887174,0.037316925504707346,0.005567567815449144,0.020822566279960996,0.0084303034517802,0.08633052183297223, ,1.0240859985351562
0.010656340452952632,0.020799508968532866,-0.08256467112233853, ,0.011026955772328073,0.0206276685920198,-0.08286150485456675, ,0.0005049703897699807, ,0.0047059200638932645,-0.0011110384718213727,-0.006433412333782376,0.03221835983435838,-0.04100882939637948,0.0045217182670655425, ,0.0080479118030756, ,0.05215119162451528, ,4.607862478811567e-05, ,0.1321436822108556,-0.21856106307342785,0.09256418003000001,3.0015018510374816,0.25305079756559573,-0.2312579733886439, ,0.04709525635656118,0.03725832020356135,0.006634240533111204,0.0,0.07007613271350878,-0.0021480998607775297, ,1.039419174194336
0.010751816326587858,0.020770229435772967,-0.0826909564041893, ,0.011103379612510199,0.020602060401410972,-0.08295763180376746, ,0.00047222170308757367, ,0.004981318873555592,-0.0016603020371638707,-0.006399212707734709,-0.019091380811962377,0.024232341392883543,-0.02317193994206146, ,0.008277684691596137, ,0.030849427546679156, ,4.641049026388233e-05, ,0.13310130108725943,-0.2177578988545085,0.09269640161,3.00234061081142,0.2540072530639538,-0.23040432391170762, ,0.04800047625618147,0.03931107769613537,0.006435883442424243,0.051929746240624186,0.026322340259215135,0.06516003880411479, ,1.0556089878082275
0.010853613681062808,0.020740632918575842,-0.08282579060538932, ,0.011179647070817884,0.020576529168381444,-0.08305356246252411, ,0.00043024159604306505, ,0.0049465615303242,-0.0013779727549518648,-0.0064569352381128745,0.025669843167347793,-0.04796576237114385,0.011898058556680323, ,0.008249805607155642, ,0.054402713138755054, ,4.6640551757759816e-05, ,0.1340975336280344,-0.21695473463558915,0.09283380835,3.002759990698389,0.2549637085623119,-0.22971403191505246, ,0.04958042923640061,0.04000714230964198,0.006645311439299125,-0.009362072589902562,0.06685949155398181,-0.006131578907392299, ,1.072674036026001
0.010903508980487194,0.020722582778034897,-0.08288780606303581, ,0.011255758115973551,0.020551075008810194,-0.0831492971534518, ,0.00047103286373910983, ,0.004917627972565491,-0.0019295087412850745,-0.005846096124691377,-0.020966411809699322,-0.008242181008935166,0.013677364778125273, ,0.007879270826566734, ,0.0225282925480246, ,4.695140982536152e-05, ,0.13459951126485897,-0.21655315252612947,0.09289603027000001,3.002550300754904,0.2552369815618427,-0.2292834378013208, ,0.04922040537265082,0.040763291047453076,0.005843291093176817,0.0032812310148739032,0.0276455161570011,0.041435647256712255, ,1.087989091873169
0.011002414832549047,0.020683431285002035,-0.08300886303666852, ,0.011331712717372898,0.020525698038050277,-0.08324483619875447, ,0.0004347415408817647, ,0.004989609477384745,-0.001907605477245636,-0.006295527611117178,-0.021594271052555066,-0.020370902641386468,-0.026780793686614644, ,0.00825644168488847, ,0.02968646504430723, ,4.71761591306671e-05, ,0.13556485287413705,-0.21573454284146168,0.09301658524,3.0031793705853578,0.2556468910611391,-0.2284741891504422, ,0.04821999062930426,0.04074578856095783,0.006278601308632244,0.03419670798639595,0.01863548182128148,0.02042976878263455, ,1.1046271324157715
0.01105128549248874,0.020670548674117186,-0.08306575514037001, ,0.011407510845083893,0.020500398370929616,-0.08334017992022458, ,0.00048078746583556987, ,0.004953526755097114,-0.0012153394119573083,-0.005605605528249737,0.06239223365688209,-0.05068085738347791,-0.062304993938551705, ,0.0075787393765760075, ,0.08038246152168059, ,4.749046884240176e-05, ,0.1360513850452132,-0.21534840619775045,0.09307621458000001,3.0035987504723267,0.2564667100597317,-0.22873430287191793, ,0.04911849977146521,0.038311240031679766,0.0059236933878765346,0.06063718363321628,0.08853142391554585,-0.029959062978972544, ,1.12034010887146
0.011148929134935636,0.020633748613151863,-0.08319128037037746, ,0.011483152469846297,0.020475176121751364,-0.08343532863924434, ,0.0004431817123536219, ,0.004993197974654102,-0.0018316986001186372,-0.006246900024999119,-0.03276480858237592,0.021453640992131602,-0.004030302445486314, ,0.008204322378971977, ,0.039163648754245155, ,4.771834627132523e-05, ,0.13700900392161702,-0.21453751924595688,0.09320195471,3.0035987504723267,0.2570132560587935,-0.22770975716417347, ,0.04812218131768295,0.03929479981717217,0.0062539503415783276,0.03183753363728718,0.015592129275443413,0.06883236497288076, ,1.135694980621338
0.011192488545329922,0.020616874407031246,-0.0832472120989029, ,0.011558637563070826,0.020450031404294036,-0.0835302826767854, ,0.0004919660992565758, ,0.0048561834814862806,-0.002019831759284455,-0.006106596696637678,-0.050934955585026614,0.02870414195289843,0.0038238420402533207, ,0.008059327611969907, ,0.058466207823058336, ,4.813634631528585e-05, ,0.13743375422969936,-0.21418227353374256,0.09325769518,3.0035987504723267,0.2571498925585589,-0.22700438766646425, ,0.046609499783138886,0.0393926698042635,0.006026792099886493,0.02563375081913173,0.0,0.07921390032720636, ,1.150773048400879
0.011302110882007959,0.020585180906020573,-0.08337506726244735, ,0.011633966096838439,0.020424964331812446,-0.08362504235340944, ,0.0004452917923818886, ,0.004852959024052874,-0.0018214820003686835,-0.005519255026884537,-0.012081692755935288,0.007857448127656576,-0.05981791211426066, ,0.007571735865611897, ,0.01441203614365689, ,4.845055056125006e-05, ,0.13804385012676312,-0.21367257316404373,0.09333547258000001,3.0040181303592957,0.258106348056917,-0.22696752559093358, ,0.04795196642671591,0.03837320726181592,0.005800732527312455,0.011175855268941007,0.11660718288307877,-0.05100202940158566, ,1.1645879745483398
0.01135061407749027,0.020565839766764238,-0.08343218849101973, ,0.0117091380438996,0.020399975017038535,-0.08371960798926974, ,0.0004885289322708894, ,0.005030296925602006,-0.002003522155856247,-0.005713288274907957,-0.04918089887030988,0.0498022075517573,-0.017821119288285937, ,0.00787144529936711, ,0.0699930045406866, ,4.884306172970917e-05, ,0.1389860235374185,-0.2129080226094955,0.09344824981000001,3.004856890133234,0.25906280355527506,-0.2261138761139973, ,0.04821999062930426,0.03826489578970596,0.005684800685224841,0.056322680424668745,-4.2595250960227305e-05,0.09766511750002912, ,1.1777830123901367
0.01144934263317189,0.020535094175472238,-0.08355970287554684, ,0.011784153377673544,0.020375063572180493,-0.08381397990410974, ,0.0004498497925735316, ,0.004659655754450091,-0.0006598779058624841,-0.006447954295429004,0.06821765642056273,-0.052586286427495375,-0.029898248447585922, ,0.007982727929509225, ,0.0861334206716694, ,4.915049589087638e-05, ,0.13994364241382234,-0.21216664025356996,0.09357787881000001,3.004856890133234,0.25960934955433684,-0.2250076516661123, ,0.04459442742409342,0.03404985344760344,0.00686586703448276,0.028810807605377572,0.09433273438066327,-0.030193604674306974, ,1.1950650215148926
0.011495203502046775,0.020525740274046578,-0.08362361604298764, ,0.011859012072247583,0.020350230108924804,-0.08390815841726464, ,0.0004940899276162385, ,0.004846816286402908,-0.0013919490517741292,-0.006775055898812792,0.012318611490568267,-0.02641634216266247,0.009904776011617659, ,0.008445740506842096, ,0.02914740654047636, ,4.953651711620773e-05, ,0.14038383818765313,-0.21179594907560717,0.09364528589000001,3.0050665800767185,0.26056580505269494,-0.22513414707086277, ,0.04640437240023021,0.03903617505490365,0.00695277674378001,0.0,0.05502081332813953,0.01436635869179087, ,1.208177089691162
0.011547592113265384,0.020507312232267958,-0.08369360976983223, ,0.011933714102376352,0.02032547473843594,-0.08400214384766207, ,0.0005266387203960879, ,0.004949760389683122,-0.0015602716552285353,-0.006609137877107414,-0.031521296764789625,0.053969680940102856,0.031043543723073122, ,0.00840328977436822, ,0.06250054878079213, ,4.997601829953885e-05, ,0.1408703703587293,-0.21140208969902172,0.09371528555000001,3.005485959963688,0.26056580505269494,-0.224154002189176, ,0.046978683939837014,0.03755320204134183,0.006706868008421054,0.01443781156154789,0.02499750378281896,0.10726657590579126, ,1.221487045288086
0.01165099897445266,0.020481776726122915,-0.08383046141079349, ,0.012008259443481042,0.02030079757135691,-0.0840959365138213, ,0.0004804846797951251, ,0.005111414563580542,-0.0008249341846548945,-0.0074080676917863235,0.045716284554371364,-0.076492199310977,0.005539231805275505, ,0.00903806075305338, ,0.08911248625515503, ,5.0318117863928797e-05, ,0.14183571196800734,-0.2106684300759704,0.09385658116000001,3.00653440968111,0.2613856240512876,-0.22351564976910554, ,0.0489159492569437,0.036331141484866304,0.007789149887530563,-0.014978351569925651,0.07796270014682012,-0.039351623633660515, ,1.2356159687042236
0.011704064504720064,0.02046713952543844,-0.08390815301089097, ,0.012082648071648732,0.020276198717809984,-0.08418953673385507, ,0.0005088818219541533, ,0.005156769435919927,-0.0015320361604901408,-0.007387204708148295,-0.014023797399574808,-0.015971656626440435,0.027367360342724918, ,0.009138391500279227, ,0.021254662709588097, ,5.070570796649543e-05, ,0.1423299668719577,-0.21027457069938496,0.09393565485000001,3.00653440968111,0.26165889705081846,-0.22333009187579558, ,0.04871506240167905,0.039855918336191,0.007520685325779038,-0.012573382951861563,0.034713229466599604,0.03491347262919418, ,1.2496070861816406
0.011756328154549956,0.020448174635956242,-0.08398084645493788, ,0.012156879963631594,0.0202516782873969,-0.084282944825469, ,0.0005388097922581633, ,0.0050334547903822455,-0.0015449381546399216,-0.0067268710796594315,-0.03075202344978859,0.015874381272663683,0.027750238658937124, ,0.008542440842689085, ,0.03460755572518912, ,5.114010712290134e-05, ,0.1428242217759081,-0.20987298858992529,0.09400824709000001,3.0063247197376257,0.26165889705081846,-0.22259498321453053, ,0.04773488005959295,0.036867498662964564,0.006836399793991417,0.0,0.019568404876964096,0.06917395517483517, ,1.2630469799041748
0.011861200782634841,0.020418295714366316,-0.08412127069388228, ,0.012230955096846123,0.020227236389199668,-0.08437616110596227, ,0.0004880481951419313, ,0.005222280088286048,-0.0012778716402100545,-0.00678258987175049,0.025956938117695377,-0.010442939415860109,-0.03363170396142426, ,0.008654980682689847, ,0.02797887784981792, ,5.1471989087012186e-05, ,0.14379728611806036,-0.20910071530250282,0.09415213528000001,3.0071634795115636,0.2623420795496456,-0.22192689163090418, ,0.04889074784053105,0.03845094876761376,0.0070763267525544215,0.05000873139923539,0.06279635934845668,0.022477432451324518, ,1.2774770259857178
0.011914626127570849,0.0204031357358236,-0.08418887294415406, ,0.012304873449372523,0.020202873131780843,-0.08446918589222824, ,0.0005205510845338838, ,0.00533680785878515,-0.0017260240433932088,-0.006377752067116347,0.0026611436828364084,0.006418073847293445,-0.031557190458483195, ,0.008493314932908658, ,0.0069479023494814695, ,5.185553827181619e-05, ,0.1443069864877592,-0.20869913319304315,0.09422213494000001,3.007373169455048,0.26288862554870746,-0.22155577584428426, ,0.05045026132826729,0.04074578856095783,0.00656316914709518,0.054400281409828076,0.04506003905888997,0.0449912876479473, ,1.2904560565948486
0.011966811711167433,0.02038355440906762,-0.08425320683488259, ,0.012378634999953873,0.020178588623184238,-0.08456201950075463, ,0.000554052937157336, ,0.005486689413732744,-0.002109503694593253,-0.007072742484043894,-0.0605154321985649,0.026653260544820253,0.04708620119236655, ,0.009196600067735301, ,0.06612498630737526, ,5.2290878249462144e-05, ,0.14480124139170955,-0.20829755108358347,0.09428694944,3.007582859398533,0.2630252620484728,-0.22076872760643448, ,0.05219853771093002,0.04200838493070862,0.007073184511545294,-0.013785359456442159,0.0008563818878231997,0.0924541866965064, ,1.3047881126403809
0.012086888042693986,0.02034862788182861,-0.08440329124958185, ,0.012452239727995374,0.02015438297093499,-0.08465466224762377, ,0.000484149065905564, ,0.005590274922612368,-0.0013112692017733531,-0.007036499656484159,0.023102790193103042,-0.009577415933444307,-0.0015219065093548061, ,0.009082011233510434, ,0.025009314133317594, ,5.2593012640257875e-05, ,0.145951928589969,-0.20739399133729922,0.09444250424,3.0077925493420175,0.2642549905463618,-0.2198111989763288, ,0.05316355269382116,0.03963949104363859,0.0073881315027829325,0.022657538302530963,0.06727486879443977,0.03415590719399265, ,1.3180220127105713
0.012144399016026564,0.02032985742708509,-0.08447835465697867, ,0.012525687613563654,0.020130256282040727,-0.08474711444851361, ,0.0005073986965500868, ,0.005706188935028518,-0.0020944717222066036,-0.007448260281026483,-0.03041882382821989,0.0422201888092369,-0.043166932002567, ,0.009613739395848095, ,0.05203699802310607, ,5.2929575132729e-05, ,0.14647707442541627,-0.20696151829634263,0.09451898535000001,3.008421619172471,0.2645282635458927,-0.21897221116189428, ,0.051490472902046,0.04476270828229753,0.007520685325779038,0.07891478823052402,0.019428118745565805,0.08494887456803063, ,1.3310470581054688
0.012200671082821,0.020309697838986528,-0.0845511965402583, ,0.01259897863738599,0.02010620866299156,-0.08483937641869725, ,0.0005320755539467478, ,0.005651498058149041,-0.002112630672061412,-0.0067003863217312476,-0.033845934010385735,0.01878082998969774,-0.025033300556869583, ,0.009016530126286953, ,0.03870745161635124, ,5.330196767292062e-05, ,0.14700222026086354,-0.20652132252251185,0.09459287388000001,3.0086313091159558,0.2648015365454236,-0.21829658082774098, ,0.052720523088039324,0.04251655087745106,0.00678110324393359,0.05157143619526862,0.014060570657020342,0.06696086584155202, ,1.3451600074768066
0.012234420112253416,0.020298853813456138,-0.084589729014256, ,0.012672112780849589,0.020082240219760638,-0.08493144847304424, ,0.0005960440500760342, ,0.005473969018561899,-0.0017706947570996986,-0.006659598877557847,0.012806944764983473,-0.03364401356343644,0.018086864459583185, ,0.008800565547109208, ,0.035999131514120805, ,5.386915220254443e-05, ,0.14807568013038075,-0.20564093097485026,0.09473416949,3.0086313091159558,0.2658946285435471,-0.21788106421506334, ,0.05361409127597219,0.04411759254229232,0.007020190180696343,0.0,0.042038732889002624,0.02922411139555513, ,1.3573429584503174
0.012368168942425916,0.020249075580932453,-0.08475397872744664, ,0.012745090026000862,0.020058351057804916,-0.08502333092602044, ,0.0005009949638889358, ,0.005504845055179555,-0.002229021641056,-0.006329571407812281,-0.03977595988105356,0.014965552947333812,0.019355343008447597, ,0.008679592776416733, ,0.042498173482152776, ,5.4264458009500424e-05, ,0.14860082596582802,-0.20520073520101945,0.09480028028000001,3.00884099905944,0.2660312650433126,-0.21717569471735418, ,0.05260362614105919,0.04272712361930247,0.006391978940609952,0.008281149257617934,0.01563129963741736,0.07234197696658248, ,1.3688380718231201
0.012423527019774998,0.020228000131533357,-0.08481624012217875, ,0.012817910355544552,0.0200345412820654,-0.08511502409168799, ,0.0005312592610071677, ,0.005924350991693682,-0.002352779710555207,-0.007063365927003972,-0.03431024982888512,0.013074256494550077,-0.03083162957221316, ,0.009514444033044855, ,0.03671688179331397, ,5.4704283679482936e-05, ,0.14911824906840107,-0.2047759848929371,0.09486379849000001,3.0094700688898937,0.26630453804284343,-0.21666342186348195, ,0.054790381962165575,0.04602179513019921,0.0071333683475145555,0.05496298763197406,0.015519558247238753,0.06194290185905383, ,1.381485939025879
0.012491343078683154,0.020207603753145828,-0.08490380468364372, ,0.012890573752843122,0.02001081099696786,-0.08520652828370637, ,0.0005382881181200557, ,0.00592771501268396,-0.0013077432588989761,-0.008267019111482317,0.041485626294155545,-0.03003073099713137,-0.04161162951072761, ,0.010256295758820939, ,0.051214274910677045, ,5.5148523108547765e-05, ,0.14975151316408747,-0.20425856179036406,0.09495453879000001,3.009679758833378,0.2669877205416706,-0.21648540272069897, ,0.05355357875760201,0.04335173209614928,0.008675823267973858,0.05195274881739032,0.07925238938754597,0.003145787363111604, ,1.3932909965515137
0.012547264778920802,0.0201905161011374,-0.08498078498316976, ,0.012963080201916026,0.019987160306422967,-0.08529784381533323, ,0.0005610546749626991, ,0.005735532497472676,-0.0019791432931701544,-0.007816547954372682,-0.028183584943105,0.009683565420702256,0.05448437798339624, ,0.009895037297932398, ,0.029800769626352402, ,5.5623251992774e-05, ,0.1502612135337863,-0.20383381148228172,0.09503361248000002,3.0098894487768626,0.26739763004096695,-0.2158395115501015, ,0.05355357875760201,0.04497485381918047,0.007968389954977489,-0.02498276082948146,0.03472313903389138,0.0723002413728602, ,1.4041900634765625
0.012607430752666422,0.020170096109091096,-0.085061923561733, ,0.013035429687438774,0.0199635893138274,-0.08538897099942316, ,0.0005768779516986665, ,0.0059516708976591745,-0.002083650415929734,-0.008234412512352456,-0.036245990740003516,0.02042250090323613,0.018762285053494577, ,0.010371573407802405, ,0.04160348963739253, ,5.611625808474561e-05, ,0.15081725030073045,-0.20336272477695402,0.09511657504000001,3.0098894487768626,0.26780753954026326,-0.21519362037950407, ,0.0540107806251968,0.04606647648469455,0.008357193871983212,0.012210339463081034,0.023147725043086344,0.07814393480026285, ,1.4175810813903809
0.01272845782237437,0.02013477076800208,-0.08522876267206184, ,0.013107622194742388,0.019940098122063935,-0.08547991014842951, ,0.0004947101325378754, ,0.006153564068425417,-0.001900785739139561,-0.007693756557303742,0.0045095477889341585,0.0049812158177563945,-0.046148271783476635, ,0.01003360489223026, ,0.006719263748764895, ,5.6466714454817855e-05, ,0.1519061556359961,-0.2024437195649213,0.09528898161,3.010728208550801,0.2689006315383868,-0.21436971006612354, ,0.05578891332067653,0.04549230180175972,0.00797237813813814,0.06974829893626543,0.049152327938460555,0.04583057086801144, ,1.4291510581970215
0.012790805466891092,0.02011486457800383,-0.08531231300112443, ,0.013179657709812503,0.01991668683350171,-0.08557066157440416, ,0.0005071730183641727, ,0.006160977855509718,-0.001925800145189701,-0.008146934416810744,-0.024845407584057063,0.013257979930328515,-0.017180081441338372, ,0.010394176000391239, ,0.028161467894289683, ,5.6831713555613446e-05, ,0.15247763786868873,-0.20198807832534205,0.09537453675000002,3.010728208550801,0.2691739045379177,-0.21369407973197022, ,0.05536577687191993,0.044282287241470264,0.008357193871983212,0.04375242429590382,0.02539629573381575,0.06410151837518782, ,1.4401681423187256
0.012848304204699009,0.020094247991900942,-0.08538998504384704, ,0.01325153621928869,0.0198933555499975,-0.08566122558899818, ,0.0005258566954388492, ,0.006191971212900882,-0.002248878157523219,-0.008489120004154624,-0.03317997757463848,0.008121340079561893,-0.00888263315695852, ,0.010745376629682016, ,0.03415943548207618, ,5.7220921490654965e-05, ,0.15300278370413598,-0.20154015981863702,0.09545361044,3.010728208550801,0.26944717753744857,-0.21318180687809804, ,0.05526903992922002,0.04817103632409685,0.008614825051379124,0.03263161654430426,0.021912198049394566,0.06121614289724729, ,1.45131516456604
0.012906546915827096,0.02007747857042348,-0.08546732350796961, ,0.013323257710463728,0.019870104372895485,-0.08575160250346174, ,0.0005454048876248615, ,0.006246340383116687,-0.0017636832973086962,-0.008354936741119083,0.005306638246245428,-0.02335910248710807,0.0029664893728844014, ,0.0105798069407273, ,0.023954290592049527, ,5.763513919060958e-05, ,0.15352792953958325,-0.20110768677768046,0.09553398042000001,3.0111475884377694,0.26999372353651035,-0.21297404857175922, ,0.057029411994273305,0.04564547453509898,0.008680551237057221,0.011969342492326979,0.05525364172614536,0.02744709883367346, ,1.4634201526641846
0.012975281198910291,0.020058005207033165,-0.08555711677145197, ,0.013394822171282678,0.01984693340302814,-0.08584179262864464, ,0.0005491869241100711, ,0.006336420390283523,-0.0018471935901611773,-0.008212825952915798,0.010579375746146402,0.01111916046887592,-0.08026475698582988, ,0.010536263932477235, ,0.015347927656394734, ,5.804878614489963e-05, ,0.15413802543664698,-0.2006134318737301,0.09562731330000002,3.0119863482117077,0.2705402695355721,-0.21252125404499872, ,0.05552775983526669,0.04602179513019921,0.008531768355650778,0.10453789276857128,0.050138616913936195,0.044687988356187106, ,1.4746711254119873
0.013039674742940892,0.020036937299181986,-0.0856401260549457, ,0.013466229590342358,0.019823842740716722,-0.08593179627499722, ,0.0005589542431667368, ,0.006419893571363567,-0.001989238938121675,-0.008086046517188507,-0.010318082421644614,0.011732569598563065,-0.02962158125887516, ,0.010514573376923624, ,0.015624211329741632, ,5.847128663616102e-05, ,0.15472495313508805,-0.20013462243552818,0.09571286844000002,3.012196038155192,0.2709501790348684,-0.21195704161454182, ,0.05775833326748069,0.045999486940606286,0.008370368638991068,0.05706436485665262,0.03905628397565769,0.06024483588540717, ,1.4859709739685059
0.013103754042657371,0.020019342385259545,-0.08572469924703688, ,0.01353747995689046,0.019800832485771677,-0.08602161375256973, ,0.0005692301541971778, ,0.006360237628035045,-0.0017858898260300986,-0.008055962968005398,0.004445594156604567,-0.0044974033121696864,-0.01269395673915459, ,0.010418280304237595, ,0.006323757587643781, ,5.890322691855785e-05, ,0.15531188083352912,-0.19967898119594893,0.09580101616000002,3.012196038155192,0.2714967250339302,-0.21142256834764075, ,0.05779350886630376,0.04491099931778078,0.00841458611727417,0.035532456349304214,0.053345527301153495,0.044728105580322856, ,1.496955156326294
0.013229445358483225,0.019975666517200095,-0.0858751531130008, ,0.013608573260824796,0.01977790273749324,-0.08611124537101367, ,0.0005838280431999757, ,0.006243649642514129,-0.0022377090399569623,-0.007088061808869979,-0.004537301523370346,-0.004540076347018864,-0.0030199234536768494, ,0.009707271646159548, ,0.006418674353760363, ,5.9351078170271764e-05, ,0.156478013497537,-0.19874453051816776,0.09595657096000001,3.012405728098677,0.2723165440325228,-0.21045750096700802, ,0.05733954172717268,0.04529686947898366,0.007520685325779038,0.0,0.03665433878688345,0.04998525456142747, ,1.509032964706421
0.013229445358483225,0.019975666517200095,-0.0858751531130008, ,0.01367950949269256,0.01975505359467168,-0.08620069143958164, ,0.0005976646121037978, ,0.006149644144805928,-0.0021562343680603018,-0.007275209111286578,-0.01863333075467422,-0.008562457891117186,0.020889385909614838, ,0.009767094622798404, ,0.02050650335306225, ,5.9905324784768236e-05, ,0.156478013497537,-0.19874453051816776,0.09595657096000001,3.012405728098677,0.2723165440325228,-0.21045750096700802, ,0.05733954172717268,0.04529686947898366,0.007520685325779038,0.0,0.03665433878688345,0.04998525456142747, ,1.518428087234497
0.013289737186397418,0.019954982185028197,-0.08594774136798165, ,0.013750288643689497,0.019732285155588378,-0.08628995226712718, ,0.0006154753538763114, ,0.006343943543703068,-0.00210469324481956,-0.007943461129469427,-0.007610366709112832,-0.018997126107679514,0.003973389030752837, ,0.01038142225592778, ,0.020464810044852993, ,6.0480025174274724e-05, ,0.15702632753160695,-0.19829661201146273,0.09603175578,3.0128251079856456,0.2727264535318191,-0.20997496727669165, ,0.058005465500287755,0.047025243586952814,0.008227691900826447,0.012116478231181926,0.04483801707160771,0.03506949422869456, ,1.5270659923553467
0.013355710625563878,0.019933869468615757,-0.08602757261650691, ,0.013820910705659304,0.01970959751801583,-0.08637902816210648, ,0.0006246839383875458, ,0.0067581486158712935,-0.0022117397203702963,-0.00839880655041303,-0.013853555439377796,0.01522129576354227,-0.04544885286081633, ,0.01100474065010746, ,0.02058175894430917, ,6.10617331342906e-05, ,0.15761325523004802,-0.19782552530613504,0.09611471834000002,3.013663867759584,0.2731363630311155,-0.20949243358637532, ,0.05968361104306338,0.048342812816337635,0.008596228559093363,0.07379347937595536,0.03902031775708849,0.06098848505106025, ,1.536764144897461
0.01349313094911192,0.019895040032344248,-0.0862130553280958, ,0.01389137567109275,0.019686990779218323,-0.08646791943257746, ,0.000516564673651892, ,0.006687020757769938,-0.0016866005473719116,-0.00932048028010728,0.019951903111200396,-0.0029908991493021266,-0.003695136037000594, ,0.011594490962224688, ,0.020174831973074528, ,6.147308923869353e-05, ,0.15884889248992393,-0.19684473823110854,0.09630786555000001,3.013663867759584,0.27422945502923896,-0.2084234870525732, ,0.05886907044570147,0.04812218131768295,0.009778275948434624,0.03010712314248306,0.07351038589625991,0.046178423721641014, ,1.5498120784759521
0.01349313094911192,0.019895040032344248,-0.0862130553280958, ,0.013961683533126896,0.019664465035952237,-0.0865566263862006, ,0.0006250979322598489, ,0.006687020757769938,-0.0016866005473719116,-0.00932048028010728,0.019951903111200396,-0.0029908991493021266,-0.003695136037000594, ,0.011594490962224688, ,0.020174831973074528, ,6.204246697939184e-05, ,0.15884889248992393,-0.19684473823110854,0.09630786555000001,3.013663867759584,0.27422945502923896,-0.2084234870525732, ,0.05886907044570147,0.04812218131768295,0.009778275948434624,0.03010712314248306,0.07351038589625991,0.046178423721641014, ,1.558711051940918
0.013560350625538906,0.01987778182607916,-0.08630580671059307, ,0.014031834285544399,0.019642020384467253,-0.08664514933023966, ,0.0006269240085622107, ,0.0067104909419777115,-0.001882640061895511,-0.00920537086843306,-0.004705295754067438,0.0052184118013930535,0.03073826090186687, ,0.011546162787281967, ,0.007026490145257706, ,6.260777166692115e-05, ,0.15944354292123922,-0.1963659287929066,0.09640508730000001,3.0138735577030684,0.27491263752806616,-0.20783707420908742, ,0.05983413717431954,0.04821999062930426,0.009595669590361447,0.0,0.056959515702030186,0.06559144603429555, ,1.5673480033874512
0.013627158909372689,0.019858638253401853,-0.08639528395014552, ,0.01410182792277273,0.019619656920506053,-0.0867334885715611, ,0.0006299246905001253, ,0.006924361810612988,-0.0021521094249631976,-0.00926379575617143,-0.008519166656575091,0.0032544715778952873,0.00991342054506115, ,0.011764194544181542, ,0.00911963363017522, ,6.317081855688026e-05, ,0.1600304706196803,-0.19588711935470468,0.09649842018000002,3.0142929375900374,0.27545918352712795,-0.20730260094218636, ,0.0614219686462594,0.050855810052771046,0.009618847536231887,0.018471336843121806,0.05199840575677598,0.0618189407275895, ,1.5761799812316895
0.013699395361859434,0.01983648163387723,-0.08648992036744405, ,0.014171664439883352,0.019597374739305097,-0.08682164441663526, ,0.0006247007554832194, ,0.007304560922511514,-0.0020104440338885154,-0.009622980995540951,0.004809767932825315,0.041978810780377955,-0.052299907888829024, ,0.01224745927629982, ,0.042253453581743074, ,6.371951690681492e-05, ,0.16065601198249246,-0.1953619735192574,0.09659693822000001,3.0151316973639757,0.2760057295261897,-0.20627805523444193, ,0.0628040645655002,0.05101986105294128,0.010075149601518027,0.09606963347042569,0.058704171886444965,0.08927914426428332, ,1.5851869583129883
0.013775891224333816,0.01981897196398527,-0.08659287812847544, ,0.014241343832591085,0.019575173935595616,-0.0869096171715366, ,0.0006135203587326818, ,0.0071573109252383695,-0.0018519669224524695,-0.00966478663698635,0.026215509110689032,-0.07000386177388378,0.017321438522436325, ,0.01216819550717626, ,0.07475154511355384, ,6.424538536884632e-05, ,0.16132788974255,-0.1948445504166844,0.09670582658000001,3.015551077250945,0.27682554852478236,-0.20604809651507425, ,0.06433690953116662,0.05071990462772356,0.010178154325878597,-0.017437727502388888,0.07836241613531969,-0.013534197746118151, ,1.595196008682251
0.013846606788701572,0.01979584824359487,-0.08668413439356167, ,0.014310866097253207,0.019553054603603248,-0.08699740714194348, ,0.0006104303990431037, ,0.007025259277796778,-0.0026083728971149087,-0.00897151208703513,-0.027182418112139423,-0.06588602197317561,0.00816181044150479, ,0.011689563987527112, ,0.07127307828172284, ,6.476061693964475e-05, ,0.16193798563961376,-0.194350295512734,0.09679656688,3.015551077250945,0.2772354580240787,-0.20597395652546072, ,0.06326462770564718,0.05211254341486588,0.009196773394919169,-0.013875602376242713,0.026621223988272807,-0.003728662027860319, ,1.6045031547546387
0.013918165885929118,0.019767658542823745,-0.08677596136528104, ,0.01438023123086878,0.019531016837049237,-0.08708501463313871, ,0.0006041668662543334, ,0.007339566245216279,-0.002713638682181608,-0.009577249549037834,-0.049192414802257924,-0.01319113509406445,0.018184070162063044, ,0.012367569546596287, ,0.0509303410411866, ,6.526079722731976e-05, ,0.16260214066679704,-0.1938097042115383,0.09689378863,3.01534138730746,0.2772354580240787,-0.20523884786419563, ,0.06513173751439313,0.05355357875760201,0.009748354663402695,0.0,0.015335041674335989,0.04897051523509607, ,1.6133151054382324
0.013992496843083362,0.01974104025644409,-0.08687198149003343, ,0.014449439231077759,0.019509060729150887,-0.08717243995001103, ,0.0005940421981655104, ,0.007569933664197502,-0.0027361211736032127,-0.009917013877141102,-0.06304040471664335,0.016292667634215087,-0.008209236864350418, ,0.01277252594424453, ,0.0651117773490956, ,6.574062288907225e-05, ,0.1632431274953577,-0.1932768356432168,0.09699230667000001,3.0159704571379136,0.2773720945238441,-0.20445179962634588, ,0.06553656184977263,0.05334285641285598,0.010132831755725191,0.03677567267530434,0.0,0.08459187782606206, ,1.6225550174713135
0.014070825332372168,0.01972171684147167,-0.08697178679889866, ,0.014518490096160425,0.019487186372621555,-0.08725968339705298, ,0.000581629377512413, ,0.00756435199383317,-0.0014783719194820895,-0.009691171157009874,0.0908029637364515,-0.045374580904691264,-0.07277928475506273, ,0.012382398919974317, ,0.1015087716905115, ,6.61971657056283e-05, ,0.16393045072116366,-0.19273624434202108,0.09709860245000002,3.0165995269683674,0.2783285500222022,-0.2042515800705341, ,0.06594645000588659,0.051630544917557544,0.010486380197498356,0.08537199076921312,0.12877804500580936,-0.013056399771561152, ,1.6322319507598877
0.01414564134934302,0.019702459241579914,-0.08707342032534121, ,0.014587383825036484,0.019465393859672057,-0.08734674527836413, ,0.0005710016988380054, ,0.007546160112245631,-0.0025227750612433356,-0.01061050524728031,-0.04155558156526208,0.026766087161552425,0.07499022070170902, ,0.013262418635069596, ,0.04942964340029135, ,6.663336661163327e-05, ,0.16457916028259853,-0.19219565304082536,0.09720619452000001,3.0170189068553364,0.2792850055205603,-0.20388800303444118, ,0.06608422114099637,0.055854585967316524,0.010947636783505157,-0.03220351804897528,0.04017841532040263,0.10649961592916632, ,1.6410961151123047
0.01414564134934302,0.019702459241579914,-0.08707342032534121, ,0.014656120417264232,0.01944368328201014,-0.0874336258976489, ,0.0006762410297804151, ,0.007546160112245631,-0.0025227750612433356,-0.01061050524728031,-0.04155558156526208,0.026766087161552425,0.07499022070170902, ,0.013262418635069596, ,0.04942964340029135, ,6.730902750517301e-05, ,0.16457916028259853,-0.19219565304082536,0.09720619452000001,3.0170189068553364,0.2792850055205603,-0.20388800303444118, ,0.06608422114099637,0.055854585967316524,0.010947636783505157,-0.03220351804897528,0.04017841532040263,0.10649961592916632, ,1.6477150917053223
0.01422520697407825,0.019676337978860953,-0.08718275110738635, ,0.014724699873039955,0.019422054730841784,-0.08752032555821852, ,0.0006543008758904337, ,0.007929623312029888,-0.002755664272672536,-0.01047743796133796,-0.06939308975051922,0.04958541727056931,0.04963800586998774, ,0.013425696171448892, ,0.08528841881965726, ,6.794797354101329e-05, ,0.16527420624127873,-0.191631893541007,0.09731897175000001,3.016809216911852,0.2795582785200912,-0.20255894277916336, ,0.06916686702512448,0.055430456517798356,0.010769987505070995,0.0,0.011128104349385614,0.13284339175103493, ,1.6546659469604492
0.01429876371044446,0.019653591351674847,-0.08728050551924521, ,0.014793122193197035,0.019400508296871528,-0.08760684456299084, ,0.0007107087174405112, ,0.00784753511707255,-0.002242479601493594,-0.010570224300744113,0.03166044371781878,-0.0177244772990881,0.0177250588419297, ,0.01335448104363637, ,0.036284165416632215, ,6.866086355060186e-05, ,0.16591519306983937,-0.19109130223981127,0.09742137866000002,3.0170189068553364,0.2802414610189184,-0.201890851195537, ,0.06871610540077536,0.05829050464279532,0.011162446755430976,0.009311338740571795,0.09823685915427995,0.04214232619166526, ,1.662527084350586
0.01429876371044446,0.019653591351674847,-0.08728050551924521, ,0.01486138737920529,0.01937904407030291,-0.08769318321449052, ,0.0007498162991770693, ,0.00784753511707255,-0.002242479601493594,-0.010570224300744113,0.03166044371781878,-0.0177244772990881,0.0177250588419297, ,0.01335448104363637, ,0.036284165416632215, ,6.94225354112815e-05, ,0.16591519306983937,-0.19109130223981127,0.09742137866000002,3.0170189068553364,0.2802414610189184,-0.201890851195537, ,0.06871610540077536,0.05829050464279532,0.011162446755430976,0.009311338740571795,0.09823685915427995,0.04214232619166526, ,1.669456958770752
0.01438229426604665,0.019632571901379528,-0.08738864644653616, ,0.01492949543317008,0.019357662140838762,-0.08777934181484942, ,0.0007263933951814702, ,0.008474532731736803,-0.0021179118001456096,-0.010577154752435331,0.0545156203614618,-0.000595837285629397,-0.07183548797279628, ,0.013717851802357387, ,0.05451887520005612, ,7.014516552138977e-05, ,0.16663340722714223,-0.1905043745413702,0.09753674847,3.0178576666292747,0.28133455301704186,-0.2015570133229999, ,0.07288551578991612,0.058112027898634885,0.011321116929637528,0.10457947258701152,0.10608680164903841,0.04485507232638378, ,1.676457166671753
0.014424755006570566,0.019620724815923946,-0.0874425226754226, ,0.014997446357831528,0.019336362597682108,-0.08786532066580695, ,0.000766547712569522, ,0.008414466437315471,-0.002097585087677178,-0.010807716871372643,0.041093444348380664,0.009153609112647197,-0.04267742673444502, ,0.013856761980942989, ,0.042100588840800104, ,7.091754359917498e-05, ,0.16700409840510502,-0.19021091069214968,0.09759378523000001,3.018067356572759,0.2817444625163382,-0.20115615837282413, ,0.07227489836898002,0.057513297914224715,0.011525912821997107,0.08049577183262813,0.09896015944557134,0.06138820028993601, ,1.6835391521453857
0.014557994626561106,0.019587567125883536,-0.0876310927191626, ,0.015065240156563936,0.019315145529536778,-0.08795112006871073, ,0.0006587329188091081, ,0.00871321946687326,-0.002169295896720321,-0.012599858751388904,-0.022189475394010692,0.03284721986429056,0.060010354008474216, ,0.015471990134445482, ,0.03963978246045955, ,7.15343904705603e-05, ,0.1681316174047418,-0.18931507367873962,0.0977921176,3.018486736459728,0.2828375545144617,-0.19951546065803807, ,0.07396488040410817,0.05779350886630376,0.013207969751243784,-0.009623354525980121,0.05994619305160842,0.11476947118887629, ,1.6907660961151123
0.014557994626561106,0.019587567125883536,-0.0876310927191626, ,0.015132876833374852,0.019294011024607236,-0.08803674032451636, ,0.0007623743936130234, ,0.00871321946687326,-0.002169295896720321,-0.012599858751388904,-0.022189475394010692,0.03284721986429056,0.060010354008474216, ,0.015471990134445482, ,0.03963978246045955, ,7.228889628626462e-05, ,0.1681316174047418,-0.18931507367873962,0.0977921176,3.018486736459728,0.2828375545144617,-0.19951546065803807, ,0.07396488040410817,0.05779350886630376,0.013207969751243784,-0.009623354525980121,0.05994619305160842,0.11476947118887629, ,1.6973049640655518
0.014649953937441874,0.019563155040111496,-0.08776018078565054, ,0.015200356392904324,0.019272959170600002,-0.08812218173378797, ,0.0007198619257281388, ,0.008866421087621099,-0.002445527223691875,-0.012588171608700783,0.01808741731447901,0.0027887568845611516,0.024540292200606495, ,0.0155902562761146, ,0.01830113422653006, ,7.29788760350566e-05, ,0.16891933615791271,-0.18866636411730478,0.09792822805000001,3.018486736459728,0.2837940100128198,-0.1986618111811018, ,0.07519567476899429,0.06407626033657716,0.013251923061564062,0.014090807668210635,0.0952741559905059,0.0722845889079165, ,1.7038800716400146
0.014739359931303625,0.01954092086741035,-0.08788809860370153, ,0.015267678840424095,0.019251990054723292,-0.08820744459669871, ,0.00068160380537201, ,0.009491544968046519,-0.002127086334059677,-0.013339212139147745,0.03450061574340896,0.019238797537358996,-0.07820356557090197, ,0.016509043056645627, ,0.03950219481280572, ,7.36109350203938e-05, ,0.16965299578096402,-0.18805626822024105,0.09806304221,3.0193254962336664,0.28461382901141247,-0.1979417800208908, ,0.07740370437069395,0.06226833435595196,0.014146369023090587,0.11961453074958511,0.09213787949973638,0.07159477900814722, ,1.7130811214447021
0.014739359931303625,0.01954092086741035,-0.08788809860370153, ,0.015334844181836874,0.01923110376368831,-0.08829252921303093, ,0.0007836786638376806, ,0.009491544968046519,-0.002127086334059677,-0.013339212139147745,0.03450061574340896,0.019238797537358996,-0.07820356557090197, ,0.016509043056645627, ,0.03950219481280572, ,7.437671169900128e-05, ,0.16965299578096402,-0.18805626822024105,0.09806304221,3.0193254962336664,0.28461382901141247,-0.1979417800208908, ,0.07740370437069395,0.06226833435595196,0.014146369023090587,0.11961453074958511,0.09213787949973638,0.07159477900814722, ,1.7201809883117676
0.01480119511869596,0.019527297899053463,-0.08797460022521464, ,0.015401852423675722,0.019210300383709182,-0.08837743588217631, ,0.0007896538414265691, ,0.009601140722743389,-0.0024380140583216215,-0.013368259395085163,0.023717189326702966,0.013173723102261174,-0.058186606816138846, ,0.016638394603469952, ,0.02713027134008017, ,7.514435899755083e-05, ,0.17016269615066285,-0.18764696337790715,0.0981550788,3.01995456606412,0.2852970115102396,-0.1975187246576861, ,0.07894920262767952,0.06508706554078929,0.014121286808510639,0.09768962363232275,0.08762001464459086,0.07183997398859954, ,1.7267999649047852
0.014920748225548537,0.019494666220221668,-0.08813824991744723, ,0.015468703573102899,0.019189580000503942,-0.08846216490313664, ,0.0007058707971925504, ,0.009378799557520698,-0.002808406459947647,-0.012179210340808185,-0.00467632144372163,-0.00336325046041268,-0.005423515174188671, ,0.01562633010370878, ,0.005760136103307643, ,7.579272299242249e-05, ,0.17118209689006048,-0.18683607642611355,0.09832748537000001,3.01995456606412,0.2862534670085977,-0.19658339644060924, ,0.07987958043642322,0.06424979117025781,0.01282513004830918,0.03830372244487006,0.06730434826491997,0.06949362149191324, ,1.733384132385254
0.014920748225548537,0.019494666220221668,-0.08813824991744723, ,0.015535397637909443,0.019168942699294637,-0.08854671657452386, ,0.0008066813014716916, ,0.009378799557520698,-0.002808406459947647,-0.012179210340808185,-0.00467632144372163,-0.00336325046041268,-0.005423515174188671, ,0.01562633010370878, ,0.005760136103307643, ,7.657135623502253e-05, ,0.17118209689006048,-0.18683607642611355,0.09832748537000001,3.01995456606412,0.2862534670085977,-0.19658339644060924, ,0.07987958043642322,0.06424979117025781,0.01282513004830918,0.03830372244487006,0.06730434826491997,0.06949362149191324, ,1.7399251461029053
0.01502189755067194,0.01945933943752518,-0.0882657774135356, ,0.015601934626514165,0.019148388564808074,-0.08863109119456011, ,0.0007527201426835576, ,0.009423268224391788,-0.0034088760170485934,-0.01183306868576188,-0.024976742377723134,-0.01677324984779489,0.027333757181986537, ,0.015506125700844793, ,0.030086198468072818, ,7.727149823499373e-05, ,0.17205476570484785,-0.18610241680306225,0.09846100324000001,3.0201642560076043,0.2869366495074249,-0.19591530485698294, ,0.08173724509773538,0.06871610540077536,0.012357495360744767,0.0,0.056861403296610956,0.06588787379553726, ,1.7464931011199951
0.01502189755067194,0.01945933943752518,-0.0882657774135356, ,0.015668314547963014,0.01912791768127622,-0.08871528906107835, ,0.0008542575935738324, ,0.009423268224391788,-0.0034088760170485934,-0.01183306868576188,-0.024976742377723134,-0.01677324984779489,0.027333757181986537, ,0.015506125700844793, ,0.030086198468072818, ,7.820569662899085e-05, ,0.17205476570484785,-0.18610241680306225,0.09846100324000001,3.0201642560076043,0.2869366495074249,-0.19591530485698294, ,0.08173724509773538,0.06871610540077536,0.012357495360744767,0.0,0.056861403296610956,0.06588787379553726, ,1.7509980201721191
0.01502189755067194,0.01945933943752518,-0.0882657774135356, ,0.015734537411928293,0.019107530132436986,-0.08879931047152322, ,0.0009572266622716535, ,0.009423268224391788,-0.0034088760170485934,-0.01183306868576188,-0.024976742377723134,-0.01677324984779489,0.027333757181986537, ,0.015506125700844793, ,0.030086198468072818, ,7.927202854512091e-05, ,0.17205476570484785,-0.18610241680306225,0.09846100324000001,3.0201642560076043,0.2869366495074249,-0.19591530485698294, ,0.08173724509773538,0.06871610540077536,0.012357495360744767,0.0,0.056861403296610956,0.06588787379553726, ,1.7557621002197266
0.015105725866896272,0.019429060164494753,-0.08836745141672576, ,0.01580060322870777,0.019087226001534466,-0.08888315572295008, ,0.0009304064028064143, ,0.009537249931632763,-0.003463872480824055,-0.011254732329392995,-0.02439007478587417,-0.025647027675211348,0.01494151934543567, ,0.015153433559036157, ,0.035392733661742094, ,8.029707814102552e-05, ,0.17278070259502495,-0.18550776637174696,0.09856729902000001,3.0203739459510888,0.2873465590067213,-0.19526941368638548, ,0.08360964013962183,0.06773514743645309,0.011807866212008898,0.008184688441707576,0.053248016685463986,0.05674336826401736, ,1.7605259418487549
0.015214955528377906,0.019391526628120187,-0.08848981707888127, ,0.01586651200922406,0.019067005371319685,-0.08896682511202654, ,0.0008702738405427996, ,0.009937164429901895,-0.003364089658632518,-0.01114038887372907,4.478759253731535e-06,-0.012040070166952216,-0.08973155469941932, ,0.015302699121270474, ,0.01204006387402297, ,8.123705123276161e-05, ,0.17372287600568034,-0.18475866128294716,0.09869692802,3.021422395668511,0.2880297415055485,-0.19484635832318087, ,0.0849569754328297,0.06720746569296797,0.011807866212008898,0.11474305245777489,0.05797465772541849,0.05093954318526968, ,1.7662639617919922
0.015214955528377906,0.019391526628120187,-0.08848981707888127, ,0.01593226376502365,0.019046868324050722,-0.089050318935032, ,0.0009733872732228807, ,0.011172411024234788,-0.003923738175290053,-0.015016609121435895,-0.05485302294171963,0.008482892762885776,-0.015097647692716995, ,0.01912372973215903, ,0.05550507032589847, ,8.230827074499062e-05, ,0.1746496039505873,-0.18400183346127316,0.09884211250000001,3.0218417755554805,0.28843965100484475,-0.19387375219202108, ,0.09222248936683264,0.07849209392760198,0.015585921252446186,0.05177559597238406,0.03340462634104003,0.09879795019156554, ,1.7711610794067383
0.015324644065407594,0.0193535557189846,-0.0886288660506384, ,0.015997858508276258,0.01902681494149364,-0.08913363748785819, ,0.0009026468997317243, ,0.011172411024234788,-0.003923738175290053,-0.015016609121435895,-0.05485302294171963,0.008482892762885776,-0.015097647692716995, ,0.01912372973215903, ,0.05550507032589847, ,8.328064275848434e-05, ,0.1746496039505873,-0.18400183346127316,0.09884211250000001,3.0218417755554805,0.28843965100484475,-0.19387375219202108, ,0.09222248936683264,0.07849209392760198,0.015585921252446186,0.05177559597238406,0.03340462634104003,0.09879795019156554, ,1.775618076324463
0.015324644065407594,0.0193535557189846,-0.0886288660506384, ,0.016063296251774144,0.019006845304923015,-0.08921678106600994, ,0.0010057132936091499, ,0.011172411024234788,-0.003923738175290053,-0.015016609121435895,-0.05485302294171963,0.008482892762885776,-0.015097647692716995, ,0.01912372973215903, ,0.05550507032589847, ,8.438333922115476e-05, ,0.1746496039505873,-0.18400183346127316,0.09884211250000001,3.0218417755554805,0.28843965100484475,-0.19387375219202108, ,0.09222248936683264,0.07849209392760198,0.015585921252446186,0.05177559597238406,0.03340462634104003,0.09879795019156554, ,1.7800490856170654
0.015438077783133726,0.01932152202594673,-0.08879207122245093, ,0.01612857700893109,0.018986959495122066,-0.08929974996460446, ,0.0009200320500358428, ,0.011607206639436318,-0.0027495768047562236,-0.017536555439370625,-0.010843027090866448,-0.011075145392702868,0.03525032680452181, ,0.021208917823735077, ,0.015499303966304697, ,8.536795962953423e-05, ,0.17557633189549424,-0.18323728290672495,0.09901322278000001,3.022051465498965,0.289122833503672,-0.19312398186825425, ,0.09367911308832258,0.0750173451055105,0.018457487276940906,0.0025182390006239543,0.08047695504655897,0.08227058133555283, ,1.7844719886779785
0.015438077783133726,0.01932152202594673,-0.08879207122245093, ,0.01619370079378177,0.018967157592383398,-0.08938254447837303, ,0.001022349720963781, ,0.011607206639436318,-0.0027495768047562236,-0.017536555439370625,-0.010843027090866448,-0.011075145392702868,0.03525032680452181, ,0.021208917823735077, ,0.015499303966304697, ,8.648118028535738e-05, ,0.17557633189549424,-0.18323728290672495,0.09901322278000001,3.022051465498965,0.289122833503672,-0.19312398186825425, ,0.09367911308832258,0.0750173451055105,0.018457487276940906,0.0025182390006239543,0.08047695504655897,0.08227058133555283, ,1.788957118988037
0.015546376373845663,0.01930039552678914,-0.08895972859187823, ,0.016258667620981045,0.018947439676510008,-0.08946516490165987, ,0.0009420204436410225, ,0.012565235159223745,-0.0021802414453371555,-0.020335741575048926,0.023638180123876744,0.0022483695390580565,0.008913337642545916, ,0.02400376997002204, ,0.02374479411132672, ,8.748386357488843e-05, ,0.17642583251165891,-0.1825576824137932,0.09919081451000002,3.022680535329419,0.29007928900203006,-0.19243368987159903, ,0.09763059831118392,0.07765707165177642,0.021525420972972976,0.039314150964487614,0.11352054215326607,0.08995885917404998, ,1.7940499782562256
0.015546376373845663,0.01930039552678914,-0.08895972859187823, ,0.016323477505802906,0.018927805826814526,-0.08954761152842336, ,0.0010432236581372802, ,0.012565235159223745,-0.0021802414453371555,-0.020335741575048926,0.023638180123876744,0.0022483695390580565,0.008913337642545916, ,0.02400376997002204, ,0.02374479411132672, ,8.861293500660168e-05, ,0.17642583251165891,-0.1825576824137932,0.09919081451000002,3.022680535329419,0.29007928900203006,-0.19243368987159903, ,0.09763059831118392,0.07765707165177642,0.021525420972972976,0.039314150964487614,0.11352054215326607,0.08995885917404998, ,1.7987120151519775
0.015606462483212322,0.01928976051874834,-0.08905510051420103, ,0.01638813046414011,0.018908256122121457,-0.08962988465223624, ,0.0010425580283083772, ,0.013028714764269762,-0.0021900818841400407,-0.020781268328539625,0.04591055941872891,0.025209211702249955,-0.07535595371155415, ,0.0246252914786953, ,0.05237633000697342, ,8.973528540646573e-05, ,0.1768891964841124,-0.1821869912358304,0.09929192513000001,3.0230999152163878,0.29062583500109185,-0.19189921660469797, ,0.09905735026980249,0.07987958043642322,0.022062065817174518,0.13132840648940305,0.1237143776404418,0.0974205451738183, ,1.8045110702514648
0.015606462483212322,0.01928976051874834,-0.08905510051420103, ,0.016452626512502972,0.018888790640766134,-0.08971198456628604, ,0.0011437950277029879, ,0.013028714764269762,-0.0021900818841400407,-0.020781268328539625,0.04591055941872891,0.025209211702249955,-0.07535595371155415, ,0.0246252914786953, ,0.05237633000697342, ,9.09827944063235e-05, ,0.1768891964841124,-0.1821869912358304,0.09929192513000001,3.0230999152163878,0.29062583500109185,-0.19189921660469797, ,0.09905735026980249,0.07987958043642322,0.022062065817174518,0.13132840648940305,0.1237143776404418,0.0974205451738183, ,1.8089680671691895
0.015808357360039757,0.01925682390636223,-0.08937943940708867, ,0.016516965668018777,0.01886940946059616,-0.0897939115633743, ,0.000907746030154457, ,0.012954478907037166,-0.002882928965250298,-0.0196353745843465,0.007070804530158393,0.04255919970676653,0.024436154576704887, ,0.023699741311650438, ,0.043142540927030376, ,9.191928529837745e-05, ,0.17844918852470573,-0.1809513539759545,0.09963673827000001,3.0239386749903256,0.29267538249757347,-0.19022165681438127, ,0.10203972210588257,0.08295187199167026,0.020794793107049615,0.04405994622295512,0.11077420899387243,0.14022820795057828, ,1.8136839866638184
0.015808357360039757,0.01925682390636223,-0.08937943940708867, ,0.016581147948431227,0.018850112658971754,-0.08987566593591892, ,0.0010044202806471336, ,0.012954478907037166,-0.002882928965250298,-0.0196353745843465,0.007070804530158393,0.04255919970676653,0.024436154576704887, ,0.023699741311650438, ,0.043142540927030376, ,9.297537501530201e-05, ,0.17844918852470573,-0.1809513539759545,0.09963673827000001,3.0239386749903256,0.29267538249757347,-0.19022165681438127, ,0.10203972210588257,0.08295187199167026,0.020794793107049615,0.04405994622295512,0.11077420899387243,0.14022820795057828, ,1.8180351257324219
0.01594066979690978,0.019223080991544253,-0.08957305533118351, ,0.016645173372099156,0.01883090031276599,-0.08995724797595209, ,0.0008931600979420583, ,0.013103213058194944,-0.0035810624195282362,-0.01854268625410448,0.006652459496615194,0.0032850411274195843,0.02455037737943267, ,0.022985852475363257, ,0.007419199447943577, ,9.388321756717808e-05, ,0.17951492566134872,-0.18007868516116712,0.09984155209000001,3.0239386749903256,0.293768474495697,-0.188989352800298, ,0.10579369181546351,0.08794897271406003,0.01964095131935882,0.026905436308889752,0.11127436847291801,0.10348494896765832, ,1.8224461078643799
0.01594066979690978,0.019223080991544253,-0.08957305533118351, ,0.016709041957996218,0.018811772498365572,-0.09003865797512269, ,0.000988107421557349, ,0.013103213058194944,-0.0035810624195282362,-0.01854268625410448,0.006652459496615194,0.0032850411274195843,0.02455037737943267, ,0.022985852475363257, ,0.007419199447943577, ,9.490798195440341e-05, ,0.17951492566134872,-0.18007868516116712,0.09984155209000001,3.0239386749903256,0.293768474495697,-0.188989352800298, ,0.10579369181546351,0.08794897271406003,0.01964095131935882,0.026905436308889752,0.11127436847291801,0.10348494896765832, ,1.826869010925293
0.016086128929671973,0.01918328987989428,-0.08976811856301585, ,0.01677275372570983,0.01879272929167149,-0.09011989622469527, ,0.0008647188600138201, ,0.013581129177125728,-0.004032551600009895,-0.017873880549751017,-0.0016976885084172442,-0.018069041479989792,0.020262654680957587, ,0.022807545857441255, ,0.018148569695312436, ,9.576992690472912e-05, ,0.18061155372948862,-0.17920601634637975,0.10003599559000001,3.024567744820779,0.29486156649382045,-0.18808376374677696, ,0.11164346065702443,0.08994970763836094,0.019168244909747296,0.02240529560532107,0.10299036223039251,0.08827523716890766, ,1.8315081596374512
0.016086128929671973,0.01918328987989428,-0.08976811856301585, ,0.016836308695440488,0.018773770768099156,-0.09020096301555097, ,0.0009580343960340892, ,0.013581129177125728,-0.004032551600009895,-0.017873880549751017,-0.0016976885084172442,-0.018069041479989792,0.020262654680957587, ,0.022807545857441255, ,0.018148569695312436, ,9.674635307316813e-05, ,0.18061155372948862,-0.17920601634637975,0.10003599559000001,3.024567744820779,0.29486156649382045,-0.18808376374677696, ,0.11164346065702443,0.08994970763836094,0.019168244909747296,0.02240529560532107,0.10299036223039251,0.08827523716890766, ,1.8362181186676025
0.016086128929671973,0.01918328987989428,-0.08976811856301585, ,0.01689970688800094,0.018754897002579256,-0.09028185863818744, ,0.0010532608491965743, ,0.013581129177125728,-0.004032551600009895,-0.017873880549751017,-0.0016976885084172442,-0.018069041479989792,0.020262654680957587, ,0.022807545857441255, ,0.018148569695312436, ,9.783881577081774e-05, ,0.18153055894152131,-0.17847235672332842,0.10018118007000001,3.025616194538202,0.29554474899264765,-0.18725231468286954, ,0.11544640092271385,0.09003504891695518,0.017639879867109635,0.1649815592814621,0.08248121216184406,0.11077792674204258, ,1.8410611152648926
0.01618829393875415,0.01915199997614094,-0.08989195374339581, ,0.016962948324815555,0.018736108069557975,-0.09036258338271964, ,0.0009972701505687727, ,0.01410526438343922,-0.004379093045145945,-0.016493167205696976,-0.00013607233181082978,0.021098765810786468,-0.11209319606919549, ,0.02213954614936455, ,0.02109917567031955, ,9.885477587097887e-05, ,0.18153055894152131,-0.17847235672332842,0.10018118007000001,3.025616194538202,0.29554474899264765,-0.18725231468286954, ,0.11544640092271385,0.09003504891695518,0.017639879867109635,0.1649815592814621,0.08248121216184406,0.11077792674204258, ,1.8456029891967773
0.01618829393875415,0.01915199997614094,-0.08989195374339581, ,0.017026033027919323,0.01871740404299809,-0.09044313753887963, ,0.0010929245092976632, ,0.01410526438343922,-0.004379093045145945,-0.016493167205696976,-0.00013607233181082978,0.021098765810786468,-0.11209319606919549, ,0.02213954614936455, ,0.02109917567031955, ,0.0001001130919892405, ,0.18153055894152131,-0.17847235672332842,0.10018118007000001,3.025616194538202,0.29554474899264765,-0.18725231468286954, ,0.11544640092271385,0.09003504891695518,0.017639879867109635,0.1649815592814621,0.08248121216184406,0.11077792674204258, ,1.8479511737823486
0.01618829393875415,0.01915199997614094,-0.08989195374339581, ,0.0170889610199571,0.018698784996378455,-0.0905235213960168, ,0.0011897406057124102, ,0.01410526438343922,-0.004379093045145945,-0.016493167205696976,-0.00013607233181082978,0.021098765810786468,-0.11209319606919549, ,0.02213954614936455, ,0.02109917567031955, ,0.00010149062361215223, ,0.18153055894152131,-0.17847235672332842,0.10018118007000001,3.025616194538202,0.29554474899264765,-0.18725231468286954, ,0.11544640092271385,0.09003504891695518,0.017639879867109635,0.1649815592814621,0.08248121216184406,0.11077792674204258, ,1.8502390384674072
0.016360123212289548,0.019096009276166774,-0.09009336160529467, ,0.017151732324183103,0.01868025100269574,-0.09060373524309935, ,0.0010295538733638464, ,0.013953933424726863,-0.004917646276228173,-0.01646697152244387,-0.016862010925069747,-0.016210911339311948,0.004313067655502717, ,0.02213722326853094, ,0.023390593154057282, ,0.00010266242064466698, ,0.1829669872561271,-0.17734483772369164,0.10039636421,3.02645495431214,0.29663784099077123,-0.18593833192864576, ,0.1170122583951551,0.09556590287862111,0.017523445016501653,0.038305448386355766,0.0907888793111532,0.09482125101235427, ,1.8525030612945557
0.016360123212289548,0.019096009276166774,-0.09009336160529467, ,0.0172143469644597,0.018661802134464105,-0.09068377936871275, ,0.001125534182527061, ,0.013953933424726863,-0.004917646276228173,-0.01646697152244387,-0.016862010925069747,-0.016210911339311948,0.004313067655502717, ,0.02213722326853094, ,0.023390593154057282, ,0.00010395229676305587, ,0.1829669872561271,-0.17734483772369164,0.10039636421,3.02645495431214,0.29663784099077123,-0.18593833192864576, ,0.1170122583951551,0.09556590287862111,0.017523445016501653,0.038305448386355766,0.0907888793111532,0.09482125101235427, ,1.8547780513763428
0.016360123212289548,0.019096009276166774,-0.09009336160529467, ,0.017276804965257013,0.01864343846371615,-0.09076365406106159, ,0.0012224638042755138, ,0.013953933424726863,-0.004917646276228173,-0.01646697152244387,-0.016862010925069747,-0.016210911339311948,0.004313067655502717, ,0.02213722326853094, ,0.023390593154057282, ,0.00010536100143246703, ,0.1829669872561271,-0.17734483772369164,0.10039636421,3.02645495431214,0.29663784099077123,-0.18593833192864576, ,0.1170122583951551,0.09556590287862111,0.017523445016501653,0.038305448386355766,0.0907888793111532,0.09482125101235427, ,1.8570780754089355
0.016360123212289548,0.019096009276166774,-0.09009336160529467, ,0.017339106351651822,0.018625160062002943,-0.0908433596079692, ,0.001320077260485194, ,0.013953933424726863,-0.004917646276228173,-0.01646697152244387,-0.016862010925069747,-0.016210911339311948,0.004313067655502717, ,0.02213722326853094, ,0.023390593154057282, ,0.00010688894641240756, ,0.1829669872561271,-0.17734483772369164,0.10039636421,3.02645495431214,0.29663784099077123,-0.18593833192864576, ,0.1170122583951551,0.09556590287862111,0.017523445016501653,0.038305448386355766,0.0907888793111532,0.09482125101235427, ,1.8593239784240723
0.01651527825631107,0.01904341451683546,-0.09029039961507632, ,0.017401251149327106,0.018606967000395467,-0.09092289629687805, ,0.001172811346404889, ,0.016249955228059366,-0.004903622427230681,-0.021841657958570578,-0.026699862962662087,-0.013606755685890346,0.028873759067504022, ,0.027661608416756304, ,0.029967007052770014, ,0.00010822804490486042, ,0.18424896091324836,-0.17628682331992288,0.10060506690000001,3.02645495431214,0.29759429648912933,-0.18483964623128774, ,0.13089233318409763,0.10638670578303898,0.023152342325581398,0.02175569608048488,0.09879897187245118,0.115775106435102, ,1.8616349697113037
0.01651527825631107,0.01904341451683546,-0.09029039961507632, ,0.017463239384570832,0.01858885934948389,-0.0910022644148497, ,0.0012696464838741247, ,0.016249955228059366,-0.004903622427230681,-0.021841657958570578,-0.026699862962662087,-0.013606755685890346,0.028873759067504022, ,0.027661608416756304, ,0.029967007052770014, ,0.0006028908291596071, ,0.18424896091324836,-0.17628682331992288,0.10060506690000001,3.02645495431214,0.29759429648912933,-0.18483964623128774, ,0.13089233318409763,0.10638670578303898,0.023152342325581398,0.02175569608048488,0.09879897187245118,0.115775106435102, ,1.8640241622924805
0.01651527825631107,0.01904341451683546,-0.09029039961507632, ,0.01752507108427567,0.01857083717937923,-0.09108146424856614, ,0.0013670384594605786, ,0.016249955228059366,-0.004903622427230681,-0.021841657958570578,-0.026699862962662087,-0.013606755685890346,0.028873759067504022, ,0.027661608416756304, ,0.029967007052770014, ,0.0006081247170383809, ,0.18424896091324836,-0.17628682331992288,0.10060506690000001,3.02645495431214,0.29759429648912933,-0.18483964623128774, ,0.13089233318409763,0.10638670578303898,0.023152342325581398,0.02175569608048488,0.09879897187245118,0.115775106435102, ,1.8662359714508057
0.01651527825631107,0.01904341451683546,-0.09029039961507632, ,0.01758674627593778,0.018552900559713256,-0.09116049608432877, ,0.0014648261074339368, ,0.016249955228059366,-0.004903622427230681,-0.021841657958570578,-0.026699862962662087,-0.013606755685890346,0.028873759067504022, ,0.027661608416756304, ,0.029967007052770014, ,0.0006139526176533166, ,0.18424896091324836,-0.17628682331992288,0.10060506690000001,3.02645495431214,0.29759429648912933,-0.18483964623128774, ,0.13089233318409763,0.10638670578303898,0.023152342325581398,0.02175569608048488,0.09879897187245118,0.115775106435102, ,1.8684580326080322
0.01651527825631107,0.01904341451683546,-0.09029039961507632, ,0.017648264987656332,0.01853504955963929,-0.09123936020805988, ,0.001562888374179423, ,0.016249955228059366,-0.004903622427230681,-0.021841657958570578,-0.026699862962662087,-0.013606755685890346,0.028873759067504022, ,0.027661608416756304, ,0.029967007052770014, ,0.0006203643457379525, ,0.18424896091324836,-0.17628682331992288,0.10060506690000001,3.02645495431214,0.29759429648912933,-0.18483964623128774, ,0.13089233318409763,0.10638670578303898,0.023152342325581398,0.02175569608048488,0.09879897187245118,0.115775106435102, ,1.8707070350646973
0.016695060522041335,0.01900017058537967,-0.09055263285671414, ,0.017709627248132465,0.01851728424783231,-0.09131805690530184, ,0.0013595583219698844, ,0.018802007075620394,-0.0036255078058882208,-0.029459812762709474,0.02019780846710927,0.039698802853678286,-0.12142843651388381, ,0.03513602631112596, ,0.04454126429802901, ,0.0006253253791354822, ,0.1856236073648603,-0.17517474978603456,0.10088376925,3.027713093973047,0.29882402498701827,-0.18347372390047925, ,0.13733276636537015,0.11008925934857398,0.03129432518664047,0.19506302527017866,0.12420389461657484,0.14614024141015802, ,1.872926950454712
0.016695060522041335,0.01900017058537967,-0.09055263285671414, ,0.017770833086668707,0.01849960469249002,-0.09139658646121857, ,0.0014560599268180479, ,0.018802007075620394,-0.0036255078058882208,-0.029459812762709474,0.02019780846710927,0.039698802853678286,-0.12142843651388381, ,0.03513602631112596, ,0.04454126429802901, ,0.000630863609453366, ,0.1856236073648603,-0.17517474978603456,0.10088376925,3.027713093973047,0.29882402498701827,-0.18347372390047925, ,0.13733276636537015,0.11008925934857398,0.03129432518664047,0.19506302527017866,0.12420389461657484,0.14614024141015802, ,1.8751389980316162
0.016695060522041335,0.01900017058537967,-0.09055263285671414, ,0.01783188253316809,0.018482010961333114,-0.0914749491605948, ,0.001552907288082078, ,0.018802007075620394,-0.0036255078058882208,-0.029459812762709474,0.02019780846710927,0.039698802853678286,-0.12142843651388381, ,0.03513602631112596, ,0.04454126429802901, ,0.0006369698589807084, ,0.1856236073648603,-0.17517474978603456,0.10088376925,3.027713093973047,0.29882402498701827,-0.18347372390047925, ,0.13733276636537015,0.11008925934857398,0.03129432518664047,0.19506302527017866,0.12420389461657484,0.14614024141015802, ,1.877418041229248
0.016695060522041335,0.01900017058537967,-0.09055263285671414, ,0.017892775618133405,0.018464503121605566,-0.09155314528783709, ,0.0016499958205960935, ,0.018802007075620394,-0.0036255078058882208,-0.029459812762709474,0.02019780846710927,0.039698802853678286,-0.12142843651388381, ,0.03513602631112596, ,0.04454126429802901, ,0.0006436345034650201, ,0.1856236073648603,-0.17517474978603456,0.10088376925,3.027713093973047,0.29882402498701827,-0.18347372390047925, ,0.13733276636537015,0.11008925934857398,0.03129432518664047,0.19506302527017866,0.12420389461657484,0.14614024141015802, ,1.8797330856323242
0.016695060522041335,0.01900017058537967,-0.09055263285671414, ,0.01795351237266632,0.01844708124007568,-0.09163117512697357, ,0.0017472442053034843, ,0.018802007075620394,-0.0036255078058882208,-0.029459812762709474,0.02019780846710927,0.039698802853678286,-0.12142843651388381, ,0.03513602631112596, ,0.04454126429802901, ,0.0006508476387711539, ,0.1856236073648603,-0.17517474978603456,0.10088376925,3.027713093973047,0.29882402498701827,-0.18347372390047925, ,0.13733276636537015,0.11008925934857398,0.03129432518664047,0.19506302527017866,0.12420389461657484,0.14614024141015802, ,1.8821840286254883
0.01692077209424329,0.018962660955647807,-0.09091948433521306, ,0.018014092828466798,0.018429745383036218,-0.09170903896165473, ,0.001450084736679349, ,0.021408307275535606,-0.0029343487055550586,-0.03593688538461072,0.0377661036487807,0.05590814719978304,-0.03452017316272249, ,0.041933110472229355, ,0.06746806333468731, ,0.000656037490056272, ,0.18714498574108254,-0.17397000345765554,0.10124543416000001,3.029600303464408,0.3003270264844381,-0.18159552871579854, ,0.15256743015831317,0.11803102183889398,0.03792574171428572,0.14042657160490354,0.16827101991852755,0.1879439668549994, ,1.8846111297607422
0.01692077209424329,0.018962660955647807,-0.09091948433521306, ,0.018074517017832078,0.018412495616305095,-0.09178673707515368, ,0.0015446477152592083, ,0.021408307275535606,-0.0029343487055550586,-0.03593688538461072,0.0377661036487807,0.05590814719978304,-0.03452017316272249, ,0.041933110472229355, ,0.06746806333468731, ,0.0006617704592511296, ,0.18714498574108254,-0.17397000345765554,0.10124543416000001,3.029600303464408,0.3003270264844381,-0.18159552871579854, ,0.15256743015831317,0.11803102183889398,0.03792574171428572,0.14042657160490354,0.16827101991852755,0.1879439668549994, ,1.8870761394500732
0.01692077209424329,0.018962660955647807,-0.09091948433521306, ,0.018134784973656,0.018395332005225584,-0.0918642697503659, ,0.0016396063216676908, ,0.021408307275535606,-0.0029343487055550586,-0.03593688538461072,0.0377661036487807,0.05590814719978304,-0.03452017316272249, ,0.041933110472229355, ,0.06746806333468731, ,0.000668038637856364, ,0.18714498574108254,-0.17397000345765554,0.10124543416000001,3.029600303464408,0.3003270264844381,-0.18159552871579854, ,0.15256743015831317,0.11803102183889398,0.03792574171428572,0.14042657160490354,0.16827101991852755,0.1879439668549994, ,1.8912451267242432
0.01692077209424329,0.018962660955647807,-0.09091948433521306, ,0.018194896729428308,0.018378254614667466,-0.09194163726981007, ,0.0017348547429305603, ,0.021408307275535606,-0.0029343487055550586,-0.03593688538461072,0.0377661036487807,0.05590814719978304,-0.03452017316272249, ,0.041933110472229355, ,0.06746806333468731, ,0.0006748336448950532, ,0.18714498574108254,-0.17397000345765554,0.10124543416000001,3.029600303464408,0.3003270264844381,-0.18159552871579854, ,0.15256743015831317,0.11803102183889398,0.03792574171428572,0.14042657160490354,0.16827101991852755,0.1879439668549994, ,1.8935739994049072
0.017068529183834693,0.01894543428784818,-0.09117321567744861, ,0.018254852319233687,0.018361263509027087,-0.09201883991562883, ,0.0015696172885799932, ,0.021408307275535606,-0.0029343487055550586,-0.03593688538461072,0.0377661036487807,0.05590814719978304,-0.03452017316272249, ,0.041933110472229355, ,0.06746806333468731, ,0.0006804968325133122, ,0.18831111840509043,-0.17307416644424548,0.10154487715,3.0300196833513766,0.30183002798185793,-0.18012572723182063, ,0.1543039700137736,0.1178843994515165,0.040531327022900764,0.050630913512484874,0.20073754929047014,0.21091996793579054, ,1.8960371017456055
0.017068529183834693,0.01894543428784818,-0.09117321567744861, ,0.018314651777751045,0.01834435875222771,-0.09209587796958724, ,0.001662954907363622, ,0.021747171914756558,-0.0023255603624481244,-0.03796969174380957,0.0487379912332293,0.0627773150134021,0.06039446411448988, ,0.043818320465409066, ,0.07947517945909144, ,0.0006866758141161444, ,0.18831111840509043,-0.17307416644424548,0.10154487715,3.0300196833513766,0.30183002798185793,-0.18012572723182063, ,0.1543039700137736,0.1178843994515165,0.040531327022900764,0.050630913512484874,0.20073754929047014,0.21091996793579054, ,1.8986260890960693
0.017068529183834693,0.01894543428784818,-0.09117321567744861, ,0.018374295140252715,0.01832754040772053,-0.09217275171307505, ,0.0017566701074918124, ,0.021747171914756558,-0.0023255603624481244,-0.03796969174380957,0.0487379912332293,0.0627773150134021,0.06039446411448988, ,0.043818320465409066, ,0.07947517945909144, ,0.0006933632784497423, ,0.18831111840509043,-0.17307416644424548,0.10154487715,3.0300196833513766,0.30183002798185793,-0.18012572723182063, ,0.1543039700137736,0.1178843994515165,0.040531327022900764,0.050630913512484874,0.20073754929047014,0.21091996793579054, ,1.9008679389953613
0.017356684737106637,0.01891331385244498,-0.0916746120299055, ,0.018433782442603814,0.018310808538485036,-0.09224946142710655, ,0.0013614712446466388, ,0.02260445947119237,-0.002706698664286935,-0.03798701311032558,0.0968022013507111,0.043591698589282565,0.11775706161907293, ,0.044286577771239885, ,0.10616413364399069, ,0.0006975130173702199, ,0.19036536534963416,-0.17146783800640678,0.10208154121000002,3.0302293732948615,0.30497266747646307,-0.17737922090770178, ,0.16361541648012204,0.12669818632639623,0.040843106461538464,0.0,0.2670573101825564,0.20158722468172283, ,1.9032530784606934
0.017356684737106637,0.01891331385244498,-0.0916746120299055, ,0.018493113721261237,0.018294163207029406,-0.0923260073923199, ,0.0014488389406418398, ,0.02260445947119237,-0.002706698664286935,-0.03798701311032558,0.0968022013507111,0.043591698589282565,0.11775706161907293, ,0.044286577771239885, ,0.10616413364399069, ,0.0007021508317114028, ,0.19036536534963416,-0.17146783800640678,0.10208154121000002,3.0302293732948615,0.30497266747646307,-0.17737922090770178, ,0.16361541648012204,0.12669818632639623,0.040843106461538464,0.0,0.2670573101825564,0.20158722468172283, ,1.9057140350341797
0.017356684737106637,0.01891331385244498,-0.0916746120299055, ,0.018552289013272945,0.01827760447539103,-0.09240238988897859, ,0.00153728872025345, ,0.02260445947119237,-0.002706698664286935,-0.03798701311032558,0.0968022013507111,0.043591698589282565,0.11775706161907293, ,0.044286577771239885, ,0.10616413364399069, ,0.0007072743770398816, ,0.19036536534963416,-0.17146783800640678,0.10208154121000002,3.0302293732948615,0.30497266747646307,-0.17737922090770178, ,0.16361541648012204,0.12669818632639623,0.040843106461538464,0.0,0.2670573101825564,0.20158722468172283, ,1.907938003540039
