NicholasDascanio/dvrk_moveit_final/test/execution/third_experiment_notsharpbends/thirdexp_500vel3.0/thirdexp_500vel3.0_6.csv
Current Position (x),Current Position (y),Current Position (z), ,Planned Position (x),Planned Position (y),Planned Position (z), ,Position Error,,Cartesian linear Velocity(x),Cartesian linear Velocity(y),Cartesian linear Velocity(z),Cartesian Angular Velocity(x),Cartesian Angular Velocity(y),Cartesian Angular Velocity(z), ,Total Linear Velocity, ,Total Angular Velocity, ,MSE, ,Joint 1 Position,Joint 2 Position,Joint 3 Position,Joint 4 Position,Joint 5 Position,Joint 6 Position, ,Joint 1 Velocity,Joint 2 Velocity,Joint 3 Velocity,Joint 4 Velocity,Joint 5 Velocity,Joint 6 Velocity, ,Time Stamp
0.01021540009539244,0.01997062946638433,-0.08062579421006694, ,0.010258066573642177,0.019850822676556128,-0.08060962434183858, ,0.00012820124762925284, ,-3.072328670208748e-05,1.3223468518624471e-05,-7.257484262744057e-05,0.06458801738422383,-0.29522420974637864,-0.1566655691328415, ,7.991175287677954e-05, ,0.30220679345441354, ,1.0683437302437737e-05, ,0.13040606731415508,-0.20979576126118302,0.09053548618000001,3.0059053398506568,0.2933585649964006,-0.3016167967036063, ,-0.000498358312019294,-3.761788104758506e-05,6.815585579223469e-05,0.0,-0.0005102827546008492,-0.34082841068148095, ,0.024172067642211914
0.010220305294745234,0.01995164671255674,-0.0806432486851373, ,0.010275437910015204,0.019880884095158653,-0.0806283619254185, ,9.093167161368754e-05, ,0.00043821271517097317,-0.0008237072546719338,-0.002014707602813015,-0.07989808666875553,-0.30604140821600984,-0.17371572102675922, ,0.0022202636667678134, ,0.3162989848167919, ,9.960587238315471e-06, ,0.13039834458128086,-0.2098112067269315,0.09054196763000001,3.0059053398506568,0.29062583500109185,-0.3057593803606417, ,0.0,-0.00035892909782939955,0.0014574566894051495,0.0,-0.1462790953435005,-0.3299967252299303, ,0.04610800743103027
0.010226847942380464,0.01993064398879593,-0.08065620424279156, ,0.010292882622299233,0.01991065913394296,-0.08064745685032214, ,6.954487939800053e-05, ,0.00023278174616849106,-0.0009789445956733902,-0.00019742393671004195,-0.1292183353814656,-0.011039873500551956,-0.01682183686053093, ,0.0010254248258811953, ,0.12968907820500966, ,9.021181207529403e-06, ,0.1304137900470293,-0.20984209765842837,0.09054326392,3.0059053398506568,0.28761983200625213,-0.3102508793912683, ,0.0006048560386052402,-0.0016469417633914237,-0.00031990540990484845,0.0,-0.13211975881257304,0.008095995984338522, ,0.06874299049377441
0.010231204432687923,0.01993331515069892,-0.08066873097026922, ,0.01031040051858163,0.019940149028977203,-0.08066690749446467, ,7.951130094027909e-05, ,0.0002673593911414004,0.0004971021987517888,-0.0012290405094083465,0.007307765455422903,-0.09780914066864158,-0.051475153623565986, ,0.0013524541448056903, ,0.09808175892737028, ,8.76640713288619e-06, ,0.13043695824565196,-0.2099116022542964,0.09055493053000001,3.0059053398506568,0.2869366495074249,-0.3118174371164407, ,0.0010289481602026626,-0.004576677042246101,0.0012937498341947797,0.0,-0.018259038634244103,-0.10840672177094218, ,0.09100508689880371
0.010237065998108067,0.01993107604858627,-0.0806711514665961, ,0.010327991407277939,0.019969355013918336,-0.08068671223897368, ,9.987415509824836e-05, ,0.0004109747161461365,-7.12483322825282e-05,-0.0005929185241617395,-0.14953604479281948,0.3912333312044206,0.19541175683922218, ,0.0007249337338395657, ,0.41883713796365757, ,9.001216436143622e-06, ,0.1304755719100231,-0.20998882958303863,0.09055493053000001,3.0063247197376257,0.28584355750930146,-0.3093741978241987, ,0.002951158322151848,-0.004617697421042704,0.00044787732194542036,0.0039054052080810895,-0.06830966795399072,0.46197398823496627, ,0.11482000350952148
0.010242944231639494,0.01995857920356685,-0.08067109853477887, ,0.010345655097131597,0.019998278320013402,-0.08070686946818643, ,0.00011578040168189913, ,0.0002018983738295184,0.00042102656921936686,-0.00010390967952913631,-0.022044181686425867,0.0289545644486269,0.018467716636009296, ,0.0004783550426654684, ,0.03639110809846057, ,9.416833167118831e-06, ,0.13056052197163956,-0.2101664524391458,0.09056530085,3.00653440968111,0.2872099225069558,-0.30844640835764886, ,0.0020816065417609162,-0.006817836668623746,0.00017597842321752632,-0.0030175300785637593,-0.021348797599222397,0.03961528574335392, ,0.14093399047851562
0.010251822124484592,0.019977700338071357,-0.08067599708842393, ,0.010363391397213682,0.020026920176102744,-0.08072737756964708, ,0.00013232629717428168, ,0.00032419611870799706,0.0005707035377142207,-8.249083790663899e-05,-0.0027286182830647946,0.005581607825016982,0.00845807447473874, ,0.0006615212692600262, ,0.006212865976903596, ,9.94680491021735e-06, ,0.1306609174990045,-0.21037496622674987,0.09057567117000001,3.00653440968111,0.2872099225069558,-0.3086914445780705, ,0.003811724370712051,-0.007113437909975275,0.00023890655131821826,-0.0030175300785637593,-0.007154682405493324,0.012601293816131896, ,0.16387009620666504
0.010257797060438396,0.019991075330175634,-0.08068166655874082, ,0.01038120011692269,0.020055281808620675,-0.08074823493410514, ,0.00015421457396311544, ,0.0003837992530749402,0.0008419962599214613,-0.0003317113304184682,0.007412055939882235,-0.00013877229550813392,0.0065596651437102044, ,0.0009830015132799143, ,0.007413354908942381, ,1.0614445457302007e-05, ,0.13078448122499206,-0.21065298461022194,0.09059252294,3.00653440968111,0.2869366495074249,-0.30846860877067767, ,0.004431060441823887,-0.008464901827463794,0.000534857998648902,-0.0030175300785637593,0.0,0.0043690650078230964, ,0.19239306449890137
0.01027156554231183,0.020019203381984277,-0.08069646113343573, ,0.010399081065984268,0.020083364441598323,-0.08076943995551131, ,0.0001603207997104292, ,0.00046427145389984223,0.000931089651134139,-0.00047495788471078556,0.007549964783301351,-0.0021405401971138186,-0.003342108164337653, ,0.0011437049066976629, ,0.007847539777823782, ,1.1203318774012975e-05, ,0.13086943128660855,-0.21084605293207756,0.09060678213000001,3.0063247197376257,0.28680001300765945,-0.30819383338670014, ,0.004693846828612722,-0.009784529459902215,0.0007315231723083454,0.005313479887351376,-0.0024949150322665058,0.0020344359177307675, ,0.21540307998657227
0.010278029943459993,0.02003052668242416,-0.08070224417782243, ,0.010417034054450911,0.02011116929666546,-0.08079099103101678, ,0.00018357935084302443, ,0.0005524488898607494,0.0009428589390119836,-0.0005741981491275789,0.007307334639719409,-0.0018195938783455152,-0.002698993306136842, ,0.0012344578847594257, ,0.007530475510808945, ,1.1904751745609984e-05, ,0.13093893588247657,-0.21096189392519094,0.09061585616000001,3.0063247197376257,0.28680001300765945,-0.30811215464655956, ,0.005610985723309894,-0.009626939417782573,0.0008413318657243534,0.005313479887351376,-0.002312138903501828,0.0034291088188553847, ,0.24198102951049805
0.010295971429057867,0.020060295313868548,-0.08071979531954056, ,0.010435058892701812,0.020138697593052153,-0.08081288656096908, ,0.0001848194230993939, ,0.0004341425221350657,0.0010113759532366184,-0.0006027475021552684,0.005263922898551087,-0.00914656989407281,0.02850620305318536, ,0.0012548568044464237, ,0.010553133426095304, ,1.2492000903139395e-05, ,0.13110111327283527,-0.2112708032401599,0.09064178196000001,3.0071634795115636,0.2866633765078941,-0.3079190580027226, ,0.005155888148642112,-0.01040659924123367,0.0008735913531685412,-0.027190152809884488,-0.0011960492369499922,0.0021468532915679675, ,0.2644920349121094
0.01031027118384227,0.020085569398766722,-0.08073924611304396, ,0.010453155391442471,0.020165950547591023,-0.08083512494891004, ,0.00018992044922779103, ,0.00048253470684045765,0.0009454490598075965,-0.0008831046862558511,-0.003563550057807595,-0.003690204586629082,0.022609652514519907, ,0.0013807923648701567, ,0.005129960906784936, ,1.3132434300656225e-05, ,0.1312401224645713,-0.21154109889075776,0.09066770776000001,3.0071634795115636,0.2863901035083632,-0.30761454345518924, ,0.004946348960284798,-0.009736680879052327,0.0011151994012970653,-0.01994032183178027,-0.009409179174298015,0.00767255470466516, ,0.2868921756744385
0.010321031524181396,0.020106991737371672,-0.0807570841356911, ,0.01047132336170456,0.02019292937471936,-0.08085770460157383, ,0.00020024333220721723, ,0.0005074097725337142,0.0010787846494776684,-0.0009022954188585796,0.0017423303816802484,-0.004130828043936333,0.01807742737782621, ,0.0014951180622628272, ,0.0044832416270929295, ,1.3763599096820156e-05, ,0.13134051799193625,-0.21175733541123606,0.09069104098000001,3.0071634795115636,0.2862534670085977,-0.3073397680712116, ,0.005123267566787742,-0.0108688589238991,0.0011765690822935588,-0.015454773846763388,-0.0060844173430975425,0.005790318722380882, ,0.3065950870513916
0.010337164517499862,0.020140668195955728,-0.0807819407212543, ,0.010489562614845583,0.020219635286480655,-0.08088062392888347, ,0.00019798827472491682, ,0.0005563113294709706,0.0010894067466417,-0.000868171775331327,0.003991553042251818,-0.004610771387222861,0.01523175740277458, ,0.0015000038621310813, ,0.00609850051027706, ,1.4296806887133362e-05, ,0.13149497264942073,-0.21209713565770194,0.09072474452000001,3.0071634795115636,0.2861168305088323,-0.30706499268723414, ,0.004339459059392438,-0.011568356056226815,0.0011324225672073261,-0.011599166086898855,-0.0043081815422655,0.007813906396128716, ,0.33343005180358887
0.010342937135490357,0.020152106768367598,-0.0807907862102659, ,0.010507872962548652,0.02024606949252708,-0.08090388134394856, ,0.0002209600186494661, ,0.0005593802912902336,0.0011150946703372897,-0.0008837800371041123,0.0008591655313318937,-0.00522944516184227,0.012511050374196498, ,0.0015288589169973538, ,0.005299553010434482, ,1.4920379567304077e-05, ,0.1315490317795403,-0.21222069938368954,0.09073641113000001,3.0071634795115636,0.2859801940090668,-0.30679021730325656, ,0.005596805965598194,-0.011546571361616678,0.00116856818834049,-0.010721383360057277,-0.00857693975492296,0.004309731286917183, ,0.3535780906677246
0.010358933041734653,0.020187260578255026,-0.08081931425986782, ,0.010526254216822234,0.02027223320012121,-0.08092747526306317, ,0.00021659991854043983, ,0.0005829181391081305,0.0011893680257050391,-0.0010049776586514374,0.008243466107276332,0.0033620703638545246,0.002474069304928358, ,0.001662639453357015, ,0.008902710294752791, ,1.5444688500009192e-05, ,0.13169576370415056,-0.21256822236302964,0.09077400354000001,3.0071634795115636,0.28584355750930146,-0.30667879939956016, ,0.00535025429152682,-0.011316646436790187,0.0013224367800813328,0.003174279167539627,-0.0016141107061389524,0.009488753411346753, ,0.3758242130279541
0.010373112988098844,0.02021097102978356,-0.0808431766264279, ,0.010544706189999892,0.02029812761413775,-0.08095140410570258, ,0.0002208023650351004, ,0.0007242861127425694,0.0012016718900421598,-0.0012563147619475072,-0.0029440818585382464,0.009619582155884099,0.0022494972475100043, ,0.0018833301583940241, ,0.0100600188290305, ,1.5937460599617732e-05, ,0.13181932743013816,-0.21280762708213058,0.09080381821000001,3.007373169455048,0.2855702845097705,-0.3062926061118862, ,0.006417933801007926,-0.011856125131720172,0.0015609285163218434,0.006119858307657981,-0.012177123612177237,0.018780597299110816, ,0.3958899974822998
0.010387714871170864,0.020237061370366124,-0.08086707821855726, ,0.010563228694739996,0.020323753937066345,-0.08097566629452128, ,0.0002238572617238409, ,0.0007564670143720244,0.0011562572750414292,-0.0012797671827669364,-0.002621928161428997,0.007869546339314294,0.002341348691985248, ,0.001883342048595097, ,0.008294833745583848, ,1.6397004121487913e-05, ,0.1319583366218742,-0.21304703180123155,0.09083492917000001,3.007373169455048,0.2855702845097705,-0.3062109273717456, ,0.006802651363849344,-0.011166631482864285,0.001578735646675534,0.005361712594022242,-0.011342224233725133,0.017270400250869483, ,0.4172630310058594
0.010403440486084227,0.02026037235479672,-0.08089217683113675, ,0.010581821544025514,0.020349113369012527,-0.08100026025534972, ,0.0002266645010271857, ,0.0008301839844502607,0.001115591408445917,-0.001122251583398707,-0.0021659639542855233,0.004035434536257489,0.0015617295758461802, ,0.0017869522251803378, ,0.004579970714524684, ,1.6826849034171576e-05, ,0.13210506854648446,-0.21327871378745827,0.09086604013,3.007373169455048,0.2852970115102396,-0.30590641282421216, ,0.007967860396166867,-0.011047702967400838,0.0014268370771444805,0.004781207152936059,-0.011250472455797696,0.014327691892797558, ,0.4397430419921875
0.010420084509852458,0.020282489496389056,-0.08091174074062352, ,0.010600484551163657,0.020374207107700243,-0.08102518441719268, ,0.0002320037992862223, ,0.000869424807528169,0.0010694378135099897,-0.0009228401106721668,0.00016311861468346132,0.003403069734849655,0.007187197865101599, ,0.0016586833943751408, ,0.0034069768566922544, ,1.724426954183312e-05, ,0.13226724593684316,-0.21349495030793658,0.09089196593000001,3.007582859398533,0.28516037501047425,-0.30554995870009416, ,0.008963366284358152,-0.010635908284884402,0.0012371308336373479,0.0,-0.007625083848981443,0.015361933143094381, ,0.4599120616912842
0.01043966983705652,0.02030667315339612,-0.08093142180546889, ,0.010619217529785773,0.02039903634847405,-0.08105043721222602, ,0.00023437790172063316, ,0.0008886074947379214,0.001126159133747855,-0.001104042640382408,0.0017214073565996954,-0.0029154315277904077,0.014327128675382767, ,0.0018101844729227691, ,0.003385702922429778, ,1.7636247145021908e-05, ,0.13246031425869878,-0.21371890956128908,0.09091918802000001,3.008002239285502,0.28516037501047425,-0.30546827995995357, ,0.009216603490327619,-0.010679364464272896,0.0014321926245596038,-0.00939320053439123,-0.005802709676709656,0.010403700265011731, ,0.4820420742034912
0.010463509930492648,0.02033417814167076,-0.08095876557515433, ,0.010638020293846966,0.020423602284300558,-0.08107601707579401, ,0.00022846981990054565, ,0.0008923949421612933,0.0010149623451970833,-0.0008768396032119002,-0.0035298556805748414,-0.00010404745587665534,0.013528752143598242, ,0.0016110136513151662, ,0.003531388820031371, ,1.7966785512772375e-05, ,0.13269971897779975,-0.21400465067763538,0.09095418785,3.008002239285502,0.2847504655111779,-0.30497066876858314, ,0.009501542036073174,-0.010410486135046098,0.0011768819095673512,-0.007573084257088463,-0.01039560748714631,0.014208522531161479, ,0.5030519962310791
0.010480079767040674,0.02035607976194429,-0.08097804804931245, ,0.01065689265762585,0.02044790610577078,-0.0811019224464072, ,0.00023460550281954585, ,0.0009162590630203898,0.0011026111010315116,-0.0012238796444424653,-0.001802527007910064,-0.000524517038269055,0.01221918296735261, ,0.001884983632492744, ,0.0018772910629238594, ,1.8298169300065988e-05, ,0.13286961910103268,-0.21420544173236522,0.09098011365000001,3.008002239285502,0.2847504655111779,-0.30497066876858314, ,0.009212994407192181,-0.010396071713704299,0.001538661638522389,-0.0065847634759091025,-0.008989277682356063,0.012944498849173475, ,0.5232200622558594
0.01049974700679341,0.02038174404637129,-0.08100540289167987, ,0.010675834435724334,0.020471949001101893,-0.0811281517657396, ,0.00023283256337631482, ,0.0009172101487272301,0.0011495723453665448,-0.0013256259103297183,-0.0004398856879192486,-0.0009207579533376253,0.011604358048630154, ,0.0019799179498901616, ,0.0010204384464420613, ,1.8677323725398387e-05, ,0.13307041015576251,-0.21442940098571775,0.09101511348,3.0077925493420175,0.2847504655111779,-0.304807311288302, ,0.00898614026064803,-0.009736564399446005,0.0015426710580157372,0.0,-0.006997307475710625,0.010300608966702762, ,0.5426280498504639
0.01050951885177055,0.020392070229381422,-0.08101969324372356, ,0.01069484544306728,0.020495732156139392,-0.08115470347862642, ,0.0002516336703014265, ,0.0009337286998496674,0.0011662897549938453,-0.001387400835492097,-0.0018858654497132025,0.003906783585822172,-0.00447575854139961, ,0.002038862956613495, ,0.0043381385957263945, ,1.9110438473272283e-05, ,0.133155360217379,-0.21453751924595688,0.09103196525000001,3.008002239285502,0.284477192511647,-0.30450279674076863, ,0.008579034203351292,-0.010921560164266427,0.0017077804504525998,0.010546477992549657,-0.011759491811616984,0.0135344109707946, ,0.5601670742034912
0.010528864026867268,0.020416804938860365,-0.08105033252336413, ,0.010713925494902351,0.02051925675435915,-0.0811815760330608, ,0.0002489356950856899, ,0.0009397328766899213,0.001267452350014291,-0.0016354946201830645,0.003156870646825151,0.0030649985675667724,-0.005783278903705178, ,0.002272526345663876, ,0.004400005510027346, ,1.9504094978598152e-05, ,0.13332526034061193,-0.21475375576643516,0.09106955766000001,3.008421619172471,0.2843405560118816,-0.30430970009693165, ,0.008273895876911432,-0.010994685355845801,0.0019824446630119326,0.011591114795623372,-0.007261276131975719,0.011280382156812683, ,0.5792272090911865
0.01054882639182926,0.020442314513604364,-0.08108473050550728, ,0.010733074406799693,0.020542523976868746,-0.08120876788019195, ,0.00024366891034135734, ,0.0008589783241695029,0.001258373852988554,-0.0015199862801249272,0.00400086501929782,-0.009150964966466,0.027813554667546717, ,0.0021521400528418965, ,0.009987346029452254, ,1.985185748063217e-05, ,0.1335028831967191,-0.21496999228691346,0.09111103894000001,3.0086313091159558,0.28420391951211615,-0.30403492471295407, ,0.008671359838733171,-0.010848023099964679,0.001870247988311278,-0.02485637985800998,-0.0024500273995246096,0.0059102192165955015, ,0.5967910289764404
0.010565514827531382,0.020462857404970773,-0.0811116980286047, ,0.010752291994651594,0.020565535002410405,-0.08123627747432227, ,0.000246877373342971, ,0.0009106125269680546,0.0012188423201233403,-0.0014389932895690909,0.000451541134192714,-0.0037846688861332316,0.02402755024400694, ,0.002094156981465255, ,0.0038115099327383204, ,2.0190559455624142e-05, ,0.13365733785420358,-0.21516306060876905,0.09114344619,3.0086313091159558,0.28393064651258526,-0.30364873142528015, ,0.009186893649604604,-0.010887310275110324,0.0017817462550335573,-0.018778565316830843,-0.0058019307133270895,0.011685190798304188, ,0.6166000366210938
0.010585673052197679,0.020491314122005434,-0.08114229653890934, ,0.010771578074672388,0.020588291007362352,-0.08126410327290473, ,0.0002424913897883303, ,0.0009325855054150482,0.0011865183652089231,-0.0012669157735552055,0.0038815692738585505,0.0022085155947193695,0.004519330872002117, ,0.0019704357724044906, ,0.0044658841405277785, ,2.0492674806905253e-05, ,0.13385812890893342,-0.21541018806074425,0.09118233489000001,3.008421619172471,0.28393064651258526,-0.30356705268513956, ,0.009093900759656248,-0.010723477135827128,0.0016140317660244298,0.0022279534947068744,-0.004639485673689164,0.013141713425530475, ,0.634613037109375
0.01059993785263903,0.020509404114391668,-0.08116178325815007, ,0.010790932463398035,0.02061079316574071,-0.0812922437365404, ,0.0002525442881838257, ,0.0009371391546961676,0.0011884494390974687,-0.0012592952476580075,0.008889029954358162,-0.002831341752649333,0.0019411626979615455, ,0.0019624037577465627, ,0.009329059419180753, ,2.0813699769689977e-05, ,0.13399713810066946,-0.2155800881839772,0.0912069644,3.008421619172471,0.2837940100128198,-0.3033739560413026, ,0.009207396261088482,-0.010319605724073198,0.0016176706114551676,0.002539300214973006,-0.00039193642412441653,0.0067661334322546875, ,0.6562881469726562
0.01061593209085431,0.02052704476825514,-0.08118417224235953, ,0.010810354977685972,0.020633042649202057,-0.08132069732897575, ,0.00026014401581577476, ,0.0009585011624437009,0.001148417874381353,-0.0013591997494591653,-0.0009599830867419209,0.0012449268993157177,0.006001090480031163, ,0.0020211412745115985, ,0.0015720720425067925, ,2.1143398423416225e-05, ,0.13414387002527972,-0.21574998830721012,0.09123418649000001,3.0086313091159558,0.28352073701328895,-0.30298776275362865, ,0.009252165066714925,-0.010485071313516748,0.0016873134754989245,6.013921612796517e-05,-0.009008186734747382,0.013396981160228444, ,0.674713134765625
0.010635985299533156,0.020550775100078793,-0.08121057317028726, ,0.010829845434714732,0.020655040627044697,-0.0813494625171003, ,0.00026027543638278594, ,0.0009484364424147733,0.0011264284795748727,-0.0013661507883656748,-0.0005561452428438566,0.005608185986355185,0.002476741417649665, ,0.0020086664186593816, ,0.005635694064082061, ,2.145548146792121e-05, ,0.13433693834713534,-0.21595077936193996,0.09126789003,3.00884099905944,0.28352073701328895,-0.30290608401348806, ,0.008960760127531399,-0.010112632305889895,0.001689320566595065,0.005316438150557171,-0.008285821653213968,0.016675770319368562, ,0.693061113357544
0.010665341052797504,0.02058496240518465,-0.08125530445211615, ,0.010849403651983837,0.02067678826621115,-0.08137853777094373, ,0.00023978632163187526, ,0.0010093650462539038,0.0011070207989666565,-0.001572156742323925,-0.0032491024357593863,0.003744019001718055,0.0026270287553207634, ,0.0021716329497358656, ,0.004957251750080768, ,2.168262303421623e-05, ,0.13461495673060742,-0.21625196594403473,0.09132233421000001,3.00884099905944,0.28324746401375805,-0.30243821198567356, ,0.009352372451634314,-0.009572789635961781,0.0018857197993841345,0.004199442703723066,-0.01055105205338058,0.01559312223501503, ,0.7178909778594971
0.010674995449409403,0.02059645274255005,-0.08126998938853632, ,0.010869029447313348,0.02069828673129,-0.08140792156367374, ,0.00025892979462282417, ,0.0009768039518117434,0.001051290734532775,-0.0015184897775674428,-0.004074170311824025,0.006020217170828681,0.0039121613548012205, ,0.002089298775514484, ,0.00726924194848509, ,2.196011917171329e-05, ,0.1348003023195888,-0.2164373115330161,0.09135733404000002,3.00884099905944,0.28324746401375805,-0.30219317576525184, ,0.009090646261035418,-0.009481272989757525,0.0017924554579272414,0.0036734513497178596,-0.009150360095650227,0.005306227138727091, ,0.7357430458068848
0.010696493409419723,0.02062126629614041,-0.08130129738300772, ,0.01088872263884374,0.020719537184517595,-0.08143761237159271, ,0.00025532532240323994, ,0.000955887459385696,0.001090756911803633,-0.0013964123670567087,-0.0015704632985605379,0.007467050994149594,0.005511281174659964, ,0.0020133154185390722, ,0.007630413194319584, ,2.2212158314211814e-05, ,0.13491614331270219,-0.21654542979325525,0.09137937097000001,3.00884099905944,0.28324746401375805,-0.30211149702511125, ,0.009042727239730977,-0.00957388584834843,0.0017121507285762564,0.0034111827874935005,-0.008001791814940687,0.019335914876391552, ,0.7586569786071777
0.010714686298418402,0.020638317477014532,-0.08132621835357978, ,0.01090848304503565,0.020740540785780415,-0.0814676086741363, ,0.00026076427401304356, ,0.0008964134271723542,0.0011018671302759444,-0.0014091156245647374,0.0033157436878008826,0.006747652901429811,-0.0015123979594301945, ,0.002000818594623186, ,0.007518309376170278, ,2.2538100004037078e-05, ,0.1350783207030609,-0.21669988445073973,0.09140918564000002,3.009260378946409,0.28297419101422716,-0.30188866121771846, ,0.008165744980116437,-0.009277425520102656,0.0017282650909134648,0.009421336269267205,-0.00427483383382126,0.015454796792689088, ,0.7738540172576904
0.01073343148901578,0.020658814267406768,-0.08135827336951636, ,0.010928310484669418,0.020761298692616788,-0.08149790895386962, ,0.0002607277828987068, ,0.0010634481838745697,0.0010948460577616269,-0.001817779119672684,-0.002920196361524359,0.009799655847257732,0.00022859996478094297, ,0.0023735902885502996, ,0.010225497615994308, ,2.2850103285462675e-05, ,0.13524822082629384,-0.2168775073068469,0.09144677805000001,3.009260378946409,0.2827009180146963,-0.3014207891899039, ,0.009440770071430049,-0.00856896269241283,0.0021306596468699843,0.009421336269267205,-0.008834874485242774,0.02110375980247534, ,0.7898581027984619
0.010743659607955201,0.020669895354706678,-0.08137702075204233, ,0.01094820477684508,0.020781812060218962,-0.08152851169648558, ,0.00027805319875379955, ,0.0011434125144417684,0.0011834384857128703,-0.002201743230721517,0.0023054158785375937,-0.015080872239939964,-0.011689929822491793, ,0.0025560921530987098, ,0.01941816151495676, ,2.3200555735775915e-05, ,0.13544128914814946,-0.2170396846972056,0.09149474078000001,3.009260378946409,0.2827009180146963,-0.30117575296948224, ,0.009791325861124401,-0.008590083972203209,0.002531999923700525,0.008553402668969687,-0.008834874485242774,-0.006892502360349949, ,0.806300163269043
0.010765737882256045,0.02069501107555594,-0.08142163394688576, ,0.010968165740981937,0.02080208204143502,-0.08155941539080154, ,0.00026725447799830665, ,0.0011437012540163327,0.0012124826904499233,-0.0023979964642990926,0.0006003973223279105,-0.008118439743408392,-0.007680569209374898, ,0.002920368791072485, ,0.00814061058721746, ,2.3505353956263926e-05, ,0.13553396194264014,-0.2171246347588221,0.09152066658,3.009260378946409,0.2827009180146963,-0.30109407422934165, ,0.009481884561010073,-0.008426546528846822,0.0027280033430381917,0.008050618464055193,-0.008834874485242774,0.0008827115925365524, ,0.8226370811462402
0.010783061377039532,0.02071224952436876,-0.08145437112068815, ,0.010988193196818295,0.020822109786770984,-0.08159061852875739, ,0.0002696510651683353, ,0.0011512534997820225,0.001080441063705437,-0.0020149889492419365,-0.00011662054917344067,-0.008694351223821757,-0.002157558245533466, ,0.0025598667892037692, ,0.008695133324017704, ,2.380482286644765e-05, ,0.1356806938672504,-0.2172481984848097,0.09155825899000002,3.0094700688898937,0.28256428151493085,-0.30098265632564525, ,0.010359473275142443,-0.007791698296215856,0.0023304771792245797,0.0030809012466023206,-0.007973687567173829,0.0023309885072762765, ,0.8395991325378418
0.010799359161732287,0.020729133112664038,-0.08148226277330377, ,0.011008286964411244,0.02084189644439242,-0.08162211960541285, ,0.0002755473266107495, ,0.0010617481237793474,0.0010377865469193333,-0.0013533758080338596,0.00031105552141303826,-0.007393890881936538,-0.0011817121865905535, ,0.002008963930260327, ,0.0074004309271045446, ,2.4109050705960548e-05, ,0.1358274257918607,-0.21739493040941996,0.09159066624000001,3.0094700688898937,0.28229100851539995,-0.3007598205182524, ,0.01036092787551959,-0.009043808636737613,0.0016714530054686646,0.0029219882292247233,-0.008470901360731824,0.003940465603787152, ,0.8556292057037354
0.01081936013501708,0.02074725049267241,-0.08150632654819745, ,0.011028446864136381,0.020861443160127058,-0.0816539171189446, ,0.00028025024918398276, ,0.001140897081569268,0.0010603468899320712,-0.0015155883891686886,-0.001742812973826673,-0.004884115881605381,0.0012697024591767211, ,0.002173244082726289, ,0.005185748258322213, ,2.441449425182975e-05, ,0.13602049411371628,-0.21754938506690444,0.09162048091000001,3.009679758833378,0.2821543720156345,-0.300648402614556, ,0.011049848527050961,-0.008980699574650646,0.0018407389933910864,0.0020961684520398568,-0.009609417181999775,0.007989441713084825, ,0.8729400634765625
0.010847546910128153,0.020773736090287848,-0.08154873545720631, ,0.011048672716687646,0.020880751077466075,-0.08168600957064379, ,0.0002659849239430821, ,0.0013063064906360705,0.001264164271893255,-0.0024719578948367983,-0.005078131475768431,-0.0010226047879779967,-0.00223848298941577, ,0.003068407369899783, ,0.0051800714034928915, ,2.4670094961991777e-05, ,0.1362753442985657,-0.21775017612163428,0.09167103622000002,3.010099138720347,0.28201773551586906,-0.3003736272305784, ,0.01125211176034797,-0.009186662852071563,0.0028237566956213446,0.0070274433925904605,-0.013130171346582977,0.011950611406450422, ,0.8894071578979492
0.010860753626293827,0.02078644222613999,-0.081573723293765, ,0.01106896434307678,0.020899821337566394,-0.08171839546491379, ,0.0002777346982211908, ,0.0013035427852379614,0.001246780592272396,-0.0023477039848862607,0.0010602745617494431,-0.004616701088230638,-0.003500569815061972, ,0.0029606417613186296, ,0.004736888326004958, ,2.4947256000216705e-05, ,0.13639118529167907,-0.21784284891612496,0.09169955460000001,3.010099138720347,0.28188109901610364,-0.30026220932688197, ,0.011498478318002034,-0.008696741371133066,0.002713134307613695,0.0070274433925904605,-0.0072735601843587966,0.007237752819068842, ,0.9045150279998779
0.010885612919840498,0.02080943592403368,-0.08161340899622371, ,0.01108932156463332,0.020918655079252845,-0.08175107330926684, ,0.0002690306653817602, ,0.0013171465083038115,0.001203884561026344,-0.0018656839871549241,0.005441404404788729,-0.006202925094218151,-0.00338774186881314, ,0.0025816641339532938, ,0.008251373315899068, ,2.5191815257678477e-05, ,0.1366228672779058,-0.2180127490393579,0.09174622104,3.010099138720347,0.2817444625163382,-0.2999874339429045, ,0.012501243783226293,-0.0090049772617393,0.0022501499533832464,0.0070274433925904605,-0.0033504539222857137,0.0059880495898341594, ,0.9205842018127441
0.01089686886880019,0.020818639835424375,-0.08162875881421126, ,0.01110974420300423,0.02093725343901956,-0.0817840416143225, ,0.0002889599330023147, ,0.0013371831760229038,0.0012010614229524203,-0.0018687698417336805,0.0015313704431717235,-0.004219834894534218,-0.0025696478749394243, ,0.0025928571324537954, ,0.0044891092600377585, ,2.5478373085155742e-05, ,0.13673098553814494,-0.21808997636810015,0.0917643691,3.010099138720347,0.28160782601657275,-0.299876016039208, ,0.01267997615693089,-0.009335696845440318,0.0022466588885754588,0.0070274433925904605,-0.0070935309568410446,0.009024122856521481, ,0.9395442008972168
0.010930929282132117,0.020842667124778676,-0.08167798899206485, ,0.011130232080153577,0.020955617551032625,-0.08181729889380422, ,0.0002681168640961698, ,0.0012718537710918873,0.0009452103884296394,-0.0017931889056404656,-0.024728115558565293,0.009571353286446291,0.0023334799446631917, ,0.002393023431717294, ,0.02651585380094679, ,2.570279371640594e-05, ,0.13704761758598816,-0.21831393562145265,0.09182010957,3.010099138720347,0.2807880070179801,-0.2992075086170295, ,0.011699891211210818,-0.008927783884102142,0.0020516243585780524,0.006593711060838785,-0.02993506992799766,0.02721518838687192, ,0.9552121162414551
0.010942371695970145,0.020852162249422063,-0.08169458205623925, ,0.01115078501836246,0.02097374854713151,-0.0818508436645374, ,0.0002874665736554753, ,0.0012545737539316384,0.0011216286774968923,-0.0018441970839427769,0.008020883315467018,-0.008187956914108318,-0.0036873360780978756, ,0.002496611519371925, ,0.011461989686188832, ,2.603099522221146e-05, ,0.13715573584622728,-0.21839116295019492,0.09183955392000001,3.010099138720347,0.28065137051821465,-0.2990960907133331, ,0.011832053424534542,-0.0077757990353954165,0.002209572967124428,0.006161331571963752,0.0,0.00265438578187069, ,0.9730260372161865
0.010975087994799737,0.020883065905877057,-0.08174806038597461, ,0.011171402840228481,0.02099164755683142,-0.08188467444644615, ,0.0002626649862052568, ,0.0012972963688572304,0.0011699237816370405,-0.0022458446637573935,0.008164133288300889,-0.007854806821339376,-0.00759652651409963, ,0.002845262338909653, ,0.01132921279227148, ,2.62894394330658e-05, ,0.13744919969544783,-0.2185842312720505,0.09190307213000001,3.010518518607316,0.2807880070179801,-0.29912582987688896, ,0.011553838132614737,-0.007275193948499674,0.002613422726825267,0.009745184808997848,0.0,0.0018230703016392715, ,0.9868941307067871
0.010987785050358245,0.02089569677771844,-0.08177010022340031, ,0.01119208536866569,0.021009315707324883,-0.08191878976255121, ,0.0002770495628553549, ,0.0012645441257831758,0.001188576865519847,-0.001995010989832966,0.009263215858030355,-0.009592084117783936,-0.007644216355651123, ,0.00264421172769051, ,0.013334738307274913, ,2.6574877055690105e-05, ,0.13756504068856118,-0.218669181333667,0.09192899793,3.010518518607316,0.2807880070179801,-0.29904415113674837, ,0.0115911740025004,-0.008131796774516174,0.002372830555638314,0.009075093923606265,0.0,3.494031389376639e-05, ,1.0000221729278564
0.01100003259898059,0.020905575906349144,-0.08178885619825754, ,0.01121283242690415,0.02102675412348394,-0.08195318813896713, ,0.00029491170510788844, ,0.001290774367357506,0.001103901860548428,-0.002091914273148145,0.007352966306318297,-0.007074093048106686,-0.005751234263807799, ,0.0026945877442292325, ,0.010203377181848307, ,2.6894363949024415e-05, ,0.13768088168167456,-0.2187309631966608,0.09195103486,3.010518518607316,0.2807880070179801,-0.29896247239660784, ,0.011757352336673707,-0.00690487315408171,0.002448702770176787,0.00846904618944936,0.0,0.0032715895381802383, ,1.013503074645996
0.0110279903329694,0.020927181273880314,-0.08183852832685314, ,0.011233643838489769,0.021043963927862383,-0.08198786810489982, ,0.0002797032747590631, ,0.0014128624094794236,0.0011815530823101495,-0.0026532184214699277,-0.005332210217719684,0.00902415776609244,0.00321157031765199, ,0.0032298321731111653, ,0.01048178844767433, ,2.7169566486384687e-05, ,0.13792800913364975,-0.21888541785414528,0.09200677533000001,3.010518518607316,0.2803780975186838,-0.29813814624467516, ,0.012178770677040318,-0.007264461893069334,0.0030026034910461833,0.007390294555633287,-0.009184454449130271,0.023876512042902844, ,1.0294220447540283
0.011042705328520292,0.020941941202849458,-0.08186648924513885, ,0.011254519427284039,0.021060946240697112,-0.08202282819264393, ,0.0002889105016700085, ,0.001212666775320203,0.0011062694016873886,-0.0023037554744685944,-0.0018829410213003703,-0.010697787589356833,-8.864546026098041e-05, ,0.0028287244445543455, ,0.010862233938366552, ,2.7458312134897763e-05, ,0.13805157285963734,-0.21897809064863596,0.09203918258,3.010728208550801,0.2803780975186838,-0.297974788764394, ,0.010571609868551553,-0.007375126789775342,0.0026224582680276593,0.00012848892960409914,-0.009184454449130271,0.0011677366640712328, ,1.0428800582885742
0.011056226080707205,0.020952302086881196,-0.08188931189190429, ,0.011275459017463766,0.021077702179910483,-0.08205806693758037, ,0.0003037540606013294, ,0.0012757591656442054,0.0012568706864203249,-0.0020804498220109912,0.018054889197911397,-0.005474359137938829,-0.00018721892569028512, ,0.002745096871335047, ,0.018866574460696808, ,2.777280124754922e-05, ,0.13828325484586407,-0.21912482257324623,0.09209103418,3.0111475884377694,0.2802414610189184,-0.2979450496008382, ,0.011623903602711089,-0.007139440942801688,0.002680715503197577,0.013196801692287848,0.010927851844469608,0.003117008810496873, ,1.0559520721435547
0.011082553039629022,0.020976917146331167,-0.08193308900603938, ,0.011296462433520633,0.021094232861112377,-0.08209358287817307, ,0.00029202480840190525, ,0.0013602328653990795,0.001143777672321094,-0.0024969917883311513,-0.008785256339337084,0.0008407291168570762,0.018907219980815362, ,0.0030648701118979335, ,0.008825392586096303, ,2.805268517816665e-05, ,0.13839909583897744,-0.21919432716911427,0.09211695998000001,3.0113572783812543,0.2803780975186838,-0.2980564675045346, ,0.012311486969184066,-0.0075055727680062015,0.0028322922332859176,-0.011189649633835787,-0.011252972630870954,0.01955729261326973, ,1.072174072265625
0.011110724599049127,0.02100082023030925,-0.08198250913464346, ,0.011317529500261207,0.021110539397601776,-0.08212937455596775, ,0.0002763621081434009, ,0.0012884277503890985,0.0010749608228767587,-0.0022248167701305905,-0.005564768279513403,-0.0024162693308963853,0.017225299200227813, ,0.002786646102279029, ,0.006066712736696839, ,2.829067195586357e-05, ,0.13865394602382686,-0.2193333363608503,0.09217399674000001,3.0113572783812543,0.2803780975186838,-0.2980564675045346, ,0.011928718953644238,-0.00713781947250307,0.0025510588597053175,-0.011189649633835787,-0.008471889964704757,0.014970473221266479, ,1.0885450839996338
0.01112442723432323,0.021010407075460744,-0.08200446974835784, ,0.011338660042806462,0.02112662290036917,-0.08216544051558798, ,0.00029208458037427757, ,0.001345854808011497,0.0010532201950067298,-0.0021887787039566093,-0.005399106018382676,-0.007545022964283665,0.014836837837959301, ,0.00277693178855939, ,0.00927780778411951, ,2.855662967029639e-05, ,0.13877750974981443,-0.21941056368959255,0.09219862625000001,3.0113572783812543,0.2801048245191529,-0.29775195295700124, ,0.012659677369059603,-0.007024437859042167,0.0025171952465233884,-0.011189649633835787,-0.009147002345358006,0.010012503241680668, ,1.1019020080566406
0.01114020857953503,0.021018483733019712,-0.08203090102521485, ,0.011359853886591569,0.021142484478098158,-0.08220177930473305, ,0.0003046631452983295, ,0.0014753126649358415,0.0008050627181474737,-0.0026051731166209396,-0.04712582043449702,0.011642933148122312,0.021347024806072618, ,0.0031002581194209543, ,0.04854277334265217, ,2.884273131681259e-05, ,0.1389165189415505,-0.21947234555258635,0.09222714463000001,3.0113572783812543,0.27969491501985655,-0.29733602050577135, ,0.012994240936392,-0.00685326316312573,0.002789634241681261,-0.011189649633835787,-0.04623573334465245,0.03785337837454772, ,1.1158361434936523
0.011167998890608648,0.02104034618210104,-0.08207985453198419, ,0.011381110857365654,0.021158125237167726,-0.08223838947417576, ,0.00029055454579670107, ,0.0015061671414379903,0.0009517192769377581,-0.00251671317498388,-0.019907988463820754,0.0034835912351783398,-0.0035331191680674045, ,0.003083529510995453, ,0.020210477789217828, ,2.9091668092015612e-05, ,0.13917136912639988,-0.21960363201144817,0.0922828851,3.0111475884377694,0.2795582785200912,-0.29722460260207495, ,0.013160025177987904,-0.006425611174368473,0.0027945283368421055,0.009917521263451705,-0.024312943327491284,0.020194710781239408, ,1.1312811374664307
0.011183137562149984,0.021051246747467726,-0.08210198332177998, ,0.011402430781191459,0.02117354628165393,-0.08227526957775957, ,0.0003050816587262501, ,0.0014668649310789453,0.0009153847854174095,-0.002268322688942752,-0.012739061249278408,0.0004896374158205386,-0.0074885548556842, ,0.002852176336164262, ,0.012748467604060757, ,2.9426308172238192e-05, ,0.1393026555852617,-0.21966541387444197,0.09230881090000001,3.011566968324739,0.2795582785200912,-0.29722460260207495, ,0.013105502217714513,-0.0059881269086431805,0.002556381242176216,0.012631624034491924,-0.017916961763871083,0.015068238196748794, ,1.142078161239624
0.011198238161783062,0.021062581984788654,-0.08212670237534904, ,0.011423813484445206,0.021188748713331932,-0.08231241817239568, ,0.0003182650261309156, ,0.0016105310116747073,0.00108117588607426,-0.002879001740545768,-0.008650033430443481,-0.001922192345280733,-0.008001127376288084, ,0.003471512992667603, ,0.008861032759348835, ,2.9781356896864176e-05, ,0.13944166477699774,-0.21972719573743574,0.09233732928,3.011566968324739,0.2795582785200912,-0.2971429238619344, ,0.013841444217979983,-0.005899984810923076,0.0032114539354838713,0.012631624034491924,-0.014128323047370203,0.012590487167870892, ,1.1570541858673096
0.011231909311874708,0.021087582004684722,-0.0821885566760441, ,0.011445258793816106,0.02120373363167806,-0.08234983381806117, ,0.0002915810666608092, ,0.0016241693065259157,0.0011629805653939665,-0.003079488630295074,-0.008226232118168713,-0.012487479320052557,0.023001512985306356, ,0.0036706538866885254, ,0.014953529160495395, ,3.007432256868448e-05, ,0.13972740589334406,-0.2198430367305491,0.09240732894,3.0119863482117077,0.2795582785200912,-0.2970612451217939, ,0.01469447840793911,-0.006010398636737577,0.003435895496117343,-0.020361299294234678,-0.009908354586958963,0.0090771777014882, ,1.1697289943695068
0.011248501566620153,0.02109856983562527,-0.08221450440215232, ,0.011466766536306353,0.02121850213387198,-0.08238751507779558, ,0.00030324255479960974, ,0.0015335277888622104,0.001036931192819879,-0.002592449476864016,-0.007435493742884603,-0.011438049113994007,0.023499382961098533, ,0.0031855498847056197, ,0.013642416744019977, ,3.0385035865343398e-05, ,0.13988186055082855,-0.2198970958606687,0.09243714361000001,3.0119863482117077,0.2795582785200912,-0.2968978876415127, ,0.014437386514296482,-0.0057011840623243494,0.002928090352941177,-0.020361299294234678,-0.008641875733011114,0.009805805463256987, ,1.1815121173858643
0.011263939265609098,0.021109968596126443,-0.08224487155685178, ,0.011488336539230605,0.02123305531479795,-0.0824254605176992, ,0.00031323609227231706, ,0.0014990817405318517,0.0011682040963828652,-0.002987282278659473,0.0018792110881132862,-0.014052643890711449,0.021184348290163357, ,0.003540593493751386, ,0.014177737280502306, ,3.070960510668263e-05, ,0.14001314700969036,-0.2199588777236625,0.09247084715000001,3.0119863482117077,0.2794216420203257,-0.29670479099767577, ,0.013435783881986518,-0.005327940072508401,0.003354846571187869,-0.019216627556181275,0.0,0.004110375501497068, ,1.1924171447753906
0.011280599704070277,0.021119223347049566,-0.08227728948837801, ,0.011509968630215826,0.021247394267047755,-0.08246366870692962, ,0.00032214143186223783, ,0.0017265245105194367,0.0012221539603565574,-0.0033182219126070027,0.001492222250362134,-0.0041631520565511395,-0.0074450126110588415, ,0.003935116751704436, ,0.004422506290347479, ,3.104544854558467e-05, ,0.14015987893430062,-0.22000521412090784,0.09250584698000001,3.0117766582682233,0.2791483690207948,-0.29631859771000174, ,0.01458606541015536,-0.005278432463140645,0.0037078239106145255,0.012272814806872772,-0.003697634984931227,0.009437644738517173, ,1.2045421600341797
0.011298669039028469,0.02113176154183991,-0.08231239735346586, ,0.01153166263720114,0.02126152008092175,-0.08250213821769983, ,0.00032729939018329423, ,0.0016955869135617564,0.0012380152725105086,-0.003313966913343876,0.0006971432398318482,-0.0012646077002445234,-0.0041391842985156945, ,0.003923018416876103, ,0.0014440363335646471, ,3.1384841341354634e-05, ,0.1403143335917851,-0.22006699598390164,0.09254473568,3.0117766582682233,0.2790117325210294,-0.29612550106616475, ,0.014263781986843646,-0.005493511818943297,0.0037035134898860734,0.010475518379935204,-0.0038132270575149075,0.012864865934030106, ,1.215752124786377
0.011316773548594153,0.02114395194591983,-0.08234591776019495, ,0.01155341838843723,0.02127543384443125,-0.0825408676252751, ,0.00033360713384951777, ,0.0018745647233669185,0.0012532037884773423,-0.003586836523417066,0.0004018862939060958,0.0013143814865408335,-0.009038118984660264, ,0.0042367332796937164, ,0.0013744492321302202, ,3.172992518343031e-05, ,0.14061552017387988,-0.22016739151126655,0.09262121679000002,3.012405728098677,0.2790117325210294,-0.29596214358588363, ,0.015254290557542322,-0.005601798082060936,0.0036243029624573385,0.019317103147485193,-0.0038132270575149075,0.0015355128850333896, ,1.2268600463867188
0.01135531726675345,0.021170561420940644,-0.082417456295231, ,0.011575235712486469,0.02128913664330086,-0.08257985550797105, ,0.00029798944684331855, ,0.0018035576166741101,0.0011232249660994122,-0.0032766117689254017,0.00237340292648621,-0.008367655850210758,-0.017039004525410906, ,0.003905206663595753, ,0.008697741402303175, ,3.1999441278065056e-05, ,0.14079314302998702,-0.22022145064138612,0.09266269807000001,3.012405728098677,0.2790117325210294,-0.29579878610560256, ,0.015308427417078689,-0.004195754840607563,0.0036542352649690303,0.019317103147485193,-0.0038132270575149075,0.0036780014681409186, ,1.2398290634155273
0.011374031836057183,0.021183839364887595,-0.08245330544844301, ,0.011597114438222278,0.021302629560969837,-0.08261910044715043, ,0.00030226633896350503, ,0.0018929287580673703,0.0012660062377513087,-0.003555421401552566,0.0005887627172688498,0.0020259345432333425,-0.009590145323687817, ,0.004222199950234678, ,0.002109751583142393, ,3.227198750904816e-05, ,0.14095532042034575,-0.2202755097715057,0.09270288306,3.012405728098677,0.2790117325210294,-0.29588046484574315, ,0.01593032425020493,-0.005085316025149809,0.003969302646399203,0.017869138850275294,-0.0038132270575149075,0.016700471764929718, ,1.250910997390747
0.011393295072885256,0.021196544413416132,-0.08248922364972787, ,0.011619054394829086,0.021315913678594152,-0.08265860102722075, ,0.00030643920917540013, ,0.0018945869882242149,0.0013383735765783184,-0.003796920548114982,-0.0029018529471448807,-0.005790580969142739,0.01823860188884197, ,0.004449416741004299, ,0.006477003759293733, ,3.2547280244589266e-05, ,0.14111749781070446,-0.22032184616875103,0.09274306805000002,3.0126154180421616,0.2790117325210294,-0.29588046484574315, ,0.016401130583904387,-0.005403772470641329,0.004219552720529802,-0.011401601209802636,-0.0038132270575149075,0.015608300914926293, ,1.261789083480835
0.011412289664472542,0.02120953264987409,-0.08252947327057081, ,0.011641055411802034,0.021328990075048862,-0.08269835583563179, ,0.0003084236767211344, ,0.0019401125538007448,0.001260600064570621,-0.00382623143995691,-0.0019509404327154975,-0.00028949085576751663,-0.012537108606540604, ,0.004471375210863592, ,0.0019723013733953586, ,3.2882938541656645e-05, ,0.14127195246818897,-0.22036818256599638,0.09278584562000002,3.012405728098677,0.2788750960212639,-0.29568736820190605, ,0.015932998918480656,-0.0047065237509810965,0.004222908674443267,0.01914774440244256,-0.006593950892303281,0.014133958744731785, ,1.2705261707305908
0.011427903654057978,0.021218392975399056,-0.0825604509254147, ,0.011663117318946571,0.021341859826929318,-0.08273836346287308, ,0.00031972238357988144, ,0.0019459950570185356,0.0012291434082257148,-0.0037118612986610884,-0.001018373099289832,-0.0034894763645411074,-0.011523675010753145, ,0.004367562773495452, ,0.0036350417278790824, ,3.323469672747581e-05, ,0.141410961659925,-0.22040679623036752,0.09282084545000001,3.012405728098677,0.27873845952149856,-0.2954125928179286, ,0.01625782791818927,-0.00443598898618131,0.0041138459504132235,0.016881755499597976,-0.005721649119061878,0.01125839333792386, ,1.2875301837921143
0.011449983628295128,0.021233169710427564,-0.08260218876506303, ,0.011685239946378321,0.0213545240085542,-0.08277862250247106, ,0.0003181214619726771, ,0.0017610892318461679,0.0010875037689203702,-0.003306305819024192,-0.0032321135474874664,-0.004002999339278831,0.002023437988386192, ,0.0039007381223114387, ,0.0051449549365384555, ,3.3578263842620104e-05, ,0.14159630724890637,-0.22046085536048707,0.09286751189,3.0126154180421616,0.27873845952149856,-0.29533091407778805, ,0.01513507839848019,-0.003918222633709269,0.0036660095558112777,0.0035216292275788296,-0.005309349535527414,0.01267369381827264, ,1.2963600158691406
0.011469598111175287,0.021244677814863576,-0.08263565650546315, ,0.011707423124522758,0.021366983691966563,-0.08281913155098636, ,0.0003243186039643745, ,0.0019288455043010876,0.0011342606469986537,-0.003417416924178541,-0.0012832334430646528,-0.004744126344694249,-0.006242390983165381, ,0.00408481708629092, ,0.004914613146292399, ,3.392818197999376e-05, ,0.14176620737213932,-0.2204994690248582,0.09290510430000001,3.0128251079856456,0.27873845952149856,-0.29533091407778805, ,0.01668957818474688,-0.004024013698047083,0.0038079874539803976,0.011628764781595718,-0.004796935387170328,0.011495393234268587, ,1.3051459789276123
0.011488943627452142,0.02125675576118334,-0.08267171230202919, ,0.011729666684114915,0.021379239946936007,-0.08285988920801203, ,0.00032918158167467073, ,0.0020391567644926717,0.0012389649393393307,-0.0039542879564752505,0.0004819763020136249,-0.0037963289750162056,-0.016511917201926473, ,0.004618396656179885, ,0.0038268020428864095, ,3.428187275468242e-05, ,0.14192838476249803,-0.22053808268922934,0.09294528929000001,3.0130347979291305,0.27873845952149856,-0.2951675565975069, ,0.016781068356935595,-0.003737888642688081,0.004365253910660455,0.021639332467487074,-0.004386253871792414,0.010112383443967329, ,1.31423020362854
0.011508169202406193,0.021268693318338916,-0.0827105183895338, ,0.011751970456199086,0.021391293840961015,-0.08290089407616992, ,0.0003327353927077354, ,0.002153293503115014,0.0013145681020884654,-0.004282646983360477,-0.0001416749549060137,-0.001278961313863342,-0.013615177263252752, ,0.004970495688527693, ,0.001286783740395813, ,3.463687802090566e-05, ,0.14209056215285676,-0.22056897362072622,0.09298806686000001,3.0130347979291305,0.27873845952149856,-0.29508587785736634, ,0.017596317737524715,-0.0036944555530405965,0.004715456341030197,0.0205966723977392,-0.004051501331161716,0.01415566617111612, ,1.324972152709961
0.01152495251334001,0.02127978247705719,-0.08274583050335264, ,0.011774334272128675,0.02140314643927048,-0.08294214476110871, ,0.00034051316654104075, ,0.0021195192502012224,0.001366159032119894,-0.004501488246782634,-0.0004778557370289354,0.00014671256048262105,-0.010563571204316467, ,0.0051596655694859245, ,0.0004998688152707607, ,3.500078010100912e-05, ,0.1422295713445928,-0.2205998645522231,0.09302695556000001,3.0130347979291305,0.27873845952149856,-0.29500419911722575, ,0.016885576789763487,-0.0037205173849923353,0.0049345760594795545,0.01814494998091311,-0.0038047767005776356,0.015557865352089455, ,1.3343110084533691
0.011551786475850773,0.021295182126507023,-0.08280460183177062, ,0.01179675796356583,0.021414798804826038,-0.0829836398715016, ,0.0003261499642742854, ,0.002255876022702948,0.0013095717720239132,-0.004773482615754795,0.002759730619583103,-0.00876110961538308,-0.011375140500564755, ,0.0054396774848148085, ,0.009185485959218054, ,3.533377982170724e-05, ,0.14244580786507108,-0.22063075548372002,0.09309047377000002,3.0130347979291305,0.2786018230217331,-0.29472942373324823, ,0.018148200718774293,-0.001971294398314541,0.005208898469587967,0.015329934303484543,0.0,0.006931849394724958, ,1.3432321548461914
0.011572952605748523,0.021309113998828108,-0.08285206742283874, ,0.01181924136248111,0.021426251998323393,-0.0830253780190423, ,0.0003231346861218666, ,0.002125955350823123,0.0014023388175203515,-0.0047304981487540235,0.0026308015670076955,-0.0027035245718342073,-0.006959906117492066, ,0.005372509008664675, ,0.0037722883806316837, ,3.5656692018572314e-05, ,0.14261570798830403,-0.2206616464152169,0.09314232537000001,3.0130347979291305,0.2786018230217331,-0.2945660662529671, ,0.01671309291272821,-0.003176440750941527,0.00517337171809029,0.01363756838490384,0.0,0.012669123447799382, ,1.352065086364746
0.011596132005392284,0.021322751890641697,-0.08290067468557455, ,0.011841784301153332,0.021437507078195393,-0.08306735781844482, ,0.0003182720067279024, ,0.0022739322810758703,0.0013188621853125102,-0.004703132511557089,-0.0006163103611082263,-0.0056368098103747166,0.007253187678016202, ,0.005387914337109629, ,0.005670402190183947, ,3.596647198092436e-05, ,0.1428010535772854,-0.2206848146138396,0.09319547326000001,3.013244487872615,0.2786018230217331,-0.29440270877268593, ,0.018892482890398323,-0.0022967917710624247,0.0051466273085621975,0.0,0.0,0.015232764548399783, ,1.361070156097412
0.011612526740557981,0.021332056090413245,-0.08293379142180664, ,0.011864386612169214,0.021448565100612785,-0.08310957788743828, ,0.00032849448379686306, ,0.0023724441645874422,0.001340966745563072,-0.005071632896281502,0.00014592402942394458,0.0008775102532565669,-0.006517564978122935, ,0.005757442432316255, ,0.0008895587173280254, ,3.6289814530614673e-05, ,0.14293234003614722,-0.22070026007958804,0.09323176938000001,3.0134541778160995,0.2786018230217331,-0.2943210300325454, ,0.018945286795462323,-0.0015255677552974652,0.005519338711018712,0.01582408587663106,0.0,0.018798159962488757, ,1.3705470561981201
0.011612526740557981,0.021332056090413245,-0.08293379142180664, ,0.011887048128423217,0.021459427119486733,-0.08315203684676617, ,0.00037311718930982174, ,0.0023724441645874422,0.001340966745563072,-0.005071632896281502,0.00014592402942394458,0.0008775102532565669,-0.006517564978122935, ,0.005757442432316255, ,0.0008895587173280254, ,3.668626310659269e-05, ,0.14293234003614722,-0.22070026007958804,0.09323176938000001,3.0134541778160995,0.2786018230217331,-0.2943210300325454, ,0.018945286795462323,-0.0015255677552974652,0.005519338711018712,0.01582408587663106,0.0,0.018798159962488757, ,1.379384994506836
0.011644777789842003,0.021350463211442475,-0.08299609666463029, ,0.011909768683117066,0.021470094186471025,-0.08319473332018314, ,0.00035211967373922605, ,0.002332458441793708,0.0011690371669689098,-0.003966755773577445,-0.0016052161640781575,0.011350862104490772,-0.00012139993358226912, ,0.0047478586381293425, ,0.011463803403165706, ,3.7105053564065785e-05, ,0.14319491295387085,-0.22073887374395917,0.09330047275000002,3.0138735577030684,0.2786018230217331,-0.2940759938121237, ,0.020324896457158015,-0.0023659896172199125,0.004411191226806979,0.01574933082368053,0.0,0.032435658791764924, ,1.3859450817108154
0.011666381043794595,0.021359909416496115,-0.08303249111475787, ,0.011932548109759675,0.021480567350963837,-0.08323766593445232, ,0.00035707135252093224, ,0.002342906112749012,0.001041668440629082,-0.0038191214800487637,-0.001485791039418095,0.005566478560445059,-0.0031121007935139442, ,0.004599996855730357, ,0.005761359020597556, ,3.752804184604295e-05, ,0.14338798127572647,-0.2207465964768334,0.09334065774000001,3.0138735577030684,0.2786018230217331,-0.29391263633184256, ,0.020774286680926176,-0.0012703717527006316,0.004257902036888533,0.01574933082368053,0.0,0.025875385885442123, ,1.3924951553344727
0.011666381043794595,0.021359909416496115,-0.08303249111475787, ,0.011955386242166792,0.021490847660109096,-0.08328083331934275, ,0.0004029177073605498, ,0.002342906112749012,0.001041668440629082,-0.0038191214800487637,-0.001485791039418095,0.005566478560445059,-0.0031121007935139442, ,0.004599996855730357, ,0.005761359020597556, ,3.802518839025943e-05, ,0.14338798127572647,-0.2207465964768334,0.09334065774000001,3.0138735577030684,0.2786018230217331,-0.29391263633184256, ,0.020774286680926176,-0.0012703717527006316,0.004257902036888533,0.01574933082368053,0.0,0.025875385885442123, ,1.3990981578826904
0.011690623762298617,0.021371139488201546,-0.083073453266586, ,0.01197828291446069,0.02150093615879955,-0.08332423410762711, ,0.0004030955144307856, ,0.00241001509423482,0.0011128818530332448,-0.004229019406214661,-0.004148005570798462,0.01658818144505567,0.002648827913028703, ,0.004993123662737644, ,0.01709893892955858, ,3.851755627656268e-05, ,0.14360421779620475,-0.22076204194258184,0.09338602789000001,3.0138735577030684,0.2786018230217331,-0.2936676001114209, ,0.02075157261282982,-0.0010429174842254833,0.004660272533645407,0.01574933082368053,0.0,0.0389441574781699, ,1.4061319828033447
0.011705031810411574,0.0213783163047134,-0.08310063579572023, ,0.012001237961069932,0.021510833889677932,-0.08336786693507874, ,0.0004203706410484884, ,0.0026237416550963883,0.0012532591088229997,-0.004913720203950604,-0.0033429998018307916,0.010599853275446242,0.0001888256127826832, ,0.005709581850647919, ,0.011114519075133545, ,3.9034196907442004e-05, ,0.14372778152219234,-0.22076976467545606,0.09341584256,3.0138735577030684,0.2786018230217331,-0.2936676001114209, ,0.02208960464582653,-0.0008332680370762804,0.005381355243243244,0.01574933082368053,0.0,0.033600509282949984, ,1.4131770133972168
0.011705031810411574,0.0213783163047134,-0.08310063579572023, ,0.012024251216729103,0.021520541893138997,-0.08341173044046919, ,0.00046787714772598645, ,0.0026237416550963883,0.0012532591088229997,-0.004913720203950604,-0.0033429998018307916,0.010599853275446242,0.0001888256127826832, ,0.005709581850647919, ,0.011114519075133545, ,3.96257222986792e-05, ,0.14405213630290978,-0.22079293287407872,0.09350399028,3.0138735577030684,0.2786018230217331,-0.2932592064107181, ,0.02392158849469896,-0.0017447520882813991,0.007142964807174889,0.01574933082368053,0.0,0.043558590617474385, ,1.4198801517486572
0.011744261288206782,0.021399565546008456,-0.0831814615585256, ,0.01204732251647855,0.021530061207331763,-0.0834558232655658, ,0.000429126522130496, ,0.0030235390174157854,0.0017158267285026965,-0.006572773999818765,-0.004330129014868731,0.017433692373319,0.004846846493961299, ,0.007435536806766102, ,0.01796339708367502, ,4.014627490813299e-05, ,0.14405213630290978,-0.22079293287407872,0.09350399028,3.0138735577030684,0.2786018230217331,-0.2932592064107181, ,0.02392158849469896,-0.0017447520882813991,0.007142964807174889,0.01574933082368053,0.0,0.043558590617474385, ,1.4267611503601074
0.011777226353618763,0.021417881654992723,-0.08325581653932793, ,0.012070451695664014,0.021539392868161346,-0.08350014405512875, ,0.000400552132837494, ,0.0032625333372521374,0.0019082026784965171,-0.007531152963228117,-0.0012097715912509433,-0.0014721633431993226,-0.0015563461183173185, ,0.008426364945481681, ,0.001905462669439607, ,4.06139098131632e-05, ,0.1443069864877592,-0.22080065560695294,0.09358436026000001,3.0140832476465533,0.2786018230217331,-0.29309584893043694, ,0.025131605285611962,-0.0014272408869834485,0.008143564171779142,0.013083061733777943,7.240611555981623e-05,0.02388394625859913, ,1.433434009552002
0.011810800544212942,0.021436400622335698,-0.083334078551621, ,0.012093638589936498,0.02154853790929109,-0.08354469145690913, ,0.00037004043982832353, ,0.003308440389255246,0.0018425650367838767,-0.00741717562293145,-0.002377565435161546,-0.003790454442886354,0.00322970513579669, ,0.008327984026488182, ,0.004474409439611926, ,4.102620002975595e-05, ,0.1445618366726086,-0.22080065560695294,0.09366861911,3.0142929375900374,0.2786018230217331,-0.2928508127100153, ,0.0259707010285908,-0.0009816745839362944,0.008024590186397985,0.007869499535290198,0.0,0.023505949030968247, ,1.4409279823303223
0.011844165008247242,0.021451346971938075,-0.08340144892368659, ,0.012116883035251871,0.02155749736214405,-0.08358946412164536, ,0.00034784011019095454, ,0.003276577575992012,0.00161381514674757,-0.006478895807375188,-0.004335433837653272,0.004860764642455837,0.006110303594421221, ,0.007437502996449101, ,0.006513294715752841, ,4.1397706658023205e-05, ,0.14482440959033224,-0.22080065560695294,0.09374121135,3.0147123174770067,0.2784651865219676,-0.2925760373260377, ,0.027097927343937973,-0.0007560675094597059,0.007063774509977828,0.009897587039841508,0.0,0.03422703813222583, ,1.4511570930480957
0.011844165008247242,0.021451346971938075,-0.08340144892368659, ,0.012140184867870626,0.021566272255905298,-0.08363446070306178, ,0.0003938655449693327, ,0.003276577575992012,0.00161381514674757,-0.006478895807375188,-0.004335433837653272,0.004860764642455837,0.006110303594421221, ,0.007437502996449101, ,0.006513294715752841, ,4.1841246830712785e-05, ,0.14482440959033224,-0.22080065560695294,0.09374121135,3.0147123174770067,0.2784651865219676,-0.2925760373260377, ,0.027097927343937973,-0.0007560675094597059,0.007063774509977828,0.009897587039841508,0.0,0.03422703813222583, ,1.4580950736999512
0.011877044826450871,0.02146639400581251,-0.0834644836638769, ,0.012163543924357645,0.021574863617523872,-0.08367967985786472, ,0.0003743752017335672, ,0.003274848222804074,0.0015178996308931056,-0.006104919411495572,0.0034451459431560742,-0.03214592953472571,-0.012933999520774456, ,0.0070921570197453945, ,0.032330014038678065, ,4.2248532364659476e-05, ,0.14510242797380432,-0.22080065560695294,0.09380991472000001,3.0147123174770067,0.2784651865219676,-0.292331001105616, ,0.02767481526931198,-0.0006107238727154759,0.006681548456375841,0.009897587039841508,0.0,-0.007627392132829644, ,1.4650890827178955
0.011877044826450871,0.02146639400581251,-0.0834644836638769, ,0.012186960041581906,0.021583272471714997,-0.08372512024574108, ,0.0004214729459494126, ,0.003274848222804074,0.0015178996308931056,-0.006104919411495572,0.0034451459431560742,-0.03214592953472571,-0.012933999520774456, ,0.0070921570197453945, ,0.032330014038678065, ,4.279824832097284e-05, ,0.14510242797380432,-0.22080065560695294,0.09380991472000001,3.0147123174770067,0.2784651865219676,-0.292331001105616, ,0.02767481526931198,-0.0006107238727154759,0.006681548456375841,0.009897587039841508,0.0,-0.007627392132829644, ,1.4695241451263428
0.011910581633969934,0.021482092619493832,-0.08352725043547476, ,0.012210433056716128,0.021591499840961384,-0.08377078052935553, ,0.000401481908007999, ,0.0033305043709729023,0.001447678148268004,-0.006024989169596201,0.001692209573980327,-0.027599011547956128,-0.010258151660336135, ,0.007034808162259566, ,0.027650840922604905, ,4.3311883136202195e-05, ,0.14538816909015062,-0.2208083783398272,0.09387861809,3.0147123174770067,0.2784651865219676,-0.29216764362533487, ,0.028420767163363513,0.0,0.006595781167701865,0.009897587039841508,0.0,-0.0015464733437936468, ,1.4740240573883057
0.011910581633969934,0.021482092619493832,-0.08352725043547476, ,0.012233962807236634,0.021599546745515615,-0.08381665937434708, ,0.00044958690910889507, ,0.0033305043709729023,0.001447678148268004,-0.006024989169596201,0.001692209573980327,-0.027599011547956128,-0.010258151660336135, ,0.007034808162259566, ,0.027650840922604905, ,4.390015403220947e-05, ,0.14538816909015062,-0.2208083783398272,0.09387861809,3.0147123174770067,0.2784651865219676,-0.29216764362533487, ,0.028420767163363513,0.0,0.006595781167701865,0.009897587039841508,0.0,-0.0015464733437936468, ,1.4784400463104248
0.011944603118328904,0.02149606921413018,-0.08358498105889799, ,0.012257549130922973,0.021607414203402155,-0.08386275544932764, ,0.000433002916171555, ,0.003593452405666716,0.0014781460389755338,-0.006109299615739111,-0.0011144752619722197,-0.008706183242465373,-0.009693746011341809, ,0.007240259504962583, ,0.00877722468952418, ,4.445783191283489e-05, ,0.14568163293937114,-0.2208083783398272,0.0939421363,3.014922007420491,0.2784651865219676,-0.2921676436253349, ,0.031032354989689596,0.0,0.006715350556492412,0.019768103410490564,0.0,0.020965328905477254, ,1.4832282066345215
0.011944603118328904,0.02149606921413018,-0.08358498105889799, ,0.012281191865857691,0.021615103230419257,-0.08390906742587842, ,0.0004821753366354221, ,0.003593452405666716,0.0014781460389755338,-0.006109299615739111,-0.0011144752619722197,-0.008706183242465373,-0.009693746011341809, ,0.007240259504962583, ,0.00877722468952418, ,4.509110030705349e-05, ,0.14568163293937114,-0.2208083783398272,0.0939421363,3.014922007420491,0.2784651865219676,-0.2921676436253349, ,0.031032354989689596,0.0,0.006715350556492412,0.019768103410490564,0.0,0.020965328905477254, ,1.4877691268920898
0.011978076979612572,0.021510180283386013,-0.08364679990601792, ,0.012304890850426,0.021622614840140646,-0.08395559397854832, ,0.00046346803011488924, ,0.0037887710439034597,0.0017452437122304964,-0.007311627640617436,-0.002204432247297338,-0.005451735485745639,-0.0063468233120711195, ,0.00841787148828267, ,0.005880554433309637, ,4.5690274993250574e-05, ,0.14596737405571747,-0.22080065560695294,0.09400954338,3.014922007420491,0.2784651865219676,-0.2920042861450538, ,0.031236649624249765,6.63051625039487e-05,0.007968389954977489,0.018335930947870064,0.0,0.025009915706497424, ,1.4922900199890137
0.011978076979612572,0.021510180283386013,-0.08364679990601792, ,0.012328645923315569,0.021629950043918,-0.08400233378485043, ,0.0005134663755540528, ,0.0037887710439034597,0.0017452437122304964,-0.007311627640617436,-0.002204432247297338,-0.005451735485745639,-0.0063468233120711195, ,0.00841787148828267, ,0.005880554433309637, ,4.6365612314158653e-05, ,0.14596737405571747,-0.22080065560695294,0.09400954338,3.014922007420491,0.2784651865219676,-0.2920042861450538, ,0.031236649624249765,6.63051625039487e-05,0.007968389954977489,0.018335930947870064,0.0,0.025009915706497424, ,1.4966850280761719
0.01202310583738674,0.021531650689362213,-0.08374288240332248, ,0.012352456923516216,0.021637109850882533,-0.08404928552526014, ,0.00046203532961926376, ,0.004210048885699155,0.0021592345956428197,-0.009233820482718492,-0.004989512325898648,-0.004124484957972514,0.005754722926733089, ,0.010375463669931532, ,0.006473526263969764, ,4.6954614076504664e-05, ,0.1463226197679318,-0.2207852101412045,0.09411324658,3.0151316973639757,0.2784651865219676,-0.2918409286647727, ,0.033065136431522923,0.00032817264540173434,0.00997420884157796,0.008616328161752323,0.0,0.03108010338234922, ,1.5011320114135742
0.01202310583738674,0.021531650689362213,-0.08374288240332248, ,0.01237632369031965,0.0216440952679466,-0.08409644788321208, ,0.0005122647591364436, ,0.004210048885699155,0.0021592345956428197,-0.009233820482718492,-0.004989512325898648,-0.004124484957972514,0.005754722926733089, ,0.010375463669931532, ,0.006473526263969764, ,4.7619726208433814e-05, ,0.1463226197679318,-0.2207852101412045,0.09411324658,3.0151316973639757,0.2784651865219676,-0.2918409286647727, ,0.033065136431522923,0.00032817264540173434,0.00997420884157796,0.008616328161752323,0.0,0.03108010338234922, ,1.5056111812591553
0.01202310583738674,0.021531650689362213,-0.08374288240332248, ,0.012400246063319142,0.021650907299806916,-0.08414381954509752, ,0.0005632117548541053, ,0.004210048885699155,0.0021592345956428197,-0.009233820482718492,-0.004989512325898648,-0.004124484957972514,0.005754722926733089, ,0.010375463669931532, ,0.006473526263969764, ,4.8361362186939735e-05, ,0.1463226197679318,-0.2207852101412045,0.09411324658,3.0151316973639757,0.2784651865219676,-0.2918409286647727, ,0.033065136431522923,0.00032817264540173434,0.00997420884157796,0.008616328161752323,0.0,0.03108010338234922, ,1.5100212097167969
0.012071701747686266,0.021556739432799114,-0.0838510180115227, ,0.012424223882409302,0.021657546948945023,-0.08419139920026263, ,0.0005002932784169699, ,0.004743500062293586,0.0025870433498137494,-0.011294110675702471,-0.0011455433743419608,-0.005475707269361319,-0.019876478013590097, ,0.012520004875790238, ,0.005594234170852738, ,4.899891440501728e-05, ,0.14668558821302033,-0.22077748740833028,0.09422991268000001,3.015760767194429,0.2784651865219676,-0.29159589244435097, ,0.034952832986545404,0.0009401863803785034,0.012131615780654989,0.03253547950408847,0.0,0.025676506134946576, ,1.5143780708312988
0.012071701747686266,0.021556739432799114,-0.0838510180115227, ,0.012448256987785823,0.021664015215630154,-0.08423918554100449, ,0.0005513401612184997, ,0.004743500062293586,0.0025870433498137494,-0.011294110675702471,-0.0011455433743419608,-0.005475707269361319,-0.019876478013590097, ,0.012520004875790238, ,0.005594234170852738, ,4.9712839337944004e-05, ,0.14668558821302033,-0.22077748740833028,0.09422991268000001,3.015760767194429,0.2784651865219676,-0.29159589244435097, ,0.034952832986545404,0.0009401863803785034,0.012131615780654989,0.03253547950408847,0.0,0.025676506134946576, ,1.518829107284546
0.012118889792305694,0.02158396836525202,-0.08396960107009634, ,0.0124723452199451,0.021670313097921026,-0.08428717726256976, ,0.00048295009080996697, ,0.005051388551393741,0.0028563721801411895,-0.012592404140770454,-0.0031500861655020893,0.020369346616849714,-0.029509464716985144, ,0.01386520935194017, ,0.020611477574979078, ,5.031491847787191e-05, ,0.1470253884594862,-0.22076976467545606,0.0943569491,3.0159704571379136,0.2784651865219676,-0.2912691774837887, ,0.035568568800026526,0.0013409647142451787,0.013487562675698563,0.05419673286856922,0.0,0.05062242634180397, ,1.523514986038208
0.012118889792305694,0.02158396836525202,-0.08396960107009634, ,0.012496488419684093,0.02167644159166769,-0.08433537306315127, ,0.0005337800782205638, ,0.005051388551393741,0.0028563721801411895,-0.012592404140770454,-0.0031500861655020893,0.020369346616849714,-0.029509464716985144, ,0.01386520935194017, ,0.020611477574979078, ,5.099277488047727e-05, ,0.1470253884594862,-0.22076976467545606,0.0943569491,3.0159704571379136,0.2784651865219676,-0.2912691774837887, ,0.035568568800026526,0.0013409647142451787,0.013487562675698563,0.05419673286856922,0.0,0.05062242634180397, ,1.5281360149383545
0.012171611697561435,0.0216135973825873,-0.08410161632918717, ,0.01252068642809993,0.02168240169051345,-0.08438377164388608, ,0.000454091204388019, ,0.005267977849645894,0.0028461465193985428,-0.012526791175060944,-0.0015344579874524977,-0.002715162839207679,-0.024194221581739173, ,0.013884258632632459, ,0.0031187116087310392, ,5.154208167396723e-05, ,0.14741152510319744,-0.22075431920970762,0.09449824471000001,3.0159704571379136,0.2784651865219676,-0.2908607837830859, ,0.03851336913898976,0.0013159196370541556,0.01345338810810811,0.039539261487449975,0.0,0.03117556979179556, ,1.5334041118621826
0.012171611697561435,0.0216135973825873,-0.08410161632918717, ,0.012544939086589695,0.021688194385897117,-0.08443237170885211, ,0.0005043185238306858, ,0.005267977849645894,0.0028461465193985428,-0.012526791175060944,-0.0015344579874524977,-0.002715162839207679,-0.024194221581739173, ,0.013884258632632459, ,0.0031187116087310392, ,5.2166085345013495e-05, ,0.14741152510319744,-0.22075431920970762,0.09449824471000001,3.0159704571379136,0.2784651865219676,-0.2908607837830859, ,0.03851336913898976,0.0013159196370541556,0.01345338810810811,0.039539261487449975,0.0,0.03117556979179556, ,1.537837028503418
0.012224880940566545,0.021639779394708528,-0.08422663909706127, ,0.012569246236850112,0.021693820667054404,-0.08448117196506638, ,0.00043161892601708093, ,0.00525023651978909,0.00255880764209798,-0.011536292446891864,-0.001927305293998322,-0.007322608809955793,-0.01557967684031433, ,0.01293052680609728, ,0.00757198132263387, ,5.2673506671101954e-05, ,0.1478131072126571,-0.22073115101108493,0.09463176258000001,3.0159704571379136,0.2783285500222022,-0.2903409721786867, ,0.040193537297107486,0.0021809879319795284,0.012434669414519907,0.030181843109414783,0.0015996565829934097,0.029940220819108795, ,1.5422241687774658
0.012224880940566545,0.021639779394708528,-0.08422663909706127, ,0.012593607720877361,0.021699281521020727,-0.08453017112248182, ,0.00048128124003534025, ,0.00525023651978909,0.00255880764209798,-0.011536292446891864,-0.001927305293998322,-0.007322608809955793,-0.01557967684031433, ,0.01293052680609728, ,0.00757198132263387, ,5.32545487525442e-05, ,0.1478131072126571,-0.22073115101108493,0.09463176258000001,3.0159704571379136,0.2783285500222022,-0.2903409721786867, ,0.040193537297107486,0.0021809879319795284,0.012434669414519907,0.030181843109414783,0.0015996565829934097,0.029940220819108795, ,1.5466110706329346
0.012224880940566545,0.021639779394708528,-0.08422663909706127, ,0.01261802338096659,0.021704577932632294,-0.08457936789398479, ,0.0005321441845401277, ,0.00525023651978909,0.00255880764209798,-0.011536292446891864,-0.001927305293998322,-0.007322608809955793,-0.01557967684031433, ,0.01293052680609728, ,0.00757198132263387, ,5.3993575968265774e-05, ,0.1478131072126571,-0.22073115101108493,0.09463176258000001,3.0159704571379136,0.2783285500222022,-0.2903409721786867, ,0.040193537297107486,0.0021809879319795284,0.012434669414519907,0.030181843109414783,0.0015996565829934097,0.029940220819108795, ,1.5488560199737549
0.012224880940566545,0.021639779394708528,-0.08422663909706127, ,0.012642493059711941,0.0217097108845285,-0.08462876099539318, ,0.0005839454738617397, ,0.00525023651978909,0.00255880764209798,-0.011536292446891864,-0.001927305293998322,-0.007322608809955793,-0.01557967684031433, ,0.01293052680609728, ,0.00757198132263387, ,5.481014283713091e-05, ,0.14823785752073945,-0.22070798281246226,0.09475361384000001,3.0161801470813985,0.2783285500222022,-0.29009593595826505, ,0.04160321857013186,0.0028174210658819744,0.011618389146608317,0.0,0.0015753683378144008,0.02801608764893668, ,1.551133155822754
0.012278802235829897,0.021664547788894522,-0.08433943515066838, ,0.012667016600006046,0.021714681357154143,-0.08467834914545255, ,0.0005177706664921224, ,0.005189491118462434,0.0023159037734748838,-0.010755237074782622,-0.006553089374912522,-0.017018020108889614,0.01257478636762904, ,0.012164265406976878, ,0.01823611375455833, ,5.552238979660012e-05, ,0.14823785752073945,-0.22070798281246226,0.09475361384000001,3.0161801470813985,0.2783285500222022,-0.29009593595826505, ,0.04160321857013186,0.0028174210658819744,0.011618389146608317,0.0,0.0015753683378144008,0.02801608764893668, ,1.5537731647491455
0.012278802235829897,0.021664547788894522,-0.08433943515066838, ,0.012691593845039798,0.021719490328760596,-0.08472813106583453, ,0.0005696491111095337, ,0.005189491118462434,0.0023159037734748838,-0.010755237074782622,-0.006553089374912522,-0.017018020108889614,0.01257478636762904, ,0.012164265406976878, ,0.01823611375455833, ,5.6312138984484815e-05, ,0.14823785752073945,-0.22070798281246226,0.09475361384000001,3.0161801470813985,0.2783285500222022,-0.29009593595826505, ,0.04160321857013186,0.0028174210658819744,0.011618389146608317,0.0,0.0015753683378144008,0.02801608764893668, ,1.5561590194702148
0.012278802235829897,0.021664547788894522,-0.08433943515066838, ,0.012716224638302093,0.021724138775408713,-0.08477810548113401, ,0.0006223512695328152, ,0.005189491118462434,0.0023159037734748838,-0.010755237074782622,-0.006553089374912522,-0.017018020108889614,0.01257478636762904, ,0.012164265406976878, ,0.01823611375455833, ,5.718029716017244e-05, ,0.14823785752073945,-0.22070798281246226,0.09475361384000001,3.0161801470813985,0.2783285500222022,-0.29009593595826505, ,0.04160321857013186,0.0028174210658819744,0.011618389146608317,0.0,0.0015753683378144008,0.02801608764893668, ,1.5585761070251465
0.012278802235829897,0.021664547788894522,-0.08433943515066838, ,0.012740908823579538,0.021728627670970158,-0.08482827111886634, ,0.000675728742567963, ,0.005189491118462434,0.0023159037734748838,-0.010755237074782622,-0.006553089374912522,-0.017018020108889614,0.01257478636762904, ,0.012164265406976878, ,0.01823611375455833, ,0.00031896876042857475, ,0.14823785752073945,-0.22070798281246226,0.09475361384000001,3.0161801470813985,0.2783285500222022,-0.29009593595826505, ,0.04160321857013186,0.0028174210658819744,0.011618389146608317,0.0,0.0015753683378144008,0.02801608764893668, ,1.5610160827636719
0.012278802235829897,0.021664547788894522,-0.08433943515066838, ,0.01276564624495622,0.02173295798712919,-0.08487862670946458, ,0.0007296742982466713, ,0.005189491118462434,0.0023159037734748838,-0.010755237074782622,-0.006553089374912522,-0.017018020108889614,0.01257478636762904, ,0.012164265406976878, ,0.01823611375455833, ,0.0003223913065770589, ,0.14823785752073945,-0.22070798281246226,0.09475361384000001,3.0161801470813985,0.2783285500222022,-0.29009593595826505, ,0.04160321857013186,0.0028174210658819744,0.011618389146608317,0.0,0.0015753683378144008,0.02801608764893668, ,1.5636560916900635
0.012278802235829897,0.021664547788894522,-0.08433943515066838, ,0.01279043674681338,0.02173713069338555,-0.08492917098627803, ,0.0007841087339494875, ,0.005189491118462434,0.0023159037734748838,-0.010755237074782622,-0.006553089374912522,-0.017018020108889614,0.01257478636762904, ,0.012164265406976878, ,0.01823611375455833, ,0.00032620715308426907, ,0.14823785752073945,-0.22070798281246226,0.09475361384000001,3.0161801470813985,0.2783285500222022,-0.29009593595826505, ,0.04160321857013186,0.0028174210658819744,0.011618389146608317,0.0,0.0015753683378144008,0.02801608764893668, ,1.5662920475006104
0.012278802235829897,0.021664547788894522,-0.08433943515066838, ,0.01281528017382916,0.021741146757055463,-0.08497990268556817, ,0.0008389723732900062, ,0.005189491118462434,0.0023159037734748838,-0.010755237074782622,-0.006553089374912522,-0.017018020108889614,0.01257478636762904, ,0.012164265406976878, ,0.01823611375455833, ,0.0003304101466925128, ,0.14823785752073945,-0.22070798281246226,0.09475361384000001,3.0161801470813985,0.2783285500222022,-0.29009593595826505, ,0.04160321857013186,0.0028174210658819744,0.011618389146608317,0.0,0.0015753683378144008,0.02801608764893668, ,1.5686120986938477
0.012278802235829897,0.021664547788894522,-0.08433943515066838, ,0.012840176370978283,0.021745007143274125,-0.08503082054650647, ,0.0008942194321859535, ,0.005189491118462434,0.0023159037734748838,-0.010755237074782622,-0.006553089374912522,-0.01433908213183736,-0.006134259296424731, ,0.012164265406976878, ,0.01823611375455833, ,0.00033499396202172775, ,0.14863943963019913,-0.22066936914809113,0.0948625022,3.0165995269683674,0.2783285500222022,-0.2896875422575622, ,0.04611124468341632,0.005039842286908835,0.012493185505882354,0.020497368271457896,0.001526718599410699,0.031122666654773652, ,1.5721430778503418
0.01238796424164205,0.0217100261283822,-0.08455874968795313, ,0.012865125183531867,0.021748712814997264,-0.08508192331117306, ,0.000709147279639078, ,0.006196988398162847,0.0026972592170328375,-0.01316880794476748,-0.00046571560655023214,0.01806495563699064,-0.06493825250063157, ,0.014801870664784389, ,0.018070946769850316, ,0.0003380113274863838, ,0.14908735813690416,-0.22061531001797158,0.09499083491000002,3.0174382867423053,0.2784651865219676,-0.28947224520069637, ,0.04620104262827205,0.005150136539360933,0.014171540498220642,0.09064014963856222,0.0011089899002456418,0.050869081646389536, ,1.5756042003631592
0.01238796424164205,0.0217100261283822,-0.08455874968795313, ,0.01289012645705699,0.021752264733003648,-0.08513320972455198, ,0.0007641696957874978, ,0.006196988398162847,0.0026972592170328375,-0.01316880794476748,-0.00046571560655023214,0.01806495563699064,-0.06493825250063157, ,0.014801870664784389, ,0.018070946769850316, ,0.0003414205944327927, ,0.14908735813690416,-0.22061531001797158,0.09499083491000002,3.0174382867423053,0.2784651865219676,-0.28947224520069637, ,0.04620104262827205,0.005150136539360933,0.014171540498220642,0.09064014963856222,0.0011089899002456418,0.050869081646389536, ,1.5779061317443848
0.01238796424164205,0.0217100261283822,-0.08455874968795313, ,0.012915180037416582,0.021755663855896723,-0.08518467853453052, ,0.0008196500585399627, ,0.006196988398162847,0.0026972592170328375,-0.01316880794476748,-0.00046571560655023214,0.01806495563699064,-0.06493825250063157, ,0.014801870664784389, ,0.018070946769850316, ,0.0003452160663701512, ,0.14908735813690416,-0.22061531001797158,0.09499083491000002,3.0174382867423053,0.2784651865219676,-0.28947224520069637, ,0.04620104262827205,0.005150136539360933,0.014171540498220642,0.09064014963856222,0.0011089899002456418,0.050869081646389536, ,1.5801970958709717
0.012458437173828173,0.021740290798326133,-0.08471629677556142, ,0.012940285770769118,0.021758911140106058,-0.08523632849189558, ,0.0007091951589621951, ,0.006970927277680121,0.0027616692564830956,-0.015416731566635412,-0.009242092942818105,-0.009544743827002825,-0.02865528201303434, ,0.01714340270747326, ,0.013285990584081695, ,0.00034808204347717514, ,0.14962794943809987,-0.22053808268922934,0.09515935261000001,3.0174382867423053,0.2784651865219676,-0.2889004940197124, ,0.05234249396495907,0.010052475231871257,0.016455383801652894,0.045959871401617544,0.0011089899002456418,0.03744625648764771, ,1.5824370384216309
0.012458437173828173,0.021740290798326133,-0.08471629677556142, ,0.012965443503568203,0.021762007539890754,-0.08528815835033128, ,0.0007645604593221574, ,0.006970927277680121,0.0027616692564830956,-0.015416731566635412,-0.009242092942818105,-0.009544743827002825,-0.02865528201303434, ,0.01714340270747326, ,0.013285990584081695, ,0.00035133578110096406, ,0.14962794943809987,-0.22053808268922934,0.09515935261000001,3.0174382867423053,0.2784651865219676,-0.2889004940197124, ,0.05234249396495907,0.010052475231871257,0.016455383801652894,0.045959871401617544,0.0011089899002456418,0.03744625648764771, ,1.5846881866455078
0.012458437173828173,0.021740290798326133,-0.08471629677556142, ,0.012990653082562368,0.021764954007339587,-0.08534016686641643, ,0.0008204120535755508, ,0.006970927277680121,0.0027616692564830956,-0.015416731566635412,-0.009242092942818105,-0.009544743827002825,-0.02865528201303434, ,0.01714340270747326, ,0.013285990584081695, ,0.0003549720312751857, ,0.14962794943809987,-0.22053808268922934,0.09515935261000001,3.0174382867423053,0.2784651865219676,-0.2889004940197124, ,0.05234249396495907,0.010052475231871257,0.016455383801652894,0.045959871401617544,0.0011089899002456418,0.03744625648764771, ,1.5868821144104004
0.012458437173828173,0.021740290798326133,-0.08471629677556142, ,0.013015914354795,0.021767751492374317,-0.08539235279962225, ,0.0008766907349146947, ,0.006970927277680121,0.0027616692564830956,-0.015416731566635412,-0.009242092942818105,-0.009544743827002825,-0.02865528201303434, ,0.01714340270747326, ,0.013285990584081695, ,0.00035898525207241267, ,0.14962794943809987,-0.22053808268922934,0.09515935261000001,3.0174382867423053,0.2784651865219676,-0.2889004940197124, ,0.05234249396495907,0.010052475231871257,0.016455383801652894,0.045959871401617544,0.0011089899002456418,0.03744625648764771, ,1.589109182357788
0.012458437173828173,0.021740290798326133,-0.08471629677556142, ,0.01304122716760364,0.021770400942751084,-0.08544471491230934, ,0.0009333508341376364, ,0.006970927277680121,0.0027616692564830956,-0.015416731566635412,-0.009242092942818105,-0.009544743827002825,-0.02865528201303434, ,0.01714340270747326, ,0.013285990584081695, ,0.0003633697221645136, ,0.15018398620504403,-0.22042224169611596,0.09535638869000002,3.0174382867423053,0.2784651865219676,-0.28832874283872845, ,0.05569069340285844,0.013229742305656041,0.022215915648535565,0.0303815775500159,0.0011089899002456418,0.07377888748638817, ,1.5913500785827637
0.012534685297398544,0.021773452549707965,-0.0849019501409581, ,0.0130665913686201,0.02177290330406257,-0.08549725196972481, ,0.0007983161263598058, ,0.008087294990223547,0.003739977743954824,-0.021003208601437284,-0.021510822718674986,0.015339673989360241,0.002371760658257986, ,0.0228150508511303, ,0.02642001144799346, ,0.0003666647706811446, ,0.15018398620504403,-0.22042224169611596,0.09535638869000002,3.0174382867423053,0.2784651865219676,-0.28832874283872845, ,0.05569069340285844,0.013229742305656041,0.022215915648535565,0.0303815775500159,0.0011089899002456418,0.07377888748638817, ,1.5939280986785889
0.012534685297398544,0.021773452549707965,-0.0849019501409581, ,0.01309200680576996,0.021775259519739742,-0.08554996274000075, ,0.0008547109788414436, ,0.008087294990223547,0.003739977743954824,-0.021003208601437284,-0.021510822718674986,0.015339673989360241,0.002371760658257986, ,0.0228150508511303, ,0.02642001144799346, ,0.00037033429104325216, ,0.15018398620504403,-0.22042224169611596,0.09535638869000002,3.0174382867423053,0.2784651865219676,-0.28832874283872845, ,0.05569069340285844,0.013229742305656041,0.022215915648535565,0.0303815775500159,0.0011089899002456418,0.07377888748638817, ,1.5961201190948486
0.012534685297398544,0.021773452549707965,-0.0849019501409581, ,0.013117473327272353,0.02177747053105402,-0.08560284599415058, ,0.0009115443099272302, ,0.008087294990223547,0.003739977743954824,-0.021003208601437284,-0.021510822718674986,0.015339673989360241,0.002371760658257986, ,0.0228150508511303, ,0.02642001144799346, ,0.0003743731717811923, ,0.15018398620504403,-0.22042224169611596,0.09535638869000002,3.0174382867423053,0.2784651865219676,-0.28832874283872845, ,0.05569069340285844,0.013229742305656041,0.022215915648535565,0.0303815775500159,0.0011089899002456418,0.07377888748638817, ,1.5983760356903076
0.012534685297398544,0.021773452549707965,-0.0849019501409581, ,0.01314299078163975,0.021779537277118927,-0.08565590050606695, ,0.0009687691877394537, ,0.008087294990223547,0.003739977743954824,-0.021003208601437284,-0.021510822718674986,0.015339673989360241,0.002371760658257986, ,0.0228150508511303, ,0.02642001144799346, ,0.000378776105232735, ,0.15018398620504403,-0.22042224169611596,0.09535638869000002,3.0174382867423053,0.2784651865219676,-0.28832874283872845, ,0.05569069340285844,0.013229742305656041,0.022215915648535565,0.0303815775500159,0.0011089899002456418,0.07377888748638817, ,1.6005871295928955
0.012620189857257996,0.021815318561894108,-0.08513229871506178, ,0.013168559017677535,0.02178146069489256,-0.08570912505251964, ,0.0007966076291639244, ,0.009181533101835565,0.004521782278445987,-0.025196076972547356,-0.025852827543979044,0.014172732723156502,0.021046707087173766, ,0.027195392254576903, ,0.029482620138284864, ,0.0003818483958498761, ,0.15075546843773666,-0.2202755097715057,0.09560009121000002,3.0178576666292747,0.2786018230217331,-0.2875416946008787, ,0.061105564429150536,0.015271474341562724,0.026592339766277135,0.014988717162077768,0.002659511137503287,0.0823045574027425, ,1.6029222011566162
0.012620189857257996,0.021815318561894108,-0.08513229871506178, ,0.013194177884483915,0.021783241719179162,-0.08576251841315127, ,0.0008530346107264755, ,0.009181533101835565,0.004521782278445987,-0.025196076972547356,-0.025852827543979044,0.014172732723156502,0.021046707087173766, ,0.027195392254576903, ,0.029482620138284864, ,0.0003852877112869316, ,0.15075546843773666,-0.2202755097715057,0.09560009121000002,3.0178576666292747,0.2786018230217331,-0.2875416946008787, ,0.061105564429150536,0.015271474341562724,0.026592339766277135,0.014988717162077768,0.002659511137503287,0.0823045574027425, ,1.6089251041412354
0.012620189857257996,0.021815318561894108,-0.08513229871506178, ,0.01321984723144942,0.021784881282630994,-0.08581607937047682, ,0.0009099842741008835, ,0.009181533101835565,0.004521782278445987,-0.025196076972547356,-0.025852827543979044,0.014172732723156502,0.021046707087173766, ,0.027195392254576903, ,0.029482620138284864, ,0.0003890898602928298, ,0.15075546843773666,-0.2202755097715057,0.09560009121000002,3.0178576666292747,0.2786018230217331,-0.2875416946008787, ,0.061105564429150536,0.015271474341562724,0.026592339766277135,0.014988717162077768,0.002659511137503287,0.0823045574027425, ,1.6112661361694336
0.012659054964904022,0.021835279551863835,-0.08523596328964692, ,0.013245566908256852,0.021786380315750708,-0.08586980670987981, ,0.0008649536845175581, ,0.009564746755218342,0.0046604058985855856,-0.025857054596527054,-0.02343715842192522,0.01956466793356801,0.013543412984546678, ,0.027960526390588786, ,0.03052974071148683, ,0.000392513341042648, ,0.15101031862258607,-0.2202137279085119,0.09571027586000001,3.0182770465162436,0.27873845952149856,-0.28732639754401296, ,0.06390366434913858,0.015740079873688965,0.02732214668953688,0.02609904081898484,0.005121521243707829,0.08858323390103474, ,1.6136791706085205
0.012659054964904022,0.021835279551863835,-0.08523596328964692, ,0.013271336764880865,0.021787739746892923,-0.0859236992196099, ,0.0009220248071508781, ,0.009564746755218342,0.0046604058985855856,-0.025857054596527054,-0.02343715842192522,0.01956466793356801,0.013543412984546678, ,0.027960526390588786, ,0.03052974071148683, ,0.0003962955658005639, ,0.15101031862258607,-0.2202137279085119,0.09571027586000001,3.0182770465162436,0.27873845952149856,-0.28732639754401296, ,0.06390366434913858,0.015740079873688965,0.02732214668953688,0.02609904081898484,0.005121521243707829,0.08858323390103474, ,1.6182010173797607
0.012659054964904022,0.021835279551863835,-0.08523596328964692, ,0.013297156651587674,0.021788960502266308,-0.0859777556907804, ,0.0009795790847519717, ,0.009564746755218342,0.0046604058985855856,-0.025857054596527054,-0.02343715842192522,0.01956466793356801,0.013543412984546678, ,0.027960526390588786, ,0.03052974071148683, ,0.0004004323283463186, ,0.15101031862258607,-0.2202137279085119,0.09571027586000001,3.0182770465162436,0.27873845952149856,-0.28732639754401296, ,0.06390366434913858,0.015740079873688965,0.02732214668953688,0.02609904081898484,0.005121521243707829,0.08858323390103474, ,1.620483160018921
0.012824658949975015,0.021915422832316553,-0.08567431256666883, ,0.013323026418934894,0.02179004350593573,-0.08603197491736563, ,0.0006261089894795839, ,0.009561396667318218,0.004378039154560549,-0.024005082253607694,0.045726821420141076,-0.008627257490387105,-0.05849635414830791, ,0.02620747044396197, ,0.046533469652890624, ,0.00040202160060782044, ,0.15209922395785172,-0.2198970958606687,0.09617564397000002,3.01995456606412,0.2794216420203257,-0.28624991225968377, ,0.06540106241107566,0.019794939832805752,0.025609021736334413,0.085377690081801,0.06072506581563007,0.035545438826326284, ,1.6231391429901123
0.012824658949975015,0.021915422832316553,-0.08567431256666883, ,0.013348945917771136,0.02179098967982391,-0.08608635569619837, ,0.0006783361811318978, ,0.009561396667318218,0.004378039154560549,-0.024005082253607694,0.045726821420141076,-0.008627257490387105,-0.05849635414830791, ,0.02620747044396197, ,0.046533469652890624, ,0.0004039538704016951, ,0.15209922395785172,-0.2198970958606687,0.09617564397000002,3.01995456606412,0.2794216420203257,-0.28624991225968377, ,0.06540106241107566,0.019794939832805752,0.025609021736334413,0.085377690081801,0.06072506581563007,0.035545438826326284, ,1.6255381107330322
0.012824658949975015,0.021915422832316553,-0.08567431256666883, ,0.013374914999235824,0.02179179994371345,-0.0861408968269674, ,0.0007319598419948069, ,0.009561396667318218,0.004378039154560549,-0.024005082253607694,0.045726821420141076,-0.008627257490387105,-0.05849635414830791, ,0.02620747044396197, ,0.046533469652890624, ,0.00040623168964886943, ,0.15209922395785172,-0.2198970958606687,0.09617564397000002,3.01995456606412,0.2794216420203257,-0.28624991225968377, ,0.06540106241107566,0.019794939832805752,0.025609021736334413,0.085377690081801,0.06072506581563007,0.035545438826326284, ,1.6278011798858643
0.012824658949975015,0.021915422832316553,-0.08567431256666883, ,0.013400933514758863,0.021792475215249046,-0.08619559711221456, ,0.0007867312552480741, ,0.009561396667318218,0.004378039154560549,-0.024005082253607694,0.045726821420141076,-0.008627257490387105,-0.05849635414830791, ,0.02620747044396197, ,0.046533469652890624, ,0.0004088558245840364, ,0.15209922395785172,-0.2198970958606687,0.09617564397000002,3.01995456606412,0.2794216420203257,-0.28624991225968377, ,0.06540106241107566,0.019794939832805752,0.025609021736334413,0.085377690081801,0.06072506581563007,0.035545438826326284, ,1.6300830841064453
0.012920972453407287,0.02194882208910511,-0.08589568231067837, ,0.013427001316060371,0.021793016409939258,-0.08625045535733268, ,0.0006373417718388512, ,0.00939118376073107,0.0024558185307210255,-0.019592149049842876,0.028531834259689793,-0.0469357584014375,0.04228594703720928, ,0.021864987570883978, ,0.05492748033709997, ,0.0004104207968255077, ,0.1528174381151546,-0.21962680021007083,0.09641156875000001,3.01995456606412,0.2801048245191529,-0.2859085356366197, ,0.07402257531861994,0.030347598835455954,0.020903952125984254,-0.023038778371064897,0.06870155448057298,0.02752743902164473, ,1.6323511600494385
0.012920972453407287,0.02194882208910511,-0.08589568231067837, ,0.013453118255150375,0.021793424441158074,-0.08630547037056177, ,0.0006893865659579275, ,0.00939118376073107,0.0024558185307210255,-0.019592149049842876,0.028531834259689793,-0.0469357584014375,0.04228594703720928, ,0.021864987570883978, ,0.05492748033709997, ,0.0004123185231461364, ,0.1528174381151546,-0.21962680021007083,0.09641156875000001,3.01995456606412,0.2801048245191529,-0.2859085356366197, ,0.07402257531861994,0.030347598835455954,0.020903952125984254,-0.023038778371064897,0.06870155448057298,0.02752743902164473, ,1.6350510120391846
0.012920972453407287,0.02194882208910511,-0.08589568231067837, ,0.013479284184328604,0.021793700220147774,-0.08636064096298883, ,0.0007429410013396286, ,0.00939118376073107,0.0024558185307210255,-0.019592149049842876,0.028531834259689793,-0.0469357584014375,0.04228594703720928, ,0.021864987570883978, ,0.05492748033709997, ,0.0004145524588096059, ,0.1528174381151546,-0.21962680021007083,0.09641156875000001,3.01995456606412,0.2801048245191529,-0.2859085356366197, ,0.07402257531861994,0.030347598835455954,0.020903952125984254,-0.023038778371064897,0.06870155448057298,0.02752743902164473, ,1.6373040676116943
0.012920972453407287,0.02194882208910511,-0.08589568231067837, ,0.013505498956184157,0.021793844656019953,-0.08641596594854255, ,0.0007977369873858189, ,0.00939118376073107,0.0024558185307210255,-0.019592149049842876,0.028531834259689793,-0.0469357584014375,0.04228594703720928, ,0.021864987570883978, ,0.05492748033709997, ,0.00041712416705508385, ,0.1528174381151546,-0.21962680021007083,0.09641156875000001,3.01995456606412,0.2801048245191529,-0.2859085356366197, ,0.07402257531861994,0.030347598835455954,0.020903952125984254,-0.023038778371064897,0.06870155448057298,0.02752743902164473, ,1.6395831108093262
0.012920972453407287,0.02194882208910511,-0.08589568231067837, ,0.013531762423595165,0.02179385865575833,-0.08647144414399244, ,0.0008535688267842868, ,0.00939118376073107,0.0024558185307210255,-0.019592149049842876,0.028531834259689793,-0.0469357584014375,0.04228594703720928, ,0.021864987570883978, ,0.05492748033709997, ,0.00042003379811994524, ,0.1528174381151546,-0.21962680021007083,0.09641156875000001,3.01995456606412,0.2801048245191529,-0.2859085356366197, ,0.07402257531861994,0.030347598835455954,0.020903952125984254,-0.023038778371064897,0.06870155448057298,0.02752743902164473, ,1.6418061256408691
0.013012807378069527,0.02196815133474352,-0.08607866095588962, ,0.013558074439728743,0.02179374312421984,-0.0865270743689454, ,0.0007271925339529278, ,0.009697635052538586,0.001616815625713565,-0.018036503473707142,-0.007367637068550212,-0.010483904569665789,0.03527232199108179, ,0.020541997856509148, ,0.012813759096920846, ,0.00042206796193340867, ,0.15355109773820594,-0.21932561362797606,0.09660601225000001,3.019744876120635,0.28051473401844923,-0.28526264446602223, ,0.07888357569282692,0.033030609661841556,0.019191339180722893,0.0,0.03997991400432237,0.07310931369540011, ,1.6440141201019287
0.013012807378069527,0.02196815133474352,-0.08607866095588962, ,0.013584434858040381,0.02179349896413736,-0.08658285544584403, ,0.0007819677167994648, ,0.009697635052538586,0.001616815625713565,-0.018036503473707142,-0.007367637068550212,-0.010483904569665789,0.03527232199108179, ,0.020541997856509148, ,0.012813759096920846, ,0.0004244357234785801, ,0.15355109773820594,-0.21932561362797606,0.09660601225000001,3.019744876120635,0.28051473401844923,-0.28526264446602223, ,0.07888357569282692,0.033030609661841556,0.019191339180722893,0.0,0.03997991400432237,0.07310931369540011, ,1.646332025527954
0.013012807378069527,0.02196815133474352,-0.08607866095588962, ,0.013610843532273873,0.021793127076121157,-0.08663878619996285, ,0.0008378669476056009, ,0.009697635052538586,0.001616815625713565,-0.018036503473707142,-0.007367637068550212,-0.010483904569665789,0.03527232199108179, ,0.020541997856509148, ,0.012813759096920846, ,0.0004271378883421554, ,0.15355109773820594,-0.21932561362797606,0.09660601225000001,3.019744876120635,0.28051473401844923,-0.28526264446602223, ,0.07888357569282692,0.033030609661841556,0.019191339180722893,0.0,0.03997991400432237,0.07310931369540011, ,1.648827075958252
0.013012807378069527,0.02196815133474352,-0.08607866095588962, ,0.013637300316461072,0.021792628358661213,-0.08669486545940723, ,0.0008947109786903719, ,0.009697635052538586,0.001616815625713565,-0.018036503473707142,-0.007367637068550212,-0.010483904569665789,0.03527232199108179, ,0.020541997856509148, ,0.012813759096920846, ,0.0004301740772405204, ,0.15355109773820594,-0.21932561362797606,0.09660601225000001,3.019744876120635,0.28051473401844923,-0.28526264446602223, ,0.07888357569282692,0.033030609661841556,0.019191339180722893,0.0,0.03997991400432237,0.07310931369540011, ,1.6529240608215332
0.013012807378069527,0.02196815133474352,-0.08607866095588962, ,0.01366380506492146,0.021792003708128595,-0.08675109205510848, ,0.0009523599938286564, ,0.009697635052538586,0.001616815625713565,-0.018036503473707142,-0.007367637068550212,-0.010483904569665789,0.03527232199108179, ,0.020541997856509148, ,0.012813759096920846, ,0.0004335430186378632, ,0.15355109773820594,-0.21932561362797606,0.09660601225000001,3.019744876120635,0.28051473401844923,-0.28526264446602223, ,0.07888357569282692,0.033030609661841556,0.019191339180722893,0.0,0.03997991400432237,0.07310931369540011, ,1.6565651893615723
0.013012807378069527,0.02196815133474352,-0.08607866095588962, ,0.013690357632261976,0.021791254018778187,-0.08680746482082403, ,0.0010107037552593407, ,0.009697635052538586,0.001616815625713565,-0.018036503473707142,-0.007367637068550212,-0.010483904569665789,0.03527232199108179, ,0.020541997856509148, ,0.012813759096920846, ,0.00043724276694953937, ,0.15355109773820594,-0.21932561362797606,0.09660601225000001,3.019744876120635,0.28051473401844923,-0.28526264446602223, ,0.07888357569282692,0.033030609661841556,0.019191339180722893,0.0,0.03997991400432237,0.07310931369540011, ,1.658846139907837
0.013012807378069527,0.02196815133474352,-0.08607866095588962, ,0.0137169578733767,0.021790380182750202,-0.0868639825931329, ,0.0010696544191676253, ,0.010102406941443605,0.0012547232632574698,-0.017480047662465845,-0.0013433568803076536,-0.012019274030284039,0.02788595141442031, ,0.020228322292270437, ,0.012094044978814182, ,0.00044127086664519594, ,0.15355109773820594,-0.21932561362797606,0.09660601225000001,3.019744876120635,0.28051473401844923,-0.28526264446602223, ,0.07888357569282692,0.033030609661841556,0.019191339180722893,0.0,0.03997991400432237,0.07310931369540011, ,1.6615400314331055
0.013213472820907242,0.021993482075914193,-0.08641993458395968, ,0.013743605643446632,0.021789383090072285,-0.08692064421143385, ,0.0007572366450460513, ,0.009633478712066566,0.0008296420267404174,-0.015264016545426787,0.012727226707182134,-0.015655998063599245,0.012015186812554764, ,0.018068824507627396, ,0.02017651472442497, ,0.0004432706500527963, ,0.1552192080390384,-0.21859195400492476,0.09697156603000001,3.0203739459510888,0.2817444625163382,-0.28406007961549484, ,0.08194899961871396,0.0365550622336174,0.01638766617283951,0.022135087507954107,0.058697892877098666,0.06267814398649318, ,1.6642751693725586
0.013213472820907242,0.021993482075914193,-0.08641993458395968, ,0.013770300797939224,0.021788263628661042,-0.08697744851794245, ,0.0008142443083519067, ,0.009633478712066566,0.0008296420267404174,-0.015264016545426787,0.012727226707182134,-0.015655998063599245,0.012015186812554764, ,0.018068824507627396, ,0.02017651472442497, ,0.0004456038177150549, ,0.1552192080390384,-0.21859195400492476,0.09697156603000001,3.0203739459510888,0.2817444625163382,-0.28406007961549484, ,0.08194899961871396,0.0365550622336174,0.01638766617283951,0.022135087507954107,0.058697892877098666,0.06267814398649318, ,1.6665031909942627
0.013213472820907242,0.021993482075914193,-0.08641993458395968, ,0.013797043192608396,0.021787022684324635,-0.08703439435768898, ,0.0008722044901480487, ,0.009633478712066566,0.0008296420267404174,-0.015264016545426787,0.012727226707182134,-0.015655998063599245,0.012015186812554764, ,0.018068824507627396, ,0.02017651472442497, ,0.0004482700719177611, ,0.1552192080390384,-0.21859195400492476,0.09697156603000001,3.0203739459510888,0.2817444625163382,-0.28406007961549484, ,0.08194899961871396,0.0365550622336174,0.01638766617283951,0.022135087507954107,0.058697892877098666,0.06267814398649318, ,1.6687531471252441
0.013213472820907242,0.021993482075914193,-0.08641993458395968, ,0.013823832683494026,0.021785661140764488,-0.08709148057851518, ,0.0009309687028826459, ,0.009633478712066566,0.0008296420267404174,-0.015264016545426787,0.012727226707182134,-0.015655998063599245,0.012015186812554764, ,0.018068824507627396, ,0.02017651472442497, ,0.0004512682000604001, ,0.1552192080390384,-0.21859195400492476,0.09697156603000001,3.0203739459510888,0.2817444625163382,-0.28406007961549484, ,0.08194899961871396,0.0365550622336174,0.01638766617283951,0.022135087507954107,0.058697892877098666,0.06267814398649318, ,1.671032190322876
0.013311514821712538,0.02199396676453285,-0.08658017333949242, ,0.013850669126921716,0.021784179879577086,-0.08714870603107253, ,0.000811127193059361, ,0.010190058412465576,-0.0002525728816609122,-0.01768920294888383,-0.03566476053096808,-0.008879986602694016,-0.0069688412281626606, ,0.020415900285728556, ,0.03675360626960983, ,0.0004534895518690356, ,0.15603781772370623,-0.2181672036968424,0.09714008373000001,3.0205836358945732,0.28188109901610364,-0.2831913526375045, ,0.08273490981558046,0.05069281066157627,0.018457487276940906,0.037436937681279335,0.022942131716907295,0.0724106994846951, ,1.6732749938964844
