NicholasDascanio/dvrk_moveit_final/test/execution/third_experiment_notsharpbends/thirdexp_500vel3.0/thirdexp_500vel3.0_10.csv
Current Position (x),Current Position (y),Current Position (z), ,Planned Position (x),Planned Position (y),Planned Position (z), ,Position Error,,Cartesian linear Velocity(x),Cartesian linear Velocity(y),Cartesian linear Velocity(z),Cartesian Angular Velocity(x),Cartesian Angular Velocity(y),Cartesian Angular Velocity(z), ,Total Linear Velocity, ,Total Angular Velocity, ,MSE, ,Joint 1 Position,Joint 2 Position,Joint 3 Position,Joint 4 Position,Joint 5 Position,Joint 6 Position, ,Joint 1 Velocity,Joint 2 Velocity,Joint 3 Velocity,Joint 4 Velocity,Joint 5 Velocity,Joint 6 Velocity, ,Time Stamp
0.009949017365001825,0.02018961308925101,-0.07991198319104524, ,0.010002042318333083,0.020082284279939248,-0.07993644371082094, ,0.00012218607126739277, ,-1.9850193105403285e-05,-1.0185968846249844e-05,-5.044808922905327e-06,0.017303133350296547,-0.0781864237727748,-0.03904833853150251, ,2.2874313644942393e-05, ,0.08007818233522829, ,1.0182172605616064e-05, ,0.1280274655888939,-0.21756483053265288,0.08979789717000002,2.998566191828698,0.2617955335505839,-0.22180793497668078, ,-0.00025008330684806086,0.00012615226099612275,0.0,-8.282972318606448e-05,0.0,-0.08934969890381494, ,0.02216506004333496
0.00995035985673644,0.02018932669657858,-0.07992460129287965, ,0.010023806269499037,0.020106065934512213,-0.0799884375602408, ,0.00012806950877617036, ,-1.9839159802957296e-05,-4.843164544500741e-05,0.00021817880201813528,0.05707512246246505,-0.2568966501047218,-0.1278997170714257, ,0.0002243684607788422, ,0.26316051838969545, ,1.1375253638343778e-05, ,0.1280197428560197,-0.21755710779977866,0.08980956378,2.998566191828698,0.261522260551053,-0.22648582357772162, ,0.00010392398642926844,0.0,-0.00022425336455841985,-8.209331840279452e-05,0.0,-0.29252490900594186, ,0.04490804672241211
0.009959920151274018,0.02016607961772116,-0.07995314072684394, ,0.0100456291747059,0.020129602428128016,-0.0800404806377445, ,0.00012769057167378412, ,0.00024246739152712643,-0.00032737250393984144,-0.0008973453539728811,-0.05698996991848711,-0.018386734884353818,-0.0140940425947962, ,0.0009854906780820028, ,0.059882624282983764, ,1.18108172411671e-05, ,0.12804291105464238,-0.21758027599840132,0.08982511926,2.998356501885214,0.2579697115571516,-0.23077668721398417, ,0.000619229640174494,-0.00010307339869092327,0.0006881344893170635,0.0,-0.06051086916521958,-0.010613737457982442, ,0.06690192222595215
0.009967960650313206,0.020171429206646926,-0.07998099207310914, ,0.010067510811175033,0.020152894857110307,-0.08009257267544502, ,0.0001506784239962648, ,0.0003050823697529967,0.00029172781246958774,-0.000744456911864082,0.052320517022635724,-0.21606033217392384,-0.10853488353194005, ,0.0008558016490546163, ,0.22230497889301085, ,1.2586299421752669e-05, ,0.1280815247190135,-0.2175957214641498,0.08985363764000001,2.9987758817721826,0.2576964385576207,-0.23316757109108935, ,0.002533009049125962,-0.0010389865933473261,0.0008314883863733008,0.003319813941429089,0.0034245374892537075,-0.24412578051241757, ,0.09116387367248535
0.009973988049113758,0.020165513884986278,-0.07998917209468595, ,0.010089450956662083,0.020175944315626297,-0.08014471340571619, ,0.000193993753352665, ,0.0003537302664005334,-0.0002911940686522086,-0.00042715751905910755,-0.10729795171771622,0.27594622193175034,0.12967375094792483, ,0.0006264045283000047, ,0.2960729096712905, ,1.3896506328197636e-05, ,0.12812786111625885,-0.21760344419702402,0.08985882280000002,2.9987758817721826,0.2567399830592626,-0.23140750088352763, ,0.002866357610177401,-0.00017041542445435015,0.0002881517618499564,0.003319813941429089,-0.045981081070037975,0.32328781449174426, ,0.11372089385986328
0.00998809664001958,0.020187759798316003,-0.08003493649456636, ,0.010111449389456226,0.020198751895689603,-0.08019690256119305, ,0.00020388657076122427, ,0.0005015283636333102,0.0003205884841642519,-0.0019089064834551292,-0.034708509805234475,0.053914543307107134,0.02241898211054543, ,0.001999557860699326, ,0.06412065683450725, ,1.4943627416572603e-05, ,0.12824370210937222,-0.21764205786139512,0.08991197069000001,2.9987758817721826,0.2576964385576207,-0.2295737065249046, ,0.0026777594530119127,-0.0011528086948002308,0.0019272609219600728,0.003319813941429089,-0.023691316054483588,0.06727256908918666, ,0.13931798934936523
0.010001651421787971,0.02020316605476445,-0.08008290894851014, ,0.010133505888379806,0.0202213186871611,-0.0802491398747714, ,0.00021295032112871672, ,0.0007074028341052209,0.0006324849954328528,-0.002432567228477621,-0.010382703209444035,-0.04607402145081412,-0.025794923390215278, ,0.0026110992628031377, ,0.04722939739717522, ,1.5825766957725253e-05, ,0.1283363749038629,-0.21768067152576626,0.08996382229000001,2.9987758817721826,0.2578330750573861,-0.22935840946803876, ,0.004379049397185254,-0.0033588688430415915,0.0025328051391318176,0.003319813941429089,-0.023324990926332907,-0.0445398955755147, ,0.16119694709777832
0.010017289847930811,0.020219040423346882,-0.08014051394332752, ,0.01015562023278775,0.02024364577775114,-0.08030142507960886, ,0.00021361908299442165, ,0.0007570332936758427,0.0009577632339249678,-0.002721358017847806,0.0068993846300764074,-0.016685009501025267,-0.007494818359111416, ,0.0029826497081113373, ,0.01805522224105212, ,1.650090614573951e-05, ,0.1284290476983536,-0.2177270079230116,0.09002474792000001,2.9989855717156675,0.2576964385576207,-0.22949202778476407, ,0.004922476607208734,-0.003975663415236057,0.002944327452865065,0.002043294589231141,0.0,-0.013875735422082655, ,0.18479299545288086
0.010031125552773216,0.020232737531064162,-0.08018917527063224, ,0.01017779220256703,0.02026573425302114,-0.08035375790912445, ,0.00022290656050171835, ,0.0007353667257658416,0.0006159807979036354,-0.0022079056483189164,0.0006579026776973532,-0.004340044675490354,-0.0015428305173905874, ,0.0024072897450510915, ,0.004389626825381008, ,1.7130226787525632e-05, ,0.1285217204928443,-0.2177578988545085,0.09007659952000001,2.9989855717156675,0.2576964385576207,-0.22957370652490464, ,0.005378556885750693,-0.0013780647654412057,0.002377434555223881,0.002043294589231141,-0.0007981178049479023,0.0008747800893072357, ,0.20660400390625
0.0100539075797005,0.020252948914879207,-0.08025690552909909, ,0.010200021578136095,0.02028758519638558,-0.08040613809699843, ,0.00021170576717996123, ,0.0007821381228381004,0.0006942679413163087,-0.002140729213681472,0.0026014684272246814,-0.0056936603242716925,-0.001674986927931956, ,0.0023825342775804057, ,0.006259824743638939, ,1.752633952580705e-05, ,0.12869162061607722,-0.21782740345037652,0.09014919176000001,2.9989855717156675,0.2575598020578552,-0.22938060988106762, ,0.006135241754017512,-0.0023649863778264983,0.002324355978403619,0.002043294589231141,0.0,0.0, ,0.22950291633605957
0.010068088627303816,0.020265197395557107,-0.08029810368409927, ,0.010222308140444343,0.02030919968911348,-0.08045856537717262, ,0.00022686519128215416, ,0.0007238645738456929,0.0007700989012603764,-0.0023727916074131623,0.0034185717918602506,-0.0035725131856867856,-0.0057247627426521555, ,0.0025975319538364843, ,0.0049446418963151086, ,1.7987069847450654e-05, ,0.12879201614344216,-0.21787373984762187,0.09019326562,2.999195261659152,0.2574231655580898,-0.22910583449709004, ,0.004921644834700005,-0.0026593130434621128,0.0025223771211401427,0.006264562082594359,0.0,0.0, ,0.2537879943847656
0.010084866254217183,0.02028162383803155,-0.08034974287798674, ,0.01024465167097166,0.020330578810330364,-0.08051103948385101, ,0.00023225969039743487, ,0.0008572967028318111,0.000800698254820525,-0.0024134207502700365,0.003572821607748985,-0.005286369244071279,-0.005143804335694347, ,0.002683407358153606, ,0.006380497938529811, ,1.85686901926604e-05, ,0.12891557986942975,-0.21792779897774145,0.09024900609000001,2.999195261659152,0.2574231655580898,-0.22910583449709004, ,0.006506364439161163,-0.0028627422319577895,0.0026220265876543214,0.005689097470995039,1.736265410832386e-05,-1.4158080210459257e-05, ,0.27373600006103516
0.010102210570296448,0.0202967493264763,-0.0804005856379423, ,0.010267051951727703,0.020351723637020102,-0.08056356015149908, ,0.00023823422911286056, ,0.0008759567132078937,0.000750413244065912,-0.002518223738280046,0.0016530247455302579,-0.0058032483553773825,-0.0018182576430485343, ,0.002769814253035866, ,0.0060340850327334486, ,1.911573648019053e-05, ,0.12903914359541732,-0.217981858107861,0.09030345027000002,2.9994049516026364,0.2572865290583244,-0.22883105911311252, ,0.006647242316402458,-0.0020744135694513244,0.0027117486414708885,0.0022767023028913654,-0.000607370546310745,0.0004952699546099596, ,0.2962038516998291
0.010120120138305879,0.020315002380058608,-0.08045700391776608, ,0.01028950876525159,0.020372635244026337,-0.08061612711484399, ,0.00023944570531953717, ,0.0009197892680182706,0.000848283708103126,-0.00277135470452,0.0014957574120380763,-0.006615025440432305,0.0026308921979517966, ,0.00304072432904726, ,0.006782024155792648, ,1.960065789744105e-05, ,0.12916270732140492,-0.2180436399708548,0.09036437590000002,2.999614641546121,0.2572865290583244,-0.22874938037297196, ,0.006894846656871365,-0.0025689975911015028,0.002984600247329961,-0.0020634544335809144,-0.0006266861165673483,0.0009239815969122032, ,0.31590890884399414
0.010138901673369385,0.02033357004534033,-0.08051756454967465, ,0.010312021894611192,0.02039331470405454,-0.08066874010887551, ,0.00023747438798190593, ,0.0009110450011891439,0.0008003728895780964,-0.0025891097713382793,-0.0015322777907467349,-0.0022277525916479103,0.004689343909007124, ,0.002859036404910346, ,0.0027038411050325137, ,2.0013282673825756e-05, ,0.12929399378026674,-0.21811314456672282,0.09042919040000001,2.999614641546121,0.2571498925585589,-0.22847460498899438, ,0.00703477515429313,-0.0026983573371976988,0.0027920791446099913,-0.0020634544335809144,-0.002764333533067366,0.006406282128453476, ,0.33645200729370117
0.010156050178250768,0.020348992820140216,-0.08056431291040723, ,0.010334591123402634,0.020413763087673755,-0.08072139886884479, ,0.000246471205195115, ,0.0009425621944343902,0.0007444543597483965,-0.0021978883320094805,-0.0037390786719724784,0.0025023006001327463,-0.0012468801737024224, ,0.0025046654275788583, ,0.004499135201050833, ,2.043590471924412e-05, ,0.12943300297200278,-0.21818264916259084,0.09047974571,2.9994049516026364,0.2570132560587935,-0.2282815083451574, ,0.007765892705182163,-0.003311358978748189,0.002399640180777343,0.005791701894986061,-0.005710166832942936,0.011145629009189827, ,0.35604405403137207
0.010175979731651814,0.02036662614515968,-0.08061389575942629, ,0.01035721623574974,0.02043398146331852,-0.08077410313026558, ,0.00025109721418835405, ,0.0010193369984831714,0.0008814744501068277,-0.0026977343543235282,-0.00211272491877998,0.0029519193875311646,-0.009516453412709677, ,0.003015595425312421, ,0.003630073623224216, ,2.0840567801865547e-05, ,0.12957973489661304,-0.21825215375845886,0.09053418989,3.00003402143309,0.2570132560587935,-0.22819982960501684, ,0.007677909364422261,-0.003558055198337839,0.0029237906607929524,0.013687052297614527,-0.005629742061539682,0.009595761129944695, ,0.3798680305480957
0.010197260865693161,0.020385070564575464,-0.08067012668143608, ,0.010379897016303645,0.02045397089728993,-0.08082685262891402, ,0.0002503322631440815, ,0.0008830334138577036,0.0008920305923200175,-0.0025666746302632675,-0.0054898838321721325,-0.005180554991987142,0.03361419640994046, ,0.0028571463464899857, ,0.00754830937391651, ,2.1199237247164356e-05, ,0.12974191228697177,-0.21832165835432688,0.09059381923000001,3.0002437113765743,0.256876619559028,-0.22792505422103929, ,0.0074736869695933485,-0.004204945199151615,0.00277553781495034,-0.030458917601848375,-0.0037174903833564047,0.00999587569731206, ,0.3992900848388672
0.010228590101586443,0.020409556089607397,-0.0807437543420454, ,0.01040263325024196,0.020473732453758376,-0.08087964710082829, ,0.00022994883169781096, ,0.0010374449498665977,0.0007367753406745351,-0.0021436446415719545,-0.006447931558019983,-0.004381632444068823,0.02190742786987119, ,0.0024928582542876236, ,0.007795801703902004, ,2.1412039945388984e-05, ,0.1300044852046954,-0.21842977661456603,0.09067548550000001,3.0002437113765743,0.2567399830592626,-0.2275686000969212, ,0.009648077409288849,-0.0033807568696179774,0.002358077205033309,-0.018017894073021318,-0.005452013473491839,0.011276172906155972, ,0.42244887351989746
0.01024901385690104,0.020424020657322534,-0.0807822404660105, ,0.010425424723268552,0.020493267194764443,-0.08093248628230933, ,0.0002418464017419549, ,0.000988001154235419,0.0007416011083036305,-0.0019560155046517277,-0.005047140586775405,-0.00430390553933105,0.017827270858629923, ,0.0023134638832377837, ,0.006633040853600061, ,2.1666641200484603e-05, ,0.1301898307936768,-0.21850700394330827,0.09071826307000001,3.0002437113765743,0.2566033465594972,-0.2273755034530842, ,0.009233122986620627,-0.00389755699289754,0.002173098433833561,-0.01430142523759579,-0.005284098805814914,0.009952136192962207, ,0.4422440528869629
0.010270315467959906,0.020440044516115984,-0.08083099102772293, ,0.010448271221612683,0.02051257618022159,-0.08098536990992036, ,0.00024649935461292075, ,0.0010362391656162134,0.0007556614767903779,-0.0023527541680909833,-0.00537959117175925,-0.004357523332238412,0.016292730371831706, ,0.0026796022188622505, ,0.006923005900198333, ,2.192158963518044e-05, ,0.13037517638265816,-0.2185765085391763,0.09077011467000001,3.00003402143309,0.2564667100597317,-0.22710072806910664, ,0.00914794387762482,-0.004518374006356027,0.0028861771190433053,0.0,-0.002896573711433834,0.007973171525034566, ,0.46267199516296387
0.010293384812544146,0.020458244316144642,-0.08088569700414916, ,0.010471172532028745,0.020531660467917053,-0.08103829772048748, ,0.00024553081918075767, ,0.0011205739196041974,0.0009399775064813173,-0.002860980622803632,-0.0049839704478768935,0.0016127225629819471,0.0026171873555686747, ,0.0032131688013619527, ,0.00523840007051602, ,2.21501986989915e-05, ,0.13056052197163956,-0.21865373586791853,0.09083104030000001,3.0002437113765743,0.2563300735599663,-0.22682595268512912, ,0.008889235044844778,-0.003935566599692145,0.0031056368726847345,0.0022694312613057424,-0.006907838177055716,0.012455833469013904, ,0.4829530715942383
0.01031671314822466,0.02047663548661667,-0.08093867820633845, ,0.01049412844179563,0.02055052111351393,-0.08109126945109978, ,0.00024539633296503526, ,0.0011362217436566603,0.0009233063333622827,-0.0026519725155183483,-0.004299792437752857,0.0033883146334002905,-0.0014844647921900956, ,0.003029266026457531, ,0.0054743849820320465, ,2.2359492083873826e-05, ,0.13075359029349518,-0.21872324046378655,0.09088937335000001,3.0004534013200588,0.2563300735599663,-0.226662595204848, ,0.00926491559845782,-0.004247473546946479,0.002902480233236152,0.0071097535370908595,-0.006907838177055716,0.013705396263600443, ,0.5053789615631104
0.01033940321666347,0.020495317163910225,-0.08099031699177363, ,0.010517138738716037,0.02056915917055326,-0.0811442848391087, ,0.0002464724239288505, ,0.0011425202359857352,0.0009220491338803678,-0.0025778081894652707,-0.0032130168973741476,0.00236092366919522,-0.0007386722258973955, ,0.002966584257458509, ,0.003987159144146242, ,2.265596790518023e-05, ,0.1309466586153508,-0.21880046779252882,0.09094641011000001,3.0004534013200588,0.2563300735599663,-0.22658091646470743, ,0.009489618837199369,-0.004314357235424968,0.002833803864081125,0.00614183121299919,-0.005903051183479596,0.012874983875783069, ,0.5228378772735596
0.010351289626938032,0.02050419792460744,-0.08101647558227548, ,0.010540203211116202,0.020587575690454937,-0.08119734362212894, ,0.00027450581408267684, ,0.0011525330037358034,0.0008696930520294048,-0.0024798607773709592,4.042346505176374e-05,-0.0018264675171590144,-0.0020070895157738937, ,0.002869565786768338, ,0.0018269147637419028, ,2.3051129222304105e-05, ,0.1310470541427157,-0.21884680418977415,0.09097492849000001,3.0004534013200588,0.2561934370602008,-0.22638781982087042, ,0.00982018610980528,-0.003629203323880335,0.0027345599175965666,0.005736301001754842,-0.002776377831690332,0.008102839464797324, ,0.5417189598083496
0.010373932583691547,0.020521583521402955,-0.0810673894910619, ,0.010563321647845073,0.020605771722520812,-0.08125044553803817, ,0.00027652375515132145, ,0.0010948821023055028,0.0009482712505840726,-0.002775855771637915,-0.005063142397094025,0.004017684104159855,0.0062484682606626036, ,0.0031310318502961163, ,0.0064635281641886155, ,2.3428648572192995e-05, ,0.1312323997316971,-0.2189240315185164,0.09103066896,3.0006630912635437,0.2560568005604354,-0.22603136569675233, ,0.008740836780311997,-0.004188120591107589,0.0030242664742737803,0.0,-0.006348350164665066,0.015488505938709388, ,0.559596061706543
0.010398309832385768,0.020543734774018066,-0.08113139479132639, ,0.010586493838273973,0.02062374831393528,-0.08130359032497694, ,0.0002673325428215115, ,0.001248746009815697,0.0010590332940541227,-0.0033763744920588703,-0.005056315178331858,0.0018411573288952795,0.005576662349977412, ,0.003752442248132747, ,0.005381094967902689, ,2.374572537474842e-05, ,0.1314254680535527,-0.21900898158013288,0.09110066862,3.0006630912635437,0.2560568005604354,-0.22594968695661177, ,0.009630138936888421,-0.003874605516697281,0.0036483764360971146,0.0,-0.006313869363407718,0.01402087502886312, ,0.5777349472045898
0.010424260549710648,0.020563886946658557,-0.08119734099239583, ,0.010609719572296008,0.020641506509767284,-0.08135677772134965, ,0.00025659289969717135, ,0.0011690057985033083,0.0009455912752581848,-0.0028376063550590675,-0.0005542980640130747,-0.0015913090071619496,-0.004222548162115017, ,0.003211343526166325, ,0.001685084720738864, ,2.400198343897605e-05, ,0.13162625910828255,-0.2190784861760009,0.09117196457000001,3.000872781207028,0.2559201640606699,-0.22575659031277479, ,0.009338047989787586,-0.0036681454246745124,0.0030977852042007007,0.00760106135565857,-0.003789517077058506,0.007515768578172787, ,0.5975558757781982
0.010447801256461522,0.020580315924029997,-0.0812497184793235, ,0.010632998640325436,0.020659047352972575,-0.08141000746582328, ,0.00025727275037691936, ,0.0011566210532951648,0.0008420971963160285,-0.0026049530262918816,-0.004177905450110298,0.0016380701475481668,-0.0020695653696393484, ,0.002971982540015362, ,0.004487556978847179, ,2.424547927056229e-05, ,0.13181932743013816,-0.2191402680389947,0.09122900133,3.0010824711505126,0.25578352756090456,-0.22531845744851614, ,0.00953164592814783,-0.003313142174208578,0.0028424003426124203,0.006916179650925747,-0.006169531986614654,0.011942383774232132, ,0.6149020195007324
0.01045684213778773,0.02058700500980009,-0.08126976163513644, ,0.010656330833297168,0.020676371884395247,-0.08146327929732886, ,0.00029194393895298076, ,0.0011893126508150987,0.0008291036408508937,-0.0025903312973332634,-0.00430659893162034,0.00112871296933416,-0.001977241047839874, ,0.002968449706261717, ,0.004452054268352492, ,2.4600479650230702e-05, ,0.1318965547588804,-0.21916343623761736,0.09125103826000001,3.0010824711505126,0.25578352756090456,-0.22531845744851614, ,0.009949582637243366,-0.0031883041552364247,0.0028292738046181176,0.006773017430576652,-0.006169531986614654,0.01187382842992386, ,0.6360139846801758
0.010484455435211947,0.0206071441246021,-0.08132980650401371, ,0.01067971594266634,0.020693481142768977,-0.08151659295506078, ,0.00028367221360586943, ,0.001204485718320326,0.0008002771217032737,-0.0027515587987359735,-0.00597556446786284,-0.002672199776843561,0.00864681805283648, ,0.0031084248647925625, ,0.006545840068259005, ,2.49063542150336e-05, ,0.13222863227247206,-0.21925610903210804,0.09134696372000001,3.001292161093997,0.25578352756090456,-0.22507342122809446, ,0.009628933769231959,-0.002335314854101472,0.003093573804622257,-0.0048103127991392025,-0.005410384482029317,0.01574494909981073, ,0.6536178588867188
0.010504290602410862,0.020620213209444245,-0.08137676879811453, ,0.010703153760407626,0.02071037616471946,-0.08156994817847638, ,0.00029153762554667096, ,0.0011632907810172565,0.0008559512202053536,-0.0027957511625016666,-0.003584274843934136,0.0007935310083227653,0.010378142783066351, ,0.003146763813062587, ,0.0036710648928106634, ,2.5222404871973336e-05, ,0.13229041413546586,-0.2192715544978565,0.09136770436000001,3.001292161093997,0.2556468910611391,-0.224962003324398, ,0.009646474694635768,-0.002700198777543786,0.003036951672068637,-0.0048103127991392025,-0.0030839064147383938,0.013530221545734238, ,0.6722579002380371
0.010532767678388158,0.02063963084330926,-0.08144525272732805, ,0.01072664407901468,0.020727057984765977,-0.08162334470729776, ,0.0002773955967796168, ,0.0012213231356425313,0.0008993413881518093,-0.003028268777080367,-0.0026833306318693015,-0.001014789652654946,0.009689692886246949, ,0.003386865353145641, ,0.002868808300391818, ,2.5474459397986104e-05, ,0.13252209612169258,-0.21932561362797606,0.09144159289,3.001292161093997,0.25551025456137366,-0.22452387046013936, ,0.009967501786574332,-0.0025053703896951683,0.0032802330148270185,-0.0048103127991392025,-0.002321640567763328,0.01172177302382571, ,0.6901259422302246
0.01055305895200626,0.020654583765630743,-0.08149542202237683, ,0.010750186691499682,0.02074352763532317,-0.08167678228151005, ,0.00028224439981427166, ,0.0013094375147340597,0.0008761858149729268,-0.0032304060209934187,-0.002931733283654228,0.004712539421732232,0.000697952534855183, ,0.0035941412392702676, ,0.0055500529273219265, ,2.572916304938345e-05, ,0.13269199624492553,-0.2193642272923472,0.09149603707000001,3.0010824711505126,0.25551025456137366,-0.22436051297985823, ,0.01038498233378368,-0.00164861780228169,0.003480186043259778,0.006266860656979886,-0.002321640567763328,0.015966400418106503, ,0.7105669975280762
0.010586498457740054,0.020678410095165693,-0.08157666456709951, ,0.010773781391392803,0.02075978614670266,-0.08173026064136249, ,0.00025551656116644373, ,0.0012063335535081863,0.00076028403242525,-0.002687939468440921,-0.0009624311451625752,0.0014675062395898774,-0.007639509839175119, ,0.0030427439981508377, ,0.0017549496095618604, ,2.5886388545495402e-05, ,0.13294684642977495,-0.21941828642246677,0.09158418479000001,3.001711540980966,0.25551025456137366,-0.2241971554995771, ,0.00982899547042515,-0.001702179078282183,0.002917364747252748,0.01229129599459419,-0.002321640567763328,0.010154560328694965, ,0.7286920547485352
0.010598611759181344,0.020685959645763308,-0.08160012501654179, ,0.010797427972741556,0.020775834547114767,-0.08178377952736811, ,0.0002851918021511281, ,0.0011923872420672916,0.0007458383264799678,-0.002112941345274134,-0.000415266805033657,0.004362212601030608,-0.005665215786958454, ,0.0025382244331146426, ,0.004381933962742711, ,2.6208329976865863e-05, ,0.13305496469001407,-0.21944145462108944,0.09161011059000002,3.001711540980966,0.25551025456137366,-0.22411547675943655, ,0.010582410023551083,-0.002995479566084339,0.002359124928909953,0.01229129599459419,-0.002253103976289334,0.014288929830599963, ,0.7444620132446289
0.010622853058673143,0.02069979164358228,-0.0816492948413046, ,0.010821126230110329,0.02079167386267062,-0.08183733868030436, ,0.00028829685756546857, ,0.0012648377544086044,0.0009199008256812,-0.002689520309368109,-0.0010133356678954444,0.0068650412416222896,-0.010953816073761244, ,0.003111197770725912, ,0.006939426509754108, ,2.6526022545736796e-05, ,0.13326347847761813,-0.21949551375120901,0.09166325848000001,3.001711540980966,0.2552369815618427,-0.22372928347176255, ,0.010323038074393689,-0.003664935375565222,0.0029618466939382673,0.01816136082182622,-0.0040514802272273946,0.015661303303178713, ,0.7601029872894287
0.010634751017211853,0.020708402517085063,-0.08168059583635084, ,0.010844875958579808,0.020807305117383743,-0.08189093784121257, ,0.00031333364699625963, ,0.0013695059701524337,0.000961105419778628,-0.0036269733899609337,-0.0015804458334240505,-0.0014009844525657254,-0.012269157950258694, ,0.003994271673496398, ,0.0021120051706996585, ,2.6904810347446296e-05, ,0.13335615127210884,-0.21951095921695746,0.09169696202000001,3.001711540980966,0.2552369815618427,-0.22356592599148142, ,0.010141565263965733,-0.0017284191164220672,0.0038869720644216696,0.015277649631724597,-0.0040514802272273946,0.0067771143105485945, ,0.7753589153289795
0.010663764092166681,0.020733184016276537,-0.08176754768113771, ,0.010868676953746409,0.020822729333171516,-0.08194457675139825, ,0.00028521384317022004, ,0.0014586072657693197,0.0011301482924830231,-0.00431318299870326,-0.0032206785999950335,0.0036696518821072513,-0.005570708430163244, ,0.004691302367046937, ,0.00488253152448207, ,2.7186438750754715e-05, ,0.1335646650597129,-0.21956501834707703,0.09179029490000001,3.001711540980966,0.2552369815618427,-0.2234025685112003, ,0.010190361580090262,-0.0019060723369292564,0.004599714559630379,0.011409755871292736,-0.0040514802272273946,0.013550034234991353, ,0.7951159477233887
0.010694990439856816,0.020755991294794076,-0.08184796971503486, ,0.01089252901172189,0.02083794752985752,-0.08199825515243159, ,0.00026138864652810486, ,0.0014321141875772133,0.0009730808345296399,-0.003159593000653983,-0.003928688832444028,0.0011145910360973767,0.006491988843616842, ,0.003602896790996168, ,0.004083737112625069, ,2.7388956059224294e-05, ,0.13380406977881384,-0.2196113547443224,0.09187714633,3.0019212309244505,0.2552369815618427,-0.22315753229077862, ,0.012027996544827358,-0.0030802438490117375,0.0034485411387746275,0.0,-0.0040514802272273946,0.015557387318616975, ,0.8103330135345459
0.010709902794748805,0.020765312284845544,-0.0818786920872554, ,0.010916431929132542,0.02085296072517274,-0.08205197278614687, ,0.0002834832147577745, ,0.0013856009955165371,0.0008209988900459229,-0.0029177500184654225,-0.0034631396067966885,-0.0024339553352412946,-1.174839442014651e-06, ,0.0033327457848578894, ,0.004232903766759594, ,2.7645270367445538e-05, ,0.13392763350480144,-0.21963452294294505,0.09191084987,3.0021309208679354,0.2552369815618427,-0.22307585355063805, ,0.011737062405376357,-0.0019475589794527937,0.003173070023904383,0.004143924757437135,-0.0040514802272273946,0.010168241324444634, ,0.8298320770263672
0.010737107883684722,0.02078160360066385,-0.08193597423268495, ,0.010940385503118762,0.020867769934757904,-0.08210572939464283, ,0.00027850178223007196, ,0.00115581875583757,0.0006582425102353016,-0.0024630519403702634,-0.004352318766871871,0.0034518621405617896,0.0018636218151669522, ,0.002799254375648719, ,0.005555000521625438, ,2.787810568157692e-05, ,0.1341593154910282,-0.2196808593401904,0.09197307179000001,3.0021309208679354,0.25510034506207735,-0.22280107816666053, ,0.009709990735898575,-0.0012415917198006095,0.0026685896331043726,0.004143924757437135,-0.003394766482110093,0.01445015218643824, ,0.8455510139465332
0.01074962806516827,0.020789733539467392,-0.08196191802937611, ,0.01096438953133465,0.020882376172164572,-0.08215952472028326, ,0.00030619201334174725, ,0.0013535747894675419,0.0008398712781088785,-0.0028083238915609663,-0.0021899382777252467,-0.0027560396817099837,0.00015090729426358446, ,0.0032286578565073245, ,0.003520168208016371, ,2.817661448149818e-05, ,0.13426743375126732,-0.21970402753881307,0.09200159017000001,3.0021309208679354,0.25510034506207735,-0.22271939942651997, ,0.011524180594497486,-0.00236746802780308,0.0030703183346183507,0.003877483649807829,-0.0032706601289010746,0.00950541402504395, ,0.8608288764953613
0.010776850378474534,0.02080648025845605,-0.08202147840073307, ,0.010988443811947229,0.0208967804488573,-0.08221335850569615, ,0.00029957282946874544, ,0.0013738478558151309,0.0007815846408202986,-0.0029217110459245263,-0.002369329451774904,-0.004809678358601948,-0.0010594545129570213, ,0.0033218560952532872, ,0.005361597499938491, ,2.8446631706031843e-05, ,0.13449139300461985,-0.21973491847031,0.09206640467,3.00234061081142,0.25510034506207735,-0.22239268446595772, ,0.011568565349076042,-0.0013671509758883687,0.003168651585438632,0.003989777799522831,-0.0029263696293809504,0.007140930800077673, ,0.8791530132293701
0.010804866067569464,0.020821996918025238,-0.082084229768135, ,0.011012548143636077,0.020910983774215533,-0.08226723049377456, ,0.00029075723701840734, ,0.0014680328263407352,0.0008855418201231558,-0.0033468194155848495,-0.0018196268103773368,-0.0023142059763398585,0.0008092783805664409, ,0.0037603862693793453, ,0.002943907371174594, ,2.8684017237317295e-05, ,0.13472307499084657,-0.21975808666893265,0.09213381175,3.00234061081142,0.2549637085623119,-0.22211790908198017, ,0.01201531293472661,-0.001314464519623895,0.0036177178105836934,0.003705072704740365,-0.0016339607522319218,0.010354402466603334, ,0.8945119380950928
0.010836405170134311,0.020840937198324725,-0.08215613283607179, ,0.011036702325592585,0.020924987155535056,-0.08232114042767637, ,0.00027278352420715936, ,0.0014917206016521682,0.0010045765900611116,-0.0038445740226807743,-0.0018714460980909992,-0.0018615626430639033,0.0017532089834648098, ,0.004244426214998224, ,0.0026396448875151517, ,2.886721164837566e-05, ,0.13497792517569598,-0.21978125486755531,0.09221158915000001,3.002550300754904,0.2549637085623119,-0.2220362303418396, ,0.011493185406578945,-0.001407559019739461,0.004128774370139969,0.0028061499871280455,-0.0016339607522319218,0.010497431074072135, ,0.9148569107055664
0.010849550698590534,0.020850413570568514,-0.08219107927731928, ,0.011060906157519637,0.02093879159802997,-0.0823750880508243, ,0.0002938384496350549, ,0.0013850832314611537,0.0008993367815728468,-0.003465613264718356,-0.0018688916274368901,-0.0021454412750273972,0.0012564827201865128, ,0.003838976101170272, ,0.0028452897356464283, ,2.9169555457259874e-05, ,0.1350783207030609,-0.21979670033330376,0.09224918156,3.002550300754904,0.2549637085623119,-0.2220362303418396, ,0.010824319703309798,-0.0011982463155912136,0.0037251663985032745,0.0028061499871280455,-0.0016339607522319218,0.00941515630137131, ,0.9280610084533691
0.010864778869935397,0.020860173727039744,-0.08222702549740264, ,0.011085159439630914,0.020952398104834246,-0.08242907310690643, ,0.0003128836331051858, ,0.0014106350830360881,0.0007640578294791316,-0.002943863567686127,-0.0029598925444370063,-0.0019728385294508336,-0.002610298151693587, ,0.0033526121770091877, ,0.0035571133685616037, ,2.950996607543673e-05, ,0.13531000268928764,-0.21981986853192645,0.09231788493000001,3.002759990698389,0.25482707206254646,-0.22167977621772153, ,0.012009230771762944,-0.0010939634150881792,0.0031699127402985074,0.006799571860462408,-0.0030771689884468547,0.00998951299416188, ,0.9415180683135986
0.010891425578535407,0.020873993655403773,-0.08228498290790032, ,0.011109461972650354,0.020965807677003696,-0.08248309533987552, ,0.0003085744957447553, ,0.001467189237433139,0.0008498128153137743,-0.003360610364425869,-0.002851319452254628,-0.002312688704774745,-0.00278314558091025, ,0.003764110532515979, ,0.003671314646738982, ,2.98299531783373e-05, ,0.13541812094952677,-0.21982759126480067,0.09235029218000002,3.002759990698389,0.25482707206254646,-0.22159809747758097, ,0.011819272830797206,-0.0009851860592790238,0.003620184436363637,0.006799571860462408,-0.0029335438159465814,0.009564264759095739, ,0.9555449485778809
0.010908954185111754,0.020884028182448083,-0.08232459463873876, ,0.011133813557811722,0.02097902131351767,-0.08253715449395002, ,0.0003236775007455107, ,0.001586463074632889,0.0009223699464324239,-0.0037526194107468714,-0.0033589588135032734,-0.0014668063329208356,-0.0014345891805517073, ,0.004177293842569563, ,0.0036652591156611596, ,3.0176950256695783e-05, ,0.1355571301412628,-0.2198353139976749,0.09239306975000001,3.0029696806418733,0.25482707206254646,-0.2215164187374404, ,0.012609213600647195,-0.0007670547989053168,0.004030569716599191,0.006279412146761573,-0.0027744894002549553,0.011525823520650479, ,0.9688949584960938
0.010940681920575348,0.020903121225146953,-0.08240045876729912, ,0.011158213996857845,0.020992040011280723,-0.0825912503136135, ,0.00030270145173802644, ,0.0016626249401517539,0.0009886902162484197,-0.003998250505106304,-0.003476969388038668,8.795942100869766e-05,-0.00039613809618389503, ,0.0044416029918153185, ,0.0034780816498954665, ,3.04645146779673e-05, ,0.13581198032611222,-0.21985075946342333,0.09247473602,3.0029696806418733,0.25482707206254646,-0.22127138251701872, ,0.013096458950934416,-0.0008497332177272791,0.004293480194070082,0.006279412146761573,-0.002526285927600067,0.013807252075069738, ,0.9821369647979736
0.010953582755331065,0.02091075425274143,-0.08243320230082898, ,0.011182663092040314,0.02100486476512421,-0.0826453825436148, ,0.0003261212115708177, ,0.0017251059399558358,0.0010567713845521746,-0.004355200954277447,-0.0043313373906154595,0.003494521850773269,0.001340524383571641, ,0.004802138233684908, ,0.005565264143773988, ,3.0798626853965e-05, ,0.13591237585347715,-0.21985075946342333,0.09250973585000001,3.0029696806418733,0.25482707206254646,-0.22118970377687816, ,0.013250061652955987,-0.0006944802778262476,0.0046616363827919225,0.006279412146761573,-0.002442374691818158,0.017838292775027114, ,0.9962689876556396
0.010976247805894106,0.02092532669180278,-0.08248984450626207, ,0.011207160646118696,0.02101749656780904,-0.08269955092896858, ,0.0003252580660767057, ,0.001782500407419233,0.0010412984387621162,-0.00435243230418098,-0.004034414554044975,0.0011440337749066586,0.0004992487628914775, ,0.004817185599859767, ,0.00419348453080398, ,3.1121537899833774e-05, ,0.1360899987095843,-0.2198662049291718,0.09257066148000001,3.0029696806418733,0.25482707206254646,-0.22118970377687816, ,0.013920631004616515,-0.0004914091875265247,0.004663001030444965,0.006279412146761573,-0.002315460653828022,0.015910697250038734, ,1.0100629329681396
0.011011794241939816,0.020945324796930183,-0.08257169821217601, ,0.011231706462360208,0.02102993641002591,-0.08275375521495493, ,0.0002977671271677429, ,0.0017446704041181593,0.0009415309639228639,-0.003832100548243186,-0.0018820094213562845,-0.0049629977248173834,-0.005489473108588801, ,0.004314550960051007, ,0.005307853149082728, ,3.1373324520624565e-05, ,0.1363680170930564,-0.21987392766204603,0.09265880920000001,3.0033890605288422,0.25482707206254646,-0.2208629888163159, ,0.014212511840417968,-0.0006500312154935831,0.004134132239813133,0.009229603849133005,-0.0021419211252836443,0.008546353076101906, ,1.0233080387115479
0.011027627086410096,0.02095352408395789,-0.08260659787363296, ,0.011256300344538984,0.021042185280398085,-0.08280799514711948, ,0.0003173533180940306, ,0.0017324135106650987,0.0009172520585830689,-0.0037617889257537443,-0.0018571844869333294,-0.00515859732538426,-0.005613510089133662, ,0.00424189389693252, ,0.005482723760199875, ,3.166216875098314e-05, ,0.13649930355191822,-0.21987392766204603,0.09269640161,3.0033890605288422,0.25482707206254646,-0.2208629888163159, ,0.014170067426977868,-0.0005471610738415259,0.004059330152905199,0.009229603849133005,-0.002068852118203961,0.008264820783483172, ,1.0375728607177734
0.011047228635093343,0.02096370250923369,-0.08264992661229364, ,0.011280942096935644,0.021054244165483123,-0.08286227047127377, ,0.0003284961007520103, ,0.0019378570106802352,0.0010459179345934807,-0.0043447615244177245,-0.002306711792404429,-0.004611307677527825,-0.0046242501623107056, ,0.004870953379350644, ,0.005156071784007205, ,3.196795923276264e-05, ,0.13666148094227692,-0.21987392766204603,0.09274306805000002,3.0033890605288422,0.25482707206254646,-0.2206996313360348, ,0.015644072132949355,-0.00046408207034823054,0.004678065057268723,0.009229603849133005,-0.00199195743652721,0.010548896196534206, ,1.0512669086456299
0.011086474762907689,0.020984059359785263,-0.08273657152700778, ,0.011305631524336675,0.021066114049774116,-0.0829165809334953, ,0.00029523896194980244, ,0.001959477168587066,0.0009651927087954474,-0.00401278881762198,-0.002755883161199548,-0.0032553233434627227,-0.0035167261520274423, ,0.00456876589837539, ,0.004265210549105617, ,3.2193299552050714e-05, ,0.13698583572299436,-0.21987392766204603,0.09283640093000001,3.0033890605288422,0.25482707206254646,-0.22053627385575367, ,0.016412476921215974,-0.00036062453873852464,0.004342642181025082,0.009168459264255628,-0.0018613179945576482,0.012957008572968177, ,1.0653200149536133
0.011086474762907689,0.020984059359785263,-0.08273657152700778, ,0.011330368432033956,0.021077795915702,-0.08297092628012727, ,0.00035098833892980164, ,0.001959477168587066,0.0009651927087954474,-0.00401278881762198,-0.002755883161199548,-0.0032553233434627227,-0.0035167261520274423, ,0.00456876589837539, ,0.004265210549105617, ,3.253271577058297e-05, ,0.13714029038047884,-0.21987392766204603,0.0928791785,3.0035987504723267,0.25482707206254646,-0.2204545951156131, ,0.015367925758456807,-0.00032413156240507874,0.004138428558067031,0.00653996400751644,-0.0018016347770552872,0.008746847372571972, ,1.080409049987793
0.011137166137458954,0.021009069099038578,-0.08284205965583823, ,0.011355152625824093,0.021089290743636926,-0.08302530625777935, ,0.00029585966013432035, ,0.0018496245042498578,0.0009342133256354163,-0.003921624169875778,-0.003428901392506846,-0.003006546358917641,0.0015702379304241645, ,0.0044354257376570064, ,0.004560338237490974, ,3.2816111688202976e-05, ,0.13740286329820248,-0.21987392766204603,0.09295047445000001,3.0038084404158116,0.25482707206254646,-0.22037291637547254, ,0.015357977271155652,-0.0002769841920458895,0.00423413384370016,0.0040654784332744545,-0.0017094316403285011,0.013281229524732254, ,1.092155933380127
0.011156914438972248,0.021017869970936486,-0.08288464962184966, ,0.01137998391200797,0.021100599511890288,-0.08307972061332654, ,0.0003076635475038184, ,0.001989140145595993,0.00104167938866835,-0.00432770417602531,-0.000509076092988478,-0.009542995735625984,-0.000986294560300977, ,0.004875530525264407, ,0.009556564474777115, ,3.31183916651773e-05, ,0.13756504068856118,-0.21987392766204603,0.09299584460000002,3.0038084404158116,0.254690435562781,-0.22017981973163553, ,0.016353083156724242,-0.0002546125881392984,0.004672575981226167,0.0040654784332744545,0.0,0.006726960064914002, ,1.1031270027160645
0.011177596990428454,0.021028613864283154,-0.08293037063299678, ,0.01140486209739022,0.021111723196716305,-0.0831341690939112, ,0.00031637067286794155, ,0.0020385252897597295,0.0010929623509001092,-0.004559709389866799,-0.0016762889887480979,-0.00451668334844625,0.0015702118714432858, ,0.005112836959801724, ,0.004817714320394412, ,3.343251398713991e-05, ,0.13773494081179413,-0.21987392766204603,0.09304510362000001,3.0038084404158116,0.254690435562781,-0.2200164622513544, ,0.016538330700326034,-0.0002360049593601267,0.004914782943535946,0.0040654784332744545,0.0,0.012645547596566015, ,1.1146419048309326
0.011191726477683205,0.0210363120752635,-0.08296291512668068, ,0.01142978698927849,0.02112266277231375,-0.08318865144694071, ,0.00033924347649824134, ,0.002047494893148298,0.001155297865223441,-0.004834292000462807,-0.0006941525793876116,-0.002884820576769258,-0.005152588653729039, ,0.0053756234652919, ,0.0029671594030746284, ,3.378731998005237e-05, ,0.13784305907203329,-0.21987392766204603,0.09308010345,3.0040181303592957,0.254690435562781,-0.2200164622513544, ,0.01599746148996473,-0.00022489963182362158,0.0051953070841487285,0.010823986975062315,0.0,0.012210090641483456, ,1.1262760162353516
0.01121986051998132,0.021052509483283105,-0.08302916280036865, ,0.011454758395483145,0.02113341921082813,-0.0832431674200898, ,0.000327904518402349, ,0.0020719118861794363,0.0011705997790327951,-0.00499021240308201,-0.0017658304452939733,0.0004655597927822818,-0.002898613957664651, ,0.005528593178615767, ,0.0018261708539042347, ,3.411174430352602e-05, ,0.1380670183253858,-0.21988165039492025,0.09315139940000002,3.0040181303592957,0.254690435562781,-0.21968974729079213, ,0.01601906508414429,0.0,0.005352423225806452,0.010237883483376106,0.0,0.016184567854185965, ,1.137166976928711
0.011240649622908704,0.021064731761372,-0.08308122853313873, ,0.011479776124316582,0.021143993482352713,-0.08329771676129938, ,0.000332161191322122, ,0.0020982051733299503,0.0011825735112581581,-0.005049644762755732,-0.006509140118196432,0.016477762933883807,0.011852679863029347, ,0.0055946275379996835, ,0.017716816110699404, ,3.443821393949469e-05, ,0.13822147298287027,-0.21988165039492025,0.09320713987000001,3.00422782030278,0.254690435562781,-0.21944471107037045, ,0.016381312197215742,0.0,0.005416120884053043,0.003987249172021952,0.0,0.03632713758094729, ,1.148071050643921
0.011261519610738076,0.02107522929763786,-0.083131314300696, ,0.011504839984592573,0.021154386554931022,-0.08335229921877671, ,0.00033809023903982974, ,0.0021491172693247386,0.0012269162685340808,-0.005172975523214193,0.002669127175251928,-0.017697462271362988,-0.004555234016304785, ,0.00573443147409371, ,0.017897608974936266, ,3.4770012278179396e-05, ,0.138383650373229,-0.21988165039492025,0.09326028776,3.00422782030278,0.25455379906301556,-0.21908825694625234, ,0.01678403635629126,0.0,0.005555916121381235,0.003987249172021952,0.001728433278829003,-0.0022870465671888645, ,1.1595709323883057
0.011283799064868698,0.021087387281266218,-0.08318318966710547, ,0.011529949785626013,0.021164599394558083,-0.08340691454099587, ,0.0003414743137713535, ,0.00197637139468615,0.001007745679882624,-0.004206540280584635,-0.0014223689567658417,0.0013424904085003518,0.004558361203680425, ,0.004755688843610022, ,0.0019558662093729336, ,3.510194149081397e-05, ,0.13856127322933615,-0.21988165039492025,0.09331602823000001,3.00422782030278,0.25455379906301556,-0.21884322072583065, ,0.016313725555865702,0.0,0.004551089005714286,0.003987249172021952,0.001728433278829003,0.018799146467218822, ,1.170569896697998
0.011325307768471241,0.021105662855662306,-0.08326595557694796, ,0.011555105337232047,0.021174632965182495,-0.08346156247669795, ,0.0003095575194457479, ,0.002085942416678827,0.0009951836127779212,-0.004188913983583473,0.004036776959750583,-0.020005262785219847,-0.012165879723130707, ,0.004784197586921215, ,0.02040848122812475, ,3.5364780337856475e-05, ,0.13890879620867624,-0.2198662049291718,0.09340547224000001,3.004437510246265,0.25455379906301556,-0.21884322072583065, ,0.01742827209521961,0.00015813452798442562,0.004545893698630138,0.010297170686381822,0.001728433278829003,-0.005738083552904521, ,1.1817128658294678
0.011325307768471241,0.021105662855662306,-0.08326595557694796, ,0.011580306449725724,0.021184488228707925,-0.08351624277489038, ,0.00036589813928356024, ,0.002085942416678827,0.0009951836127779212,-0.004188913983583473,0.004036776959750583,-0.020005262785219847,-0.012165879723130707, ,0.004784197586921215, ,0.02040848122812475, ,3.573191477978711e-05, ,0.13890879620867624,-0.2198662049291718,0.09340547224000001,3.004437510246265,0.25455379906301556,-0.21884322072583065, ,0.01742827209521961,0.00015813452798442562,0.004545893698630138,0.010297170686381822,0.001728433278829003,-0.005738083552904521, ,1.192795991897583
0.011368000691949922,0.021126083068908924,-0.08335205086759247, ,0.011605552933921352,0.021194166144995266,-0.0835709551848478, ,0.0003301294791866628, ,0.002126905136138144,0.001077621271058779,-0.004767822521169391,0.003134514772290613,-0.019411532514448875,-0.010078642811077067, ,0.00533077148781855, ,0.019662979808600795, ,3.602320305918659e-05, ,0.1392640419208906,-0.2198662049291718,0.09349880512000001,3.0046472001897495,0.25455379906301556,-0.2187615419856901, ,0.01697012545752339,0.000681116738656308,0.005128400360592403,0.008348470841298018,0.001728433278829003,-0.00510098109408782, ,1.206040859222412
0.0113908350655598,0.021137957488062006,-0.08340256009826358, ,0.011630844601132015,0.02120366767186379,-0.08362569945611183, ,0.00033423581262603016, ,0.0022565439996116883,0.0010851512881587834,-0.0047860917885789505,0.0029573876709805902,-0.020354310519714897,-0.009748202722657688, ,0.0054015015272680465, ,0.02056803578512316, ,3.631676457791059e-05, ,0.13944938750987196,-0.2198662049291718,0.09355324930000002,3.0046472001897495,0.25455379906301556,-0.2187615419856901, ,0.018444497873366526,0.000681116738656308,0.005164984280155643,0.00827949317511542,0.0016795489988625835,-0.004472910296472064, ,1.2169189453125
0.011412985238226191,0.021149047703135963,-0.08344931315091794, ,0.011656181263168967,0.021212993765093592,-0.08368047533849109, ,0.0003415689715876693, ,0.0021277820912911647,0.0010835093756428012,-0.004800441685526026,0.002084552859430096,-0.0164247856133739,-0.006854561211120883, ,0.005361500682762355, ,0.016556537697231272, ,3.668784569941536e-05, ,0.13962701036597913,-0.2198662049291718,0.09360380461000001,3.004856890133234,0.25455379906301556,-0.2187615419856901, ,0.016927745550922364,0.000681116738656308,0.0051616369151004544,0.006682342559079936,0.0016311440777535215,-0.0013300886226016839, ,1.2260339260101318
0.011435058368198346,0.021159988545253354,-0.0834988087534077, ,0.011681562732341104,0.021222145378426746,-0.08373528258206134, ,0.0003471998633203615, ,0.00233645199140004,0.0011159158123094583,-0.004866335756865362,0.0021667917761160633,-0.018719397830777522,-0.0068271494322170835, ,0.005512304391706419, ,0.01884438481402138, ,3.7063921647863206e-05, ,0.1398046332220863,-0.21985848219629756,0.09365695250000002,3.004856890133234,0.25455379906301556,-0.2187615419856901, ,0.01924887252707318,0.0005472517369640822,0.005260505785997359,0.006682342559079936,0.0015857387135794698,-0.0012930635926753462, ,1.2393128871917725
0.011456559738406228,0.021169296228147113,-0.08354070249290718, ,0.011706988821454416,0.02123112346356969,-0.08379012093716587, ,0.0003588131728529189, ,0.0023710528986273273,0.001099346824851326,-0.004788933380840622,0.0026830876499614703,-0.01777444082252867,-0.011223996391110228, ,0.005455670281049738, ,0.017975808837772715, ,3.745602124983987e-05, ,0.13998225607819345,-0.21985075946342333,0.09370232265,3.0050665800767185,0.25455379906301556,-0.21867986324554953, ,0.019635204129623583,0.000565757800280168,0.005186848427222403,0.011381434215567155,0.0015472618344092891,-0.0009388342341082305, ,1.2484409809112549
0.011486358019344457,0.021184722979732656,-0.08360388495860167, ,0.011732459343811367,0.02123992897019417,-0.08384499015441517, ,0.0003489201609759292, ,0.0023167778086617993,0.0011567317155850698,-0.0047416137717341145,0.00043781030632694185,-0.013990603466414868,-0.009792231577169918, ,0.0054026279565454775, ,0.0139974519403351, ,3.782403617770783e-05, ,0.14022938353016864,-0.2198430367305491,0.09377102602000001,3.0050665800767185,0.254690435562781,-0.2187096024091054, ,0.0190098039980911,-0.00047112901924209005,0.005143303687439458,0.011381434215567155,-0.0010161543676590343,0.003034013450381911, ,1.257106065750122
0.01151075905359312,0.021196878862831264,-0.0836554402249357, ,0.011757974113210508,0.021248562845939963,-0.08389988998468678, ,0.0003514857107393802, ,0.002470896104941538,0.0012536337288482258,-0.005833175396409072,-0.001272556523427418,-0.014320988866791545,-0.009442478407364004, ,0.006457775181344834, ,0.014377416856815518, ,3.819135648234737e-05, ,0.14043017458489848,-0.2198430367305491,0.09382676649,3.0050665800767185,0.254690435562781,-0.2187096024091054, ,0.019002190940823144,0.0012031663254889356,0.006236809522317934,0.010682816841662406,-0.0010161543676590343,0.00282322630720012, ,1.2667498588562012
0.011536777589559004,0.021211925503197303,-0.08371952327486308, ,0.011783532943945716,0.021257026036415695,-0.08395482017912666, ,0.00034392862075017546, ,0.002566141847724403,0.0013655245485497112,-0.006321788469693393,-0.0025610956389211766,-0.012479656375138528,-0.003560602084099844, ,0.006958070905853334, ,0.012739741913243915, ,3.8539559023004535e-05, ,0.14061552017387988,-0.2198430367305491,0.09389158099000001,3.005276270020203,0.254690435562781,-0.21854624492882427, ,0.019303690308883396,0.0011955498319734911,0.006746637662007625,0.006228262619646153,-0.0010161543676590343,0.0020713871321577627, ,1.2756998538970947
0.011542808344392337,0.02121466507578764,-0.0837341819437035, ,0.011809135650805843,0.021265319485201276,-0.08400978048914755, ,0.0003865884912738549, ,0.0026096822297391213,0.0014210068250212423,-0.0063858900103379865,-0.0021170413564884864,-0.012876227048277712,-0.0034979161828541648, ,0.007043386469668378, ,0.013049102516430214, ,3.89598668985594e-05, ,0.14066957930399945,-0.2198353139976749,0.09391102534000001,3.005276270020203,0.254690435562781,-0.21846456618868368, ,0.019794939832805752,0.0007294410728496888,0.006827608881268754,0.006228262619646153,-0.0010161543676590343,0.006466396377361885, ,1.2855989933013916
0.011590695873649082,0.02123893730407446,-0.0838511899653189, ,0.011834782049073974,0.021273444133849663,-0.08406477066643024, ,0.0003261678988219075, ,0.002706381553210185,0.0015356370809276707,-0.007073305774379218,-0.005505705382684579,0.008804254076830128,-0.008312423188614148, ,0.007727505220557462, ,0.01038401001081182, ,3.926566300489274e-05, ,0.14101710228333955,-0.21981214579905223,0.09403546918000001,3.0059053398506568,0.25455379906301556,-0.21778139710400332, ,0.019339095487766612,0.0011390898581925873,0.007527793724007564,0.02026790924312784,-0.001934471534705509,0.027221342008002226, ,1.2950079441070557
0.011590695873649082,0.02123893730407446,-0.0838511899653189, ,0.011860471954527031,0.02128140092188771,-0.08411979046292332, ,0.0003830515891691351, ,0.002706381553210185,0.0015356370809276707,-0.007073305774379218,-0.005505705382684579,0.008804254076830128,-0.008312423188614148, ,0.007727505220557462, ,0.01038401001081182, ,3.966849533492761e-05, ,0.14101710228333955,-0.21981214579905223,0.09403546918000001,3.0059053398506568,0.25455379906301556,-0.21778139710400332, ,0.019339095487766612,0.0011390898581925873,0.007527793724007564,0.02026790924312784,-0.001934471534705509,0.027221342008002226, ,1.3037118911743164
0.011618146983721486,0.02125292742934518,-0.08392236811695536, ,0.01188620518343516,0.021289190786819245,-0.08417483963084317, ,0.00037001634403608627, ,0.002641475715376757,0.0013800807928004478,-0.006343920344054691,-0.002356794455591807,0.01852464131060675,-0.0027701606639209467, ,0.007009089975260187, ,0.018673960627499087, ,4.004255261403624e-05, ,0.1412178933380694,-0.21979670033330376,0.09411065400000002,3.0059053398506568,0.2544171625632501,-0.21742494297988524, ,0.019840464469678187,0.001634412608521262,0.006792670157782517,0.02026790924312784,0.0039149157133940085,0.03794583734380745, ,1.3135149478912354
0.01164422857997053,0.02126583921703611,-0.08398022495186099, ,0.011911981552561115,0.021296814664126005,-0.08422991792267426, ,0.0003674203482757478, ,0.002619859416996971,0.0012590725560595517,-0.005523870181715504,0.001590244297265301,0.002573235993828318,-0.009961761292252775, ,0.006241960337161373, ,0.0030249653323482944, ,4.040678835712869e-05, ,0.14142640712567345,-0.21978897760042954,0.09417287592000001,3.0059053398506568,0.2544171625632501,-0.21734326423974468, ,0.020920842495253698,0.0009509129076608749,0.0059725577502812155,0.02026790924312784,0.0039149157133940085,0.02106564638809362, ,1.324295997619629
0.011660655077358471,0.021273007911144153,-0.0840165942867628, ,0.011937800879159844,0.021304273487269428,-0.08428502509116899, ,0.00038709485718713436, ,0.0026650789613537848,0.0011754319914476518,-0.005435406169557814,0.0016798818109282625,-0.0017701652870128369,-0.01187133149912414, ,0.0061666787223623315, ,0.002440385891178964, ,4.087160390278559e-05, ,0.14155769358453527,-0.2197735321346811,0.09421176462000001,3.0059053398506568,0.2544171625632501,-0.21734326423974468, ,0.021577294579006544,0.0016807870980812471,0.00587345557522124,0.02026790924312784,0.0039149157133940085,0.016880773529170372, ,1.3326539993286133
0.011701485994430579,0.021288946587672563,-0.08409860373698153, ,0.011963662980977875,0.02131156818769267,-0.08434016088934787, ,0.00035720913611192613, ,0.0025899110893234335,0.001113797139154424,-0.005216337296627704,0.0020412097212370887,-0.005832269588314771,-0.01102413504899877, ,0.005929448398458181, ,0.006179150573882412, ,4.12795940321831e-05, ,0.14189749383100114,-0.21973491847031,0.09429991234000001,3.0059053398506568,0.2544171625632501,-0.21717990675946355, ,0.021097585940077986,0.0017889939226617745,0.00563851735221239,0.01739045232755096,0.0039149157133940085,0.012437931078475819, ,1.3393409252166748
0.011701485994430579,0.021288946587672563,-0.08409860373698153, ,0.01198956767625262,0.02131869969482215,-0.08439532507049965, ,0.0004146321894779124, ,0.0025899110893234335,0.001113797139154424,-0.005216337296627704,0.0020412097212370887,-0.005832269588314771,-0.01102413504899877, ,0.005929448398458181, ,0.006179150573882412, ,4.178269681311971e-05, ,0.14189749383100114,-0.21973491847031,0.09429991234000001,3.0059053398506568,0.2544171625632501,-0.21717990675946355, ,0.021097585940077986,0.0017889939226617745,0.00563851735221239,0.01739045232755096,0.0039149157133940085,0.012437931078475819, ,1.3458678722381592
0.011728677060684535,0.021301762070023295,-0.08415901546387236, ,0.012015514783712123,0.021325668936069683,-0.08445051738818138, ,0.00040965935784706685, ,0.0028636818510015603,0.0014280070825160973,-0.006446894762948769,0.004085439557306746,-0.016446132147415474,-0.01318958858571283, ,0.007197383556265994, ,0.016945974974903397, ,4.227204494979391e-05, ,0.14211373035147942,-0.21971947300456152,0.09436472684000001,3.0059053398506568,0.2544171625632501,-0.217098228019323, ,0.022265823922682025,0.001405457548154479,0.006934615376578147,0.015147618239390188,0.0039149157133940085,0.002271588092863635, ,1.3524370193481445
0.011757534059379755,0.02131370699472477,-0.08422750406310098, ,0.012041504122574162,0.021332476836833734,-0.08450573759621875, ,0.0003980015109451612, ,0.0029955535249502315,0.001518489481989961,-0.007702303978696782,0.00038873927088231737,-0.016670692511835988,-0.003685764270758243, ,0.00840265659229295, ,0.016675223534830017, ,4.273640347050586e-05, ,0.1423299668719577,-0.2196731366073162,0.09443731908000001,3.0061150297941412,0.2544171625632501,-0.21701654927918243, ,0.02192121542122217,0.003497135895280963,0.008181207765793529,0.005753223402838499,0.0039114311868250606,0.0039511996119075965, ,1.3590779304504395
0.011757534059379755,0.02131370699472477,-0.08422750406310098, ,0.012067535512546046,0.021339124320501446,-0.08456098544870574, ,0.0004560227800885888, ,0.0029955535249502315,0.001518489481989961,-0.007702303978696782,0.00038873927088231737,-0.016670692511835988,-0.003685764270758243, ,0.00840265659229295, ,0.016675223534830017, ,4.329485929619082e-05, ,0.1423299668719577,-0.2196731366073162,0.09443731908000001,3.0061150297941412,0.2544171625632501,-0.21701654927918243, ,0.02192121542122217,0.003497135895280963,0.008181207765793529,0.005753223402838499,0.0039114311868250606,0.0039511996119075965, ,1.3660609722137451
0.011790459065132855,0.021331352195879612,-0.08431151271106148, ,0.012093608773823787,0.02134561230845051,-0.08461626070000487, ,0.0004300865418203341, ,0.0031376153128593086,0.0017399850848096626,-0.008062954999846475,0.0030926256092845853,-0.01835542434002391,-0.01062438155305731, ,0.008825158427835648, ,0.018614131776254678, ,4.380367618421075e-05, ,0.14256164885818445,-0.2196499684086935,0.09452676309000001,3.00653440968111,0.2544171625632501,-0.21677151305876075, ,0.02275706032577237,0.0019702898545741142,0.008600870151187908,0.012020343722041044,0.0037469211026146024,0.001464175621860916, ,1.3736069202423096
0.011809735632101609,0.02134045734593129,-0.08435911978471751, ,0.012119723727091618,0.021351941720050525,-0.0846715631047472, ,0.0004402787050444556, ,0.0032927817446411645,0.0015856922671286418,-0.008313195776711416,-0.003765996666461539,0.00017243292499647607,-0.0008963517847592885, ,0.009081082292645861, ,0.003769936909404971, ,4.43245322997113e-05, ,0.1427006580499205,-0.21962680021007083,0.09457731840000001,3.0067440996245947,0.2544171625632501,-0.21652647683833906, ,0.024122252556804977,0.004341637190423863,0.008824826326869806,0.011709555353255038,0.0036594498025434856,0.024131269518580963, ,1.381274938583374
0.011857205736470002,0.021364838666756415,-0.08447550431082602, ,0.012145880193521558,0.02135811347266526,-0.0847268924178327, ,0.00038285003687341123, ,0.003269972529758546,0.001658700359454326,-0.008072649999558836,-0.01241301754249464,-0.0010602362692822519,0.048700962450994825, ,0.00886632309603066, ,0.012458213000821556, ,4.474378807148022e-05, ,0.1430481810292606,-0.21958046381282548,0.09470176224000001,3.0071634795115636,0.25455379906301556,-0.21622950104133265, ,0.025393883210722713,0.002588317943632959,0.008605516758508914,-0.03444624833537153,0.0019118764353926883,0.03584653486211195, ,1.3879258632659912
0.011857205736470002,0.021364838666756415,-0.08447550431082602, ,0.012172077994772705,0.021364128481654178,-0.08478224839443038, ,0.000439587279431287, ,0.003269972529758546,0.001658700359454326,-0.008072649999558836,-0.01241301754249464,-0.0010602362692822519,0.048700962450994825, ,0.00886632309603066, ,0.012458213000821556, ,4.5253564223762094e-05, ,0.1430481810292606,-0.21958046381282548,0.09470176224000001,3.0071634795115636,0.25455379906301556,-0.21622950104133265, ,0.025393883210722713,0.002588317943632959,0.008605516758508914,-0.03444624833537153,0.0019118764353926883,0.03584653486211195, ,1.3944969177246094
0.011890573845270773,0.02137744718381885,-0.08454991572782328, ,0.012198316952990791,0.021369987660373728,-0.08483763078997758, ,0.0004213566444588925, ,0.003474808534596493,0.0012109930527038925,-0.007577214316547994,-0.012938579182179517,-0.01248249974611896,0.035793487694633204, ,0.008423477626532975, ,0.017978309325071502, ,4.5727976103807954e-05, ,0.14331075394698423,-0.2195264046827059,0.09478083593000002,3.0071634795115636,0.25455379906301556,-0.21606614356105153, ,0.028344367251634046,0.006431461903769692,0.008048919413845378,-0.02679681775228499,0.0019118764353926883,0.024339038811453377, ,1.4013550281524658
0.011930840263621149,0.021392587328092447,-0.08463484967183553, ,0.01222459689080757,0.021375691920180215,-0.08489303936018139, ,0.0003914592264752417, ,0.003480174532345964,0.001380372720333963,-0.007453140479150519,-0.013919017752242663,0.007870000367552327,0.038280338090282896, ,0.00834064425716525, ,0.015989869854823015, ,4.614826585283906e-05, ,0.14363510872770166,-0.21947234555258635,0.09487157623,3.0071634795115636,0.25455379906301556,-0.21573942860048928, ,0.028361309491473634,0.004268517529250293,0.00797237813813814,-0.019536540648215518,0.0019118764353926883,0.045658143161150154, ,1.4102849960327148
0.011930840263621149,0.021392587328092447,-0.08463484967183553, ,0.012250917631340246,0.021381242170430526,-0.08494847386101732, ,0.00044826149284574646, ,0.003480174532345964,0.001380372720333963,-0.007453140479150519,-0.013919017752242663,0.007870000367552327,0.038280338090282896, ,0.00834064425716525, ,0.015989869854823015, ,4.673469906723785e-05, ,0.14363510872770166,-0.21947234555258635,0.09487157623,3.0071634795115636,0.25455379906301556,-0.21573942860048928, ,0.028361309491473634,0.004268517529250293,0.00797237813813814,-0.019536540648215518,0.0019118764353926883,0.045658143161150154, ,1.4148938655853271
0.011968656034037212,0.021406871361757653,-0.0847162891988645, ,0.01227727899819105,0.02138663931848429,-0.08500393404873033, ,0.0004223707248762095, ,0.0034442459261789403,0.0014047215089055933,-0.007838095536013695,-0.005694840222435268,-0.027936635001549366,0.015716302622764227, ,0.008675933041999578, ,0.02851116887791767, ,4.7274766927240696e-05, ,0.1439362953097964,-0.21941828642246677,0.09495842766000001,3.0071634795115636,0.25455379906301556,-0.21541271363992703, ,0.02713667187831592,0.004934504198681764,0.00834406051335778,-0.015488957190848782,0.0019118764353926883,0.002634188405179365, ,1.4196810722351074
0.011968656034037212,0.021406871361757653,-0.0847162891988645, ,0.01230368081544645,0.021391884269705792,-0.08505941967983482, ,0.00047979656528304726, ,0.0034442459261789403,0.0014047215089055933,-0.007838095536013695,-0.005694840222435268,-0.027936635001549366,0.015716302622764227, ,0.008675933041999578, ,0.02851116887791767, ,4.790528580028254e-05, ,0.1439362953097964,-0.21941828642246677,0.09495842766000001,3.0071634795115636,0.25455379906301556,-0.21541271363992703, ,0.02713667187831592,0.004934504198681764,0.00834406051335778,-0.015488957190848782,0.0019118764353926883,0.002634188405179365, ,1.4241609573364258
0.0120043795696226,0.021420519085333857,-0.08479547896647655, ,0.0123301229076769,0.021396977927465168,-0.08511493051111424, ,0.00045685030127161477, ,0.0034442459261789403,0.0014047215089055933,-0.007838095536013695,-0.005694840222435268,-0.027936635001549366,0.015716302622764227, ,0.008675933041999578, ,0.02851116887791767, ,4.849425762682585e-05, ,0.14422203642614273,-0.2193642272923472,0.09504268651000002,3.0069537895680796,0.25455379906301556,-0.21516767741950535, ,0.031579681051071805,0.006883144648851037,0.00900441578292821,0.0,0.0019118764353926883,0.036680939395159255, ,1.4286880493164062
0.0120043795696226,0.021420519085333857,-0.08479547896647655, ,0.012356605099936007,0.021401921193141004,-0.08517046629962122, ,0.000514805017280845, ,0.003958788268219193,0.0013853317318921437,-0.008456693995011692,-0.012056413860296666,0.0009954577378893676,0.015150714395899234, ,0.009439640982857558, ,0.012097438077005708, ,4.9173634052886324e-05, ,0.14422203642614273,-0.2193642272923472,0.09504268651000002,3.0069537895680796,0.25455379906301556,-0.21516767741950535, ,0.031579681051071805,0.006883144648851037,0.00900441578292821,0.0,0.0019118764353926883,0.036680939395159255, ,1.4332070350646973
0.0120043795696226,0.021420519085333857,-0.08479547896647655, ,0.01238312721776013,0.021406714966121437,-0.08522602680267899, ,0.0005735954793541767, ,0.003958788268219193,0.0013853317318921437,-0.008456693995011692,-0.012056413860296666,0.0009954577378893676,0.015150714395899234, ,0.009439640982857558, ,0.012097438077005708, ,4.994389047306202e-05, ,0.14422203642614273,-0.2193642272923472,0.09504268651000002,3.0069537895680796,0.25455379906301556,-0.21516767741950535, ,0.031579681051071805,0.006883144648851037,0.00900441578292821,0.0,0.0019118764353926883,0.036680939395159255, ,1.4376280307769775
0.012050041434962895,0.021437368622806586,-0.08489373500138918, ,0.01240968908716785,0.02141136014380608,-0.08528161177787921, ,0.0005295953818310323, ,0.004385827301562645,0.0016762831428149493,-0.010118168443819294,-0.007137316950390979,-0.0037401756639246736,-0.008708099368316319, ,0.011154494114549454, ,0.008057921642559755, ,5.063808692037205e-05, ,0.14456955940548283,-0.21927927723073073,0.09514768600000001,3.007582859398533,0.254690435562781,-0.2150340591027801, ,0.03311128456331849,0.0080681433914537,0.010733700485175203,0.02077555023873034,0.00336265376788641,0.027701618322727162, ,1.4419898986816406
0.012050041434962895,0.021437368622806586,-0.08489373500138918, ,0.012436290534659259,0.02141585762160778,-0.08533722098308372, ,0.0005884988582388205, ,0.004385827301562645,0.0016762831428149493,-0.010118168443819294,-0.007137316950390979,-0.0037401756639246736,-0.008708099368316319, ,0.011154494114549454, ,0.008057921642559755, ,5.142266451199536e-05, ,0.14456955940548283,-0.21927927723073073,0.09514768600000001,3.007582859398533,0.254690435562781,-0.2150340591027801, ,0.03311128456331849,0.0080681433914537,0.010733700485175203,0.02077555023873034,0.00336265376788641,0.027701618322727162, ,1.44712495803833
0.012095877222865509,0.021455578452562005,-0.08500404636835912, ,0.012462931387215588,0.02142020829295452,-0.08539285417642407, ,0.0005358650197294717, ,0.005077961385590257,0.0020999111259264085,-0.012418745423541702,-0.004186871529522285,0.024737555069665795,-0.05660851975801057, ,0.013580153035406972, ,0.025089364851353782, ,5.211772019531073e-05, ,0.14490163691907448,-0.21919432716911427,0.0952643521,3.008002239285502,0.254690435562781,-0.21462566540207728, ,0.03558190534625826,0.009416918249181767,0.01314258376237624,0.07938405293944664,0.00336265376788641,0.04835620122185307, ,1.4517250061035156
0.012095877222865509,0.021455578452562005,-0.08500404636835912, ,0.012489611472298516,0.021424413049291074,-0.08544851111630179, ,0.0005945980606269715, ,0.005077961385590257,0.0020999111259264085,-0.012418745423541702,-0.004186871529522285,0.024737555069665795,-0.05660851975801057, ,0.013580153035406972, ,0.025089364851353782, ,5.2902300387688894e-05, ,0.14490163691907448,-0.21919432716911427,0.0952643521,3.008002239285502,0.254690435562781,-0.21462566540207728, ,0.03558190534625826,0.009416918249181767,0.01314258376237624,0.07938405293944664,0.00336265376788641,0.04835620122185307, ,1.456618070602417
0.012138609684452378,0.021472923094634014,-0.08511095948200914, ,0.012516330617849758,0.021428472780080754,-0.08550419156138836, ,0.0005470652632395663, ,0.005049025690303934,0.0022186191904017046,-0.013294046681546951,-0.0164726398744328,-0.01644478149253513,0.04130137468028529, ,0.0143925886728037, ,0.023276131283840658, ,5.3606065399593504e-05, ,0.14520282350116923,-0.21910937710749778,0.09537712933,3.008421619172471,0.254690435562781,-0.21429895044151503, ,0.03658324655299568,0.00982307588669292,0.014009508812664908,-0.030323520375770015,0.00336265376788641,0.0298293506760145, ,1.4617269039154053
0.012138609684452378,0.021472923094634014,-0.08511095948200914, ,0.012543088652290294,0.021432388372807018,-0.08555989527062495, ,0.0006056316053484295, ,0.005049025690303934,0.0022186191904017046,-0.013294046681546951,-0.0164726398744328,-0.01644478149253513,0.04130137468028529, ,0.0143925886728037, ,0.023276131283840658, ,5.439846520014874e-05, ,0.14520282350116923,-0.21910937710749778,0.09537712933,3.008421619172471,0.254690435562781,-0.21429895044151503, ,0.03658324655299568,0.00982307588669292,0.014009508812664908,-0.030323520375770015,0.00336265376788641,0.0298293506760145, ,1.4662659168243408
0.012200883152529839,0.021499754132043147,-0.08527473966862524, ,0.012569885404520094,0.021436160712975674,-0.08561562200322331, ,0.0005063670121202635, ,0.005439947908512421,0.0021733427622073927,-0.013946724977358124,-0.01841045312918716,-0.011820154476923228,0.03372568681992017, ,0.015127048277950094, ,0.02187830680404237, ,5.502852872109955e-05, ,0.14564301927500004,-0.21898581338151019,0.09554953590000001,3.008421619172471,0.254690435562781,-0.2137271992605311, ,0.039556874347007415,0.012037394756762002,0.014694475571955721,-0.02034683279209747,0.00336265376788641,0.03666888423567763, ,1.471215009689331
0.012200883152529839,0.021499754132043147,-0.08527473966862524, ,0.01259672070391729,0.021439790684116094,-0.08567137151866513, ,0.0005635599405935292, ,0.005439947908512421,0.0021733427622073927,-0.013946724977358124,-0.01841045312918716,-0.011820154476923228,0.03372568681992017, ,0.015127048277950094, ,0.02187830680404237, ,5.5744962975683013e-05, ,0.14564301927500004,-0.21898581338151019,0.09554953590000001,3.008421619172471,0.254690435562781,-0.2137271992605311, ,0.039556874347007415,0.012037394756762002,0.014694475571955721,-0.02034683279209747,0.00336265376788641,0.03666888423567763, ,1.4756429195404053
0.01225605562822324,0.02152237754279667,-0.08541300661747635, ,0.012623594380337829,0.021443279167783286,-0.08572714357670254, ,0.0004899217451671076, ,0.00565227240112562,0.00191540001910787,-0.013715031781444538,-0.021449950827338672,0.009594330022485319,0.023431069998206662, ,0.014957240296784649, ,0.02349789509306921, ,5.634091859649521e-05, ,0.14605232411733393,-0.21885452692264837,0.09569601667000001,3.0082119292289864,0.2549637085623119,-0.2136233201073617, ,0.04173128476625804,0.014490294939451944,0.014428271304347828,0.0,0.004130531496315623,0.05762078172072607, ,1.4801359176635742
0.01225605562822324,0.02152237754279667,-0.08541300661747635, ,0.012650506264114826,0.021446627043559725,-0.08578293793735765, ,0.0005460573447166952, ,0.00565227240112562,0.00191540001910787,-0.013715031781444538,-0.021449950827338672,0.009594330022485319,0.023431069998206662, ,0.014957240296784649, ,0.02349789509306921, ,5.702125691285895e-05, ,0.14605232411733393,-0.21885452692264837,0.09569601667000001,3.0082119292289864,0.2549637085623119,-0.2136233201073617, ,0.04173128476625804,0.014490294939451944,0.014428271304347828,0.0,0.004130531496315623,0.05762078172072607, ,1.4846150875091553
0.012312926386434298,0.021540373394927193,-0.08554736896608217, ,0.012677456186057987,0.021449835189056885,-0.08583875436092356, ,0.000475378364950249, ,0.005759654265172027,0.0016761959864704532,-0.012874516291008099,-0.01846857188346532,-0.009180714065599983,0.015380479150361255, ,0.014203394663488265, ,0.020624580103679985, ,5.75867277283903e-05, ,0.14647707442541627,-0.2187077949980381,0.09583731228,3.0082119292289864,0.2549637085623119,-0.21305156892637778, ,0.04424099839555748,0.01507976188756885,0.013579549462915603,0.0,0.004130531496315623,0.03916472183602069, ,1.489109992980957
0.012312926386434298,0.021540373394927193,-0.08554736896608217, ,0.012704443977453152,0.021452904479917156,-0.0858945926079637, ,0.0005305667654986614, ,0.005759654265172027,0.0016761959864704532,-0.012874516291008099,-0.01846857188346532,-0.009180714065599983,0.015380479150361255, ,0.014203394663488265, ,0.020624580103679985, ,5.823476721363504e-05, ,0.14647707442541627,-0.2187077949980381,0.09583731228,3.0082119292289864,0.2549637085623119,-0.21305156892637778, ,0.04424099839555748,0.01507976188756885,0.013579549462915603,0.0,0.004130531496315623,0.03916472183602069, ,1.4936580657958984
0.012312926386434298,0.021540373394927193,-0.08554736896608217, ,0.0127314694700616,0.02145583578981537,-0.08595045243931211, ,0.0005871977570813813, ,0.005759654265172027,0.0016761959864704532,-0.012874516291008099,-0.01846857188346532,-0.009180714065599983,0.015380479150361255, ,0.014203394663488265, ,0.020624580103679985, ,5.905869710439477e-05, ,0.14647707442541627,-0.2187077949980381,0.09583731228,3.0082119292289864,0.2549637085623119,-0.21305156892637778, ,0.04424099839555748,0.01507976188756885,0.013579549462915603,0.0,0.004130531496315623,0.03916472183602069, ,1.4960498809814453
0.012312926386434298,0.021540373394927193,-0.08554736896608217, ,0.012758532496119638,0.021458629990460887,-0.08600633361607352, ,0.0006448994798449779, ,0.005759654265172027,0.0016761959864704532,-0.012874516291008099,-0.01846857188346532,-0.009180714065599983,0.015380479150361255, ,0.014203394663488265, ,0.020624580103679985, ,5.996980252078759e-05, ,0.14647707442541627,-0.2187077949980381,0.09583731228,3.0082119292289864,0.2549637085623119,-0.21305156892637778, ,0.04424099839555748,0.01507976188756885,0.013579549462915603,0.0,0.004130531496315623,0.03916472183602069, ,1.498507022857666
0.012375918921699307,0.0215560941979284,-0.08567705834024451, ,0.012785632888337974,0.02146128795159918,-0.08606223589962342, ,0.0005702766969208172, ,0.0058819998209114835,0.0012789277182616333,-0.011847520810699749,-0.019541010383181245,0.01886392356337582,0.004175659379979119, ,0.01328899271433709, ,0.027160605029727142, ,6.0762204530725525e-05, ,0.1469249929321213,-0.2185456176076794,0.09596564499000002,3.00884099905944,0.25510034506207735,-0.2127545931293714, ,0.04622354678931845,0.017238318175925665,0.012512813448546743,0.02433980874365147,0.007305492131138992,0.06786331032706486, ,1.501875877380371
0.012375918921699307,0.0215560941979284,-0.08567705834024451, ,0.012812770479901162,0.021463810541013626,-0.08611815905160851, ,0.0006276347622644679, ,0.0058819998209114835,0.0012789277182616333,-0.011847520810699749,-0.019541010383181245,0.01886392356337582,0.004175659379979119, ,0.01328899271433709, ,0.027160605029727142, ,6.164107671325845e-05, ,0.1469249929321213,-0.2185456176076794,0.09596564499000002,3.00884099905944,0.25510034506207735,-0.2127545931293714, ,0.04622354678931845,0.017238318175925665,0.012512813448546743,0.02433980874365147,0.007305492131138992,0.06786331032706486, ,1.504136085510254
0.012375918921699307,0.0215560941979284,-0.08567705834024451, ,0.012839945104467084,0.021466198624527068,-0.08617410283394611, ,0.0006858970339127185, ,0.0058819998209114835,0.0012789277182616333,-0.011847520810699749,-0.019541010383181245,0.01886392356337582,0.004175659379979119, ,0.01328899271433709, ,0.027160605029727142, ,6.26074172042793e-05, ,0.1469249929321213,-0.2185456176076794,0.09596564499000002,3.00884099905944,0.25510034506207735,-0.2127545931293714, ,0.04622354678931845,0.017238318175925665,0.012512813448546743,0.02433980874365147,0.007305492131138992,0.06786331032706486, ,1.5063679218292236
0.012437506415050838,0.021568680205201446,-0.08579961726175993, ,0.01286715659616626,0.021468453066004083,-0.08623006700882457, ,0.0006163860335148903, ,0.0058819998209114835,0.0012789277182616333,-0.011847520810699749,-0.019541010383181245,0.01886392356337582,0.004175659379979119, ,0.01328899271433709, ,0.027160605029727142, ,0.00034797269108033315, ,0.14745013876756857,-0.21833710382007535,0.09610434802000001,3.009260378946409,0.2552369815618427,-0.21229425985208383, ,0.05143465667125787,0.02135394724538046,0.01431160064690027,0.052066725155791686,0.011225919808302015,0.02800308863798872, ,1.508802890777588
0.012437506415050838,0.021568680205201446,-0.08579961726175993, ,0.012894404789601554,0.02147057472735213,-0.08628605133870376, ,0.0006745360781035577, ,0.006630551225380212,0.0013542164122221298,-0.013571273630844405,-0.008099557137562503,-0.014020525722505716,-0.039407289945418034, ,0.015165011691613543, ,0.016191896337189877, ,0.00035071692122338544, ,0.14745013876756857,-0.21833710382007535,0.09610434802000001,3.009260378946409,0.2552369815618427,-0.21229425985208383, ,0.05143465667125787,0.02135394724538046,0.01431160064690027,0.052066725155791686,0.011225919808302015,0.02800308863798872, ,1.5110509395599365
0.012437506415050838,0.021568680205201446,-0.08579961726175993, ,0.012921689519847413,0.021472564468523664,-0.08634205558631436, ,0.0007334240586134207, ,0.006630551225380212,0.0013542164122221298,-0.013571273630844405,-0.008099557137562503,-0.014020525722505716,-0.039407289945418034, ,0.015165011691613543, ,0.016191896337189877, ,0.0003539061473683024, ,0.14745013876756857,-0.21833710382007535,0.09610434802000001,3.009260378946409,0.2552369815618427,-0.21229425985208383, ,0.05143465667125787,0.02135394724538046,0.01431160064690027,0.052066725155791686,0.011225919808302015,0.02800308863798872, ,1.5132899284362793
0.012437506415050838,0.021568680205201446,-0.08579961726175993, ,0.012949010622449332,0.021474423147517862,-0.08639807951465879, ,0.0007928921838776757, ,0.006630551225380212,0.0013542164122221298,-0.013571273630844405,-0.008099557137562503,-0.014020525722505716,-0.039407289945418034, ,0.015165011691613543, ,0.016191896337189877, ,0.00035753413114110715, ,0.14745013876756857,-0.21833710382007535,0.09610434802000001,3.009260378946409,0.2552369815618427,-0.21229425985208383, ,0.05143465667125787,0.02135394724538046,0.01431160064690027,0.052066725155791686,0.011225919808302015,0.02800308863798872, ,1.5154988765716553
0.012437506415050838,0.021568680205201446,-0.08579961726175993, ,0.012976367933423365,0.02147615162038223,-0.08645412288701051, ,0.0008528252391176366, ,0.006630551225380212,0.0013542164122221298,-0.013571273630844405,-0.008099557137562503,-0.014020525722505716,-0.039407289945418034, ,0.015165011691613543, ,0.016191896337189877, ,0.0003615938943212426, ,0.14745013876756857,-0.21833710382007535,0.09610434802000001,3.009260378946409,0.2552369815618427,-0.21229425985208383, ,0.05143465667125787,0.02135394724538046,0.01431160064690027,0.052066725155791686,0.011225919808302015,0.02800308863798872, ,1.517693042755127
0.01250683081384949,0.021585177677814288,-0.0859534805658675, ,0.013003761289255546,0.021477750741214722,-0.08651018546691461, ,0.0007539235975510524, ,0.00752129555655319,0.0018256303861019655,-0.01747216547719299,-0.014976376826151433,0.0006714324433733203,-0.01780808276574815, ,0.019109667177062507, ,0.014991366050754643, ,0.00036478356670522483, ,0.14798300733589007,-0.21809769910097437,0.09626638427,3.009260378946409,0.25551025456137366,-0.21186366573835222, ,0.05514058196308587,0.026149611892662104,0.018308978758620694,0.04006247976664096,0.015384929914851724,0.05122275443821836, ,1.5199010372161865
0.01250683081384949,0.021585177677814288,-0.0859534805658675, ,0.013031190526901305,0.02147922136216485,-0.08656626701818773, ,0.0008134415072056476, ,0.00752129555655319,0.0018256303861019655,-0.01747216547719299,-0.014976376826151433,0.0006714324433733203,-0.01780808276574815, ,0.019109667177062507, ,0.014991366050754643, ,0.0003684017759028089, ,0.14798300733589007,-0.21809769910097437,0.09626638427,3.009260378946409,0.25551025456137366,-0.21186366573835222, ,0.05514058196308587,0.026149611892662104,0.018308978758620694,0.04006247976664096,0.015384929914851724,0.05122275443821836, ,1.5221450328826904
0.01250683081384949,0.021585177677814288,-0.0859534805658675, ,0.013058655483784957,0.02148056433343624,-0.08662236730491832, ,0.0008734207965519137, ,0.00752129555655319,0.0018256303861019655,-0.01747216547719299,-0.014976376826151433,0.0006714324433733203,-0.01780808276574815, ,0.019109667177062507, ,0.014991366050754643, ,0.00037244192806800173, ,0.14798300733589007,-0.21809769910097437,0.09626638427,3.009260378946409,0.25551025456137366,-0.21186366573835222, ,0.05514058196308587,0.026149611892662104,0.018308978758620694,0.04006247976664096,0.015384929914851724,0.05122275443821836, ,1.5243308544158936
0.01250683081384949,0.021585177677814288,-0.0859534805658675, ,0.013086155997799139,0.021481780503287688,-0.08667848609146613, ,0.0009337781624170227, ,0.00752129555655319,0.0018256303861019655,-0.01747216547719299,-0.014976376826151433,0.0006714324433733203,-0.01780808276574815, ,0.019109667177062507, ,0.014991366050754643, ,0.0003768969775469622, ,0.14798300733589007,-0.21809769910097437,0.09626638427,3.009260378946409,0.25551025456137366,-0.21186366573835222, ,0.05514058196308587,0.026149611892662104,0.018308978758620694,0.04006247976664096,0.015384929914851724,0.05122275443821836, ,1.5265600681304932
0.012587822867172102,0.02160899544882542,-0.08615234800797616, ,0.013113691907304208,0.021482870718035348,-0.0867346231424635, ,0.0007946634679715498, ,0.008544606406208768,0.0029045096575399214,-0.02177505980247522,-0.005759762961411357,0.022352518865988914,0.009010975378256205, ,0.023571162559134388, ,0.02308257077383522, ,0.0003801864774715653, ,0.1485699350343311,-0.21782740345037652,0.09647508696000001,3.009260378946409,0.25578352756090456,-0.2111063566640583, ,0.05972117152830131,0.026574332556278574,0.022886223448275865,0.028756659049677454,0.03286953967673211,0.08123745495258766, ,1.529167890548706
0.012587822867172102,0.02160899544882542,-0.08615234800797616, ,0.013141263051127759,0.021483835822054438,-0.08679077822281371, ,0.0008541393964733378, ,0.008544606406208768,0.0029045096575399214,-0.02177505980247522,-0.005759762961411357,0.022352518865988914,0.009010975378256205, ,0.023571162559134388, ,0.02308257077383522, ,0.0003838892346512666, ,0.1485699350343311,-0.21782740345037652,0.09647508696000001,3.009260378946409,0.25578352756090456,-0.2111063566640583, ,0.05972117152830131,0.026574332556278574,0.022886223448275865,0.028756659049677454,0.03286953967673211,0.08123745495258766, ,1.5330469608306885
0.012587822867172102,0.02160899544882542,-0.08615234800797616, ,0.013168869268564047,0.0214846766577806,-0.08684695109769293, ,0.0009140807046543816, ,0.008544606406208768,0.0029045096575399214,-0.02177505980247522,-0.005759762961411357,0.022352518865988914,0.009010975378256205, ,0.023571162559134388, ,0.02308257077383522, ,0.0003879992460466396, ,0.1485699350343311,-0.21782740345037652,0.09647508696000001,3.009260378946409,0.25578352756090456,-0.2111063566640583, ,0.05972117152830131,0.026574332556278574,0.022886223448275865,0.028756659049677454,0.03286953967673211,0.08123745495258766, ,1.5355439186096191
0.012587822867172102,0.02160899544882542,-0.08615234800797616, ,0.013196510399373347,0.021485394065712326,-0.08690314153254902, ,0.0009744068607646627, ,0.008544606406208768,0.0029045096575399214,-0.02177505980247522,-0.005759762961411357,0.022352518865988914,0.009010975378256205, ,0.023571162559134388, ,0.02308257077383522, ,0.0003925100738521629, ,0.1485699350343311,-0.21782740345037652,0.09647508696000001,3.009260378946409,0.25578352756090456,-0.2111063566640583, ,0.05972117152830131,0.026574332556278574,0.022886223448275865,0.028756659049677454,0.03286953967673211,0.08123745495258766, ,1.5379409790039062
0.01267479682552873,0.021639323587564416,-0.08637970258229791, ,0.01322418628378152,0.021485988884412353,-0.08695934929310181, ,0.000813222366499969, ,0.009347998004143083,0.003354844096964472,-0.025490216375419945,-0.012646386624901088,0.03402672688297902,0.015532550923414287, ,0.027356739141683673, ,0.03630066770273205, ,0.00039572161807084844, ,0.14915686273277218,-0.21755710779977866,0.09671360432000001,3.0098894487768626,0.2560568005604354,-0.21018569010948326, ,0.06218672448130458,0.030681196753466145,0.026681426331658296,0.02857789001469619,0.03313193893512281,0.09730309191743391, ,1.5404150485992432
0.01267479682552873,0.021639323587564416,-0.08637970258229791, ,0.013251896762479417,0.02148646195050904,-0.08701557414534358, ,0.0008722062038313452, ,0.009347998004143083,0.003354844096964472,-0.025490216375419945,-0.012646386624901088,0.03402672688297902,0.015532550923414287, ,0.027356739141683673, ,0.03630066770273205, ,0.00039933134978115527, ,0.14915686273277218,-0.21755710779977866,0.09671360432000001,3.0098894487768626,0.2560568005604354,-0.21018569010948326, ,0.06218672448130458,0.030681196753466145,0.026681426331658296,0.02857789001469619,0.03313193893512281,0.09730309191743391, ,1.5440568923950195
0.01267479682552873,0.021639323587564416,-0.08637970258229791, ,0.01327964167662232,0.021486814098698986,-0.0870718158555394, ,0.0009317280832332334, ,0.009347998004143083,0.003354844096964472,-0.025490216375419945,-0.012646386624901088,0.03402672688297902,0.015532550923414287, ,0.027356739141683673, ,0.03630066770273205, ,0.00040333433273944156, ,0.14915686273277218,-0.21755710779977866,0.09671360432000001,3.0098894487768626,0.2560568005604354,-0.21018569010948326, ,0.06218672448130458,0.030681196753466145,0.026681426331658296,0.02857789001469619,0.03313193893512281,0.09730309191743391, ,1.54811692237854
0.012777351532950086,0.02167434254569657,-0.08665422922061214, ,0.013307420867829349,0.02148704616174811,-0.08712807419022595, ,0.0007352431505616507, ,0.010306000843671715,0.0033967239422323936,-0.027481279711921103,0.024275792361709396,0.020736054645305053,-0.06316579688856327, ,0.029546101630068614, ,0.031926202136557585, ,0.00040581126421572667, ,0.1498287404928297,-0.21719413935469012,0.09700138070000001,3.0109378984942854,0.2566033465594972,-0.20932450188201995, ,0.06768683420718315,0.038065359630353304,0.028804360795660042,0.10054234225720309,0.06158569576266417,0.06682024208929084, ,1.5505809783935547
0.012777351532950086,0.02167434254569657,-0.08665422922061214, ,0.013335234178182949,0.021487158970493605,-0.08718434891621289, ,0.0007920212297291125, ,0.010306000843671715,0.0033967239422323936,-0.027481279711921103,0.024275792361709396,0.020736054645305053,-0.06316579688856327, ,0.029546101630068614, ,0.031926202136557585, ,0.0004086720787750851, ,0.1498287404928297,-0.21719413935469012,0.09700138070000001,3.0109378984942854,0.2566033465594972,-0.20932450188201995, ,0.06768683420718315,0.038065359630353304,0.028804360795660042,0.10054234225720309,0.06158569576266417,0.06682024208929084, ,1.5528240203857422
0.012777351532950086,0.02167434254569657,-0.08665422922061214, ,0.013363081450228324,0.021487153353845687,-0.08724063980058233, ,0.0008497038883290669, ,0.010306000843671715,0.0033967239422323936,-0.027481279711921103,0.024275792361709396,0.020736054645305053,-0.06316579688856327, ,0.029546101630068614, ,0.031926202136557585, ,0.00041191495972768793, ,0.1498287404928297,-0.21719413935469012,0.09700138070000001,3.0109378984942854,0.2566033465594972,-0.20932450188201995, ,0.06768683420718315,0.038065359630353304,0.028804360795660042,0.10054234225720309,0.06158569576266417,0.06682024208929084, ,1.555063009262085
0.012777351532950086,0.02167434254569657,-0.08665422922061214, ,0.013390962526972982,0.021487030138789446,-0.08729694661068939, ,0.000908124459132567, ,0.010306000843671715,0.0033967239422323936,-0.027481279711921103,0.024275792361709396,0.020736054645305053,-0.06316579688856327, ,0.029546101630068614, ,0.031926202136557585, ,0.00041553692687662866, ,0.1498287404928297,-0.21719413935469012,0.09700138070000001,3.0109378984942854,0.2566033465594972,-0.20932450188201995, ,0.06768683420718315,0.038065359630353304,0.028804360795660042,0.10054234225720309,0.06158569576266417,0.06682024208929084, ,1.5572779178619385
0.01288099747435628,0.021705914667242268,-0.08692804530603436, ,0.013418877251885886,0.021486790150386504,-0.08735326911416125, ,0.0007198232393862418, ,0.010067146061236685,0.00260966899139844,-0.02460406934554974,0.012380046931253462,-0.0024999970986611087,-0.006853379105702529, ,0.026711758280269764, ,0.012629589505654813, ,0.00041774190015568383, ,0.15053150918438415,-0.21680027997810467,0.09728786079000001,3.0111475884377694,0.2571498925585589,-0.20862667113483777, ,0.0710306448790949,0.03894006629399704,0.025816550275526744,0.038422293671000994,0.058190167520449386,0.05996466093542987, ,1.5595118999481201
0.01288099747435628,0.021705914667242268,-0.08692804530603436, ,0.013446825468897314,0.021486434211776963,-0.08740960707889878, ,0.0007747481725192429, ,0.010067146061236685,0.00260966899139844,-0.02460406934554974,0.012380046931253462,-0.0024999970986611087,-0.006853379105702529, ,0.026711758280269764, ,0.012629589505654813, ,0.00042031029060434253, ,0.15053150918438415,-0.21680027997810467,0.09728786079000001,3.0111475884377694,0.2571498925585589,-0.20862667113483777, ,0.0710306448790949,0.03894006629399704,0.025816550275526744,0.038422293671000994,0.058190167520449386,0.05996466093542987, ,1.5617718696594238
0.01288099747435628,0.021705914667242268,-0.08692804530603436, ,0.013474807022397913,0.0214859631441807,-0.08746596027307517, ,0.0008308675969184426, ,0.010067146061236685,0.00260966899139844,-0.02460406934554974,0.012380046931253462,-0.0024999970986611087,-0.006853379105702529, ,0.026711758280269764, ,0.012629589505654813, ,0.0004232428427923004, ,0.15053150918438415,-0.21680027997810467,0.09728786079000001,3.0111475884377694,0.2571498925585589,-0.20862667113483777, ,0.0710306448790949,0.03894006629399704,0.025816550275526744,0.038422293671000994,0.058190167520449386,0.05996466093542987, ,1.564033031463623
0.01288099747435628,0.021705914667242268,-0.08692804530603436, ,0.013502821757238406,0.021485377766899554,-0.08752232846513676, ,0.0008879608304353122, ,0.010067146061236685,0.00260966899139844,-0.02460406934554974,0.012380046931253462,-0.0024999970986611087,-0.006853379105702529, ,0.026711758280269764, ,0.012629589505654813, ,0.0004265387150450877, ,0.15053150918438415,-0.21680027997810467,0.09728786079000001,3.0111475884377694,0.2571498925585589,-0.20862667113483777, ,0.0710306448790949,0.03894006629399704,0.025816550275526744,0.038422293671000994,0.058190167520449386,0.05996466093542987, ,1.566329002380371
0.01288099747435628,0.021705914667242268,-0.08692804530603436, ,0.01353086951872895,0.02148467889731912,-0.0875787114238033, ,0.0009458569325025367, ,0.010067146061236685,0.00260966899139844,-0.02460406934554974,0.012380046931253462,-0.0024999970986611087,-0.006853379105702529, ,0.026711758280269764, ,0.012629589505654813, ,0.0004301958855905627, ,0.15053150918438415,-0.21680027997810467,0.09728786079000001,3.0111475884377694,0.2571498925585589,-0.20862667113483777, ,0.0710306448790949,0.03894006629399704,0.025816550275526744,0.038422293671000994,0.058190167520449386,0.05996466093542987, ,1.568526029586792
0.012986731439918062,0.02172478505417687,-0.08716986596890715, ,0.01355895015263851,0.0214838673509101,-0.08763510891806729, ,0.0007758392853407276, ,0.010574631028806541,0.001138144814233832,-0.022794064433480164,-0.03812855121731658,0.006174707558405126,0.033980168170184975, ,0.025153281464079608, ,0.03862521557289317, ,0.0004326129723021023, ,0.1513115052046808,-0.21636008420427386,0.09754063734000001,3.0111475884377694,0.2575598020578552,-0.20781742248395918, ,0.07987958043642322,0.047353763252729934,0.023738914336810735,0.003701797408220062,0.026688502080390288,0.09284705275022151, ,1.570720911026001
0.012986731439918062,0.02172478505417687,-0.08716986596890715, ,0.013587063505194454,0.021482943941230435,-0.08769152071719491, ,0.0008312697449813492, ,0.010574631028806541,0.001138144814233832,-0.022794064433480164,-0.03812855121731658,0.006174707558405126,0.033980168170184975, ,0.025153281464079608, ,0.03862521557289317, ,0.0004353814221123749, ,0.1513115052046808,-0.21636008420427386,0.09754063734000001,3.0111475884377694,0.2575598020578552,-0.20781742248395918, ,0.07987958043642322,0.047353763252729934,0.023738914336810735,0.003701797408220062,0.026688502080390288,0.09284705275022151, ,1.5729749202728271
0.012986731439918062,0.02172478505417687,-0.08716986596890715, ,0.013615209423081807,0.021481909479926987,-0.08774794659072525, ,0.0008877783085942051, ,0.010574631028806541,0.001138144814233832,-0.022794064433480164,-0.03812855121731658,0.006174707558405126,0.033980168170184975, ,0.025153281464079608, ,0.03862521557289317, ,0.0004385014006398358, ,0.1513115052046808,-0.21636008420427386,0.09754063734000001,3.0111475884377694,0.2575598020578552,-0.20781742248395918, ,0.07987958043642322,0.047353763252729934,0.023738914336810735,0.003701797408220062,0.026688502080390288,0.09284705275022151, ,1.5751609802246094
0.012986731439918062,0.02172478505417687,-0.08716986596890715, ,0.013643387753443004,0.021480764776737,-0.0878043863084714, ,0.0009451769523294206, ,0.010574631028806541,0.001138144814233832,-0.022794064433480164,-0.03812855121731658,0.006174707558405126,0.033980168170184975, ,0.025153281464079608, ,0.03862521557289317, ,0.00044197178113086034, ,0.1513115052046808,-0.21636008420427386,0.09754063734000001,3.0111475884377694,0.2575598020578552,-0.20781742248395918, ,0.07987958043642322,0.047353763252729934,0.023738914336810735,0.003701797408220062,0.026688502080390288,0.09284705275022151, ,1.5773799419403076
0.013087168604756607,0.02173339541359118,-0.08737582297238673, ,0.013671598343876892,0.02147951063949042,-0.08786083964051938, ,0.0008007850940513926, ,0.010574631028806541,0.001138144814233832,-0.022794064433480164,-0.03812855121731658,0.006174707558405126,0.033980168170184975, ,0.025153281464079608, ,0.03862521557289317, ,0.0004444126880214762, ,0.15208377849210328,-0.21589672023182038,0.09775582148,3.0113572783812543,0.2579697115571516,-0.20708985257322113, ,0.08397959429953167,0.05096505991324961,0.022820646876790834,0.009497687201301556,0.04025457910600518,0.07279091045430791, ,1.5796480178833008
0.013087168604756607,0.02173339541359118,-0.08737582297238673, ,0.013699841042438614,0.021478147874111005,-0.08791730635722925, ,0.000856576370422628, ,0.01088043525837157,0.0006411553144936369,-0.021946246266404332,-0.024588221453475955,-0.01341195686227082,0.021249200713220617, ,0.024503727813020303, ,0.02800814399674392, ,0.00044719757776742996, ,0.15208377849210328,-0.21589672023182038,0.09775582148,3.0113572783812543,0.2579697115571516,-0.20708985257322113, ,0.08397959429953167,0.05096505991324961,0.022820646876790834,0.009497687201301556,0.04025457910600518,0.07279091045430791, ,1.582211971282959
0.013087168604756607,0.02173339541359118,-0.08737582297238673, ,0.01372811569763873,0.021476677284618554,-0.08797378622923466, ,0.000913387885926581, ,0.01088043525837157,0.0006411553144936369,-0.021946246266404332,-0.024588221453475955,-0.01341195686227082,0.021249200713220617, ,0.024503727813020303, ,0.02800814399674392, ,0.0004503263717819209, ,0.15208377849210328,-0.21589672023182038,0.09775582148,3.0113572783812543,0.2579697115571516,-0.20708985257322113, ,0.08397959429953167,0.05096505991324961,0.022820646876790834,0.009497687201301556,0.04025457910600518,0.07279091045430791, ,1.5845799446105957
0.013087168604756607,0.02173339541359118,-0.08737582297238673, ,0.01375642215844283,0.021475099673130757,-0.08803027902744298, ,0.0009710456923654136, ,0.01088043525837157,0.0006411553144936369,-0.021946246266404332,-0.024588221453475955,-0.01341195686227082,0.021249200713220617, ,0.024503727813020303, ,0.02800814399674392, ,0.0004537978339191442, ,0.15208377849210328,-0.21589672023182038,0.09775582148,3.0113572783812543,0.2579697115571516,-0.20708985257322113, ,0.08397959429953167,0.05096505991324961,0.022820646876790834,0.009497687201301556,0.04025457910600518,0.07279091045430791, ,1.586935043334961
0.013087168604756607,0.02173339541359118,-0.08737582297238673, ,0.013784760274270946,0.021473415839864427,-0.08808678452303552, ,0.0010294123773453836, ,0.01160868185417417,0.0006950297616066681,-0.02119533787431559,0.016829459565890294,-0.003103205183271701,-0.0901805679267476, ,0.02417616405402951, ,0.0171130451432281, ,0.00045760985076302664, ,0.15208377849210328,-0.21589672023182038,0.09775582148,3.0113572783812543,0.2579697115571516,-0.20708985257322113, ,0.08397959429953167,0.05096505991324961,0.022820646876790834,0.009497687201301556,0.04025457910600518,0.07279091045430791, ,1.5915000438690186
0.013203889331848956,0.021739227270661174,-0.08759718187527293, ,0.013813129894997027,0.02147162658313733,-0.08814330248746732, ,0.000860832106053083, ,0.01160868185417417,0.0006950297616066681,-0.02119533787431559,0.016829459565890294,-0.003103205183271701,-0.0901805679267476, ,0.02417616405402951, ,0.0171130451432281, ,0.000460262628758356, ,0.15298733823838753,-0.21534840619775045,0.09798785739000002,3.012405728098677,0.2585162575562133,-0.20639202182603894, ,0.0906370024436206,0.0521698414285161,0.022340549116409536,0.12368898074489525,0.06309294479788359,0.06027855199234369, ,1.5943350791931152
0.013203889331848956,0.021739227270661174,-0.08759718187527293, ,0.013841530870948247,0.021469732699370796,-0.08819983269246796, ,0.0009178246367393581, ,0.01160868185417417,0.0006950297616066681,-0.02119533787431559,0.016829459565890294,-0.003103205183271701,-0.0901805679267476, ,0.02417616405402951, ,0.0171130451432281, ,0.0004632532301177089, ,0.15298733823838753,-0.21534840619775045,0.09798785739000002,3.012405728098677,0.2585162575562133,-0.20639202182603894, ,0.0906370024436206,0.0521698414285161,0.022340549116409536,0.12368898074489525,0.06309294479788359,0.06027855199234369, ,1.596613883972168
0.013203889331848956,0.021739227270661174,-0.08759718187527293, ,0.01386996305290461,0.02146773498309044,-0.08825637491004074, ,0.0009756524592177787, ,0.01160868185417417,0.0006950297616066681,-0.02119533787431559,0.016829459565890294,-0.003103205183271701,-0.0901805679267476, ,0.02417616405402951, ,0.0171130451432281, ,0.00046658049783913794, ,0.15298733823838753,-0.21534840619775045,0.09798785739000002,3.012405728098677,0.2585162575562133,-0.20639202182603894, ,0.0906370024436206,0.0521698414285161,0.022340549116409536,0.12368898074489525,0.06309294479788359,0.06027855199234369, ,1.5988738536834717
0.013323652486979733,0.021741457592490087,-0.08781346379576721, ,0.013898426292098361,0.02146563422692822,-0.08831292891246302, ,0.0008098820030327763, ,0.011107604842028218,-0.0004920886117366768,-0.01956916536756029,-0.03482435414672474,0.0033468032155473055,-0.012175739256634028, ,0.02250718262491711, ,0.03498476616521515, ,0.0004687953462597421, ,0.15394495711479136,-0.21477692396505785,0.09821470814000001,3.0128251079856456,0.25906280355527506,-0.20561251233871616, ,0.08893808955807946,0.057513297914224715,0.020369324194373404,0.04880654228599652,0.03245301712215841,0.08822070802884108, ,1.6010820865631104
0.013323652486979733,0.021741457592490087,-0.08781346379576721, ,0.013926920440213344,0.021463431221624456,-0.08836949447228687, ,0.0008662568900310652, ,0.011107604842028218,-0.0004920886117366768,-0.01956916536756029,-0.03482435414672474,0.0033468032155473055,-0.012175739256634028, ,0.02250718262491711, ,0.03498476616521515, ,0.0004713431766685326, ,0.15394495711479136,-0.21477692396505785,0.09821470814000001,3.0128251079856456,0.25906280355527506,-0.20561251233871616, ,0.08893808955807946,0.057513297914224715,0.020369324194373404,0.04880654228599652,0.03245301712215841,0.08822070802884108, ,1.603281021118164
0.013323652486979733,0.021741457592490087,-0.08781346379576721, ,0.013955445349384499,0.021461126756029417,-0.08842607136233865, ,0.00092359927970789, ,0.011107604842028218,-0.0004920886117366768,-0.01956916536756029,-0.03482435414672474,0.0033468032155473055,-0.012175739256634028, ,0.02250718262491711, ,0.03498476616521515, ,0.0004742237887898024, ,0.15394495711479136,-0.21477692396505785,0.09821470814000001,3.0128251079856456,0.25906280355527506,-0.20561251233871616, ,0.08893808955807946,0.057513297914224715,0.020369324194373404,0.04880654228599652,0.03245301712215841,0.08822070802884108, ,1.605510950088501
0.013323652486979733,0.021741457592490087,-0.08781346379576721, ,0.013984000872197325,0.021458721617105075,-0.08848265935571877, ,0.0009817445284264488, ,0.011107604842028218,-0.0004920886117366768,-0.01956916536756029,-0.03482435414672474,0.0033468032155473055,-0.012175739256634028, ,0.02250718262491711, ,0.03498476616521515, ,0.00047743594536978117, ,0.15394495711479136,-0.21477692396505785,0.09821470814000001,3.0128251079856456,0.25906280355527506,-0.20561251233871616, ,0.08893808955807946,0.057513297914224715,0.020369324194373404,0.04880654228599652,0.03245301712215841,0.08822070802884108, ,1.6077558994293213
0.013431651191394774,0.021734009658558387,-0.08800712578114596, ,0.01401258686168737,0.021456216589926923,-0.08853925822580311, ,0.0008353563195755364, ,0.011502247311768417,-0.0008868448248925027,-0.021226490904627703,-0.03083199973955737,-0.027850906750044466,0.026533948024047307, ,0.02415889283656776, ,0.04154853674433812, ,0.00047968701690566645, ,0.1548099031967045,-0.21417455080086834,0.09841563309000001,3.0130347979291305,0.2594727130545714,-0.20488494242797814, ,0.09151103332542987,0.06682883208343011,0.02197077451034483,0.0,0.04894207252500538,0.06521689357966118, ,1.6102008819580078
0.013431651191394774,0.021734009658558387,-0.08800712578114596, ,0.014041203171339516,0.021453612457685515,-0.08859586774624077, ,0.0008926327957091868, ,0.011502247311768417,-0.0008868448248925027,-0.021226490904627703,-0.03083199973955737,-0.027850906750044466,0.026533948024047307, ,0.02415889283656776, ,0.04154853674433812, ,0.00048226792802318844, ,0.1548099031967045,-0.21417455080086834,0.09841563309000001,3.0130347979291305,0.2594727130545714,-0.20488494242797814, ,0.09151103332542987,0.06682883208343011,0.02197077451034483,0.0,0.04894207252500538,0.06521689357966118, ,1.6124730110168457
0.013431651191394774,0.021734009658558387,-0.08800712578114596, ,0.014069849655087622,0.021450910001688476,-0.08865248769095696, ,0.0009507547998378317, ,0.011502247311768417,-0.0008868448248925027,-0.021226490904627703,-0.03083199973955737,-0.027850906750044466,0.026533948024047307, ,0.02415889283656776, ,0.04154853674433812, ,0.00048517778436986327, ,0.1548099031967045,-0.21417455080086834,0.09841563309000001,3.0130347979291305,0.2594727130545714,-0.20488494242797814, ,0.09151103332542987,0.06682883208343011,0.02197077451034483,0.0,0.04894207252500538,0.06521689357966118, ,1.6146900653839111
