NicholasDascanio/dvrk_moveit_final/test/execution/third_experiment_notsharpbends/thirdexp_500vel3.0/thirdexp_500vel3.0_19.csv
Current Position (x),Current Position (y),Current Position (z), ,Planned Position (x),Planned Position (y),Planned Position (z), ,Position Error,,Cartesian linear Velocity(x),Cartesian linear Velocity(y),Cartesian linear Velocity(z),Cartesian Angular Velocity(x),Cartesian Angular Velocity(y),Cartesian Angular Velocity(z), ,Total Linear Velocity, ,Total Angular Velocity, ,MSE, ,Joint 1 Position,Joint 2 Position,Joint 3 Position,Joint 4 Position,Joint 5 Position,Joint 6 Position, ,Joint 1 Velocity,Joint 2 Velocity,Joint 3 Velocity,Joint 4 Velocity,Joint 5 Velocity,Joint 6 Velocity, ,Time Stamp
0.008474028668596104,0.021184736406924184,-0.08001432942950738, ,0.00854528467622327,0.02106800349518326,-0.08006190637814958, ,0.00014480178641363393, ,3.200598101368898e-05,-3.855960367422522e-06,2.3687269273952754e-06,0.037798535041344915,-0.17037065162326537,-0.08481762157616261, ,3.232432703491784e-05, ,0.17451328942463903, ,1.2066815534469494e-05, ,0.10966280681398803,-0.2311182267269169,0.08994826681000001,2.990178594089317,0.2459456995777928,-0.23640919357526535, ,0.00039861442639405146,4.7923280159731265e-05,0.0,0.0,0.0,-0.19369038504069325, ,0.023006916046142578
0.0084878381038919,0.021166037708140968,-0.08004873153500162, ,0.008593623326155705,0.02106056542844416,-0.0801265219204259, ,0.00016842285800419492, ,0.00043236111220554106,-0.0008813465182993408,-0.0010719033133345477,-0.041322788835656966,-0.3346425024804295,-0.1728803532358491, ,0.0014535076641709064, ,0.3371841890473501, ,1.4237483837174038e-05, ,0.10973231140985606,-0.23107189032967154,0.08997289632000001,2.9905979739762865,0.24334960608224945,-0.24466545340288476, ,0.002028588918017414,0.0015967221734663733,0.0006312223007611266,0.0,-0.11221257743303628,-0.3597866891280732, ,0.05208110809326172
0.008502467092325943,0.0211406500797303,-0.08006885475144887, ,0.008641936794207744,0.021053103243937152,-0.08019102553219933, ,0.0002050413272234806, ,0.0008118469580126823,-0.0006411527650406901,-0.0015136273478670366,-0.07569533644920869,-0.03000427982043154,-0.017262629425307912, ,0.0018333685116650083, ,0.08142506228240609, ,1.619581161379092e-05, ,0.1098404296700952,-0.23100238573380352,0.08998197035000001,2.9905979739762865,0.24061687608694063,-0.24709278351696837, ,0.00670427828841939,0.0038848044277319757,0.0012288305096397913,0.0,-0.07613019615956168,-0.013808532886345759, ,0.0739431381225586
0.008518680235222039,0.021140078251750162,-0.0800982705427884, ,0.00869022493589855,0.021045617218317502,-0.08025541769513744, ,0.00025108902536505686, ,0.000878620446305384,-0.0002444652652018245,-0.001480776066740021,0.013880848493324445,-0.1664707751001592,-0.08299880712208038, ,0.0017390902548131645, ,0.16704848672566686, ,1.8317976119199197e-05, ,0.10999488432757969,-0.23090971293931284,0.09001178502000001,2.990807663919771,0.24061687608694063,-0.24929810950076353, ,0.00847419913311788,0.005504669380922273,0.001421697674314193,0.0032804112687130475,-0.01591731227464497,-0.17771975145410263, ,0.0997469425201416
0.008558753119705843,0.021139215937433273,-0.08015264836949634, ,0.008738487607165148,0.021038107627675974,-0.08031969888985355, ,0.0002653926386240759, ,0.0011079519024831117,0.000803284629669411,-0.0019345313791342507,0.08747033423204725,0.03802087875688164,0.027991048462442235, ,0.0023696487653941745, ,0.0953763418887748, ,1.989899299289312e-05, ,0.11042735736853626,-0.23062397182296654,0.09007011807000001,2.9910173538632554,0.24170996808506415,-0.24463529840077666, ,0.013466289422232268,0.010205046267982078,0.0017817462550335573,0.003290992168000016,0.05452193503754313,-0.10754777462449047, ,0.12911605834960938
0.008591355492544667,0.02113413380931291,-0.08020680984950639, ,0.008786724664362304,0.021030574747539055,-0.08038386959590793, ,0.0002832732715382274, ,0.0015477670150519096,-0.0002755215340145456,-0.002255698960070721,-0.009201096837633246,-0.012421658743708716,-0.008481195856561137, ,0.0027494858877711225, ,0.01545825956898967, ,2.125840172852693e-05, ,0.1107517121492537,-0.2303922898367398,0.09012456225000001,2.99122704380674,0.2418466045848296,-0.24507343126503534, ,0.015755759846998302,0.0098467974514222,0.0022600470374574354,0.008365297829036453,0.0,0.0016181365880006682, ,0.1524801254272461
0.008625676132617029,0.021127044789058202,-0.08025753639072235, ,0.00883493596426195,0.021023018852869384,-0.08044793029180909, ,0.0003014314351739872, ,0.0018831230788348592,-0.000255347097640268,-0.0029708310013431146,-0.017655247053959554,0.010419905197466203,0.006526599796424947, ,0.003526640257930361, ,0.020500784683253385, ,2.249239364364801e-05, ,0.11109923512859379,-0.23016060785051307,0.09017511756,2.9914367337502243,0.2418466045848296,-0.24499175252489477, ,0.01867314867344958,0.0115911740025004,0.002946506015538291,0.006107499780158067,-0.0006104285008513228,0.03185434736569042, ,0.17522907257080078
0.008671793868990689,0.02112176798906564,-0.08033478876829889, ,0.008883121364053021,0.021015440218066523,-0.08051188145501464, ,0.00029551095536911387, ,0.0019372407048920577,-0.00034149407748516967,-0.003050071252811242,-0.016492037922496355,0.0022135830824710784,-0.003455559316463698, ,0.003629387606866159, ,0.01663992982665771, ,2.335321094770452e-05, ,0.11155487636817304,-0.22987486673416677,0.09025289496000001,2.991646423693709,0.2418466045848296,-0.2449100737847542, ,0.019299764400746548,0.012780732869827713,0.0030479930195177955,0.011625522716356957,-0.0008738414514561976,0.02157681194255895, ,0.19802093505859375
0.008731827590148967,0.02110950528428706,-0.08041772816111196, ,0.008931280721341021,0.02100783911696669,-0.08057572356193113, ,0.000274007495882752, ,0.0021881677552874844,-0.00046291369731318,-0.002785568738862705,-0.014252230384057183,-0.018660805033596496,-0.005671789971117625, ,0.0035723606222453504, ,0.023480879780247352, ,2.3793160799940465e-05, ,0.112172694998111,-0.22948873009045553,0.09033585752,2.9918561136371937,0.2418466045848296,-0.24466503756433253, ,0.022861224176938276,0.01351423263435927,0.002790611688857744,0.005711001957530895,-0.0007959110751557166,0.003426779994782762, ,0.22547411918640137
0.008774911544191568,0.02110014955518394,-0.08046668457092236, ,0.008979413894147694,0.02100021582284387,-0.08063945708791642, ,0.0002857591724257635, ,0.0021603087802268967,-0.0006056675024248915,-0.0023359256575062833,-0.017300452601917368,-0.004052133095398036,-0.0023796432765976275, ,0.003238875704131789, ,0.017768664631436427, ,2.426205849039496e-05, ,0.11262833623769025,-0.22923387990560612,0.09038511654,2.992065803580678,0.2418466045848296,-0.24417496512348916, ,0.02301647867049983,0.01396159210805808,0.0023202930109249825,0.00932842364738504,-0.000720682755898674,0.019248845634417228, ,0.2475900650024414
0.008805683891916393,0.021091211263432413,-0.08050096726791996, ,0.009027520740910705,0.020992570608409835,-0.08070308250727967, ,0.00031589893380073867, ,0.0019901770183905947,-0.0005083876646303856,-0.0022879754075455453,-0.015575889153384153,0.00145034218231711,-0.003963330247164194, ,0.003074751054575251, ,0.015643267411305735, ,2.4916329462687722e-05, ,0.11294496828553345,-0.2290408115837505,0.09041882008,2.992485183467647,0.24170996808506415,-0.2439001897395116, ,0.020902410034905457,0.01272759409314254,0.002283045939515551,0.012503966935383238,0.0,0.022156200537415058, ,0.27245306968688965
0.008879312207225936,0.02107722067339938,-0.0805905629681425, ,0.009075601120483343,0.0209849037458145,-0.0807666002932823, ,0.0002793580004740494, ,0.0020375049142579943,-0.00045058405582523633,-0.002781676935558878,-0.01728532000089896,-0.013886129400367046,0.018220381463469132, ,0.0034773810318700516, ,0.022172209567173723, ,2.5163827051598972e-05, ,0.11372496430583012,-0.22860061580991972,0.09050956038,2.992485183467647,0.2418466045848296,-0.2436848926826458, ,0.022192923657266318,0.011755508570560513,0.002903009207217059,0.019499163999135413,-1.16605378505918e-05,0.014383209895392792, ,0.29465413093566895
0.008940393612447937,0.021072381548439597,-0.08067315014175798, ,0.00912365489213404,0.02097721550664654,-0.08083001091813902, ,0.00025931944645476854, ,0.0019155459661703519,-0.00026540527351097474,-0.002466495247104691,-0.004864307393526937,-0.0014453210052534937,0.006136635756786597, ,0.0031342232070656634, ,0.005074489051684157, ,2.5222017778407903e-05, ,0.11435822840151653,-0.22826081556345384,0.09059511552,2.9926948734111316,0.2422565140841259,-0.24336571647261057, ,0.02007975911097562,0.011324910818266939,0.0025307930600571974,0.00227741150482426,0.010029030864867486,0.018924333109053143, ,0.3241100311279297
0.008978447334864848,0.02106601604914354,-0.0807271609602759, ,0.009171681915546206,0.02096950616193384,-0.08089331485301895, ,0.00027250849082918033, ,0.0018231606652693631,-0.00025476695327172395,-0.002425700573018409,-0.0038102537281639675,0.006442010961783614,-0.007456606307601977, ,0.00304513452606065, ,0.007484486530200033, ,2.536489322238749e-05, ,0.11473664231235355,-0.2280291335772271,0.09064955970000001,2.9931142532981005,0.2422565140841259,-0.2428756440317672, ,0.01856356446761948,0.011082207352384769,0.002484606382779598,0.017775840883892675,0.009742681205495693,0.022227497050654098, ,0.3470931053161621
0.00902198033657774,0.021058337046701053,-0.08077359484507098, ,0.009219682050817702,0.02096177598214366,-0.08095651256804605, ,0.00028612741983295183, ,0.0017887503430483592,-0.0003583168989197644,-0.0015322430988585537,0.006326683213508805,-0.02394645634080824,-0.018159997403620443, ,0.0023823911735495417, ,0.02476811845413138, ,2.5578567482973524e-05, ,0.11520772901768124,-0.22777428339237768,0.09069752243000001,2.9931142532981005,0.2425297870836568,-0.2425267286581761, ,0.019514073937583958,0.010196793940073449,0.0016023349280756462,0.014661121475185161,0.012969873119557395,-0.010910215103166341, ,0.3703019618988037
0.009058471042166725,0.021050771061754875,-0.08081727995645281, ,0.00926765515846069,0.020954025237183187,-0.08101960453230021, ,0.0003066805880286095, ,0.0018302139029308865,-4.0621195818221247e-05,-0.002889615620742766,-0.001999454994357478,-0.003048228717076019,0.001190663944105472, ,0.0034207033556962834, ,0.003645479170781616, ,2.6053558046214815e-05, ,0.11558614292851824,-0.2275580468718994,0.09074159629,2.993323943241585,0.2425297870836568,-0.24220001369761385, ,0.018274011468991103,0.009806510581424012,0.002987959392234103,0.005474702658527783,0.010108771132232299,0.0142266460497558, ,0.39304208755493164
0.009098221136408863,0.02104880255043614,-0.08088471655611779, ,0.009315601099401171,0.020946254196400067,-0.08108259121381835, ,0.00031132714848878656, ,0.001965815436120375,3.155715268172315e-05,-0.003525949042687063,-0.003917646636331633,-0.0035708567468133055,-0.003985905546446218, ,0.004037046300750133, ,0.005300846397363649, ,2.6505588199584537e-05, ,0.11596455683935523,-0.22734181035142112,0.09081029966000001,2.9937433231285544,0.2425297870836568,-0.24162826251662992, ,0.018839972515082543,0.010507673948517577,0.0036300846672743855,0.010079640444071601,0.008163017326791014,0.013418324873060885, ,0.41487693786621094
0.009139006058078061,0.021047671641410963,-0.08095124545326993, ,0.009363519734978641,0.020938463128582392,-0.08114547307959465, ,0.0003163182909940254, ,0.002124832519443575,-0.0001995081927612522,-0.0032437070688376805,-0.012759035305971278,0.005163711574719347,0.0023237274079366452, ,0.003882827874512509, ,0.0137643343030754, ,2.694004628448825e-05, ,0.11636613894881491,-0.22711012836519437,0.09087900303,2.9939530130720384,0.24280306008318767,-0.24136102588317937, ,0.021106970987204356,0.011971014778340333,0.0033095390650322047,0.0087187434209708,0.0034635697170731497,0.027017568286960336, ,0.43577098846435547
0.009185568160093163,0.021040694533582656,-0.081014857113219, ,0.00941141092694577,0.02093065230195983,-0.08120825059558263, ,0.00031704145959307405, ,0.0021740518978259735,-0.00039858701608437054,-0.0026161011924752055,-0.005017439363564985,-0.011609915344479816,-0.004833728932460122, ,0.003424815135609797, ,0.012647720425060825, ,2.7336753960193995e-05, ,0.1168372256541426,-0.2268321099817223,0.09094252124,2.9939530130720384,0.2429396965829531,-0.2412274075664541, ,0.02264303067489162,0.013180130772009831,0.002692496876267749,0.0087187434209708,0.009027616308504198,0.008924417023652417, ,0.45671606063842773
0.009227794135141933,0.0210301254553707,-0.08106263738973767, ,0.009459274537468134,0.020922821984203206,-0.08127092422669455, ,0.00032936395983045144, ,0.00217309070944829,-0.0005572736136884671,-0.0024071617459555774,-0.0076993553965523,-0.011156453214458779,-0.005385598515146299, ,0.0032904870130720434, ,0.013555313414598914, ,2.7759764996684885e-05, ,0.11728514416084763,-0.22656953706399866,0.09099178026000002,2.9941627030155233,0.2429396965829531,-0.24090069260589186, ,0.02287224428982183,0.014293860755907632,0.002430395410436375,0.009300425816289115,0.007482161639431898,0.009705324765905297, ,0.47713303565979004
0.009275243772292828,0.021018721124979295,-0.08112348204194622, ,0.009507110429123748,0.02091497244242548,-0.08133349443680313, ,0.0003295923871619815, ,0.0023429928121579376,-0.0003945107989743585,-0.003341187656277835,-0.022157759391621727,0.04627255592726732,0.02279178345723841, ,0.004099852319632321, ,0.05130414927549904, ,2.8146922774315067e-05, ,0.11776395359904955,-0.2262606277490297,0.09105270589000002,2.9945820829024923,0.2429396965829531,-0.24008390520448622, ,0.023541786543902453,0.014795282438177544,0.0033876672735006384,0.009299729746333097,0.006313002632817944,0.07579088918221401, ,0.4968540668487549
0.009324758227020695,0.021013514900858822,-0.08119346338433296, ,0.009554918464902837,0.020907103943182345,-0.081395961688743, ,0.000324503605996187, ,0.0024743388533670562,-0.0004526182389544542,-0.0034936548074523846,-0.013572970537368528,0.01274013856485362,0.009224522735241771, ,0.004304978506932547, ,0.018615495140862342, ,2.8477998593046932e-05, ,0.11827365396874837,-0.22594399570118648,0.09112529813,2.9945820829024923,0.24348624258201487,-0.2397127894178663, ,0.02497287935749231,0.01621061523035032,0.0035420972915276862,0.007445809968212031,0.009516776473039269,0.039343688947773084, ,0.5179839134216309
0.009373722967857429,0.02100295149716789,-0.08125520496231792, ,0.009602698508207382,0.02089921675247153,-0.08145832644431003, ,0.0003231857542999755, ,0.0024280692632009243,-0.0005392903424052962,-0.0027913658440604267,-0.003234595316858976,-0.0218460872734817,-0.019937793896260367, ,0.0037387267479316913, ,0.02208425085564277, ,2.877658683841547e-05, ,0.11876790887269874,-0.22564280911909174,0.09118752005000001,2.995001462789461,0.24348624258201487,-0.23946775319744462, ,0.025078472927714267,0.015370414894472106,0.002840879529159979,0.018996434766931577,0.009516776473039269,-0.0026906429439133694, ,0.5385329723358154
0.009423969722996426,0.020989453079561876,-0.08131348530450797, ,0.009650450422850853,0.020891311135734707,-0.08152058916426344, ,0.0003222070099646218, ,0.002345418105284683,-0.0006065112193027646,-0.0026946152038661983,-0.004274323536961653,-0.021528622066991097,-0.015695936629814933, ,0.003623505629172417, ,0.021948836180077896, ,2.904790756124329e-05, ,0.119293054708146,-0.2253184543383743,0.09124585310000001,2.995001462789461,0.24348624258201487,-0.23946775319744465, ,0.024288953559885022,0.015831988915327125,0.002723339292186699,0.014792090709232748,0.009516776473039269,-0.002153682770509999, ,0.5612349510192871
0.009473772520129627,0.02097575717843088,-0.08137048835831578, ,0.009698174073057876,0.020883387357856772,-0.08158275030832692, ,0.00032240250639849286, ,0.00228649972090044,-0.0005723253166717427,-0.0027197209362648206,-0.007707969545328847,-0.01272762270531568,-0.0035485315508385976, ,0.0035989608518207576, ,0.01487968998641362, ,2.929985524036438e-05, ,0.11980275507784482,-0.22499409955765687,0.09130288986000001,2.99542084267643,0.24348624258201487,-0.2388960020164607, ,0.023688702336113525,0.015350524354330439,0.0027491908042802903,0.007201804735680295,0.00866783219374116,0.00920876011074378, ,0.5822911262512207
0.009529071423289494,0.02096485341974312,-0.08144601792848435, ,0.00974586932346382,0.020875445683166762,-0.08164481033518757, ,0.000307430469931921, ,0.0023524898407379464,-0.0003572189708470038,-0.0033974283034026585,-0.010958706093580014,-0.005353100383930626,-0.010338768576987435, ,0.004147810617743981, ,0.012196266744921063, ,2.9474085410757374e-05, ,0.12035879184478898,-0.22463885384544255,0.09137937097000001,2.995630532619915,0.24362287908178032,-0.2383539899990326, ,0.02313995161142911,0.014227427520010612,0.003455273648590022,0.016383253089390162,0.004316294373206078,0.01532975062369161, ,0.6029210090637207
0.009575426277213294,0.020959477637636902,-0.08151547371854331, ,0.009793536039114547,0.020867486375438164,-0.08170676970249957, ,0.0003043491646700072, ,0.0022991545755571487,-0.00038144445394132365,-0.0034350408117647547,-0.018238332150765996,0.01387799591050627,0.0020000363940622236, ,0.004151038064416831, ,0.022918017576907437, ,2.962440231834657e-05, ,0.12082215581724245,-0.22435311272909622,0.09145066692,2.995630532619915,0.24389615208131118,-0.23808675336558208, ,0.022444877379013902,0.014289556024464805,0.0034756298319877812,0.013079298282390848,0.0017492053967188648,0.037589233891487696, ,0.6227030754089355
0.00962313803734173,0.02095310101322653,-0.08158797420050673, ,0.009841174085465962,0.02085950969788938,-0.08176862886688256, ,0.0002982199877129852, ,0.0022123847224095163,-0.0003069546515258809,-0.0035568348402669325,-0.013919808723164551,0.0010664290388380194,-0.007860479306934946, ,0.004199993023682433, ,0.013960599744104643, ,2.974187580105239e-05, ,0.1212777970568217,-0.2240596488798757,0.09152455545,2.9962596024503685,0.24403278858107663,-0.23762642008829454, ,0.021102277420162505,0.013727316875230839,0.0036029883555756623,0.015919149521554193,0.0019031117408308351,0.020808798744348517, ,0.6435809135437012
0.009666407119747616,0.020945453636105876,-0.08165052747584993, ,0.009888783328383784,0.020851515913184012,-0.08183038828392432, ,0.00030104050265091105, ,0.0021210955045363115,-0.0004519602292216503,-0.002494182150954093,-0.003958954684087099,0.00152345407979283,-0.003579521604019362, ,0.003305186649842974, ,0.004241961153448647, ,2.9861888824223038e-05, ,0.12171027009777827,-0.22378163049640362,0.09158807366,2.9962596024503685,0.24416942508084208,-0.23692105059058535, ,0.0217653535684566,0.013654236195463422,0.0025555609690357775,0.01325856657471473,0.012381916327138838,0.021073722739965217, ,0.6636710166931152
0.009708879450340407,0.02093577240017261,-0.08169858173677146, ,0.009936363634143085,0.020843505283431298,-0.08189204840818058, ,0.00031255659912766525, ,0.0020465183685892435,-0.00043900681856072184,-0.002342199257500429,0.002131464249217254,-0.029411153303497917,-0.00726260162254334, ,0.003141156121804764, ,0.029488287139422985, ,3.0014500669901284e-05, ,0.12215046587160908,-0.22350361211293154,0.09163733268,2.996469292393853,0.24444269808037297,-0.23632709899657262, ,0.021349143207754953,0.013074805946331052,0.0024058014680561853,0.0026306860795080062,0.01277878877395713,-0.011837433020275482, ,0.6847579479217529
0.009752218230803059,0.020929805217320494,-0.08175470406899299, ,0.009983914869428052,0.020835478070186826,-0.08195360969317617, ,0.0003196003604006047, ,0.0022948346118646847,-2.6791184519169443e-05,-0.0034413342662063333,0.018789183733228597,-0.006983065143127064,-0.007825252926296346, ,0.004136395193298866, ,0.02004486526947802, ,3.0181628556291466e-05, ,0.12259066164543987,-0.2232333164623337,0.09169566573000001,2.9966789823373374,0.24485260757966928,-0.23608960152667793, ,0.02264843473949183,0.013333840320144834,0.0036342257631759075,0.015389312090070464,0.03258418579396232,0.008690762280132186, ,0.7045199871063232
0.009794482546247202,0.02092512899232666,-0.08181817694698602, ,0.0100314369013316,0.020827434534452283,-0.08201507259140607, ,0.0003232019001868915, ,0.0023786876207222826,4.56645906510289e-06,-0.0034248893563247674,0.0054593768799492855,-0.010093328806516552,0.0035911030037225045, ,0.004169897211274218, ,0.01147519419628931, ,3.0450539318582775e-05, ,0.12299996648777377,-0.22300163447610694,0.09176048023000001,2.9968886722808223,0.24485260757966928,-0.235517850345694, ,0.023765825584390377,0.011518490033989453,0.0036103380598368094,0.00303033809600324,0.019210652985657013,0.011670242152793232, ,0.7271859645843506
0.00984441896000022,0.02091769923501185,-0.08188382363591994, ,0.010078929597354989,0.0208193749366766,-0.08207643755433618, ,0.0003190031790489201, ,0.002285710539055444,-0.000395604442503877,-0.002881270168991082,-0.015286007977193292,0.0027994370730990373,-0.008055103772765195, ,0.0036990124803784902, ,0.015540234477204179, ,3.069220234582719e-05, ,0.12349422139172414,-0.22271589335976064,0.09182788731000001,2.9973080521677913,0.24498924407943473,-0.2350575170684065, ,0.022735251930635067,0.012739554511809742,0.0029410656425406206,0.01755056299665946,0.0,0.02453411915411849, ,0.7449829578399658
0.009887783700933187,0.020915215852121617,-0.08193870332956302, ,0.01012639282540752,0.020811299536755885,-0.08213770503240403, ,0.0003276195852131254, ,0.002365006671626144,-0.00015947063097151298,-0.002869513038420226,0.024628086497664917,-0.017113475506276715,-0.012847118896641958, ,0.003721933975320129, ,0.029990226545423822, ,3.094870849097253e-05, ,0.12394213989842916,-0.22247648864065966,0.09188622036,2.9973080521677913,0.2455357900784965,-0.23501311624234877, ,0.02426411187892375,0.013781141672737552,0.00307091026026605,0.016527322629660546,0.036753132293646316,-0.0018698429704540678, ,0.7646059989929199
0.00993753275046349,0.020908572825500026,-0.08200546532339553, ,0.010173826453806253,0.02080320859403422,-0.08219887547502007, ,0.0003230229438650509, ,0.0024172370896672415,-0.0002989244323401746,-0.0033156373423804193,-0.001180307246119592,-0.01307295126343935,-0.00011729669911553827, ,0.004114102812290955, ,0.013126125838600983, ,3.117868799078128e-05, ,0.12443639480237953,-0.22219847025718759,0.09195492373000001,2.9975177421112758,0.24567242657826194,-0.23430774674463958, ,0.024152950256673654,0.014187014734410341,0.003429238217438106,0.00462777510881437,0.014419245560292039,0.009108997174045957, ,0.7823641300201416
0.009987973891532997,0.02090465409768734,-0.08207624325490452, ,0.010221230351275538,0.02079510236730373,-0.08225994933056832, ,0.00031647761354866886, ,0.0024986572048718743,-0.0002689848567264477,-0.0035507147713361416,-0.004159997886831676,-0.001398972647185218,-0.006780962594210464, ,0.004350082305886975, ,0.004388929974564064, ,3.13782359360861e-05, ,0.12493064970632989,-0.22191272914084129,0.09202881226000001,2.9979371219982447,0.24608233607755825,-0.2340702492747449, ,0.02439510065770457,0.014268071201093186,0.003669387588113339,0.016021131549911957,0.01221554346909966,0.020123920955901365, ,0.8012011051177979
0.010013232831561646,0.020902061826873295,-0.08211096348005315, ,0.010268604386946722,0.020786981114804794,-0.08232092704640699, ,0.00035006128147227597, ,0.002443725564251132,-0.00018383293394709857,-0.0031654032722519803,0.01922332222937512,-0.0048100666881880074,-0.004007862237538767, ,0.004003169626303844, ,0.019815974837524647, ,3.1666129523247696e-05, ,0.1251854998911793,-0.2217582744833568,0.09206510838000001,2.9979371219982447,0.24635560907708912,-0.23404804886171607, ,0.024706311262293876,0.014651372789635755,0.00335979994094073,0.013881979554532351,0.03545943229264002,0.013471303928427592, ,0.8190929889678955
0.010064771119425067,0.020889885482793275,-0.08217373928520012, ,0.010315948430357859,0.020778845094227325,-0.08238180906886948, ,0.00034454759365945136, ,0.0025757073577339262,-0.0005027267824416026,-0.0030313736327153757,0.0020280291364050637,-0.008033868285442697,0.0053417431550469505, ,0.004009517266653279, ,0.00828588809663605, ,3.192527315243369e-05, ,0.12570292299375235,-0.2214416424355136,0.09212862659000001,2.998146811941729,0.24635560907708912,-0.23331294020045099, ,0.02652234252612375,0.016532568215761462,0.0031423972223318213,0.003212766922272214,0.021753860017766687,0.016706136245403378, ,0.8397560119628906
0.010116111773559519,0.02088216331655693,-0.08223991335187593, ,0.010363262351453306,0.02077069456271037,-0.08244259584326596, ,0.000338509798312263, ,0.0024262060361316304,-0.0004496792517878949,-0.00321006630740823,-0.003506536725583966,-0.005796268203829346,-0.007065416119876998, ,0.004048853276818955, ,0.00677440215500504, ,3.2156127633247004e-05, ,0.12621262336345115,-0.22112501038767038,0.09219732996,2.998566191828698,0.24676551857638546,-0.23283040651013465, ,0.024000238128090736,0.015493378213627883,0.003294480148914168,0.0140701266966169,0.013337999735773931,0.015022813447259805, ,0.859442949295044
0.01016373701838232,0.020872159556197062,-0.0822927784584213, ,0.010410546020583368,0.02076252977684268,-0.08250328781388304, ,0.00034241431165429534, ,0.002419438871007339,-0.0006580536247858622,-0.0025655507019619584,-0.0013234403880783467,0.001631203616182499,0.0011881745932808656, ,0.0035873067094928717, ,0.002100552210037989, ,3.238755505332396e-05, ,0.12671460100027576,-0.22077748740833028,0.09225307043000001,2.998566191828698,0.24758533757497808,-0.23284548401118865, ,0.02504537913921108,0.01679889211514795,0.0026354751025810725,0.010551217910730144,0.019228740570411358,0.024575591645650798, ,0.8778400421142578
0.010222162671244997,0.020854723250467687,-0.08235863025871012, ,0.010457799308503995,0.020754350992663425,-0.0825638854239855, ,0.0003282208065124402, ,0.0024895824233551215,-0.0006443652576322229,-0.003160886539412368,-0.010576443871063653,-0.0018953318590924396,-0.00831141303335018, ,0.0040748534872999415, ,0.010744926593435521, ,3.2571385814190576e-05, ,0.12730152869871683,-0.22039135076461905,0.09231918122,2.9989855717156675,0.24758533757497808,-0.2321103753499236, ,0.024603822027086022,0.01707086554388753,0.003200484532851115,0.01666713871406197,0.008403626902961259,0.02027381874526407, ,0.8993070125579834
0.010277555947721952,0.020844008914621577,-0.08243303457691624, ,0.010505022086376452,0.02074615846566225,-0.08262438911581717, ,0.0003129410713759339, ,0.0025046297066797013,-0.0006183741952981131,-0.0033476410346628196,-0.013037714519372686,-0.0013953516878515873,0.0009475532492085547, ,0.0042263763568749285, ,0.013112170140789851, ,3.27077659831031e-05, ,0.12784984273278677,-0.2200206595866563,0.09239566233,2.999195261659152,0.24799524707427442,-0.2319545566201695, ,0.024661367348874943,0.01710779548557252,0.003388387900446714,0.008217181794537605,0.00755665468048243,0.02313541784452839, ,0.9171640872955322
0.01032717287242808,0.020831144635488966,-0.08249442680402325, ,0.01055221422576688,0.020737952450780178,-0.08268479933060088, ,0.00030914412962064887, ,0.0023759269776279257,-0.0006682098056110439,-0.002952613502558964,-0.011634828606948373,0.007950422757213929,0.009924078334351338, ,0.003848306100458802, ,0.014091786916749916, ,3.282889353860265e-05, ,0.12834409763673713,-0.21968858207306463,0.09245788425000001,2.9994049516026364,0.24813188357403987,-0.231494223342882, ,0.023861438661923758,0.01699139508656594,0.0029896418018018024,0.004037833055217315,0.011404291718173601,0.033244007324819164, ,0.9446449279785156
0.010372651005248016,0.020822062844834933,-0.08254968401259227, ,0.010599375598646054,0.02072973320240935,-0.0827451165085408, ,0.000313245374418543, ,0.0021168149826213812,-0.0005772010262134874,-0.002544057954040985,-0.012552641751810915,0.01231254894025399,-0.0031749598716556563, ,0.0033595085308466568, ,0.017583164568668697, ,3.2955429103876955e-05, ,0.12879973887631638,-0.21940284095671833,0.09251492101000001,2.999614641546121,0.24840515657357073,-0.23106362922915036, ,0.020948552220412975,0.014321904853376212,0.00257747759223301,0.016753456643481986,0.005997035499714084,0.032599285076651274, ,0.961993932723999
0.01041174288315982,0.020813403027350477,-0.08259888352510796, ,0.010646506077389019,0.020721500974393944,-0.08280534108882204, ,0.00032585958681167663, ,0.002242794479550976,-0.0004946151740205232,-0.002866661537269368,-0.008671195928971386,0.0002035256636917363,-0.004938743289734827, ,0.003673216521951199, ,0.008673584111588558, ,3.310791967735897e-05, ,0.12919359825290183,-0.2191402680389947,0.09256547632,2.999614641546121,0.2486784295731016,-0.2310414288161215, ,0.022038305053058704,0.014419836128015617,0.002928628703805847,0.013589690577535469,0.008088134501890876,0.020577217878448625, ,0.980370044708252
0.010463693417923685,0.02080503379446526,-0.08266818994965124, ,0.010693605534774692,0.02071325602003044,-0.08286547350961222, ,0.0003165494343479396, ,0.0021406656087165805,-0.00027329152638502796,-0.0028707081195407567,0.00323409062917242,-0.007270575658133475,-0.010453194500289562, ,0.003591392851573469, ,0.00795742498572145, ,3.3232165054592304e-05, ,0.12968013042397797,-0.21884680418977415,0.09263417969000001,3.00003402143309,0.24881506607286705,-0.230581095538834, ,0.021102277420162505,0.01277901179079865,0.0030323265790976593,0.01569396562083914,0.01591270503717499,0.009430368738267799, ,1.0002920627593994
0.010506151810763132,0.020798171906605253,-0.08272752247479628, ,0.010740673843985506,0.020704998592067873,-0.08292551420806178, ,0.00032075314035892794, ,0.0022396275071274235,-0.00024323648419377836,-0.0034359609736364554,-0.00835040384164208,-0.0014867578824785542,-0.010570234779126213, ,0.004108640063363731, ,0.008481726996356758, ,3.3361636327993696e-05, ,0.1301048807320603,-0.2185842312720505,0.09269769790000001,3.0002437113765743,0.24895170257263252,-0.2302841197418276, ,0.020897806993717415,0.01269184720589418,0.003534238189483027,0.017530635277289583,0.005392738869898742,0.016833210409946762, ,1.0179040431976318
0.010526394595054726,0.020798293847683173,-0.08276069702745703, ,0.010787710878607226,0.020696728942708745,-0.0829854636203057, ,0.0003593350125342043, ,0.0023561211862966145,-0.00014184065360519998,-0.003683054868261979,-0.005881061359559323,0.01364161458908179,-2.2379662253913923e-05, ,0.004374507855537487, ,0.014855319943853296, ,3.365352393411492e-05, ,0.13029794905391592,-0.21846839027893716,0.09273269773000001,3.0002437113765743,0.2492249755721634,-0.23018024058865819, ,0.022028073713665455,0.012836053233933557,0.0038244445426170474,0.015570332338482516,0.011860415201655646,0.03471999187764704, ,1.0347590446472168
0.010576137887677924,0.02079576668712686,-0.08283654311056576, ,0.01083471651262835,0.020688447323608805,-0.08304532218146363, ,0.0003492406784899904, ,0.0024520930913255372,-0.00011229393020217903,-0.003715884383224964,0.006499155567973483,0.011169617801671566,0.015575121430576468, ,0.004453444420309055, ,0.01292282415819724, ,3.391303537464274e-05, ,0.13076903575924362,-0.21820581736121353,0.09281177142000001,3.0004534013200588,0.24949824857169425,-0.22966796773478595, ,0.023670975694305506,0.014140506863130795,0.003907951795878312,0.0018610521756956722,0.02761958451440968,0.03469725614802229, ,1.050266981124878
0.010602669373189775,0.020792508524607935,-0.08287407150142748, ,0.010881690620440015,0.020680153985877785,-0.08310509032564103, ,0.00037927047859193986, ,0.0026018827583299646,-0.0003770381763797976,-0.003986610131848224,-0.007262994474534951,-0.0021729278708076108,-0.005359560966214919, ,0.004775459351507189, ,0.0075810753367765975, ,3.423186510715834e-05, ,0.1310161632112188,-0.21805136270372902,0.09285066012000001,3.000872781207028,0.2496348850714597,-0.22928931319763898, ,0.024432786189101642,0.01623002250016603,0.004090603882896764,0.014026684613292388,0.011162457916316624,0.020035864032024328, ,1.0658149719238281
0.0106456762739841,0.020792735967738243,-0.08294005471374935, ,0.010928633076835427,0.020671849180079985,-0.08316476848592999, ,0.0003810176467275891, ,0.0027107097257777187,-3.9193815801657865e-05,-0.004136175071098071,0.020745605383614467,-0.01630035980981611,-0.00833824364072927, ,0.004945445135819034, ,0.02638336353559832, ,3.454468499870144e-05, ,0.1314254680535527,-0.2178196807175023,0.09292065978000001,3.0010824711505126,0.2501814310705215,-0.22891819741101907, ,0.02582229702271314,0.015232253861712806,0.004379656728072588,0.01329281718401942,0.03533371977815485,0.002058313886807264, ,1.0831100940704346
0.010711221325306882,0.020789793583318422,-0.08304266066164366, ,0.010975543757009732,0.020663533156234176,-0.08322435709441038, ,0.0003447051450572723, ,0.0029379566062914747,-0.0005068607662942887,-0.004142946876676804,0.0011075688119473708,-0.004468309251785115,-0.003122976894532067, ,0.005104165522377408, ,0.004603530712644541, ,3.4768851338715293e-05, ,0.13205100941636488,-0.21744126680666528,0.09302825185000001,3.0010824711505126,0.25086461356934864,-0.22816842708725218, ,0.028251545566677815,0.019331216451104253,0.004278488186946012,0.01329281718401942,0.022975079703969566,0.02012843385810272, ,1.0983741283416748
0.010740784520225703,0.02078547642926483,-0.0830824276514452, ,0.011022422536559462,0.02065520616381468,-0.0832838565821499, ,0.00036995125142335353, ,0.0029105886696979017,-0.0003192721689671274,-0.003768430457807479,0.0058146362441017846,0.03099633058552454,0.01624475114795799, ,0.004772266677102387, ,0.03153700213492661, ,3.504045926157441e-05, ,0.1323367505327112,-0.21725592121768392,0.09306973313000001,3.001292161093997,0.25113788656887953,-0.22765615423337995, ,0.02866111191738773,0.017326445418745805,0.003982202880000001,0.012617426434141888,0.033594536370817704,0.059286776531152614, ,1.118643045425415
0.010800962394182222,0.020774807647838282,-0.08314614761997782, ,0.011069269291482381,0.020646868451751104,-0.08334326737920617, ,0.0003566696349740347, ,0.002731833556678989,-0.0007054709543866126,-0.0022955087316727744,-0.00491719423641389,0.006753679935672235,-2.6016588385298616e-05, ,0.0036373017727522254, ,0.008354100296763634, ,3.527594852191905e-05, ,0.1329391236969007,-0.21690067550546957,0.09313714021000001,3.0019212309244505,0.2516844325679413,-0.2269583234861978, ,0.028489024784890654,0.016205078818044873,0.0024149198787143727,0.01536550904472015,0.016027711863252057,0.03369982858748934, ,1.135059118270874
0.010857541981360987,0.020756135660881372,-0.08319536798155844, ,0.011116083898176926,0.02063852026842918,-0.0834025899146266, ,0.00035159384641521714, ,0.002878678258037745,-0.0008350221006194344,-0.0030727762354033857,-0.007678023113294786,-0.009651898859110436,-0.008489122574538785, ,0.004292552179610857, ,0.012333336541295174, ,3.54939947860061e-05, ,0.133533774128216,-0.2165222615946326,0.09318769552,3.0019212309244505,0.25195770556747216,-0.22693612307316893, ,0.028905556368708736,0.01929584008915632,0.0031461211771676876,0.01536550904472015,0.012849921710578286,0.016086830919600833, ,1.1508779525756836
0.010883838425843728,0.020749935653566913,-0.08322684533974273, ,0.011162866233442122,0.020630161861691317,-0.0834618246164497, ,0.0003839499174568959, ,0.00312348198381388,-0.0005753448877014976,-0.00456889359061675,-0.010029191415846331,-0.027580999667087814,-0.01759420243195221, ,0.005564346330468023, ,0.02934784866222152, ,3.5772212350595125e-05, ,0.13379634704593962,-0.21635236147139963,0.09322010277000001,3.0019212309244505,0.25209434206723763,-0.22688418349658424, ,0.029498583014756222,0.018556304567553927,0.0037532543638077293,0.01536550904472015,0.0087454681890416,0.027912614733625656, ,1.169158935546875
0.010945991499992756,0.02073729846433319,-0.08331175292664397, ,0.01120961617447699,0.020621793478836418,-0.08352097191170603, ,0.0003558257359746841, ,0.002827628641665993,-0.000775535162530175,-0.0032049743473194347,-0.022059233017614366,0.0065272722962203536,0.0005555128242726985, ,0.004343823096129285, ,0.023004674407960075, ,3.5985613665413985e-05, ,0.13439099747725491,-0.2159662248276884,0.09330695420000001,3.0021309208679354,0.25223097856700305,-0.2265055289594373, ,0.027902658499991406,0.017655244941110843,0.0032594253161448744,0.012875977989536673,0.0006888358322278274,0.035753111397776184, ,1.184535026550293
0.011006817559573183,0.02072176789423317,-0.0833753914158721, ,0.01125633359888039,0.02061341536662092,-0.08358003222641873, ,0.0003404062065425697, ,0.0028617842319111388,-0.0005814529469700884,-0.0034236399008303374,-0.0076406296269958774,0.0063642087413854605,0.006310341347815572, ,0.004499911853593689, ,0.009943961661756517, ,3.616227416618179e-05, ,0.13500109337431865,-0.21557236545110298,0.09337306499,3.002550300754904,0.2526408880662994,-0.2263497102296832, ,0.02822633597812932,0.017469981877479893,0.0035531589382110196,0.008938919895267721,0.015543458002724045,0.03461546996644861, ,1.200382947921753
0.011041981519207447,0.020712298760254873,-0.0834148266236533, ,0.011303018384650481,0.020605027771258663,-0.0836390059856045, ,0.00036042155391347166, ,0.0028611292548301036,-0.0006586458018519861,-0.0032720844071306337,-0.001388315896533908,-0.004973266906107523,-0.024854275954462452, ,0.004396181442175623, ,0.005163410149588571, ,3.6373466360571945e-05, ,0.13534089362078452,-0.21535612893062467,0.09341324998000002,3.0029696806418733,0.2526408880662994,-0.2259413165289804, ,0.027796409361004918,0.018041243642294827,0.003389830074483933,0.03264272472441758,0.015543458002724045,0.015564022110852224, ,1.2166781425476074
0.01110141977179337,0.020701248085257005,-0.08349467613976441, ,0.01134967041018457,0.020596630938422053,-0.08369789361327479, ,0.000337446986078501, ,0.002768996777356146,-0.0005803388512573163,-0.00385385818978781,-0.0075674319068313465,0.022378692441079845,-0.0022843073746206203, ,0.004780832488414748, ,0.023623545461823815, ,3.65343065966001e-05, ,0.1358969303877287,-0.21497771501978769,0.09349361996000001,3.0029696806418733,0.25318743406536115,-0.22548852200221986, ,0.026229115964198666,0.018746926424036105,0.003975246199151486,0.02318520020264897,0.01723804406000048,0.04684242129586064, ,1.2323060035705566
0.01112639015003789,0.0206971467357668,-0.08353082634322623, ,0.011396289554278637,0.020588225113241515,-0.08375669553243639, ,0.00036841077467618746, ,0.002612015977841423,-0.00018807223789112483,-0.003797973847957584,0.03407132134862142,-0.033671016038226025,-0.022796739119687607, ,0.004613307271896594, ,0.04790190245384058, ,3.6750150712500455e-05, ,0.13615950330545232,-0.2147923694308063,0.09353380495000001,3.0029696806418733,0.25346070706489204,-0.22538464284905044, ,0.02472562312623001,0.016813774195335005,0.004039769596753741,0.01924936230474646,0.04501072988213462,-0.021652112466294414, ,1.2484190464019775
0.011146777627797807,0.02069380886827438,-0.0835609518416147, ,0.011442875696127067,0.02057981054030671,-0.08381541216509217, ,0.0004067182576083845, ,0.0028139492271787928,-0.0003346647086762671,-0.0040563792262761425,0.00586478060958014,0.017006268808715155,0.004168555661288749, ,0.004948183823155536, ,0.017989130865457524, ,3.7032697409326314e-05, ,0.13635257162730793,-0.21466108297194447,0.09356491591,3.0029696806418733,0.25359734356465746,-0.22508766705204405, ,0.02652234252612375,0.017599581149568024,0.0042488160896239,0.016256668829155746,0.02972137401414292,0.040817047395364826, ,1.2660109996795654
0.01123397447394482,0.02067843115624135,-0.08366575801209569, ,0.011489428715322266,0.020571387463666418,-0.08387404393224193, ,0.00034655193851567025, ,0.0026068184186560056,-0.0005750902294214644,-0.002766207346890857,0.036904717086717186,-0.03313385722623936,-0.02207500235228624, ,0.0038442338802176412, ,0.04959647807836242, ,3.719561355979346e-05, ,0.13720207224347264,-0.21412049167074876,0.09367510056000002,3.0035987504723267,0.2544171625632501,-0.22477602959253584, ,0.026301813070529596,0.019163356534424632,0.0029679171827836784,0.019770841484947118,0.050495884936637044,-0.02017638881008976, ,1.2817111015319824
0.011260452840704458,0.020673780967381396,-0.08369910911779745, ,0.01153594849185425,0.02056295612682942,-0.08393259125388415, ,0.00037774847048986177, ,0.002631557816496085,-0.00018826524005309347,-0.0035262966504402706,0.020370290212022215,-0.0042402443781670695,-0.002337000411587578, ,0.004404010491481618, ,0.020806931421123522, ,3.748080689767372e-05, ,0.13745692242832205,-0.2139505915475158,0.09371010039000001,3.0038084404158116,0.254690435562781,-0.2245087929590853, ,0.025326111971836346,0.015325733455825382,0.003769240776147658,0.013242737774968203,0.03753136489037974,0.014986912175367805, ,1.2951231002807617
0.011286400248455158,0.020669742748630336,-0.08373430344692298, ,0.011582434906110418,0.02055451677276434,-0.08399105454901558, ,0.00040845400288539466, ,0.002933045349219515,-0.00017821514881611808,-0.004279304215156973,-0.0013171241817620874,0.025738029564567763,0.01169841258382197, ,0.005191046159080654, ,0.025771708917759036, ,3.781578711938787e-05, ,0.13770404988029722,-0.21381158235577977,0.09374639651000001,3.0038084404158116,0.254690435562781,-0.22393704177810136, ,0.027411017203486647,0.015695822288863837,0.0045073037691001705,0.013242737774968203,0.023322134100497438,0.05344691377791204, ,1.3097219467163086
0.011325011424135292,0.020667891593416386,-0.08380358523529492, ,0.011628887838875198,0.02054606964390083,-0.08404943423563264, ,0.00040941811609405786, ,0.00309083525422015,5.2054930585983e-05,-0.005831124151112598,-0.002402540159699894,-0.008054109626898058,-0.005334426989415226, ,0.0065998470550624935, ,0.008404812571347838, ,3.814525172837294e-05, ,0.13804385012676312,-0.21361079130104993,0.09381769246,3.0038084404158116,0.254690435562781,-0.22336529059711743, ,0.02658922430890187,0.01606788715856261,0.006061191598173516,0.012706903508774134,0.015175058235372995,0.01562695196061958, ,1.323322057723999
0.011386920624581647,0.02066778391353177,-0.0839038513658436, ,0.011675307171329563,0.0205376149821293,-0.08410773073073277, ,0.0003764007790577188, ,0.002954439470962516,1.5234524955301705e-05,-0.003941214201282101,0.05016868786355619,-0.04220777521532879,-0.021906236583890383, ,0.004925658743632124, ,0.06556213487698306, ,3.840869685102915e-05, ,0.13859988689370728,-0.21326326832170983,0.09392398824,3.004437510246265,0.25551025456137366,-0.22354372557845262, ,0.028497580047588827,0.016324951240060344,0.004308577635921018,0.017792364768281395,0.05973394149487403,-0.02882349646730183, ,1.3371069431304932
0.011417522395419509,0.020662784954568414,-0.08394101446167457, ,0.01172169278505078,0.020529153028801338,-0.08416594445031461, ,0.0004012114371528643, ,0.003042950663411243,-0.00038773870148202296,-0.0033172488936985454,-7.32764449936558e-05,0.011432436223714308,-0.0017204259546560953, ,0.0045181888255501354, ,0.011432671037207215, ,3.871039164969822e-05, ,0.13921770552364524,-0.21291574534236973,0.09400306193,3.0046472001897495,0.2556468910611391,-0.22275667734060284, ,0.02986998475243021,0.015422873648378155,0.0035444618424566093,0.020203631723676226,0.020432409283746785,0.038836399245106096, ,1.355600118637085
0.011480103280154728,0.02065014756599925,-0.08401501157858497, ,0.011768044562012083,0.020520684024730885,-0.08422407580937899, ,0.00037865398837579566, ,0.0030504623584388475,-0.000688855280042729,-0.003471350554585295,-0.005375574868078881,-0.004077252710072642,-0.010360211155456565, ,0.004672271061262893, ,0.006746909983099242, ,3.8966321087596126e-05, ,0.13950344663999154,-0.21275356795201103,0.09403935805000001,3.0046472001897495,0.2556468910611391,-0.22234828363990003, ,0.02959979462210567,0.018599949345055034,0.0036119754013605445,0.020203631723676226,0.014856667497554573,0.02181699985279833, ,1.3689119815826416
0.011511019119453894,0.020643078688922765,-0.08405260858050781, ,0.01181436238458235,0.02051220821019355,-0.08428212522193042, ,0.00040227118637993595, ,0.0031693624643549857,-0.0007459919140518491,-0.003909342163337013,-0.017310797619961585,-0.019336718013884008,-0.019016865826313695, ,0.00508766336507611, ,0.025953272951106453, ,3.925779731571786e-05, ,0.1398046332220863,-0.21256049963015541,0.09407824675000001,3.0046472001897495,0.25578352756090456,-0.22205130784289367, ,0.030030677708376828,0.018828758245728328,0.00400624032193159,0.020150588114140718,0.0,0.007292720528745912, ,1.3820841312408447
0.011561855167527665,0.02063652899937537,-0.08411172984543888, ,0.011860646135525607,0.020503725824928282,-0.08434009310097694, ,0.00039882640607200406, ,0.0033650148505032632,-0.00029539200820821385,-0.004019062406998373,0.04538469333844957,-0.038043545732174146,-0.01311941147411888, ,0.005250089905322416, ,0.0592206193842356, ,3.953738570985775e-05, ,0.14029888812603666,-0.21225931304806064,0.09414176496000001,3.0050665800767185,0.2564667100597317,-0.2222816824008135, ,0.033134406968739795,0.020203734630289714,0.004373644019769358,0.013304343565142814,0.061511112155402635,-0.017995124291235738, ,1.4006750583648682
0.011609799056217215,0.02063112785100083,-0.0841745150132125, ,0.011906895698000845,0.02049523710813637,-0.08439797985853191, ,0.0003958146607302346, ,0.0033217545718816884,-0.0003637920769676301,-0.004478394820995863,0.0006682411619460147,-0.0018685721530264335,-0.0018555223328647807, ,0.005587702415465939, ,0.001984466260780868, ,3.980618290726637e-05, ,0.1407468066327417,-0.21200446286321123,0.09420787575,3.005485959963688,0.2567399830592626,-0.22176940954694133, ,0.031226371029440866,0.018106647883699825,0.0047140608227286196,0.014765338859650487,0.022175958456284676,0.026386049627383428, ,1.4137449264526367
0.011674020464524005,0.02061900600467986,-0.08424983300304706, ,0.011953110955561614,0.020486742298483157,-0.0844557859056141, ,0.00037121663249414317, ,0.0032278287756003507,-0.0006898918962438781,-0.003949013762075143,-0.00910829829760295,-0.008083427907462016,0.03535017593312182, ,0.005146798920314986, ,0.012177967960742556, ,4.002829622110957e-05, ,0.14136462526267965,-0.21162604895237425,0.09428694944,3.0059053398506568,0.2571498925585589,-0.2208784821559221, ,0.03193033026866446,0.020084008795443548,0.004112783764523626,-0.022972791715202407,0.020084568464903148,0.029449003503122278, ,1.4278349876403809
0.01170917219758851,0.02061589818723561,-0.08429269788171559, ,0.011999291792155562,0.020478241634097644,-0.08451351165224942, ,0.00038971454557270994, ,0.0031583575333661677,-0.0003610905557261241,-0.003928128032714737,0.03094193359370731,-0.043350715027250436,0.014778197241980142, ,0.005053295809608296, ,0.053260564651118926, ,4.02767094573987e-05, ,0.14171214824201975,-0.21140981243189597,0.09433361588000001,3.0059053398506568,0.2578330750573861,-0.22143557167440422, ,0.03138126374288055,0.019350926092673488,0.004225148944297083,-0.01689557716778328,0.05029953003441114,-0.01707006259652334, ,1.4417071342468262
0.011777036418037031,0.020603684143682383,-0.08438285724278875, ,0.01204543809212435,0.020469735352573168,-0.08457115750747074, ,0.00035417330076080217, ,0.0035174908390683364,-0.000710739511466591,-0.004997752314106643,-0.02662970672024105,-0.01694164193043583,-0.0016941328803463523, ,0.006152675893401809, ,0.03156201052194189, ,4.04617638061099e-05, ,0.1423531350705804,-0.21102367578818473,0.09442694876,3.0059053398506568,0.2579697115571516,-0.2209752383971167, ,0.032343879195116144,0.020558262902614987,0.005110302059672763,0.005439539663795665,-0.0038900902804000254,0.016729116503590144, ,1.4550509452819824
0.011802830058116713,0.020598637127461107,-0.08441683089576899, ,0.012091549740203015,0.02046122369096788,-0.08462872387932009, ,0.0003835885084710998, ,0.0034397506106752123,-0.0007366159877697791,-0.004705982170991547,-0.02875806867203784,0.010784377124425792,-0.007973508169763764, ,0.005875436628095725, ,0.03071366636205127, ,4.069110896186631e-05, ,0.14258481705680712,-0.21087694386357447,0.09446194859000001,3.0063247197376257,0.2579697115571516,-0.22064852343655444, ,0.03141242686477021,0.020182250437786212,0.004813784079782412,0.023468384809151626,-0.0038740367308848786,0.04278125796266428, ,1.4688429832458496
0.011827571904748169,0.02059214540179483,-0.08445024697754143, ,0.012137626621519806,0.020452706885805038,-0.08468621117484812, ,0.00041383103985124907, ,0.0032797438487760654,-0.0007879172715386329,-0.004041406224608102,-0.021965279267636924,0.012931355905780813,-0.02138745552114762, ,0.005264076140470845, ,0.02548908507163692, ,4.096479345554382e-05, ,0.14280877631015965,-0.21073021193896418,0.09449565213000001,3.00653440968111,0.2578330750573861,-0.22029206931243633, ,0.030328201201173147,0.019550255780484298,0.0041492085230528785,0.03694645115640888,0.0,0.04021151202316354, ,1.483109951019287
0.011884595978427722,0.020576431324164323,-0.08451577335849786, ,0.012183668621595803,0.02044418517307333,-0.08474361980011583, ,0.00039855676048449346, ,0.0031127630518636307,-0.001011405020661137,-0.0035028060243831186,-0.02932662936239721,-0.011400034902157742,0.03901082081510811, ,0.004793942425323922, ,0.03146445589872015, ,4.1208831793804566e-05, ,0.14335709034422958,-0.21036724349387564,0.09456305921000001,3.0067440996245947,0.2579697115571516,-0.2199134147752894, ,0.031062828660710567,0.02053601851514191,0.003559510954189944,-0.030283191012753844,0.0008969777393260619,0.029271958296557356, ,1.4965851306915283
0.011947266645975878,0.02056308805285542,-0.08458841913717392, ,0.012229675626344525,0.02043565878822777,-0.08480095016019532, ,0.0003757159637584254, ,0.003238225227059322,-0.0003799814443601966,-0.00402603931318382,0.013830632619339481,-0.004788327311751345,0.0018132522594079086, ,0.005180683455927712, ,0.014636067642568274, ,4.1412095991582415e-05, ,0.14397490897416754,-0.2099733841172902,0.09463954032,3.00653440968111,0.2585162575562133,-0.21978733520909113, ,0.03094129167214567,0.018319872887735674,0.004302758379254457,0.011179903464730816,0.035412490935903575,0.021682071987199358, ,1.5101571083068848
0.011990025282094141,0.020553858612361822,-0.08464653278127258, ,0.012275647522071621,0.020427127966189482,-0.08485820265917042, ,0.0003774186771455494, ,0.0033215086630705047,-0.0006544803162020119,-0.004778527359846114,-0.01090110759846425,0.03717047930323973,0.013794637408342445, ,0.005856200817248856, ,0.03873601264991421, ,4.167953429171999e-05, ,0.14436104561787877,-0.20971853393244078,0.09469916966000001,3.0069537895680796,0.2585162575562133,-0.21905222654782608, ,0.03026050432349196,0.021855583039721505,0.004948372637465052,0.016801577642460905,0.022212711256274015,0.06903842712225243, ,1.5263409614562988
0.012027260674252834,0.020547160473171306,-0.08469612563074122, ,0.012321584195474477,0.020418592941346507,-0.08491537770013759, ,0.0003888796926022455, ,0.0032201364925264937,-0.000535888661385452,-0.004047438575945287,-0.004048580636847314,0.0013991193828979554,-0.02111746195676564, ,0.005199828335046488, ,0.0042835194798759735, ,4.196065893524592e-05, ,0.14470084586434465,-0.20948685194621405,0.09475102126000001,3.007373169455048,0.2587895305557442,-0.21853995369395388, ,0.029738934991686238,0.0180515391969699,0.00424315703782632,0.0328366779592324,0.014411612351238714,0.025369808451963176, ,1.5372109413146973
0.012059554668683784,0.020543658365705163,-0.08473426731930803, ,0.012367485533641967,0.020410053947554095,-0.08497247568520747, ,0.0004116002717781675, ,0.003367612860734644,-0.00025555375322642866,-0.0038788053298124217,0.06022134612463333,-0.01707680627511403,-0.022256101303486202, ,0.005143078347366948, ,0.06259574938238756, ,4.227255534498616e-05, ,0.14501747791218783,-0.20929378362435844,0.09479250254,3.007373169455048,0.25933607655480595,-0.21841387412775562, ,0.03256586875719657,0.020842728214028283,0.004300435075593954,0.0328366779592324,0.07769434238781615,-0.0017013179824485539, ,1.5481741428375244
0.012092654567843229,0.020539893148505378,-0.08477772909557758, ,0.012413351424053929,0.020401511218135,-0.08502949701550423, ,0.0004305613983401786, ,0.003378383294348775,-0.0004594875715538873,-0.004606381562241971,0.005304699393325461,0.008242413251747453,-0.01501509490871664, ,0.005730912109682905, ,0.009801898274934988, ,4.2608749549917525e-05, ,0.14533410996003104,-0.20908526983675438,0.09483916898000001,3.007373169455048,0.2598826225538677,-0.21836947330169793, ,0.030760759014091015,0.01980320149383781,0.004850429817295981,0.031765506138390735,0.027343233753808344,0.03263077072777602, ,1.5598859786987305
0.01213096345266624,0.020532395797592883,-0.0848292622221022, ,0.012459181754581057,0.020392964985880464,-0.08508644209116843, ,0.00043966997852884455, ,0.003587297461973048,-0.0005821005904589728,-0.004571098826325434,-0.006430476104045002,0.002328243859693064,-0.01055823678776077, ,0.005839733611914564, ,0.00683898679624083, ,4.295369054044912e-05, ,0.14568935567224536,-0.2088690333162761,0.09489231687,3.007373169455048,0.2598826225538677,-0.21763436464043287, ,0.03322722043363823,0.020024676420863214,0.0047949462733293206,0.02489264540996735,0.016410958599056755,0.031965260878067774, ,1.5709309577941895
0.012203032084000724,0.020526103606839714,-0.08492903665830785, ,0.01250497641348428,0.020384415483049617,-0.08514331131135588, ,0.0003964335120411587, ,0.003642124171330697,-0.0003768770218969186,-0.0046012456211393825,0.04424150736178174,-0.03933785755373885,-0.012731224627246445, ,0.005880354244012817, ,0.05920116560084284, ,4.322810905908796e-05, ,0.14634578796655445,-0.2084597284739422,0.09499861265000001,3.008002239285502,0.26070244155246036,-0.21732272718092469, ,0.0346718821916225,0.022307696652202814,0.004979309634260707,0.013137748414676138,0.06251445407547726,-0.017578640785355922, ,1.5823659896850586
0.012240558348220366,0.02051912829431498,-0.08497452835431886, ,0.012550735289414689,0.02037586294137102,-0.08520010507424014, ,0.00040941366949977037, ,0.003669604848444543,-0.000518219295688876,-0.004285120060617118,0.01726901963183193,0.0026061629561258664,-0.03747249326687652, ,0.005665404214710123, ,0.017464567642906458, ,4.35178738629925e-05, ,0.14669331094589455,-0.20823576922058967,0.09504657538000001,3.008421619172471,0.26097571455199126,-0.21705549054747414, ,0.03404985344760344,0.020611846559181315,0.004590435596541787,0.05250104375716076,0.035607802594851974,0.023967125720772812, ,1.593616008758545
0.01227394503681157,0.020512818816358226,-0.0850167033238512, ,0.012596458271412947,0.020367307592042177,-0.08525682377701224, ,0.00042760511563972735, ,0.003976923512122208,-0.0008314599487316528,-0.0051905408410163455,-0.022410880086001526,0.04055892223552102,-0.02204797336988338, ,0.0065915825482105546, ,0.04633868486878535, ,4.38303972950234e-05, ,0.14700222026086354,-0.20804270089873406,0.09509064924,3.0086313091159558,0.2611123510517567,-0.21643179978990545, ,0.03562197505948603,0.023489341969918507,0.005374092955465587,0.05265860852995525,0.007481710900572246,0.07280820345690436, ,1.6065030097961426
0.012318453854282534,0.02050602487350517,-0.08507591785899248, ,0.012642145248909152,0.020358749665730643,-0.08531346781588238, ,0.0004276635217069027, ,0.0038815162800241616,-0.0004978837827291456,-0.005263749015573443,-0.012978361818737603,-0.011800850019524765,0.030815507288719513, ,0.006559047994347021, ,0.01754132072110035, ,4.413839070009251e-05, ,0.14741152510319744,-0.20778785071388467,0.09515287116000001,3.00884099905944,0.2613856240512876,-0.21608288441631437, ,0.03640082146469918,0.02050495712153647,0.005528917570288095,-0.018893730496783973,0.01615675421916393,0.029882795577481046, ,1.6177549362182617
0.012358298831204659,0.020503455345293766,-0.08513147711170495, ,0.012687796111722235,0.02035018939257358,-0.0853700375860802, ,0.00043470680931617265, ,0.003909162502199994,-0.00016353002561004084,-0.005587826953936286,0.04335402729969315,-0.04227260103331097,0.016361249055365363, ,0.006821444392870135, ,0.060551998115473474, ,4.445219547401584e-05, ,0.14778221628116023,-0.20756389146053214,0.0952125005,3.00884099905944,0.26193217005034936,-0.21603848359025668, ,0.03666806088039829,0.022540841225289973,0.006031356122680804,-0.014071418134150485,0.06677602559617046,-0.012850984257075489, ,1.629215955734253
0.01239736214747971,0.020497665841142876,-0.08518716457491185, ,0.012733410750059966,0.020341627002179345,-0.08542653348185583, ,0.000441105719950203, ,0.003953864903405635,-0.0007409364324168287,-0.005608457030460461,-0.011863856175052248,0.01688221873749227,0.024628856853145885, ,0.006901943547565918, ,0.020633961987311877, ,4.47707467732591e-05, ,0.14814518472624877,-0.20733220947430542,0.09527083355,3.0086313091159558,0.26220544304988025,-0.2156895682166656, ,0.03613744918449001,0.024816145805039432,0.005834729494505496,0.0,0.024160919914881326,0.056467344797765516, ,1.640247106552124
0.012477805685184836,0.020479868077986192,-0.08528544221648068, ,0.012778989054518155,0.02033306272362676,-0.08548295589648092, ,0.00038894072532817, ,0.004003516902321266,-0.0009618622940158286,-0.0044381324145672234,-0.015490160250826618,0.002437210065444283,-0.007082273323339383, ,0.0060539529225997245, ,0.015680722425242984, ,4.5009311789822505e-05, ,0.14888656708217432,-0.2068534000361035,0.09537324046000001,3.009260378946409,0.2624787160494111,-0.21476890166209056, ,0.03783769599620047,0.023425559505917248,0.004641262097902099,0.02286758725022308,0.012067797993215492,0.03850116076281483, ,1.6549129486083984
0.012516827881234323,0.020473466710468558,-0.08532985906376393, ,0.01282453091608081,0.02032449678546649,-0.0855393052222496, ,0.0004009250422625971, ,0.004037631201612801,-0.0007086774449891575,-0.004293862754175482,0.03884245158800674,-0.046847990576956704,-0.025480035200564945, ,0.005936492802401857, ,0.06085614402018623, ,4.526164820777585e-05, ,0.14926498099301133,-0.20661399531700253,0.09542120319000001,3.009260378946409,0.2630252620484728,-0.214887858316314, ,0.03903617505490365,0.02469988067633284,0.004663001030444965,0.02286758725022308,0.05695526619644896,-0.022477667710734124, ,1.6659331321716309
0.012558796920345543,0.020463345416754066,-0.08537697033746106, ,0.012870036226119267,0.02031592941572042,-0.08559558185047833, ,0.0004079122165895055, ,0.004053625915027267,-0.0008035551020023585,-0.004705453421470042,0.0031592754364493684,-0.005024491257420067,-0.006929993561956816, ,0.006262497565872484, ,0.005935194299469611, ,4.5520343329642844e-05, ,0.149666563102471,-0.20636686786502734,0.09547046221000001,3.009260378946409,0.2631618985482383,-0.21459088251930764, ,0.03814185753957829,0.02401238399758876,0.004983983579474344,0.021281957051741254,0.029953759625735512,0.028169275855150527, ,1.6773459911346436
0.01258685053927424,0.020455849518054202,-0.08541098033090666, ,0.012915504876392304,0.020307360841883178,-0.08565178617150855, ,0.00043364733727479544, ,0.003892908193077688,-0.000877899916248542,-0.004791761129784982,-0.0035756662656276387,-0.016204886977722145,-0.011564085066878118, ,0.006235897464487276, ,0.016594690376070573, ,4.581177985103829e-05, ,0.14992913602019464,-0.2061969677417944,0.09550546204,3.009260378946409,0.2631618985482383,-0.21410081007846427, ,0.036068772922261794,0.024061090658841475,0.005009060226415094,0.018664393500429578,0.020904811511322636,0.01510036493314858, ,1.6895301342010498
0.012609061377778962,0.020450414322163026,-0.08543862007378326, ,0.012960936759045496,0.02029879129092177,-0.08570791857470589, ,0.0004683241507155358, ,0.004038722938728197,-0.0009157077254020531,-0.004931743161748833,-0.01742273949801944,0.01889508429084189,0.013902854797709275, ,0.006439867562894963, ,0.025701674246173627, ,4.6212732075104934e-05, ,0.15012992707492448,-0.2060656812829326,0.09553398042000001,3.0094700688898937,0.2631618985482383,-0.21377409511790202, ,0.03762765327457208,0.024413928880491584,0.0051482907304460255,0.010899092664800816,0.01691533369828718,0.05897083857331586, ,1.6983821392059326
0.012680863006923063,0.020438167878988334,-0.08553471113478531, ,0.013006331766610962,0.020290220989276353,-0.08576397944846201, ,0.00042471420433555756, ,0.004086570581430064,-0.0007467722276708623,-0.005866188592741072,-0.01299985249654691,0.002418337496298368,0.004281758529981481, ,0.007188177549465207, ,0.013222878439706485, ,4.6548205188440785e-05, ,0.15078635936923354,-0.205633208241976,0.09563509104000001,3.009679758833378,0.2637084445473001,-0.21323962185100095, ,0.03644275789495806,0.02471274519751843,0.006098319877488516,0.01195535180084281,0.01756485128948476,0.038655660699736694, ,1.7074871063232422
0.012723851715522877,0.02043433977577598,-0.08559398776161506, ,0.013051689792007059,0.020281650162860574,-0.08581996918019505, ,0.0004264499077600206, ,0.0043324504619079674,-0.00017512316300718903,-0.006057042299405716,0.043013456414186815,-0.04068758889843453,-0.0389722885476548, ,0.0074490641387961135, ,0.05920842266865781, ,4.688235969053572e-05, ,0.15116477328007055,-0.20538608079000084,0.09569860925000001,3.0103088286638315,0.2642549905463618,-0.21327689976508382, ,0.03867031033352518,0.022916431190164403,0.006536237800574478,0.03854601684138967,0.057597667736508526,-0.019533925480909233, ,1.7162251472473145
0.012764749445310804,0.02042999520370714,-0.08565593822548292, ,0.013097010728537889,0.020273079037061742,-0.08587588815635047, ,0.000428250178955052, ,0.004494154411453446,-0.0004709469160169657,-0.006882543647228994,0.006345800469380956,0.007907893315189781,-0.04559338387374853, ,0.00823338459733933, ,0.010139228019832152, ,4.7215306772406964e-05, ,0.15152001899228487,-0.20516984426952256,0.09576342375,3.010518518607316,0.2643916270461273,-0.21281656648779632, ,0.03797396620987226,0.025373513785687377,0.007227228457350273,0.06307451854467916,0.02919737912863305,0.03315210705414349, ,1.7269740104675293
0.012812123870388168,0.020421258990393574,-0.08572333548835584, ,0.013142294469893224,0.02026450783674166,-0.08593173676240214, ,0.0004207310779736312, ,0.0042779880164260965,-0.000944821736122192,-0.005232949271552956,-0.031547867485892216,0.035007867000314594,-0.012631164934991777, ,0.0068247804111473695, ,0.04712556303000632, ,4.753424742011536e-05, ,0.15194476930036724,-0.20489182588605045,0.09583342341000001,3.010518518607316,0.2645282635458927,-0.21219287573022763, ,0.03851336913898976,0.02381353615018087,0.005438310522362582,0.04174647404904702,0.0,0.07358323005711861, ,1.7362871170043945
0.01285014391240208,0.020414628052365026,-0.08576677108497434, ,0.013187540910147755,0.02025593678623678,-0.08598751538285329, ,0.00043329862344490837, ,0.004248327878734505,-0.0009935174832013515,-0.0045769232701035716,0.0014436667844672305,-0.018042076108884947,-0.025066467443232477, ,0.0063232581297204, ,0.01809974259747602, ,4.786688987396548e-05, ,0.15230773774545578,-0.20466786663269795,0.09588008985,3.010518518607316,0.264938173045189,-0.2121187357406141, ,0.039855918336191,0.025225130664133646,0.0048460028962579865,0.032475573520386096,0.02478049026819392,0.01362786538959231, ,1.7456459999084473
0.012896315616881239,0.02040681546773467,-0.08582105633937775, ,0.013232749943761134,0.020247366109358764,-0.08604322440123713, ,0.00043355599626803207, ,0.00430669525635776,-0.0005740006563274311,-0.005583993745731064,0.02215059560896121,-0.029369774486855883,0.006927215957525131, ,0.007075173986338597, ,0.036786309053932584, ,4.819626189678477e-05, ,0.15274021078641234,-0.20438984824922588,0.09593842290000001,3.010728208550801,0.26548471904425075,-0.21199265617441582, ,0.03990619914149318,0.02513826266449557,0.005974798019504878,0.0,0.049112160535965094,0.00482274871835895, ,1.754328966140747
0.012940962637538266,0.020397847403894727,-0.0858797365046182, ,0.013277921465577392,0.02023879602939479,-0.08609886420011718, ,0.0004322679012585992, ,0.004492998308183145,-0.0007924978714020196,-0.005792460683545521,-0.011736589341153264,0.026261975128333233,0.01438590860542935, ,0.007373444747466002, ,0.028765237014199044, ,4.852032529823465e-05, ,0.15274021078641234,-0.20438984824922588,0.09593842290000001,3.010728208550801,0.26548471904425075,-0.21199265617441582, ,0.03990619914149318,0.02513826266449557,0.005974798019504878,0.0,0.049112160535965094,0.00482274871835895, ,1.7633590698242188
0.012985713332595659,0.02038974823926501,-0.08593652221432746, ,0.013323055370824712,0.02023022676910789,-0.08615443516108981, ,0.0004321259105449146, ,0.00501058369112286,-0.0008589469412966229,-0.006588756775163794,-0.021585059330157627,0.023316311181186225,-0.07509254187004355, ,0.00832198621820392, ,0.031773654825457444, ,4.8840708352544176e-05, ,0.15352792953958325,-0.20389559334527552,0.09605897787,3.0117766582682233,0.2656213555440162,-0.21079721423586328, ,0.04274637007138323,0.026243623218603643,0.00687772518134715,0.09662623958546683,0.0,0.052608061695792074, ,1.7777559757232666
0.013034726524939134,0.020384672063877278,-0.08600042951527039, ,0.01336815155511495,0.020221658550737556,-0.08620993766478305, ,0.0004261916481186826, ,0.004282808511832094,-0.0005986801456752569,-0.005302874313429937,0.02649072171181314,-0.012601541817090185,-0.04033110484464718, ,0.006842612267977941, ,0.029335255048955917, ,4.914971613662517e-05, ,0.15396812531341406,-0.20362529769467766,0.09612768124000001,3.012196038155192,0.266167901543078,-0.21067113466966503, ,0.03851336913898976,0.02458469988561419,0.005694963003217733,0.05114077650116332,0.046332521181046686,0.010992618925908651, ,1.7865121364593506
0.013077860924692495,0.0203759265316275,-0.08605022697739724, ,0.013413209914443386,0.020213091596000113,-0.08626537209085886, ,0.00043042023771441157, ,0.004393002118827448,-0.0010067346272720533,-0.004776181834981642,0.017134560275646207,-0.03780522576338034,0.018416657620674334, ,0.006566878645641295, ,0.041506966263200495, ,4.9461062838579785e-05, ,0.15436970742287373,-0.20336272477695402,0.09618082913,3.012405728098677,0.2665778110423743,-0.21051531593991094, ,0.042440492646901064,0.02784534670142922,0.0051168684612913585,-0.0139004185261924,0.048200969476626256,0.0015401188592378268, ,1.7959821224212646
0.013122653571871205,0.020363695924020056,-0.08609849679212477, ,0.013458230345188404,0.02020452612608905,-0.08632073881801353, ,0.00043282596206156693, ,0.004481499265111922,-0.0011887302102156073,-0.004943598447257523,-0.020575246231146295,-0.007703323926466611,0.026123122568951607, ,0.006777616157883606, ,0.02197002398805463, ,4.977229689249667e-05, ,0.15479445773095607,-0.20309242912635617,0.09623138444000001,3.012405728098677,0.26671444754213974,-0.20997330392248284, ,0.04259288220757216,0.02707473368287326,0.005181786441119064,-0.010886517607143448,0.015838908647626743,0.03970076640807061, ,1.804858922958374
0.013152247375256543,0.020355018262434566,-0.08613103329952282, ,0.013503212744111006,0.020195962361675403,-0.08637603822397853, ,0.0004566211588494423, ,0.0047782795624826116,-0.0012197608019107672,-0.005002756072320522,-0.028692804294573146,0.010543250382691749,0.03446825427505029, ,0.007024766210362938, ,0.03056856463403512, ,5.011160120248278e-05, ,0.15507247611442815,-0.202914806270249,0.09626508798000001,3.012405728098677,0.26671444754213974,-0.2096465889619206, ,0.045733465811311214,0.027292764325128206,0.0052692065894806486,-0.00946916565075581,0.012332982666287486,0.06406967383200562, ,1.8161559104919434
0.013215906059756616,0.02034384748718062,-0.08620212517734506, ,0.013548157008354605,0.020187400522908377,-0.08643127068552138, ,0.00043286719602165326, ,0.004773926142126031,-0.0009444324580473117,-0.005744488098959306,-0.003852696844171842,-0.029739710742857983,0.01397193530008391, ,0.007528709517398896, ,0.029988225385749842, ,5.0416215607740605e-05, ,0.15567484927861766,-0.20255956055803467,0.09634156909000001,3.012405728098677,0.26726099354120153,-0.20943883065558183, ,0.044427407096662354,0.027395190981082788,0.006082020435280642,-0.007366337019532288,0.027767541373452678,0.014331186240480243, ,1.82486891746521
0.013215906059756616,0.02034384748718062,-0.08620212517734506, ,0.013593063035444584,0.02017884082941564,-0.08648643657844671, ,0.0005003074596817896, ,0.0048151871597600735,-0.0005490190778557266,-0.0061161914166670975,0.022602507296448898,-0.0390900641003567,0.00429556098518356, ,0.007803540656437955, ,0.04515425161485206, ,5.080558014131405e-05, ,0.15613821325107113,-0.20227381944168835,0.09640767988000001,3.012196038155192,0.26767090304049784,-0.20936469066596824, ,0.04424099839555748,0.025984923756426824,0.006584874543199669,0.0,0.04924096470737346,-0.0012146372302574773, ,1.833583116531372
0.013265610378091432,0.02033544227818335,-0.0862642068384538, ,0.013637930723287965,0.02017028350030364,-0.08654153627759673, ,0.0004927590477843241, ,0.0048151871597600735,-0.0005490190778557266,-0.0061161914166670975,0.022602507296448898,-0.0390900641003567,0.00429556098518356, ,0.007803540656437955, ,0.04515425161485206, ,5.11811141584594e-05, ,0.15613821325107113,-0.20227381944168835,0.09640767988000001,3.012196038155192,0.26767090304049784,-0.20936469066596824, ,0.04424099839555748,0.025984923756426824,0.006584874543199669,0.0,0.04924096470737346,-0.0012146372302574773, ,1.842905044555664
0.013308837986020484,0.02032841344479275,-0.08632082270271127, ,0.013682759970173111,0.020161728754158063,-0.08659657015685236, ,0.0004935970976311683, ,0.004700628867049176,-0.0009465770128498181,-0.006478143419177358,-0.020011556463206383,0.02184374344756945,0.01738291683903396, ,0.00805966884843432, ,0.029624508577767047, ,5.1620460095353184e-05, ,0.15651662716190815,-0.20204213745546162,0.09646730922,3.0126154180421616,0.26780753954026326,-0.2088226786485402, ,0.04156677247414401,0.02821794277682747,0.006763826547770702,0.010465799717835818,0.019581642507511494,0.06658028543545544, ,1.8511619567871094
0.013365058543981855,0.020315597040637626,-0.08639458057258967, ,0.013727550674769363,0.02015317680904452,-0.08665153858913424, ,0.000473083817922519, ,0.004938313343086174,-0.0008279598444178391,-0.00610812236362586,-0.013263719131358506,0.02555307436190833,-0.048542841238002885, ,0.007898203275903813, ,0.0287903776640467, ,5.2030012782144e-05, ,0.15700315933298428,-0.2017177826747442,0.09654379033,3.013244487872615,0.26780753954026326,-0.2080058912471346, ,0.04299816110488028,0.025661693228358783,0.006456753757600325,0.07427774326728452,0.012349952024274781,0.05895909273696605, ,1.8586621284484863
0.013412454501357928,0.020310267138308122,-0.08645591193715171, ,0.01377230273612653,0.02014462788250868,-0.0867064419464033, ,0.00046871355929124856, ,0.005168134819079713,-0.0009957505736985298,-0.006643289818081614,-0.0006096866881762798,-0.02242638426883653,-0.044378910892094565, ,0.008475519825959461, ,0.022434669961731164, ,5.2430812167970685e-05, ,0.15743563237394084,-0.20145520975702055,0.09660990112000001,3.013244487872615,0.26835408553932505,-0.20796149042107687, ,0.045361826748791,0.029738934991686238,0.006995525480895917,0.0504005204605089,0.023752360396203983,0.01116846654562435, ,1.8662440776824951
0.013412454501357928,0.020310267138308122,-0.08645591193715171, ,0.013817016053674785,0.020136082191576418,-0.08676128059966147, ,0.0005359668509562401, ,0.005168134819079713,-0.0009957505736985298,-0.006643289818081614,-0.0006096866881762798,-0.02242638426883653,-0.044378910892094565, ,0.008475519825959461, ,0.022434669961731164, ,5.291443210979997e-05, ,0.15743563237394084,-0.20145520975702055,0.09660990112000001,3.013244487872615,0.26835408553932505,-0.20796149042107687, ,0.045361826748791,0.029738934991686238,0.006995525480895917,0.0504005204605089,0.023752360396203983,0.01116846654562435, ,1.8728110790252686
0.013465192539111394,0.02030317560105087,-0.08652891763615143, ,0.013861690527224206,0.02012753995275513,-0.08681605491895354, ,0.0005201022540854345, ,0.005389971698544111,-0.0005146128803090789,-0.007503341727649099,0.013366295667336697,-0.002261675053031512,-0.015126026578957456, ,0.009252932422187393, ,0.013556290426543162, ,5.337417633086363e-05, ,0.15790671907926854,-0.2011463004420516,0.09668767852000001,3.013244487872615,0.2689006315383868,-0.20791708959501914, ,0.04690901708278338,0.028318991810943234,0.00801248064386318,0.03526181719349896,0.04398210220781796,0.03630568164249067, ,1.8794910907745361
0.013506274949608883,0.020296558456262447,-0.08658464808994386, ,0.01390632605696439,0.020119001382033062,-0.0868707652733665, ,0.0005229057713919129, ,0.005309460278382095,-0.0007579233188379094,-0.0070601797982362425,-0.004657934911436295,-2.580094242792116e-05,-0.00921849176478763, ,0.008866281914555768, ,0.004658004485379911, ,5.38339776520288e-05, ,0.1582696875243571,-0.20093778665444753,0.09674601157000001,3.013244487872615,0.2689006315383868,-0.20734533841403519, ,0.046701250766963964,0.028344367251634046,0.007485343759398498,0.028773890138230843,0.02774859898224769,0.04237287361675507, ,1.887434959411621
0.01357499949104481,0.020285509409018805,-0.08667549465950021, ,0.013950922543464132,0.02011046669488077,-0.08692541203103157, ,0.00048416607244437907, ,0.005507478150085104,-0.0008968816800228145,-0.007784186042109755,-0.03071191352484432,0.005931737100294876,0.006478334433010057, ,0.009577591798557805, ,0.03127949981704119, ,5.424138186855442e-05, ,0.15883344702417548,-0.20058254094223318,0.09683675187000002,3.013663867759584,0.2691739045379177,-0.20650635059960074, ,0.04766295407256192,0.029416286905911585,0.008069306747720365,0.014616340326262913,0.007178234035586406,0.061174401992825776, ,1.894423007965088
0.01357499949104481,0.020285509409018805,-0.08667549465950021, ,0.013995479887671131,0.020101936106250443,-0.08697999555912442, ,0.0005506575335980293, ,0.005507478150085104,-0.0008968816800228145,-0.007784186042109755,-0.03071191352484432,0.005931737100294876,0.006478334433010057, ,0.009577591798557805, ,0.03127949981704119, ,5.472934839433099e-05, ,0.15883344702417548,-0.20058254094223318,0.09683675187000002,3.013663867759584,0.2691739045379177,-0.20650635059960074, ,0.04766295407256192,0.029416286905911585,0.008069306747720365,0.014616340326262913,0.007178234035586406,0.061174401992825776, ,1.9010570049285889
0.013629119218892646,0.020282016187787195,-0.08675242980368947, ,0.014039997990911473,0.02009340983057729,-0.08703451622386679, ,0.0005328850455062026, ,0.0057656304401551405,-0.0003036187004560836,-0.008124346927357917,0.06745322479385295,-0.023790451140685467,-0.08918545497200918, ,0.009966929902621982, ,0.07152568115839492, ,5.519137471052548e-05, ,0.15932770192812587,-0.20027363162726422,0.09692489959000002,3.0145026275335223,0.2698570870367449,-0.2063283314568178, ,0.04846626228726802,0.031433236687138384,0.00881018336283186,0.0999964437828395,0.08378044052435364,-0.006363170588503346, ,1.907608985900879
0.013685837125107597,0.020276435616196603,-0.08683645593257283, ,0.014084476754889549,0.02008488808177931,-0.08708897439052618, ,0.0005092834024206682, ,0.006017767449313597,-0.0004570025230204826,-0.008799999786408313,0.008631574906573916,0.022340626998038782,-0.019859727937037348, ,0.010670631313134744, ,0.023950107458216352, ,5.5620474933108614e-05, ,0.159814234099202,-0.199956999579421,0.09701434360000001,3.0147123174770067,0.2704036330358066,-0.20595721567019784, ,0.05077417953904269,0.030621794630032523,0.009380925512367492,0.05238020596625033,0.044233951299458715,0.0647474694872854, ,1.9142749309539795
0.013685837125107597,0.020276435616196603,-0.08683645593257283, ,0.01412891608168742,0.02007637107325825,-0.0871433704234183, ,0.0005749272021707876, ,0.006017767449313597,-0.0004570025230204826,-0.008799999786408313,0.008631574906573916,0.022340626998038782,-0.019859727937037348, ,0.010670631313134744, ,0.023950107458216352, ,5.612801943232685e-05, ,0.159814234099202,-0.199956999579421,0.09701434360000001,3.0147123174770067,0.2704036330358066,-0.20595721567019784, ,0.05077417953904269,0.030621794630032523,0.009380925512367492,0.05238020596625033,0.044233951299458715,0.0647474694872854, ,1.9210290908813477
0.01373778738188901,0.020273202144036592,-0.08691724154863342, ,0.014173315873764707,0.020067859017899505,-0.08719770468590586, ,0.0005572346346521988, ,0.00623977391884068,-0.0007294351046050517,-0.009886178781853303,-0.035000649491435505,0.04428305668032927,0.0065707414157126064, ,0.01171338486675995, ,0.056444968591882076, ,5.660986649100742e-05, ,0.1602544298730328,-0.1997021493945716,0.09709989874000001,3.0147123174770067,0.27067690603533756,-0.205199906595904, ,0.051295644085659876,0.032734371010165846,0.010329968560311285,0.033600806289489894,0.011394116438914964,0.09900353030840514, ,1.92901611328125
0.013811276080294338,0.02026577569468451,-0.08702693776017874, ,0.014217676033958036,0.020059352128072784,-0.08725197754040158, ,0.0005083448769027842, ,0.006007562957504233,-0.0005831322235045695,-0.007762399909957907,0.04245261441141309,-0.027369905340056976,-0.007002647152360858, ,0.00983288910954359, ,0.05051075291960378, ,5.7027786586599716e-05, ,0.1602544298730328,-0.1997021493945716,0.09709989874000001,3.0147123174770067,0.27067690603533756,-0.205199906595904, ,0.051295644085659876,0.032734371010165846,0.010329968560311285,0.033600806289489894,0.011394116438914964,0.09900353030840514, ,1.9359779357910156
0.013811276080294338,0.02026577569468451,-0.08702693776017874, ,0.014261996465480847,0.020050850615632467,-0.08730618934836762, ,0.0005721215821258755, ,0.006007562957504233,-0.0005831322235045695,-0.007762399909957907,0.04245261441141309,-0.027369905340056976,-0.007002647152360858, ,0.00983288910954359, ,0.05051075291960378, ,5.7521068532929454e-05, ,0.16088769396871921,-0.1992928445522377,0.09721656484,3.0147123174770067,0.2713600885341647,-0.20461349375241822, ,0.053523373693440936,0.032532376262759954,0.008427942603174603,0.02236410889843203,0.07562596885284079,0.0139705622288884, ,1.9426319599151611
0.013872795534297341,0.02025523909728115,-0.08710048155671395, ,0.014306277071922998,0.020042354691918236,-0.08736034047031695, ,0.0005484092162682505, ,0.006075413516216124,-0.001381131064052423,-0.007008330839773535,-0.0027009129382447213,0.0011143375397943186,0.02728109837491162, ,0.009377359626719718, ,0.002921756654022118, ,5.7981664134240074e-05, ,0.16144373073566337,-0.1989453215728976,0.09729563853,3.014922007420491,0.2719066345332265,-0.2042423779657983, ,0.05578891332067653,0.03656914896280184,0.007471299962476548,0.0,0.04571199821722313,0.05799150878147978, ,1.9492080211639404
0.013934474686086265,0.02023883486064452,-0.08716953171114954, ,0.014350517757250318,0.020033864567755154,-0.08741443126581418, ,0.0005244811244513095, ,0.00637276505583045,-0.0016866868530023187,-0.007222403013246068,-0.04292561484075347,0.047295578471929084,0.023474453368910665, ,0.009778555736030266, ,0.06387080814267997, ,5.840966917947645e-05, ,0.1619920447697333,-0.19858235312780903,0.09736823077000001,3.015551077250945,0.2720432710329919,-0.2032919722476674, ,0.05761805801971511,0.03725832020356135,0.007585148342857144,0.021351116035808068,0.012366873063348457,0.11221773415973758, ,1.9558420181274414
0.013934474686086265,0.02023883486064452,-0.08716953171114954, ,0.014394718425804445,0.0200253804534541,-0.08746846209347629, ,0.0005888518127481744, ,0.00637276505583045,-0.0016866868530023187,-0.007222403013246068,-0.04292561484075347,0.047295578471929084,0.023474453368910665, ,0.009778555736030266, ,0.06387080814267997, ,5.898461738214298e-05, ,0.1619920447697333,-0.19858235312780903,0.09736823077000001,3.015551077250945,0.2720432710329919,-0.2032919722476674, ,0.05761805801971511,0.03725832020356135,0.007585148342857144,0.021351116035808068,0.012366873063348457,0.11221773415973758, ,1.9603490829467773
0.014001723839941492,0.020227365787319075,-0.08724197843212733, ,0.014438878982302289,0.020016902558812732,-0.08752243331097381, ,0.0005604055032872144, ,0.006749785611894199,-0.0010914405364174803,-0.007053313138411752,0.050254417715407174,-0.04252519797961542,-0.06379503367393877, ,0.009823445143103363, ,0.06583235485430602, ,5.9522207015828196e-05, ,0.16260214066679704,-0.19821166194984627,0.09744730446000001,3.0161801470813985,0.2727264535318191,-0.2029505956246033, ,0.0614219686462594,0.0368102954066993,0.007758797622990745,0.0720134102307531,0.07604289804588996,-0.005216099905280602, ,1.9649450778961182
0.014001723839941492,0.020227365787319075,-0.08724197843212733, ,0.014482999331835757,0.020008431093115016,-0.08757634527503119, ,0.0006255874719475976, ,0.006749785611894199,-0.0010914405364174803,-0.007053313138411752,0.050254417715407174,-0.04252519797961542,-0.06379503367393877, ,0.009823445143103363, ,0.06583235485430602, ,6.013619860118085e-05, ,0.16260214066679704,-0.19821166194984627,0.09744730446000001,3.0161801470813985,0.2727264535318191,-0.2029505956246033, ,0.0614219686462594,0.0368102954066993,0.007758797622990745,0.0720134102307531,0.07604289804588996,-0.005216099905280602, ,1.9698970317840576
0.01402825728627577,0.020222037574896275,-0.08727063541883259, ,0.014527079379871464,0.019999966265132525,-0.0876301983414283, ,0.0006537772120416423, ,0.006749785611894199,-0.0010914405364174803,-0.007053313138411752,0.050254417715407174,-0.04252519797961542,-0.06379503367393877, ,0.009823445143103363, ,0.06583235485430602, ,6.078130720437224e-05, ,0.16284926811877223,-0.1980572072923618,0.09747841542,3.0161801470813985,0.27299972653135,-0.2030917526918556, ,0.06272104531293508,0.03805009685584233,0.00755636220113852,0.054286015979168024,0.07784251487263964,-0.03089232311241251, ,1.9763660430908203
0.01402825728627577,0.020222037574896275,-0.08727063541883259, ,0.014571119032250276,0.019991508283124116,-0.08768399286500035, ,0.0007202131683812746, ,0.0067933709552457835,-0.0012341091736208132,-0.006863002869172009,0.052918984903512906,-0.0697915115891766,-0.057462994898220515, ,0.009735179647559426, ,0.08758580956921572, ,6.15034429751473e-05, ,0.16284926811877223,-0.1980572072923618,0.09747841542,3.0161801470813985,0.27299972653135,-0.2030917526918556, ,0.06272104531293508,0.03805009685584233,0.00755636220113852,0.054286015979168024,0.07784251487263964,-0.03089232311241251, ,1.9812469482421875
0.014114132333402332,0.02020395545305212,-0.08737448000228916, ,0.014615118195187066,0.019983057354836985,-0.08773772919963999, ,0.000657063758610438, ,0.007708685117970812,-0.001771162332805636,-0.010312761677913672,-0.06629526622446197,-0.025808298604784802,-0.023647362123969354, ,0.012996687873555283, ,0.07114162272536849, ,6.214611069194652e-05, ,0.1636215414061947,-0.19757067512128562,0.09758860007,3.0161801470813985,0.27340963603064633,-0.20293593396210147, ,0.06580925212099221,0.041749644328407734,0.010683307525150905,0.031333719553348204,-0.02269768113620359,0.041455163474744476, ,1.9860570430755615
0.014114132333402332,0.02020395545305212,-0.08737448000228916, ,0.014659076775270246,0.019974613687506602,-0.08779140769829721, ,0.0007234575273261394, ,0.007708685117970812,-0.001771162332805636,-0.010312761677913672,-0.06629526622446197,-0.025808298604784802,-0.023647362123969354, ,0.012996687873555283, ,0.07114162272536849, ,6.286539677350983e-05, ,0.1636215414061947,-0.19757067512128562,0.09758860007,3.0161801470813985,0.27340963603064633,-0.20293593396210147, ,0.06580925212099221,0.041749644328407734,0.010683307525150905,0.031333719553348204,-0.02269768113620359,0.041455163474744476, ,1.9905929565429688
0.014217311249949323,0.02018399963225549,-0.08751617685807217, ,0.01470299467946149,0.019966177487857176,-0.08784502871298018, ,0.0006256823657171564, ,0.0074891850462443805,-0.0016911009409612283,-0.010678568870096418,-0.058948121394997395,0.009864500581686232,0.028265045734429797, ,0.01315216895279264, ,0.059767794411951, ,6.346414117131837e-05, ,0.1645019329538563,-0.1970300838200899,0.09773637713000001,3.016389837024883,0.2732729995308809,-0.20176269243657774, ,0.06360384822953806,0.0435307071369132,0.011077059471488179,0.0,0.0,0.08310526595025086, ,1.9950909614562988
0.014217311249949323,0.02018399963225549,-0.08751617685807217, ,0.014746871815095383,0.01995774896210252,-0.08789859259475716, ,0.000691278202727964, ,0.0074891850462443805,-0.0016911009409612283,-0.010678568870096418,-0.058948121394997395,0.009864500581686232,0.028265045734429797, ,0.01315216895279264, ,0.059767794411951, ,6.41383943617429e-05, ,0.1645019329538563,-0.1970300838200899,0.09773637713000001,3.016389837024883,0.2732729995308809,-0.20176269243657774, ,0.06360384822953806,0.0435307071369132,0.011077059471488179,0.0,0.0,0.08310526595025086, ,1.999495029449463
0.014217311249949323,0.02018399963225549,-0.08751617685807217, ,0.014790708089879041,0.019949328315945883,-0.0879520996937558, ,0.0007575508441090422, ,0.0074891850462443805,-0.0016911009409612283,-0.010678568870096418,-0.058948121394997395,0.009864500581686232,0.028265045734429797, ,0.01315216895279264, ,0.059767794411951, ,6.488842303323939e-05, ,0.1645019329538563,-0.1970300838200899,0.09773637713000001,3.016389837024883,0.2732729995308809,-0.20176269243657774, ,0.06360384822953806,0.0435307071369132,0.011077059471488179,0.0,0.0,0.08310526595025086, ,2.0039069652557373
0.014299501364079259,0.02016916311276595,-0.08763214443338745, ,0.014834503411891846,0.01994091575458082,-0.08800555035916552, ,0.0006911989822680089, ,0.008590530767938361,-0.0012771397797795986,-0.012517743257136008,-0.021481817346453193,0.02055176643821311,-0.05433723446589479, ,0.015235557132693412, ,0.02972950172622098, ,6.555598799899626e-05, ,0.16518153344678804,-0.19656671984763643,0.09785822839000001,3.0172285967988213,0.27354627253041175,-0.20100538336228382, ,0.07013816818807891,0.045977200367476156,0.013175195632754346,0.08830205452032965,0.02555038156439482,0.07954498535219974, ,2.008402109146118
0.014299501364079259,0.02016916311276595,-0.08763214443338745, ,0.01487825768958494,0.01993251148269134,-0.08805894493923744, ,0.0007570479179838074, ,0.008590530767938361,-0.0012771397797795986,-0.012517743257136008,-0.021481817346453193,0.02055176643821311,-0.05433723446589479, ,0.015235557132693412, ,0.02972950172622098, ,6.629849801321431e-05, ,0.16518153344678804,-0.19656671984763643,0.09785822839000001,3.0172285967988213,0.27354627253041175,-0.20100538336228382, ,0.07013816818807891,0.045977200367476156,0.013175195632754346,0.08830205452032965,0.02555038156439482,0.07954498535219974, ,2.012887954711914
0.014384234970957553,0.020164618281322294,-0.08776253458333473, ,0.014921970831780925,0.01992411570445216,-0.08811228378128526, ,0.0006850736069676492, ,0.008704914147227301,-0.00036820254891405634,-0.013444399677701255,0.07493309471252926,-0.00737292938619747,-0.05994257378124683, ,0.016020704919615693, ,0.07529494227161267, ,6.695231648770096e-05, ,0.16586885667259402,-0.19611880134093143,0.09799822771000001,3.018067356572759,0.27450272802876985,-0.20056012758605035, ,0.07045058764548684,0.04667827917288282,0.014493914030937218,0.09196957861043982,0.11574859529332127,0.03525378132304108, ,2.0179879665374756
0.014384234970957553,0.020164618281322294,-0.08776253458333473, ,0.014965642747673742,0.019915728623529912,-0.08816556723168682, ,0.0007499442514079106, ,0.008704914147227301,-0.00036820254891405634,-0.013444399677701255,0.07493309471252926,-0.00737292938619747,-0.05994257378124683, ,0.016020704919615693, ,0.07529494227161267, ,6.767963598998256e-05, ,0.16586885667259402,-0.19611880134093143,0.09799822771000001,3.018067356572759,0.27450272802876985,-0.20056012758605035, ,0.07045058764548684,0.04667827917288282,0.014493914030937218,0.09196957861043982,0.11574859529332127,0.03525378132304108, ,2.023366928100586
0.014384234970957553,0.020164618281322294,-0.08776253458333473, ,0.0150092733468279,0.01990735044308244,-0.08821879563588406, ,0.000815496082134468, ,0.008704914147227301,-0.00036820254891405634,-0.013444399677701255,0.07493309471252926,-0.00737292938619747,-0.05994257378124683, ,0.016020704919615693, ,0.07529494227161267, ,6.848073941772637e-05, ,0.16586885667259402,-0.19611880134093143,0.09799822771000001,3.018067356572759,0.27450272802876985,-0.20056012758605035, ,0.07045058764548684,0.04667827917288282,0.014493914030937218,0.09196957861043982,0.11574859529332127,0.03525378132304108, ,2.029710054397583
0.014471366856258168,0.02015888146437338,-0.0878913894320083, ,0.015052862539178518,0.019898981365760206,-0.08827196933838462, ,0.0007419746327547493, ,0.009091394798027716,-0.0005443109095628999,-0.013261998118731572,0.020798789570330406,0.028225289088563997,0.05475377302536887, ,0.01608820461832564, ,0.03506074987043867, ,6.919168319436479e-05, ,0.16659479356277113,-0.19566316010135218,0.09813693074,3.018486736459728,0.27545918352712795,-0.19978815684925463, ,0.07702673827797953,0.045253667886729035,0.014285929614349779,0.0,0.08816239674512671,0.10706075456520127, ,2.034466028213501
0.014581942237932124,0.02014909031401565,-0.08805223002040097, ,0.015096410235030715,0.019890621593706057,-0.08832508868276219, ,0.0006371304803905321, ,0.008445472691567313,-0.0010719502999350303,-0.011402734839292588,0.009263011447596073,0.0332757928810778,0.056328466100671576, ,0.014230159810935257, ,0.03454101301598091, ,6.977638086611369e-05, ,0.1675292442405523,-0.19509167786865955,0.09830933731000001,3.018486736459728,0.27641563902548605,-0.19836275619133437, ,0.07299764735266984,0.04564547453509898,0.012262364526558892,-0.0023059180452004646,0.07777360022371302,0.11015817904560589, ,2.0389599800109863
0.014581942237932124,0.02014909031401565,-0.08805223002040097, ,0.015139916345059345,0.019882271328555842,-0.08837815401165738, ,0.0006991093786402341, ,0.008445472691567313,-0.0010719502999350303,-0.011402734839292588,0.009263011447596073,0.0332757928810778,0.056328466100671576, ,0.014230159810935257, ,0.03454101301598091, ,7.043083304963183e-05, ,0.1675292442405523,-0.19509167786865955,0.09830933731000001,3.018486736459728,0.27641563902548605,-0.19836275619133437, ,0.07299764735266984,0.04564547453509898,0.012262364526558892,-0.0023059180452004646,0.07777360022371302,0.11015817904560589, ,2.0434510707855225
0.014669822905156336,0.020132184098390096,-0.08815808552876561, ,0.015183380780308744,0.01987393077143916,-0.08843116566677948, ,0.0006364033577770936, ,0.009005629261329598,-0.0022462441489627576,-0.009688507244836865,0.008163282665112744,0.004501898970574349,0.043323279379870475, ,0.013416934963042852, ,0.009322349105558354, ,7.10090613946468e-05, ,0.1683169629937232,-0.19458197749896075,0.09842341083000002,3.0182770465162436,0.2772354580240787,-0.1973160100705611, ,0.08216185416317816,0.055076576644498415,0.01045883881812213,0.0,0.08128990579986749,0.08697992295431554, ,2.0479729175567627
0.014669822905156336,0.020132184098390096,-0.08815808552876561, ,0.015226803452192223,0.019865600122979124,-0.08848412398890593, ,0.0006982803328269971, ,0.009005629261329598,-0.0022462441489627576,-0.009688507244836865,0.008163282665112744,0.004501898970574349,0.043323279379870475, ,0.013416934963042852, ,0.009322349105558354, ,7.165663090575005e-05, ,0.1683169629937232,-0.19458197749896075,0.09842341083000002,3.0182770465162436,0.2772354580240787,-0.1973160100705611, ,0.08216185416317816,0.055076576644498415,0.01045883881812213,0.0,0.08128990579986749,0.08697992295431554, ,2.052431106567383
0.014756522474413695,0.020111783021779156,-0.08824869498580394, ,0.015270184272491763,0.019857279583293346,-0.0885370293178839, ,0.0006416830448608499, ,0.008948233701065574,-0.001861773937933785,-0.009558508240882325,0.028277744089893087,0.00988644977427954,-0.03758483695787164, ,0.01322505834980967, ,0.029956178330395284, ,7.223545759918717e-05, ,0.16908923628114564,-0.1940645543963877,0.09852192887000001,3.0191158062901815,0.2780552770226713,-0.1965959789103501, ,0.07941166657612617,0.050855810052771046,0.010417796939175933,0.07825884734756813,0.08158258836013717,0.07291795361591837, ,2.058159112930298
0.014756522474413695,0.020111783021779156,-0.08824869498580394, ,0.015313523153357775,0.019848969351993997,-0.0885898819926318, ,0.0007040805032084511, ,0.008948233701065574,-0.001861773937933785,-0.009558508240882325,0.028277744089893087,0.00988644977427954,-0.03758483695787164, ,0.01322505834980967, ,0.029956178330395284, ,7.288390439873535e-05, ,0.16908923628114564,-0.1940645543963877,0.09852192887000001,3.0191158062901815,0.2780552770226713,-0.1965959789103501, ,0.07941166657612617,0.050855810052771046,0.010417796939175933,0.07825884734756813,0.08158258836013717,0.07291795361591837, ,2.062937021255493
0.014851524751276752,0.020092737182961177,-0.0883466224919516, ,0.01535682000730854,0.019840669628188527,-0.0886426823511386, ,0.0006375835538649963, ,0.009506072679272011,-0.002076529024859796,-0.009569630370109104,0.02848419121499261,-0.00796907845490417,-0.045386514785777834, ,0.013647535161896504, ,0.029577952605564048, ,7.345247751442034e-05, ,0.16993873689731034,-0.1935316858280662,0.09862952094,3.01995456606412,0.2790117325210294,-0.1959873656538355, ,0.08526230149009054,0.05322318651624834,0.010479481263157897,0.07979072622548333,0.08112424671058995,0.059185939307783854, ,2.0703330039978027
0.014851524751276752,0.020092737182961177,-0.0883466224919516, ,0.015400074747229972,0.019832380610479646,-0.08869543073046596, ,0.0007002569743673345, ,0.009506072679272011,-0.002076529024859796,-0.009569630370109104,0.02848419121499261,-0.00796907845490417,-0.045386514785777834, ,0.013647535161896504, ,0.029577952605564048, ,7.409071513764812e-05, ,0.16993873689731034,-0.1935316858280662,0.09862952094,3.01995456606412,0.2790117325210294,-0.1959873656538355, ,0.08526230149009054,0.05322318651624834,0.010479481263157897,0.07979072622548333,0.08112424671058995,0.059185939307783854, ,2.075740098953247
0.01491417277140194,0.020075697056279783,-0.08841368853380231, ,0.015443287286375434,0.019824102496966367,-0.08874812746674857, ,0.000674619442428082, ,0.0092714958711202,-0.002332111308924888,-0.01001714816344759,-0.03450742843883425,0.021376600586765188,-0.0035721123827646877, ,0.013847116529222814, ,0.040592136790849075, ,7.478256851010254e-05, ,0.17050249639712872,-0.1931764401158519,0.09870081689000001,3.01995456606412,0.2791483690207948,-0.1952819961561263, ,0.08201982848614588,0.05171495452777699,0.010704846451612904,0.045961554626838756,0.02934240904259331,0.10308341287430298, ,2.0781290531158447
0.01491417277140194,0.020075697056279783,-0.08841368853380231, ,0.01548645753836509,0.019815835485243946,-0.0888007728951956, ,0.0007381545864075685, ,0.0092714958711202,-0.002332111308924888,-0.01001714816344759,-0.03450742843883425,0.021376600586765188,-0.0035721123827646877, ,0.013847116529222814, ,0.040592136790849075, ,7.554594252379352e-05, ,0.17050249639712872,-0.1931764401158519,0.09870081689000001,3.01995456606412,0.2791483690207948,-0.1952819961561263, ,0.08201982848614588,0.05171495452777699,0.010704846451612904,0.045961554626838756,0.02934240904259331,0.10308341287430298, ,2.0804431438446045
0.01491417277140194,0.020075697056279783,-0.08841368853380231, ,0.015529585417185724,0.019807579772404153,-0.0888533673500901, ,0.0008024568922974432, ,0.0092714958711202,-0.002332111308924888,-0.01001714816344759,-0.03450742843883425,0.021376600586765188,-0.0035721123827646877, ,0.013847116529222814, ,0.040592136790849075, ,7.638147235111955e-05, ,0.17050249639712872,-0.1931764401158519,0.09870081689000001,3.01995456606412,0.2791483690207948,-0.1952819961561263, ,0.08201982848614588,0.05171495452777699,0.010704846451612904,0.045961554626838756,0.02934240904259331,0.10308341287430298, ,2.0828640460968018
0.01491417277140194,0.020075697056279783,-0.08841368853380231, ,0.015572670837190335,0.01979933555503637,-0.0889059111647917, ,0.0008673398990445922, ,0.0092714958711202,-0.002332111308924888,-0.01001714816344759,-0.03450742843883425,0.021376600586765188,-0.0035721123827646877, ,0.013847116529222814, ,0.040592136790849075, ,7.728957617051505e-05, ,0.17050249639712872,-0.1931764401158519,0.09870081689000001,3.01995456606412,0.2791483690207948,-0.1952819961561263, ,0.08201982848614588,0.05171495452777699,0.010704846451612904,0.045961554626838756,0.02934240904259331,0.10308341287430298, ,2.085171937942505
0.015034620244627496,0.020043344227695874,-0.0885508212652361, ,0.015615713713097817,0.019791103029227385,-0.08895840467173638, ,0.0007532725101568891, ,0.009703134035213671,-0.0030742929373285552,-0.010961788353649984,-0.06454636206487721,-0.014585087111713562,-0.0021849214628690376, ,0.014958706196728599, ,0.0661736916273636, ,7.806478595719667e-05, ,0.1715682335337717,-0.1924813941571717,0.09884600137,3.01995456606412,0.2794216420203257,-0.19419797212127013, ,0.0849569754328297,0.05908900470639525,0.01147608899135447,0.02508373356204344,0.003740318680914099,0.07369633813394685, ,2.087441921234131
0.015034620244627496,0.020043344227695874,-0.0885508212652361, ,0.015658713959992545,0.01978288239056192,-0.08901084820243718, ,0.0008178985983066324, ,0.009703134035213671,-0.0030742929373285552,-0.010961788353649984,-0.06454636206487721,-0.014585087111713562,-0.0021849214628690376, ,0.014958706196728599, ,0.0661736916273636, ,7.89122473688226e-05, ,0.1715682335337717,-0.1924813941571717,0.09884600137,3.01995456606412,0.2794216420203257,-0.19419797212127013, ,0.0849569754328297,0.05908900470639525,0.01147608899135447,0.02508373356204344,0.003740318680914099,0.07369633813394685, ,2.089745044708252
0.015034620244627496,0.020043344227695874,-0.0885508212652361, ,0.015701671493324222,0.019774673834123308,-0.08906324208748613, ,0.0008830154289964008, ,0.009703134035213671,-0.0030742929373285552,-0.010961788353649984,-0.06454636206487721,-0.014585087111713562,-0.0021849214628690376, ,0.014958706196728599, ,0.0661736916273636, ,7.983227389242395e-05, ,0.1715682335337717,-0.1924813941571717,0.09884600137,3.01995456606412,0.2794216420203257,-0.19419797212127013, ,0.0849569754328297,0.05908900470639525,0.01147608899135447,0.02508373356204344,0.003740318680914099,0.07369633813394685, ,2.0920379161834717
0.015034620244627496,0.020043344227695874,-0.0885508212652361, ,0.015744586228907186,0.019766477554493813,-0.08911558665655375, ,0.0009485076703930175, ,0.009703134035213671,-0.0030742929373285552,-0.010961788353649984,-0.06454636206487721,-0.014585087111713562,-0.0021849214628690376, ,0.014958706196728599, ,0.0661736916273636, ,0.0004447919185683745, ,0.1715682335337717,-0.1924813941571717,0.09884600137,3.01995456606412,0.2794216420203257,-0.19419797212127013, ,0.0849569754328297,0.05908900470639525,0.01147608899135447,0.02508373356204344,0.003740318680914099,0.07369633813394685, ,2.0942981243133545
0.015034620244627496,0.020043344227695874,-0.0885508212652361, ,0.0157874580829204,0.019758293745754663,-0.08916788223839096, ,0.0010142893239166425, ,0.010777139320167628,-0.001820125867582202,-0.014699690046053492,0.01139111551819489,-0.06099872253211295,-0.0009886958205309153, ,0.01831776398882214, ,0.06205321085130142, ,0.0004483512773518012, ,0.1724486250814333,-0.19187129826010793,0.09897951924000001,3.0203739459510888,0.2801048245191529,-0.1939382742383466, ,0.09046419595659749,0.06017561290962003,0.01569341036453202,0.014116442048725449,0.07413553513731658,0.020337634839052626, ,2.097018003463745
0.015136990373428789,0.020019625350799958,-0.08867585082722593, ,0.015830286971906842,0.019750122601487206,-0.08922012916082947, ,0.000921699956481837, ,0.010777139320167628,-0.001820125867582202,-0.014699690046053492,0.01139111551819489,-0.06099872253211295,-0.0009886958205309153, ,0.01831776398882214, ,0.06205321085130142, ,0.0004512913312594412, ,0.1724486250814333,-0.19187129826010793,0.09897951924000001,3.0203739459510888,0.2801048245191529,-0.1939382742383466, ,0.09046419595659749,0.06017561290962003,0.01569341036453202,0.014116442048725449,0.07413553513731658,0.020337634839052626, ,2.099626064300537
0.015136990373428789,0.020019625350799958,-0.08867585082722593, ,0.015873072812773323,0.019741964314772476,-0.08927232775078267, ,0.0009872678100571145, ,0.010777139320167628,-0.001820125867582202,-0.014699690046053492,0.01139111551819489,-0.06099872253211295,-0.0009886958205309153, ,0.01831776398882214, ,0.06205321085130142, ,0.0004545998280421429, ,0.1724486250814333,-0.19187129826010793,0.09897951924000001,3.0203739459510888,0.2801048245191529,-0.1939382742383466, ,0.09046419595659749,0.06017561290962003,0.01569341036453202,0.014116442048725449,0.07413553513731658,0.020337634839052626, ,2.101900100708008
