NicholasDascanio/dvrk_moveit_final/test/execution/third_experiment_notsharpbends/thirdexp_500vel3.0/thirdexp_500vel3.0_16.csv
Current Position (x),Current Position (y),Current Position (z), ,Planned Position (x),Planned Position (y),Planned Position (z), ,Position Error,,Cartesian linear Velocity(x),Cartesian linear Velocity(y),Cartesian linear Velocity(z),Cartesian Angular Velocity(x),Cartesian Angular Velocity(y),Cartesian Angular Velocity(z), ,Total Linear Velocity, ,Total Angular Velocity, ,MSE, ,Joint 1 Position,Joint 2 Position,Joint 3 Position,Joint 4 Position,Joint 5 Position,Joint 6 Position, ,Joint 1 Velocity,Joint 2 Velocity,Joint 3 Velocity,Joint 4 Velocity,Joint 5 Velocity,Joint 6 Velocity, ,Time Stamp
0.00995406426843245,0.020146932368997835,-0.07876001736776399, ,0.010003696093793086,0.020048235686354134,-0.07883268665945367, ,0.00013223153636020545, ,6.819298465677255e-05,7.834083869436435e-06,1.6035656812709748e-06,0.014714457566140485,-0.05196986773525041,-0.04556753912574418, ,6.86602319349879e-05, ,0.05401279861185838, ,1.1019294696683788e-05, ,0.12988864421158203,-0.22026778703863145,0.08867531003000001,2.9994049516026364,0.2598826225538677,-0.21869618826226017, ,0.0003189088279964759,0.0,8.676383141535417e-06,0.018364400663662576,0.0,-0.06344079374399447, ,0.023546934127807617
0.009963159166700118,0.02013374982547531,-0.07880123476946274, ,0.010018602960294009,0.020072136956199613,-0.07892204004388248, ,0.00014650622592946095, ,0.0004260494432198022,-0.0009133466445827585,-0.0017075797968912152,-0.0837377484123831,-0.28102055916019797,-0.16642294715240216, ,0.001982813401202829, ,0.293231248641531, ,1.2669898285893928e-05, ,0.12989636694445625,-0.22026006430575723,0.08870771728000001,2.9994049516026364,0.2574231655580898,-0.22583868489146755, ,-0.00014300361755856426,-6.511657758357264e-05,0.0011656352049377058,0.01264230201530922,-0.14725309412228707,-0.3000012357236388, ,0.04549884796142578
0.009969616344142288,0.020117229163599773,-0.07883039917984473, ,0.010033636171946414,0.020095806336853785,-0.07901115222355787, ,0.00019294853891496926, ,0.00036174341373726524,5.396755199230151e-05,-0.0019612760758856494,-0.04276083966677347,-0.0030535475298838657,-0.01652733092698273, ,0.0019950876271211107, ,0.042869727798246486, ,1.4740196912644865e-05, ,0.12988864421158203,-0.22026006430575723,0.08872327276000001,2.9994049516026364,0.25482707206254646,-0.2290308628303721, ,0.00032107101114016575,-6.511657758357264e-05,0.001506095834274446,0.010489815250212144,-0.05487531121375241,0.01751359481064374, ,0.06911778450012207
0.009978082355440834,0.020129541959112922,-0.07888441150696594, ,0.010048795247279715,0.020119244801282642,-0.0791000240021387, ,0.0002271455317769201, ,0.0003754783169238375,0.0006863989382967738,-0.002940474092968875,0.04195858124123065,-0.18086040032922257,-0.0989373284336294, ,0.0030427808597393315, ,0.18566369313035808, ,1.6638853166227518e-05, ,0.12990408967733047,-0.2202755097715057,0.0887829021,2.9994049516026364,0.254690435562781,-0.23177820083159534, ,-0.0003645050353628453,-0.00023363805746477533,0.003043334260603745,0.00897989446846518,0.0,-0.2082195704936785, ,0.09315180778503418
0.00999520306862251,0.02015762194200312,-0.0790141442856142, ,0.010064079705682728,0.02014245332070072,-0.07918865618174006, ,0.0001882245470027409, ,0.0004807927095502883,0.0018923258366015856,-0.003996478110252702,0.10318094938220213,0.0031072483934283836,0.0032896677788705024, ,0.004447909170290644, ,0.10322772547611189, ,1.705877653815955e-05, ,0.12990408967733047,-0.2202755097715057,0.08891641997000001,2.9994049516026364,0.25455379906301556,-0.22758284592087083, ,0.000855939192707366,-0.0010354654316029094,0.004574615600229753,0.007403700149537316,0.10091105387948447,-0.013194451220131746, ,0.11554980278015137
0.009999699434798776,0.020170582661099452,-0.07905251016085718, ,0.010079489067402704,0.020165432864573393,-0.07927704956293471, ,0.0002383502652833975, ,0.0005435471192721744,0.0012641009965568741,-0.003951710875822317,0.05409120632106408,-0.03931909650616409,-0.022527154782696776, ,0.004184425127357108, ,0.06687189208004589, ,1.815172008496281e-05, ,0.12990408967733047,-0.22028323250437992,0.08895790125000001,2.9994049516026364,0.2549637085623119,-0.22799877837210067, ,0.0008336371154342546,0.0003207463353026882,0.004269314264272313,0.006997171410332743,0.04429229331826817,-0.05245192518147965, ,0.14090991020202637
0.01001841120866436,0.020198358005580477,-0.07917778687777537, ,0.010095022853545063,0.020188184400617232,-0.07936520494475359, ,0.0002027273494108009, ,0.000310157410868598,0.0006722025389844052,-0.0027194696886234412,0.0006981100297865436,0.00056142979365268,9.121999155511392e-05, ,0.0028184338310975952, ,0.0008958576215848935, ,1.8446305481645767e-05, ,0.12992725787595316,-0.2202755097715057,0.08908753025,2.999614641546121,0.2549637085623119,-0.22824381459252235, ,-0.0005614297936526798,-0.0007040445302307829,0.002819258676106195,0.0,0.0,0.0, ,0.16288495063781738
0.010026301898995253,0.02021290885926119,-0.0792474688680803, ,0.010110680586072555,0.020210708894801584,-0.0794531231246879, ,0.00022230221757179068, ,0.0005396869921539374,0.000805079243738572,-0.00336253429106208,0.0003531745986665272,-0.002115088743136545,0.0017514553251924908, ,0.0034994358826484022, ,0.0021443722294927445, ,1.8907758685979096e-05, ,0.12990408967733047,-0.2202755097715057,0.08915882620000001,2.9998243314896054,0.25482707206254646,-0.2280507179486854, ,0.0013013801500725852,-0.0005164896438506148,0.0034985309729848456,-0.0019395996434985316,0.0,-0.00044318532349727836, ,0.1869058609008789
0.01003754566388464,0.020231937107376106,-0.07932876646383812, ,0.010126461787804679,0.020233007311349874,-0.07954080489868967, ,0.00022992938107994465, ,0.0006314311354127963,0.0009851124895759258,-0.004357444456277894,-0.00024101512839513867,-0.0012682434152120037,0.0018674405666997747, ,0.0045118149436157206, ,0.0012909407737789567, ,1.9351799927502504e-05, ,0.1299118124102047,-0.22028323250437992,0.08924308505,2.9998243314896054,0.25482707206254646,-0.2280507179486854, ,0.0008254828944167644,0.0,0.0045111332540356845,-0.0019395996434985316,0.0,-2.1527673339123525e-05, ,0.20869994163513184
0.010051390924899054,0.02025374749716235,-0.07942519269729416, ,0.010142365982417155,0.020255080612740763,-0.07962825106117348, ,0.00022251053329879516, ,0.0006314597757769288,0.0009823585552672263,-0.0043449007548143495,-0.00024617223244813443,-0.0011866913224707388,0.0018142233628768234, ,0.0044991035050015536, ,0.0012119552443874725, ,1.963604045714731e-05, ,0.12992725787595316,-0.22028323250437992,0.08934289938000001,2.9998243314896054,0.25482707206254646,-0.2280507179486854, ,0.0008416106023926361,0.0,0.004498393538548433,-0.001845328750750053,0.0,6.608708281536388e-05, ,0.23490691184997559
0.010066980472746423,0.020278159736353316,-0.07953016559804583, ,0.010158392694441094,0.02027692975970982,-0.07971546240501745, ,0.00020662191024084408, ,0.0005277600450018625,0.0007249263216983558,-0.0031959341169399656,-0.00021788571391864525,-0.0016989051305597313,0.0016392693446389281, ,0.0033193438684192265, ,0.0017128200412051403, ,1.972766104348098e-05, ,0.12995042607457583,-0.22029095523725414,0.08945178774000001,2.9998243314896054,0.25482707206254646,-0.2280507179486854, ,0.0014085499274658013,-7.517623012137112e-06,0.003317120266555602,-0.0016566365031491649,0.0,8.144023430748493e-05, ,0.2580709457397461
0.010073782953285813,0.020287790630222347,-0.07957265608877451, ,0.010174541449262563,0.020298555711250037,-0.07980243972156419, ,0.0002511347832918643, ,0.00041924283451693863,0.0006210410288443174,-0.002740133999424535,-0.00010422593022834758,-0.0015209199768153275,0.0013428842969370584, ,0.0028407377296406832, ,0.00152448695170953, ,2.0169121476735524e-05, ,0.12996587154032427,-0.22029095523725414,0.0894958616,2.9998243314896054,0.25482707206254646,-0.22796903920854483, ,0.0007999029671137535,-1.2225438345589302e-05,0.0028398665573185953,-0.001577910186937088,0.0,-0.0004276330400830819, ,0.2830538749694824
0.010085218424937975,0.020306485894791643,-0.07965536159692369, ,0.010190811773121915,0.02031995942461373,-0.07988918380062245, ,0.0002569130477984841, ,0.0005086442192297419,0.0008660877157664851,-0.003829937562895762,-0.00016593001110194456,-0.0004550640569776763,0.0013981125424111767, ,0.003959450543804957, ,0.00048437097402503784, ,2.0587468696668317e-05, ,0.1299735942731985,-0.22029095523725414,0.08958141674,2.9998243314896054,0.25482707206254646,-0.22805071794868537, ,0.0001398113337633942,-1.668124126512089e-05,0.0039594361222967936,-0.0014426910499187318,0.0,0.0, ,0.3053169250488281
0.010101022000213112,0.02033231710762281,-0.0797666819333531, ,0.0102072031931131,0.02034114185531362,-0.07997569543046848, ,0.000234603844541972, ,0.0004241370000311547,0.0006538754551222598,-0.0028914797428597986,-0.00016696759496540888,-0.0008946699045395133,0.0012771950929894187, ,0.002994678682091843, ,0.0009101165934874715, ,2.07897867077619e-05, ,0.12998903973894696,-0.22029867797012836,0.08969678655,2.9998243314896054,0.25482707206254646,-0.22805071794868537, ,0.0006062251223027431,0.0,0.002994137503759399,-0.0013199643463837946,0.0,0.0, ,0.33153676986694336
0.010110807790058287,0.02034819593985781,-0.07982846686916832, ,0.010223715237183073,0.020362103957123935,-0.08006197539784642, ,0.00025974556305338444, ,0.0005659388473128551,0.0008311341804565261,-0.003637628625203301,-7.107449796168433e-05,-0.001420863508505934,0.0012191935731192625, ,0.0037740446234404016, ,0.0014226398198891271, ,2.127082963944089e-05, ,0.13001220793756962,-0.2203064007030026,0.08976160105000001,2.9998243314896054,0.2549637085623119,-0.22808045711224123, ,0.0011480720043690214,-8.759369486467806e-05,0.0037728118237801995,-0.0012482896708476971,0.0,0.0, ,0.3520479202270508
0.010120935112194883,0.02036700340651023,-0.07990592043187818, ,0.010240347434131228,0.020382846682082012,-0.08014802448797043, ,0.00027041576504965734, ,0.0007402093824862394,0.0011739969386730445,-0.005059948389949024,0.0001908660613727619,-0.0012613252247445244,0.001196113231462753, ,0.005246832992470988, ,0.0012756832910544886, ,2.1764444003782698e-05, ,0.13001220793756962,-0.22032184616875103,0.08984197103000001,2.9998243314896054,0.2549637085623119,-0.22799877837210067, ,0.0010012452868027476,-0.00034433106886832307,0.005246644110671937,-0.001190039665303647,0.0,0.0, ,0.3737168312072754
0.010134760590290611,0.020387684354699294,-0.07999724790900134, ,0.010257099313608626,0.02040337098048924,-0.08023384348452499, ,0.0002668151041622682, ,0.0005315181109214312,0.0008430596919147241,-0.0035966871988606115,-0.00011043629836989834,0.00036722107549406666,0.001824912020828212, ,0.0037322138139201815, ,0.0003834669378185106, ,2.2184178371405323e-05, ,0.1300353761361923,-0.22032184616875103,0.08993660020000001,2.9998243314896054,0.2549637085623119,-0.22783542089181955, ,0.0007837633398399198,-0.00034433106886832307,0.003732148903467667,-0.0011275546329487561,0.0,0.0015885259281341662, ,0.39345383644104004
0.010153800255297336,0.020411698507367543,-0.08010323215889317, ,0.010273970406117577,0.02042367780091262,-0.0803194331696679, ,0.0002476433840869011, ,0.0008421940376375593,0.0010683136754840858,-0.004464517690306239,0.0001973463219554154,-0.0012974040326552037,0.001002917066365293, ,0.004667172925156719, ,0.001312326567996564, ,2.2453761398058433e-05, ,0.1301048807320603,-0.22032184616875103,0.09004678485,2.999614641546121,0.2549637085623119,-0.22775374215167898, ,0.003168564734598538,-0.000617061813611396,0.004660272533645407,0.0,0.0,0.00212713896277452, ,0.41524791717529297
0.010169855675462212,0.020433645367594688,-0.0801993431444587, ,0.01029096024301084,0.020443768090185645,-0.08040479432402856, ,0.00023870268741771276, ,0.0006433466055506017,0.0010590727936514023,-0.004486414669219152,0.0007167980663778791,0.0022943031149646347,-0.0037718926959621657, ,0.004654400780047939, ,0.002403668952602405, ,2.2649584044235903e-05, ,0.13013577166355722,-0.22032184616875103,0.0901440066,3.00003402143309,0.2549637085623119,-0.22775374215167898, ,0.0005610123217970897,-0.000501752408096046,0.004653465241016653,0.004873076941022288,0.0,0.0020280967026958616, ,0.4378809928894043
0.010190453615465694,0.020458048555478045,-0.08031205765088097, ,0.010308068356491042,0.020463642793410116,-0.08048992772671232, ,0.00021331265007202676, ,0.0007888376751868042,0.0007889773373742913,-0.0033009815777013387,0.000775334666014457,-0.0023124478873921273,-0.004117912456281212, ,0.003484426709375298, ,0.0024389667247200707, ,2.2697881971143572e-05, ,0.13020527625942524,-0.22032184616875103,0.09026326528,3.00003402143309,0.25482707206254646,-0.227560645507842, ,0.00423390512333121,-0.00037100250634664256,0.003465798851174935,0.004755286226311654,0.0,0.0010027545969439496, ,0.46294379234313965
0.010197534422087278,0.02046598097396153,-0.08034686156153084, ,0.010325294279610108,0.02048330285395666,-0.0805748341552996, ,0.00026190481521055914, ,0.0005561883236799335,0.0007335694420615188,-0.003093101300585643,0.0004431737743149491,0.0014475216527618624,-0.003345698847957595, ,0.003227188440951185, ,0.0015138433361265894, ,2.2978974056364388e-05, ,0.13023616719092213,-0.22032184616875103,0.0902995614,3.00003402143309,0.25482707206254646,-0.22747896676770146, ,0.0017201147615460517,-0.0003403072507721968,0.003223803181542198,0.004604857552539433,0.0,0.0024565914062803086, ,0.4838249683380127
0.010210003738249186,0.020482129111588615,-0.08041795909974256, ,0.01034263754626858,0.02050274921346686,-0.08065951438584795, ,0.00027634375671734186, ,0.0006410421227452695,0.0009338955849351273,-0.004003220827959061,0.00035924387433217716,0.0018025355246887244,-0.0030826275835607246, ,0.004160393366509988, ,0.0018379851606802335, ,2.3303894571364678e-05, ,0.13029794905391592,-0.22032184616875103,0.09041752379000001,3.00003402143309,0.25482707206254646,-0.22739728802756087, ,0.0026861724284463523,-0.00027419205236576394,0.0049529886567164175,0.004217633416624655,0.0,0.004033891386725621, ,0.5041389465332031
0.010225437380555565,0.02050337666109793,-0.08051163190010811, ,0.010360097691215004,0.020521982811854127,-0.08074396919289306, ,0.0002691843341123285, ,0.0008047467260765813,0.0011124504423055178,-0.00479927943920318,-9.24296602171739e-06,0.0024131404198903432,-0.0021863949785261485, ,0.004991817946928264, ,0.002413157593776603, ,2.3570483284234842e-05, ,0.13031339451966437,-0.22032184616875103,0.09047067168,3.00003402143309,0.25482707206254646,-0.22739728802756087, ,0.002032423004865054,-0.0002574651722153183,0.004988666307547761,0.0041026859530594205,0.0,0.004033891386725621, ,0.5247499942779541
0.010243911561589826,0.020528368116878203,-0.0806187846673714, ,0.01037767425004533,0.020541004587304415,-0.08082819934944992, ,0.0002488104625567939, ,0.0007303438820535123,0.0009063956411108149,-0.003980882931708809,-0.0004653894155339066,0.00272113750704679,-0.001600371323125882, ,0.004147575696747222, ,0.0027606476849798994, ,2.3728569978194668e-05, ,0.13036745364978394,-0.22032956890162525,0.09058215262000001,3.00003402143309,0.25482707206254646,-0.22723393054727975, ,0.0024348858829144385,0.0,0.004141656661466459,0.003852339060585995,0.0,0.004903610820762696, ,0.5453858375549316
0.010259127666769704,0.02054706660519334,-0.0807010085092479, ,0.010395366759202242,0.020559815476278456,-0.08091220562701464, ,0.0002516502465203716, ,0.0006592104938807294,0.0009317447393782652,-0.0041042744413956455,-0.0005647176057135384,0.004092284713617691,-0.001255474728467985, ,0.0042600205897266605, ,0.004131065115305975, ,2.3886632703159895e-05, ,0.13042151277990352,-0.22032956890162525,0.09066641147000001,3.00003402143309,0.25482707206254646,-0.22707057306699863, ,0.00137047435023778,0.0,0.004259040513368985,0.0036753173750770254,0.0,0.0053033617935002615, ,0.5682439804077148
0.010276142426109587,0.020569510502962254,-0.08079686963280926, ,0.01041317475597458,0.020578416413512556,-0.08099598879556459, ,0.00024187934109250376, ,0.0006428888018460431,0.0007033063513143128,-0.0031307832992283732,0.000883027735867047,-0.004331680373643202,-0.004488321187508526, ,0.003272575423434178, ,0.004420768320204651, ,2.3994231290216154e-05, ,0.1304755719100231,-0.2203372916344995,0.09076752209000001,3.00003402143309,0.25482707206254646,-0.22674385810643638, ,0.002730346978661883,0.00014225217387459448,0.0032634319852489248,0.0034284864193945565,6.822930702944892e-05,-0.002682587420836063, ,0.5891938209533691
0.010287329159956919,0.02058339319265902,-0.08085792811784658, ,0.010431097778496644,0.02059680833201977,-0.08107954962356065, ,0.00026450987398557045, ,0.0006825466643541523,0.0007846305012730154,-0.003884529222701616,-0.00020704239613779894,-0.003596528692104058,-0.004487562564656881, ,0.004021328419138599, ,0.0036024830745526298, ,2.418172855806799e-05, ,0.1305141855743942,-0.2203372916344995,0.09083104030000001,3.00003402143309,0.25482707206254646,-0.22674385810643638, ,0.002008010791653111,0.001147985505734425,0.0040133060015117164,0.003306148892786648,0.0,-0.002626950995920826, ,0.6114718914031982
0.010304281273587878,0.020605778037640358,-0.0809592008500221, ,0.010449135365747642,0.020614992163091386,-0.08116288887794766, ,0.000250112816231915, ,0.0007068946769089417,0.001127538940824634,-0.0045238169807691455,-0.0003977569437916693,0.005907361513382501,0.0037463758602412638, ,0.004715502541915697, ,0.005920737178890322, ,2.4302912361087774e-05, ,0.13055279923876534,-0.22032956890162525,0.09093603979,3.0002437113765743,0.25482707206254646,-0.22682553684657694, ,0.0013721917694448822,-0.0011843974941383628,0.004715456341030197,0.0,3.654126021359728e-05,0.008268359309880948, ,0.6316239833831787
0.01032149820672576,0.020624863421070623,-0.08104540384152246, ,0.01046728705755108,0.020632968836297994,-0.08124600732415624, ,0.00024811659361230666, ,0.0008211018321231178,0.0008485634794162171,-0.004012143347590908,-0.0014980159725389254,-0.0002259132502497724,0.0015473177151928484, ,0.00418229152964411, ,0.0015149546564112116, ,2.4409014824490363e-05, ,0.13062230383463336,-0.2203372916344995,0.09102548380000001,3.0002437113765743,0.254690435562781,-0.22663244020273993, ,0.0035680266774297574,0.0007658488174131636,0.004168754650615023,0.0,0.0,0.0037984520319948247, ,0.6525027751922607
0.010336231075059632,0.02064157931274633,-0.081118761606007, ,0.010485552394573987,0.02065073927949104,-0.08132890572610355, ,0.0002579560285463804, ,0.0006755643951077166,0.0008438340385458186,-0.00391277333305083,-0.0008713158429264274,-0.00033139932765610994,0.0007330207253036188, ,0.004059339637475473, ,0.0009322102206000774, ,2.462895836817618e-05, ,0.13068408569762716,-0.2203372916344995,0.09110196491000001,3.0002437113765743,0.254690435562781,-0.22655076146259936, ,0.0019554661699359172,0.0005167127314440323,0.0040541642962585904,0.0,0.0,0.0018458200571482076, ,0.6705749034881592
0.010343427933330394,0.020649381893914815,-0.08115897142551458, ,0.010503930918326507,0.020668304418803726,-0.08141158484619489, ,0.00029988799650642966, ,0.0007332909574704283,0.0010054070322596848,-0.004185135042022381,0.0002770825038691194,-0.000626494366399835,0.0008674829446549944, ,0.004366224255439567, ,0.0006850318395032999, ,2.49800038615585e-05, ,0.13070725389624982,-0.22032184616875103,0.09114344619,3.0002437113765743,0.254690435562781,-0.22655076146259936, ,0.002219025654147722,-0.0006345459334001143,0.0043628626458504524,0.0,0.0,0.0018099641127585291, ,0.6884548664093018
0.010360000096828841,0.02067097869885992,-0.08125106129917775, ,0.010522422171161068,0.020685665178652522,-0.08149404544532451, ,0.0002926395704578473, ,0.0009667231000238339,0.001092029731797362,-0.0048779734857966155,-0.0007959675607942375,-0.0013262769684759682,0.0012574012077217755, ,0.005091336545091464, ,0.0015467941663696058, ,2.5288307979715907e-05, ,0.1307613130263694,-0.22032956890162525,0.09123937165000001,3.0002437113765743,0.254690435562781,-0.22630572524217768, ,0.003936329331824756,0.00022079099352965992,0.005079340408163266,0.0,0.0,0.0029664220871267843, ,0.7063479423522949
0.010379010358149216,0.020692509635906294,-0.08134824568864776, ,0.010541025696271949,0.02070282248173834,-0.08157628828287741, ,0.0002799263284494108, ,0.0010133700459481997,0.0011153975028412285,-0.0047979209602211255,-0.0007050409990570347,0.002409155324789318,-0.00023979212963786832, ,0.005029023362433178, ,0.0025102011168003672, ,2.553950495256925e-05, ,0.13083081762223742,-0.22032184616875103,0.09134048227000001,3.0004534013200588,0.254690435562781,-0.22614236776189653, ,0.004523802993774514,-0.00022642448839131594,0.005013790217186026,0.0034280270941001983,0.0,0.007027837661775777, ,0.7240819931030273
0.010398966475823099,0.02071489038805611,-0.0814464398754942, ,0.010559741037694416,0.020719777249048138,-0.08165831411672989, ,0.00026601322383382886, ,0.0010545069918560597,0.0011651559526774274,-0.005016605948112948,-0.00041055366272892374,0.0008807646922308653,-0.0008491999780221941, ,0.005256986649077128, ,0.0009717497495864017, ,2.573413329393605e-05, ,0.13091576768385388,-0.22032184616875103,0.09144288918000001,3.0004534013200588,0.254690435562781,-0.226060689021756, ,0.0046641882974218195,-0.00022642448839131594,0.005241464797630801,0.0033586361451750086,0.0,0.005467609202102588, ,0.7484657764434814
0.010417297298784994,0.020736206139072254,-0.08153702825621331, ,0.010578567740304372,0.020736530399855443,-0.08174012370325123, ,0.00025933765839238163, ,0.0008132562159293184,0.000883445778294193,-0.004013229298191018,-0.0009953266829870822,0.002011949915541573,-0.0008157967727411275, ,0.004189017965560936, ,0.0022446863093688457, ,2.5898639730984954e-05, ,0.13099299501259612,-0.22032956890162525,0.09153751835000001,3.0004534013200588,0.254690435562781,-0.226060689021756, ,0.0033440650170708003,0.0003718326358219924,0.004177501054287963,0.0031683002571774458,0.0,0.0053001510440186935, ,0.7666897773742676
0.01042540411587617,0.020744705451942756,-0.0815742491712394, ,0.010597505349817512,0.0207530828517224,-0.08182171779730485, ,0.0003015455793705519, ,0.0007170466715253601,0.0007369689967801575,-0.0033507080989865776,-0.0009077362637345935,0.0018314316802727514,-0.0008548836405864598, ,0.0035049285293676097, ,0.002044046648598148, ,2.6181992468290275e-05, ,0.13103160867696725,-0.22032956890162525,0.09157640705,3.0004534013200588,0.254690435562781,-0.226060689021756, ,0.003235876221195737,0.0003317128350491834,0.003492394545055909,0.0030771796258962265,0.0,0.004994668363556082, ,0.7846298217773438
0.01044364649218756,0.02076082420214869,-0.08165298842598805, ,0.010616553412788747,0.02076943552050066,-0.08190309715224929, ,0.000304179770773084, ,0.0008697141254610467,0.0008537016568597958,-0.003735820987026307,-0.0014667857545914743,0.0035102788131490675,0.0007999957889397602, ,0.003929576010978518, ,0.003804407584401639, ,2.645977496396993e-05, ,0.13112428147145794,-0.22032184616875103,0.09165807332,3.0004534013200588,0.25455379906301556,-0.2256225561574973, ,0.0044579146783933574,0.0,0.00390987027982327,0.002888212736470519,-0.00021209401600248565,0.008370954358043477, ,0.803290843963623
0.010463134264746609,0.020781571059986126,-0.08174357192931828, ,0.010635711476611775,0.02078558932033246,-0.08198426251993955, ,0.00029619419454976487, ,0.0010283151831898705,0.0012225441436236734,-0.005379215586578243,-0.0013898915058809334,0.0020039669077997935,0.002185525982512417, ,0.005611417523761146, ,0.0024387860221254123, ,2.6701941138290863e-05, ,0.13120923153307443,-0.22032184616875103,0.09175270249,3.0006630912635437,0.25455379906301556,-0.22545919867721617, ,0.003810518005733149,0.0,0.005600847932489452,0.0006127515135916854,-0.00021209401600248565,0.006488325434983371, ,0.8225929737091064
0.010484065542438288,0.020803990807411896,-0.08184730912106108, ,0.010654979089518095,0.02080154516365235,-0.0820652146507286, ,0.00027694808468100554, ,0.0010192498738915323,0.0010379073245689937,-0.004481686943484545,0.0006816597139921136,-0.0008353208490976485,0.0016171233688269547, ,0.0047118616044215175, ,0.0010781554055788536, ,2.6879343254746548e-05, ,0.1312941815946909,-0.22032184616875103,0.09186029456000001,3.0006630912635437,0.2544171625632501,-0.22534778077351977, ,0.005141527089291726,5.509724826118187e-06,0.00469460993810787,0.0005982354626597524,0.0015208826269289925,0.004507702692188181, ,0.8429968357086182
0.010504516787780395,0.020823821853620597,-0.08193395850777141, ,0.010674355800576662,0.020817303961188176,-0.08214595429346824, ,0.0002717167391652362, ,0.0010011737225419435,0.0009395181533230807,-0.004043269787939632,0.0008401866070820647,-0.0020579202788864035,0.0012603318093419608, ,0.004270020346695962, ,0.0022228244034055746, ,2.703463638660206e-05, ,0.13140229985493004,-0.22032184616875103,0.09195103486,3.0006630912635437,0.2544171625632501,-0.22534778077351977, ,0.005608909870251752,1.1102247075872714e-05,0.00424655065849107,0.0005836466022986022,0.0015208826269289925,0.003653172648214944, ,0.8604857921600342
0.010523047610226438,0.020840747959903278,-0.08201081301382189, ,0.010693841159693157,0.02083286662196253,-0.08222648219551046, ,0.0002752194541768329, ,0.000716931477878291,0.0007759202146457522,-0.0033390197606907417,0.0015559659244805965,-0.002959562434293835,-0.00029840654739054693, ,0.003502155891126481, ,0.0033436565830813484, ,2.7192658807738838e-05, ,0.13150269538229495,-0.2203141234358768,0.09203140484000001,3.0006630912635437,0.2544171625632501,-0.22518442329323865, ,0.003307784099348022,0.0,0.00349392663303356,0.0005683262421630552,0.0015208826269289925,1.7675172426898588e-05, ,0.8845889568328857
0.01053833598132702,0.020854622539221778,-0.0820740378505628, ,0.010713434717609448,0.020848234053293644,-0.0823067991027086, ,0.0002913386014599487, ,0.0007841397768025701,0.0007529629298771498,-0.0032905789023264563,1.3922415029914061e-05,0.0019664628895763848,0.0031559328853769117, ,0.0034655068714070027, ,0.0019665120757122174, ,2.7386352589885916e-05, ,0.1315799227110372,-0.2203064007030026,0.09209751563000002,3.000872781207028,0.2544171625632501,-0.22502106581295753, ,0.0041995617033076,0.00015905354920405388,0.003450034983755686,0.0,0.0015208826269289925,0.006769659462233494, ,0.9030227661132812
0.010556375326299253,0.02087133612543673,-0.08214696582172562, ,0.010733136025902732,0.02086340716079723,-0.08238690575941868, ,0.00029812478445227216, ,0.0009409252794577352,0.0008927064916329307,-0.003899584515633917,0.000487146371120228,-0.0010816300564026621,0.002100110718439703, ,0.004109625853565992, ,0.0011862690521326686, ,2.7589524733158888e-05, ,0.13168031823840212,-0.2203064007030026,0.09217399674000001,3.000872781207028,0.2544171625632501,-0.22493938707281697, ,0.005102851297767996,0.00015905354920405388,0.004089553663671374,0.0,0.0015208826269289925,0.004332615008404685, ,0.9225378036499023
0.010579326781337387,0.02089314877185287,-0.08224221773305301, ,0.010752944636985227,0.02087838684838713,-0.08246680290850039, ,0.00028425266087565864, ,0.0010040576807883585,0.0010245256688919727,-0.004483935194338779,0.0009823054369363666,-0.0031446882862297457,0.00099441122457858, ,0.0047078083541706095, ,0.0032945389019417583, ,2.7749566201698907e-05, ,0.13180388196438972,-0.2203064007030026,0.09227381107,3.000872781207028,0.2544171625632501,-0.2248577083326764, ,0.004919436391877013,0.00015611691742026303,0.004691844335787924,0.0,0.0015172931419767152,0.0017806059275765453, ,0.9402618408203125
0.010587823954949487,0.020902213767766072,-0.08228193651233853, ,0.010772860104103346,0.020893174018276953,-0.08254649129131877, ,0.0003229695413592428, ,0.0010003955294361393,0.0010186182556513879,-0.004455965329620836,0.0007923176939710779,-0.002364715739801672,0.001374805091073604, ,0.004679102626021898, ,0.0024939218314733213, ,2.8068186444142842e-05, ,0.13184249562876083,-0.2203064007030026,0.09231529235000001,3.000872781207028,0.2544171625632501,-0.22477602959253584, ,0.004915085536042809,0.0001487881940393461,0.004663001030444965,0.0,0.0014915848803034176,0.002665908295079321, ,0.9574379920959473
0.010606099448729428,0.020920692721387142,-0.08236246740127906, ,0.010792881981337089,0.020907769570981446,-0.08262597164774443, ,0.0003232479082825202, ,0.0010511030438408158,0.0010256460565203807,-0.004473384608302905,0.00019616789462167602,0.0022270594468473738,0.00047194237798355227, ,0.0047082839013624245, ,0.0022356819611293885, ,2.8376630734102748e-05, ,0.1319274456903773,-0.2203064007030026,0.09239955120000001,3.0010824711505126,0.2544171625632501,-0.22453099337211416, ,0.005396248416465602,0.00013638174016015035,0.004687702036492054,0.003160598361424972,0.0014444106615530436,0.007652686006669304, ,0.9729697704315186
0.01062765314191703,0.02094044694754433,-0.0824516826648345, ,0.010813009823599428,0.020922174405317448,-0.08270524471615678, ,0.00031461833880831746, ,0.0011054287104190542,0.0011060997368267452,-0.004811314221294998,-0.00016164304292976266,0.003734623181115081,0.0012646026734502037, ,0.005059068471335648, ,0.0037381193399940883, ,2.8654099451015664e-05, ,0.13204328668349066,-0.22029867797012836,0.09249288408,3.0010824711505126,0.2544171625632501,-0.22436763589183303, ,0.00549577471731441,8.693045809425901e-05,0.00503916846567542,0.003160598361424972,0.0013927531874851906,0.00948670335843041, ,0.988886833190918
0.010651604082855605,0.020962879712099942,-0.08255877035087107, ,0.010833243186635737,0.020936389418405272,-0.08278431123344263, ,0.0002907975058236146, ,0.0012602202012678024,0.0011849244831195656,-0.005258560092494322,0.00229631285399011,-0.009992834603025424,-0.004981350503371319, ,0.005535761486259458, ,0.010253282016301962, ,2.8866379003172146e-05, ,0.13215912767660404,-0.2202755097715057,0.09260436502000001,3.0010824711505126,0.2544171625632501,-0.22412259967141135, ,0.0066162652428016725,0.0003640202806778917,0.005507887800829877,0.003160598361424972,0.0013425010310416602,-0.004829581644433501, ,1.0054738521575928
0.010664397602209228,0.02097526553708251,-0.0826159532539138, ,0.010853581627023103,0.0209504155056701,-0.08286317193499934, ,0.00031229024253673045, ,0.001225504210411369,0.001169919740191936,-0.0054634241678065245,0.0008108692986328585,-0.0056456075684927646,-0.003299986632915847, ,0.005720102831732938, ,0.005703541791657114, ,2.9121530830752064e-05, ,0.13222090953959784,-0.22026778703863145,0.09266399436000002,3.0010824711505126,0.2544171625632501,-0.2240409209312708, ,0.005869944884175667,0.0010372027920032556,0.005696999828326181,0.003160598361424972,0.0013193594251912023,-0.0007346032248113235, ,1.0207087993621826
0.010690446611736773,0.020998967220251585,-0.08272514033791292, ,0.010874024702169733,0.0209642535608431,-0.08294182755473542, ,0.0002861106488245769, ,0.0012266088634946706,0.0011589673214498911,-0.005309377774266957,-0.0013940154036628989,0.004940680530895531,0.0023028966328192636, ,0.005571110024588669, ,0.0051335756383768145, ,2.9308911088176465e-05, ,0.13235219599845965,-0.220252341572883,0.09277806788000001,3.001292161093997,0.2544171625632501,-0.22412259967141135, ,0.006115568543335683,0.0007661486886701263,0.005546243565459611,0.0029366732648829354,0.0012754273675391163,0.011634877168054815, ,1.0371949672698975
0.010699979080636777,0.02100795194877136,-0.08276743838556136, ,0.010894571970314296,0.020977904475962657,-0.08302027882507168, ,0.00032046455527407315, ,0.0012774780715869944,0.0011117364265015048,-0.005206471410155382,-0.0014376134861865477,0.0029976895722118946,0.0016810046493573364, ,0.005474965995342924, ,0.0033245859112460696, ,2.9567436150187313e-05, ,0.13239853239570498,-0.2202446188400088,0.09282214174,3.001292161093997,0.2544171625632501,-0.22412259967141135, ,0.006876139977800697,0.0010568188353949318,0.005442026484455074,0.0029366732648829354,0.001259258009433249,0.01029395942258262, ,1.0534138679504395
0.010727155283411558,0.021029883977209334,-0.08286884190791274, ,0.010915222990525298,0.020991369141376105,-0.08309852647694264, ,0.0002993457136635346, ,0.0012332228533066297,0.0010143624802969509,-0.004733387389480305,4.93179304216884e-05,-0.0036578663625478985,-0.0014836483262917304, ,0.004995470551033517, ,0.003658198492215111, ,2.9771351515777207e-05, ,0.1325607097860637,-0.22022917337426035,0.09292843752,3.001292161093997,0.2544171625632501,-0.2240409209312708, ,0.007079953297636386,0.0009492593346438509,0.004957613295985062,0.0029366732648829354,0.0012160230355506628,0.0029705571066207205, ,1.0690817832946777
0.010736361565403824,0.021036521946096398,-0.08290369239123781, ,0.010935977322700572,0.021004648445739925,-0.0831765712397975, ,0.000339595695758052, ,0.0012684340057047083,0.0010527824100350883,-0.004973185787451308,-9.633811515042604e-05,-0.003882308939829137,-0.0016030337712717988, ,0.005239260683170391, ,0.0038835036622370325, ,3.005656072261984e-05, ,0.1326147689161833,-0.2202137279085119,0.09296473364,3.001292161093997,0.2544171625632501,-0.2240409209312708, ,0.00711179577298201,0.0011259695031838315,0.0052020938994121494,0.0029366732648829354,0.0012030237327579324,0.0027537798058857726, ,1.0851128101348877
0.01076504925105163,0.021058433978890914,-0.08300759647228596, ,0.010956834527566395,0.021017743276022443,-0.0832544138416013, ,0.0003152080890198087, ,0.0012270488728762493,0.0008884334826194365,-0.004302007829588066,-0.00012650935565180444,-0.00483243049468228,-0.002276682955757945, ,0.004560946651223099, ,0.0048340860180061795, ,3.028099790455018e-05, ,0.132776946306542,-0.2201905597098892,0.09307232571000001,3.001292161093997,0.2544171625632501,-0.2240409209312708, ,0.00785059287813201,0.001281181189063674,0.004485725575894115,0.0029366732648829354,0.0011624775457546165,0.002198463141107501, ,1.1015119552612305
0.010790057984116624,0.021077363591072422,-0.08310195249892707, ,0.01097779416667716,0.021030654517503952,-0.0833320550088369, ,0.0003006223159760974, ,0.001334434528658268,0.0010338751856401181,-0.005008475567304241,1.6686111484337057e-05,-0.006469692185409549,-0.0030392369755009373, ,0.005285304240915686, ,0.006469713459550566, ,3.0468034467090786e-05, ,0.13293140096402647,-0.22015966877839233,0.09317214004,3.0015018510374816,0.2544171625632501,-0.2237958847108491, ,0.00778771966398432,0.00143818837939497,0.0052397406315789485,0.0033531848412094814,0.001129258465707631,0.0004906118519538171, ,1.117400884628296
0.010803922143459209,0.0210878770284583,-0.08315677158295881, ,0.01099885580241455,0.021043383053778262,-0.08340949546650525, ,0.00032225487814979627, ,0.0014597881881575259,0.001207255494142418,-0.005792465785854778,-5.310630628648283e-05,-0.006654575412446065,-0.0030235961571287192, ,0.006094350438128701, ,0.006654786824433317, ,3.069460127973146e-05, ,0.13300862829276874,-0.22013650057976966,0.09322917680000001,3.0015018510374816,0.2544171625632501,-0.2237958847108491, ,0.00801929564369221,0.001481777415647488,0.006051980060790275,0.0033531848412094814,0.001112874456491415,0.0005462726931735873, ,1.1337738037109375
0.010830646858298602,0.02110784648468705,-0.08325872191182176, ,0.011020018997986967,0.02105592976675461,-0.08348673593812703, ,0.00030091119800194075, ,0.001269919732290162,0.0009950320386446334,-0.004715789085514083,-0.00020498930883089503,-0.0038765261236224425,-0.001886574771722453, ,0.004984119940716011, ,0.00388194192017727, ,3.087093117531305e-05, ,0.13316308295025323,-0.22009788691539853,0.09333547258000001,3.0015018510374816,0.2544171625632501,-0.22363252723056798, ,0.007459222990299052,0.0011123983504203211,0.004940698362282879,0.0033531848412094814,0.0010843024481144697,0.003070505169948103, ,1.1496119499206543
0.010844998404807982,0.021116637407537168,-0.08330852256213574, ,0.011041283317428914,0.021068295536657802,-0.08356377714574395, ,0.00032560651998344046, ,0.0011883740051038157,0.0006300301800773085,-0.004119836537044123,-0.00298037496431553,-0.0024571628356409103,-0.002260392403756186, ,0.004333846316585123, ,0.003862678208434207, ,3.1092163502093354e-05, ,0.1332480330118697,-0.22006699598390164,0.09338732418000001,3.001711540980966,0.2544171625632501,-0.22355084849042742, ,0.007412268332714926,0.0037078972523059495,0.004268170289389067,0.004006678287249873,0.0010672702616552389,0.004470319195505298, ,1.1666557788848877
0.010870199228658275,0.021131783838179895,-0.08338898348908261, ,0.011062648325600392,0.021080481242030626,-0.08364061980991998, ,0.00032091969283616574, ,0.0011957042331407289,0.0007915922497493207,-0.0038224276805545743,-0.0003997976903914396,-0.003296738286761596,-0.0020694047033613236, ,0.004082558055445589, ,0.0033208915532775846, ,3.1297889693968877e-05, ,0.13341793313510264,-0.2200283823195305,0.09347158303000001,3.001711540980966,0.2544171625632501,-0.22355084849042742, ,0.007952794867064489,0.0011404223489265967,0.004022427151515152,0.004006678287249873,0.0010370381883376405,0.004135368439758569, ,1.1849968433380127
0.010881279778559155,0.021138605432381517,-0.08342758042075299, ,0.0110841135881862,0.021092487759734265,-0.08371726464974183, ,0.0003566305463404368, ,0.0011510042431988124,0.0007537099634022332,-0.004199159273048454,-0.001725850871101891,-0.0022755490005193836,-0.00230367177091416, ,0.004418803919300141, ,0.002855990752338516, ,3.1630258214001606e-05, ,0.13348743773097066,-0.22000521412090784,0.09351176802000001,3.001711540980966,0.2544171625632501,-0.22355084849042742, ,0.006823050614912371,0.002489536343921386,0.004370044312757203,0.004006678287249873,0.001024089237732363,0.004014110965333457, ,1.1984529495239258
0.010908638670340679,0.021158446038365225,-0.08353486250222746, ,0.011105678671695408,0.021104315964949983,-0.08379371238282189, ,0.0003297849112157274, ,0.0013193505812692384,0.0011096218527111709,-0.0054683908625833355,-0.0005136231716406968,-0.004607014901543772,-0.0029567569679970446, ,0.0057336938563455385, ,0.00463555715913608, ,3.190263829558082e-05, ,0.13363416965558092,-0.21995115499078827,0.09362324896000002,3.0019212309244505,0.2544171625632501,-0.2233874910101463, ,0.006789463793616552,0.0016966300974652834,0.0056990381109123436,0.0036281253609238757,0.0009954810204219297,0.0014261902698319675, ,1.2147548198699951
0.010923125521685777,0.021168483867317588,-0.08359375698147312, ,0.011127343143460608,0.021115966731180203,-0.08386996372529733, ,0.0003474953984809211, ,0.0014075708703465886,0.0009332202539324883,-0.005350718046188391,-0.0026516121165623945,-0.0038791843360832887,-0.0022325261757024607, ,0.005610912528921136, ,0.004698841723669591, ,3.2202791312325894e-05, ,0.13371139698432316,-0.21991254132641713,0.09368417459000002,3.0019212309244505,0.2544171625632501,-0.22330581227000573, ,0.00800249213080936,0.003408696984563393,0.005553978912133891,0.0036281253609238757,0.0009821678679228678,0.003632886425304384, ,1.2287888526916504
0.010951144653768178,0.021190465427429046,-0.08370550385057386, ,0.011149106571637453,0.02112744093025002,-0.08394601939183297, ,0.0003178187120959216, ,0.001423453065176112,0.0009552137977559395,-0.005728995174328447,-0.004796050146404915,-0.00021395000674002105,-0.0008095400475759097, ,0.005979969710262856, ,0.004800819246825759, ,3.2439677175865755e-05, ,0.13386585164180764,-0.21985848219629756,0.09380084069000001,3.0019212309244505,0.25455379906301556,-0.22333555143356157, ,0.007557935411753815,0.00401691222641576,0.0059236933878765346,0.0036281253609238757,0.00015682267093314133,0.007418980658812891, ,1.24360990524292
0.010958268136661349,0.021194880680329785,-0.08373040258702964, ,0.01117096852520382,0.02113873943230807,-0.08402188009562148, ,0.00036517452407096513, ,0.0013878752697713953,0.0009139570580358281,-0.005483110703250388,-0.004225486227143816,-0.0007426181909889483,-0.002777895535792454, ,0.0057293994670013625, ,0.0042902459926357035, ,3.2760234433414194e-05, ,0.13390446530617878,-0.2198430367305491,0.09382676649,3.0021309208679354,0.25455379906301556,-0.223253872693421, ,0.007481840864932621,0.0038606628976287608,0.0056726536752136755,0.005202825061616954,0.00015682267093314133,0.006341805360265309, ,1.2591979503631592
0.010990079676483496,0.02121311723141822,-0.08384558403683286, ,0.011192928573959402,0.02114986310582856,-0.08409754654838564, ,0.00032959652127910683, ,0.0011969310971323395,0.00058781581058025,-0.0041993930778537365,-0.0060599642359640896,-0.004797360971453493,0.00943752917717889, ,0.004406026974585655, ,0.007729025651763663, ,3.300751159824435e-05, ,0.13408981089516017,-0.21975036393605843,0.09394602517,3.00234061081142,0.25455379906301556,-0.22309051521313988, ,0.007605406705771221,0.004207576854651938,0.0043343704816326545,-0.008010050813188844,0.00015682267093314133,0.0051482953061143056, ,1.2727298736572266
0.011003433742084758,0.021221153114453616,-0.08389569699887578, ,0.011214986288524915,0.021160812817611258,-0.08417301946037793, ,0.00035398189075424707, ,0.0013664373498876556,0.0008468883649558052,-0.005467137107256822,-0.006318702559271333,-0.004916164466231215,0.009325694746520213, ,0.005698592728333023, ,0.008005914701475696, ,3.329416016656196e-05, ,0.1341670382239024,-0.2197117502716873,0.09399787677000002,3.00234061081142,0.25455379906301556,-0.22309051521313988, ,0.00757791385444636,0.004500544165980296,0.00563851735221239,-0.008010050813188844,0.00015682267093314133,0.0049816954497383485, ,1.2859559059143066
0.011019328714528081,0.02123163838436966,-0.08395967782969588, ,0.011237141240341558,0.02117158943278419,-0.0842482995403839, ,0.0003665387631182314, ,0.0015499599909355904,0.0011494138200498025,-0.00636431218897786,-0.005069489884393517,-0.006320362376288819,0.009136189031526113, ,0.006650413351213193, ,0.008102264980498238, ,3.3597385261323525e-05, ,0.13425198828551888,-0.21966541387444197,0.09406398756,3.00234061081142,0.25455379906301556,-0.22300883647299932, ,0.008296032712826848,0.0033918210572155367,0.006598513471416737,-0.008010050813188844,0.00015682267093314133,0.004201977952908593, ,1.3010928630828857
0.011049817494731681,0.02124967713663051,-0.0840777692420189, ,0.011259393001670346,0.02118219381480392,-0.08432338749572127, ,0.00032985484441667675, ,0.001518373781132418,0.0008377485033134262,-0.005971119006942005,-0.008571980425777516,-0.0016209383949217886,0.010927619233786792, ,0.006217840757779047, ,0.008723891454471468, ,3.382808765853348e-05, ,0.13442188840875183,-0.21956501834707703,0.09418583882,3.00234061081142,0.25455379906301556,-0.22276380025257764, ,0.008516223601927895,0.005879578933162494,0.006140636669236701,-0.007740549247966829,0.00015682267093314133,0.009721170863408232, ,1.3141148090362549
0.01106529047644556,0.021257639298863075,-0.08413705043000815, ,0.011281741145591545,0.021192626825457108,-0.08439828403224245, ,0.0003454280081412286, ,0.0015906287617402444,0.0008313927999203403,-0.005788398683424451,-0.0065425283552957595,-0.0002068483790758132,-0.0011644870127955472, ,0.00606027005699454, ,0.006545796898284325, ,3.408157428164741e-05, ,0.1345145612032425,-0.21950323648408324,0.09424676445,3.0021309208679354,0.25455379906301556,-0.22268212151243708, ,0.009306947044501857,0.005559652386977994,0.0059725577502812155,0.004563513866983859,0.00015682267093314133,0.00918187238292763, ,1.3275339603424072
0.011100034380950061,0.021275770697835126,-0.08425455150207777, ,0.01130418524600394,0.021202889324861786,-0.0844729898543358, ,0.00030774109892233993, ,0.0018826952155176695,0.0009490358849180039,-0.006190736933757931,-0.005519422166059137,0.00048595239878605236,-0.008677476019332615, ,0.006539910868535577, ,0.0055407726616398395, ,3.4263355361282013e-05, ,0.13472307499084657,-0.21940284095671833,0.09436861571,3.002550300754904,0.25455379906301556,-0.22260044277229651, ,0.011822217710037471,0.005351465005607351,0.006425498797902381,0.013049159949332602,0.00015682267093314133,0.01072703596310355, ,1.3436558246612549
0.0111192748090686,0.021285562165938077,-0.08431825975474891, ,0.011326724877624263,0.021212982171469087,-0.08454750566492608, ,0.00031758002751090624, ,0.0017168397896965924,0.0009326959369226999,-0.005685825512655255,-0.004208785547694854,0.0005588438772136093,-0.008814893344672763, ,0.00601216037166333, ,0.0042457244756466984, ,3.445847713017263e-05, ,0.13484663871683417,-0.21934878182659875,0.09443472650000001,3.002550300754904,0.25455379906301556,-0.22260044277229651, ,0.010675476479574935,0.004228261015033951,0.005914894734496844,0.012825988361319636,0.00015682267093314133,0.009563315149207193, ,1.3575468063354492
0.011134703839282382,0.02129224458160672,-0.08436843272310407, ,0.011349359615986696,0.021222906222063357,-0.08462183216547606, ,0.00033925829093941215, ,0.0014963084813877587,0.000549562945596627,-0.004797307266747847,-0.006670653428279607,0.0030170176532633613,-0.007276193699933294, ,0.005055206772649115, ,0.0073212027795588755, ,3.468693821320432e-05, ,0.13494703424419907,-0.21929472269647918,0.09448657810000001,3.002550300754904,0.25455379906301556,-0.2224370852920154, ,0.009527846579939398,0.006225936703920416,0.004939166362790698,0.011740913248040746,0.00015682267093314133,0.01131991045297608, ,1.3715968132019043
0.011162605710826012,0.021302116263589133,-0.084456572866329, ,0.011372089037441965,0.0212326623317648,-0.084695970055988, ,0.000325604249346614, ,0.0013688403193706736,0.0005451901412855207,-0.004041621483128829,-0.00388898480147314,-0.002366505573766012,-0.007915814868228071, ,0.004301820582378838, ,0.004552422469230957, ,3.488742050000873e-05, ,0.13513237983318047,-0.2191788817033658,0.09457731840000001,3.002550300754904,0.25455379906301556,-0.22235540655187483, ,0.009265974525203717,0.004358618683808515,0.0041951044298130106,0.009990221054397773,0.00015682267093314133,0.0053432125887110495, ,1.385765790939331
0.011177670483677713,0.021307749887094614,-0.08449897047152559, ,0.011394912719157005,0.02124225135402939,-0.08476992003500429, ,0.0003534089878017179, ,0.0016655902754473728,0.0005875265703745533,-0.004451093440908496,-0.005551391249944886,-0.0009993525650334731,-0.005208676184479981, ,0.004788696195861622, ,0.005640624842341502, ,3.513080642028181e-05, ,0.13524049809341962,-0.21913254530612047,0.09462139226,3.002550300754904,0.25455379906301556,-0.22227372781173427, ,0.012076343708710085,0.004982486171871963,0.004637208593886464,0.009297998926182237,0.00015682267093314133,0.010257447224373106, ,1.3989617824554443
0.011195438713286045,0.021314974715703427,-0.08455138654570395, ,0.011417830239114071,0.021251674140651534,-0.08484368279960924, ,0.00037269565815701124, ,0.0017230838333481388,0.0007272266268438779,-0.005250419361317998,-0.005066910022265572,-0.004992934946717995,-0.006841924864440969, ,0.005573578736614325, ,0.007113576636680037, ,3.546085939524932e-05, ,0.135356339086533,-0.2190784861760009,0.09467194757000001,3.002550300754904,0.25455379906301556,-0.2221920490715937, ,0.011498631563339298,0.005401273558559446,0.005395938861788619,0.008709672655340953,0.00015682267093314133,0.005242254736316907, ,1.4111018180847168
0.011208621605164119,0.021321477953488915,-0.08459217116886084, ,0.011440841176110297,0.021260931541764186,-0.08491725904543025, ,0.0004040716824965333, ,0.0016535526489123674,0.0006979737875957162,-0.00505676478213074,-0.005325931987311652,-0.0072924195959443265,0.0012829107414829965, ,0.00536584325457738, ,0.009030223241444174, ,3.583754940441923e-05, ,0.13544901188102368,-0.21903214977875554,0.09471861401000001,3.002759990698389,0.254690435562781,-0.22230346697529013, ,0.011208597684023021,0.005249407259201792,0.005246644110671937,0.0,0.0007329522311356323,0.0043338164869719965, ,1.4226329326629639
0.01124677176793788,0.021340470111236316,-0.08471706194628612, ,0.011463945109757045,0.02127002440584086,-0.08499064946663847, ,0.0003563383070876813, ,0.0019009128018162877,0.0011389471982506884,-0.007050345866904205,-0.004353906714067892,-0.003540870731247234,-0.0076632042620498695, ,0.0073904023600535685, ,0.005611973965553463, ,3.612939546713025e-05, ,0.13568841660012462,-0.2189240315185164,0.09484824301000001,3.0029696806418733,0.254690435562781,-0.22205843075486845, ,0.010629645704494407,0.005337402432172077,0.007303444071526824,0.009768601182085323,0.0007329522311356323,0.00552677850190358, ,1.434398889541626
0.011266686164028764,0.02135396155307813,-0.08479455525770371, ,0.011487141620479233,0.02127895357969617,-0.08506385475595069, ,0.00035601829181339045, ,0.002023549608970597,0.0014003716563997593,-0.007613881522471732,-0.003365264097531126,-0.0018421815152624586,-0.0063800531246436445, ,0.00800168642438888, ,0.0038364840145172735, ,3.641594990255139e-05, ,0.13578881212748956,-0.21887769512127106,0.09492342783,3.0029696806418733,0.254690435562781,-0.22197675201472788, ,0.011039463360293761,0.003849631807832185,0.007909042462760677,0.009768601182085323,0.0007329522311356323,0.008077931951224266, ,1.4472429752349854
0.0112751154446099,0.021359958162724995,-0.08482695629902642, ,0.011510430289514673,0.021287719908487993,-0.08513687560463, ,0.0003957795062829427, ,0.002089091078726576,0.0014810824343911865,-0.008080047721843705,-0.004423533534211968,0.0017329859693353089,-0.004609651215452246, ,0.008476147586017408, ,0.004750879377304428, ,3.6762302830866115e-05, ,0.13584287125760913,-0.21886224965552262,0.09496231653000001,3.0029696806418733,0.254690435562781,-0.22189507327458732, ,0.01115290584172612,0.0041123926937650275,0.008401271898734177,0.009724575597150835,0.0007329522311356323,0.012119084619678932, ,1.4619457721710205
0.011303649286592525,0.021376139430541514,-0.08492822327532885, ,0.011533810698913523,0.02129632423571795,-0.08520971270248755, ,0.0003722647426878474, ,0.001632584983345414,0.0006861085682661708,-0.0051088735501725055,-0.006249835786233398,0.0035083569236381337,-0.0030766352386613297, ,0.005407094196233817, ,0.007167217882703892, ,3.70652822979618e-05, ,0.13613633510682965,-0.21872324046378655,0.09511787133,3.0029696806418733,0.254690435562781,-0.22165003705416564, ,0.011477680405871223,0.005875326755566362,0.004663001030444965,0.008055017363894478,0.0007329522311356323,0.013324709633603611, ,1.4735958576202393
0.011338426222109399,0.021386823906790833,-0.0850259950929402, ,0.01155728243153763,0.02130476740323314,-0.08528236673788321, ,0.00034692611679173254, ,0.0017464418252913453,0.0005935384788216189,-0.004948348139803646,-0.006034007690577523,-0.002900645183510676,-0.004312477757779606, ,0.005280956001300054, ,0.0066949972609168275, ,3.732301707515785e-05, ,0.13625989883281725,-0.21865373586791853,0.09516842664000001,3.0029696806418733,0.254690435562781,-0.22156835831402508, ,0.012146031173489155,0.0061492573774696736,0.005130052019323672,0.007525009896672487,0.0007329522311356323,0.00852930178027334, ,1.4847757816314697
0.011338426222109399,0.021386823906790833,-0.0850259950929402, ,0.011580845071059935,0.02131305025122729,-0.08535483839772746, ,0.0004151474071761958, ,0.0017464418252913453,0.0005935384788216189,-0.004948348139803646,-0.006034007690577523,-0.002900645183510676,-0.004312477757779606, ,0.005280956001300054, ,0.0066949972609168275, ,3.7684618850158496e-05, ,0.13625989883281725,-0.21865373586791853,0.09516842664000001,3.0029696806418733,0.254690435562781,-0.22156835831402508, ,0.012146031173489155,0.0061492573774696736,0.005130052019323672,0.007525009896672487,0.0007329522311356323,0.00852930178027334, ,1.4995408058166504
0.011354611272581663,0.021392653092948518,-0.08507222158618383, ,0.01160449820196374,0.021321173618241887,-0.08542712836748206, ,0.00043989955238873984, ,0.0018666764098439292,0.0007500792503235007,-0.005729134741119798,-0.008095442473450443,0.00035267185201018217,0.003958709906437232, ,0.00607207415820488, ,0.008103120393025885, ,3.807940135900927e-05, ,0.1363680170930564,-0.21859967673779898,0.09521638937000002,3.0031793705853578,0.254690435562781,-0.22148667957388452, ,0.012445500532258465,0.006329988054430737,0.005934728584202684,0.001416213289935694,0.0007329522311356323,0.014065588826346617, ,1.5110929012298584
0.011391208493045004,0.021409366293157536,-0.08519382315329155, ,0.011628241409542219,0.02132913834116772,-0.08549923733116135, ,0.0003948404080480432, ,0.0018571746239704826,0.0007199195845757362,-0.00630431802517962,-0.008489687533826009,-0.001927359290165983,-0.0004921930557819799, ,0.006611490569817087, ,0.008705716414917668, ,3.839784902451238e-05, ,0.13658425361353468,-0.21847611301181138,0.09533953692000001,3.0033890605288422,0.254690435562781,-0.22148667957388452, ,0.010589076883588395,0.006939508216679266,0.006533556817063167,0.003797160943652402,0.0007329522311356323,0.01097114503987468, ,1.5221848487854004
0.011428176414656764,0.02142635861487667,-0.08531875313375033, ,0.011652074279897761,0.02133694525524551,-0.08557116597133362, ,0.00034905192094709155, ,0.002030350509551336,0.0008526657793521942,-0.006777795651658057,-0.009530669984696379,-0.0055782717504723085,-0.001831257432984761, ,0.007126561303921304, ,0.011043132335338952, ,3.864060431944984e-05, ,0.13682365833263563,-0.21832165835432688,0.0954717585,3.0033890605288422,0.2549637085623119,-0.22146447916085568, ,0.012509483464074713,0.007577505911238387,0.006986320842105265,0.003797160943652402,-0.001176854335683758,0.007113010285420241, ,1.5357129573822021
0.011446901299627986,0.021434409696304463,-0.08538158826882229, ,0.011675996399941132,0.021344595194068377,-0.0856429149691224, ,0.00035894686805869384, ,0.0021639320328390335,0.0008858672600669691,-0.007001733799818113,-0.010002482761121144,-0.0055366178452167705,-0.0012719170012514738, ,0.007381845219775393, ,0.01143257546323985, ,3.889481267291831e-05, ,0.136939499325749,-0.21825215375845886,0.09553657300000001,3.0033890605288422,0.2549637085623119,-0.22130112168057456, ,0.013671940867089867,0.007786414559506693,0.007227228457350273,0.003797160943652402,-0.001176854335683758,0.008479651761756224, ,1.547813892364502
0.011470816988558017,0.021444095456298995,-0.08545409309671155, ,0.011700007357391283,0.0213520889895818,-0.08571448500420759, ,0.00035888349164197415, ,0.00203977184394463,0.0007668012237153944,-0.006080083438935096,-0.00946191577291728,-0.0007255200560296305,-0.0025646761513333652, ,0.006458797714470823, ,0.009489690255034797, ,3.914505533391889e-05, ,0.13709395398323349,-0.21817492642971661,0.09561175782,3.0035987504723267,0.2549637085623119,-0.22105608546015287, ,0.013589709517180408,0.006828812288392545,0.006295972932806325,0.007278666531279288,-0.001176854335683758,0.012990526581993306, ,1.559156894683838
0.01149085901701059,0.021448471813519263,-0.08551526762004061, ,0.011724106740774266,0.021359427472085777,-0.08578587675482645, ,0.00036818840178881314, ,0.00200082328604847,0.0005619100353553147,-0.0060621403691053875,-0.009501341660533083,0.004909604808363475,8.237262768249999e-06, ,0.006408477398303282, ,0.010694844764529787, ,3.940557364980895e-05, ,0.1372252404420953,-0.21808225363522593,0.09567397974000001,3.0035987504723267,0.25482707206254646,-0.2208629888163159, ,0.013202134329225205,0.009366172570105923,0.006231929389671363,0.007278666531279288,0.002427005060308628,0.01839510458403703, ,1.5701518058776855
0.011511224007402678,0.021456642180047607,-0.08557620468096572, ,0.011748294139422903,0.021366611470235653,-0.08585709089777495, ,0.0003784241575253009, ,0.0020635268112510503,0.000798195250200192,-0.006147350335766675,-0.004979175839993517,0.004298935821585855,0.000811472929064937, ,0.006533389220675952, ,0.006578224111779325, ,3.967753210449599e-05, ,0.13749553609269316,-0.21792007624486723,0.09580101616000002,3.0035987504723267,0.25510034506207735,-0.22100414588356818, ,0.012804876745172148,0.007989568273105848,0.005748398238902924,0.006573766982865857,0.01154050033649429,0.009112187832226004, ,1.582143783569336
0.011530967757483237,0.021464135532297028,-0.08563739259281976, ,0.011772569143476007,0.021373641811043464,-0.08592812810840975, ,0.0003886997341461931, ,0.001883731677144971,0.0006470161981252263,-0.005533923042416592,0.002473486784810919,-0.001803885170818833,-0.0016181292363529956, ,0.005881443634984963, ,0.0030613940279153274, ,4.002028859589422e-05, ,0.13749553609269316,-0.21792007624486723,0.09580101616000002,3.0035987504723267,0.25510034506207735,-0.22100414588356818, ,0.012804876745172148,0.007989568273105848,0.005748398238902924,0.006573766982865857,0.01154050033649429,0.009112187832226004, ,1.591261863708496
0.011550918861008652,0.02146974666389254,-0.0856952737920024, ,0.011796931343877933,0.02138051931987928,-0.0859989890606476, ,0.0004009072524355161, ,0.0018192928284119772,0.0006074097408625744,-0.005465183750711085,0.003805117992667966,-0.011279533830671968,-0.0026881624454747457, ,0.005791977763928525, ,0.011904066595069367, ,4.0377068000415604e-05, ,0.13762682255155498,-0.21783512618325074,0.09586064550000001,3.0038084404158116,0.25510034506207735,-0.22092246714342761, ,0.012252671602126633,0.008214281009383024,0.005664584466571835,0.0029714681831578,0.01154050033649429,-0.001380567244399434, ,1.6001079082489014
0.011570885594365518,0.021475347653729326,-0.08575315280864867, ,0.011821380332377673,0.021387244820472426,-0.08606967442696888, ,0.00041315331036276395, ,0.002140178112283337,0.0007798226072389439,-0.00673541354145235,0.0018125679100894246,-0.006948969155199604,-0.009036828864726794, ,0.007110153389726363, ,0.007181473448168362, ,4.0747679249842856e-05, ,0.1377581090104168,-0.21775017612163428,0.09592027484000001,3.0040181303592957,0.25510034506207735,-0.22084078840328705, ,0.01366013265560253,0.009396254870105336,0.006967984041994751,0.01125609060924407,0.010482700158133794,0.003262928607493762, ,1.6094119548797607
0.011593421720038338,0.02148468664862807,-0.08582456633102246, ,0.011845915701528527,0.021393819134913093,-0.08614018487841678, ,0.00041427669883401175, ,0.002325405317779868,0.0010427540468480783,-0.007352516597247487,0.0016689283159685574,-0.008083346711565884,-0.006301497051585608, ,0.007781667315362222, ,0.008253835126534373, ,4.111559430377351e-05, ,0.13789711820215284,-0.21767294879289203,0.09599416337000001,3.00422782030278,0.25510034506207735,-0.2205140734427248, ,0.014597283734574801,0.007662560303090282,0.007647053058089295,0.008801744127279165,0.009401967645221249,0.004021415427737789, ,1.6183228492736816
0.011623401641054227,0.021495639443667065,-0.08591881716026675, ,0.011870537044687239,0.02140024308365262,-0.08621052108459983, ,0.00039404003946829106, ,0.0024275608123760237,0.001007463346645959,-0.007992686765841438,-0.004577556210988676,0.007447320600426512,0.0009869091990549637, ,0.008413743259065829, ,0.008741657301210085, ,4.144976848463698e-05, ,0.13809018652400845,-0.21755710779977866,0.09609138512000001,3.00422782030278,0.25510034506207735,-0.22026903722230312, ,0.014927944243899762,0.009763179752921526,0.008266119107420863,0.008801744127279165,0.00835372532857294,0.021961800628839588, ,1.6326918601989746
0.011650760839381553,0.021507002340501992,-0.08600628496981425, ,0.01189524395601354,0.021406517485506107,-0.08628068371369252, ,0.00038100376775513414, ,0.0025082101958350317,0.0009034413825574337,-0.007772745315274856,-0.01564976448744597,0.004204849648662343,0.02285330011855455, ,0.008217231556572767, ,0.016204809801708294, ,4.176120798364796e-05, ,0.1382600866472414,-0.2174489895395395,0.09618212542000001,3.004437510246265,0.2552369815618427,-0.22029877638585893, ,0.01663107983849821,0.009561376710924682,0.008024590186397985,-0.012972336595398442,0.0007499030589224299,0.026698978098830373, ,1.6417567729949951
0.011673661817867907,0.021516101056183547,-0.0860747105026892, ,0.011920036030469428,0.021412643157652508,-0.08635067343243685, ,0.0003841345181032147, ,0.002220228027786562,0.0007995239762629423,-0.00663125087271011,-0.004016754995521455,-0.006372440123751722,0.017941806721454644, ,0.007038617706681256, ,0.007532748568896487, ,4.2073567244322235e-05, ,0.13841454130472589,-0.21736403947792304,0.09625342137000001,3.004437510246265,0.2553736180616082,-0.22024683680927426, ,0.015244488603770407,0.008645622342940962,0.006880696120950325,-0.012972336595398442,0.00880056623789389,0.011906161832894172, ,1.6508948802947998
0.011697983905266352,0.02152317371992453,-0.08614344623725283, ,0.011944912863818503,0.021418620915636663,-0.0864204909061431, ,0.00038556315697512437, ,0.0023741440126262034,0.000547307633467521,-0.0065215495185519026,-0.007331012190297587,-0.009693748929507699,0.016782143113328787, ,0.006961803901379671, ,0.012153702984938437, ,4.23843954102705e-05, ,0.13858444142795884,-0.21725592121768392,0.09632471732,3.004437510246265,0.25551025456137366,-0.22027657597283012, ,0.017129411833658986,0.011049362420428152,0.006732380185967879,-0.012972336595398442,0.007562106751697246,0.01046274872904341, ,1.6604559421539307
0.011697983905266352,0.02152317371992453,-0.08614344623725283, ,0.011969874052625527,0.02142445157337022,-0.08649013679869155, ,0.00045151374269448703, ,0.0023741440126262034,0.000547307633467521,-0.0065215495185519026,-0.007331012190297587,-0.009693748929507699,0.016782143113328787, ,0.006961803901379671, ,0.012153702984938437, ,4.278549948004775e-05, ,0.13858444142795884,-0.21725592121768392,0.09632471732,3.004437510246265,0.25551025456137366,-0.22027657597283012, ,0.017129411833658986,0.011049362420428152,0.006732380185967879,-0.012972336595398442,0.007562106751697246,0.01046274872904341, ,1.6698768138885498
0.011716893942508303,0.021527847830540955,-0.08619494613099293, ,0.011994919194255566,0.021430135943132738,-0.0865596117725334, ,0.0004688567837518513, ,0.002394614935795102,0.0006058429712446078,-0.006245379747706962,-0.0014800082165818207,-0.010009561914514402,-0.011876489631837473, ,0.006716099656021175, ,0.010118386459317582, ,4.3206595358168905e-05, ,0.13872345061969488,-0.21717869388894165,0.09637786521000001,3.00422782030278,0.25551025456137366,-0.22019489723268956, ,0.017077009458065645,0.009811054489022026,0.006483032771672773,0.013710712451345827,0.007243822352549085,0.003567379927890777, ,1.6796319484710693
0.011767440281647766,0.021540405884564982,-0.08633312591504558, ,0.012020047886873563,0.02143567483557372,-0.08662891648869214, ,0.0004028290683390241, ,0.002600140192044741,0.0006447439128178358,-0.007164772454078466,-0.0036106973165660147,-0.016843198312643737,-0.012734239637020221, ,0.007649208328325467, ,0.01722586559887387, ,4.353008718222847e-05, ,0.1390786963319092,-0.2169701801013376,0.09652045711000001,3.00422782030278,0.25551025456137366,-0.21954146731156504, ,0.017935539890090866,0.011467908345434534,0.007401864089219333,0.011444170951631008,0.005858028974188117,-0.0024441923645930506, ,1.6889209747314453
0.011793194641337566,0.021546761966155875,-0.08640452429129798, ,0.012045259729443486,0.021441069059712645,-0.08669805160676466, ,0.00040108114395884985, ,0.0025666265743057104,0.0005888216711001874,-0.007404742055399007,-0.017224727307611067,0.017511175734573448,0.001772088697322837, ,0.007859038607825018, ,0.02456282728367034, ,4.384751486786474e-05, ,0.13924859645514212,-0.21684661637535002,0.09659434564000001,3.0046472001897495,0.2556468910611391,-0.2193261702546992, ,0.01703409469726634,0.012051935681797151,0.007603251322195704,0.012519498140920094,1.1845272357297925e-05,0.03612796418171701, ,1.6976909637451172
0.011818984908673981,0.021555219846139034,-0.08647943085835916, ,0.012070554321727966,0.021446319422941673,-0.08676701778492232, ,0.00039730682360983777, ,0.0027231383753772904,0.0009260283389088547,-0.0082049065830549,0.0010022753071232127,-0.003766431271197865,-0.013312850473854816, ,0.008694452434315365, ,0.003897502165091164, ,4.415616127139517e-05, ,0.13941849657837507,-0.21673849811511087,0.09667212304000002,3.004856890133234,0.25578352756090456,-0.21927423067811452, ,0.017518357311883104,0.01149835612628547,0.008499899423692638,0.018326342177756888,0.011981615407438983,0.009319211997422359, ,1.7069058418273926
0.011818984908673981,0.021555219846139034,-0.08647943085835916, ,0.012095931264287494,0.021451426731025566,-0.08683581567991283, ,0.00046312248451830514, ,0.0027231383753772904,0.0009260283389088547,-0.0082049065830549,0.0010022753071232127,-0.003766431271197865,-0.013312850473854816, ,0.008694452434315365, ,0.003897502165091164, ,4.455242384322467e-05, ,0.13941849657837507,-0.21673849811511087,0.09667212304000002,3.004856890133234,0.25578352756090456,-0.21927423067811452, ,0.017518357311883104,0.01149835612628547,0.008499899423692638,0.018326342177756888,0.011981615407438983,0.009319211997422359, ,1.7173418998718262
0.011875822286933057,0.02156846577803694,-0.08663944530858014, ,0.01212139015847982,0.021456391788103883,-0.08690444594706057, ,0.00037827172396381203, ,0.002714631115163101,0.0006993660991887018,-0.00744880296532587,-0.004552130349877032,-0.03324751326075338,0.0272771043599863, ,0.007958831613267965, ,0.03355769667028333, ,4.4827612328219043e-05, ,0.13979691048921208,-0.21648364793026145,0.09683675187000002,3.005276270020203,0.25578352756090456,-0.21927423067811455, ,0.01984461345848406,0.011752397110000925,0.007713710179176756,-0.03212439629509124,0.009971261868673498,-0.008875271531697516, ,1.727221965789795
0.011875822286933057,0.02156846577803694,-0.08663944530858014, ,0.012146930606459326,0.021461215396691977,-0.08697290924026849, ,0.0004429453227567098, ,0.002714631115163101,0.0006993660991887018,-0.00744880296532587,-0.004552130349877032,-0.03324751326075338,0.0272771043599863, ,0.007958831613267965, ,0.03355769667028333, ,4.525016367859172e-05, ,0.13979691048921208,-0.21648364793026145,0.09683675187000002,3.005276270020203,0.25578352756090456,-0.21927423067811455, ,0.01984461345848406,0.011752397110000925,0.007713710179176756,-0.03212439629509124,0.009971261868673498,-0.008875271531697516, ,1.7337849140167236
0.011905060240501093,0.021573959631072268,-0.08671624480778205, ,0.012172552211176465,0.021465898357682013,-0.08704120621201888, ,0.000434544712804211, ,0.0027999972753130625,0.0004927672886035402,-0.007544768028106423,-0.007006541109705005,-0.03201047937150986,0.020064314443527187, ,0.008062650242966958, ,0.03276831371109331, ,4.565779563189109e-05, ,0.14000542427681614,-0.21635236147139963,0.09691582556000002,3.005276270020203,0.25578352756090456,-0.21919255193797396, ,0.02042111933687772,0.014155271712182395,0.007766363490980011,-0.024976864391369962,0.008994296357981477,-0.008415769713001241, ,1.740433931350708
0.011933066442706267,0.021579973111757224,-0.08679008895155492, ,0.012198254576377117,0.021470441470344537,-0.08710933751337556, ,0.00042923370200268846, ,0.002894141836174837,0.0005880314418006995,-0.007917854728131965,-0.015281499780680911,-0.025402099718650626,0.017976367683135215, ,0.008450695914553153, ,0.02964440713766022, ,4.605488845132997e-05, ,0.14020621533154598,-0.21622107501253782,0.09699230667000001,3.005276270020203,0.2559201640606699,-0.2192222911015298, ,0.020625286146157527,0.01320764670264033,0.008143564171779142,-0.020617824139545042,0.0005300665925330314,-0.00048052603298149167, ,1.747201919555664
0.011933066442706267,0.021579973111757224,-0.08679008895155492, ,0.012224037306601878,0.021474845532329555,-0.08717730379398295, ,0.0004956321073024233, ,0.002894141836174837,0.0005880314418006995,-0.007917854728131965,-0.015281499780680911,-0.025402099718650626,0.017976367683135215, ,0.008450695914553153, ,0.02964440713766022, ,4.65386062347514e-05, ,0.14020621533154598,-0.21622107501253782,0.09699230667000001,3.005276270020203,0.2559201640606699,-0.2192222911015298, ,0.020625286146157527,0.01320764670264033,0.008143564171779142,-0.020617824139545042,0.0005300665925330314,-0.00048052603298149167, ,1.7560629844665527
0.01199698302823235,0.021597312587732523,-0.08698578585056821, ,0.01224990000718543,0.021479111339668202,-0.08724510570206992, ,0.00038103191292801876, ,0.003216279342906217,0.0009794636098221393,-0.01003975366518792,-0.013626218450429165,-0.013961127559358612,-0.004587850717743418, ,0.010587750253581983, ,0.019508634241892718, ,4.6863964852303646e-05, ,0.14061552017387988,-0.2159276111633173,0.09719323162000001,3.005276270020203,0.2559201640606699,-0.21905893362124867, ,0.02011380702807774,0.014119467573050258,0.010323273830200909,0.005302097082767357,0.0007249162163309339,0.005578962275176236, ,1.7655248641967773
0.01199698302823235,0.021597312587732523,-0.08698578585056821, ,0.012275842284256159,0.02148323968677308,-0.08731274388444925, ,0.00044460844270302575, ,0.003216279342906217,0.0009794636098221393,-0.01003975366518792,-0.013626218450429165,-0.013961127559358612,-0.004587850717743418, ,0.010587750253581983, ,0.019508634241892718, ,4.727204075585548e-05, ,0.14061552017387988,-0.2159276111633173,0.09719323162000001,3.005276270020203,0.2559201640606699,-0.21905893362124867, ,0.02011380702807774,0.014119467573050258,0.010323273830200909,0.005302097082767357,0.0007249162163309339,0.005578962275176236, ,1.7721829414367676
0.012030418250758512,0.021605184823887607,-0.08708294462886851, ,0.01230186374473515,0.021487231366440922,-0.08738021898651947, ,0.0004194850629529512, ,0.0031093740444655456,0.0006200064975469847,-0.008977755477662396,-0.01631362978382805,-0.0012838969044874605,-0.006828648217468579, ,0.009521171588732853, ,0.016364071915702626, ,4.764325591719958e-05, ,0.14083175669435816,-0.2157731565058328,0.09729304595,3.005485959963688,0.2559201640606699,-0.21889557614096755, ,0.020355414319706302,0.015475691708817803,0.009202086377816292,0.01308995771153754,0.0007780165617984051,0.018327263108637255, ,1.7795288562774658
0.01206050629720936,0.02161202925570946,-0.08716704756264564, ,0.012327963996335872,0.021491087169852343,-0.08744753165226632, ,0.0004059949919443113, ,0.0031614988941752083,0.0005489940027198961,-0.008866931757016373,-0.01792695988054306,0.005493362528963113,-0.004863885962757451, ,0.00942968443037618, ,0.018749743134835996, ,4.7993542500678555e-05, ,0.141032547749088,-0.21562642458122253,0.09737989738000001,3.005695649907172,0.2560568005604354,-0.2187619578242423, ,0.021041450456423676,0.016000158752060494,0.009086600981175131,0.014602160261324229,0.0010350297245834,0.026384449752180086, ,1.7860729694366455
0.01206050629720936,0.02161202925570946,-0.08716704756264564, ,0.012354142647563368,0.02149480788657461,-0.08751468252426295, ,0.0004699076740911354, ,0.0031614988941752083,0.0005489940027198961,-0.008866931757016373,-0.01792695988054306,0.005493362528963113,-0.004863885962757451, ,0.00942968443037618, ,0.018749743134835996, ,4.8425806488197254e-05, ,0.141032547749088,-0.21562642458122253,0.09737989738000001,3.005695649907172,0.2560568005604354,-0.2187619578242423, ,0.021041450456423676,0.016000158752060494,0.009086600981175131,0.014602160261324229,0.0010350297245834,0.026384449752180086, ,1.7929089069366455
0.012092163510821232,0.02161879785106442,-0.0872519968974776, ,0.012380399307713758,0.02149839430456122,-0.08758167224367229, ,0.000454161559920479, ,0.0032354394410616417,0.00046966477977769365,-0.008056127190072955,-0.01565069526096044,0.02008205288057789,0.003925171367971714, ,0.008694241696937903, ,0.02546042175840865, ,4.8833843661851004e-05, ,0.1412565070024405,-0.21546424719086382,0.09746804510000001,3.005695649907172,0.2563300735599663,-0.2186580786710729, ,0.023196514680633287,0.015473168361074641,0.008309239186228482,0.014602160261324229,0.00643024690119219,0.04456198718155886, ,1.8000738620758057
0.012123462937631193,0.021623876321564046,-0.08732932441776532, ,0.012406733586873454,0.021501847210154825,-0.08764850145024788, ,0.0004438550921391246, ,0.0031670329172558613,0.0004547790933892449,-0.007796044636328627,0.009769714943649485,-0.008260226487818845,-0.008013872502094092, ,0.008427053666281856, ,0.012793695436097353, ,4.9225098347579386e-05, ,0.14148818898866725,-0.21530206980050512,0.09754841508,3.005695649907172,0.2566033465594972,-0.21863587825804404, ,0.02307804998990048,0.016948909012050508,0.008089797623158965,0.014602160261324229,0.026947490059862484,0.009219588111778254, ,1.8076088428497314
0.012123462937631193,0.021623876321564046,-0.08732932441776532, ,0.012433145095918769,0.021505167388087533,-0.08771517078233479, ,0.000508794916543254, ,0.0031670329172558613,0.0004547790933892449,-0.007796044636328627,0.009769714943649485,-0.008260226487818845,-0.008013872502094092, ,0.008427053666281856, ,0.012793695436097353, ,4.969838749764559e-05, ,0.14148818898866725,-0.21530206980050512,0.09754841508,3.005695649907172,0.2566033465594972,-0.21863587825804404, ,0.02307804998990048,0.016948909012050508,0.008089797623158965,0.014602160261324229,0.026947490059862484,0.009219588111778254, ,1.8142569065093994
0.012157255373608063,0.02162730948074256,-0.0874167265583633, ,0.012459633446515015,0.02150835562148239,-0.08778168087687158, ,0.0004886452437153674, ,0.0034541617933840116,0.0006065611378726406,-0.00905129634594562,0.0036046829986414904,0.0052537664293943786,-6.16053208560112e-07, ,0.009706962225690369, ,0.006371478671725882, ,5.014166436608219e-05, ,0.1417275937077682,-0.21512444694439795,0.09763785909000001,3.005695649907172,0.2566033465594972,-0.2180641270770601, ,0.024251710083943466,0.018148200718774293,0.009369889129411765,0.013489965829650749,0.025406917370014534,0.026373100223567404, ,1.8208189010620117
0.012192727326198376,0.021632517010198273,-0.08751557031125845, ,0.01248619825111606,0.0215114126918546,-0.08784803236939018, ,0.0004596982268735778, ,0.0035477282116845813,0.0007634798270548851,-0.009898632135608624,-0.005172964568775809,0.01876642224415736,0.007664138012134159, ,0.010542874136894843, ,0.019466331735652948, ,5.054384022274711e-05, ,0.14196699842686916,-0.21493910135541655,0.09773896971000001,3.005695649907172,0.2566033465594972,-0.2176557333763573, ,0.023855440311330012,0.01785791147129672,0.010223884159178435,0.011758504711940282,0.019575877090217766,0.042535313101261754, ,1.8331358432769775
0.012228527508066392,0.021642204257858864,-0.0876167006247409, ,0.012512839122963661,0.021514339379112905,-0.08791422589401851, ,0.0004309336462158933, ,0.0035907406768888,0.0008912413409041201,-0.010502498501893238,-0.007930948707861119,0.009619777921540899,-0.003176302484888865, ,0.01113508888687783, ,0.012467555770335014, ,5.090563054081402e-05, ,0.14219868041309588,-0.21476920123218363,0.0978439692,3.0061150297941412,0.256876619559028,-0.21747017548304734, ,0.023094899381472567,0.017263405777418733,0.010828559836845685,0.01683512133154416,0.013139120750134407,0.03105190485005892, ,1.8403308391571045
0.012228527508066392,0.021642204257858864,-0.0876167006247409, ,0.012539555676086812,0.02151713646156087,-0.08798026208348153, ,0.0004945274605667398, ,0.0035907406768888,0.0008912413409041201,-0.010502498501893238,-0.007930948707861119,0.009619777921540899,-0.003176302484888865, ,0.01113508888687783, ,0.012467555770335014, ,5.141301581146662e-05, ,0.14219868041309588,-0.21476920123218363,0.0978439692,3.0061150297941412,0.256876619559028,-0.21747017548304734, ,0.023094899381472567,0.017263405777418733,0.010828559836845685,0.01683512133154416,0.013139120750134407,0.03105190485005892, ,1.844773769378662
0.012265462503787477,0.02165104003903603,-0.08772056772620235, ,0.012566347525301195,0.02151980471589791,-0.08804614156910104, ,0.00046233411445652527, ,0.003465858767874836,0.0006378587491962999,-0.00968159435898483,0.00048288263574627335,-0.009204860458540591,-0.011185640872877652, ,0.010303024318844832, ,0.009217513039824782, ,5.1876299423365574e-05, ,0.14243808513219686,-0.21458385564320223,0.09795156127000001,3.00653440968111,0.2571498925585589,-0.21744797507001848, ,0.02305002223912334,0.018534558898138823,0.00997420884157796,0.016123411949244285,0.018767981847052626,0.009003479283769846, ,1.849942922592163
0.012265462503787477,0.02165104003903603,-0.08772056772620235, ,0.01259321428620838,0.02152234491722101,-0.08811186498079902, ,0.0005264002343407136, ,0.003465858767874836,0.0006378587491962999,-0.00968159435898483,0.00048288263574627335,-0.009204860458540591,-0.011185640872877652, ,0.010303024318844832, ,0.009217513039824782, ,5.241954831217533e-05, ,0.14243808513219686,-0.21458385564320223,0.09795156127000001,3.00653440968111,0.2571498925585589,-0.21744797507001848, ,0.02305002223912334,0.018534558898138823,0.00997420884157796,0.016123411949244285,0.018767981847052626,0.009003479283769846, ,1.8543598651885986
0.012301885217705826,0.02165531136791923,-0.08781649085540465, ,0.012620155575195382,0.021524757839025545,-0.08817743294709711, ,0.0004986175266859897, ,0.003728664212159422,0.0006178980638236616,-0.009417609104734898,0.013100943056030252,-0.004101895228484086,-0.005520082192702726, ,0.010147713834844828, ,0.013728079958333967, ,5.292439245327999e-05, ,0.14269293531704627,-0.2143830645884724,0.09805007931000001,3.00653440968111,0.2572865290583244,-0.21706932053287156, ,0.02655945747508278,0.019667759908491355,0.009784282260442262,0.016123411949244285,0.03430522090167363,0.016451887623033207, ,1.8588027954101562
0.012301885217705826,0.02165531136791923,-0.08781649085540465, ,0.012647171009433949,0.02152704425320645,-0.08824284609511833, ,0.0005634301386306644, ,0.003728664212159422,0.0006178980638236616,-0.009417609104734898,0.013100943056030252,-0.004101895228484086,-0.005520082192702726, ,0.010147713834844828, ,0.013728079958333967, ,5.350953484934662e-05, ,0.14269293531704627,-0.2143830645884724,0.09805007931000001,3.00653440968111,0.2572865290583244,-0.21706932053287156, ,0.02655945747508278,0.019667759908491355,0.009784282260442262,0.016123411949244285,0.03430522090167363,0.016451887623033207, ,1.8635199069976807
0.012301885217705826,0.02165531136791923,-0.08781649085540465, ,0.012674260206879997,0.021529204930060244,-0.08830810505058946, ,0.0006294842993587362, ,0.003728664212159422,0.0006178980638236616,-0.009417609104734898,0.013100943056030252,-0.004101895228484086,-0.005520082192702726, ,0.010147713834844828, ,0.013728079958333967, ,5.417594458105586e-05, ,0.14306362649500903,-0.21412049167074876,0.09819007863000001,3.00653440968111,0.2572865290583244,-0.21641589061174707, ,0.02655945747508278,0.019667759908491355,0.009784282260442262,0.016123411949244285,0.03430522090167363,0.016451887623033207, ,1.8682069778442383
0.012354752670445324,0.02166177607351921,-0.08795295407563603, ,0.012701422786272815,0.021531240638285532,-0.08837321043784027, ,0.0005602098526736545, ,0.0042311786360178395,0.0007424119920818577,-0.010987790171720543,-0.0016226776776019811,0.0004998821242717675,-0.003326211714131515, ,0.011797693887944343, ,0.0016978824530551697, ,5.475082748628683e-05, ,0.14306362649500903,-0.21412049167074876,0.09819007863000001,3.00653440968111,0.2572865290583244,-0.21641589061174707, ,0.029398061201508913,0.020934688188500063,0.011369601370449681,0.016123411949244285,0.02252882861603674,0.026642878832268572, ,1.8736858367919922
0.012397015234394263,0.021670217297613592,-0.08806556380614251, ,0.012728658367134766,0.02153315214498454,-0.08843816287980626, ,0.0005173046425987675, ,0.004563048954777333,0.0008593301388298931,-0.0122976366749031,-0.011221957198142157,-0.00875179251822327,-0.00838068058162057, ,0.013145026886207486, ,0.014231159980084469, ,5.526834396804596e-05, ,0.14335709034422958,-0.2139119778831447,0.09830674473,3.00653440968111,0.2575598020578552,-0.21647536893885877, ,0.030770733319867308,0.021755374039080875,0.012682174777070065,0.016123411949244285,0.01207108304501939,0.01927680327810323, ,1.8789877891540527
0.012397015234394263,0.021670217297613592,-0.08806556380614251, ,0.0127559665697702,0.021534940215664437,-0.08850296299802902, ,0.000581776592114035, ,0.004563048954777333,0.0008593301388298931,-0.0122976366749031,-0.011221957198142157,-0.00875179251822327,-0.00838068058162057, ,0.013145026886207486, ,0.014231159980084469, ,5.586485017586615e-05, ,0.14335709034422958,-0.2139119778831447,0.09830674473,3.00653440968111,0.2575598020578552,-0.21647536893885877, ,0.030770733319867308,0.021755374039080875,0.012682174777070065,0.016123411949244285,0.01207108304501939,0.01927680327810323, ,1.8835179805755615
0.012397015234394263,0.021670217297613592,-0.08806556380614251, ,0.012783347015265253,0.021536605614238404,-0.08856761141265805, ,0.0006474226795944687, ,0.004563048954777333,0.0008593301388298931,-0.0122976366749031,-0.011221957198142157,-0.00875179251822327,-0.00838068058162057, ,0.013145026886207486, ,0.014231159980084469, ,5.654123020016253e-05, ,0.14335709034422958,-0.2139119778831447,0.09830674473,3.00653440968111,0.2575598020578552,-0.21647536893885877, ,0.030770733319867308,0.021755374039080875,0.012682174777070065,0.016123411949244285,0.01207108304501939,0.01927680327810323, ,1.8879258632659912
0.01244511779808203,0.02168361890226606,-0.0882014110518256, ,0.012810799325487033,0.021538149103027333,-0.08863210874245182, ,0.0005834251817384706, ,0.004712615698567901,0.0014564771003962454,-0.013830431045206999,0.02646468156322776,-0.005383538108968496,-0.002693718464073222, ,0.014683694874335712, ,0.02700669077804734, ,5.713360138572694e-05, ,0.14367372239207277,-0.21368801862979217,0.09844804034000001,3.0067440996245947,0.2579697115571516,-0.21640122894924524, ,0.030396201652296857,0.022594509894873993,0.014402180397830021,0.015928903777806265,0.05106358902195147,0.016918088325930974, ,1.89231276512146
0.01244511779808203,0.02168361890226606,-0.0882014110518256, ,0.012838323123082942,0.02153957144276057,-0.08869645560477862, ,0.0006484051261422215, ,0.004712615698567901,0.0014564771003962454,-0.013830431045206999,0.02646468156322776,-0.005383538108968496,-0.002693718464073222, ,0.014683694874335712, ,0.02700669077804734, ,5.7804628927650015e-05, ,0.14367372239207277,-0.21368801862979217,0.09844804034000001,3.0067440996245947,0.2579697115571516,-0.21640122894924524, ,0.030396201652296857,0.022594509894873993,0.014402180397830021,0.015928903777806265,0.05106358902195147,0.016918088325930974, ,1.8966658115386963
0.012496338884068111,0.021695781128288946,-0.0883525186819593, ,0.012865918031480175,0.021540873392577802,-0.0887606526156184, ,0.0005719776749043896, ,0.005124044878114027,0.0014293304487206964,-0.015334990481997518,0.008777420495065712,-0.017076529744305707,-0.006641592202143273, ,0.016231474194524698, ,0.019200263816233926, ,5.83765191745787e-05, ,0.14399035443991598,-0.213440891177817,0.09860359514000001,3.0071634795115636,0.258106348056917,-0.21602257441209827, ,0.03227787127839142,0.024744965204294856,0.015865350119521913,0.013178107104942691,0.03395423539375329,0.00902419460929679, ,1.9013009071350098
0.012496338884068111,0.021695781128288946,-0.0883525186819593, ,0.012893583674885044,0.021542055710029,-0.08882470038956321, ,0.0006359170488720419, ,0.005124044878114027,0.0014293304487206964,-0.015334990481997518,0.008777420495065712,-0.017076529744305707,-0.006641592202143273, ,0.016231474194524698, ,0.019200263816233926, ,5.9025474187732305e-05, ,0.14399035443991598,-0.213440891177817,0.09860359514000001,3.0071634795115636,0.258106348056917,-0.21602257441209827, ,0.03227787127839142,0.024744965204294856,0.015865350119521913,0.013178107104942691,0.03395423539375329,0.00902419460929679, ,1.9060699939727783
0.01254042489546756,0.02170494534728298,-0.08848006354358834, ,0.012921319678282283,0.021543119151077778,-0.08888859953981929, ,0.0005815240438452501, ,0.005441875064336759,0.0013787776178525377,-0.015990088444223362,-0.010024581711670512,0.014678029106322984,0.007068819587073255, ,0.016946915955106015, ,0.017774581052948078, ,5.960337081550012e-05, ,0.14426837282338806,-0.21323237739021295,0.09873452043000001,3.007373169455048,0.258106348056917,-0.2155325019712549, ,0.03447037470340384,0.025815272458778772,0.016506540435233162,0.014591914395330904,0.02342588128670989,0.04872348271733286, ,1.914167881011963
0.012603881874667431,0.02171973554746527,-0.08866078241516875, ,0.012949125667434527,0.021544064470100974,-0.08895235067820768, ,0.0004848356998799498, ,0.005441875064336759,0.0013787776178525377,-0.015990088444223362,-0.010024581711670512,0.014678029106322984,0.007068819587073255, ,0.016946915955106015, ,0.017774581052948078, ,6.005813320138189e-05, ,0.14467767766572195,-0.21293119080811818,0.09892118619000001,3.007582859398533,0.25837962105644785,-0.21502022911738267, ,0.0352776734418107,0.025885690550592137,0.014573478060384264,0.040841770919033495,0.007069932035863523,0.06962202903618497, ,1.9189789295196533
0.012603881874667431,0.02171973554746527,-0.08866078241516875, ,0.01297700126888161,0.021544892419890223,-0.08901595441516565, ,0.0005439994036584716, ,0.0053428373284077,0.0008308765289484037,-0.014163414583236137,-0.026393983419245655,0.03571820223238909,-0.01216760624190272, ,0.015160428067202131, ,0.0444120677462243, ,6.058404280095473e-05, ,0.14467767766572195,-0.21293119080811818,0.09892118619000001,3.007582859398533,0.25837962105644785,-0.21502022911738267, ,0.0352776734418107,0.025885690550592137,0.014573478060384264,0.040841770919033495,0.007069932035863523,0.06962202903618497, ,1.9237349033355713
0.012603881874667431,0.02171973554746527,-0.08866078241516875, ,0.013004946109940033,0.02154560375165395,-0.0890794113597479, ,0.0006053301548466901, ,0.0053428373284077,0.0008308765289484037,-0.014163414583236137,-0.026393983419245655,0.03571820223238909,-0.01216760624190272, ,0.015160428067202131, ,0.0444120677462243, ,6.118325328269332e-05, ,0.14467767766572195,-0.21293119080811818,0.09892118619000001,3.007582859398533,0.25837962105644785,-0.21502022911738267, ,0.0352776734418107,0.025885690550592137,0.014573478060384264,0.040841770919033495,0.007069932035863523,0.06962202903618497, ,1.928168773651123
0.01265608238939905,0.021725762498925973,-0.08878701086744176, ,0.01303295981870221,0.021546199215017697,-0.08914272211962777, ,0.0005484615433900782, ,0.005355802557659437,0.00023497769029501119,-0.011411183917919355,0.01716055942948785,-0.033205415253562735,-0.029187436323558587, ,0.012607733894723075, ,0.037377589657530734, ,6.170929653803244e-05, ,0.14505609157655897,-0.2126531724246461,0.09905211148000001,3.007582859398533,0.2587895305557442,-0.21494608912776914, ,0.04045052922355958,0.029118423307293886,0.011860619151154134,0.030824321049553568,0.04156601036889507,-0.0053137630658210075, ,1.9326198101043701
0.01265608238939905,0.021725762498925973,-0.08878701086744176, ,0.013061042024035914,0.021546679558026197,-0.08920588730109855, ,0.0006095247920138815, ,0.005355802557659437,0.00023497769029501119,-0.011411183917919355,0.01716055942948785,-0.033205415253562735,-0.029187436323558587, ,0.012607733894723075, ,0.037377589657530734, ,6.230794949238936e-05, ,0.14505609157655897,-0.2126531724246461,0.09905211148000001,3.007582859398533,0.2587895305557442,-0.21494608912776914, ,0.04045052922355958,0.029118423307293886,0.011860619151154134,0.030824321049553568,0.04156601036889507,-0.0053137630658210075, ,1.9370708465576172
0.012709947788527184,0.021727046647023247,-0.08890366376523713, ,0.013089192355583684,0.02154704552714401,-0.08926890750907476, ,0.0005564439209949022, ,0.005398424949981567,0.00028969389827934386,-0.011960452546653401,0.0050586982609298805,0.005525511521889134,-0.004694224194163323, ,0.013125522451164814, ,0.007491425826570501, ,6.283845074793005e-05, ,0.14546539641889286,-0.21235970857542558,0.09917266645000002,3.007582859398533,0.25906280355527506,-0.21459717375417803, ,0.040040903611169104,0.029489416270500553,0.012405616448598132,0.025064823576740093,0.0393109239558079,0.039831301930818366, ,1.9415578842163086
0.012709947788527184,0.021727046647023247,-0.08890366376523713, ,0.013117410443762086,0.021547297867257238,-0.08933178334709287, ,0.0006177554658655599, ,0.005398424949981567,0.00028969389827934386,-0.011960452546653401,0.0050586982609298805,0.005525511521889134,-0.004694224194163323, ,0.013125522451164814, ,0.007491425826570501, ,6.344148820426547e-05, ,0.14546539641889286,-0.21235970857542558,0.09917266645000002,3.007582859398533,0.25906280355527506,-0.21459717375417803, ,0.040040903611169104,0.029489416270500553,0.012405616448598132,0.025064823576740093,0.0393109239558079,0.039831301930818366, ,1.946363925933838
0.012709947788527184,0.021727046647023247,-0.08890366376523713, ,0.013145695919761235,0.021547437321674485,-0.08939451541731294, ,0.0006804934150833187, ,0.005398424949981567,0.00028969389827934386,-0.011960452546653401,0.0050586982609298805,0.005525511521889134,-0.004694224194163323, ,0.013125522451164814, ,0.007491425826570501, ,6.41967537206413e-05, ,0.14546539641889286,-0.21235970857542558,0.09917266645000002,3.007582859398533,0.25906280355527506,-0.21459717375417803, ,0.040040903611169104,0.029489416270500553,0.012405616448598132,0.025064823576740093,0.0393109239558079,0.039831301930818366, ,1.9488577842712402
0.012746682178681334,0.02172627438581189,-0.088983444467055, ,0.01317404841554403,0.02154746463212826,-0.08945710432052036, ,0.000662546968302931, ,0.005622514588858452,-9.578649113012837e-05,-0.011898479158388224,-0.008301593243653899,-0.025750435570207876,0.006657175282509505, ,0.013160381895538142, ,0.027055519657836778, ,6.492823320057075e-05, ,0.14573569206949072,-0.21215891752069574,0.09925433272,3.0077925493420175,0.25906280355527506,-0.2141887800534752, ,0.04301765256503662,0.03222307013869975,0.012262364526558892,0.0,0.02722373922806456,0.01554210049236358, ,1.9512228965759277
0.012746682178681334,0.02172627438581189,-0.088983444467055, ,0.013202467563845603,0.0215473805387764,-0.08951955065612582, ,0.0007260531466749104, ,0.005622514588858452,-9.578649113012837e-05,-0.011898479158388224,-0.008301593243653899,-0.025750435570207876,0.006657175282509505, ,0.013160381895538142, ,0.027055519657836778, ,6.573546752715724e-05, ,0.14573569206949072,-0.21215891752069574,0.09925433272,3.0077925493420175,0.25906280355527506,-0.2141887800534752, ,0.04301765256503662,0.03222307013869975,0.012262364526558892,0.0,0.02722373922806456,0.01554210049236358, ,1.9536519050598145
0.012746682178681334,0.02172627438581189,-0.088983444467055, ,0.013230952998172675,0.021547185780203062,-0.08958185502216785, ,0.0007903708925183172, ,0.005622514588858452,-9.578649113012837e-05,-0.011898479158388224,-0.008301593243653899,-0.025750435570207876,0.006657175282509505, ,0.013160381895538142, ,0.027055519657836778, ,6.661916926495133e-05, ,0.14573569206949072,-0.21215891752069574,0.09925433272,3.0077925493420175,0.25906280355527506,-0.2141887800534752, ,0.04301765256503662,0.03222307013869975,0.012262364526558892,0.0,0.02722373922806456,0.01554210049236358, ,1.955981969833374
0.012746682178681334,0.02172627438581189,-0.088983444467055, ,0.013259504352803018,0.02154688109341991,-0.08964401801531262, ,0.0008552929020422087, ,0.005622514588858452,-9.578649113012837e-05,-0.011898479158388224,-0.008301593243653899,-0.025750435570207876,0.006657175282509505, ,0.013160381895538142, ,0.027055519657836778, ,6.757979500524032e-05, ,0.14573569206949072,-0.21215891752069574,0.09925433272,3.0077925493420175,0.25906280355527506,-0.2141887800534752, ,0.04301765256503662,0.03222307013869975,0.012262364526558892,0.0,0.02722373922806456,0.01554210049236358, ,1.9583499431610107
0.012830321252575404,0.02172336175925476,-0.08914902232600229, ,0.013288121262784575,0.021546467213867812,-0.08970604023085685, ,0.0007423890326935975, ,0.006231470716175064,-1.073758340999851e-05,-0.013484323001192275,-0.023104780308314008,0.0032606250512794595,-0.004301522723972465, ,0.01485457200267742, ,0.02333371172819843, ,6.840073081751326e-05, ,0.14637667889805137,-0.21168783081536804,0.09942544300000002,3.008421619172471,0.2594727130545714,-0.21354288888287773, ,0.04622354678931845,0.03407430576605773,0.01387527135888502,0.023569651600462916,0.016894470398306164,0.047966361579899246, ,1.9606349468231201
0.012830321252575404,0.02172336175925476,-0.08914902232600229, ,0.013316803363935136,0.02154594487541767,-0.08976792226272737, ,0.0008069564591858674, ,0.006231470716175064,-1.073758340999851e-05,-0.013484323001192275,-0.023104780308314008,0.0032606250512794595,-0.004301522723972465, ,0.01485457200267742, ,0.02333371172819843, ,6.929812538418199e-05, ,0.14637667889805137,-0.21168783081536804,0.09942544300000002,3.008421619172471,0.2594727130545714,-0.21354288888287773, ,0.04622354678931845,0.03407430576605773,0.01387527135888502,0.023569651600462916,0.016894470398306164,0.047966361579899246, ,1.9628889560699463
0.012830321252575404,0.02172336175925476,-0.08914902232600229, ,0.013345550292841514,0.02154531481037239,-0.08982966470348382, ,0.0008720296588783919, ,0.006231470716175064,-1.073758340999851e-05,-0.013484323001192275,-0.023104780308314008,0.0032606250512794595,-0.004301522723972465, ,0.01485457200267742, ,0.02333371172819843, ,0.00038602924566706777, ,0.14637667889805137,-0.21168783081536804,0.09942544300000002,3.008421619172471,0.2594727130545714,-0.21354288888287773, ,0.04622354678931845,0.03407430576605773,0.01387527135888502,0.023569651600462916,0.016894470398306164,0.047966361579899246, ,1.9651358127593994
0.012830321252575404,0.02172336175925476,-0.08914902232600229, ,0.013374361686859022,0.021544577749466973,-0.08989126814431854, ,0.0009374820377475336, ,0.006231470716175064,-1.073758340999851e-05,-0.013484323001192275,-0.023104780308314008,0.0032606250512794595,-0.004301522723972465, ,0.01485457200267742, ,0.02333371172819843, ,0.0003896812509126337, ,0.14637667889805137,-0.21168783081536804,0.09942544300000002,3.008421619172471,0.2594727130545714,-0.21354288888287773, ,0.04622354678931845,0.03407430576605773,0.01387527135888502,0.023569651600462916,0.016894470398306164,0.047966361579899246, ,1.9673798084259033
0.012907749185221784,0.021733766566316773,-0.0893398765103828, ,0.013403237184110748,0.021543734421870783,-0.08995273317505866, ,0.001003219703670922, ,0.008141303351813062,0.001785345661250359,-0.02173401646749952,0.05376953933366656,-0.006259375131232363,-0.05978599211144674, ,0.01485457200267742, ,0.054132599121552986, ,0.00039371768810183297, ,0.1468941020006244,-0.2112939714387826,0.09961599763000001,3.0090506890029243,0.26015589555339863,-0.21344654848023537, ,0.05292634777382642,0.04108092708158908,0.022371926292134834,0.08308061493612709,0.08892229933396262,0.021181191139397773, ,1.9703309535980225
0.012907749185221784,0.021733766566316773,-0.0893398765103828, ,0.013432176423487072,0.021542785555188397,-0.09001406038416712, ,0.0008752265823871, ,0.008141303351813062,0.001785345661250359,-0.02173401646749952,0.05376953933366656,-0.006259375131232363,-0.05978599211144674, ,0.023277365641453683, ,0.054132599121552986, ,0.00039686480505794584, ,0.1468941020006244,-0.2112939714387826,0.09961599763000001,3.0090506890029243,0.26015589555339863,-0.21344654848023537, ,0.05292634777382642,0.04108092708158908,0.022371926292134834,0.08308061493612709,0.08892229933396262,0.021181191139397773, ,1.9726758003234863
0.012907749185221784,0.021733766566316773,-0.0893398765103828, ,0.013461179044644878,0.02154173187546116,-0.09007525035874418, ,0.0009401790407400608, ,0.008141303351813062,0.001785345661250359,-0.02173401646749952,0.05376953933366656,-0.006259375131232363,-0.05978599211144674, ,0.023277365641453683, ,0.054132599121552986, ,0.0004003928195753622, ,0.1468941020006244,-0.2112939714387826,0.09961599763000001,3.0090506890029243,0.26015589555339863,-0.21344654848023537, ,0.05292634777382642,0.04108092708158908,0.022371926292134834,0.08308061493612709,0.08892229933396262,0.021181191139397773, ,1.9749269485473633
0.012907749185221784,0.021733766566316773,-0.0893398765103828, ,0.013490244688007025,0.021540574107167882,-0.09013630368452744, ,0.0010054454638383078, ,0.008141303351813062,0.001785345661250359,-0.02173401646749952,0.05376953933366656,-0.006259375131232363,-0.05978599211144674, ,0.023277365641453683, ,0.054132599121552986, ,0.0004042963850222199, ,0.1468941020006244,-0.2112939714387826,0.09961599763000001,3.0090506890029243,0.26015589555339863,-0.21344654848023537, ,0.05292634777382642,0.04108092708158908,0.022371926292134834,0.08308061493612709,0.08892229933396262,0.021181191139397773, ,1.9771509170532227
0.012907749185221784,0.021733766566316773,-0.0893398765103828, ,0.013519372994761742,0.02153931297322672,-0.09019722094589451, ,0.0010709506829750326, ,0.008141303351813062,0.001785345661250359,-0.02173401646749952,0.05376953933366656,-0.006259375131232363,-0.05978599211144674, ,0.023277365641453683, ,0.054132599121552986, ,0.0004085698100090969, ,0.1468941020006244,-0.2112939714387826,0.09961599763000001,3.0090506890029243,0.26015589555339863,-0.21344654848023537, ,0.05292634777382642,0.04108092708158908,0.022371926292134834,0.08308061493612709,0.08892229933396262,0.021181191139397773, ,1.9793779850006104
0.012992627920136886,0.02175618546271179,-0.08958459493850608, ,0.013548563606861855,0.021537949194996246,-0.09025800272586389, ,0.0009000942197319724, ,0.009310383327888725,0.0028753059382343356,-0.027744923771080912,0.014460648706443095,0.007940682520465895,-0.016024744805039463, ,0.029406315937460858, ,0.016496919691304776, ,0.00041170053873344645, ,0.14745013876756857,-0.21087694386357447,0.09987784821000001,3.0090506890029243,0.2608390780522258,-0.21294181437689014, ,0.05631865967861767,0.040278837673374694,0.028804360795660042,0.04481502629640495,0.05957689311371453,0.05346120211008367, ,1.9818518161773682
0.012992627920136886,0.02175618546271179,-0.08958459493850608, ,0.013577816167024376,0.021536483492276562,-0.09031864960609569, ,0.0009641319905067269, ,0.009310383327888725,0.0028753059382343356,-0.027744923771080912,0.014460648706443095,0.007940682520465895,-0.016024744805039463, ,0.029406315937460858, ,0.016496919691304776, ,0.0004151969403269482, ,0.14745013876756857,-0.21087694386357447,0.09987784821000001,3.0090506890029243,0.2608390780522258,-0.21294181437689014, ,0.05631865967861767,0.040278837673374694,0.028804360795660042,0.04481502629640495,0.05957689311371453,0.05346120211008367, ,1.9841489791870117
0.012992627920136886,0.02175618546271179,-0.08958459493850608, ,0.01360713031872972,0.02153491658331072,-0.09037916216689293, ,0.0010285476145002266, ,0.009310383327888725,0.0028753059382343356,-0.027744923771080912,0.014460648706443095,0.007940682520465895,-0.016024744805039463, ,0.029406315937460858, ,0.016496919691304776, ,0.0004190544917368431, ,0.14745013876756857,-0.21087694386357447,0.09987784821000001,3.0090506890029243,0.2608390780522258,-0.21294181437689014, ,0.05631865967861767,0.040278837673374694,0.028804360795660042,0.04481502629640495,0.05957689311371453,0.05346120211008367, ,1.9891538619995117
0.012998901919205736,0.021759526496519247,-0.0896041193867083, ,0.01363650570622113,0.021533249184785795,-0.09043954098720319, ,0.0010750205865913164, ,0.009398766281666604,0.0028584006332223223,-0.028141918931596864,-0.0024826374290878167,0.036913803665681956,-0.0014843969951746517, ,0.029807295465203967, ,0.0369969558032062, ,0.00042315427982968353, ,0.14748875243193968,-0.21085377566495178,0.09989858885000001,3.0090506890029243,0.26097571455199126,-0.212971553540446, ,0.056519917545247635,0.0403988682666968,0.029173647472527476,0.04342793705243106,0.04943782413082076,0.08833976332960178, ,1.991560935974121
0.012998901919205736,0.021759526496519247,-0.0896041193867083, ,0.013665941974504013,0.02153148201183426,-0.09049978664461933, ,0.0011398098785593282, ,0.009398766281666604,0.0028584006332223223,-0.028141918931596864,-0.0024826374290878167,0.036913803665681956,-0.0014843969951746517, ,0.029807295465203967, ,0.0369969558032062, ,0.00042760555684042664, ,0.14748875243193968,-0.21085377566495178,0.09989858885000001,3.0090506890029243,0.26097571455199126,-0.212971553540446, ,0.056519917545247635,0.0403988682666968,0.029173647472527476,0.04342793705243106,0.04943782413082076,0.08833976332960178, ,1.9938127994537354
