NicholasDascanio/dvrk_moveit_final/test/execution/third_experiment_notsharpbends/thirdexp_500vel3.0/thirdexp_500vel3.0_30.csv
Current Position (x),Current Position (y),Current Position (z), ,Planned Position (x),Planned Position (y),Planned Position (z), ,Position Error,,Cartesian linear Velocity(x),Cartesian linear Velocity(y),Cartesian linear Velocity(z),Cartesian Angular Velocity(x),Cartesian Angular Velocity(y),Cartesian Angular Velocity(z), ,Total Linear Velocity, ,Total Angular Velocity, ,MSE, ,Joint 1 Position,Joint 2 Position,Joint 3 Position,Joint 4 Position,Joint 5 Position,Joint 6 Position, ,Joint 1 Velocity,Joint 2 Velocity,Joint 3 Velocity,Joint 4 Velocity,Joint 5 Velocity,Joint 6 Velocity, ,Time Stamp
0.007889557114917404,0.01943746743445677,-0.07278356374121073, ,0.00797758422820017,0.01934341360799484,-0.07294104515422456, ,0.00020345832592907353, ,3.244962702545879e-05,4.209788788935652e-06,-3.0248838402999894e-05,0.013587926051716692,-0.06386716767012135,-0.030927815723313764, ,4.456111354611367e-05, ,0.06529660665448331, ,1.695486049408946e-05, ,0.11252021797745111,-0.23041545803536248,0.08249071044,2.991646423693709,0.24744870107521263,-0.23322413854833562, ,0.00040876195418394117,-4.205053677142985e-06,3.2718790672437355e-05,-0.000738327987194563,-0.0004172259887578477,-0.07206518807826057, ,0.022207975387573242
0.007909410853060822,0.01943371824989086,-0.07287749132514203, ,0.008045282349153282,0.01936419699127339,-0.07315515595516126, ,0.000316846833050096, ,0.0011202461325325735,3.7178609237184697e-06,-0.005488661640116442,-0.0513590355874636,-0.30191556780665413,-0.15730672138245058, ,0.005601818617166193, ,0.30625277242093263, ,2.365023449905316e-05, ,0.11259744530619335,-0.23034595343949446,0.08257756187000001,2.9918561136371937,0.24512588057920015,-0.23974294441997435, ,0.004720092253712849,0.0038069388101425613,0.0051750524756335285,0.0010579430174646534,-0.11246737582538766,-0.3199770697723068, ,0.05053305625915527
0.00793902340085439,0.01944003284727132,-0.07302614884827209, ,0.008112860722571455,0.019384890477740467,-0.07336856126713293, ,0.00038795149172205493, ,0.0015351578484842552,0.000700613459121392,-0.008071575239461363,-0.11536396225955642,-0.03624619565882097,0.02246217282662802, ,0.008246083657418872, ,0.12092406895941586, ,2.8383020334413267e-05, ,0.11270556356643249,-0.2302687261107522,0.08272015377000001,2.992485183467647,0.2425297870836568,-0.24383358850042508, ,0.007649016838758418,0.002668659151425047,0.007885550257425744,-0.04170895923739573,-0.11116208443335816,-0.0034093227334621723, ,0.07279205322265625
0.007996164143424097,0.01947788281318285,-0.0732967764887633, ,0.008180319459172932,0.019405494194223005,-0.07358126235901524, ,0.00034653355226654597, ,0.0019852965216105214,0.0010317129629562796,-0.008484762169262654,-0.05428853103566745,0.09990176421154781,0.07375037625506359, ,0.00877479475461401, ,0.1136996352263985, ,2.9875957213518347e-05, ,0.11305308654577259,-0.2299907077272801,0.08299496725000001,2.992485183467647,0.24198324108459504,-0.24616499405041853, ,0.014044241757950389,0.010870365940304026,0.008600870151187908,-0.01856503067177645,-0.015195034416339593,0.13676258363805072, ,0.09592294692993164
0.008039607947289923,0.019505407512481268,-0.07348072503453405, ,0.008247658669730684,0.019426008267580855,-0.07379326049840337, ,0.00038375481674487154, ,0.002076868020641895,0.0016591333538610634,-0.008138958732360185,0.05714106590971483,0.055656732203312936,0.040583875128860455, ,0.008562053112900045, ,0.07976699328127639, ,3.151048114832004e-05, ,0.1133697185936158,-0.22973585754243073,0.08318422559000001,2.9922754935241627,0.24239315058389135,-0.24119012965237124, ,0.016982273006168714,0.01343007947331882,0.00863350217886179,0.0,0.08563243488976115,0.06844207655433655, ,0.11806201934814453
0.0080852524449781,0.019527959966714435,-0.0736554732841681, ,0.008314878465072211,0.019446432824706435,-0.07400455695161146, ,0.000425716091854599, ,0.002491108745180718,0.0007107685577313417,-0.009161834163910655,-0.022739057888950177,-0.014322933071732567,-0.009316858478212281, ,0.009521030404844625, ,0.02687398557903157, ,3.329453405753615e-05, ,0.1137172415729559,-0.22939605729596482,0.0833644099,2.9926948734111316,0.243212969582484,-0.24202199455483092, ,0.019036497805109485,0.01829162327649784,0.009244812257690076,0.008524261756595332,-0.004842798316114479,0.003948977303519229, ,0.1421489715576172
0.008139400994883556,0.01953567588418422,-0.07381327725501997, ,0.008381978956079178,0.01946676799252468,-0.07421515298367519, ,0.0004744433222977727, ,0.0027721202025993673,0.00018970959493490314,-0.00856816758353812,-0.02990073694243324,-0.03120789267563133,0.019622309547177433, ,0.009007448911188083, ,0.04322021042030941, ,3.525978380368075e-05, ,0.1141883282782836,-0.22900992065225362,0.08352385357000001,2.9931142532981005,0.243212969582484,-0.24243038825553373, ,0.024559249885732604,0.023061225166092537,0.008573095543595265,-0.02396422820801694,-0.004549184916512831,-0.0006282388771281268, ,0.16483402252197266
0.008195606156585069,0.019548408718062103,-0.07400453954100976, ,0.008448960253687382,0.019487013897992435,-0.07442504985835252, ,0.0004947590822224749, ,0.003089407427196279,0.0009011400733597219,-0.010358949941699398,-0.02364121252204642,-0.006759036687397695,-0.01485989550653647, ,0.010847319280710062, ,0.02458844011260413, ,3.699345751326206e-05, ,0.11465169225073707,-0.2285928930770455,0.08371700078000001,2.992904563354616,0.243212969582484,-0.24202199455483092, ,0.024674191772873316,0.019623023481900495,0.010514067009900992,0.01961947396629999,-0.0033214787772871657,0.01584473687254081, ,0.18820810317993164
0.008301041768583635,0.019582039322161637,-0.07436267799228297, ,0.008515822468886332,0.019507170668098053,-0.07463424883812482, ,0.0003542411451187868, ,0.003219191089620373,0.0007575357525066149,-0.010144016388947732,-0.02191330293934427,-0.01953723388765197,-0.016345979784649363, ,0.010669494842168356, ,0.029358069525788913, ,3.6822876752242124e-05, ,0.11547030193540486,-0.22795190624848485,0.08407348053000001,2.99353363318507,0.243212969582484,-0.2417769583344092, ,0.026693935740779398,0.020980973150225686,0.01047259140039448,0.015991971257569532,-0.002303409758528391,0.004345055571505815, ,0.21095514297485352
0.008356573097003888,0.01958871932226989,-0.07451535814728948, ,0.008582565712719183,0.019527238429861576,-0.07484275118419888, ,0.0004025403869252424, ,0.003164216071224294,0.0001528467176533186,-0.007998268587357098,-0.03017135773059755,-0.01956961762596357,0.041249481027413826, ,0.008602785935962537, ,0.03596221250982143, ,3.715926517775998e-05, ,0.11597227957222946,-0.22757349233764784,0.08423551678,2.9939530130720384,0.24307633308271853,-0.24125714673000997, ,0.03060204500434401,0.02210504112706051,0.008073396614292957,-0.03561856961337904,0.0,0.02164460233960844, ,0.23539400100708008
0.008451681632528078,0.0196018306191455,-0.07474941039188791, ,0.008649190096282513,0.01954721731033375,-0.07505055815650649, ,0.0003642556559461652, ,0.0027385853387483818,0.0005992518955516236,-0.007647268320908841,0.0020961036654514455,-0.0012618848717629472,0.00045109584261378115, ,0.008144916528971044, ,0.0024466258096188694, ,3.709375628640789e-05, ,0.11686039385276528,-0.22697884190633255,0.08447014527,2.9937433231285544,0.24362287908178032,-0.24088603094339006, ,0.02462936453632774,0.0181725280655823,0.007709976534365925,0.009952432807959388,0.023286270795142183,0.007702705378207022, ,0.25829100608825684
0.00851104174795515,0.019619213551828968,-0.07492516084046505, ,0.008715695730725968,0.019567107436596155,-0.07525767101370684, ,0.00039390521095550253, ,0.003259204533734483,0.0013045178836662745,-0.010526314868103556,-0.007704774295237537,0.008320575614347238,-0.005271183708252752, ,0.01109628252181687, ,0.011339991016713201, ,3.7282015696993327e-05, ,0.11737781695533832,-0.22664676439274092,0.08465551474,2.994372392959008,0.24375951558154577,-0.24050737640624306, ,0.026229115964198666,0.016443760450263523,0.010835926204081634,0.01973008733807614,0.012881884042361257,0.032088270433892126, ,0.2806699275970459
0.008572485042702797,0.019644948236019453,-0.07512513092216809, ,0.008782082727252227,0.01958690893576088,-0.07546409101318753, ,0.00040273278119231265, ,0.003329156623214099,0.0013172455894394893,-0.010205876692481512,-0.003089098967854503,-0.02077256003032424,-0.017075771614081973, ,0.010815652491963925, ,0.02100099216513641, ,3.7508626486556806e-05, ,0.11787979459216291,-0.22634557781064615,0.08486162485000001,2.994372392959008,0.24403278858107663,-0.24040349725307364, ,0.027506359872020516,0.015008214701640165,0.010534928253968255,0.01801810870944931,0.010241124921103378,0.0013915730470707667, ,0.30338311195373535
0.008640761414655971,0.019669732540972578,-0.07533963511376367, ,0.008848351197116749,0.01960662193496991,-0.0756698194110649, ,0.0003950925670731457, ,0.002900771396088757,0.0010102371826641297,-0.008819574338027514,-0.006203580358899494,-0.020899048362799613,-0.013693181993731776, ,0.009339161919658388, ,0.0218003343638858, ,3.764951593872285e-05, ,0.11842038589335863,-0.2260135002970545,0.08507421641000001,2.994372392959008,0.24416942508084208,-0.2400248427159267, ,0.02420222942067605,0.014315423375844136,0.009117808540354896,0.01313436785123138,0.006461912161108428,-0.000919912221713691, ,0.32778215408325195
0.00871742022027879,0.019694797327271023,-0.07557596710704122, ,0.00891450125162754,0.019626246561395368,-0.07587485746218588, ,0.00036452103480886627, ,0.0026345961608831847,0.0008176965914739858,-0.007956080168316693,-0.013486029716064846,-0.003942552544414147,-0.003460885594494795, ,0.008420744402446305, ,0.01405050483753899, ,3.757073880333888e-05, ,0.11906137272191926,-0.2256041954547206,0.08532440038000001,2.995001462789461,0.24430606158060753,-0.23989122439920146, ,0.021715547267384616,0.013504616701077384,0.008156073486943164,0.009945276150968041,0.0021764688718563237,0.017287560393495466, ,0.35175395011901855
0.008773429418473167,0.01971312230267562,-0.07575953139785147, ,0.00898053300214501,0.019645782942238725,-0.0760792064201288, ,0.0003868056407316045, ,0.002520556847514014,0.0007405289296378344,-0.008414102653426028,-0.013090437533378574,0.009537148071751001,0.0047957543240218364, ,0.008814687367091999, ,0.016196194182101855, ,3.787303067601935e-05, ,0.11950929122862429,-0.22526439520825473,0.08551236243,2.995001462789461,0.24457933458013842,-0.2392155940650481, ,0.01958253024318423,0.016305316418981235,0.008577712180936998,0.007556910965457745,0.008190657990721576,0.029796569573044312, ,0.3712761402130127
0.008821479090579102,0.019732139013023987,-0.0759222570305193, ,0.009046446560081774,0.019665231204730526,-0.07628286753720415, ,0.00043026381985541203, ,0.002926494300846536,0.0012784510363528,-0.010082226821127784,0.005233251627160242,-0.00297001608591809,-0.011144400250439388, ,0.010575920934741677, ,0.0060172929099617314, ,3.8398951521732514e-05, ,0.11987225967371284,-0.22499409955765687,0.08567958384,2.99542084267643,0.24485260757966928,-0.2389483574315976, ,0.022069056176388553,0.015986681529391977,0.010390614168297457,0.018891803626307505,0.02196976278651294,0.013345682012015202, ,0.39216113090515137
0.008891459392890171,0.019760722520832753,-0.07617747910381187, ,0.009112242036902425,0.019684591476130813,-0.0764858420644558, ,0.00038681859748665356, ,0.002959080177895107,0.001276133364640785,-0.010666169769779285,-0.0032161030044301846,-0.0014681062214715324,0.004173969656274944, ,0.011142344879840806, ,0.0035353240814252917, ,3.862927573285576e-05, ,0.12037423731053744,-0.22460796291394564,0.08594013813000001,2.995630532619915,0.24485260757966928,-0.23821324877033254, ,0.021755374039080875,0.016967091285262074,0.010947636783505157,0.00472212440063745,0.017147000521328042,0.019057705373462394, ,0.4118220806121826
0.008918774419053746,0.01977129174229579,-0.07627634861638424, ,0.00917791954412342,0.019703863883727878,-0.07668813125166223, ,0.0004911900351950468, ,0.00287732765604117,0.0009540723305785904,-0.010183803289897802,-0.021693912963951845,0.02087658579614426,0.013711585428965887, ,0.010625399658343603, ,0.030107434043056915, ,3.939271484774589e-05, ,0.12057502836526728,-0.2244380627907127,0.08604124875000001,2.995630532619915,0.24498924407943473,-0.23799795171346672, ,0.021191813657541487,0.018148200718774293,0.01037032,0.004648990226624821,0.004769861160854724,0.045768570517564465, ,0.4344179630279541
0.009002260830265835,0.0197993039753547,-0.07655427650560062, ,0.00924347919331287,0.019723048554838706,-0.07688973634733674, ,0.00042016008050121316, ,0.0028404514469341905,0.0006587419065830994,-0.008856229056149502,0.003546506825603673,-0.003768886615277787,-0.011468626529578797, ,0.00932388858882741, ,0.005175148548784117, ,3.972583995876873e-05, ,0.12121601519382791,-0.22390519422239122,0.08632643255000001,2.996049912506884,0.24567242657826194,-0.2377382538305432, ,0.022556915036479865,0.02014797060689401,0.009055606321773737,0.01877381827622786,0.024322432172312745,0.012679215077794069, ,0.4546060562133789
0.009058169483921052,0.019808926694988044,-0.07672705187192733, ,0.009308921096090375,0.0197421456168085,-0.07709065859872967, ,0.00044670564713718416, ,0.0030597128520350628,0.000577647105698428,-0.0090545124766512,-0.017791414605176373,-0.0018486915452311944,-0.0068641713959852226, ,0.009574952485807047, ,0.017887203057594444, ,4.015871902434284e-05, ,0.12166393370053293,-0.2235267803115542,0.0865014317,2.996049912506884,0.24567242657826194,-0.23716650264955927, ,0.024732067124959806,0.019434147359916196,0.00921273078079815,0.01485653239589341,0.004017783819203544,0.02156844814162208, ,0.47621798515319824
0.009124190091076722,0.01982208032468065,-0.07692569231104616, ,0.00937424536412678,0.019761155197010216,-0.07729089925182794, ,0.0004467836393121214, ,0.003340619288021619,0.0007333035510092567,-0.010422551559871169,-0.021166793432133225,-0.006431446905697101,-0.005673241151080244, ,0.01096936882156844, ,0.02212230843536155, ,4.055571980617091e-05, ,0.1221890795359802,-0.22310203000347187,0.08670365294000001,2.996469292393853,0.24580906307802738,-0.2368695268525529, ,0.02609926885546501,0.021064803897551783,0.010598011656686628,0.011943860562226672,0.0020471476795238864,0.018973002572236074, ,0.4962780475616455
0.009227072799409522,0.019850587635259636,-0.07723985450222232, ,0.009439452109144129,0.019780077422844655,-0.07749045955135697, ,0.0003359755227839325, ,0.0034896717999223985,0.0010829645782636289,-0.010751466066400692,-0.01908824093986019,0.018924635507295152,0.0081996913211165, ,0.011355379523640454, ,0.026879408989062194, ,4.042613964781553e-05, ,0.12299996648777377,-0.22253827050365346,0.08702513286,2.9968886722808223,0.2459456995777928,-0.23583744239428145, ,0.02734782177477544,0.018151672065507034,0.011031032908587259,0.011768915604452057,0.007052918214282112,0.048373295211986675, ,0.5212259292602539
0.009290314060189993,0.01986609753315712,-0.07741842514159682, ,0.00950454144291542,0.01979891242173999,-0.07768934074078114, ,0.00035185575536989563, ,0.0028787615931011624,0.0003755460873885864,-0.007090467462269236,-0.005419315125786717,0.008224571931277978,-0.00873404794869582, ,0.007661790391753481, ,0.009849494502960387, ,4.0374725478457395e-05, ,0.12353283505609526,-0.22215985659281648,0.08720920604000001,2.9968886722808223,0.24649224557685456,-0.2356296840879426, ,0.02505199090772724,0.017418675029087883,0.007280078391224864,0.022380028079697627,0.015276193230559551,0.029691608781286367, ,0.5410511493682861
0.009352228082900033,0.019875996354878946,-0.07758054511289947, ,0.00956951347726445,0.019817660321151693,-0.07788754406230503, ,0.00038061054947445056, ,0.0031119598063609156,0.00078110640241478,-0.007682710479632805,0.00934801376851055,-0.023406174029673113,-0.014666802591760855, ,0.008325770916987744, ,0.025203855208247274, ,4.0445956966756296e-05, ,0.12406570362441675,-0.22180461088060213,0.08737513116000001,2.9968886722808223,0.24662888207662,-0.2351693508106551, ,0.0272770743197674,0.014839240274975884,0.007992379086803815,0.015447675558354787,0.022113403142107475,-0.0029897407454034016, ,0.5623600482940674
0.009417954570469492,0.019891881970948596,-0.07776515752676436, ,0.00963436832406565,0.019836321248562088,-0.07808507075687367, ,0.00039021325120587916, ,0.003360357537130441,0.0011896237538765214,-0.010555329159331156,-0.0013509070258832562,-0.011535435437591026,-0.020320292967714253, ,0.01114101346893375, ,0.011614262331331364, ,4.0550337996656986e-05, ,0.12458312672698979,-0.22147253336701048,0.0875643895,2.99772743205476,0.24662888207662,-0.23467927836981173, ,0.025366731237228223,0.01685259129079573,0.010872908887372013,0.02434365753909722,0.014157722746972525,0.007368147844707719, ,0.5825440883636475
0.009463881759325023,0.019912055035401964,-0.07792489623832259, ,0.009699106095243914,0.01985489533148021,-0.07828192206417406, ,0.0004313527098394402, ,0.003194410946201708,0.0014149937066436531,-0.011141370398148406,-0.008192110959579555,-0.0016496013460985375,-0.017480464019574843, ,0.01167632659836954, ,0.008356536059016598, ,4.0805721334616705e-05, ,0.12491520424058145,-0.22124085138078375,0.08772901833,2.99772743205476,0.2469021550761509,-0.2346570779567829, ,0.02212049919777874,0.014802205827245481,0.011459576633093526,0.02434365753909722,0.006799316608762157,0.016063020589066695, ,0.6040239334106445
0.009547792300810789,0.019946820722049292,-0.07820660541374982, ,0.009763726902774493,0.019873382697441672,-0.07847809922263632, ,0.0003545839590945851, ,0.0031757176215578844,0.0012306744862529513,-0.009489251730421536,0.009148976907778933,0.005202975699282585,-0.005769543188978393, ,0.010081946265790915, ,0.010524954044794723, ,4.075863013418189e-05, ,0.1255330228705194,-0.22083154653844986,0.08801938729000001,2.99772743205476,0.24731206457544722,-0.2341745442664665, ,0.024796692333020846,0.014599529470533966,0.009863041188854489,0.019381151819581985,0.02669783557848591,0.024947627547805804, ,0.6243360042572021
0.009590302308402956,0.019958258291307186,-0.07833045900715022, ,0.009828230858682785,0.01989178347400827,-0.07867360346943311, ,0.000422820314517412, ,0.002913974352756695,0.0007240438362033108,-0.008561653332630299,-0.0014466611101478653,-0.0023284687636523243,0.002591945617649726, ,0.0090728933529171, ,0.0027412677993407892, ,4.096004252018827e-05, ,0.12586510038411106,-0.2206230327508458,0.08814642371,2.9979371219982447,0.24731206457544722,-0.23360279308548257, ,0.02313431047256723,0.01717902635019384,0.008800448353591162,0.006509445274408598,0.018896326792472853,0.01896519505466447, ,0.6483800411224365
0.009660286947886438,0.019972455546541392,-0.07852286741937449, ,0.009892618075044176,0.01991009778876791,-0.07886843604048209, ,0.0004210509642491388, ,0.002525803099883535,0.0006620989338740808,-0.007362605004177237,0.023053467296761727,-0.005760234334496421,0.0026077119992822563, ,0.00781191453775284, ,0.0237622101740588, ,4.114265778697379e-05, ,0.12643658261680368,-0.220182836977015,0.08834475608,2.998356501885214,0.24799524707427442,-0.2330163802419968, ,0.02044311537235476,0.016967091285262074,0.00763239651173934,0.005640991758167171,0.04178939061285449,0.00864337198061109, ,0.6684010028839111
0.009729525169188692,0.019988430389963036,-0.07873485366528848, ,0.009956888663983934,0.01992832576933421,-0.07906259817044582, ,0.0004033896191615113, ,0.0029324290638104798,0.0009574734572191461,-0.009930860666153984,-0.006036991089881125,0.007196778075430866,0.011498915202042697, ,0.01039893692673073, ,0.009393549887864549, ,4.139434713228132e-05, ,0.12696172845225093,-0.2197735321346811,0.08856123651,2.998566191828698,0.24813188357403987,-0.23198429578372537, ,0.021050785616342233,0.017658530249064157,0.010178154325878597,0.0013846675478530884,0.01729989714792354,0.028927844207074557, ,0.6885459423065186
0.009761948190445844,0.0200003513251237,-0.07884602286158408, ,0.010021042737676974,0.01994646754334654,-0.0792560910927329, ,0.000488046514730959, ,0.003295616847397491,0.001222310807187748,-0.011483272256556473,-0.01929868269592618,0.0052133871446302825,-0.010708598440607942, ,0.012009191306346057, ,0.01999045671416026, ,4.191214164605263e-05, ,0.12718568770560346,-0.21959590927857392,0.08867531003000001,2.9987758817721826,0.2482685200738053,-0.23193235620714067, ,0.022244946450649502,0.016903623362748622,0.01174691115044248,0.020366536882542488,0.0,0.02607505900518675, ,0.7060091495513916
0.009827342236323394,0.02003274731428626,-0.07908275468789085, ,0.010085080408347855,0.019964523238469478,-0.07944891603949845, ,0.00045294329142915336, ,0.003436416496019632,0.0017989738186994352,-0.012146084052838256,0.03219601876597162,-0.030292834841708773,-0.018073145361918362, ,0.012750396972372808, ,0.04420677779226354, ,4.229042511312894e-05, ,0.12763360621230846,-0.2192638317649823,0.08892030884,2.9987758817721826,0.24895170257263252,-0.23183601580449828, ,0.023629716523523598,0.01639546329621126,0.012631888596352102,0.01554022798954104,0.04395288552438377,-0.018294603579897446, ,0.7261121273040771
0.009896438671340695,0.020060176858318225,-0.07932167316888097, ,0.010149001788270424,0.019982492982392706,-0.07964107424164579, ,0.0004145358342717651, ,0.003216971352160476,0.0013636818494345846,-0.010881135455846229,0.0006638274605492117,-0.006051202587892969,0.005711923665536604, ,0.011428370035817552, ,0.0060874926793835086, ,4.252933556255444e-05, ,0.12810469291763615,-0.21893947698426486,0.08916530765000001,2.9989855717156675,0.24895170257263252,-0.2313459433636549, ,0.02276798022036247,0.015390357048081537,0.011233294442877295,0.001988738311220109,0.019099569065521006,0.015443244292936826, ,0.743786096572876
0.009954948514151343,0.020077067319509666,-0.07950608654647992, ,0.010212806989767882,0.02000037690283113,-0.07983256692882591, ,0.00042303883215893777, ,0.0031175908254778527,0.00058958658586868,-0.009112703551065545,-0.021023137989069934,0.01659059960328529,-0.0017269048262974532, ,0.009649266858520526, ,0.02678096830333064, ,4.2782559255699705e-05, ,0.1285217204928443,-0.2186073994706732,0.08935456599000001,2.999614641546121,0.2492249755721634,-0.2309970279900638, ,0.023559320148577652,0.018148200718774293,0.009298780805604204,0.017782927364151237,0.002682721686731952,0.04068121987535708, ,0.7616450786590576
0.0100210159345856,0.0200940768885296,-0.07969834633421327, ,0.010276496125212461,0.020018175127524174,-0.08002339532943958, ,0.0004203427820530499, ,0.0032492811252683136,0.0009750425916227909,-0.00942523067242228,0.01720355681938611,-0.004018600411563357,-0.007892734535410941, ,0.010017160731208877, ,0.01766667603498232, ,4.3015640772139864e-05, ,0.12903914359541732,-0.2182289855598362,0.08955289836000001,2.999614641546121,0.24977152157122512,-0.23087094842386555, ,0.025085102183048054,0.017908462268063932,0.009778275948434624,0.017782927364151237,0.03621429416583014,0.013832644021834845, ,0.7800331115722656
0.010054881438478411,0.0201010009190158,-0.07980003826320428, ,0.010340069307025388,0.02003588778423588,-0.08021356067063712, ,0.0005065299814781794, ,0.0034130846559586774,0.000868968140990438,-0.010269432083989003,0.0022480877681070066,-0.0011810979126073307,-0.0054211081518117914, ,0.01085658730110248, ,0.002539444166528, ,4.348912431529164e-05, ,0.12929399378026674,-0.21803591723798058,0.08965660156000001,2.999614641546121,0.24977152157122512,-0.2305442334633033, ,0.025564908825019064,0.020126604784405255,0.010562872360742707,0.008664661768857388,0.018742947412487877,0.028729903659216256, ,0.7988190650939941
0.01012726345749649,0.020122975686646737,-0.08002009685282667, ,0.01040352664767669,0.02005351500075461,-0.08040306417831974, ,0.0004772945731185985, ,0.0035927164576314468,0.001118795484378119,-0.010869656520978769,5.616902631964038e-05,-0.03314204888153278,-0.021772334319489155, ,0.01150255396704823, ,0.033142094189908315, ,4.385773280132089e-05, ,0.12982686234858823,-0.2176575033271436,0.08988345231000001,3.00003402143309,0.2501814310705215,-0.23014337851312752, ,0.02647055552537539,0.017476416493272702,0.011201695864978904,0.016287981449400208,0.012989133750327514,-0.0135640550880676, ,0.8175539970397949
0.010198748368660648,0.020144222342681425,-0.08023502762224403, ,0.010466868259685097,0.020071056904892838,-0.08059190707714015, ,0.00045233218167261066, ,0.0037077345033315733,0.0012227100373786424,-0.011093874104919556,0.01049182994038314,-0.015509117504776576,-0.0028310225926888545, ,0.011760797491603475, ,0.018724610896719212, ,4.4140379930184516e-05, ,0.13035973091690972,-0.2172868121491808,0.0901051179,3.0002437113765743,0.2505913405698178,-0.2299058810432328, ,0.02784534670142922,0.018512864135480058,0.011492649004329005,0.008527673915439276,0.02983331152245374,0.0072401733566569825, ,0.8351631164550781
0.01029008950970527,0.020168607906563267,-0.08049803490780916, ,0.010530094255617866,0.02008851362448687,-0.08078009059050333, ,0.00037890998960436024, ,0.0035968781968490527,0.0008229326507167389,-0.010024008875531877,-0.013794160650540763,0.01876821160134242,-0.0004309586737657467, ,0.010681549739964028, ,0.023292156052187814, ,4.4210644099565674e-05, ,0.1310470541427157,-0.21683889364247577,0.09037604251,3.0006630912635437,0.25086461356934864,-0.22906689322879836, ,0.02741893717378526,0.01837307677801951,0.010316587772020727,0.019946076299276052,0.01097211525710305,0.04573084042853302, ,0.854917049407959
0.01032386757571843,0.02017934542869526,-0.08059621651785627, ,0.010593204748090574,0.02010588528739699,-0.08096761594056735, ,0.000464625048798609, ,0.0032932770187777457,0.0010509022310849487,-0.009636346529227114,0.04433275207733493,-0.03476718621938727,-0.02307234827264166, ,0.010237638568198058, ,0.056339595856479616, ,4.450648382223789e-05, ,0.13130962706043933,-0.21664582532062018,0.09047844942000001,3.0006630912635437,0.2514111595684104,-0.22926752862316238, ,0.024986029899544702,0.019438128135696595,0.01005606787878788,0.019730815435793553,0.05756201237586995,-0.02482119664829784, ,0.8725171089172363
0.010389617493694341,0.020191981106336233,-0.08077950821638691, ,0.010656199849767178,0.02012317202150679,-0.081154484348244, ,0.00046519667043834153, ,0.00342239260255528,0.0008146270007895655,-0.009530902421225921,0.0016416112415189976,-0.0033924802542984575,-0.00018449727035530362, ,0.01015945319588464, ,0.0037687837692374575, ,4.4791457190019714e-05, ,0.13181160469726394,-0.21629057960840584,0.09066641147000001,3.000872781207028,0.2515477960681759,-0.2284804803853126, ,0.026338312949894745,0.018224878348083496,0.00984475372064277,0.010279826078568581,0.022763306028079456,0.01995184835259642, ,0.893543004989624
0.010462565403287265,0.02020998805459791,-0.08097982014531858, ,0.010719079673359605,0.02014037395472336,-0.08134069703319907, ,0.0004481939556245663, ,0.0033265058565944442,0.0007949165044811796,-0.009029583100327358,0.0037229836505703476,-0.029878659356638308,-0.010945690315098757, ,0.009655615176091637, ,0.030109713253144234, ,4.5021284039391604e-05, ,0.13238308692995654,-0.21591216569756885,0.09087381787000001,3.000872781207028,0.25209434206723763,-0.22810936459869266, ,0.025836357625502526,0.016535448955997695,0.009336935240328255,0.007906894846735358,0.017700789586870866,-0.009241431078015925, ,0.9111490249633789
0.010533876339054376,0.020227646609627715,-0.08117798555206697, ,0.010781844331627878,0.020157491214976692,-0.08152625521385447, ,0.00043324549860460364, ,0.003390682637837041,0.0010914888735309679,-0.00986472556313117,0.007408264854243753,-0.0019559797405777424,-0.00735227051899882, ,0.010488130774712195, ,0.0076621244755852545, ,4.520442996994165e-05, ,0.13291595549827803,-0.21554919725248028,0.09107863169000001,3.0015018510374816,0.25250425156653394,-0.22754515216823576, ,0.024979452897728554,0.015932998918480656,0.010237025398457585,0.017492897389236095,0.024976523684753508,0.01797492114017947, ,0.9294121265411377
0.010601449763057118,0.02024992254045946,-0.0813835253909298, ,0.010844493937379797,0.02017452393022011,-0.08171116010738741, ,0.00041484928410987507, ,0.0033409830794701636,0.0011797458313275674,-0.011153260854104218,-0.010615810448015513,-0.023719002711948548,0.037079746147607645, ,0.011702529463476444, ,0.02598627230924308, ,4.533517651625699e-05, ,0.13339476493647995,-0.21522484247176285,0.09129122325000001,3.0019212309244505,0.25291416106583026,-0.22738933343848167, ,0.023431343594684143,0.016498077461486575,0.011467826868250543,-0.03572169859636599,0.011897626041830197,0.006480199621083054, ,0.9478869438171387
0.010635240970633213,0.02026319356016349,-0.08149473925183855, ,0.010907028603470847,0.02019147222842938,-0.08189541292973204, ,0.0004894403568831438, ,0.0032110860368277697,0.0012426677658231204,-0.010276930338703505,0.026876710976253933,-0.007240140761915325,-0.0028390154030283324, ,0.01083838520715566, ,0.027834818420792364, ,4.575086279951629e-05, ,0.13363416965558092,-0.2150472196156557,0.09140659306000001,3.001711540980966,0.25332407056512657,-0.22739687218900867, ,0.022418365593780007,0.01705859096862678,0.010690477530201345,0.011374462013080443,0.0447715118616695,0.0075333474700458244, ,0.9638850688934326
0.0106743608008583,0.020274411080178585,-0.08161874157154951, ,0.010969448442804123,0.020208336237603215,-0.08207901489557987, ,0.0005507214668636571, ,0.0033738150802967693,0.0013138321534313865,-0.011021594639104178,0.009845913236414936,-0.008618682446520096,-0.0024793842991318407, ,0.011601048724669594, ,0.01308524099643984, ,4.629828661725273e-05, ,0.13390446530617878,-0.2148541512938001,0.09153362948,3.001711540980966,0.25332407056512657,-0.2269067997481653, ,0.02289984110966959,0.016294117712649513,0.011410323438395417,0.009172146693258982,0.0273028951710577,0.009745067084210267, ,0.981295108795166
0.010747773997671003,0.02029774835498607,-0.08184875660271321, ,0.011031753568330138,0.020225116085762208,-0.08226196721838056, ,0.0005066190442379189, ,0.0033273252896944957,0.0010676641679344093,-0.01028365434047277,-0.003719697490472865,-0.02202204970062629,-0.0002590389923928637, ,0.010861148509861012, ,0.0223339810026565, ,4.672476100490962e-05, ,0.13441416567587758,-0.2144834601158373,0.09177085055,3.0019212309244505,0.25373398006442294,-0.22650594479798952, ,0.023425559505917248,0.015572192576053622,0.01060506758988016,0.0,0.011934003909380167,-0.000248928789595591, ,0.9965300559997559
0.01078244778257946,0.020310034704706485,-0.08195766247243352, ,0.011093944093046652,0.020241811900949754,-0.08244427111034244, ,0.0005817836959512327, ,0.003542921955823188,0.0013500051182200662,-0.011650340274568967,0.01682549662156151,0.0022682173887084694,-0.009808804992566433, ,0.012251744296936583, ,0.016977689243631477, ,4.731030208287943e-05, ,0.13464584766210433,-0.21431355999260437,0.09188362778,3.00234061081142,0.2540072530639538,-0.22648374438496063, ,0.023495157602988554,0.018348209891428997,0.012067281454545456,0.021786681620496396,0.03651897604016301,0.018316716526052847, ,1.0126969814300537
0.010871907699810673,0.02034358552253763,-0.0822567034255999, ,0.011156020129998648,0.020258423811230768,-0.08262592778243337, ,0.0004736021703277102, ,0.0032967365935911725,0.0011079713751623275,-0.010748469803579611,0.011146150324576252,-0.009142169735594927,-0.018311263482268133, ,0.011297153440321369, ,0.01441581739172961, ,4.763254202800964e-05, ,0.1352327753605454,-0.21387336421877357,0.09219214480000001,3.002550300754904,0.25455379906301556,-0.22586759237791898, ,0.02167586604807464,0.017741062172082777,0.011092487130919221,0.0229920456104957,0.027182235039566873,0.004497696322729981, ,1.0286340713500977
0.010907250661247345,0.020355967428576607,-0.08236786744634063, ,0.011217981792278113,0.020274951944692556,-0.08280693844438161, ,0.0005439675410732996, ,0.003549485154179177,0.0014620847131432413,-0.011431007079680623,0.03913623860890162,-0.0005281259548276171,-0.008412436867323979, ,0.012058377147189171, ,0.03913979936462139, ,4.810145015023065e-05, ,0.13546445734677212,-0.21369574136266642,0.09229973687000001,3.002550300754904,0.2549637085623119,-0.22579345238830548, ,0.02420222942067605,0.018607243442837408,0.011913845564697085,0.02172561815678822,0.0626655859155758,0.009375661040862675, ,1.0438940525054932
0.01098042594044439,0.02037756384530417,-0.08259746409924139, ,0.011279829193023965,0.020291396429443706,-0.08298730430467638, ,0.000499041598451367, ,0.003980669906153875,0.000988662905920955,-0.01162313222630507,-0.026244809556354734,0.014513638764956698,0.009452003982234043, ,0.012325598970982085, ,0.029990590636268598, ,4.8457440166458173e-05, ,0.13597415771647095,-0.21333277291757785,0.09254343939000001,3.002759990698389,0.25510034506207735,-0.2250064041504557, ,0.02820117133981301,0.018505643829654986,0.01194063832083958,0.00812687195145205,0.0,0.046416688620868486, ,1.0622501373291016
0.011061600413941945,0.02040559085272508,-0.08285175426125689, ,0.011341562445421807,0.02030775739361448,-0.08316702657056814, ,0.0004328357122631219, ,0.0038679587125960294,0.0012546771991277213,-0.011750370952805352,0.019245744539828264,-0.009879466538198548,-0.0036069075865141536, ,0.012434087702959565, ,0.02163336122674016, ,4.8659672631032506e-05, ,0.13650702628479244,-0.21295435900674087,0.09280269739000001,3.0033890605288422,0.2556468910611391,-0.22479864584411688, ,0.026905852440734554,0.019708606761883858,0.012252931938461541,0.012266177788826882,0.04005513878709776,0.01032553071113099, ,1.077934980392456
0.011098947745593186,0.020412958404354354,-0.08296337111209715, ,0.011403181662703947,0.020324034965356376,-0.08334610644806993, ,0.0004969426443021233, ,0.003627266770813029,0.0008346891298634564,-0.010715478371726317,0.007413083816629059,0.012951445418838223,-0.026736380220294786, ,0.011343511224708646, ,0.014922922261975084, ,4.8992278877596114e-05, ,0.13676959920251608,-0.21274584521913678,0.09292065978000001,3.0035987504723267,0.2556468910611391,-0.22447193088355463, ,0.024744965204294856,0.020787939005141462,0.011046332538141471,0.04199236001249354,0.02852340708464781,0.028296766127992902, ,1.0933640003204346
0.011165444576077373,0.020428067580740082,-0.08314961035286395, ,0.011464686958149155,0.020340229272842285,-0.08352454514195769, ,0.0004876860338733431, ,0.004011738868113079,0.0009773095819322133,-0.011394103891606628,-0.022159777167855436,-0.02126796298771439,0.02699171420996879, ,0.01211919082519914, ,0.03071452069838854, ,4.929571720407446e-05, ,0.137248408640718,-0.2124292131712936,0.09311251070000001,3.0038084404158116,0.25578352756090456,-0.22417495508654828, ,0.029452806194435372,0.01789495409362074,0.011729610839469811,-0.023663589958335705,0.0016010594921213779,0.014669330025334167, ,1.1099350452423096
0.01121352855649838,0.020440150938654474,-0.08328193642939505, ,0.011526078445082594,0.020356340444265653,-0.08370234385577086, ,0.0005305224179765007, ,0.003805119051037429,0.0006106834010890707,-0.009718979512466733,-0.012614389760974756,-0.004091241511701804,0.010667590148555912, ,0.010455162742524948, ,0.013261259345629241, ,4.967888331471077e-05, ,0.13761137708580654,-0.21218980845219262,0.09324991744000001,3.0035987504723267,0.2561934370602008,-0.22418249383707525, ,0.029154206315966442,0.01896421693814364,0.010024425122718693,0.0,0.011583564834894828,0.02661049403047499, ,1.1250650882720947
0.011291608167067682,0.020451133859203,-0.08348072783453397, ,0.011587356236875698,0.020372368607841338,-0.08387950379181375, ,0.000502685935472271, ,0.0037702705225545335,0.0008968660123868035,-0.009990193963432443,0.003072293921734094,0.01336791155878395,0.006798040491610909, ,0.01071556269565067, ,0.013716411698193334, ,4.999443067167472e-05, ,0.1381983047842476,-0.21178050360985873,0.09345473126,3.0040181303592957,0.2564667100597317,-0.2237518997233436, ,0.02804283142980815,0.017928762810971242,0.010383840625814865,0.0126088957954018,0.027435403643319874,0.03971114991119778, ,1.1416101455688477
0.01137413698570863,0.020473044848873044,-0.08370953834697349, ,0.011648520446945938,0.0203883138918043,-0.08405602615115493, ,0.00045002157429708227, ,0.0037807087449699644,0.0009981408755265755,-0.011214172002982489,-0.008832674133707698,0.0016415314510546018,-0.002892486595665489, ,0.011876350345715034, ,0.008983906750689299, ,5.0195355490139295e-05, ,0.1387929552155629,-0.21140981243189597,0.09369195233000001,3.00422782030278,0.256876619559028,-0.2231876872928867, ,0.025759213235198364,0.018141262006972046,0.011559369753265604,0.013913718000281102,0.012529968876962408,0.025812296975265867, ,1.1593959331512451
0.011414673213688737,0.020485686064130086,-0.0838238433655974, ,0.011709571188756816,0.02040417642441042,-0.08423191213362904, ,0.000510028191877029, ,0.004097029273056385,0.00116737036726626,-0.01108808109814804,0.013605386502889318,-0.0006793795556178372,0.0002877180079907467, ,0.011878297221309127, ,0.013622332064317205, ,5.050953510092356e-05, ,0.13908641906478342,-0.21122446684291457,0.09381121101,3.00422782030278,0.2572865290583244,-0.22319522604341374, ,0.02991706858715977,0.018281052120684028,0.011567764357298475,0.013913718000281102,0.03536409010731488,0.02443653789932195, ,1.1753480434417725
0.011488239343759395,0.020505218542426713,-0.08403046539254022, ,0.011770508575817688,0.020419956333935552,-0.08440716293783686, ,0.00047837914272685423, ,0.004045819874770031,0.0009604771845612816,-0.010905170608429427,-0.012404035789629411,0.010627636317662219,0.0062793436856895205, ,0.011671071967908517, ,0.01633421572476688, ,5.075330931385401e-05, ,0.1396115649002307,-0.21090011206219714,0.09402509886,3.00422782030278,0.2575598020578552,-0.22260127444940095, ,0.02921703865716465,0.01769804952601096,0.011289023047484055,0.010946091501244606,0.01179222159406546,0.04072440656718055, ,1.1937170028686523
0.011570889990149387,0.02052722937862081,-0.08425777838451702, ,0.011831332721683645,0.020435653748675855,-0.08458177976114663, ,0.0004256681858757136, ,0.0039012024275440105,0.0010915870730084428,-0.011178613673611337,0.0007465663788310012,-0.021000536002899434,-0.012321533724086698, ,0.011890010360907376, ,0.021013797829261712, ,5.098718639878179e-05, ,0.14019076986579754,-0.2105371436171086,0.09426102364000001,3.004856890133234,0.2579697115571516,-0.2222820982393657, ,0.026921118172615822,0.017222675418960214,0.011576171162790699,0.013527703550347873,0.01652725655934574,0.0010078570106997406, ,1.206907033920288
0.011606466437978831,0.02053739013296679,-0.08436045256364057, ,0.011892043739955352,0.020451268796947513,-0.08475576379969357, ,0.0004952193991269822, ,0.003988656185158126,0.0011906506992449082,-0.011585646689395516,-0.002975728327461407,0.012803356553896129,0.005568890305467138, ,0.012310736633626513, ,0.01314460685555514, ,5.13484388429312e-05, ,0.1404378973177727,-0.2103826889596241,0.09436731942000001,3.004856890133234,0.258106348056917,-0.2219851224423593, ,0.027284917066840362,0.017476416493272702,0.012012678371040725,0.01259810247493205,0.02067939709186257,0.039279645232259075, ,1.226586103439331
0.011690586779458176,0.020570380781381403,-0.08462325457897897, ,0.011952641744278954,0.020466801607086513,-0.08492911624838156, ,0.0004158759559587113, ,0.003949528921557079,0.0015458885550269684,-0.012273048321765552,0.007255157113986296,0.006939098415500769,0.01466954147229814, ,0.012985232583021816, ,0.010039328319614552, ,5.155180737670691e-05, ,0.14098621135184264,-0.210035165980284,0.09464083661000001,3.0050665800767185,0.2587895305557442,-0.22123535211859244, ,0.025949396105679735,0.015877018831934212,0.0127737061106656,0.0019185557923385112,0.02964887910039998,0.032312700498912786, ,1.2408170700073242
0.011727051345988164,0.02058395972695239,-0.0847367612034797, ,0.012013126848345917,0.020482252307448406,-0.08510183830088341, ,0.0004748314219595432, ,0.0036529804991610854,0.0010816030873365438,-0.010947093300572829,-0.0010833193832658116,-0.032857409784618916,-0.0071149448369068145, ,0.011591073440248475, ,0.03287526123737251, ,5.186061442465337e-05, ,0.1412256160709436,-0.2098807113227995,0.094758799,3.0050665800767185,0.25906280355527506,-0.22121315170556355, ,0.02438883103533045,0.016097869645202847,0.011313076363636366,0.0019185557923385112,0.012570617863606796,-0.01193508243306095, ,1.2541451454162598
0.011765693544542214,0.02059171048624582,-0.0848465859017017, ,0.012073499165892999,0.02049762102640832,-0.08527393114964155, ,0.0005349963438421076, ,0.0035866167776947453,0.0007493988056864569,-0.010112216387022548,-0.0067166340046176404,-0.015723803677076837,-0.011731090687687911, ,0.01075557245050086, ,0.017098276775426097, ,5.2273589807114965e-05, ,0.1414727435229188,-0.20970308846669233,0.09486768736000001,3.005276270020203,0.25906280355527506,-0.22104979422528243, ,0.024514838945613737,0.01753454204701973,0.010445122308196723,0.01778543393263232,0.010165033387428087,0.004173536275463321, ,1.2689831256866455
0.01182850553960212,0.020605564738279326,-0.08502556175036662, ,0.012133758810701953,0.020512907892360745,-0.08544539598586867, ,0.0005272813631376747, ,0.0035646436065768007,0.0009183596646445574,-0.010208877349811636,-0.008733051440958059,-0.012936669059069277,-0.009548947667087861, ,0.010852246092816546, ,0.0156084426809636, ,5.2663443501083914e-05, ,0.14190521656387536,-0.2094096246174718,0.09505564941000001,3.005695649907172,0.25906280355527506,-0.2208864367450013, ,0.024042802523048083,0.015503502950248452,0.01054190041032429,0.012553216600405249,0.006697249416913499,0.008611909018447626, ,1.282508134841919
0.011880900175053548,0.020619346007974416,-0.08517742946156548, ,0.012193905896599539,0.020528113033719212,-0.08561623399954829, ,0.0005466675954053675, ,0.003843393499425033,0.0010378004120185054,-0.011959829767435634,-0.017559288898946302,-0.013141180972164098,-0.01058382613263125, ,0.012605008185346326, ,0.02193214579754762, ,5.3079845909746124e-05, ,0.14226046227608968,-0.20917794263124506,0.0952125005,3.005695649907172,0.25919944005504053,-0.22099785464869776, ,0.024183726187174,0.01763228196924392,0.012281273338473403,0.012553216600405249,0.0,0.009547193533753854, ,1.2957420349121094
0.011923786327119563,0.02063329639416714,-0.08543439210323314, ,0.012253940537457368,0.020543236578916477,-0.08578644637943533, ,0.000579762749794245, ,0.004021916397092103,0.0014334409962063173,-0.013687548036124087,-0.011254527400114341,-0.02308171435302219,-0.01537228557621126, ,0.014338045049308766, ,0.025679358326221223, ,5.3546423899631426e-05, ,0.14271610351566894,-0.20883814238477919,0.09547694366000001,3.0059053398506568,0.25933607655480595,-0.22070087885169135, ,0.02396992714283172,0.01633056987755477,0.014234862841823058,0.012518818487082825,0.0035515846548208395,0.0052957387486520825, ,1.3109641075134277
0.01200763866061633,0.020664767250412153,-0.0856058703134492, ,0.012313862847191739,0.020558278656403913,-0.08595603431305734, ,0.0004772084447274553, ,0.004318403226026031,0.0015347328257621405,-0.014852502773427756,-0.022120666540118728,0.017268126868407934,0.0013145024833106029, ,0.01554351472169995, ,0.0280626330011233, ,5.382191842494886e-05, ,0.142994121899141,-0.20862962859717513,0.09565323910000001,3.0063247197376257,0.25933607655480595,-0.22012912767070741, ,0.02459107062930054,0.01914788974141864,0.015257482298850577,0.0154125868549337,0.0031106556865598506,0.04328393599004564, ,1.3252289295196533
0.01205088134503502,0.020682419478773122,-0.08574667363735253, ,0.012373672939763542,0.02057323939465184,-0.08612499898671434, ,0.0005091608531356789, ,0.004476461178264928,0.0014986119334453336,-0.013679216775617712,-0.003666404278081853,0.0007266463828051854,-0.004351057085550928, ,0.014470850493385617, ,0.0037376538534694744, ,5.414749419870058e-05, ,0.14325669481686465,-0.20844428300819373,0.09579971987000001,3.00653440968111,0.2597459860541023,-0.22005498768109388, ,0.02841225795163796,0.018256433543376447,0.014171540498220642,0.016530789965557298,0.01761198908829771,0.026474933750854152, ,1.3383469581604004
0.012118038088869697,0.0207041847482252,-0.08593736739551769, ,0.012433370929178079,0.02058811892214902,-0.08629334158547979, ,0.0004895137383964506, ,0.004090134948200866,0.001227044212777779,-0.01114606360347826,0.0425238012596062,-0.025379061082760966,-0.012605440759473303, ,0.011936061965631224, ,0.049521411964701216, ,5.443231906583596e-05, ,0.14372005878931812,-0.208143096426099,0.09599934853000001,3.00653440968111,0.26056580505269494,-0.21998838644200733, ,0.029002732750143877,0.01997409841264382,0.011233294442877295,0.016530789965557298,0.024192944422762493,0.04013030419643668, ,1.3555920124053955
0.012188630326884387,0.02071282366705373,-0.08612143960003546, ,0.012492956929485089,0.020602917367402468,-0.08646106329320134, ,0.00046908243274839534, ,0.0037273873293064514,0.0005135902683823224,-0.009416981884457234,-0.02286971331415667,0.013405270810328315,0.000494382161898976, ,0.010140845087005669, ,0.02650896072112643, ,5.467630625479723e-05, ,0.14422203642614273,-0.20778012798101042,0.09618860687000001,3.00653440968111,0.26070244155246036,-0.2187929445034548, ,0.026441053652402,0.01715728467880506,0.009700859634591961,0.01523144310722906,0.0,0.04153727332822523, ,1.3687400817871094
0.012226915200534427,0.02072132914515598,-0.08621770748863258, ,0.012552431054778448,0.02061763485893774,-0.08662816529250146, ,0.0005340306031637017, ,0.003855638667629446,0.0009641644080058626,-0.010024048886397734,0.05375754263822906,-0.037534926936241275,-0.011338032675017831, ,0.010783186848880822, ,0.06556480785758274, ,5.502541263722929e-05, ,0.1445000548096148,-0.20758705965915483,0.09628971749000001,3.0067440996245947,0.26124898755152215,-0.21907525863795935, ,0.027902658499991406,0.020364150549028064,0.010555872445328034,0.010450944947505068,0.06948317849570126,-0.02368615094290206, ,1.381742000579834
0.012281375004717867,0.020731761556545346,-0.08636397075669881, ,0.012611793419196085,0.020632271525298146,-0.08679464876477791, ,0.0005518678660574892, ,0.004125616749739732,0.0008393339375417728,-0.011369399886349617,0.016000476133444953,-0.024889651011054385,-0.009294301455822928, ,0.012123879280171388, ,0.029589014413762535, ,5.5397418325541564e-05, ,0.14487074598757757,-0.20730904127568273,0.09644138342000001,3.0071634795115636,0.26165889705081846,-0.21891943990820525, ,0.028176051531612463,0.021538116558890326,0.011790386025166546,0.010868743502918329,0.035817709317219774,-0.004129440896345855, ,1.3986320495605469
0.012353052684553877,0.020744681291573523,-0.0865618766210252, ,0.012671044136919992,0.020646827495045195,-0.08696051489020422, ,0.000519236361329754, ,0.004271473844201528,0.0010009731405743435,-0.012266277399901524,-0.009926296095494969,0.011088708829085409,0.005901350702525513, ,0.013027240585833362, ,0.014882558247133762, ,5.570780346071848e-05, ,0.1453495554257795,-0.20697696376209107,0.09664490095000002,3.007373169455048,0.26165889705081846,-0.21802097376665908, ,0.027723325024385268,0.019684078315384938,0.012522650566037737,0.01103992726555227,0.016297472126564013,0.03963592086818889, ,1.4119670391082764
0.012400046403240423,0.020753872564813355,-0.08669257098702401, ,0.012730183322175858,0.02066130289675792,-0.08712576484773085, ,0.0005524639804024965, ,0.00465379307925866,0.0007951290775604332,-0.012305571928030638,-0.02325504366925243,-0.009701947298608113,-0.004084965682047263, ,0.013180179086434053, ,0.02519770932594847, ,5.606671326275498e-05, ,0.1459750967885917,-0.20655993618688295,0.09690675153000002,3.007373169455048,0.26220544304988025,-0.21797657294060135, ,0.030337896917669686,0.01910548450945657,0.0125621541955836,0.01103992726555227,0.010562463492355413,0.014149744707838557, ,1.4251620769500732
0.012501652457914507,0.020778615640911824,-0.08696549453157251, ,0.01278921108923321,0.020675697859033237,-0.08729039981508513, ,0.0004459209341655845, ,0.004512996132464773,0.0012423984759731667,-0.011997471558082604,0.015233947846470414,-0.01748133322683963,-0.008745802630057035, ,0.012878276742318574, ,0.023187710749593766, ,5.633683947458502e-05, ,0.14635351069942867,-0.20632825420065623,0.09705971375000001,3.007582859398533,0.2623420795496456,-0.21767959714359494, ,0.03101207240472901,0.018281052120684028,0.012572069076558801,0.015166337030274344,0.03364045518061898,0.007057519888876207, ,1.4423420429229736
0.012544001946327385,0.02078736864096948,-0.08707703958591478, ,0.012848127552405057,0.020690012510485377,-0.08745442096877284, ,0.0004943554475706833, ,0.004151982505885987,0.0009173586828542905,-0.010844809573886283,-0.0008618006693760447,0.01650235013022491,0.007514164419918007, ,0.011648622252268592, ,0.016524833137067315, ,5.6680967711150964e-05, ,0.14664697454864922,-0.20615063134454906,0.09717897243000001,3.0077925493420175,0.2623420795496456,-0.2172712034428921, ,0.028643809706752423,0.018106647883699825,0.011289023047484055,0.01335652150770296,0.024289532693281296,0.04439969313949677, ,1.4533419609069824
0.012588063207580203,0.02079572119949473,-0.08719484565838614, ,0.012906932826047927,0.020704246979745922,-0.08761782948407758, ,0.0005375506332030187, ,0.00437567214586241,0.0007735143126739548,-0.011909465237280854,-0.024326767184631018,0.002997589929936222,0.00012479890934965522, ,0.012711419801028866, ,0.024510750854622305, ,5.7088906386347216e-05, ,0.14694816113074397,-0.20594984028981922,0.09730082369000001,3.0077925493420175,0.2624787160494111,-0.2170559063860263, ,0.02902934890133704,0.019724993048944248,0.012262364526558892,0.01164517304140339,0.0,0.0335420950374164, ,1.4642701148986816
0.012632108131027622,0.020809504280834504,-0.0873201585734107, ,0.01296562702456165,0.020718401395463593,-0.0877806265350625, ,0.0005758170992379644, ,0.00436511564339272,0.0012726657564626513,-0.012994342536733785,-0.013354265993132799,0.022602577326559035,0.019033972038035113, ,0.013766875123637662, ,0.026252857968850456, ,5.755128308587942e-05, ,0.14723390224709026,-0.20576449470083782,0.09743174898000001,3.008002239285502,0.26288862554870746,-0.21698176639641276, ,0.02742686172210138,0.018082496485989096,0.01345338810810811,0.00379348497821259,0.014685547947192562,0.05356642416226615, ,1.479011058807373
0.012728143706100214,0.020840039307545827,-0.08760208419901826, ,0.013024210262389316,0.020732475886304245,-0.08794281329457004, ,0.00046402759820685324, ,0.00447963836286637,0.0017546389488632286,-0.013610912513905879,0.008096159712970653,0.005738276274362894,-0.017068782552549525, ,0.01443616490499231, ,0.009923464595115407, ,5.7829752568940174e-05, ,0.14782855267840556,-0.20539380352287506,0.09772471052000001,3.0086313091159558,0.2632985350480037,-0.21633587522581527, ,0.026898226065326186,0.015200535248834017,0.014196801711229948,0.031163485423948912,0.024258547244867763,0.026173027033227585, ,1.4904839992523193
0.012774557311208247,0.020852267953352623,-0.08774174841735866, ,0.013082682654017035,0.02074647058095048,-0.08810439093422343, ,0.0004874873392471286, ,0.004665387028267532,0.0011689938791637315,-0.013673252638815192,-0.01103762525116632,0.03116569715262068,-0.005631661460518795, ,0.014494489316216554, ,0.033062507047555645, ,5.8140628080542717e-05, ,0.14811429379475188,-0.20520073520101945,0.09786859871,3.0086313091159558,0.2632985350480037,-0.21576412404483133, ,0.028678435043357743,0.020925455690952763,0.014133816787932567,0.031163485423948912,0.01675719708545083,0.05805966051851119, ,1.5020639896392822
0.012817825680011613,0.02086684093745216,-0.08787231974495396, ,0.013141044313973916,0.02076038560810164,-0.08826536062442664, ,0.0005198885990519856, ,0.0046027076433960284,0.001442770008766795,-0.01358900398125771,0.0033998794039251635,-0.022320043881699364,-0.02527814404139765, ,0.014419692512373869, ,0.022577490459776948, ,5.84970595869957e-05, ,0.14838458944534974,-0.20501538961203805,0.09800470916000001,3.0086313091159558,0.2637084445473001,-0.21577166279535837, ,0.028184419827285645,0.017754338925813056,0.014108779025686451,0.02568779020114665,0.017299076062022623,-0.001822354689071437, ,1.5129470825195312
0.01286031466386719,0.02088304508391744,-0.08799826638955442, ,0.013199295356831902,0.020774221096473852,-0.0884257235343651, ,0.0005563004413944502, ,0.0047211344219406,0.0016576739437309824,-0.013829754210853768,0.036060998560776894,-0.02689029627736053,-0.018751472266031036, ,0.014707110343856966, ,0.04498314290015423, ,5.8904181721964025e-05, ,0.1486548850959476,-0.20484548948880513,0.09813693074,3.0086313091159558,0.2642549905463618,-0.21580894070944123, ,0.02957212264209124,0.0191982483428021,0.014480737745454548,0.021464654208461522,0.05132845626129353,-0.00944604217231066, ,1.5289380550384521
0.012961192070125383,0.020914150332899315,-0.08829732207474712, ,0.013257435897205653,0.020787977174799334,-0.08858548083200665, ,0.00043210593642467414, ,0.004504294285676732,0.0010377696813337924,-0.012948935783019406,-0.029036773774595757,0.022318022282776406,0.018359589127460735, ,0.01374920255273869, ,0.03662277960223279, ,5.9114878548633023e-05, ,0.14927270372588555,-0.20447479831084234,0.09844674405,3.00884099905944,0.2643916270461273,-0.21494021373145092, ,0.028251545566677815,0.01876175198862609,0.01335189565800503,0.0030335078214893643,0.0,0.056523605011240756, ,1.5401339530944824
0.013008009391616743,0.02092511720170969,-0.08842310322691907, ,0.013315466049752388,0.02080165397182695,-0.08874463368410182, ,0.0004616866910158509, ,0.004250313421700931,0.0008183447923300691,-0.011479596643394926,-0.007969652759234695,-0.010934704157215022,-0.003444355548458643, ,0.012268495893012675, ,0.013530813750504207, ,5.93673288499593e-05, ,0.1495738903079803,-0.2042740072561125,0.09857766934000001,3.009260378946409,0.2646649000456581,-0.21491801331842209, ,0.027796409361004918,0.018971799591857415,0.011878308366890382,0.009529241244993766,0.01260457835498023,0.015048970706184127, ,1.5510289669036865
0.013008009391616743,0.02092511720170969,-0.08842310322691907, ,0.013373385929171866,0.020815251616321265,-0.08890318325618426, ,0.0006132269527245048, ,0.004250313421700931,0.0008183447923300691,-0.011479596643394926,-0.007969652759234695,-0.010934704157215022,-0.003444355548458643, ,0.012268495893012675, ,0.013530813750504207, ,5.9844538968322356e-05, ,0.1495738903079803,-0.2042740072561125,0.09857766934000001,3.009260378946409,0.2646649000456581,-0.21491801331842209, ,0.027796409361004918,0.018971799591857415,0.011878308366890382,0.009529241244993766,0.01260457835498023,0.015048970706184127, ,1.5625979900360107
0.013055504055339697,0.020935780559129546,-0.08855257253440638, ,0.0134311956502061,0.020828770237063348,-0.08906113071257213, ,0.0006412696812272059, ,0.0042312335861351795,0.0010372972031638334,-0.011663945263920198,0.020388576550672978,-0.006572486905208685,0.0010682582949596362, ,0.012450981578488353, ,0.021421751142106885, ,6.035658535512714e-05, ,0.1498827996229493,-0.20405004800276,0.0987124835,3.0094700688898937,0.2650748095449545,-0.21484387332880855, ,0.027562283345475103,0.019807334910972817,0.012168687181054242,0.01018800363538215,0.04243182734066873,0.01522115908385609, ,1.57448410987854
0.013162371570777792,0.020958262179038283,-0.08884428969427222, ,0.013488895327639378,0.020842209962849693,-0.08921847721636783, ,0.0005100021395732997, ,0.004472466752913866,0.0010862646561246511,-0.01192100488122324,-0.0032836544272021543,0.025256989070755683,0.015561945450164294, ,0.012778626183483646, ,0.025469543430706537, ,6.0665974972954275e-05, ,0.15057784558162948,-0.20359440676318075,0.09901451907000001,3.0094700688898937,0.2653480825444854,-0.21392320677423352, ,0.029581340884810094,0.02103678598059649,0.01431160064690027,0.01018800363538215,0.008206150118910802,0.02545912438505625, ,1.5854461193084717
0.013211881304504769,0.020973530792063395,-0.08898981500124895, ,0.013546485076298045,0.020855570922492697,-0.08937522392945901, ,0.000523845642218637, ,0.005026142246964742,0.0016759255386347227,-0.015002245540606465,0.01833475888892464,0.00117340011451321,-0.0011539151988377641, ,0.01591031751909491, ,0.018372247859207866, ,6.09912194675765e-05, ,0.15087903216372425,-0.2033858929755767,0.099166185,3.009679758833378,0.26575799204378164,-0.21384906678461996, ,0.03026050432349196,0.02030315394918074,0.015647162593320236,0.016890634496602084,0.04186956792416127,0.025605272036166894, ,1.5966639518737793
0.013262521905681623,0.020990281853567237,-0.08913884417707227, ,0.013603965011050457,0.020868853244820393,-0.08953137201251928, ,0.0005342344081270124, ,0.005092547919793968,0.001777195456384625,-0.015105760518401524,0.031394835210420045,-0.017068293028268133,-0.004252650237008569, ,0.016039840050477133, ,0.03573459833638054, ,6.132691245555472e-05, ,0.151180218745819,-0.20318510192084685,0.0993217398,3.010099138720347,0.266167901543078,-0.21377492679500643, ,0.03094129167214567,0.02033360650492196,0.015802392380952386,0.012920062902586937,0.05183710872998508,0.005215566694547459, ,1.6102330684661865
0.013266357134934173,0.02099124398285742,-0.08915015364287253, ,0.013661335246806832,0.020882057058676042,-0.08968692262500885, ,0.0006753150623630025, ,0.005113724387446114,0.0017474550484369482,-0.015149193855242361,0.02783947017586352,-0.01590100862108652,-0.004009906526254052, ,0.01608421122470051, ,0.032060526772687684, ,6.19528329978266e-05, ,0.1512033869444417,-0.2031696564550984,0.09933340641,3.010099138720347,0.266167901543078,-0.21377492679500643, ,0.03105266412253625,0.020447520266854296,0.015833808667992052,0.012920062902586937,0.04868635225590377,0.007120498929755768, ,1.6195831298828125
0.013369220191847187,0.021017150559203543,-0.08945559733401236, ,0.013718595898519068,0.020895182492918142,-0.08984187692517423, ,0.0005349313190999944, ,0.005312615623411197,0.0015619874080188617,-0.015410914388860388,-0.005513593346518255,-0.006974508351929368,0.0017752122987124471, ,0.016375590729060932, ,0.008890591043188702, ,6.236834672736161e-05, ,0.15181348284150542,-0.2027526288798903,0.09964840488000001,3.0103088286638315,0.266167901543078,-0.2127131031731791, ,0.03228885388175256,0.02000357115482099,0.016008855798994977,0.008875817874937594,0.01800850328133541,0.024004173781380297, ,1.628554105758667
0.013426036754906024,0.021033427949527575,-0.08961618374467659, ,0.01377574708118067,0.020908229676420698,-0.08999623607005051, ,0.0005314242090027452, ,0.005421998142343733,0.0011690160430909667,-0.015183920269997816,-0.025305346146273947,0.017525778306337565,0.01249681098284726, ,0.016165274421742228, ,0.030781693289032713, ,6.277403136346707e-05, ,0.15216872855371974,-0.20253639235941198,0.09981562629000001,3.0103088286638315,0.26644117454260885,-0.21244586653972852, ,0.03359183771981267,0.02253548837769432,0.01569341036453202,0.008875817874937594,0.0064030818483597944,0.05488308821587934, ,1.6372830867767334
0.013467764850050848,0.021046983509890253,-0.08973195909628828, ,0.0138327889098266,0.020921198738072255,-0.09015000121546048, ,0.0005690549942127354, ,0.0053800952115206704,0.0019270051171964243,-0.015241516358628743,0.06960302611297871,-0.0706794437525125,-0.030249314969777147, ,0.016277671642992323, ,0.09919760173884826, ,6.322890814280736e-05, ,0.15243130147144338,-0.20236649223617906,0.09993747755000001,3.010518518607316,0.2669877205416706,-0.2126465019340925, ,0.033651397715769776,0.02143594794634533,0.016073472774974774,0.017096400157907466,0.07910022709490779,-0.05724619831864196, ,1.6488621234893799
0.013534959105033545,0.021066837595198357,-0.0899207445382192, ,0.01388972149953324,0.02093408980677637,-0.09030317351601569, ,0.0005382659704463505, ,0.005396805113291013,0.0013889683384258056,-0.015095782233340297,-0.007364829260255034,0.027259855863595257,0.0058209098676464364, ,0.016091531304149583, ,0.028237203611639835, ,6.363481189511905e-05, ,0.15284060631377727,-0.20211164205132964,0.10013451363,3.0109378984942854,0.26739763004096695,-0.2123273257240573, ,0.03311128456331849,0.021460185788889818,0.01569341036453202,0.02128584413502294,0.02282406049052846,0.060182027953242345, ,1.6584889888763428
0.013588304169910798,0.021076752760826788,-0.09006642258259456, ,0.013946544965418133,0.020946903011451495,-0.0904557541251175, ,0.0005447719476825535, ,0.005559429845825116,0.0011116739322766358,-0.014824463493615235,-0.007508636084082034,0.012092848690614992,-0.04230533749118899, ,0.01587160347967039, ,0.014234320824230554, ,6.404532490799329e-05, ,0.1531649610944947,-0.20188768279797714,0.10028488327000001,3.0113572783812543,0.26739763004096695,-0.21159221706279224, ,0.03412331591458856,0.023072438988201018,0.015375300694980696,0.05886267083267851,0.013940393191213348,0.0369268078511913, ,1.6672661304473877
0.013646251362145114,0.021089921823722903,-0.09022346005131096, ,0.01400325942263999,0.02095963848103036,-0.09060774419495694, ,0.0005404653621641089, ,0.005559429845825116,0.0011116739322766358,-0.014824463493615235,-0.007508636084082034,0.012092848690614992,-0.04230533749118899, ,0.01587160347967039, ,0.014234320824230554, ,6.444516184545059e-05, ,0.15352792953958325,-0.20164827807887617,0.10044821581,3.011566968324739,0.26767090304049784,-0.21107994420892004, ,0.035317060498128314,0.02435128087207359,0.016337242584615386,-0.015682182345542073,0.014014876654632625,0.05295987211588096, ,1.6762471199035645
0.013704776843149497,0.021107542534372088,-0.09038514674397449, ,0.014059864986398515,0.020972296344460257,-0.09075914487651589, ,0.0005331545034098028, ,0.005651397235067152,0.0011580567833719344,-0.015795836769271373,-0.022931249522546764,0.01013358676909823,0.03651735888801694, ,0.016816297019959653, ,0.025070516590423066, ,6.48303001056296e-05, ,0.15389862071754604,-0.20140887335977523,0.10061802980000001,3.011566968324739,0.26835408553932505,-0.2113103187668399, ,0.03736100061357117,0.022318189454014765,0.016999798847385277,-0.012970398663868904,0.08422721743840406,-0.043787267559437085, ,1.6877379417419434
0.01376209582578061,0.0211228071618099,-0.09054309642486022, ,0.014116361771934179,0.020984876730702755,-0.09090995731956744, ,0.0005283143765740893, ,0.006012569560381917,0.001560948070030736,-0.016145290751191813,0.0029117072432035293,-0.010492516655527268,0.007761523558665222, ,0.017299074109219943, ,0.010888978270675321, ,6.520442135201565e-05, ,0.15426158916263458,-0.20119263683929692,0.10078265863000001,3.0113572783812543,0.2686273585388559,-0.21104308213338938, ,0.0380196079961822,0.022381354141148765,0.016855885206349206,0.005234940219540387,0.0299172640052947,0.02565952071205186, ,1.6993229389190674
0.013820449976170627,0.021134124387169537,-0.09069703094250556, ,0.014172749894528238,0.02099737976873349,-0.09106018267267632, ,0.0005241121084959, ,0.005761337599847854,0.0009814157738569527,-0.014478268537903531,-0.014296299216896041,0.0026307902332458723,0.012383027557216559, ,0.015613341977816381, ,0.01453631976690749, ,6.556859067855485e-05, ,0.15463228034059737,-0.20096867758594442,0.10094210230000002,3.0113572783812543,0.2686273585388559,-0.21071636717282713, ,0.03768742714792326,0.023489341969918507,0.01511272440227704,0.005145707916207298,0.017252188658843776,0.016768992560905853, ,1.7087199687957764
0.013882007375539608,0.021142336182186267,-0.0908457983138656, ,0.014229029469502616,0.021009805587542216,-0.09120982208320003, ,0.000520098064652827, ,0.005866205896038689,0.0008733803268906439,-0.014163895112660072,-0.01236650045973145,-0.020655735435216146,-0.00951706201741209, ,0.015355490535067727, ,0.024074658251768535, ,6.592323125893808e-05, ,0.15503386245005704,-0.20072155013396922,0.10109636081000001,3.0117766582682233,0.2686273585388559,-0.21022629473198376, ,0.039020123996081735,0.023559320148577652,0.014735255800185015,0.01515688581717263,0.011924654194217545,0.01564603008236745, ,1.7177700996398926
0.013882007375539608,0.021142336182186267,-0.0908457983138656, ,0.014285200612219622,0.02102215431613262,-0.0913588766972888, ,0.0006635193249399766, ,0.005866205896038689,0.0008733803268906439,-0.014163895112660072,-0.01236650045973145,-0.020655735435216146,-0.00951706201741209, ,0.015355490535067727, ,0.024074658251768535, ,6.647018939834195e-05, ,0.15503386245005704,-0.20072155013396922,0.10109636081000001,3.0117766582682233,0.2686273585388559,-0.21022629473198376, ,0.039020123996081735,0.023559320148577652,0.014735255800185015,0.01515688581717263,0.011924654194217545,0.01564603008236745, ,1.7267730236053467
0.01396746830319023,0.021157945150418505,-0.09105413761695434, ,0.014341263438082043,0.02103442608352174,-0.0915073476598864, ,0.0006003158383470423, ,0.0059134372604338434,0.0009502711122700395,-0.014300020397728423,-0.012175217897021978,0.010148826245630705,-0.04482077387465371, ,0.015503623408589079, ,0.015850362993591428, ,6.692520311365307e-05, ,0.1555898992170012,-0.20038174988750335,0.10131413753000001,3.012405728098677,0.26903726803815226,-0.21007047600222967, ,0.03786789367855977,0.02282273726754949,0.01488673973831776,0.061524061778314994,0.008791854424622526,0.03921061430863459, ,1.7366681098937988
0.0140293803539073,0.021170694026442477,-0.09120484237593461, ,0.014397218062532855,0.021046621018740604,-0.09165523611473114, ,0.0005946034065444007, ,0.005645982155618325,0.001316916108363631,-0.014506774269300539,0.023855047308284687,-0.050781590577001094,0.015717086008531618, ,0.015622352007251287, ,0.05610554857711112, ,6.736756115707633e-05, ,0.1559992040593351,-0.2001423451684024,0.10147228491000002,3.0126154180421616,0.26944717753744857,-0.21015969349289726, ,0.037083603578925664,0.022514102386351313,0.015213764584527223,-0.01906363082367938,0.04669399972611984,-0.017868145693558893, ,1.7460651397705078
0.014084710593489683,0.021181317159544757,-0.09134989636899894, ,0.0144530646010551,0.02105873925083337,-0.09180254320435573, ,0.0005963213698603061, ,0.006055437457663229,0.0016364663266462548,-0.01639100911860804,0.0002339088509402884,-0.010266280751410173,0.028835116820913855, ,0.01755025711402001, ,0.010268887510253476, ,6.780746845886905e-05, ,0.1563467270386752,-0.19993383138079834,0.10162265455000001,3.0126154180421616,0.26944717753744857,-0.20975129979219445, ,0.03795877662338831,0.0217653535684566,0.01707268115755627,-0.014635845776846007,0.03132237333121279,0.036908917303346625, ,1.7548401355743408
0.014150276607865038,0.021195438846056954,-0.09153020502070162, ,0.014508803169171925,0.02107078090885792,-0.09194927007008864, ,0.0007425103427041723, ,0.006186183128308891,0.001329574967346498,-0.016673911894936333,-0.014206796546902854,0.012461055704523327,0.023026138771090467, ,0.017834123728708046, ,0.01889734607267474, ,6.853010644456284e-05, ,0.15674830914813487,-0.19968670392882315,0.10180932031,3.012405728098677,0.26944717753744857,-0.20917954861121052, ,0.038126533370217264,0.02459744467560155,0.01733276552774755,0.0,0.021066950060019376,0.05421127827837478, ,1.7627570629119873
0.014150276607865038,0.021195438846056954,-0.09153020502070162, ,0.014564433882446267,0.02108274612188483,-0.09209541785205413, ,0.00070971222540929, ,0.006186183128308891,0.001329574967346498,-0.016673911894936333,-0.014206796546902854,0.012461055704523327,0.023026138771090467, ,0.017834123728708046, ,0.01889734607267474, ,6.920316639926991e-05, ,0.15674830914813487,-0.19968670392882315,0.10180932031,3.012405728098677,0.26944717753744857,-0.20917954861121052, ,0.038126533370217264,0.02459744467560155,0.01733276552774755,0.0,0.021066950060019376,0.05421127827837478, ,1.769921064376831
0.014169049243770599,0.021199283542129303,-0.09158021799806945, ,0.01461995685648085,0.021094635018998085,-0.09224098768917297, ,0.0008067747971241014, ,0.006233980384537338,0.001335057640150063,-0.01694683645890373,-0.017701830425727108,0.018914182014730163,0.025857245842415895, ,0.018106356792633577, ,0.025905591749919066, ,6.99999287635336e-05, ,0.15686415014124824,-0.19961719933295513,0.10186117191,3.012405728098677,0.26944717753744857,-0.20893451239078883, ,0.038111221509426016,0.024933510656455802,0.017600896707182324,0.0,0.019316521366247983,0.06174092903933546, ,1.7768149375915527
0.014275995168990875,0.021228425003628565,-0.09187113616503316, ,0.014675372206918018,0.021106447729294178,-0.0923859807191631, ,0.0006629067723253087, ,0.006394896908576671,0.0021262654485839153,-0.01794648665846295,0.05826393696084853,-0.03596578081817889,-0.02175566446233123, ,0.019170083323020636, ,0.06847059133958595, ,7.059980556622857e-05, ,0.15750513696980886,-0.19920789449062123,0.10216580006,3.0130347979291305,0.2702669965360412,-0.20878623241156172, ,0.03789813960002826,0.024103871363594303,0.01889538733096086,0.026478775796619503,0.07705423841560358,-0.014695516361261707, ,1.783419132232666
0.014275995168990875,0.021228425003628565,-0.09187113616503316, ,0.014730680049439598,0.02111818438188279,-0.09253039807854031, ,0.0008084043578511173, ,0.006394896908576671,0.0021262654485839153,-0.01794648665846295,0.05826393696084853,-0.03596578081817889,-0.02175566446233123, ,0.019170083323020636, ,0.06847059133958595, ,7.138688332500487e-05, ,0.15750513696980886,-0.19920789449062123,0.10216580006,3.0130347979291305,0.2702669965360412,-0.20878623241156172, ,0.03789813960002826,0.024103871363594303,0.01889538733096086,0.026478775796619503,0.07705423841560358,-0.014695516361261707, ,1.7900230884552002
0.014341679647656284,0.02124919386479173,-0.09205964723542578, ,0.014785880499766816,0.021129845105885933,-0.09267424090261883, ,0.0007676482912257899, ,0.007383822975432024,0.002489464683919437,-0.02133878905037649,0.01482683730548523,-0.008651918716072803,-0.025017276489134425, ,0.02271700231723956, ,0.0171664317086932, ,7.211419954215437e-05, ,0.15788355088064587,-0.19897621250439448,0.10236283614000001,3.013244487872615,0.27067690603533756,-0.2086304136818076, ,0.04169461404150737,0.02401238399758876,0.022309259831932778,0.03924537065799227,0.03789750378561112,0.023225213840043033, ,1.7966539859771729
0.014423400446748889,0.021277474808507668,-0.09230775083325006, ,0.014840973673660158,0.021141430030438293,-0.09281751032551136, ,0.0006728523771404343, ,0.00760917244262602,0.0027341461058483646,-0.023740285646906396,-0.019890879868881137,0.03073052208382842,-0.005489769370564292, ,0.02507939837369419, ,0.036606072563028814, ,7.271172543026167e-05, ,0.1583314693873509,-0.19872136231954507,0.10262079785000001,3.013244487872615,0.270813542535103,-0.20784336544395782, ,0.03960640298767562,0.024006309526554716,0.024657602972136226,0.03486308608823208,0.012237798750100152,0.07004305108104857, ,1.8034141063690186
0.014423400446748889,0.021277474808507668,-0.09230775083325006, ,0.014895959686919164,0.021152939284686707,-0.09296020748013058, ,0.0008151815799085727, ,0.00760917244262602,0.0027341461058483646,-0.023740285646906396,-0.019890879868881137,0.03073052208382842,-0.005489769370564292, ,0.02507939837369419, ,0.036606072563028814, ,7.349014316639958e-05, ,0.1583314693873509,-0.19872136231954507,0.10262079785000001,3.013244487872615,0.270813542535103,-0.20784336544395782, ,0.03960640298767562,0.024006309526554716,0.024657602972136226,0.03486308608823208,0.012237798750100152,0.07004305108104857, ,1.8105230331420898
0.014499286649219435,0.02130526811203333,-0.09254277230173302, ,0.014950838655382588,0.021164372997790455,-0.09310233349818925, ,0.0007327068855053866, ,0.00785193371223683,0.0028181984645228864,-0.024259911060223092,-0.008135050018509464,0.02003665070572428,-0.0004025618553649803, ,0.02565420804189315, ,0.021624939470002644, ,7.415538531705697e-05, ,0.15840869671609314,-0.19866730318942552,0.10267005687000001,3.013244487872615,0.2709501790348684,-0.20770974712723256, ,0.040588939930911366,0.02471274519751843,0.02454362329738059,0.0329762098296708,0.0,0.07252871930947447, ,1.8173401355743408
0.014574605882944004,0.02133696985527786,-0.09277767416477867, ,0.015005610694927793,0.021175731298920492,-0.09324388951020039, ,0.0006550723382315026, ,0.007672651467096335,0.003317892009694111,-0.024256238848706983,0.054143888214123616,-0.027180367683875318,-0.003485629134802508, ,0.025656248966071587, ,0.06058320412050382, ,7.471503108973528e-05, ,0.15913463360627025,-0.1982271074155947,0.10311209176000001,3.013663867759584,0.2719066345332265,-0.20718281261085852, ,0.04029594121378802,0.024790214618200305,0.025445385814696485,0.014506529911526777,0.07840114304653592,0.0005116409666802574, ,1.824355125427246
0.014574605882944004,0.02133696985527786,-0.09277767416477867, ,0.015060275921471094,0.02118701431726011,-0.09338487664547854, ,0.0007918692456922251, ,0.007672651467096335,0.003317892009694111,-0.024256238848706983,0.054143888214123616,-0.027180367683875318,-0.003485629134802508, ,0.025656248966071587, ,0.06058320412050382, ,7.54466343789402e-05, ,0.15913463360627025,-0.1982271074155947,0.10311209176000001,3.013663867759584,0.2719066345332265,-0.20718281261085852, ,0.04029594121378802,0.024790214618200305,0.025445385814696485,0.014506529911526777,0.07840114304653592,0.0005116409666802574, ,1.8310000896453857
0.014659236634848194,0.021364235255132095,-0.0930265013850187, ,0.015114834450967365,0.02119822218200435,-0.09352529603214024, ,0.000695647763238685, ,0.007911039579461765,0.002190339215135881,-0.022075941027406013,-0.0009407497731132135,0.020214100678700372,-0.041632806645845635, ,0.023552692104103105, ,0.020235850196812663, ,7.604908349332001e-05, ,0.1595902748458495,-0.19794908903212263,0.10337134976000001,3.0142929375900374,0.2721799075327574,-0.20642550353656464, ,0.04426163318958525,0.027300616098524386,0.023018513757225436,0.06740578181315614,0.026599003506876686,0.05420330884081191, ,1.8375160694122314
0.014735099534252113,0.021381654601266217,-0.09323185815875333, ,0.015169286399410021,0.021209355022359964,-0.09366514879710443, ,0.000637139039809699, ,0.007495825638464333,0.0013803153675016992,-0.019732408095911896,-0.029141466032029793,0.03142304654533927,-0.02038395407582802, ,0.021153264565537632, ,0.04285592030405748, ,7.657209089655497e-05, ,0.1600304706196803,-0.19766334791577633,0.10358523761,3.0147123174770067,0.2724531805322883,-0.20583155194255184, ,0.04387283474732814,0.02860926788015399,0.02047405079691517,0.04970502907595918,0.005577094362267185,0.07335776588361015, ,1.8461580276489258
0.014766410123629378,0.021389298829922913,-0.09331465055801437, ,0.015223631882830872,0.021220412967544792,-0.0938044360660927, ,0.0006909877101092785, ,0.007133275584001616,0.001578069576201704,-0.018801863085413473,-0.008555984564433187,-0.020130607183028358,0.039449027433027944, ,0.020171365338699333, ,0.02187335977319049, ,7.715969782320415e-05, ,0.16021581620866168,-0.19753978418978874,0.10367208904000001,3.014922007420491,0.2727264535318191,-0.20572767278938245, ,0.04381206904823212,0.026338312949894745,0.019616762955665026,-0.027094051548827644,0.027924599016460293,0.028895045093618104, ,1.8537039756774902
0.014766410123629378,0.021389298829922913,-0.09331465055801437, ,0.01527787101729989,0.021231396146788605,-0.09394315896363069, ,0.0008255593976363053, ,0.007133275584001616,0.001578069576201704,-0.018801863085413473,-0.008555984564433187,-0.020130607183028358,0.039449027433027944, ,0.020171365338699333, ,0.02187335977319049, ,7.791360683864412e-05, ,0.16021581620866168,-0.19753978418978874,0.10367208904000001,3.014922007420491,0.2727264535318191,-0.20572767278938245, ,0.04381206904823212,0.026338312949894745,0.019616762955665026,-0.027094051548827644,0.027924599016460293,0.028895045093618104, ,1.8603949546813965
0.014883286179652374,0.02141018043657006,-0.09358941187388596, ,0.015332003918925393,0.021242304689332275,-0.09408131861304828, ,0.000686660116857121, ,0.007326104409374392,0.0009361268341955623,-0.016467172257016795,0.01637353954347589,-0.03623635930828806,0.02499318827174607, ,0.01804760098763876, ,0.03976386955815229, ,7.858554722241606e-05, ,0.160949475831713,-0.1971150338817064,0.10394819881000002,3.014922007420491,0.27354627253041175,-0.2056610715502959, ,0.049502838580318606,0.030367021298710647,0.01733276552774755,-0.016354882540064654,0.052229319019660214,0.011431989880598799, ,1.8647980690002441
0.014883286179652374,0.02141018043657006,-0.09358941187388596, ,0.015386030703853512,0.021253138724427634,-0.09421891613647967, ,0.0008207860699296185, ,0.007326104409374392,0.0009361268341955623,-0.016467172257016795,0.01637353954347589,-0.03623635930828806,0.02499318827174607, ,0.01804760098763876, ,0.03976386955815229, ,7.942344491873522e-05, ,0.160949475831713,-0.1971150338817064,0.10394819881000002,3.014922007420491,0.27354627253041175,-0.2056610715502959, ,0.049502838580318606,0.030367021298710647,0.01733276552774755,-0.016354882540064654,0.052229319019660214,0.011431989880598799, ,1.8692491054534912
0.01495735236052434,0.021416297521287733,-0.0937605131104505, ,0.015439951488268423,0.021263898381337795,-0.09435595265486452, ,0.0007814573993563581, ,0.007791429971744153,0.0010320799915185643,-0.018895095120873645,-0.026138019182445474,0.043410957016621975,0.042747102175642565, ,0.020464510493543427, ,0.050672525370142676, ,8.020758913727286e-05, ,0.16146689893428604,-0.19679067910098896,0.10413875344000001,3.0147123174770067,0.27354627253041175,-0.20476260540874971, ,0.0492971124979069,0.03183392873481073,0.01968950744128554,0.0,0.025457317819062502,0.10131964491975569, ,1.8737680912017822
0.01495735236052434,0.021416297521287733,-0.0937605131104505, ,0.015493766388391925,0.021274583789336502,-0.09449242928794901, ,0.0009184356711282015, ,0.007791429971744153,0.0010320799915185643,-0.018895095120873645,-0.026138019182445474,0.043410957016621975,0.042747102175642565, ,0.020464510493543427, ,0.050672525370142676, ,8.115987618859656e-05, ,0.16146689893428604,-0.19679067910098896,0.10413875344000001,3.0147123174770067,0.27354627253041175,-0.20476260540874971, ,0.0492971124979069,0.03183392873481073,0.01968950744128554,0.0,0.025457317819062502,0.10131964491975569, ,1.8781790733337402
0.015038994651703708,0.021427973859732236,-0.09396375805937336, ,0.01554747552048359,0.021285195077708336,-0.09462834715428493, ,0.0008488917714212772, ,0.008807913343226515,0.0014759420981939036,-0.023375597161103,-0.050107106995538005,0.04456432504817009,0.016652080778736172, ,0.02502351464477313, ,0.06705739526058145, ,8.20202421272483e-05, ,0.16196115383823642,-0.19646632432027153,0.10435004871,3.0151316973639757,0.2736829090301772,-0.2038938784307594, ,0.05115738089405433,0.03422176038891842,0.0242079202431611,0.022563686445296757,0.0,0.10330451162878035, ,1.8835690021514893
0.015038994651703708,0.021427973859732236,-0.09396375805937336, ,0.015601079000840467,0.02129573237574845,-0.09476370737123194, ,0.0009865827523192034, ,0.008807913343226515,0.0014759420981939036,-0.023375597161103,-0.050107106995538005,0.04456432504817009,0.016652080778736172, ,0.02502351464477313, ,0.06705739526058145, ,8.304841996232918e-05, ,0.16196115383823642,-0.19646632432027153,0.10435004871,3.0151316973639757,0.2736829090301772,-0.2038938784307594, ,0.05115738089405433,0.03422176038891842,0.0242079202431611,0.022563686445296757,0.0,0.10330451162878035, ,1.890239953994751
0.015129650594931373,0.02145327522330933,-0.09421258023580067, ,0.015654576945796955,0.021306195812762423,-0.09489851105495707, ,0.0008761741353797467, ,0.010104066149645425,0.003627265208910385,-0.029065452754541747,0.08023127359090762,-0.05235104853229071,-0.10121230625427483, ,0.030984669588018536, ,0.0958001503171351, ,8.39338031237445e-05, ,0.162463131475061,-0.19614969227242832,0.10461060300000001,3.0159704571379136,0.27422945502923896,-0.20401283508498283, ,0.053674740700492524,0.03251008617967481,0.030573534587332057,0.10181492089428101,0.09196913298533217,-0.03373679615121972, ,1.895056962966919
0.015129650594931373,0.02145327522330933,-0.09421258023580067, ,0.015707969471724797,0.0213165855180662,-0.09503275932043564, ,0.001012832922869176, ,0.010104066149645425,0.003627265208910385,-0.029065452754541747,0.08023127359090762,-0.05235104853229071,-0.10121230625427483, ,0.030984669588018536, ,0.0958001503171351, ,8.498475501008987e-05, ,0.162463131475061,-0.19614969227242832,0.10461060300000001,3.0159704571379136,0.27422945502923896,-0.20401283508498283, ,0.053674740700492524,0.03251008617967481,0.030573534587332057,0.10181492089428101,0.09196913298533217,-0.03373679615121972, ,1.899569034576416
0.01524300044547648,0.02149271104608829,-0.09454667583251063, ,0.015761256695032855,0.02132690162098599,-0.09516645328145168, ,0.0008247462590838923, ,0.010461837220104624,0.0031773200889481813,-0.03064394860718873,0.008873104659528034,-0.05742371014935575,-0.05769588827488168, ,0.032536087460043876, ,0.058104969247339905, ,8.57971331106652e-05, ,0.1630655046392505,-0.19577900109446555,0.10496060130000001,3.016389837024883,0.2750492740278316,-0.2042729488064585, ,0.054885449137345735,0.03450797874853483,0.03192146597194389,0.05169115140864684,0.03190236119358782,-0.018671227283557322, ,1.9039909839630127
0.01524300044547648,0.02149271104608829,-0.09454667583251063, ,0.015814438732166952,0.021337144250858017,-0.09529959405059894, ,0.0009579293222379435, ,0.010461837220104624,0.0031773200889481813,-0.03064394860718873,0.008873104659528034,-0.05742371014935575,-0.05769588827488168, ,0.032536087460043876, ,0.058104969247339905, ,8.67703200611808e-05, ,0.1630655046392505,-0.19577900109446555,0.10496060130000001,3.016389837024883,0.2750492740278316,-0.2042729488064585, ,0.054885449137345735,0.03450797874853483,0.03192146597194389,0.05169115140864684,0.03190236119358782,-0.018671227283557322, ,1.9084079265594482
0.015346351328920229,0.0215205030072875,-0.0948435245534342, ,0.015867515699609938,0.021347313537028265,-0.09543218273928082, ,0.0008050623290462117, ,0.011138173450159381,0.002652185700198645,-0.031847985029500675,-0.07006017754698864,0.03575010971327364,0.03863774717260668, ,0.033843568772123786, ,0.07865409116793987, ,8.754997646725964e-05, ,0.1636215414061947,-0.19543147811512543,0.10526911832000001,3.0165995269683674,0.27518591052759706,-0.20348590056860877, ,0.06025202638633065,0.03808063465428201,0.03297890583850932,0.0,-0.011616988998540599,0.11021636259952375, ,1.9127769470214844
0.015346351328920229,0.0215205030072875,-0.0948435245534342, ,0.01592048771388133,0.021357409608852757,-0.0955642204577117, ,0.0009357535100610358, ,0.011138173450159381,0.002652185700198645,-0.031847985029500675,-0.07006017754698864,0.03575010971327364,0.03863774717260668, ,0.033843568772123786, ,0.07865409116793987, ,8.848674193170117e-05, ,0.1636215414061947,-0.19543147811512543,0.10526911832000001,3.0165995269683674,0.27518591052759706,-0.20348590056860877, ,0.06025202638633065,0.03808063465428201,0.03297890583850932,0.0,-0.011616988998540599,0.11021636259952375, ,1.917341947555542
0.015346351328920229,0.0215205030072875,-0.0948435245534342, ,0.01597335489153737,0.021367432595697056,-0.09569570831491694, ,0.0010690094395158231, ,0.011138173450159381,0.002652185700198645,-0.031847985029500675,-0.07006017754698864,0.03575010971327364,0.03863774717260668, ,0.033843568772123786, ,0.07865409116793987, ,8.958260919908743e-05, ,0.1636215414061947,-0.19543147811512543,0.10526911832000001,3.0165995269683674,0.27518591052759706,-0.20348590056860877, ,0.06025202638633065,0.03808063465428201,0.03297890583850932,0.0,-0.011616988998540599,0.11021636259952375, ,1.9218559265136719
0.015464355309469633,0.02155081944103668,-0.09518106055037058, ,0.016026117349170737,0.021377382626936316,-0.09582664741873333, ,0.0008731777152085636, ,0.01144966223804532,0.0029200073698664505,-0.03177447283776354,-0.05341721431787192,0.0288544031928932,0.02648374730818676, ,0.03390041788124695, ,0.06071196735841936, ,9.043311470988447e-05, ,0.16426252823475532,-0.19505306420428845,0.10561911662000001,3.016389837024883,0.2750492740278316,-0.202312659043085, ,0.0629707641396621,0.036178780617030414,0.03304732680497926,0.011140309516671087,0.0,0.10141697339938469, ,1.9288740158081055
0.015574324122920199,0.021579971362658348,-0.09547949549594927, ,0.01607877520341064,0.02138725983195501,-0.0959570388758107, ,0.0007208719070150221, ,0.010802691402848343,0.00246114147736041,-0.027544810266980663,0.014215900013375542,-0.024788071572999913,0.018216708075362967, ,0.02968959298408654, ,0.028574891938647033, ,9.109326834997645e-05, ,0.16488034686469327,-0.19468237302632566,0.10593152251000001,3.0165995269683674,0.2755958200268934,-0.201778185776184, ,0.06403302399357003,0.037287599826511114,0.02890891382940109,0.0019891895711849944,0.05905439652230522,0.03578536863413112, ,1.9336340427398682
0.015574324122920199,0.021579971362658348,-0.09547949549594927, ,0.016131328570922417,0.021397064340146987,-0.09608688379161098, ,0.0008441738420995248, ,0.010802691402848343,0.00246114147736041,-0.027544810266980663,0.014215900013375542,-0.024788071572999913,0.018216708075362967, ,0.02968959298408654, ,0.028574891938647033, ,9.190056994192715e-05, ,0.16488034686469327,-0.19468237302632566,0.10593152251000001,3.0165995269683674,0.2755958200268934,-0.201778185776184, ,0.06403302399357003,0.037287599826511114,0.02890891382940109,0.0019891895711849944,0.05905439652230522,0.03578536863413112, ,1.9380481243133545
0.015574324122920199,0.021579971362658348,-0.09547949549594927, ,0.016183777568407668,0.021406796280915137,-0.0962161832704102, ,0.0009716645450944104, ,0.010355793022204166,0.0018314029393894076,-0.023696292387575667,0.04187210200374789,-0.028398391263177655,-0.017251219876760548, ,0.025925099011626034, ,0.050593814653063986, ,9.285904123780374e-05, ,0.16554450189187658,-0.19430395911548867,0.10619855825,3.0170189068553364,0.27641563902548605,-0.2016299057969569, ,0.06499790517703478,0.03767246588267994,0.025045301132075475,0.03665731756793275,0.07942748007903737,0.022443208726594527, ,1.9426510334014893
0.01568183314969295,0.021601645525840433,-0.09573223536157269, ,0.016236122312604,0.02141645578367138,-0.09634493841529812, ,0.0008467211753403494, ,0.010355793022204166,0.0018314029393894076,-0.023696292387575667,0.04187210200374789,-0.028398391263177655,-0.017251219876760548, ,0.025925099011626034, ,0.050593814653063986, ,9.366122945729978e-05, ,0.16554450189187658,-0.19430395911548867,0.10619855825,3.0170189068553364,0.27641563902548605,-0.2016299057969569, ,0.06499790517703478,0.03767246588267994,0.025045301132075475,0.03665731756793275,0.07942748007903737,0.022443208726594527, ,1.947540044784546
0.01568183314969295,0.021601645525840433,-0.09573223536157269, ,0.01628836292028486,0.021426042977836544,-0.09647315032817926, ,0.0009734832331485438, ,0.010355793022204166,0.0018314029393894076,-0.023696292387575667,0.04187210200374789,-0.028398391263177655,-0.017251219876760548, ,0.025925099011626034, ,0.050593814653063986, ,9.461299794910842e-05, ,0.16554450189187658,-0.19430395911548867,0.10619855825,3.0170189068553364,0.27641563902548605,-0.2016299057969569, ,0.06499790517703478,0.03767246588267994,0.025045301132075475,0.03665731756793275,0.07942748007903737,0.022443208726594527, ,1.9520270824432373
0.015764941884535175,0.02161230176862248,-0.09592138868429242, ,0.016340499508259568,0.02143555799284011,-0.09660082010977333, ,0.0009078171635500715, ,0.010722928863074058,0.001297089729994429,-0.024851192088063905,-0.01833920872646713,0.04004337332449176,-0.04604665910142926, ,0.027096962807075884, ,0.04404303401780542, ,9.548086167815656e-05, ,0.1660542022615754,-0.19399504980051968,0.10639689062,3.0176479766857898,0.2766889120250169,-0.20095427546280356, ,0.06459968792271667,0.040658501096174283,0.025985010636215337,0.087867024692888,0.026529468519103285,0.09556990802214226, ,1.9564721584320068
0.015764941884535175,0.02161230176862248,-0.09592138868429242, ,0.01639253219337304,0.021445000958120276,-0.09672794885961558, ,0.0010355667401762297, ,0.010722928863074058,0.001297089729994429,-0.024851192088063905,-0.01833920872646713,0.04004337332449176,-0.04604665910142926, ,0.027096962807075884, ,0.04404303401780542, ,9.649845808396368e-05, ,0.1660542022615754,-0.19399504980051968,0.10639689062,3.0176479766857898,0.2766889120250169,-0.20095427546280356, ,0.06459968792271667,0.040658501096174283,0.025985010636215337,0.087867024692888,0.026529468519103285,0.09556990802214226, ,1.960827112197876
0.01589105551875259,0.02163120160223813,-0.09622231216334068, ,0.016444461092505698,0.02145437200312362,-0.09685453767605813, ,0.0008586242106502994, ,0.010950679397873583,0.001700709304812564,-0.025965405867109,-0.02298198803668089,0.02196598774577491,-0.014942499740334483, ,0.028231402608765072, ,0.03179095137335556, ,9.729849088983192e-05, ,0.16681875281612363,-0.1935316858280662,0.10671188909000001,3.0178576666292747,0.27709882152431325,-0.1998999905915033, ,0.06549133302862027,0.03824947261526432,0.027182272218430035,0.050705838968168465,0.023338376428045208,0.08469780913561707, ,1.965667963027954
0.01589105551875259,0.02163120160223813,-0.09622231216334068, ,0.01649628632257344,0.021463671257305156,-0.09698058765626957, ,0.00098455698948489, ,0.010950679397873583,0.001700709304812564,-0.025965405867109,-0.02298198803668089,0.02196598774577491,-0.014942499740334483, ,0.028231402608765072, ,0.03179095137335556, ,9.824568514367513e-05, ,0.16681875281612363,-0.1935316858280662,0.10671188909000001,3.0178576666292747,0.27709882152431325,-0.1998999905915033, ,0.06549133302862027,0.03824947261526432,0.027182272218430035,0.050705838968168465,0.023338376428045208,0.08469780913561707, ,1.970715045928955
0.01589105551875259,0.02163120160223813,-0.09622231216334068, ,0.01654800800052737,0.021472898850127944,-0.09710609989623621, ,0.0011125318339051363, ,0.010950679397873583,0.001700709304812564,-0.025965405867109,-0.02298198803668089,0.02196598774577491,-0.014942499740334483, ,0.028231402608765072, ,0.03179095137335556, ,9.946039909428766e-05, ,0.16728983952145132,-0.1932459447117199,0.10691151775,3.0178576666292747,0.27750873102360957,-0.19958081438146805, ,0.06451185693981698,0.03993979021821161,0.02677111179831933,0.036139704735542885,0.0771351362186802,0.027178703269037277, ,1.973459005355835
0.015969316268023084,0.021644970109885784,-0.09641249500106859, ,0.016599626243353805,0.021482054911063468,-0.09723107549076257, ,0.0010458996343418255, ,0.010691294041446971,0.0018696517141748564,-0.02541213524865284,0.0364686200204393,-0.0242022424626133,-0.015493668523042629, ,0.02763287867213296, ,0.04376868959492157, ,0.00010059250344266989, ,0.16728983952145132,-0.1932459447117199,0.10691151775,3.0178576666292747,0.27750873102360957,-0.19958081438146805, ,0.06451185693981698,0.03993979021821161,0.02677111179831933,0.036139704735542885,0.0771351362186802,0.027178703269037277, ,1.9759809970855713
0.015969316268023084,0.021644970109885784,-0.09641249500106859, ,0.016651141168074108,0.021491139569590815,-0.09735551553347181, ,0.0011738129126871483, ,0.010691294041446971,0.0018696517141748564,-0.02541213524865284,0.0364686200204393,-0.0242022424626133,-0.015493668523042629, ,0.02763287867213296, ,0.04376868959492157, ,0.00010187472615383413, ,0.16728983952145132,-0.1932459447117199,0.10691151775,3.0178576666292747,0.27750873102360957,-0.19958081438146805, ,0.06451185693981698,0.03993979021821161,0.02677111179831933,0.036139704735542885,0.0771351362186802,0.027178703269037277, ,1.9782969951629639
0.015969316268023084,0.021644970109885784,-0.09641249500106859, ,0.01670255289174442,0.021500152955196958,-0.09747942111680571, ,0.0013026662239807784, ,0.010691294041446971,0.0018696517141748564,-0.02541213524865284,0.0364686200204393,-0.0242022424626133,-0.015493668523042629, ,0.02763287867213296, ,0.04376868959492157, ,0.00010330765156890208, ,0.16728983952145132,-0.1932459447117199,0.10691151775,3.0178576666292747,0.27750873102360957,-0.19958081438146805, ,0.06451185693981698,0.03993979021821161,0.02677111179831933,0.036139704735542885,0.0771351362186802,0.027178703269037277, ,1.9805810451507568
0.015969316268023084,0.021644970109885784,-0.09641249500106859, ,0.01675386153145581,0.02150909519737676,-0.09760279333202689, ,0.0014320556479781644, ,0.010691294041446971,0.0018696517141748564,-0.02541213524865284,0.0364686200204393,-0.0242022424626133,-0.015493668523042629, ,0.02763287867213296, ,0.04376868959492157, ,0.00010489137981253648, ,0.16810844920611911,-0.19272079887627264,0.10724077541000002,3.0178576666292747,0.2786018230217331,-0.19924697650893095, ,0.06622256912663697,0.04299816110488028,0.02677111179831933,0.024103256970821916,0.09328057922294186,0.024568509118417466, ,1.983046054840088
0.01610229018564968,0.021665504127703537,-0.09672495243156394, ,0.016805067204333883,0.02151796642563242,-0.09772563326921771, ,0.001231675708281417, ,0.010852875632571285,0.001668841257452475,-0.025383769988972862,0.047724796131538065,-0.02859396984632383,-0.002378998872355494, ,0.027656928959877567, ,0.05563506752782099, ,0.00010623278972738038, ,0.16810844920611911,-0.19272079887627264,0.10724077541000002,3.0178576666292747,0.2786018230217331,-0.19924697650893095, ,0.06622256912663697,0.04299816110488028,0.02677111179831933,0.024103256970821916,0.09328057922294186,0.024568509118417466, ,1.9857630729675293
0.01610229018564968,0.021665504127703537,-0.09672495243156394, ,0.016856170027538867,0.021526766769473724,-0.09784794201728153, ,0.0013596648411302017, ,0.010852875632571285,0.001668841257452475,-0.025383769988972862,0.047724796131538065,-0.02859396984632383,-0.002378998872355494, ,0.027656928959877567, ,0.05563506752782099, ,0.00010772319644724105, ,0.16810844920611911,-0.19272079887627264,0.10724077541000002,3.0178576666292747,0.2786018230217331,-0.19924697650893095, ,0.06622256912663697,0.04299816110488028,0.02677111179831933,0.024103256970821916,0.09328057922294186,0.024568509118417466, ,1.988055944442749
0.01610229018564968,0.021665504127703537,-0.09672495243156394, ,0.016907170118265338,0.021535496358417717,-0.09796972066394356, ,0.0014880126606798575, ,0.010852875632571285,0.001668841257452475,-0.025383769988972862,0.047724796131538065,-0.02859396984632383,-0.002378998872355494, ,0.027656928959877567, ,0.05563506752782099, ,0.000601851116815749, ,0.16810844920611911,-0.19272079887627264,0.10724077541000002,3.0178576666292747,0.2786018230217331,-0.19924697650893095, ,0.06622256912663697,0.04299816110488028,0.02677111179831933,0.024103256970821916,0.09328057922294186,0.024568509118417466, ,1.9903221130371094
0.016237715823963085,0.021686522784488925,-0.09706564522530557, ,0.016958067593742132,0.021544155321988365,-0.09809097029575076, ,0.0013410339313132068, ,0.010852875632571285,0.001668841257452475,-0.025383769988972862,0.047724796131538065,-0.02859396984632383,-0.002378998872355494, ,0.027656928959877567, ,0.05563506752782099, ,0.0006066510052215766, ,0.16887299976066736,-0.19221882123944806,0.10759595887000001,3.018486736459728,0.2788750960212639,-0.19799959499379366, ,0.0782332576739248,0.04730655112585781,0.04137353641558442,0.02325448681365578,0.032520274206523474,0.1312768526891907, ,1.9933700561523438
0.016237715823963085,0.021686522784488925,-0.09706564522530557, ,0.01700886257123234,0.021552743789717096,-0.09821169199807298, ,0.0013877994562027656, ,0.014591792964218288,0.003517020363963369,-0.03963759174766062,-0.036370677107908395,0.04616873181356015,0.03167329423666397, ,0.04238429583826251, ,0.05877312401163054, ,0.0006116906726472617, ,0.16887299976066736,-0.19221882123944806,0.10759595887000001,3.018486736459728,0.2788750960212639,-0.19799959499379366, ,0.0782332576739248,0.04730655112585781,0.04137353641558442,0.02325448681365578,0.032520274206523474,0.1312768526891907, ,1.9956490993499756
0.016237715823963085,0.021686522784488925,-0.09706564522530557, ,0.01705955516803293,0.021561261891141974,-0.09833188685510348, ,0.0015147534663754669, ,0.014591792964218288,0.003517020363963369,-0.03963759174766062,-0.036370677107908395,0.04616873181356015,0.03167329423666397, ,0.04238429583826251, ,0.05877312401163054, ,0.000617479536709622, ,0.16887299976066736,-0.19221882123944806,0.10759595887000001,3.018486736459728,0.2788750960212639,-0.19799959499379366, ,0.0782332576739248,0.04730655112585781,0.04137353641558442,0.02325448681365578,0.032520274206523474,0.1312768526891907, ,1.997847080230713
0.016237715823963085,0.021686522784488925,-0.09706564522530557, ,0.017110145501474907,0.02156970975580795,-0.09845155594985908, ,0.001641806128111789, ,0.014591792964218288,0.003517020363963369,-0.03963759174766062,-0.036370677107908395,0.04616873181356015,0.03167329423666397, ,0.04238429583826251, ,0.05877312401163054, ,0.0006240039099032664, ,0.16887299976066736,-0.19221882123944806,0.10759595887000001,3.018486736459728,0.2788750960212639,-0.19799959499379366, ,0.0782332576739248,0.04730655112585781,0.04137353641558442,0.02325448681365578,0.032520274206523474,0.1312768526891907, ,2.000049114227295
0.016237715823963085,0.021686522784488925,-0.09706564522530557, ,0.01716063368892297,0.021578087513266474,-0.09857070036418106, ,0.0017688206705493647, ,0.014591792964218288,0.003517020363963369,-0.03963759174766062,-0.036370677107908395,0.04616873181356015,0.03167329423666397, ,0.04238429583826251, ,0.05877312401163054, ,0.0006312495856035582, ,0.16887299976066736,-0.19221882123944806,0.10759595887000001,3.018486736459728,0.2788750960212639,-0.19799959499379366, ,0.0782332576739248,0.04730655112585781,0.04137353641558442,0.02325448681365578,0.032520274206523474,0.1312768526891907, ,2.0023410320281982
0.01639534976102682,0.02173352750645433,-0.09750736899757952, ,0.017211019847775493,0.021586395293075673,-0.0986893211787358, ,0.0014435984681241479, ,0.017125716798623073,0.0053602607968376535,-0.04925772345244105,-0.05316484459716067,0.09267567318077416,-0.07368102513401055, ,0.05242466872946282, ,0.10684096179894041, ,0.0006363586980722412, ,0.16965299578096402,-0.19178634819849147,0.10805743811000001,3.0201642560076043,0.2790117325210294,-0.19647743809467888, ,0.08302444580793594,0.045275258377133004,0.05138326296774194,0.1422478738759393,0.0,0.16803397531201553, ,2.0045881271362305
0.01639534976102682,0.02173352750645433,-0.09750736899757952, ,0.01726130409546442,0.021594633224800108,-0.09880741947301551, ,0.0015682154729146302, ,0.017125716798623073,0.0053602607968376535,-0.04925772345244105,-0.05316484459716067,0.09267567318077416,-0.07368102513401055, ,0.05242466872946282, ,0.10684096179894041, ,0.0006421828029150062, ,0.16965299578096402,-0.19178634819849147,0.10805743811000001,3.0201642560076043,0.2790117325210294,-0.19647743809467888, ,0.08302444580793594,0.045275258377133004,0.05138326296774194,0.1422478738759393,0.0,0.16803397531201553, ,2.006838083267212
0.01639534976102682,0.02173352750645433,-0.09750736899757952, ,0.01731148654945497,0.021602801438010327,-0.09892499632533767, ,0.001692945114434902, ,0.017125716798623073,0.0053602607968376535,-0.04925772345244105,-0.05316484459716067,0.09267567318077416,-0.07368102513401055, ,0.05242466872946282, ,0.10684096179894041, ,0.0006487092768996018, ,0.16965299578096402,-0.19178634819849147,0.10805743811000001,3.0201642560076043,0.2790117325210294,-0.19647743809467888, ,0.08302444580793594,0.045275258377133004,0.05138326296774194,0.1422478738759393,0.0,0.16803397531201553, ,2.0091800689697266
0.01639534976102682,0.02173352750645433,-0.09750736899757952, ,0.01736156732724579,0.021610900062283247,-0.09904205281284745, ,0.001817654611904961, ,0.017125716798623073,0.0053602607968376535,-0.04925772345244105,-0.05316484459716067,0.09267567318077416,-0.07368102513401055, ,0.05242466872946282, ,0.10684096179894041, ,0.0006559249888440793, ,0.16965299578096402,-0.19178634819849147,0.10805743811000001,3.0201642560076043,0.2790117325210294,-0.19647743809467888, ,0.08302444580793594,0.045275258377133004,0.05138326296774194,0.1422478738759393,0.0,0.16803397531201553, ,2.0116090774536133
