NicholasDascanio/dvrk_moveit_final/test/execution/third_experiment_notsharpbends/thirdexp_500vel3.0/thirdexp_500vel3.0_9.csv
Current Position (x),Current Position (y),Current Position (z), ,Planned Position (x),Planned Position (y),Planned Position (z), ,Position Error,,Cartesian linear Velocity(x),Cartesian linear Velocity(y),Cartesian linear Velocity(z),Cartesian Angular Velocity(x),Cartesian Angular Velocity(y),Cartesian Angular Velocity(z), ,Total Linear Velocity, ,Total Angular Velocity, ,MSE, ,Joint 1 Position,Joint 2 Position,Joint 3 Position,Joint 4 Position,Joint 5 Position,Joint 6 Position, ,Joint 1 Velocity,Joint 2 Velocity,Joint 3 Velocity,Joint 4 Velocity,Joint 5 Velocity,Joint 6 Velocity, ,Time Stamp
0.007534145086286913,0.020507178493110824,-0.07468645805049864, ,0.007649088828059946,0.020417252104289116,-0.07486780614737246, ,0.00023277876066998108, ,3.6172176199775546e-05,-6.790769705018012e-06,-7.731580859778334e-06,0.014185900308473443,-0.06525448828280633,-0.03162403624774019, ,3.760742249617075e-05, ,0.0667786493470245, ,1.9398230055831755e-05, ,0.10487471243196884,-0.23953600555982163,0.08454144122000001,2.988501074541441,0.23706432709303918,-0.2401936597539739, ,0.00048709983050121647,0.00011654775828053418,9.136640636788009e-06,-0.00066285433447794,0.0,-0.07362844832224136, ,0.0237429141998291
0.007545276105913045,0.020508630683019696,-0.07473704716413651, ,0.007730148590651395,0.02041519502860478,-0.07505911488789019, ,0.00038293037985141684, ,0.0006231614718261327,8.265987389469208e-05,-0.0019888298421507212,0.04680243539593361,-0.23831788051363412,-0.11797330426938073, ,0.002085810877272928, ,0.24287008900123994, ,2.7986779114608996e-05, ,0.10494421702783686,-0.23944333276533092,0.08459070024000001,2.988501074541441,0.23665441759374287,-0.24467845171117777, ,0.005442212607686319,0.005193506399514446,0.001991807167988813,0.0012300879636970867,0.0,-0.2656437130542524, ,0.046356916427612305
0.0075748307113383175,0.02050691944090758,-0.07485761523528957, ,0.007811042003650931,0.02041313093565614,-0.0752498065335097, ,0.00046733935500114306, ,0.0021009958749506055,0.00024097950395849527,-0.008711682111043862,-0.10884298151121946,-0.07702972722059896,-0.09690522744953597, ,0.00896468962049268, ,0.13334306674797128, ,3.384526548507941e-05, ,0.10509867168532135,-0.23928887810784644,0.08470477376,2.9895495242588637,0.2344682335974958,-0.24934838572313944, ,0.0120774560789922,0.010861408301979491,0.008410143357972546,0.0513749990013197,-0.11891330958022661,-0.06784357224465651, ,0.06828498840332031
0.007644108593898836,0.020536269123107853,-0.07516351740886398, ,0.007891769127686715,0.02041105992617769,-0.07543988220983983, ,0.00039165110265440475, ,0.002484607647635669,0.0008369434366061507,-0.009048557407450423,0.04462026639018931,-0.23546010775664786,-0.13073096076925003, ,0.009420729304819967, ,0.23965064251289725, ,3.5111895194689186e-05, ,0.10556975839064905,-0.23884868233401563,0.08501069820000001,2.989339834315379,0.23323850509960684,-0.2507959867940885, ,0.01971679650082501,0.019063266685108632,0.00917558267281106,0.021345605869441807,0.012459212906330872,-0.2530783345918127, ,0.09415078163146973
0.007702976860714837,0.020539418045086577,-0.07533751514854686, ,0.007972330023857853,0.02040898210076657,-0.07562934304133927, ,0.0004180050012589017, ,0.0029929382872506552,-3.4113636982951306e-05,-0.00729551422972008,-0.04467851917293601,0.23310061348678793,0.12933230671879906, ,0.007885643360409299, ,0.23734377190635572, ,3.63981653737663e-05, ,0.10609490422609631,-0.23834670469719105,0.08518440106000001,2.9895495242588637,0.23323850509960684,-0.24744715844832546, ,0.029813679408881803,0.02769904890790157,0.007367627900092507,0.0,0.0404656976672839,0.2920175756607003, ,0.11650776863098145
0.00778333417753689,0.020536761659461996,-0.0755173496188804, ,0.008052724753733649,0.020406897559883026,-0.07581819015131962, ,0.0004241945224320897, ,0.003321002601448878,-0.000778754336260529,-0.0072923902306353235,-0.036844059719682104,-0.0038539238022560363,-0.001608848137836523, ,0.008050743560127865, ,0.037045073149856354, ,3.736934067528932e-05, ,0.10690579117788988,-0.2375821541426428,0.08536717795000001,2.990178594089317,0.23474150659702667,-0.24736589554673707, ,0.032927460637914914,0.032410157636089745,0.007130175255147718,0.01154484264430414,0.0,0.029960688930329122, ,0.14488887786865234
0.007863315678551157,0.02051257499380301,-0.07567891791346286, ,0.008132953379352976,0.02040480640384918,-0.07600642466194653, ,0.00043769764561472495, ,0.0036477281772128024,-0.0010845149735303665,-0.007115352861793353,-0.03775447435293403,-0.027095355774348844,-0.011324035984626288, ,0.008069097838697624, ,0.04647105141877772, ,3.82582884372592e-05, ,0.10772440086255769,-0.23677898992372345,0.08552402904,2.990178594089317,0.23474150659702667,-0.24703918058617483, ,0.03725832020356135,0.03539609905202192,0.006913546666666667,0.011439612177179466,-0.002083210283910126,0.0088459239691507, ,0.16687297821044922
0.007929460325189274,0.020497825654795673,-0.07581390535311386, ,0.008213015963223602,0.02040270873284961,-0.07619404769424137, ,0.00048369332042054973, ,0.003933119189318132,-0.0008253822146049514,-0.0075769783644640855,-0.03259280116329238,-0.03567377950854708,-0.015156828405143211, ,0.008576787480935127, ,0.04832089824414276, ,3.949134253540503e-05, ,0.10838855588974099,-0.2361920622252824,0.08565625062000001,2.990388284032802,0.23460487009726125,-0.24676440520219728, ,0.040193537297107486,0.03378317606211135,0.007460801648711945,0.012688565234763456,0.0,0.0017611647376340987, ,0.19180893898010254
0.008030744682253892,0.02048116211008418,-0.07600850341085671, ,0.008292912568321579,0.020400604646930387,-0.07638106036808374, ,0.00046262316385286753, ,0.0038737994783814575,-0.0005772293681320286,-0.008251457561308405,-0.031822183341487,-0.032920224703301304,-0.012582548225857606, ,0.009133787167884754, ,0.04578637907591222, ,4.022731795387043e-05, ,0.10941567936201285,-0.23536572980774037,0.08584939783000001,2.9910173538632554,0.23474150659702667,-0.2468758231058937, ,0.03829577948283728,0.032532376262759954,0.008172812478193948,0.01079175386219435,0.0,0.003245724495276124, ,0.2152729034423828
0.008138208132364533,0.02047795088460711,-0.07624778634400933, ,0.008372643258090558,0.020398494245999134,-0.07656746380221223, ,0.00040431035464865426, ,0.003697361285257422,-4.117333105851939e-05,-0.008213865548279145,-0.013917747966230038,-0.020338762552531607,0.028167119641782395, ,0.00900776126249569, ,0.024644856121131452, ,4.0247290258869934e-05, ,0.11046597103290738,-0.23453167465732414,0.08609050777,2.9914367337502243,0.23528805259608845,-0.24642302857913323, ,0.03701128765930997,0.02773142652205458,0.008300579218342888,-0.019986326166810182,0.020264841705468765,0.020849656318625988, ,0.23840999603271484
0.00822247090259632,0.020472260399351776,-0.07643289264972511, ,0.008452208096441075,0.020396377629824713,-0.07675325911422706, ,0.00040146238245225574, ,0.0033752259245852286,-9.3032121648913e-05,-0.007481855345468907,-0.013643040240665753,0.014763272047078446,0.012811763320839765, ,0.008208469067260494, ,0.020101908493963268, ,4.0238267757651686e-05, ,0.11129230345044941,-0.23388296509588927,0.08627587724,2.9914367337502243,0.2354246890958539,-0.24571765908142404, ,0.03296177198974323,0.02625814652973735,0.00755636220113852,0.008488065445478258,0.02140244328493185,0.048390326871153154, ,0.2626628875732422
0.008314660240589493,0.020479787704280078,-0.07664453759494572, ,0.008531607147750085,0.020394254898036902,-0.07693844742059049, ,0.00037518636313293454, ,0.003407730370721096,0.000465073535711214,-0.008238325890506257,0.02592448799653982,-0.026951434065306513,-0.024059360904604796, ,0.00892742589727518, ,0.03739597355479306, ,4.001534714745839e-05, ,0.112172694998111,-0.23324197826732865,0.08649235767,2.992065803580678,0.23624450809444655,-0.2454877003620564, ,0.03207061221982791,0.024357531200839524,0.008481795271565496,0.025277070511388267,0.04671546617754589,-0.008503918708810487, ,0.2844269275665283
0.008371144924775246,0.020481730833479265,-0.07678891873882893, ,0.008610840476860145,0.02039212615012621,-0.07712302983662976, ,0.00042084817053394036, ,0.0032249709203767563,0.00044961630395838744,-0.008151638111337222,0.00048217772018702447,-0.003658457550766319,-0.008176777956725724, ,0.008777915251143997, ,0.0036900909217894187, ,4.017212517063533e-05, ,0.11269011810068405,-0.23283267342499475,0.08663754215000001,2.992065803580678,0.23624450809444655,-0.2448342704409319, ,0.029526117473077408,0.021695688513596427,0.008335327849293564,0.018707190840624856,0.024486497581228475,0.020423474393454447, ,0.3075089454650879
0.008443312163296189,0.02048785485380507,-0.07697681700270945, ,0.00868990814907881,0.020389991485443976,-0.07730700747653692, ,0.0004235712078004029, ,0.003041359986468886,3.7162510615485096e-05,-0.00780222820538993,-0.010381503297280756,-0.029918971103977086,-0.018479279740147174, ,0.008374127810612366, ,0.031668918733026886, ,4.061199808740615e-05, ,0.1133388276621189,-0.23229980485667326,0.08682809678,2.992485183467647,0.23665441759374287,-0.2444334154907561, ,0.02741893717378526,0.024006309526554716,0.007850572459339577,0.014209834101610749,0.010523477757666167,-0.008272692550014636, ,0.3279988765716553
0.008507907523420583,0.020491279196875843,-0.07714355506976078, ,0.008768810230178137,0.020387851003201517,-0.07749038145337181, ,0.00044615709566121975, ,0.003269000743990393,0.00031125228811585987,-0.008581516879822459,-0.00017471890353138245,0.0006244577191408789,-0.03923515030615907, ,0.00918834456307255, ,0.0006484038856273838, ,4.114965883990324e-05, ,0.11391030989481152,-0.2318132726855971,0.08699661448000001,2.9931142532981005,0.23692769059327373,-0.24400282137702445, ,0.028335903720056965,0.024295171929972034,0.0087185613136289,0.04846328527410699,0.022290912884036746,0.016577369617343955, ,0.3502078056335449
0.008573492227195202,0.020493632852557498,-0.0773203961360938, ,0.008847546786393908,0.020385704802470275,-0.07767315287906267, ,0.0004595559651698879, ,0.003260229293561611,0.00018831412797693436,-0.009151782753139139,-0.014917172555750055,-0.0017957212679774075,-0.0008688785121006015, ,0.00971697920230603, ,0.015024865647693906, ,4.171072195695204e-05, ,0.11448951486037835,-0.23131901778164674,0.08717420621000001,2.9931142532981005,0.23692769059327373,-0.24334939145589993, ,0.028150976433838855,0.026367585873428946,0.009223399837869139,0.01098689657376733,0.015146345572962351,0.02455395470900946, ,0.3702077865600586
0.008636614336437065,0.02049985784463295,-0.07749373444958275, ,0.008926117884425072,0.02038355298218198,-0.0778553228644078, ,0.00047758277509042603, ,0.0033730042569499697,0.0002461593557064258,-0.008687919176814744,0.01838167866963703,-0.030622513508987183,0.000488863857093738, ,0.009322965824707811, ,0.035715884348912506, ,4.231897360860595e-05, ,0.11504555162732252,-0.23080931741194793,0.08735050165000001,2.993323943241585,0.23761087309210094,-0.24317137231311697, ,0.03094129167214567,0.027514335041597792,0.00886411325542571,0.0,0.04531871799888575,-0.007028487717745705, ,0.39205098152160645
0.008723210632653636,0.020491592822270997,-0.07769302319242358, ,0.009004523591433056,0.02038139564112795,-0.07803689251907642, ,0.0004577406616434493, ,0.003762302362685526,-0.00023050749105630458,-0.008832506219293757,-0.024781245961814472,0.023716674341677426,0.0025398705454405318, ,0.009603187954297524, ,0.034301468474309024, ,4.2753266824233046e-05, ,0.11584871584624187,-0.2300756577888966,0.08755013031000002,2.9937433231285544,0.23802078259139725,-0.2422804449220978, ,0.03439541194580311,0.030396201652296857,0.008869048730512249,0.0216626663705287,0.014524362166185842,0.057916618730919425, ,0.41185498237609863
0.00879740248034711,0.02048983595248629,-0.07786844224434275, ,0.009082763975041337,0.020379232877958713,-0.07821786295161046, ,0.00046449871196434884, ,0.003795786557231379,0.00010838185556305904,-0.009005657536710874,0.01940267338178561,-0.024988271264761483,-0.002907892775136916, ,0.009773515738115487, ,0.031636646091624934, ,4.3181865268030096e-05, ,0.11653603907204785,-0.22946556189183287,0.08772772204000001,2.9939530130720384,0.23870396509022446,-0.24185738955889316, ,0.035369713588695784,0.030484080166550197,0.009196773394919169,0.007753417551549694,0.0501944117114857,0.0016184085681580467, ,0.43508291244506836
0.008878392848445315,0.020487450488019338,-0.07806798848276397, ,0.009160839103334487,0.02037706479118498,-0.07839823526942603, ,0.00044835680999304943, ,0.003946848229705488,-0.0001514462930866196,-0.009545682074608888,-0.014033289255407345,-0.00048544958776701886,0.0005997991905097831, ,0.010330565966951108, ,0.014041680432615803, ,4.348812179408537e-05, ,0.11725425322935074,-0.22880912959752378,0.08792864699000001,2.9945820829024923,0.23911387458952077,-0.2411298196481551, ,0.035688958841094694,0.03211402421606456,0.009618847536231887,0.013544467654701693,0.023147047344638582,0.03267491193633213, ,0.4547548294067383
0.008960305083255375,0.020480132719347066,-0.07825084419091703, ,0.009238749044857865,0.020374891479176243,-0.07857801057881394, ,0.00044231731116371086, ,0.004114995459605598,-0.0005099611916272971,-0.008778824846780879,-0.01409438745965225,-0.025757756666415593,-0.017045716926087827, ,0.009708811139372211, ,0.029361773349165603, ,4.373775029907038e-05, ,0.11801880378389895,-0.22812952910459203,0.08811272017,2.9947917728459768,0.23966042058858256,-0.2405136676411135, ,0.038544655385244014,0.03375913965082561,0.008805313167495854,0.01930538290835835,0.018881573332659034,0.0064942727213625, ,0.4762458801269531
0.009034392360794643,0.020475259898515223,-0.07839746521511756, ,0.009316493868616839,0.02037271304016131,-0.0787571899849411, ,0.0004685072346276157, ,0.003802610620498869,-0.0006157700359919879,-0.007001956417866967,-0.011608152568300674,-0.007830625688170008,-0.00424800735566936, ,0.007991646510329695, ,0.014002424357470159, ,4.408924082459143e-05, ,0.11875246340695028,-0.22751171047465404,0.08826308981000001,2.9947917728459768,0.24089014908647152,-0.24053628389269455, ,0.03727295426491389,0.030250858003975385,0.00704502942061035,0.015570421668203013,0.022127063359297365,0.025821007263506248, ,0.49612998962402344
0.009113077963183249,0.02046101728675273,-0.07855351151751087, ,0.009394073644076245,0.020370529572228048,-0.07893577459185244, ,0.0004829820464214857, ,0.003907143456063444,-0.0005363949984087918,-0.008032131052593712,-0.042960449574051505,0.04639106352765076,0.006102648290963892, ,0.008948106996824386, ,0.0632276123967986, ,4.447743397324081e-05, ,0.11948612303000161,-0.22687072364609343,0.08841864461000001,2.995630532619915,0.24102678558623697,-0.2390141269935797, ,0.036178780617030414,0.02972961828272894,0.00802863483870968,0.02829195161700731,0.0,0.08635667668071761, ,0.5164158344268799
0.00923059544429218,0.020463038644078273,-0.07883727911274317, ,0.009471488441159734,0.02036834117332297,-0.07911376550247062, ,0.0003787370731943239, ,0.003796288543917262,-3.618537835637162e-05,-0.009272657706379533,0.0007891744606758544,-0.03485124339160763,-0.004760868590851798, ,0.010019745357540978, ,0.03486017632942062, ,4.4384101364735e-05, ,0.12054413743377038,-0.2259517184340607,0.08870771728000001,2.9958402225633995,0.2422565140841259,-0.23821995584375513, ,0.033831351714249835,0.029983235879453642,0.009397528920353984,0.0028794517097172337,0.02957277229304594,-0.006631042736694504, ,0.5373167991638184
0.009307875585768222,0.020460455634265247,-0.07901963468293029, ,0.009548738330249173,0.020366147941251685,-0.07929116381859913, ,0.0003750158318758092, ,0.0038429170290575822,-0.00034356209378282477,-0.008968248296498687,-0.039259772965744295,0.014171332008848105,0.01532618390434417, ,0.009762966952323295, ,0.04173914668763702, ,4.4282263529706636e-05, ,0.12123146065957635,-0.22537251346849388,0.08889179046000001,2.996049912506884,0.2425297870836568,-0.23754432550960178, ,0.03419709605710659,0.029553703381647704,0.008979036933483654,0.004255721405146487,0.0,0.05372998195013666, ,0.5580968856811523
0.009379275370658812,0.020461050822585827,-0.07918642126655769, ,0.009625823382183957,0.020363949973678436,-0.07946797064092118, ,0.00038663231506175466, ,0.0036895163284757304,0.0001890793326334169,-0.008593460093154362,0.020249700392469365,-0.03510998424791193,-0.02099779463292477, ,0.009353921001631064, ,0.040530992006232634, ,4.423444000880059e-05, ,0.12186472475526276,-0.2248473676330466,0.08906160445000001,2.996469292393853,0.24307633308271853,-0.23741824594340352, ,0.03299615492297315,0.026663934127134248,0.008819939933554817,0.018879885536227693,0.04269668049362809,-0.01398480613704563, ,0.5785648822784424
0.009453288451755384,0.020457002285060418,-0.07936699265237682, ,0.009702743668260598,0.020361747368125894,-0.0796441870690024, ,0.0004737871939844357, ,0.0035272329914693215,-0.00013272764941547888,-0.008611768945348918,-0.029094695384610878,0.0224654220981561,0.007934967780057338, ,0.009307070085322501, ,0.03675862405213433, ,4.470102239757114e-05, ,0.1225057115838234,-0.22427588540035398,0.08924308505,2.9966789823373374,0.243212969582484,-0.23630448274499155, ,0.030357306960483294,0.026485331163402397,0.008671100446379969,0.013922671948126764,0.006397327724706923,0.05530862401488744, ,0.5978899002075195
0.009491236881926069,0.0204582523589903,-0.07945829659281363, ,0.009779499260231903,0.020359540221975246,-0.07981981420129106, ,0.0004727941052718956, ,0.0036005495140459228,-4.8209473936056645e-05,-0.008717505820135798,-0.013048959453661396,0.005845085076551987,0.002384938959973502, ,0.009431923911937323, ,0.014298262552837096, ,4.5135686269613884e-05, ,0.12283778909741505,-0.22399014428400768,0.08933641793000001,2.9968886722808223,0.24362287908178032,-0.23606698527509687, ,0.03126752604891953,0.02713667187831592,0.008829718137472286,0.012974700239818992,0.01967191437088307,0.03564375116154483, ,0.6152908802032471
0.009523808702691053,0.020461670287960344,-0.07953726817786108, ,0.009856090230306409,0.02035732863246619,-0.07999485313511949, ,0.0005750497263496738, ,0.0038436210772032882,0.0005232093932471342,-0.009397969616651205,0.043151769300908506,-0.021660330479136562,-0.007549265441435609, ,0.010167054832634798, ,0.04828296839417671, ,4.5919438050539756e-05, ,0.12312353021376136,-0.2237507395649067,0.08941808420000001,2.9970983622243064,0.24416942508084208,-0.23602258444903917, ,0.03391599054984659,0.027570290981542935,0.009754324262094306,0.014946732219238472,0.07005628115691638,-0.001016231505557949, ,0.6342148780822754
0.009643112956188169,0.020464659856737566,-0.07982403966695231, ,0.009932516651147895,0.02035511269669655,-0.08016930496670485, ,0.00046364124724036917, ,0.0038198688097702527,0.00044880005814346147,-0.009692093560550175,0.044787331362965414,-0.03103616670777904,-0.027402467435538924, ,0.010427343707891447, ,0.05448989455857958, ,4.6262091939636024e-05, ,0.12416609915178167,-0.22285490255149668,0.08971104574000001,2.9975177421112758,0.24539915357873104,-0.23473834085837122, ,0.032521227401806296,0.02889675443315188,0.010018120452830188,0.028307537601471748,0.06838979849699765,-0.016257097702044334, ,0.6522338390350342
0.009725224678257961,0.020472973521974816,-0.08002767837315555, ,0.010008778595874629,0.020352892511622478,-0.08034317079115014, ,0.00044086022621128723, ,0.0040251034257092885,0.00025648702395466,-0.010693184947101999,-0.021759987419552693,0.021265674921238705,0.012780298038956988, ,0.011428536542096829, ,0.03042574308945975, ,4.65069483088201e-05, ,0.12486114511046187,-0.2223297567160494,0.08991974843000002,2.9979371219982447,0.2459456995777928,-0.23387715263090791, ,0.03298468597791824,0.02816768820376099,0.010858085562372189,0.010646263902015618,0.016145909684388022,0.056252019859087135, ,0.6716048717498779
0.009807158827224957,0.020479475474868038,-0.08023655657964966, ,0.010084876138058887,0.020350668174058128,-0.0805164517024454, ,0.00041480056080435017, ,0.004030003280378811,0.00046646528197706334,-0.01038229108797897,0.032411191725356524,-0.033614787388936654,-0.011813406923469771, ,0.011146770139133642, ,0.04669517276580383, ,4.665087078132444e-05, ,0.12519322262405352,-0.22203629286682888,0.09003122937000001,2.998146811941729,0.24649224557685456,-0.23383275180485022, ,0.03404985344760344,0.02931632423802001,0.010697657165883145,0.012559771428459557,0.05894673012122737,-0.011955187758155995, ,0.6892378330230713
0.009842911861201764,0.02048043415391778,-0.08032294748185756, ,0.010160809351726204,0.020348439780675992,-0.08068914879346818, ,0.0005025780831617801, ,0.0042429279437509425,3.39234952018673e-06,-0.009601490137886115,-0.007298933642727023,-0.009757800972620459,-0.028867309039187175, ,0.0104971930491833, ,0.012185607516313396, ,4.707503837775456e-05, ,0.1258496549183626,-0.22148797883275895,0.09022178400000001,2.998566191828698,0.24703879157591632,-0.2332165997978086, ,0.03642876835257995,0.028695779122609847,0.009784282260442262,0.03723835743356747,0.020489722870677046,0.017722010070975715, ,0.7076699733734131
0.009933155612500232,0.020477660353842013,-0.08052391297391227, ,0.010236578311354858,0.020346207428006347,-0.08086126315598496, ,0.00047238792452333034, ,0.004373499327748907,-4.339693227679506e-05,-0.009992589426745701,-0.008872236351519711,-0.015062741275659644,-0.016262782681693434, ,0.010907851443573164, ,0.017481494586695623, ,4.738106910459575e-05, ,0.12665281913728196,-0.22083154653844986,0.09042659782000001,2.998566191828698,0.24772197407474353,-0.23279354443460396, ,0.03761273942071771,0.030250858003975385,0.010171654865900383,0.023572189687835438,0.02186485949516018,0.016254602002950105, ,0.7251589298248291
0.010004307611912715,0.020477244921563865,-0.08068672818670836, ,0.010312183091875227,0.02034397121243764,-0.08103279588065183, ,0.0004819875947550573, ,0.004284363452387442,-0.00038401204966386805,-0.00965077552864634,-0.007789746300576309,-0.02148311587347851,-0.01146613346332786, ,0.010566016456108676, ,0.022851790550067298, ,4.7701751478172986e-05, ,0.1272629150343457,-0.2203372916344995,0.09059252294,2.9989855717156675,0.24813188357403987,-0.23239268948442818, ,0.037170756583811505,0.03359183771981267,0.00976030117647059,0.015953232520332882,0.026015092016063966,0.009735231592381299, ,0.748445987701416
0.010102904778265922,0.020466293924460026,-0.08088884022411724, ,0.010387623768669293,0.020341731230215956,-0.08120374805701508, ,0.0004424338498737063, ,0.003866679489541053,-0.000996133149294628,-0.007333754098099724,-0.04141374665621733,0.026679327330224954,0.08090271943491442, ,0.008350295844900083, ,0.04926342352784866, ,4.788661420780314e-05, ,0.12812786111625885,-0.21959590927857392,0.09079733676000001,3.00003402143309,0.2486784295731016,-0.2314498225168243, ,0.03709810068743971,0.03290462606049611,0.0073101475539238195,-0.04932988264661651,0.013557293760097787,0.08229437757562875, ,0.7664098739624023
0.01018046015024088,0.020453259629099087,-0.08103121913670824, ,0.010462900417569808,0.020339487577445494,-0.08137412077351266, ,0.0004585827263095018, ,0.0038845094459127568,-0.0006221641601491107,-0.007487476427084999,0.0029193826781133154,-0.029912744632392435,0.02677436262420573, ,0.008458061546460454, ,0.030054867544725396, ,4.811061958657785e-05, ,0.12886152073931018,-0.2189549224500133,0.09094252124,3.00003402143309,0.2496348850714597,-0.2314129604412936, ,0.036597355016764664,0.03163231385282359,0.0076068822922636115,-0.022383862519702407,0.039311258145585073,0.006947445749249069, ,0.7853379249572754
0.010260473093498104,0.02044138380337482,-0.08119751851994238, ,0.010538013114859893,0.02033724035008808,-0.08154391511747462, ,0.00045592206033696735, ,0.004101871749618729,-0.000542426564815594,-0.009191607634818914,-0.04327053827318201,0.010205238478350035,0.03374496723938205, ,0.010079941931429923, ,0.04445769122708484, ,4.831652423482233e-05, ,0.12957201216373881,-0.2183525492858238,0.09110974265,3.00003402143309,0.24977152157122512,-0.23087094842386555, ,0.03558190534625826,0.030971586670519188,0.009218062222222224,-0.014509434816062143,0.0,0.055416528414410096, ,0.8030469417572021
0.010333026462703163,0.020444408241794956,-0.08138105197756071, ,0.010612961937272314,0.02033498964396347,-0.08171313217512423, ,0.0004478990478751777, ,0.0042586284568468125,0.00044532717838506944,-0.010988408892171791,0.009393992668489443,-0.011979711699553643,-0.00543075629669781, ,0.011793191366667207, ,0.015223679924899779, ,4.849036801384952e-05, ,0.1301666625950541,-0.21781195798462807,0.09129770470000001,3.0002437113765743,0.2505913405698178,-0.23072266844463846, ,0.03427119594022057,0.02821794277682747,0.011289023047484055,0.015091113879586726,0.03932538520585742,0.015428464283726247, ,0.8247318267822266
0.010397959963303513,0.02044765302976101,-0.08154832174695227, ,0.01068774696198894,0.020332735554749026,-0.08188177303157837, ,0.0004564781373615091, ,0.004117539822320724,0.00015719338332098858,-0.010271267161843584,-0.008645265661959329,0.03502815480843084,-0.039135877894779875, ,0.011066967654155461, ,0.03607924795959305, ,4.8680271596261473e-05, ,0.1306686402318787,-0.21740265314229418,0.09146751869000001,3.000872781207028,0.2505913405698178,-0.23006923852351394, ,0.03194107760298579,0.02800145811698754,0.010479481263157897,0.0652329197814895,0.0222207358732063,0.05645344286440463, ,0.8421609401702881
0.010476188346587867,0.020448436787207872,-0.08173264167993498, ,0.01076236826664005,0.020330478177980033,-0.08204983877084905, ,0.0004432010543944935, ,0.0035801858945795576,-7.059597360567927e-05,-0.007456003283194181,0.04309284375893133,-0.01945043926543849,0.0012588095483362224, ,0.008271317899236987, ,0.04727909419402653, ,4.895863886044806e-05, ,0.13133279525906202,-0.21682344817672733,0.09165677703000001,3.000872781207028,0.2515477960681759,-0.2297873402275616, ,0.03210316020245967,0.028134284482203013,0.007751246481751827,0.0073581084493016475,0.07191927420865828,0.0013804123270375057, ,0.8582618236541748
0.010552142271208195,0.02044331643409448,-0.08189529771323326, ,0.010836825929303864,0.020328217609049144,-0.08221733047584323, ,0.00044496924040630156, ,0.004005493472869397,-0.000171545260061059,-0.009508091922932843,-0.02900321979157472,0.0012938511992803062,0.013053709152618574, ,0.010318779857734611, ,0.029032063851818543, ,4.9231328909469834e-05, ,0.13198922755337109,-0.2162751341426574,0.09182270215,3.0010824711505126,0.25209434206723763,-0.2290895094803794, ,0.033007631846424614,0.027658683054057352,0.009624659528700907,0.0004328015714351669,0.005815145374974099,0.037841201123079156, ,0.8740959167480469
0.010591893313445297,0.020444833050179613,-0.08199121800018716, ,0.010911120028505793,0.020325953943206777,-0.0823842492283649, ,0.0005201071851127214, ,0.004024748522364988,0.00028529868944213773,-0.00999851606544377,0.012065996435398772,-0.001945227804232159,0.008539384307604881, ,0.010781944143864486, ,0.012221787155059952, ,4.969072127268039e-05, ,0.13231358233408852,-0.21599711575918532,0.09192122019000001,3.001292161093997,0.25250425156653394,-0.22877033327034418, ,0.03279092659242252,0.02759434183148322,0.010289929922480621,0.006503490051995869,0.04470098240502724,0.026440920345158613, ,0.8894917964935303
0.010641510281518527,0.020450195825278517,-0.08211958976280835, ,0.010985250643217852,0.020323687275561213,-0.08255059610911435, ,0.000565622064605689, ,0.00432757591341172,0.0005134746625379428,-0.011651353032970747,0.008422284039736671,-0.011810566752282012,-0.019430165156607997, ,0.012439678332429918, ,0.01450600360993716, ,5.025058506624576e-05, ,0.13269971897779975,-0.21566503824559366,0.09205344177000001,3.001711540980966,0.25305079756559573,-0.22856257496400537, ,0.03297322500294329,0.028302100077086424,0.01195856720720721,0.027378881159157806,0.03602094112614777,0.011776569301517877, ,0.9107379913330078
0.010761300031122342,0.020456312390831025,-0.08241105968909285, ,0.01105921785285817,0.020321417701078023,-0.08271637219769036, ,0.00044740064119029273, ,0.004006510447000926,0.00019527165261864956,-0.009054113763601901,0.04982884458829116,-0.032188237599029584,-0.017386136748565942, ,0.009902890134929771, ,0.05932112888246461, ,5.0492116747373464e-05, ,0.13368050605282628,-0.2148618740266743,0.09235288476,3.001711540980966,0.25414388956371925,-0.22773866465062492, ,0.033819294924615384,0.029154206315966442,0.00942533226035503,0.020011502814775536,0.07498914385855895,-0.014557035450202864, ,0.926426887512207
0.010803706975498088,0.020456251077752185,-0.08250126255274069, ,0.011133021737290215,0.020319145314580633,-0.08288157857258997, ,0.000521427346408929, ,0.004153330583343278,7.906722962903318e-07,-0.00837611882636725,0.03566449581295776,-0.04966093023806458,-0.010176264733965441, ,0.009349305971735078, ,0.06114052839542951, ,5.0908946844587654e-05, ,0.13404347449791482,-0.2145684101774538,0.09244621764000001,3.0019212309244505,0.254690435562781,-0.22785762130484838, ,0.03673904047946991,0.028026267441958293,0.008713791859956238,0.005441658958570605,0.05920897987107425,-0.025076011742983916, ,0.9424059391021729
0.0108904189860717,0.02044961026795357,-0.08267828952944804, ,0.011206662376822269,0.020316870210750043,-0.08304621631120992, ,0.0005029909757813428, ,0.004487062974719316,-0.00036431600384914924,-0.009725028275461366,-0.0365081653398309,0.04216883576959027,-0.024570787027950958, ,0.010716465613637765, ,0.05577684788203887, ,5.126657696134187e-05, ,0.13476941138809193,-0.2140123734105096,0.09262640195,3.002759990698389,0.25482707206254646,-0.22674385810643638, ,0.03616499297197819,0.029692409749208632,0.009850842003710576,0.05467098047153995,0.00032963354729052585,0.07551336951577531, ,0.9588418006896973
0.010976550543604502,0.020450810404913224,-0.08288719715239232, ,0.011280139852206914,0.02031459248412436,-0.0832102864898465, ,0.00046379791959248604, ,0.0045153538054608965,0.0004817304354563798,-0.011277894268993612,0.0225427195058799,-0.004873885896708823,-0.01947949625810638, ,0.012157770492303847, ,0.02306358133522417, ,5.151821216724857e-05, ,0.13546445734677212,-0.2134177229791943,0.0928402898,3.002759990698389,0.25551025456137366,-0.2265658389636534, ,0.035147015392026214,0.028852825040580957,0.011660916193265009,0.03292484908879358,0.05153039936020221,0.018494863782037706, ,0.9745278358459473
0.011021365542916961,0.020452047920237734,-0.08300176512392372, ,0.01135345424464009,0.020312312229100012,-0.08337379018369735, ,0.0005178915082229693, ,0.004774621177443434,0.000274247233638978,-0.012166818349457579,-0.0019240235390122601,-0.017708204083058662,-0.02113502380396391, ,0.01307301371841809, ,0.017812413980440627, ,5.18891178819944e-05, ,0.13579653486036378,-0.21313970459572223,0.09295177074000001,3.002759990698389,0.2556468910611391,-0.226268863166647, ,0.03644275789495806,0.03105266412253625,0.012424969984399377,0.02704884233561126,0.03062640816676075,0.00853040173657119, ,0.9905409812927246
0.011120974559558478,0.020456034218284316,-0.08324469852474162, ,0.011426605635760971,0.02031002953993047,-0.08353672846686144, ,0.00044722389016734463, ,0.004818511682600101,1.809370450564767e-05,-0.011053516483947493,-0.013213642254005642,-0.002126854961760361,0.005561205827889704, ,0.012058134552176606, ,0.013383709823446855, ,5.208401362443845e-05, ,0.1365919763464089,-0.2124909950342874,0.09320584358,3.0031793705853578,0.2561934370602008,-0.22573438989974592, ,0.03898806144555085,0.030464507723425613,0.011321116929637528,0.00972247450375534,0.023141903264047116,0.035883733305173166, ,1.0061769485473633
0.011165593012142554,0.020458849096718315,-0.08334421162539599, ,0.01149959410765088,0.020307744510727036,-0.08369910241234006, ,0.000510232102445684, ,0.004414757069695203,-1.1575990409839858e-05,-0.009483930376689221,0.04769869019542551,-0.04988784024364548,-0.01714848734858556, ,0.010461125626712753, ,0.06902145734341468, ,5.241653418853574e-05, ,0.13695494479149745,-0.21219753118506685,0.09330954678000002,3.0035987504723267,0.256876619559028,-0.22580140697738468, ,0.037316925504707346,0.03191959016430231,0.00985693782178218,0.013064385981537835,0.07372872045776659,-0.02858077544022876, ,1.021838903427124
0.011260504249602841,0.020446224190909006,-0.08353011102222084, ,0.011572419742833007,0.02030545723545826,-0.08386091309203722, ,0.0004759586327178986, ,0.0041996783228080235,-0.0007436510745632637,-0.00849512599866106,-0.04776071519152038,0.023099359508276376,0.054567961175838293, ,0.009505655194087874, ,0.05305342855136376, ,5.266157439841921e-05, ,0.1377581090104168,-0.21153337615788353,0.09349880512000001,3.00422782030278,0.2572865290583244,-0.2245837646258033, ,0.036275589280761,0.030030677708376828,0.008554678582169711,-0.027992627844611578,0.0,0.0738821277478813, ,1.0388689041137695
0.01130091399859351,0.020443820220296574,-0.08361286331568991, ,0.011645082624271573,0.020303167807950818,-0.08402216157676103, ,0.0005529558847825419, ,0.004313225384416489,-0.00019322047653338656,-0.00906390209910267,0.036962919051035534,-0.052586283544066866,0.016710809157116688, ,0.010039699628546879, ,0.0642773252444057, ,5.306937277008649e-05, ,0.1381056319897569,-0.211239912308663,0.09358436026000001,3.00422782030278,0.2578330750573861,-0.22462104253988616, ,0.037375715462178334,0.03209230353685181,0.009391987924528302,-0.02021841627935266,0.06862760318454489,-0.022828865249018396, ,1.054107904434204
0.011384002394525049,0.020436525942478245,-0.08379324985123533, ,0.011717582835371417,0.020300876321888317,-0.08418284893622337, ,0.0005305319755725971, ,0.0046435572919194526,-0.000536883984560821,-0.01015673599264191,-0.04327864049271368,0.02587626485405814,0.019767567147014282, ,0.011180794012969019, ,0.05042441568931244, ,5.35325075712919e-05, ,0.1387929552155629,-0.21064526187734772,0.09376843344,3.00422782030278,0.25837962105644785,-0.22400489053284453, ,0.03761273942071771,0.03186599783696131,0.01027002676982592,0.006227217147060543,0.0010498164112263905,0.07025941247268488, ,1.0697588920593262
0.011416889905642765,0.020434183804994947,-0.08386573762160089, ,0.011789920459977295,0.020298582870812477,-0.08434297623904198, ,0.000620722245287993, ,0.004720948634537644,-0.0004256578737520172,-0.01024995324703392,-0.03702503906050208,0.012730319328463875,-0.0013960406103352523, ,0.011292921774359864, ,0.03915245119399454, ,5.4178040329611384e-05, ,0.13905552813328653,-0.21042130262399522,0.09384232197,3.004437510246265,0.2585162575562133,-0.22370791473583815, ,0.03791328068656444,0.030850761234873465,0.010397396553524807,0.020307121330803948,0.0009246877377423304,0.052400203390861363, ,1.0834898948669434
0.011540318949048027,0.0204418601764075,-0.08415614696815135, ,0.011862095582373075,0.020296287548122408,-0.08450254455273927, ,0.0004946947326060541, ,0.0052248420416440905,0.00041725412688060817,-0.012707666980789352,0.013694419337219065,-0.02147530770953554,-0.02969204304299225, ,0.01374619494482653, ,0.025470092870279747, ,5.453894775648028e-05, ,0.1400285924754388,-0.20964130660369854,0.09414306125,3.004856890133234,0.2598826225538677,-0.22367859141083446, ,0.03963949104363859,0.031329462383120094,0.013120932059308074,0.035893962168821396,0.04189872765425069,0.005785107904658911, ,1.0967237949371338
0.011591798479948977,0.020443096513046474,-0.08428599515714008, ,0.011934108287281498,0.020293990447074698,-0.08466155494374475, ,0.0005295788670445139, ,0.0053823562775653965,0.00036238430826310026,-0.013426236102566918,-0.017048703069028278,0.014609713015193766,-0.006127651724791524, ,0.014469447030463682, ,0.02245220600377817, ,5.496404267350893e-05, ,0.14041472911915004,-0.20933239728872957,0.09427528283000002,3.004856890133234,0.2598826225538677,-0.2226984465291477, ,0.04007472194192178,0.03146450316925424,0.013779248719723186,0.028355866395710392,0.02078490962364052,0.05211237921298187, ,1.110489845275879
0.011632571851495202,0.020443984918412067,-0.08438643974617759, ,0.012005958659863217,0.020291691660783963,-0.08482000847739458, ,0.0005921087650688435, ,0.005444513228030393,0.0002602961980021903,-0.013379220723591472,-0.018492454200206898,-0.010953572661910138,-0.01466966860868973, ,0.01444693827672396, ,0.021493049753487602, ,5.5508284393483594e-05, ,0.140723638434119,-0.2090929925696286,0.09437768974,3.004856890133234,0.2598826225538677,-0.22229005282844488, ,0.040798341168732065,0.031855300959540374,0.013708099414802067,0.024487499068369525,0.01502276991436528,0.02576810275087885, ,1.1239697933197021
0.01174962044765034,0.020445686096321747,-0.08465292715639722, ,0.012077646785716437,0.020289391282222055,-0.084977906217933, ,0.00048748408980825946, ,0.005054696781788057,-6.440115044281051e-05,-0.011085356162326788,0.019652026558733555,-0.00843401485795595,-0.05363903629213891, ,0.012183563859135528, ,0.021385382556600788, ,5.582474829399047e-05, ,0.14162719818040329,-0.20835161021370305,0.09465250322,3.0059053398506568,0.2608390780522258,-0.22225319075291422, ,0.03914890328319751,0.03311128456331849,0.011443111724137933,0.06428694925573088,0.047082917533193124,0.012664468728621064, ,1.1369760036468506
0.011797212005817233,0.020442938769707257,-0.0847596683933336, ,0.012149172750876057,0.02028708940421868,-0.08513524922851201, ,0.0005377976892278995, ,0.005091250856534946,-0.0003723912444964523,-0.011306471072734133,-0.01614805408949726,0.0018758989798261533,-0.043625741520531364, ,0.012405474543189358, ,0.016256643659998637, ,5.6235374203836537e-05, ,0.14199788935836605,-0.20804270089873406,0.09476139158,3.0061150297941412,0.26097571455199126,-0.22179285747562671, ,0.03884442961869455,0.03397670660883308,0.011550987324147935,0.0584255006760866,0.01636412476905296,0.025973826431513705, ,1.150810956954956
0.011898791817393667,0.020441652682731782,-0.08498073563877782, ,0.012220536641813384,0.0202847861194612,-0.085292038571193, ,0.0004743799810736992, ,0.00497249961206898,0.00011633256339569058,-0.01042179994401453,0.04483687198883872,-0.02187292475788888,0.00666768775601195, ,0.011547865591978183, ,0.0498875716412614, ,5.6509309675537896e-05, ,0.14281649904303387,-0.20740171407017344,0.09498953862000001,3.0061150297941412,0.2617955335505839,-0.22123618379569682, ,0.04100991424307294,0.03228885388175256,0.010910144876712331,0.005902149018318454,0.07944242267545627,0.008402622212332587, ,1.1673967838287354
0.011944714266460094,0.020437804390106663,-0.0850762434122802, ,0.01229173854543506,0.020282481520494652,-0.08544827530694651, ,0.0005319386944673301, ,0.004668970331613696,-0.0005902707199829226,-0.009466878369681854,0.009244808581226121,-0.016336024603949426,0.004712201669723762, ,0.010572109039671708, ,0.01877051170122368, ,5.689050105185035e-05, ,0.14319491295387085,-0.20706963655658178,0.09508805666,3.0061150297941412,0.2623420795496456,-0.22111010422949856, ,0.038560317577598854,0.03454566492845678,0.009718615936546675,0.005656660801603357,0.04699221900996299,0.016814303261486994, ,1.180609941482544
0.011996959718132959,0.020429531812696,-0.08517683876876539, ,0.012362778549082873,0.020280175699722014,-0.08560396049565396, ,0.0005818622131918608, ,0.005121670137077378,-0.0006588040538709301,-0.010241556443676966,-0.033472188531678854,0.022353425939567694,0.014945248348913922, ,0.011469743073122788, ,0.04025000551130904, ,5.736026512778934e-05, ,0.14361966326195322,-0.20671439084436746,0.09519046357000001,3.00653440968111,0.2624787160494111,-0.2203230559916488, ,0.04173128476625804,0.03369919799661605,0.010438277536041943,0.011657779729775396,0.011672423213000743,0.06809915332658463, ,1.1961479187011719
0.012121088199266692,0.02043312540980279,-0.08545399950907072, ,0.012433656740532855,0.0202778687494038,-0.08575909519610703, ,0.00046355916756727044, ,0.005454637541438771,0.00047281217905259,-0.012377931322150048,0.0432818122922656,-0.032488548625738356,-0.0419585456646762, ,0.013534762867556893, ,0.05411858069597592, ,5.7590762380300026e-05, ,0.14458500487123127,-0.205942117556945,0.09547823995000002,3.0071634795115636,0.2638450810470655,-0.21988533896594237, ,0.04154857336185235,0.03162177326173635,0.01292923012987013,0.04588360027404515,0.06766889989821044,-0.01041795537325466, ,1.21012282371521
0.012172194132706256,0.020432039136227466,-0.08557446760747028, ,0.012504373207994895,0.020275560761658158,-0.08591368046600892, ,0.0004998937718810058, ,0.00541866250945988,-0.00015162304395122637,-0.012539681708310466,-0.016887449272624012,0.020679105127367543,-0.00881892550111411, ,0.013661204569313029, ,0.02669852096565605, ,5.7885321917703085e-05, ,0.1449711415149425,-0.20562548550910179,0.09560138750000001,3.0071634795115636,0.2639817175468309,-0.21934332694851424, ,0.04048504332699265,0.03447037470340384,0.012845815741935485,0.03373944235864117,0.02419006231328403,0.05785801291198517, ,1.2237279415130615
0.01222729430881272,0.02042842362126879,-0.08570197283522851, ,0.012574928040111831,0.020273251828461666,-0.08606771736197548, ,0.0005279171859915935, ,0.005183062750791237,-0.00010245127392847359,-0.011697059861085003,-0.02413901954397893,0.020700178268279752,-0.0019843964588270088, ,0.012794367711457064, ,0.031799204800021186, ,5.8226086548807564e-05, ,0.14538816909015062,-0.2052779625297617,0.09573101650000002,3.0071634795115636,0.2639817175468309,-0.21860821828724916, ,0.03914890328319751,0.03087083329813623,0.011994586987951809,0.026233105397940628,0.01453330021674641,0.05953827541431352, ,1.2372558116912842
0.012324794661856583,0.020424314306330897,-0.08590248578530262, ,0.012645321325959148,0.02027094204164792,-0.08622120693953442, ,0.000477329622095209, ,0.004748585780013307,-0.00018779374977060358,-0.008559626896984668,0.07233977193989699,-0.059892593388693516,-0.02329659940758501, ,0.009790380279548944, ,0.09391573510967628, ,5.8464842337617946e-05, ,0.14615271964469884,-0.20463697570120107,0.09593323774000001,3.0071634795115636,0.2653480825444854,-0.21882393118266721, ,0.04060630789836148,0.032734371010165846,0.009035060419739083,0.018559406528855054,0.09619432624431894,-0.04040037112504756, ,1.251791000366211
0.012375102153858994,0.02041962397286119,-0.0859966253928363, ,0.012715553155044065,0.02026863149290909,-0.0863741502531273, ,0.0005303118265207158, ,0.005062821942185134,-0.00038046470735671103,-0.010078610286208796,-0.009439921569464894,0.015970082363241128,0.010643978944945676, ,0.011285180756775188, ,0.018551429754430145, ,5.890474550736402e-05, ,0.14658519268565542,-0.2043048981876094,0.09603694094000001,3.0077925493420175,0.2656213555440162,-0.2185566945492167, ,0.04072830109805613,0.031611239693028245,0.010397396553524807,0.014598029719212645,0.03134294151136893,0.05621014559885895, ,1.2627239227294922
0.012429424913568242,0.020413876975550516,-0.08610715993466828, ,0.012785623617305104,0.020266320273794942,-0.0865265483561095, ,0.0005696816170597086, ,0.005421963167313774,-0.00031552525103659135,-0.011621090229954428,-0.021899225665915577,0.03591217372203812,-0.06415878219523195, ,0.012827586636015801, ,0.04206257355723827, ,5.9408697685977375e-05, ,0.14699449752798932,-0.20397282067401776,0.09614971817000001,3.0086313091159558,0.2656213555440162,-0.21757654966752996, ,0.03973908775480351,0.03256586875719657,0.01190494134529148,0.09096470055214173,0.009695202117737837,0.06335250983613948, ,1.2748467922210693
0.012475224495575359,0.0204122902607491,-0.08621088510978842, ,0.01285553280311142,0.020264008475713222,-0.08667840230075069, ,0.0006206401698243721, ,0.005438220346831241,-0.0002114459949120297,-0.012283036957341849,-0.035695315200461694,0.030949994601627978,-0.02895372698696752, ,0.013434729131801628, ,0.04724465486704823, ,5.999598748887118e-05, ,0.14734202050732942,-0.20369480229054568,0.09625601395000001,3.0086313091159558,0.26575799204378164,-0.21711621639024242, ,0.039573370124466545,0.031855300959540374,0.012552254940898346,0.05481610365667129,0.0008924400155715965,0.0671423231118069, ,1.2871208190917969
0.012535180486071341,0.02041603184910818,-0.0863598094849182, ,0.012925280803262156,0.02026169618992959,-0.08682971313823588, ,0.0006299263421764262, ,0.005409556653608488,0.0006942805105208593,-0.014429343102672004,0.056173420290456175,-0.0547351543458577,0.0005150832185450973, ,0.015425669223424865, ,0.07843079524577827, ,6.058941627436053e-05, ,0.147774493548286,-0.20331638837970867,0.09641027246000002,3.00884099905944,0.26644117454260885,-0.2171015547277406, ,0.03823406186884399,0.0348117907404515,0.015013017455230917,-0.003793715831841342,0.08730640805901825,-0.03062503658938233, ,1.2987489700317383
0.012592372093401085,0.02042348033053017,-0.08650988037403812, ,0.012994867708985832,0.02025938350756786,-0.0869804819186656, ,0.0006406218086180338, ,0.0058014432502299035,0.0007934526742505348,-0.01540043991408592,-0.0040145866304841064,-0.010672550164500718,0.018853806176770568, ,0.0164760389802672, ,0.011402603498008436, ,6.11913320092023e-05, ,0.14857765776720533,-0.2026676788182738,0.09672786351000001,3.0086313091159558,0.2669877205416706,-0.21607700901999616, ,0.04129544889402558,0.03332055532249676,0.015345675838150292,0.0,0.017474342540764076,0.061893955667876165, ,1.3095788955688477
0.012710284359570107,0.020429257735200504,-0.0868120762651361, ,0.013064293611939684,0.0202570705196099,-0.0871307096910566, ,0.0005064565609111517, ,0.0057819831596094586,-4.441985303287998e-05,-0.013643120761844015,-0.030823843128573003,0.011534565210774936,0.011997619193268793, ,0.014817828670342023, ,0.032911320653157994, ,6.154557211673788e-05, ,0.14899468534241347,-0.2023201558389337,0.09687564057,3.0090506890029243,0.26726099354120153,-0.21572809364640513, ,0.041989797149765834,0.03369919799661605,0.01398490914837577,0.009596757239700219,0.012319836232629165,0.056596109150483, ,1.3212499618530273
0.012712214210831846,0.02042936158953392,-0.0868158032915346, ,0.013133558604209202,0.020254757316895387,-0.08728039750334261, ,0.0006510495614772148, ,0.005782905485255942,-3.533593500164387e-05,-0.013602649740120631,-0.030535802203918126,0.011002963173130246,0.011804047302591086, ,0.014780910811993609, ,0.03245766395035096, ,6.214683604124493e-05, ,0.14901013080816192,-0.20231243310605948,0.09687952944000001,3.0090506890029243,0.26726099354120153,-0.21572809364640513, ,0.04206424714471222,0.033508807047482624,0.013948171208406305,0.009596757239700219,0.012319836232629165,0.05607851750759627, ,1.3329899311065674
0.01282926269590655,0.02043971482759199,-0.08706451693372282, ,0.013202662778307233,0.020252443990122538,-0.08742954640237463, ,0.0005547472407210084, ,0.005450037114565746,0.00018245051103073836,-0.011433627948507188,0.07249966164500449,-0.04918561985465898,-0.041167716409962175, ,0.012667440183557378, ,0.08760950829521351, ,6.257046982686087e-05, ,0.1499214132873204,-0.20164055534600195,0.09714267631000001,3.0094700688898937,0.26931054103768315,-0.21633753858002414, ,0.041989797149765834,0.03432077452385923,0.012049025355521938,0.040665480942396,0.09669937664901775,-0.0315109966746919, ,1.3439559936523438
0.012884224629652665,0.02043594811113822,-0.08718441327886962, ,0.013271606227173516,0.020250130629847703,-0.08757815743392196, ,0.0005827753410095816, ,0.005754190407537334,-0.0005916789074670338,-0.012485688405901859,-0.05650910028020871,0.08186564941368586,0.02139502781466542, ,0.013760567072072582, ,0.09947493485783468, ,6.303505328964103e-05, ,0.15033844086252854,-0.20129303236666185,0.09726582386,3.0094700688898937,0.269583814037214,-0.2154985507655896, ,0.04247848771641485,0.035688958841094694,0.012722692907348242,0.03145186282831118,0.0,0.13370748380306388, ,1.3551769256591797
0.012944054206199764,0.0204309304461152,-0.08731657502308297, ,0.013340389044174186,0.0202478173264848,-0.08772623164267206, ,0.0005986904578712975, ,0.00581487086283549,-0.0003381524119974756,-0.013568459594758856,-0.05954567533068632,0.059666750921485656,0.03847830511255441, ,0.014765844573873739, ,0.08429595575248806, ,6.351886760947566e-05, ,0.15077863663635932,-0.20093006392157328,0.09740063802000001,3.009679758833378,0.269583814037214,-0.21427336966348118, ,0.04186014184317194,0.0347607844536523,0.013827093333333334,0.004706376869982519,-0.003851462658434399,0.114461051638382, ,1.3664278984069824
0.012999043991580592,0.02042887739614895,-0.08744335233426291, ,0.01340901132310082,0.02024550417030714,-0.08787377007223213, ,0.0006220597897533518, ,0.005905842185627999,-0.0002534526909682682,-0.013379109008021601,-0.039238904811734844,0.013537132272041256,0.006108111406227143, ,0.014626816743113558, ,0.041508374724776025, ,6.40340375785213e-05, ,0.15117249601294477,-0.2006134318737301,0.09753026702,3.0098894487768626,0.269583814037214,-0.21345658226207556, ,0.042881582267722894,0.034147873896535,0.013696312570937234,0.015465714465952476,0.0038817701838307337,0.059818100860130646, ,1.3775839805603027
0.013060419659773536,0.020430234680235387,-0.08757352506776772, ,0.013477473158170165,0.02024319125144523,-0.08802077376512807, ,0.0006394921907802883, ,0.006220954509165114,0.00017600280447463857,-0.013255932766712783,0.05694090300491253,-0.05711301242082922,-0.06511696296138639, ,0.014644145775971172, ,0.0806483863042993, ,6.456981275115164e-05, ,0.15162813725252403,-0.20025818616151575,0.09766637747000001,3.010518518607316,0.2702669965360412,-0.21360527807985488, ,0.04624607288424502,0.036597355016764664,0.013887368369659986,0.05943150945201583,0.07904740067694407,-0.037152719510235875, ,1.388598918914795
0.013124205609321397,0.02042823027269256,-0.08771412176497614, ,0.01354577464402316,0.020240878659888748,-0.0881672437628071, ,0.0006466379379203512, ,0.00636148213645336,3.5436267051287135e-06,-0.013532514784657142,0.00742713273387269,-0.020712794871903535,-0.046706149902012335, ,0.014953174376254347, ,0.022004129572032512, ,6.51085629577483e-05, ,0.15209922395785172,-0.19987204951780455,0.09781156195000001,3.010728208550801,0.27067690603533756,-0.2134494593501008, ,0.046770301408807675,0.034952832986545404,0.014046571005291006,0.05469193216502506,0.037023608992895835,0.01184664917742067, ,1.3998188972473145
0.013187740944820853,0.02042563364283739,-0.08785010343843021, ,0.01361391587572467,0.02023856648548514,-0.0883131811056368, ,0.0006565516879547409, ,0.006297299760729736,-0.0005265425642285359,-0.013378545945611067,-0.04911665485939399,0.009962890965950651,0.03585108501891601, ,0.014795902235661653, ,0.05011690884705228, ,6.57633025215892e-05, ,0.15257031066317941,-0.1995168038055902,0.09795156127000001,3.0109378984942854,0.270813542535103,-0.2129074473326727, ,0.047543557895025436,0.036625604615388184,0.013696312570937234,-0.012560717137616343,0.0020346909165337842,0.06762309760761953, ,1.410376787185669
0.013247070078761525,0.020421596962689796,-0.08797460550079408, ,0.01368189694876256,0.02023625481794076,-0.08845858683290593, ,0.0006765087193287519, ,0.0062209636946581395,-0.0005510592616805943,-0.0129378841724588,-0.022402555166989392,-0.025583790814916574,0.006944205291242267, ,0.014366380979916219, ,0.0340059475381072, ,6.644221140376061e-05, ,0.15302595190275867,-0.19916155809337588,0.09807989398000001,3.010728208550801,0.2710868155346338,-0.21264021069922215, ,0.04718893165513216,0.03750867255275525,0.013296169883138568,0.0,0.019314894271175494,0.021660590382687847, ,1.4195997714996338
0.01333204177162189,0.020418054415912688,-0.08814792732504835, ,0.013749717959047267,0.02023394374682017,-0.08860346198282576, ,0.0006448736003685329, ,0.006531973126558302,-0.0003676205889436299,-0.013164673197249146,0.005159060198412462,-0.038345034268378805,-0.0012960841228650335, ,0.014700695160905322, ,0.03869053062134806, ,6.706065309177609e-05, ,0.1536746614641935,-0.1986595804565513,0.09826007829000001,3.0109378984942854,0.271769998033461,-0.21262554903672035, ,0.050210021988608876,0.03838873040391213,0.01366107334476844,0.005900628616273666,0.04438180288576363,0.005696618535225954, ,1.4286668300628662
0.013401870019490936,0.02041333060672678,-0.08829708977496391, ,0.013817379002910994,0.020231633361546777,-0.08874780759252979, ,0.0006393810720377332, ,0.0070039219620598656,-2.2875941216357783e-05,-0.01566140759590315,-0.014939926598949396,0.03670823493163626,-0.06184043950363666, ,0.017156198123253412, ,0.039631994352475254, ,6.766217409610451e-05, ,0.1541689163681439,-0.19826572107996585,0.09841304051000001,3.0117766582682233,0.271769998033461,-0.2118904403754553, ,0.04831819834952687,0.038342198609483145,0.01617138225380711,0.0937333101313188,0.023256145520718686,0.07199134098087004, ,1.4373970031738281
0.013473759855784632,0.020414491175502134,-0.0884613893083132, ,0.013884880177107229,0.02022932375140219,-0.0888916246980743, ,0.000623224986786544, ,0.007459206076170823,3.204605836330723e-05,-0.016704353290045274,-0.027828092979429397,0.018053383232822563,-0.037065843053686154, ,0.01829415756670109, ,0.0331711637481895, ,6.822992979723515e-05, ,0.1546786167378427,-0.1978795844362546,0.09858285450000001,3.0119863482117077,0.2720432710329919,-0.2112964887814425, ,0.05208394157984127,0.03897204992134323,0.017238973506493508,0.06254962176687967,0.01378355995116116,0.06347728958442338, ,1.447070837020874
0.013529520733185038,0.02041745222036218,-0.08858942529646205, ,0.013952221578810084,0.020227015005526663,-0.08903491433443936, ,0.0006429640897004943, ,0.007297508620795915,0.0007483494748838507,-0.01671772534614321,0.05866271455427161,-0.03762467326286347,-0.0329612186225287, ,0.0182563961327593, ,0.06969166959676977, ,6.882200079005362e-05, ,0.15508019884730237,-0.19757067512128562,0.09871637237000001,3.0119863482117077,0.27258981703205365,-0.21117040921524424, ,0.051658650821159925,0.03845094876761376,0.01756208546857773,0.04182204011942555,0.09127490687342836,-0.0064992148444390704, ,1.4590108394622803
0.013615490831188327,0.0204267720249321,-0.08880047591389828, ,0.014019403305613623,0.020224707212919798,-0.08917767753552959, ,0.0005884356707501863, ,0.0067745373990932625,8.739134005004111e-05,-0.01594678075287729,0.0023648161509403362,0.014600934703779087,0.0006184340340322485, ,0.017326332866430986, ,0.014791166904576067, ,6.931985081801861e-05, ,0.15567484927861766,-0.19710731114883215,0.09893674167000001,3.0119863482117077,0.27354627253041175,-0.21088851091929184, ,0.046862687189368285,0.03952392401435684,0.016506540435233162,0.027058611123178793,0.04940029121107206,0.056493253093548856, ,1.4678418636322021
0.013684835583566982,0.020422155604047768,-0.08895293025604527, ,0.014086425455531223,0.020222400462438984,-0.08931991533417374, ,0.000579529627743366, ,0.006815013023907304,-0.0006198537391260955,-0.014388267459060487,-0.03520651149756387,0.03435194626327593,0.014130047642411693, ,0.01593269787723955, ,0.04918896265675597, ,6.979733932429237e-05, ,0.15617682691544227,-0.19669028357362403,0.09909359276000002,3.0119863482117077,0.27381954552994264,-0.2100495231048574, ,0.0496063468679931,0.040798341168732065,0.01478998284122563,0.02104046467918766,0.019282016402789665,0.0876168950722466, ,1.477029800415039
0.013748393808956129,0.020417376887069023,-0.08908444686755863, ,0.01415328812699498,0.020220094842801163,-0.08946162876212584, ,0.0005874740805856517, ,0.006720105216522436,-0.0006098080058359939,-0.013522436031498117,-0.008132368827794712,0.002679808873374181,0.014233491299800598, ,0.01511250992228201, ,0.008562496493855161, ,7.0281302783144e-05, ,0.15664019088789574,-0.1963041469299128,0.09922970321,3.012405728098677,0.27422945502923896,-0.20956698941454105, ,0.0505039603823687,0.04081588884235302,0.013997198172231988,0.009457073434517177,0.04181699995091936,0.05213083103609547, ,1.4857819080352783
0.013808019912097675,0.02041495946096748,-0.08919788524055515, ,0.014219991418855068,0.020217790442581717,-0.08960281885006602, ,0.0006103829718321627, ,0.007232400582754775,-0.00023575939800474146,-0.013795283878797637,0.039536045998162433,-0.02282014689846126,-0.05143387173082807, ,0.015577967068260003, ,0.0456492884720097, ,7.079496543634148e-05, ,0.15708810939460074,-0.1959566239505727,0.09934896189,3.0130347979291305,0.27491263752806616,-0.20947064901189866, ,0.05438220146617236,0.040658501096174283,0.014493914030937218,0.06500526446479556,0.07361614542042651,0.0109213187608789, ,1.495905876159668
0.013896005264013061,0.02041000818028106,-0.08937697883864149, ,0.014286535430379197,0.020215487350215017,-0.08974348662760076, ,0.0005698070932687317, ,0.007559112839121276,-0.000298671825302391,-0.015878160824252537,-0.020922178560742383,0.026786455106402946,-0.019347540563504115, ,0.017588217161913413, ,0.033988979443928, ,7.123934874102887e-05, ,0.1577368189560356,-0.19547781451237078,0.09953433136,3.013244487872615,0.27518591052759706,-0.2086316611974642, ,0.05388809855676932,0.04118790866253071,0.01643840198142415,0.051857572193811055,0.027078431285876236,0.07606303600354054, ,1.505208969116211
0.013896005264013061,0.02041000818028106,-0.08937697883864149, ,0.014352920261251715,0.020213185653994364,-0.08988363312326275, ,0.0007100767463313833, ,0.007559112839121276,-0.000298671825302391,-0.015878160824252537,-0.020922178560742383,0.026786455106402946,-0.019347540563504115, ,0.017588217161913413, ,0.033988979443928, ,7.1894386262396e-05, ,0.15825424205860866,-0.1950762324029111,0.09969507132000001,3.013244487872615,0.2755958200268934,-0.20814912750714787, ,0.05053085280003769,0.04083345161724216,0.016354015934291585,0.0347944993726614,0.024264398653149003,0.048130487886270876, ,1.5152888298034668
0.013967672208860742,0.020408137920847114,-0.08953199217978042, ,0.014419146011573321,0.020210885442072203,-0.09002325936451272, ,0.0006957589968612737, ,0.00722539897805822,-0.00032405562711537977,-0.015850605627435118,-0.020556559793320345,0.001783956669915565,-0.015209608500007686, ,0.01742277535865247, ,0.020633798763396955, ,7.251947271233733e-05, ,0.15825424205860866,-0.1950762324029111,0.09969507132000001,3.013244487872615,0.2755958200268934,-0.20814912750714787, ,0.05053085280003769,0.04083345161724216,0.016354015934291585,0.0347944993726614,0.024264398653149003,0.048130487886270876, ,1.5240089893341064
0.014041313817310415,0.02040453478254348,-0.08969479609697495, ,0.014485212781860164,0.020208586802459967,-0.09016236637773938, ,0.0006738426144740864, ,0.006945037274236354,-0.0001337174205793077,-0.015331408057263105,0.041040479978299585,-0.049858132989858236,-0.02509412337599213, ,0.016831621909590613, ,0.06457672626443153, ,7.321502788968043e-05, ,0.1587793878940559,-0.1946283138962061,0.09986358902,3.013244487872615,0.27614236602595515,-0.20810472668109017, ,0.04909308926977277,0.04245948168164241,0.01597674174523571,0.0257527529109939,0.07749585053526982,-0.017519457501927644, ,1.531613826751709
0.014041313817310415,0.02040453478254348,-0.08969479609697495, ,0.014551120673043327,0.020206289823028096,-0.09030095518825906, ,0.0008164759262047576, ,0.006945037274236354,-0.0001337174205793077,-0.015331408057263105,0.041040479978299585,-0.049858132989858236,-0.02509412337599213, ,0.016831621909590613, ,0.06457672626443153, ,7.412068925923386e-05, ,0.15908057447615068,-0.1943734637113567,0.09996210706000001,3.013244487872615,0.27641563902548605,-0.20775581130749907, ,0.05002474515470257,0.04108092708158908,0.015802392380952386,0.022323457578763882,0.045384561687167604,0.046333315774438805, ,1.5392529964447021
0.014083983695370682,0.020402623517697067,-0.08979007550704496, ,0.014616869786468234,0.020203994591506295,-0.09043902682031806, ,0.0008628782320836493, ,0.007054963132173264,-0.0003095943119722916,-0.01524569828361455,-0.0017786761899999635,0.0009198109655741341,-0.00011878909611075003, ,0.01680177578678329, ,0.002002228149544994, ,7.508823633522472e-05, ,0.15908057447615068,-0.1943734637113567,0.09996210706000001,3.013244487872615,0.27641563902548605,-0.20775581130749907, ,0.05002474515470257,0.04108092708158908,0.015802392380952386,0.022323457578763882,0.045384561687167604,0.046333315774438805, ,1.5462849140167236
0.014083983695370682,0.020402623517697067,-0.08979007550704496, ,0.014682460223893868,0.020201701195483323,-0.09057658229709158, ,0.0010085320349628771, ,0.007054963132173264,-0.0003095943119722916,-0.01524569828361455,-0.0017786761899999635,0.0009198109655741341,-0.00011878909611075003, ,0.01680177578678329, ,0.002002228149544994, ,7.626608193816788e-05, ,0.15908057447615068,-0.1943734637113567,0.09996210706000001,3.013244487872615,0.27641563902548605,-0.20775581130749907, ,0.05002474515470257,0.04108092708158908,0.015802392380952386,0.022323457578763882,0.045384561687167604,0.046333315774438805, ,1.5528819561004639
0.0142712019851997,0.020388814176451064,-0.09016207184066537, ,0.014747892087492259,0.020199409722407788,-0.09071362264068507, ,0.0007532036815081916, ,0.007328146066164661,-0.00035874694756850463,-0.013538951521797696,0.06421589438650158,-0.07348846790346872,-0.0673485873224282, ,0.01539914388688613, ,0.097592190014098, ,7.705112001555364e-05, ,0.16043205272913996,-0.19331544930758793,0.10034840148000002,3.0147123174770067,0.2773720945238441,-0.20665712561014105, ,0.05504462967428699,0.04213896161566198,0.014298753608617595,0.0590791280836612,0.08985348111871587,-0.04634338253252218, ,1.5598948001861572
0.0142712019851997,0.020388814176451064,-0.09016207184066537, ,0.01481316547984788,0.02019712025958679,-0.09085014887213447, ,0.0008966164110305835, ,0.007328146066164661,-0.00035874694756850463,-0.013538951521797696,0.06421589438650158,-0.07348846790346872,-0.0673485873224282, ,0.01539914388688613, ,0.097592190014098, ,7.804286822864444e-05, ,0.16043205272913996,-0.19331544930758793,0.10034840148000002,3.0147123174770067,0.2773720945238441,-0.20665712561014105, ,0.05504462967428699,0.04213896161566198,0.014298753608617595,0.0590791280836612,0.08985348111871587,-0.04634338253252218, ,1.5665028095245361
0.014357015378911243,0.02038413533954978,-0.09033912502767438, ,0.01487828050395688,0.020194832894187553,-0.09098616201140672, ,0.0008521793266246255, ,0.00859607325153082,-5.144191333358514e-05,-0.01951243195245526,-0.006761525768902596,-0.05664551255615648,0.004902161237731691, ,0.021322057178314858, ,0.05704760726768341, ,7.895985743033389e-05, ,0.16104987135907792,-0.1928289171365118,0.10053247466000001,3.014922007420491,0.2779186405229059,-0.20677608226436447, ,0.05919958924421134,0.04647254728622467,0.020214227817258887,-0.00575583016479542,0.04071953949214476,-0.0015749352939340225, ,1.5731418132781982
0.014444924610396013,0.020389376054799443,-0.09055855195787074, ,0.014943237263226453,0.020192547713236458,-0.0911216630774007, ,0.0007772715284581258, ,0.008893007748215356,0.0007683216455376882,-0.02244034657572405,-0.03957756482583998,0.029911508688221497,0.03525776256652242, ,0.024150467063794652, ,0.0496092360260017, ,7.97580730228998e-05, ,0.16162135359177054,-0.19238872136268098,0.10075932541000002,3.0147123174770067,0.2781919135224367,-0.20610045193021115, ,0.056519917545247635,0.041804820069810913,0.023219841865889216,0.002078618201514003,0.02008047991128652,0.0945322414681535, ,1.5805158615112305
0.014534183464944183,0.020399367081152114,-0.09077933099915193, ,0.015008035861474443,0.020190264803619386,-0.09125665308794713, ,0.0007043409917210938, ,0.008920874414827012,0.0010513377107861065,-0.02258270420584098,-0.035862390911027574,0.04056119400201516,0.017686363576446103, ,0.024303617849113415, ,0.0541416260141645, ,8.044199474738861e-05, ,0.16218511309158892,-0.19199486198609553,0.10098876874000001,3.0151316973639757,0.2784651865219676,-0.20509810663549555, ,0.05569069340285844,0.03890813512032422,0.023424722823529417,0.023373030935734174,0.01879754483204333,0.10122452140995994, ,1.5880169868469238
0.014534183464944183,0.020399367081152114,-0.09077933099915193, ,0.015072676402928335,0.02018798425208177,-0.09139113305980924, ,0.0008419970938840067, ,0.008920874414827012,0.0010513377107861065,-0.02258270420584098,-0.035862390911027574,0.04056119400201516,0.017686363576446103, ,0.024303617849113415, ,0.0541416260141645, ,8.132145464437521e-05, ,0.16218511309158892,-0.19199486198609553,0.10098876874000001,3.0151316973639757,0.2784651865219676,-0.20509810663549555, ,0.05569069340285844,0.03890813512032422,0.023424722823529417,0.023373030935734174,0.01879754483204333,0.10122452140995994, ,1.594695806503296
0.014625340490184342,0.02040984305650579,-0.09101077832157603, ,0.01513715899222498,0.020185706145229063,-0.09152510400868388, ,0.0007594250762562164, ,0.00954204582619554,0.001058547489064171,-0.024726631947347522,0.033639384361439824,0.011003214840271659,-0.055101210856553416, ,0.026525035132783648, ,0.03539307381092014, ,8.207285509965669e-05, ,0.16274114985853308,-0.19154694347939052,0.10122987868000001,3.0159704571379136,0.2791483690207948,-0.2045116937920098, ,0.05733954172717268,0.04889074784053105,0.02573313654281099,0.0849537758547295,0.07956043926095985,0.047954705082248035, ,1.601301908493042
0.014718015133197732,0.0204213467403209,-0.09125379386672694, ,0.015201483734409707,0.020183430569525925,-0.0916585669492012, ,0.0006739341518125649, ,0.00954204582619554,0.001058547489064171,-0.024726631947347522,0.033639384361439824,0.011003214840271659,-0.055101210856553416, ,0.026525035132783648, ,0.03539307381092014, ,8.269363243857337e-05, ,0.1633126320912257,-0.19109130223981127,0.10148265523000001,3.0159704571379136,0.279831551519622,-0.20392528094852405, ,0.060909461847542215,0.04474160375222573,0.02552694153846154,0.05127660526293475,0.05693275861981658,0.07907581675557646, ,1.607987880706787
0.014718015133197732,0.0204213467403209,-0.09125379386672694, ,0.015265650734935758,0.020181157611296775,-0.0917915228949257, ,0.0008042064895037369, ,0.009765185307621327,0.0011134779618849362,-0.024135373686968928,0.004230425368704697,0.02412839717258105,-0.011290577133457708, ,0.02605983384968943, ,0.02449628255833065, ,8.349728213826703e-05, ,0.1633126320912257,-0.19109130223981127,0.10148265523000001,3.0159704571379136,0.279831551519622,-0.20392528094852405, ,0.060909461847542215,0.04474160375222573,0.02552694153846154,0.05127660526293475,0.05693275861981658,0.07907581675557646, ,1.6147019863128662
0.014826031351453854,0.02042995732328172,-0.09150534482167416, ,0.015329660099663724,0.020178887356726374,-0.0919239728583569, ,0.0007013754181794456, ,0.009392289788473148,0.00043156448575871857,-0.02026124100174893,0.032986692752732846,-0.0023450895807309415,-0.00048633446541800854, ,0.022336500225124283, ,0.03306989460794391, ,8.414603547893559e-05, ,0.1640308462485286,-0.19057387913723822,0.1017458021,3.0159704571379136,0.28065137051821465,-0.20320524978831303, ,0.06442426446603583,0.04640437240023021,0.02129520256684492,0.031785715877375345,0.08574532723303284,0.0515058439270129, ,1.621673822402954
0.014826031351453854,0.02042995732328172,-0.09150534482167416, ,0.015393511934860792,0.020176619891858844,-0.0920559178509287, ,0.000830267864755912, ,0.009392289788473148,0.00043156448575871857,-0.02026124100174893,0.032986692752732846,-0.0023450895807309415,-0.00048633446541800854, ,0.022336500225124283, ,0.03306989460794391, ,8.509578554177353e-05, ,0.1640308462485286,-0.19057387913723822,0.1017458021,3.0159704571379136,0.28065137051821465,-0.20320524978831303, ,0.06442426446603583,0.04640437240023021,0.02129520256684492,0.031785715877375345,0.08574532723303284,0.0515058439270129, ,1.6263689994812012
0.014911849041402456,0.020429633476410754,-0.0916790748890635, ,0.015457206347200225,0.02017435530259846,-0.09218735888301138, ,0.0007879937534749556, ,0.00890015742275479,-0.0004289927437167596,-0.017339844472699133,0.026150992557557054,-0.007258496055627105,0.030851640843464378, ,0.019495308237147048, ,0.027139613283324492, ,8.597962271257669e-05, ,0.16464094214559233,-0.1901259606305332,0.10192857899,3.0161801470813985,0.28147118951680733,-0.2027302548485237, ,0.06495341653557206,0.049245947876736265,0.018225184805491994,0.0,0.08717562461687599,0.0531868692734164, ,1.6310818195343018
0.014911849041402456,0.020429633476410754,-0.0916790748890635, ,0.015520743443760572,0.02017209367470962,-0.09231829696391186, ,0.0009196107892237601, ,0.00890015742275479,-0.0004289927437167596,-0.017339844472699133,0.026150992557557054,-0.007258496055627105,0.030851640843464378, ,0.019495308237147048, ,0.027139613283324492, ,8.704617270373019e-05, ,0.16464094214559233,-0.1901259606305332,0.10192857899,3.0161801470813985,0.28147118951680733,-0.2027302548485237, ,0.06495341653557206,0.049245947876736265,0.018225184805491994,0.0,0.08717562461687599,0.0531868692734164, ,1.6354429721832275
0.01501199151234731,0.020423402550950404,-0.09186650652480971, ,0.015584123332025242,0.02016983509381641,-0.09244873310187286, ,0.0008547625760666278, ,0.010054643871388453,-0.0003552165308606005,-0.019169760938827045,0.018052134947481313,0.025218006801434607,-0.036634771089223195, ,0.021649521394618062, ,0.03101330125105648, ,8.801440916270482e-05, ,0.1653591563028952,-0.18958536932933748,0.10212561507000001,3.0170189068553364,0.28229100851539995,-0.20192854494817206, ,0.07135108387854945,0.051240249221636495,0.02016305255696203,0.07950615648336196,0.07339551316393172,0.08221528127931774, ,1.6397879123687744
0.01501199151234731,0.020423402550950404,-0.09186650652480971, ,0.01564734611988161,0.020167579645403447,-0.09257866830407502, ,0.0009880765335559198, ,0.010054643871388453,-0.0003552165308606005,-0.019169760938827045,0.018052134947481313,0.025218006801434607,-0.036634771089223195, ,0.021649521394618062, ,0.03101330125105648, ,8.916624989352825e-05, ,0.1653591563028952,-0.18958536932933748,0.10212561507000001,3.0170189068553364,0.28229100851539995,-0.20192854494817206, ,0.07135108387854945,0.051240249221636495,0.02016305255696203,0.07950615648336196,0.07339551316393172,0.08221528127931774, ,1.6442008018493652
0.015120925781508004,0.020422823816315487,-0.09209148528838478, ,0.01571041191562061,0.020165327414815443,-0.0927081035766367, ,0.0008910759858189581, ,0.010806934003605898,0.00018959725568379326,-0.023667644718344115,0.025738366624337546,0.010097610639233822,-0.02307938330569858, ,0.026018900364762117, ,0.027648107182299417, ,9.017437363614764e-05, ,0.1660464795287012,-0.18906794622676446,0.10234468808000001,3.0178576666292747,0.28297419101422716,-0.2011787746244052, ,0.07097751799436858,0.055430456517798356,0.024430692515337426,0.060832789595538485,0.08175926384078824,0.07230955462741256, ,1.6490559577941895
0.015120925781508004,0.020422823816315487,-0.09209148528838478, ,0.015773320827935967,0.020163078487257104,-0.0928370399246143, ,0.0010241770589965032, ,0.010806934003605898,0.00018959725568379326,-0.023667644718344115,0.025738366624337546,0.010097610639233822,-0.02307938330569858, ,0.026018900364762117, ,0.027648107182299417, ,9.136454050740885e-05, ,0.1660464795287012,-0.18906794622676446,0.10234468808000001,3.0178576666292747,0.28297419101422716,-0.2011787746244052, ,0.07097751799436858,0.055430456517798356,0.024430692515337426,0.060832789595538485,0.08175926384078824,0.07230955462741256, ,1.6542479991912842
0.015120925781508004,0.020422823816315487,-0.09209148528838478, ,0.015836072965923556,0.020160832947793843,-0.09296547835200328, ,0.001159283652010789, ,0.010806934003605898,0.00018959725568379326,-0.023667644718344115,0.025738366624337546,0.010097610639233822,-0.02307938330569858, ,0.026018900364762117, ,0.027648107182299417, ,9.27380349813835e-05, ,0.1660464795287012,-0.18906794622676446,0.10234468808000001,3.0178576666292747,0.28297419101422716,-0.2011787746244052, ,0.07097751799436858,0.055430456517798356,0.024430692515337426,0.060832789595538485,0.08175926384078824,0.07230955462741256, ,1.6588718891143799
0.015209153888507142,0.020426476973929075,-0.0922979996150917, ,0.015898668439080804,0.020158590881351197,-0.09309341986173837, ,0.00108622587099778, ,0.011532993896859934,0.0009375168550721756,-0.028023550605549317,0.004952403318623646,0.02865286466728793,0.011780561917286887, ,0.03031844776073367, ,0.029077408230527898, ,9.400135868549993e-05, ,0.16667202089151337,-0.18858913678856254,0.10257672399000001,3.0178576666292747,0.28365737351305437,-0.20042900430063834, ,0.07178286048295822,0.05501271974404103,0.029227177100917434,0.03512474411648189,0.07380380121396356,0.09611637439611984, ,1.6648719310760498
0.015358094512851254,0.02043912546794356,-0.09266484506441967, ,0.015961107357306076,0.020156352372715312,-0.09322086545569404, ,0.0008676080851832566, ,0.012078417014115925,0.0011848952262904673,-0.029872880974015466,0.007917174137095018,0.015198608465343414,0.02225052291479223, ,0.03224408708510548, ,0.01713638106740748, ,9.495185570341917e-05, ,0.1675987488364203,-0.18787864536413387,0.10295912954000001,3.0178576666292747,0.28461382901141247,-0.19924863986313981, ,0.07408036031106227,0.056152036425130634,0.031171842504892373,0.020557884529924113,0.07845285854328218,0.08596531451456466, ,1.6696269512176514
0.015358094512851254,0.02043912546794356,-0.09266484506441967, ,0.016023389830897992,0.020154117506532673,-0.09334781613468501, ,0.0009951366142906632, ,0.012078417014115925,0.0011848952262904673,-0.029872880974015466,0.007917174137095018,0.015198608465343414,0.02225052291479223, ,0.03224408708510548, ,0.01713638106740748, ,9.607491414537709e-05, ,0.1675987488364203,-0.18787864536413387,0.10295912954000001,3.0178576666292747,0.28461382901141247,-0.19924863986313981, ,0.07408036031106227,0.056152036425130634,0.031171842504892373,0.020557884529924113,0.07845285854328218,0.08596531451456466, ,1.674055814743042
0.015358094512851254,0.02043912546794356,-0.09266484506441967, ,0.016085515970554767,0.02015188636731034,-0.0934742728984671, ,0.001125531739486186, ,0.012078417014115925,0.0011848952262904673,-0.029872880974015466,0.007917174137095018,0.015198608465343414,0.02225052291479223, ,0.03224408708510548, ,0.01713638106740748, ,9.737308092033596e-05, ,0.1675987488364203,-0.18787864536413387,0.10295912954000001,3.0178576666292747,0.28461382901141247,-0.19924863986313981, ,0.07408036031106227,0.056152036425130634,0.031171842504892373,0.020557884529924113,0.07845285854328218,0.08596531451456466, ,1.6785178184509277
0.015481276349111046,0.020449308416717722,-0.09295874590964086, ,0.016147485887373546,0.02014965903941646,-0.09360023674573753, ,0.0009721807398755518, ,0.01304499873796319,0.001127836053755658,-0.030930055039236154,0.019494030136345285,-0.019303763520154275,0.03259996933559033, ,0.033587383211077786, ,0.02743399696310762, ,9.845135356670888e-05, ,0.16837102212384275,-0.18730716313144125,0.10326635027000002,3.018067356572759,0.2854336480100051,-0.19844692996278818, ,0.08251907961606154,0.05987188741859355,0.032375633170731714,0.0,0.09222414889294399,0.05893854823957119, ,1.6829838752746582
0.015481276349111046,0.020449308416717722,-0.09295874590964086, ,0.01620929969284996,0.02014743560707918,-0.09372570867413435, ,0.00109971681097788, ,0.01304499873796319,0.001127836053755658,-0.030930055039236154,0.019494030136345285,-0.019303763520154275,0.03259996933559033, ,0.033587383211077786, ,0.02743399696310762, ,9.970005910452973e-05, ,0.16837102212384275,-0.18730716313144125,0.10326635027000002,3.018067356572759,0.2854336480100051,-0.19844692996278818, ,0.08251907961606154,0.05987188741859355,0.032375633170731714,0.0,0.09222414889294399,0.05893854823957119, ,1.6873948574066162
0.015624712124008532,0.020456707926381552,-0.09328740844805467, ,0.016270957498877164,0.020145216154388027,-0.09385068968023952, ,0.0009121107142723699, ,0.013450330509624913,0.0002105216796716592,-0.02960278986232751,0.014417784938506824,0.027270469682734447,-0.10938155040206482, ,0.03251585579111949, ,0.030846852447402907, ,0.00010068310820254809, ,0.1691973545413848,-0.18668162176862907,0.10358783019000001,3.0193254962336664,0.2862534670085977,-0.19780857754271766, ,0.08397959429953167,0.06473188373701963,0.03129432518664047,0.15282363509676464,0.07118549003790359,0.08370849325319463, ,1.6922528743743896
0.015624712124008532,0.020456707926381552,-0.09328740844805467, ,0.01633245941774552,0.02014300076529298,-0.09397518075957659, ,0.0010355429335408986, ,0.013450330509624913,0.0002105216796716592,-0.02960278986232751,0.014417784938506824,0.027270469682734447,-0.10938155040206482, ,0.03251585579111949, ,0.030846852447402907, ,0.00010183053147233598, ,0.1691973545413848,-0.18668162176862907,0.10358783019000001,3.0193254962336664,0.2862534670085977,-0.19780857754271766, ,0.08397959429953167,0.06473188373701963,0.03129432518664047,0.15282363509676464,0.07118549003790359,0.08370849325319463, ,1.6967837810516357
0.01575423955408199,0.020455484839224637,-0.09355731512843818, ,0.016393805562141685,0.020140789523605117,-0.09409918290661307, ,0.0008953761831557023, ,0.01327860839386248,-0.0003379996452124081,-0.02633924245729164,0.0022784796034714273,0.00181478795852957,-0.020592345391906228, ,0.02949900638770251, ,0.002910712565762257, ,0.0001027793862325706, ,0.1701163597534175,-0.18600974400857154,0.10389245834000001,3.01995456606412,0.2869366495074249,-0.19689544973866968, ,0.09012055228724672,0.06381771456521236,0.027654186666666667,0.060428992508407005,0.07261339282672506,0.08162963892032074, ,1.7022778987884521
0.01575423955408199,0.020455484839224637,-0.09355731512843818, ,0.016454996045148194,0.020138582512996373,-0.0942226971147602, ,0.001016966042629811, ,0.01327860839386248,-0.0003379996452124081,-0.02633924245729164,0.0022784796034714273,0.00181478795852957,-0.020592345391906228, ,0.02949900638770251, ,0.002910712565762257, ,0.00010388938249818573, ,0.1701163597534175,-0.18600974400857154,0.10389245834000001,3.01995456606412,0.2869366495074249,-0.19689544973866968, ,0.09012055228724672,0.06381771456521236,0.027654186666666667,0.060428992508407005,0.07261339282672506,0.08162963892032074, ,1.707495927810669
0.01588501075674831,0.020449006407449736,-0.09381157375960772, ,0.016516030980242617,0.02013637981699994,-0.09434572437637347, ,0.0008838771345081261, ,0.012894279898095204,-0.0008904417563553903,-0.023809769532242574,-0.0017159728081331796,-0.015316593537014242,0.001954322345187425, ,0.02709170474131132, ,0.015412168836305747, ,0.00010481175408005717, ,0.171027642232576,-0.18535331171426245,0.10415949408000001,3.01995456606412,0.28775646850601755,-0.1960937398383181, ,0.0908974536000678,0.06398984595985892,0.025045301132075475,0.031444150599809435,0.07123212294120083,0.06939674665189291, ,1.7124497890472412
0.01588501075674831,0.020449006407449736,-0.09381157375960772, ,0.016576910481297086,0.020134181519009777,-0.0944682656827529, ,0.0010045318417730847, ,0.012894279898095204,-0.0008904417563553903,-0.023809769532242574,-0.0017159728081331796,-0.015316593537014242,0.001954322345187425, ,0.02709170474131132, ,0.015412168836305747, ,0.00010589326201694556, ,0.171027642232576,-0.18535331171426245,0.10415949408000001,3.01995456606412,0.28775646850601755,-0.1960937398383181, ,0.0908974536000678,0.06398984595985892,0.025045301132075475,0.031444150599809435,0.07123212294120083,0.06939674665189291, ,1.7169508934020996
0.01588501075674831,0.020449006407449736,-0.09381157375960772, ,0.016637634662577505,0.020131987702281258,-0.09459032202414468, ,0.0011284469250131407, ,0.012894279898095204,-0.0008904417563553903,-0.023809769532242574,-0.0017159728081331796,-0.015316593537014242,0.001954322345187425, ,0.02709170474131132, ,0.015412168836305747, ,0.000107282601232973, ,0.171027642232576,-0.18535331171426245,0.10415949408000001,3.01995456606412,0.28775646850601755,-0.1960937398383181, ,0.0908974536000678,0.06398984595985892,0.025045301132075475,0.031444150599809435,0.07123212294120083,0.06939674665189291, ,1.7192068099975586
0.01601109265372992,0.020436930152473484,-0.09404284442178959, ,0.01669820363874302,0.020129798449931038,-0.09471189438974009, ,0.0010070150187791952, ,0.013286115514633733,-0.0014969904258468163,-0.023924714836560335,-0.01560822597599805,-0.028986497237342763,0.005325138850900352, ,0.02740718566022419, ,0.03292151123038372, ,0.00010850340505596653, ,0.17192347924598603,-0.18471232488570183,0.10440190031,3.01995456606412,0.2883030145050794,-0.1954775878312765, ,0.09442481747111521,0.06931843795359444,0.025084742551181104,0.021626314258842053,0.06242761113464233,0.0611618096808156, ,1.7215759754180908
0.01601109265372992,0.020436930152473484,-0.09404284442178959, ,0.016758617524845337,0.02012761384493672,-0.0948329837676771, ,0.0011308360610467994, ,0.013286115514633733,-0.0014969904258468163,-0.023924714836560335,-0.01560822597599805,-0.028986497237342763,0.005325138850900352, ,0.02740718566022419, ,0.03292151123038372, ,0.00010988867965758012, ,0.17192347924598603,-0.18471232488570183,0.10440190031,3.01995456606412,0.2883030145050794,-0.1954775878312765, ,0.09442481747111521,0.06931843795359444,0.025084742551181104,0.021626314258842053,0.06242761113464233,0.0611618096808156, ,1.7238399982452393
0.01601109265372992,0.020436930152473484,-0.09404284442178959, ,0.016818876436328147,0.020125433970137746,-0.09495359114504048, ,0.0012565843007736018, ,0.013286115514633733,-0.0014969904258468163,-0.023924714836560335,-0.01560822597599805,-0.028986497237342763,0.005325138850900352, ,0.02740718566022419, ,0.03292151123038372, ,0.0001114403652071282, ,0.17192347924598603,-0.18471232488570183,0.10440190031,3.01995456606412,0.2883030145050794,-0.1954775878312765, ,0.09442481747111521,0.06931843795359444,0.025084742551181104,0.021626314258842053,0.06242761113464233,0.0611618096808156, ,1.7261159420013428
0.01601109265372992,0.020436930152473484,-0.09404284442178959, ,0.016878980489026304,0.020123258908234663,-0.09507371750786191, ,0.0013835889070479136, ,0.013286115514633733,-0.0014969904258468163,-0.023924714836560335,-0.01560822597599805,-0.028986497237342763,0.005325138850900352, ,0.02740718566022419, ,0.03292151123038372, ,0.0001131594848582644, ,0.17192347924598603,-0.18471232488570183,0.10440190031,3.01995456606412,0.2883030145050794,-0.1954775878312765, ,0.09442481747111521,0.06931843795359444,0.025084742551181104,0.021626314258842053,0.06242761113464233,0.0611618096808156, ,1.7283799648284912
0.016151977984435656,0.020422569902911598,-0.09430791324517278, ,0.016938929799165288,0.020121088741789743,-0.09519336384112177, ,0.0012223775223244545, ,0.014444816241151296,-0.0011493565961055736,-0.029281983977097255,-0.02995363141655992,-0.030208949256061424,0.016919997497879473, ,0.0326712155032625, ,0.04254149882471798, ,0.00011465640528669381, ,0.17289654358813833,-0.18397094252977628,0.10467930637000002,3.0203739459510888,0.28898619700390654,-0.1948911749877907, ,0.09643998125860852,0.07513613741763323,0.030514964597701155,0.009313030078378052,0.056540193604577085,0.06544218125963902, ,1.7306628227233887
0.016151977984435656,0.020422569902911598,-0.09430791324517278, ,0.016998724483360667,0.02011892355322664,-0.09531253112874785, ,0.0013484946537222996, ,0.014444816241151296,-0.0011493565961055736,-0.029281983977097255,-0.02995363141655992,-0.030208949256061424,0.016919997497879473, ,0.0326712155032625, ,0.04254149882471798, ,0.0006393251183049067, ,0.17289654358813833,-0.18397094252977628,0.10467930637000002,3.0203739459510888,0.28898619700390654,-0.1948911749877907, ,0.09643998125860852,0.07513613741763323,0.030514964597701155,0.009313030078378052,0.056540193604577085,0.06544218125963902, ,1.7329399585723877
0.016151977984435656,0.020422569902911598,-0.09430791324517278, ,0.01705836465861726,0.020116763424830642,-0.09543122035361737, ,0.001475423080018886, ,0.014444816241151296,-0.0011493565961055736,-0.029281983977097255,-0.02995363141655992,-0.030208949256061424,0.016919997497879473, ,0.0326712155032625, ,0.04254149882471798, ,0.0006454728974351566, ,0.17289654358813833,-0.18397094252977628,0.10467930637000002,3.0203739459510888,0.28898619700390654,-0.1948911749877907, ,0.09643998125860852,0.07513613741763323,0.030514964597701155,0.009313030078378052,0.056540193604577085,0.06544218125963902, ,1.7351748943328857
0.016151977984435656,0.020422569902911598,-0.09430791324517278, ,0.01711785044232867,0.020114608438749133,-0.0955494324975566, ,0.0016028474420122017, ,0.014444816241151296,-0.0011493565961055736,-0.029281983977097255,-0.02995363141655992,-0.030208949256061424,0.016919997497879473, ,0.0326712155032625, ,0.04254149882471798, ,0.0006524610327970328, ,0.17289654358813833,-0.18397094252977628,0.10467930637000002,3.0203739459510888,0.28898619700390654,-0.1948911749877907, ,0.09643998125860852,0.07513613741763323,0.030514964597701155,0.009313030078378052,0.056540193604577085,0.06544218125963902, ,1.737405776977539
0.016151977984435656,0.020422569902911598,-0.09430791324517278, ,0.017177181952276428,0.020112458676990547,-0.09566716854134137, ,0.0017305453210711037, ,0.014444816241151296,-0.0011493565961055736,-0.029281983977097255,-0.02995363141655992,-0.030208949256061424,-0.13267844845678467, ,0.0326712155032625, ,0.04254149882471798, ,0.0006602732377845261, ,0.17289654358813833,-0.18397094252977628,0.10467930637000002,3.0203739459510888,0.28898619700390654,-0.1948911749877907, ,0.09643998125860852,0.07513613741763323,0.030514964597701155,0.009313030078378052,0.056540193604577085,0.06544218125963902, ,1.7400639057159424
0.016319411546881102,0.02041856312792346,-0.09466583347858014, ,0.017236359306629645,0.020110314221426128,-0.09578442946469866, ,0.0014788737480343405, ,0.017683313040890845,0.0005133571161216599,-0.04028189473763563,-0.011651478709922808,0.03797389182542759,-0.13267844845678467, ,0.04399538770467616, ,0.039719860989527296, ,0.0006661624500884814, ,0.17393911252615862,-0.18316777831085693,0.10505263789000001,3.0218417755554805,0.28953274300296833,-0.19386662928004633, ,0.10439707542186004,0.07987958043642322,0.04202852643799473,0.18529577710536482,0.05904033820397379,0.1150804251267023, ,1.7428209781646729
0.016319411546881102,0.02041856312792346,-0.09466583347858014, ,0.017295382623944026,0.020108175153788172,-0.09590121624630524, ,0.0016046902568855148, ,0.017683313040890845,0.0005133571161216599,-0.04028189473763563,-0.011651478709922808,0.03797389182542759,-0.13267844845678467, ,0.04399538770467616, ,0.039719860989527296, ,0.0006728662201370318, ,0.17393911252615862,-0.18316777831085693,0.10505263789000001,3.0218417755554805,0.28953274300296833,-0.19386662928004633, ,0.10439707542186004,0.07987958043642322,0.04202852643799473,0.18529577710536482,0.05904033820397379,0.1150804251267023, ,1.7453258037567139
0.016319411546881102,0.02041856312792346,-0.09466583347858014, ,0.017354252023161494,0.020106041555671365,-0.0960175298637897, ,0.0017307939398610505, ,0.017683313040890845,0.0005133571161216599,-0.04028189473763563,-0.011651478709922808,0.03797389182542759,-0.13267844845678467, ,0.04399538770467616, ,0.039719860989527296, ,0.0006803692536102517, ,0.17393911252615862,-0.18316777831085693,0.10505263789000001,3.0218417755554805,0.28953274300296833,-0.19386662928004633, ,0.10439707542186004,0.07987958043642322,0.04202852643799473,0.18529577710536482,0.05904033820397379,0.1150804251267023, ,1.7477247714996338
0.016319411546881102,0.02041856312792346,-0.09466583347858014, ,0.01741296762360942,0.02010391350853239,-0.0961333712937325, ,0.001857023563349307, ,0.017683313040890845,0.0005133571161216599,-0.04028189473763563,-0.011651478709922808,0.03797389182542759,-0.13267844845678467, ,0.04399538770467616, ,0.039719860989527296, ,0.0006886555515661606, ,0.17393911252615862,-0.18316777831085693,0.10505263789000001,3.0218417755554805,0.28953274300296833,-0.19386662928004633, ,0.10439707542186004,0.07987958043642322,0.04202852643799473,0.18529577710536482,0.05904033820397379,0.1150804251267023, ,1.7501118183135986
0.016450892435362893,0.02042855822711928,-0.09497670935268056, ,0.017471529545000038,0.020101791093689998,-0.09624874151166596, ,0.0016632927230500092, ,0.019198912509594226,0.0018947198678512696,-0.047002071085611774,0.008916960391772838,0.014544307596108506,-0.013517921527885831, ,0.05080731139575865, ,0.017053435739933055, ,0.0006954711961219916, ,0.17470366308070687,-0.1825962960781643,0.10537800668000001,3.022890225272903,0.2902159255017955,-0.1930351802161388, ,0.11060249598889368,0.08166690323448432,0.049162998518518526,0.06991835102415112,0.10173288415408019,0.11384827121695111, ,1.7525827884674072
0.016450892435362893,0.02042855822711928,-0.09497670935268056, ,0.01752993790742972,0.020099674392325188,-0.09636364149207563, ,0.0017877596222265965, ,0.019198912509594226,0.0018947198678512696,-0.047002071085611774,0.008916960391772838,0.014544307596108506,-0.013517921527885831, ,0.05080731139575865, ,0.017053435739933055, ,0.0007030565324143847, ,0.17470366308070687,-0.1825962960781643,0.10537800668000001,3.022890225272903,0.2902159255017955,-0.1930351802161388, ,0.11060249598889368,0.08166690323448432,0.049162998518518526,0.06991835102415112,0.10173288415408019,0.11384827121695111, ,1.7548727989196777
0.016450892435362893,0.02042855822711928,-0.09497670935268056, ,0.017588192831378423,0.020097563485481165,-0.09647807220839966, ,0.0019123546047483382, ,0.019198912509594226,0.0018947198678512696,-0.047002071085611774,0.008916960391772838,0.014544307596108506,-0.013517921527885831, ,0.05080731139575865, ,0.017053435739933055, ,0.0007113965191201361, ,0.17470366308070687,-0.1825962960781643,0.10537800668000001,3.022890225272903,0.2902159255017955,-0.1930351802161388, ,0.11060249598889368,0.08166690323448432,0.049162998518518526,0.06991835102415112,0.10173288415408019,0.11384827121695111, ,1.7571039199829102
0.016450892435362893,0.02042855822711928,-0.09497670935268056, ,0.01764629443770892,0.020095458454063596,-0.09659203463303076, ,0.0020369627309700833, ,0.019198912509594226,0.0018947198678512696,-0.047002071085611774,0.008916960391772838,0.014544307596108506,-0.013517921527885831, ,0.05080731139575865, ,0.017053435739933055, ,0.0007204757397492453, ,0.17470366308070687,-0.1825962960781643,0.10537800668000001,3.022890225272903,0.2902159255017955,-0.1930351802161388, ,0.11060249598889368,0.08166690323448432,0.049162998518518526,0.06991835102415112,0.10173288415408019,0.11384827121695111, ,1.7593469619750977
0.01669633126804701,0.02046096574348318,-0.09559150206143494, ,0.017704242847666342,0.020093359378840523,-0.09670552973731544, ,0.0015466343634758192, ,0.020483938517010712,0.0029992241208900428,-0.05162816245574296,0.03743063431167254,0.006464508915342519,0.0333482537333014, ,0.05562422350965981, ,0.037979934927557864, ,0.0007260958664412629, ,0.17610920046381573,-0.18160006353738933,0.10602226281,3.022890225272903,0.29171892699921537,-0.19156537873216092, ,0.11530612583046268,0.08145660219611225,0.054179631020408174,0.02886144440565191,0.1380227470100753,0.1137401751564162, ,1.7615687847137451
0.01669633126804701,0.02046096574348318,-0.09559150206143494, ,0.017762038182877315,0.020091266340442074,-0.09681855849155484, ,0.0016667562388137846, ,0.020483938517010712,0.0029992241208900428,-0.05162816245574296,0.03743063431167254,0.006464508915342519,0.0333482537333014, ,0.05562422350965981, ,0.037979934927557864, ,0.0007324516797681042, ,0.17610920046381573,-0.18160006353738933,0.10602226281,3.022890225272903,0.29171892699921537,-0.19156537873216092, ,0.11530612583046268,0.08145660219611225,0.054179631020408174,0.02886144440565191,0.1380227470100753,0.1137401751564162, ,1.7638328075408936
0.01669633126804701,0.02046096574348318,-0.09559150206143494, ,0.01781968056534952,0.020089179419361388,-0.09693112186500547, ,0.0017873779490282364, ,0.020483938517010712,0.0029992241208900428,-0.05162816245574296,0.03743063431167254,0.006464508915342519,0.0333482537333014, ,0.05562422350965981, ,0.037979934927557864, ,0.0007395317218436755, ,0.17610920046381573,-0.18160006353738933,0.10602226281,3.022890225272903,0.29171892699921537,-0.19156537873216092, ,0.11530612583046268,0.08145660219611225,0.054179631020408174,0.02886144440565191,0.1380227470100753,0.1137401751564162, ,1.7660529613494873
0.01669633126804701,0.02046096574348318,-0.09559150206143494, ,0.0178771701174709,0.020087098695954136,-0.09704322082587974, ,0.001908309285356534, ,0.020483938517010712,0.0029992241208900428,-0.05162816245574296,0.03743063431167254,0.006464508915342519,0.0333482537333014, ,0.05562422350965981, ,0.037979934927557864, ,0.0007473235722670945, ,0.17610920046381573,-0.18160006353738933,0.10602226281,3.022890225272903,0.29171892699921537,-0.19156537873216092, ,0.11530612583046268,0.08145660219611225,0.054179631020408174,0.02886144440565191,0.1380227470100753,0.1137401751564162, ,1.7683320045471191
0.016911202407861085,0.02048643121946472,-0.09613385101118513, ,0.017934506962009,0.02008502425043855,-0.09715485634134594, ,0.0015002438633566937, ,0.0228232627821422,0.0025134705370581795,-0.05818609402001611,-0.002150761801630688,0.04987520956059362,0.06630918557041297, ,0.06255270094463972, ,0.04991488105590322, ,0.0007523097993604031, ,0.1773062240593205,-0.18069650379110508,0.10659003783000001,3.0233096051598722,0.2930852919968697,-0.19022919556490828, ,0.12585801267701696,0.096734904748696,0.06079699053435115,0.018555396497016156,0.12736324877748786,0.17844328447346958, ,1.770521879196167
0.016911202407861085,0.02048643121946472,-0.09613385101118513, ,0.017991691222110535,0.020082956162895398,-0.09726602937752898, ,0.001616191836450377, ,0.0228232627821422,0.0025134705370581795,-0.05818609402001611,-0.002150761801630688,0.04987520956059362,0.06630918557041297, ,0.06255270094463972, ,0.04991488105590322, ,0.0007579932338149424, ,0.1773062240593205,-0.18069650379110508,0.10659003783000001,3.0233096051598722,0.2930852919968697,-0.19022919556490828, ,0.12585801267701696,0.096734904748696,0.06079699053435115,0.018555396497016156,0.12736324877748786,0.17844328447346958, ,1.7727408409118652
0.016911202407861085,0.02048643121946472,-0.09613385101118513, ,0.018048723021300457,0.020080894513268832,-0.09737674089951144, ,0.0017329709866513888, ,0.0228232627821422,0.0025134705370581795,-0.05818609402001611,-0.002150761801630688,0.04987520956059362,0.06630918557041297, ,0.06255270094463972, ,0.04991488105590322, ,0.0007643656374282525, ,0.1773062240593205,-0.18069650379110508,0.10659003783000001,3.0233096051598722,0.2930852919968697,-0.19022919556490828, ,0.12585801267701696,0.096734904748696,0.06079699053435115,0.018555396497016156,0.12736324877748786,0.17844328447346958, ,1.7749018669128418
0.016911202407861085,0.02048643121946472,-0.09613385101118513, ,0.018105602483481528,0.02007883938136529,-0.0974869918713332, ,0.0018503277640811746, ,0.0228232627821422,0.0025134705370581795,-0.05818609402001611,-0.002150761801630688,0.04987520956059362,0.06630918557041297, ,0.06255270094463972, ,0.04991488105590322, ,0.0007714173395493753, ,0.1773062240593205,-0.18069650379110508,0.10659003783000001,3.0233096051598722,0.2930852919968697,-0.19022919556490828, ,0.12585801267701696,0.096734904748696,0.06079699053435115,0.018555396497016156,0.12736324877748786,0.17844328447346958, ,1.777141809463501
0.016911202407861085,0.02048643121946472,-0.09613385101118513, ,0.018162329732933545,0.020076790846854545,-0.09759678325599233, ,0.0019680689955669265, ,0.0228232627821422,0.0025134705370581795,-0.05818609402001611,-0.002150761801630688,0.04987520956059362,0.06630918557041297, ,0.06255270094463972, ,0.04991488105590322, ,0.0007791376728140047, ,0.1773062240593205,-0.18069650379110508,0.10659003783000001,3.0233096051598722,0.2930852919968697,-0.19022919556490828, ,0.12585801267701696,0.096734904748696,0.06079699053435115,0.018555396497016156,0.12736324877748786,0.17844328447346958, ,1.7793967723846436
0.017164650702636144,0.02051976643599915,-0.09676961996829328, ,0.01821890489431272,0.02007474898926934,-0.09770611601544545, ,0.0014786876867321165, ,0.02454176116500395,0.003187135606514891,-0.05889769945718622,0.047589100512573076,0.0628505489851771,-0.09499172078190865, ,0.06388579557149965, ,0.07883023054413496, ,0.0007836219677750183, ,0.17867314777805826,-0.1797002712503301,0.10725633089000002,3.0249871247077484,0.2944516569945242,-0.18832126121667167, ,0.13576100366018712,0.09249214576849003,0.061979811361867705,0.18484658120092215,0.14222440861810656,0.16901906777509967, ,1.7816698551177979
0.017164650702636144,0.02051976643599915,-0.09676961996829328, ,0.018275328092651054,0.020072713888005408,-0.0978149911106087, ,0.001589421615098992, ,0.02454176116500395,0.003187135606514891,-0.05889769945718622,0.047589100512573076,0.0628505489851771,-0.09499172078190865, ,0.06388579557149965, ,0.07883023054413496, ,0.0007887544496051073, ,0.17867314777805826,-0.1797002712503301,0.10725633089000002,3.0249871247077484,0.2944516569945242,-0.18832126121667167, ,0.13576100366018712,0.09249214576849003,0.061979811361867705,0.18484658120092215,0.14222440861810656,0.16901906777509967, ,1.7839939594268799
0.017164650702636144,0.02051976643599915,-0.09676961996829328, ,0.018331599453355774,0.020070685622321595,-0.09792340950135733, ,0.0017013739302773993, ,0.02454176116500395,0.003187135606514891,-0.05889769945718622,0.047589100512573076,0.0628505489851771,-0.09499172078190865, ,0.06388579557149965, ,0.07883023054413496, ,0.0007945305222675902, ,0.17867314777805826,-0.1797002712503301,0.10725633089000002,3.0249871247077484,0.2944516569945242,-0.18832126121667167, ,0.13576100366018712,0.09249214576849003,0.061979811361867705,0.18484658120092215,0.14222440861810656,0.16901906777509967, ,1.7864007949829102
0.017164650702636144,0.02051976643599915,-0.09676961996829328, ,0.018387719102208478,0.020068664271340186,-0.09803137214652703, ,0.0018142238098619614, ,0.02454176116500395,0.003187135606514891,-0.05889769945718622,0.047589100512573076,0.0628505489851771,-0.09499172078190865, ,0.06388579557149965, ,0.07883023054413496, ,0.0008009436875983724, ,0.17867314777805826,-0.1797002712503301,0.10725633089000002,3.0249871247077484,0.2944516569945242,-0.18832126121667167, ,0.13576100366018712,0.09249214576849003,0.061979811361867705,0.18484658120092215,0.14222440861810656,0.16901906777509967, ,1.7887918949127197
0.017396966457216667,0.020542346112214553,-0.09730589497234203, ,0.01844368716536469,0.020066649914046632,-0.09813888000391417, ,0.0014197799747286749, ,0.0242331558349423,0.0014930967806657605,-0.05374968732017075,0.03552182912615544,0.021036498014424518,0.027872696473661404, ,0.0589788442302251, ,0.04127815369009722, ,0.0008048114143929367, ,0.1800091805652991,-0.1787812660382974,0.10782151333000001,3.026035574425171,0.295954658491944,-0.1867697809925532, ,0.14400142876854444,0.09989151742996924,0.05668616199288257,0.054029910919721695,0.15805463002162973,0.15569104775842432, ,1.7912688255310059
0.017396966457216667,0.020542346112214553,-0.09730589497234203, ,0.01849950376935309,0.020064642629289888,-0.09824593403027573, ,0.001525602363885244, ,0.0242331558349423,0.0014930967806657605,-0.05374968732017075,0.03552182912615544,0.021036498014424518,0.027872696473661404, ,0.0589788442302251, ,0.04127815369009722, ,0.0008092883768121436, ,0.1800091805652991,-0.1787812660382974,0.10782151333000001,3.026035574425171,0.295954658491944,-0.1867697809925532, ,0.14400142876854444,0.09989151742996924,0.05668616199288257,0.054029910919721695,0.15805463002162973,0.15569104775842432, ,1.7935099601745605
0.017396966457216667,0.020542346112214553,-0.09730589497234203, ,0.018555169041074866,0.020062642495782216,-0.09835253518133076, ,0.001633096602147602, ,0.0242331558349423,0.0014930967806657605,-0.05374968732017075,0.03552182912615544,0.021036498014424518,0.027872696473661404, ,0.0589788442302251, ,0.04127815369009722, ,0.0008143736127710045, ,0.1800091805652991,-0.1787812660382974,0.10782151333000001,3.026035574425171,0.295954658491944,-0.1867697809925532, ,0.14400142876854444,0.09989151742996924,0.05668616199288257,0.054029910919721695,0.15805463002162973,0.15569104775842432, ,1.7957828044891357
