NicholasDascanio/dvrk_moveit_final/test/execution/third_experiment_notsharpbends/thirdexp_500vel3.0/thirdexp_500vel3.0_20.csv
Current Position (x),Current Position (y),Current Position (z), ,Planned Position (x),Planned Position (y),Planned Position (z), ,Position Error,,Cartesian linear Velocity(x),Cartesian linear Velocity(y),Cartesian linear Velocity(z),Cartesian Angular Velocity(x),Cartesian Angular Velocity(y),Cartesian Angular Velocity(z), ,Total Linear Velocity, ,Total Angular Velocity, ,MSE, ,Joint 1 Position,Joint 2 Position,Joint 3 Position,Joint 4 Position,Joint 5 Position,Joint 6 Position, ,Joint 1 Velocity,Joint 2 Velocity,Joint 3 Velocity,Joint 4 Velocity,Joint 5 Velocity,Joint 6 Velocity, ,Time Stamp
0.009499290452381235,0.02016322493645133,-0.07885879584533788, ,0.00956053721544147,0.02004999541300873,-0.0789069421313437, ,0.00013744146325090096, ,-5.619761527482e-06,-9.30187183402826e-06,-3.0553279258126787e-06,0.01252074483252338,-0.05752570662658503,-0.027590961139253762, ,1.1289002080640517e-05, ,0.05887254006792207, ,1.1453455270908414e-05, ,0.1241120400216621,-0.22047630082623554,0.08871808760000001,2.9966789823373374,0.2587895305557442,-0.22368571432280931, ,-4.355622649248401e-05,0.00011263697666372876,0.0,-0.0010828162137337968,0.0,-0.06534012072042583, ,0.023030996322631836
0.009502813467941462,0.02016470223665714,-0.07888176904601377, ,0.00959798414278957,0.020069854211507684,-0.07899506559753279, ,0.00017575469783735276, ,0.00021237675626792184,0.0003087750697744828,-0.0014014256605883262,0.057178633095005336,-0.2569969129073185,-0.1288084616581721, ,0.001450668746638097, ,0.26328085636160425, ,1.4236189140375168e-05, ,0.12411976275453632,-0.22047630082623554,0.08874012453,2.996469292393853,0.25837962105644785,-0.2280888275398726, ,0.00044610315725033764,0.00010752723305806143,0.00144977154388067,0.0007805797476573335,0.0,-0.29252490900594186, ,0.045118093490600586
0.009519588340349036,0.020139464340800016,-0.07892429293556516, ,0.009635421448148187,0.02008952509225689,-0.0790830746505131, ,0.00020278774718723066, ,0.0006408392489595522,-0.0005313356058281541,-0.0015946134179557665,-0.09804440691677173,-0.017501604539618607,-0.01659232687244488, ,0.001798828624897988, ,0.09959423622435387, ,1.6124497133608886e-05, ,0.12418154461753012,-0.22047630082623554,0.08876734662,2.9970983622243064,0.2544171625632501,-0.23433244218898164, ,0.003878458424975372,0.00010061250540577903,0.001223420546453303,0.0012883758429495652,-0.1002600807364344,-0.011064451581900059, ,0.06905102729797363
0.009533240259570759,0.020143499786328775,-0.07896855296344328, ,0.009672849053265762,0.02010900885303576,-0.07917096931049403, ,0.00024829945088494505, ,0.0008646099028570169,0.0009086480621025855,-0.0031368176178664894,0.05607822145681548,-0.16932839565808416,-0.08016581859599459, ,0.0033782860081169566, ,0.1783728468618378, ,1.819722283715308e-05, ,0.12427421741202081,-0.22046085536048707,0.08881271677000001,2.9970983622243064,0.25387061656418836,-0.2348669154558827, ,0.006170751333370498,-0.00016156333517813393,0.0033833499405267636,0.0012883758429495652,0.019423796482223393,-0.18888044193798081, ,0.09283590316772461
0.009551395359046696,0.020154722911940953,-0.07903033900181998, ,0.00971026688028678,0.020128306290183043,-0.0792587495978126, ,0.00027948058703233813, ,0.0012728426365295356,0.0006236358282821403,-0.005099225457473688,-0.11579209656984522,0.24777141628183275,0.11903693683210545, ,0.005292556120612454, ,0.2734931157285279, ,2.0072383580630143e-05, ,0.1243977811380084,-0.2204685780933613,0.08887623498000001,2.9970983622243064,0.25346070706489204,-0.23510441292577736, ,0.006942768119248566,0.00023220115283278722,0.005090703585810164,0.0012883758429495652,-0.05889292842652617,0.29855206851462857, ,0.11483192443847656
0.009587170589266683,0.020191659462493832,-0.07916459624760282, ,0.009747674851751223,0.02014741819859787,-0.07934641553293309, ,0.00024653024200862127, ,0.001366132676633613,0.001250277417181663,-0.004927735146580715,0.02408258934640616,-0.0284814359692681,-0.009074033167667677, ,0.005264226988355217, ,0.03729830159127286, ,2.0811196583893367e-05, ,0.12464490858998359,-0.2204685780933613,0.08902012317,2.9970983622243064,0.25414388956371925,-0.2325577103189181, ,0.009601648944950438,0.0007623247705461429,0.005251833669634027,0.0012883758429495652,0.020254180984912627,-0.025018982811681786, ,0.13852810859680176
0.00961519152309276,0.020209829715632167,-0.07923706294893859, ,0.009785072890594115,0.020166345371740186,-0.07943396713644706, ,0.0002636699191151977, ,0.0013054887947324836,0.0005925790719378338,-0.0027352660032557274,0.009520742771524517,-0.05101288574265569,-0.028680142117426494, ,0.0030882245802786655, ,0.05189372847041993, ,2.1582834823841476e-05, ,0.12487659057621033,-0.2204685780933613,0.08909790057000001,2.9973080521677913,0.25428052606348467,-0.23283248570289564, ,0.011717279824991635,0.0006420644511146778,0.002931323430253957,0.008558457208310822,3.244703694971928e-06,-0.04680308603398317, ,0.16084504127502441
0.009644279449074035,0.020224821792883808,-0.07930645636518015, ,0.009822460920144986,0.02018508860163301,-0.07952140442907428, ,0.0002820106971230286, ,0.001349505961433256,0.0008532854686761688,-0.003563178268385522,0.0012033863823571458,-0.018756746973632128,-0.005895948655165716, ,0.0039045488604053415, ,0.018795310458828176, ,2.23899366395075e-05, ,0.1251237180281855,-0.22045313262761285,0.08917178910000001,2.9975177421112758,0.25428052606348467,-0.23275080696275507, ,0.011119938351325612,-0.0004053786351813617,0.003795285089349536,0.0019286729818995079,-0.001206082995486933,-0.008969216338314268, ,0.1841120719909668
0.009673125240800017,0.020243263638865847,-0.07938845969021993, ,0.009859838864127463,0.020203648678862665,-0.07960872743166116, ,0.0002914604606318587, ,0.0014309017942424332,0.0008796478188007675,-0.00419121418436901,-0.0009989142387464376,-0.013228342628354898,-0.005802863405665427, ,0.004515255980467015, ,0.013266004562648913, ,2.3124296359472543e-05, ,0.125347677281538,-0.22044540989473863,0.08925864053,2.99772743205476,0.25428052606348467,-0.2326691282226145, ,0.011061538822528357,0.0009702637212188564,0.00441608303853618,0.004189484778129979,-0.0012183105705950864,-0.0033108966426030916, ,0.2060549259185791
0.009720855713676889,0.020271597608501935,-0.07951843628939481, ,0.009897206646658637,0.020222026392579882,-0.07969593616518218, ,0.0002550748182711413, ,0.0016311420914288239,0.000847653685457345,-0.003788482593173104,-0.00026257770583315663,-0.012462448317673522,-0.002940058796371989, ,0.00421090746178016, ,0.012465214171520186, ,2.3357941993555052e-05, ,0.12572609119237502,-0.2204376871618644,0.08939345469000001,2.99772743205476,0.25414388956371925,-0.2325577103189181, ,0.014142614241202797,0.00048526760371114,0.0040551964154786155,0.003473964983161943,0.0,0.0010796254707497448, ,0.23028993606567383
0.00975115845568524,0.02028664968817486,-0.07958764708095865, ,0.009934564192248738,0.020240222530501475,-0.07978303065073916, ,0.00027197037433184326, ,0.0013359295226658646,0.000764977675185091,-0.003392689993529721,0.0007491320115280535,-0.007586085933450821,-0.009923618495881763, ,0.003725619938380528, ,0.007622984855744211, ,2.370071837209338e-05, ,0.12598866411009865,-0.22042224169611596,0.08946993580000001,2.998146811941729,0.25414388956371925,-0.23247603157877753, ,0.010909845922707603,0.00034922263418293804,0.003611156545001134,0.01070621358841466,0.0,0.0011171942930514472, ,0.25316810607910156
0.009778992398283518,0.020303371919785367,-0.07965942264468764, ,0.00997191142580047,0.02025823787891056,-0.07987001090956124, ,0.00028914053698201095, ,0.0014402570867655732,0.0007875447317526883,-0.003457375781256324,-0.0008820245164276172,-0.0010846389738977768,-0.006134585221114426, ,0.0038272724587240514, ,0.001398001594158817, ,2.4327446236830323e-05, ,0.12622034609632538,-0.22042224169611596,0.08954641691000001,2.998146811941729,0.25414388956371925,-0.23206763787807472, ,0.012077615802420245,0.0002865866459387142,0.0036914974553881818,0.01070621358841466,0.0,0.00983428612133562, ,0.27557802200317383
0.009808587375561059,0.02031856998532329,-0.0797300188614415, ,0.010009248272608635,0.02027607322265856,-0.07995687696300453, ,0.00030583552554551874, ,0.0015419589240346985,0.0008107908797859397,-0.0036358446391533527,-0.002706164512135621,0.005174505883985417,-0.002571581889813862, ,0.004031672781143638, ,0.0058394209365974035, ,2.499581938616914e-05, ,0.1264751962811748,-0.22040679623036752,0.08962160173000001,2.998146811941729,0.25414388956371925,-0.23182260165765303, ,0.01303171402890288,0.0005126603642254911,0.003881289356725147,0.010672528826845135,0.0,0.0180415128373182, ,0.2957000732421875
0.009843029114566608,0.020336720778855538,-0.07981003327767876, ,0.010046574658359599,0.02029372934516544,-0.08004362883255337, ,0.0003128033488086249, ,0.00148273487117602,0.0007252460785189093,-0.00333776832107984,-0.002532529106454154,-0.0009000899619605787,0.0007311059444249927, ,0.0037235979828403277, ,0.0026877249115919762, ,2.5627768841802967e-05, ,0.12676866013039534,-0.22039907349749327,0.08970715687000001,2.998356501885214,0.25414388956371925,-0.2316592441773719, ,0.012909392131474736,0.0006966778969591247,0.0035666841737572778,0.0047408749410763375,0.0,0.01247155099148847, ,0.319735050201416
0.009875367180992132,0.02035368176445851,-0.07988790990539704, ,0.010083890509130788,0.02031120702842138,-0.08013026653981897, ,0.0003225256886323483, ,0.0016385507773007681,0.0009755185605352242,-0.004411940883916904,-0.0005567201681228426,-0.009517302800483293,-0.003591921393570947, ,0.004806423563827801, ,0.00953357164288495, ,2.624855106515514e-05, ,0.1270389557809932,-0.22038362803174483,0.08979011943000001,2.998566191828698,0.25414388956371925,-0.23141420795695022, ,0.013109123022305675,0.0006125354603719057,0.004680814434322658,0.004912625831040231,0.0,0.0028616701560007208, ,0.3398399353027344
0.00991184256045396,0.020376013012490646,-0.07998679479635103, ,0.010121195751390154,0.02032850705298753,-0.08021679010653959, ,0.00031461630194923643, ,0.0016618709610471492,0.0009840827360717036,-0.004348645279783576,-0.002291910293809052,-0.0008602577182237928,0.0008805518941583796, ,0.004758250696631076, ,0.0024480389256484416, ,2.674778254517323e-05, ,0.12733241963021372,-0.2203759052988706,0.08989511892,2.998566191828698,0.25414388956371925,-0.23116917173652854, ,0.013462468656330086,0.00035392373909455674,0.0046250904529616735,0.004912625831040231,0.0,0.013102312929773232, ,0.35967206954956055
0.00994520863898089,0.020391779441823882,-0.08006214106231767, ,0.010158490311995717,0.020345630197997174,-0.08030319955458144, ,0.0003251584558984502, ,0.0016887258533363223,0.0007518811714168974,-0.003553268186575147,-0.003964393203892479,0.004686647671714067,0.0008811114728203961, ,0.0040053508097774365, ,0.006138491615000382, ,2.725638744271474e-05, ,0.12761816074656002,-0.22035273710024794,0.08997548890000001,2.9987758817721826,0.25414388956371925,-0.23076077803582573, ,0.014930292882075327,0.0010240568646634487,0.0038061676272401436,0.008045273543560777,0.0,0.020295807373050555, ,0.37964391708374023
0.009981095734442481,0.020410706163473916,-0.08014578937366044, ,0.010195774118195106,0.020362577241156928,-0.08038949490593718, ,0.000328322384366829, ,0.0018297747037655672,0.0009410147279910379,-0.004443536167844489,-0.0028575928808323337,-0.002154157486624169,-0.0011543873761443138, ,0.004896794651583676, ,0.003578579301535856, ,2.7730758284899864e-05, ,0.127927070061529,-0.22034501436737372,0.09006493291,2.9987758817721826,0.25414388956371925,-0.23051574181540405, ,0.015256743015831315,0.001167505428438259,0.004726650302670624,0.006935931052662024,0.0,0.013167928020950851, ,0.40119004249572754
0.010018970532093345,0.02042843905648463,-0.08024055105975633, ,0.010233047097624948,0.020379348958747587,-0.08047567618272768, ,0.0003217490280605814, ,0.0017915380991584844,0.0008878992507996191,-0.004641180442198941,-0.003214895167611862,-0.00041331024615981265,-0.0067621959274063795, ,0.005053566041653842, ,0.0032413537518801807, ,2.812299852129379e-05, ,0.12822825664362375,-0.2203064007030026,0.09016474724000001,2.999195261659152,0.2540072530639538,-0.23015928769128594, ,0.014287404630904965,0.002309476580211031,0.004899665186096586,0.012365250371284194,0.0,0.012694656634074455, ,0.42406606674194336
0.010060640807173934,0.020448355904993977,-0.08034235431354873, ,0.010270309178310443,0.020395946125625234,-0.08056174340720015, ,0.00030795971366675315, ,0.0018467689254711844,0.0009215128586774778,-0.004332420355442465,-0.0028118732744235654,0.0018977981523648358,-0.0033277928603354266, ,0.004798917330924356, ,0.003392383765465087, ,2.840720954189021e-05, ,0.12857577962296385,-0.2202755097715057,0.09027233931,2.999195261659152,0.25387061656418836,-0.22963947608688673, ,0.015458045538112199,0.0011513998620275784,0.004618385479849232,0.010921985691553341,0.0002693278529674769,0.016965895197839163, ,0.4447629451751709
0.010097197960906525,0.02046432919566999,-0.08042125678801047, ,0.010307560288664861,0.02041236951522263,-0.08064769660172925, ,0.00031341203960456594, ,0.0017427959776871527,0.0007261492451480598,-0.003682624540098643,-0.002592839194317211,-0.008321809187104469,0.0010010989131581357, ,0.0041383999383105005, ,0.008716382423738319, ,2.8693086540541468e-05, ,0.12889241167080706,-0.2202446188400088,0.09035659816000001,2.9994049516026364,0.25387061656418836,-0.22955779734674617, ,0.01542788840163726,0.0016768807021602591,0.003933039881481483,0.0021420858849173965,0.00026568402544434766,0.00750013339047703, ,0.465364933013916
0.010133989619867884,0.020479953861534915,-0.08050155651792865, ,0.010344800357489017,0.020428619899550155,-0.08073353578881715, ,0.00031763300343537785, ,0.0017703403078856849,0.0008810933336055506,-0.004341760420589763,-0.0026359720958037806,-0.0018266687242651104,-0.003216291734185992, ,0.004770881870058062, ,0.0032070338281961898, ,2.897458049585192e-05, ,0.12920904371865027,-0.22020600517563768,0.09044215330000001,2.999614641546121,0.25387061656418836,-0.22923108238618392, ,0.014505799687935,0.0016078020212249246,0.004609031111111112,0.00862087580214054,0.00025637480747783706,0.012225071910817904, ,0.4850499629974365
0.010171497665424597,0.020498464117536183,-0.080591799122257, ,0.010382029313970706,0.020444698049196207,-0.08081926099109257, ,0.0003145683819433415, ,0.0018315346350420197,0.0009508056163011675,-0.004666948613190176,-0.00550943306631159,0.013115976563034586,0.001022541711670229, ,0.005102838405976233, ,0.014226127080140396, ,2.9352533637297246e-05, ,0.12951795303361927,-0.22017511424414077,0.09053807876000002,2.9998243314896054,0.25387061656418836,-0.2288226886854811, ,0.014619772232086088,0.0016647838295472763,0.004946835875776399,0.011557174190318448,0.00024788702107431354,0.028602517619794578, ,0.5033109188079834
0.010208646563583052,0.02051740665894579,-0.080687356923207, ,0.010419247087684352,0.020460604733329443,-0.08090487223131189, ,0.00030804536803112745, ,0.001814329908899013,0.0009497995384070233,-0.004818506142576218,-0.007105375956582142,0.017826744581504246,0.004671880343388191, ,0.005235638798420728, ,0.019190601534632194, ,2.9675111165635348e-05, ,0.129819139615714,-0.22013650057976966,0.09063918938000001,2.9998243314896054,0.25387061656418836,-0.22849597372491887, ,0.014174300456829094,0.0020524889025887766,0.005090703585810164,0.01006333034012819,0.0002394918026020597,0.033819772255856986, ,0.5214381217956543
0.010246281056785819,0.02053492646292991,-0.08077647135661359, ,0.010456453608590401,0.020476340719699077,-0.08099036953235818, ,0.0003168696248078332, ,0.0018822923480034171,0.0007789823400853662,-0.004104020951170923,-0.0009600052341397867,-0.013889617251973354,-0.00833545556736491, ,0.004581792873664957, ,0.013922753904728667, ,3.001327599747684e-05, ,0.13013577166355722,-0.22009788691539853,0.09073381855000001,2.9998243314896054,0.25387061656418836,-0.2280059012840755, ,0.016147173993273912,0.0022066107300620836,0.004370044312757203,0.008539924667384813,0.00023144047043251837,0.0004102450306811556, ,0.539639949798584
0.010258789508994705,0.02054002383647089,-0.08080053013863521, ,0.010493648807034699,0.020491906774635995,-0.08107575291724158, ,0.0003649955059713344, ,0.001979669265740634,0.0008136074071195031,-0.004192437923915092,-0.0037720952736524827,-0.007871735200329348,0.003723529436455303, ,0.004707184207200656, ,0.008728855395893917, ,3.0527223725837e-05, ,0.13024388992379635,-0.2200901641825243,0.09075974435,3.00003402143309,0.25387061656418836,-0.22808758002421606, ,0.017399512570310006,0.0020327588668900705,0.004475642461365553,0.0006667670338591589,0.00022908943271626736,0.010621906992672325, ,0.5581769943237305
0.010311281165452803,0.020563611968132264,-0.08091987704700818, ,0.010530832613748304,0.020507303663054192,-0.08116102240909946, ,0.00033094493398079804, ,0.0018789212032650348,0.0009202958909335242,-0.00489563767929499,-0.011928401705531038,-0.002776898750481274,0.0481077020190355, ,0.005323960715659055, ,0.012247364251410967, ,3.0872750196650154e-05, ,0.1306686402318787,-0.22003610505240473,0.09088678077000001,3.000872781207028,0.25387061656418836,-0.2277608650636538, ,0.016100600875207125,0.0024149785238840927,0.005166659591307169,-0.03893974179400753,0.00021925104657338618,0.02475198550200925, ,0.5763881206512451
0.010351971977422105,0.020583941997761965,-0.08102133469749126, ,0.010568004959846642,0.020522532148451476,-0.0812461780311957, ,0.0003177985899888546, ,0.002008727179750759,0.0009607273974029241,-0.00479110369693105,-0.01168511419499272,0.006664070293875508,0.04126299188144615, ,0.005283243004967348, ,0.013451829767998849, ,3.114617331794611e-05, ,0.13100071774547037,-0.2199974913880336,0.09099437284,3.000872781207028,0.25387061656418836,-0.227352471362951, ,0.01748607730946578,0.0017588225197796084,0.005092331048593351,-0.027547536318774837,0.00021231120114060072,0.034223449582727314, ,0.5949690341949463
0.010393808616223797,0.020599823758030978,-0.0811116405928769, ,0.0106051657768292,0.0205375929929109,-0.08133121980692153, ,0.00035319358848084995, ,0.0020553480492005688,0.0008028291383259014,-0.004289384215219977,-0.011972852795019522,0.010809879679261732,0.03479905772622226, ,0.004705565253685099, ,0.016130799771843157, ,3.15357770705202e-05, ,0.1313636861905589,-0.21993570952503982,0.09109029830000001,3.000872781207028,0.25387061656418836,-0.22694407766224817, ,0.018581739095059873,0.002340895056024328,0.0045772446896551735,-0.019215090996907228,0.0002053580272845052,0.038109770311514385, ,0.6130979061126709
0.010414742117981128,0.020608609294726257,-0.08115791993291464, ,0.010642314996578972,0.020552486957101358,-0.08141614775979514, ,0.0003487416557126707, ,0.0021804822894747845,0.0008778156359768392,-0.004717570237845507,-0.007133434393713731,0.0023254898999315737,0.010070218050363042, ,0.005270724073074243, ,0.007502918577957606, ,3.188652412196933e-05, ,0.1315490317795403,-0.21991254132641713,0.09113955732000001,3.0006630912635437,0.25387061656418836,-0.22678072018196704, ,0.018858692678551427,0.0026841100662518113,0.005023277048249764,0.0,0.000202178744857527,0.02402824395203298, ,0.6309010982513428
0.010458774703661461,0.020626236114401106,-0.081255566332363, ,0.010679452551361894,0.020567214800279194,-0.08150096191346129, ,0.000335262910577565, ,0.0020480768887884042,0.0008479683155989673,-0.005055765711997916,-0.010631591554639596,0.017389798187938198,0.013197240972334611, ,0.005520365580399792, ,0.02038224268079212, ,3.216981287674605e-05, ,0.13191972295750307,-0.21985075946342333,0.09124326052000001,3.000872781207028,0.25387061656418836,-0.2264540052214048, ,0.01659037439833405,0.0038561656652505195,0.005325580581745236,0.002788915714969422,0.0001959825174928342,0.03786897820592729, ,0.6503739356994629
0.010501780673700896,0.020642716995220675,-0.0813509287668708, ,0.010716578373826455,0.02058177728028903,-0.0815856622916918, ,0.00032396223315390874, ,0.002095971019338533,0.0006988026347771611,-0.004467298160567887,-0.009993634407668962,0.016850687331491258,0.007165462406536784, ,0.0049837909759230204, ,0.019591283532189138, ,3.2398691674477795e-05, ,0.13226724593684316,-0.21978125486755531,0.09134177856,3.001292161093997,0.25387061656418836,-0.226045611520702, ,0.017891580233497507,0.00410308122288026,0.00470709560283688,0.008723094135604034,0.00019021619435601554,0.03739379195305211, ,0.668083906173706
0.01054359139873954,0.020658835885876085,-0.08144517824475153, ,0.01075369239700299,0.020596175153564447,-0.08167024891838487, ,0.0003142063095720604, ,0.0021587099902374506,0.0008775106886043478,-0.005218398479014815,-0.007048265797919666,-0.01876145516427477,0.02062873223887582, ,0.005715044751911395, ,0.020041712670563795, ,3.2582694270384944e-05, ,0.1326224916490575,-0.2197117502716873,0.09144418547000001,3.0015018510374816,0.25387061656418836,-0.22563721781999918, ,0.018203902082960056,0.0038647925754352716,0.0055040813821700075,-0.019915510549364756,0.0001848479770717661,0.0042669943330736395, ,0.6867809295654297
0.010587343983929716,0.020676082237602127,-0.08155100466575735, ,0.01079079455430339,0.02061040917512987,-0.08175472181756616, ,0.0002953062201528296, ,0.0020430718042012495,0.0007148939341303094,-0.004815803070825674,-0.006699284205942153,0.004078772857719806,-0.005093579661756811, ,0.005279883990311951, ,0.007843264263468135, ,3.269554334527013e-05, ,0.13297773736127183,-0.21962680021007083,0.09155307383000001,3.001292161093997,0.25387061656418836,-0.22547386033971803, ,0.016480885994871616,0.004789785069409551,0.005121804347266882,0.013557680163176747,0.00017960744879455816,0.020205073848621392, ,0.7042889595031738
0.010594942207408064,0.02067904810868348,-0.08156947652168245, ,0.010827884779520472,0.020624480098600975,-0.08183908101338748, ,0.00036045317528666127, ,0.002017839493367474,0.000721270290215916,-0.004715655676168517,-0.006952930945863913,0.00657125654465388,-0.0034658226249245612, ,0.005179702260624834, ,0.00956685209364636, ,3.3114601854409526e-05, ,0.13304724195713985,-0.2196113547443224,0.09157511076000001,3.001292161093997,0.25387061656418836,-0.22539218159957747, ,0.016350265602768914,0.004449427658137407,0.00496534024937656,0.013158112070510238,0.00017850970066301454,0.02274388148753036, ,0.7204680442810059
0.010644181597749658,0.02069513106052798,-0.08167486873692167, ,0.010864963006827509,0.02063838867618605,-0.08192332653012759, ,0.00033718749054489005, ,0.0022022125895469675,0.0007899450576257655,-0.005186498954581794,-0.007613833297071189,-0.0031527242693909926,0.004714559967486173, ,0.005689773711625497, ,0.00824075991893091, ,3.3442904899780314e-05, ,0.13346426953234797,-0.21951095921695746,0.09168659170000001,3.0015018510374816,0.25387061656418836,-0.22506546663901525, ,0.018072165598642314,0.004864889645482858,0.005458811350239891,0.0018330992499525653,0.00017240618858965567,0.01645908534920397, ,0.7359030246734619
0.010668455270043401,0.020705627910356458,-0.08173371881573331, ,0.010902029170777592,0.02065213565868715,-0.08200745839219205, ,0.0003638015170565499, ,0.0021403973274839146,0.001128635117223344,-0.005612331617489789,-0.0021914543663781485,0.00031772405289070497,-0.012340717274633605, ,0.006111741497478897, ,0.0022143656530663855, ,3.383833533501839e-05, ,0.13364961512132936,-0.21947234555258635,0.09174881362000001,3.0019212309244505,0.25387061656418836,-0.22482043041859354, ,0.016149921980679167,0.002093745757604262,0.005943586388059703,0.01876160119122658,0.00016986978087450065,0.014031708681509141, ,0.7520809173583984
0.010712542539457187,0.020727192974794265,-0.08185588977420254, ,0.010939083206303378,0.02066572179550088,-0.08209147662411241, ,0.0003325666000507175, ,0.002147580849275364,0.00108248543384032,-0.005986282118564843,-0.007527180341332051,0.018246878452664102,-0.003735113193715764, ,0.006451313960868742, ,0.01973846522578996, ,3.412400176100522e-05, ,0.1339739699020468,-0.21939511822384408,0.09187196117,3.0019212309244505,0.25387061656418836,-0.2244937154580313, ,0.015613185514720433,0.0035651406804489707,0.006328490870083433,0.018683039396124097,0.00016550630856567743,0.033040583389590615, ,0.7672040462493896
0.010733223859308045,0.020737901008962507,-0.08191380005167156, ,0.0109761250487163,0.02067914783461962,-0.08217538125054774, ,0.0003617701575818665, ,0.0022104974243523498,0.001127152944051462,-0.0060608903764567505,-0.008448410441344801,0.02131949235585966,0.0005839516737810215, ,0.0065491346586994455, ,0.022932430859338104, ,3.448336475882636e-05, ,0.1341361472924055,-0.2193642272923472,0.09193807196,3.0019212309244505,0.25387061656418836,-0.22433035797775017, ,0.016263400438469716,0.0032500135535193106,0.006384293194388779,0.016213699916237813,0.0001632964805253332,0.03863373544886393, ,0.7830369472503662
0.01077423808818637,0.020756194126705124,-0.08201832273637365, ,0.011013154633706203,0.0206924145226328,-0.08225917229628303, ,0.00034519192361249807, ,0.0021466396630314723,0.000860217293183323,-0.004817161935853311,-0.005975661760597895,0.000364454151681217,0.0029549562765273365, ,0.005343508655427212, ,0.00598676521268637, ,3.478080994593443e-05, ,0.1344527793402487,-0.21929472269647918,0.09204825661,3.0021309208679354,0.25387061656418836,-0.22408532175732848, ,0.01777096283866494,0.0030880322926887874,0.005115225279383431,0.005149848978564904,0.00015949548173296046,0.01928975344996937, ,0.8005890846252441
0.010820786833712275,0.02077129528251506,-0.0821107865005535, ,0.011050171897340843,0.02070552260472743,-0.08234284978622969, ,0.00033286171470756857, ,0.002059766470602199,0.0005919727956421267,-0.004074319703898463,-0.003675128602731151,-0.010254749445595616,-0.009138328205178547, ,0.0046036019325928525, ,0.010893413391395082, ,3.503192243213113e-05, ,0.1348543614497084,-0.21921749536773694,0.09214677465000001,3.00234061081142,0.25387061656418836,-0.22392196427704736, ,0.01772118423127372,0.0042664067233105256,0.004324955612272604,0.011396028326472215,0.00015498127834889973,0.0056379525126851035, ,0.8171160221099854
0.01084190957812624,0.02077802707218781,-0.08215346121255021, ,0.011087176776065263,0.020718472824689863,-0.08242641374542606, ,0.00037176039593163655, ,0.0020652947803303317,0.0007610362079610497,-0.004575236940895461,-0.004216481007007708,-0.007337797924166714,-0.0036097298365119147, ,0.005077146019647446, ,0.008462977517019432, ,3.538050904068959e-05, ,0.13503198430581556,-0.2191788817033658,0.09219214480000001,3.002550300754904,0.25387061656418836,-0.22375860679676624, ,0.017064726048996722,0.003581530796114763,0.004848953278538814,0.007362613840771836,0.00015308558922998752,0.009199493672253058, ,0.8335330486297607
0.010887316250694657,0.02079698568051347,-0.08226394486590244, ,0.01112416920670143,0.020731265924906137,-0.08250986419903678, ,0.00034769919104805344, ,0.0022879903832751913,0.0009255572323773841,-0.005546182082966197,-0.004814059794977093,-0.00968273765465866,-0.0028153784732787013, ,0.006070559437299094, ,0.010813444176155903, ,3.565087560221182e-05, ,0.1353949527509041,-0.21910165437462356,0.09230881090000001,3.002550300754904,0.25387061656418836,-0.2235952493164851, ,0.0181377946403805,0.004210937556639635,0.005851877854518736,0.00596132407844822,0.00014931749762255733,0.008102513153209263, ,0.8504140377044678
0.010932438798775148,0.0208139413830914,-0.08236822210566937, ,0.011161149126447568,0.020743902646364,-0.08259320117235246, ,0.0003283739013258979, ,0.0023759073027865025,0.0007315223364416784,-0.0048205175937457104,-0.006612495806158114,-0.009877517036445276,0.0038156786632252294, ,0.005402077917793586, ,0.011886565567427797, ,3.585994131072751e-05, ,0.13575792119599264,-0.2190167043130071,0.09241899555000001,3.002759990698389,0.25387061656418836,-0.22335021309606343, ,0.020429912068562064,0.004596989784977582,0.00529724360492185,0.0007028472057114511,0.00014593678878944193,0.011863031037509377, ,0.8661990165710449
0.010955435457456324,0.02082149847081724,-0.08241446647923018, ,0.01119811647287777,0.020756383728652975,-0.08267642469079071, ,0.0003629822440521008, ,0.0023330682382612785,0.000715964827650156,-0.0046673329540645086,-0.00419296552352961,-0.009434194428046199,-0.009369009258450857, ,0.005266859590202898, ,0.010324000298955726, ,3.615151072446972e-05, ,0.13595098951784826,-0.21897809064863596,0.09246825457,3.0029696806418733,0.25387061656418836,-0.22326853435592287, ,0.01984461345848406,0.004416172027110322,0.004962246579439253,0.01292868026870843,0.00014429899631847394,0.008604504566904037, ,0.8844079971313477
0.01100074116639629,0.020836110717032612,-0.08250851046150466, ,0.011235071183941344,0.02076870990996583,-0.08275953477989509, ,0.0003499523315243052, ,0.0021355649957356245,0.0007299113607235324,-0.004485667854608356,-0.002789094099550936,-0.010923849358782876,-0.010616219436444098, ,0.005021416587716191, ,0.011274286181104702, ,3.6492647306976096e-05, ,0.1363371261615595,-0.2188931405870195,0.09256806890000001,3.0029696806418733,0.25387061656418836,-0.22310517687564174, ,0.017754338925813056,0.003725351635160508,0.004766251202872532,0.012544799146812047,0.00014090017148771954,0.004638125056204296, ,0.8974609375
0.011024867523457629,0.020843712173666276,-0.08256132032751487, ,0.011272013197962475,0.020780881927100054,-0.08284253146533534, ,0.0003796160275124188, ,0.002374577029973119,0.0008067230018775698,-0.005529314147035201,-0.005722282892476446,-0.00798232506903424,-0.007464878410165955, ,0.006071468768727871, ,0.009821508531832501, ,3.6898354740487614e-05, ,0.1365301944834151,-0.21883908145689993,0.09262251308000001,3.0029696806418733,0.25387061656418836,-0.22294181939536062, ,0.018952854315652242,0.005538719420508942,0.00579229509818182,0.011280493005855579,0.00013928521221355985,0.009602163456027484, ,0.9108819961547852
0.011059737614636769,0.02085838944963906,-0.08264729003993014, ,0.01130894245363956,0.020792900515458262,-0.08292541477290792, ,0.0003791374676505949, ,0.0025637500236664608,0.0011184150649490685,-0.0065000654588447645,-0.006993163747122341,0.0005504066778934708,-0.0010251721525484066, ,0.007076335026736764, ,0.007014789740373221, ,3.7290761056924604e-05, ,0.13680049013401296,-0.21877729959390613,0.09271454967000001,3.0033890605288422,0.25387061656418836,-0.2225334256946578, ,0.019570414839857865,0.004476018691699117,0.006854049707401034,0.009564224005766436,0.00013709362047428707,0.020453204563536533, ,0.9270529747009277
0.011091872818002533,0.02087164897413382,-0.08272723862057695, ,0.01134585889004474,0.020804766409049866,-0.08300818472853483, ,0.0003845944849842761, ,0.0025932600607575826,0.0011617664131785936,-0.006886334730735972,-0.007675025755439927,0.00923554009227342,-0.006602503370616518, ,0.007449584214253219, ,0.01200838064255986, ,3.768500105359796e-05, ,0.13703989485311394,-0.21871551773091233,0.09279880852000001,3.0038084404158116,0.25387061656418836,-0.2223700682143767, ,0.0190098039980911,0.0049836175626031395,0.007240368872727274,0.01839540537443772,0.00013528646592598476,0.027495691887264855, ,0.9401741027832031
0.011141395732383682,0.020892460209838818,-0.08285251331809151, ,0.011382762446623357,0.020816480340491304,-0.08309084135826465, ,0.0003476076610514962, ,0.0024905921189465755,0.000962942284611495,-0.006116145854051188,-0.011674364431604528,-0.017529990604451543,0.036388455711125194, ,0.006673645709391467, ,0.021061608364883713, ,3.797847364956392e-05, ,0.13741830876395092,-0.2186073994706732,0.0929310301,3.0040181303592957,0.2540072530639538,-0.2222364498976514, ,0.02039040428845526,0.005062539139799254,0.006438484850444625,-0.03325680968301546,0.0,0.011427659151046956, ,0.9536590576171875
0.011169135011805182,0.020902556244975765,-0.08291631581518376, ,0.011419653063193558,0.020828043041008437,-0.0831733846882721, ,0.0003666004871079866, ,0.002686037211738059,0.000972753389798903,-0.006467229295338248,-0.012312800517289618,-0.014382079973782547,0.031255750562031025, ,0.007070084852297607, ,0.018932756525067672, ,3.830878232863679e-05, ,0.13764226801730345,-0.21855334034055363,0.09299843718,3.0040181303592957,0.2540072530639538,-0.22207309241737028, ,0.02191109248637053,0.005910002118763776,0.0068042765997437,-0.026458782041030315,0.0,0.015049539078222695, ,0.967519998550415
0.011195675153169013,0.02091342384595017,-0.08298412407937962, ,0.011456530679945587,0.0208394552404361,-0.08325581474485777, ,0.0003838395213621706, ,0.0027159600493802606,0.0011198844104279198,-0.006738069228722333,-0.006525942985237397,-0.014000414461939005,0.0027633561140405997, ,0.007350656910345081, ,0.01544666705355678, ,3.8670253754435725e-05, ,0.1378507818049075,-0.21849928121043405,0.09306973313000001,3.0038084404158116,0.2540072530639538,-0.22190973493708915, ,0.02106948080783099,0.005018159075305695,0.007104733059768065,0.0,0.0,0.008019585547758211, ,0.9805760383605957
0.011248896830649563,0.020931786791492404,-0.08310977652502693, ,0.01149339523744147,0.020850717667220423,-0.08333813155444847, ,0.000344234939098454, ,0.0025107712545823398,0.0007821748745049767,-0.005741157121439254,-0.012491965039361883,0.01323995257908895,0.009116418192622683, ,0.006314796506633963, ,0.018202898906598805, ,3.8930007033537206e-05, ,0.13826780938011562,-0.21837571748444645,0.09320195471,3.0040181303592957,0.2540072530639538,-0.22141966249624578, ,0.02005853763654001,0.006293077789164095,0.006038215132676271,0.005848493006737084,0.0,0.036335001015407084, ,0.9943249225616455
0.011248896830649563,0.020931786791492404,-0.08310977652502693, ,0.01153024667661426,0.020861831048419308,-0.08342033514359683, ,0.00042485079425759345, ,0.0026156909982322,0.0007985505644782925,-0.0059262935925925185,-0.013936165731529435,0.02372950254227441,0.0067335029861290965, ,0.006526904177928822, ,0.027519193281971208, ,3.936669824827778e-05, ,0.1384840459005939,-0.21830621288857843,0.09326547292000001,3.004437510246265,0.2540072530639538,-0.22109294753568354, ,0.020765195089380916,0.006620874916586877,0.006234368500978474,0.013119523447803602,0.0,0.047244990809960655, ,1.0082190036773682
0.011302602719845664,0.020947287398510518,-0.08322528360220911, ,0.011567084938767768,0.02087279610970322,-0.08350242553898123, ,0.00039026587008337, ,0.002575468816067846,0.0006117355290275249,-0.004917428839830527,-0.011064696807984758,0.011370089081942722,0.0013173852394415932, ,0.005584654543909542, ,0.01586525884782827, ,3.9713693024389724e-05, ,0.13870028242107219,-0.21824443102558463,0.09332380597,3.004437510246265,0.2540072530639538,-0.22092959005540241, ,0.02192121542122217,0.0062056592701066424,0.005214013590834698,0.013119523447803602,0.0,0.03453740613954831, ,1.0218429565429688
0.011353428372817257,0.020956727250771343,-0.08331813554197234, ,0.011603909965575846,0.02088361357535726,-0.08358440276740683, ,0.0003728067504539282, ,0.0027165328050635547,0.00044432164410125336,-0.004961261661697344,-0.011854302265488332,0.006284310815355808,-0.0002502323049034419, ,0.005673719192930788, ,0.013417042953637576, ,4.001263656285104e-05, ,0.13914820092777722,-0.21808997636810015,0.09342232401000002,3.004437510246265,0.25414388956371925,-0.22055093551825547, ,0.023442920345472032,0.008415760585340583,0.005231136788177341,0.012897800417909786,0.0005608413356142744,0.030590893310205588, ,1.0355899333953857
0.011406919163333825,0.02096979422555026,-0.08342346199262297, ,0.011640721699082,0.020894284168281232,-0.08366626685580347, ,0.00034542668694695404, ,0.0027007238862663922,0.0006754627459011641,-0.005702608029650499,-0.011260938672749516,0.006085407173281097,0.0023022822847752174, ,0.0063458567404870185, ,0.01280003571187785, ,4.024366916717088e-05, ,0.13960384216735647,-0.21795868990923833,0.09353380495000001,3.004437510246265,0.25414388956371925,-0.2200608630774121, ,0.022084463941929432,0.007486286365658146,0.006004075205427818,0.009745531820014825,0.0005608413356142744,0.02947312271752635, ,1.0537810325622559
0.011435469458260671,0.020977926750382896,-0.08348759932296788, ,0.01167752008169877,0.02090480860999109,-0.08374801783122796, ,0.00036297736321364303, ,0.002760040820852328,0.0008496160236694228,-0.006404521242647898,-0.010647647971078878,0.0010656367816793684,0.004432837598907547, ,0.007025493937651303, ,0.010700840074082469, ,4.059455640660209e-05, ,0.13982780142070897,-0.2178814625804961,0.09360121203,3.0046472001897495,0.25414388956371925,-0.21997918433727154, ,0.02170561334823211,0.0072531936393704696,0.0067295359188846654,0.005330186482822161,0.0005608413356142744,0.02443212826375681, ,1.0653839111328125
0.011463696039046926,0.020985832574633892,-0.0835504847408993, ,0.011714305056207316,0.02091518762061985,-0.08382965572086172, ,0.00038174864120638877, ,0.0027456126773238677,0.0008124026826825934,-0.006353804384786297,-0.00948238774845684,0.00030895229106205334,-0.0032639220684640875, ,0.006969161875924607, ,0.00948741896275175, ,4.097819558937758e-05, ,0.14004403794118725,-0.21780423525175385,0.09366732282000001,3.0050665800767185,0.25414388956371925,-0.21981582685699042, ,0.021406934707527806,0.007555063694761867,0.006670356582914574,0.011986982228201474,0.0005608413356142744,0.021602554503595897, ,1.0764350891113281
0.011463696039046926,0.020985832574633892,-0.0835504847408993, ,0.011751076565756809,0.020925421918919485,-0.08391118055201303, ,0.0004651220083063075, ,0.0027456126773238677,0.0008124026826825934,-0.006353804384786297,-0.00948238774845684,0.00030895229106205334,-0.0032639220684640875, ,0.006969161875924607, ,0.00948741896275175, ,4.153070308483282e-05, ,0.1404610655163954,-0.21768067152576626,0.09379695182000002,3.005276270020203,0.25414388956371925,-0.21940743315628758, ,0.022966345972524387,0.007232966795546463,0.0075815380866254166,0.01184481742311561,0.0005608413356142744,0.004120981546068908, ,1.0914549827575684
0.011530014169174792,0.02100786040377943,-0.08370432267394572, ,0.01178783455386391,0.020935512222260436,-0.08399259235211487, ,0.00039345268773017356, ,0.002878458273326492,0.0009493650129094532,-0.007014392381467368,-0.0075613471752323585,-0.009401449880106669,-0.007677845251346072, ,0.0076412378866389016, ,0.012064875215768274, ,4.192103748043369e-05, ,0.14054601557801186,-0.21764978059426934,0.09382417391,3.005276270020203,0.25414388956371925,-0.21932575441614702, ,0.021941489377681103,0.007663088637393677,0.007323591503448277,0.01184481742311561,0.0005608413356142744,0.01111995544056029, ,1.1031270027160645
0.011555600839813206,0.021018452273777535,-0.08376629637355774, ,0.011824578964412372,0.020945459246634292,-0.08407389114872663, ,0.00041508042502099926, ,0.002803897730509178,0.0009282904191680189,-0.0064316170780201465,-0.008712440994275787,0.004487480072175333,-0.0006323151183514356, ,0.007077376902762355, ,0.009800208899387451, ,4.234822092662668e-05, ,0.14076225209849014,-0.21758027599840132,0.09389546986000001,3.005276270020203,0.2544171625632501,-0.2194669114833993, ,0.021860617728281684,0.006509537293019619,0.006783991277683136,0.01184481742311561,0.0013286513053744503,0.026777372228081717, ,1.1145379543304443
0.01161112973456792,0.02103760045650849,-0.08389476814265481, ,0.011861309741652311,0.020955263706653827,-0.08415507696953287, ,0.00037031076364589185, ,0.002722611787615924,0.0007784170456142186,-0.006213470304834743,-0.0011978087735262926,-0.022380527168509853,-0.013912755091614656, ,0.006828305885944998, ,0.02241255748318477, ,4.267449594517145e-05, ,0.14120244787232095,-0.21743354407379106,0.09403158031000002,3.005276270020203,0.254690435562781,-0.21919967484994876, ,0.022573011788408842,0.007376169230090924,0.007323591503448277,0.01184481742311561,-0.008441442685162216,0.04628367448106356, ,1.1260170936584473
0.011641299536895914,0.0210485510133265,-0.0839687208317179, ,0.01189802683019988,0.02096492631555441,-0.08423614984234382, ,0.0003800266687076187, ,0.0030154289126100887,0.0010205904277781454,-0.007400507704225507,-0.028521363843813253,0.04690123246810272,0.020013472849375113, ,0.008056173448268, ,0.054892565802123976, ,4.3013913845337974e-05, ,0.14142640712567345,-0.21736403947792304,0.09410935771000001,3.005485959963688,0.254690435562781,-0.21879128114924595, ,0.022492756946781416,0.00691121654722697,0.007747476420233463,0.011149592743974585,-0.008441442685162216,0.07722889801998406, ,1.1381421089172363
0.011671945855362614,0.021058018352757304,-0.08404461446259302, ,0.011934730175036653,0.020974447785195076,-0.0843171097950954, ,0.00038767685598291524, ,0.002972399135350964,0.00114471084667511,-0.007547953055526784,0.009627482018141988,-0.021471940825487795,-0.009909967935248579, ,0.008192503577708522, ,0.023531524139418433, ,4.3361912407346495e-05, ,0.14165036637902595,-0.2172868121491808,0.09418843140000001,3.005695649907172,0.25455379906301556,-0.21843482702512781, ,0.02207932563017003,0.00829688413321434,0.007964405760000001,0.009991187187105262,0.01603147880693986,-0.004157975905822788, ,1.149035930633545
0.011702742475815228,0.021069471635893778,-0.08412373507152539, ,0.011971419721509167,0.020983828826059682,-0.08439795685584874, ,0.00039334430239605737, ,0.0029573332348375126,0.0011151671210140645,-0.007582735626521895,0.002820281146692332,-0.0013341931891796776,-0.0009320587598100682, ,0.008215065255455352, ,0.0031199410481403313, ,4.371427715856271e-05, ,0.14186660289950423,-0.21720958482043856,0.09427139396,3.0061150297941412,0.25455379906301556,-0.2182714695448467, ,0.02176036265958972,0.008458679295079775,0.00798436667669173,0.010370606730813295,0.013672494273227358,0.01857814383316808, ,1.1602330207824707
0.011728534021653336,0.0210774341659463,-0.08418824571246727, ,0.012008095415328253,0.020993070147257868,-0.08447869105279043, ,0.0004118620596730895, ,0.0028560463281642216,0.0009642521762116209,-0.0068918700702815736,0.009072806190786747,-0.03703391866392745,-0.018512398783632707, ,0.00752227731166514, ,0.03812908244678309, ,4.4096274537772737e-05, ,0.14205967122135985,-0.21713235749169632,0.09433880104,3.0061150297941412,0.25455379906301556,-0.218026433324425, ,0.021670916090082388,0.008230561401360931,0.007266793576642336,0.010370606730813295,0.011860305095679239,-0.021721471752961637, ,1.1722509860992432
0.011758525152690394,0.021086125229650116,-0.0842587238971742, ,0.01204475720256871,0.02100217245652592,-0.0845593124142325, ,0.0004234740972953208, ,0.0028955389133840277,0.0009148195832325424,-0.006836653455652979,0.0037748424908971216,-0.021786903829697845,-0.011052897316271668, ,0.007480699896498905, ,0.022111503779258242, ,4.449352057418459e-05, ,0.1422913532075866,-0.21704740743007986,0.09441268957000001,3.0061150297941412,0.25455379906301556,-0.21786307584414388, ,0.02216182661337477,0.008489958763828319,0.007204347137042063,0.010370606730813295,0.010277152196190745,-0.0036431206133012897, ,1.1834220886230469
0.011790594846520591,0.021095262460686576,-0.08433418618145705, ,0.012081405029668644,0.021011136460228223,-0.08463982096861256, ,0.000430186435973189, ,0.0030976358929737623,0.0008655213000025872,-0.007074946853416201,-0.0004920468545374797,-0.014623777661039086,-0.00692572588648864, ,0.007771701758615118, ,0.014632052674192887, ,4.498325329976994e-05, ,0.1425384806595618,-0.21695473463558915,0.09449176326000001,3.0061150297941412,0.25455379906301556,-0.21786307584414388, ,0.024054991523059767,0.009550966144211668,0.007446849705469846,0.010370606730813295,0.009052671531164565,0.006806446037117679, ,1.192559003829956
0.0118219823117905,0.021103269508154457,-0.08440462798264863, ,0.012118038843428927,0.02101996286335819,-0.08472021674449284, ,0.0004406651036732465, ,0.0031150930051151385,0.0008656310434032818,-0.006872768986879144,-0.0022281646750398365,-0.008671410997051474,-0.0038072947849688314, ,0.0075952666234193845, ,0.008953103996087897, ,4.548562726985504e-05, ,0.14278560811153695,-0.21686206184109846,0.09456565179000001,3.0061150297941412,0.25455379906301556,-0.21769971836386276, ,0.02454019693779953,0.008960381039631449,0.007253557158469946,0.010370606730813295,0.008148952679218656,0.014238899279669821, ,1.2012081146240234
0.011853476891658679,0.02111148582351352,-0.0844733548682636, ,0.012154658591012871,0.021028652369539273,-0.08480049977056144, ,0.00045232243391483783, ,0.003385959963582511,0.000807775458501173,-0.007651067447758588,-0.01315115373483491,-0.003289072118341348,-0.004931186755258252, ,0.00840571586222682, ,0.013556209416288652, ,4.600260609363212e-05, ,0.14303273556351215,-0.21676166631373353,0.09463824403000001,3.0063247197376257,0.254690435562781,-0.2175661000471375, ,0.026142408142829414,0.010770249947361593,0.008008452247360484,0.013545007530138707,0.0,0.022600836942210416, ,1.2101941108703613
0.011861654165460579,0.021113969818696957,-0.08449315481424957, ,0.012191264219945534,0.021037205681026072,-0.08488067007563153, ,0.0005144935360661599, ,0.003421298610957398,0.0009335321830612371,-0.008097354290125963,-0.012845564066502738,-0.002940955307931087,-0.004888547808692245, ,0.008839904582175727, ,0.01317792470379679, ,4.6629708772363876e-05, ,0.14309451742650595,-0.21673849811511087,0.09465898467000002,3.0063247197376257,0.254690435562781,-0.2175661000471375, ,0.025794221679388635,0.010461888682671646,0.008472772085106385,0.013545007530138707,0.0,0.022600836942210416, ,1.2217929363250732
0.011934048952599181,0.021136073924426693,-0.08466723047877261, ,0.012227855678113127,0.02104562349870545,-0.0849607276886413, ,0.00042502268606638203, ,0.0034503664576949313,0.0009918771071335446,-0.008249029050244766,-0.013256667119594574,0.009571706865286722,0.002045502668718318, ,0.008996406458126709, ,0.01635104758842821, ,4.707886856704735e-05, ,0.14362738599482744,-0.2165222615946326,0.09484176156000002,3.0069537895680796,0.25482707206254646,-0.21686073054942834, ,0.025815272458778772,0.010380084990175226,0.008642871144872492,0.012996250514448197,0.002327129369037316,0.036593040640925216, ,1.231374979019165
0.011968917297554128,0.021146472010820844,-0.08475243816866072, ,0.012264432913762696,0.021053906522097314,-0.08504067263865389, ,0.0004230566851120521, ,0.003655943642348872,0.0010247369922985,-0.009118879055056468,-0.01843503289625469,0.03478623108472436,0.014718389983856502, ,0.00987775101124561, ,0.039369178908285785, ,4.751763718544709e-05, ,0.14388995891255107,-0.2164064206015192,0.09493120557000001,3.0069537895680796,0.2549637085623119,-0.21656375475242193, ,0.02671648129461452,0.012416190181665676,0.009521106706515244,0.012996250514448197,0.004875040402068552,0.06581299640360072, ,1.2401819229125977
0.012008682429444034,0.021158864378745514,-0.08485262469512156, ,0.012300995875501526,0.02106205544935637,-0.08512050495485793, ,0.00040814084959962403, ,0.0038137415290578477,0.0010557478945120275,-0.008868866925178567,-0.007091628814741469,-0.005770849430257481,-0.0035861885676412696, ,0.009711643970191319, ,0.009142967107129411, ,4.7922220303921745e-05, ,0.14416025456314893,-0.21628285687553161,0.09502972361,3.0069537895680796,0.25510034506207735,-0.21626677895541555, ,0.028713144193183295,0.012093404047211775,0.009403076458087368,0.012996250514448197,0.007109740125238011,0.023338888164524958, ,1.250058889389038
0.012041159147161218,0.021167050053129886,-0.08492417158779747, ,0.012337544512296432,0.02107007097727237,-0.08520022466656668, ,0.00041647872468887544, ,0.0038343165394641387,0.0009297964085146953,-0.008221915106955321,-0.013491967705347678,0.02291942242646944,0.01099175902579931, ,0.00911956099338533, ,0.026595734232260644, ,4.8336197916211224e-05, ,0.144438272946621,-0.2161824613481667,0.09511138988000001,3.0069537895680796,0.25510034506207735,-0.2159400639948533, ,0.030193108990922937,0.011544429453043589,0.008666382763873775,0.012996250514448197,0.007109740125238011,0.055973205226862575, ,1.2607629299163818
0.01208505048580949,0.02117646528165955,-0.085016406921548, ,0.012374078773473641,0.02107795380127183,-0.0852798318032187, ,0.0004032797182124055, ,0.003839046590201761,0.0007446538739614736,-0.008169811159459948,-0.001558004274730185,-0.011850084435635108,-0.007721920248402783, ,0.009057516353558623, ,0.011952064342832988, ,4.871999120057606e-05, ,0.1447857959259611,-0.21603572942355642,0.09520861163000001,3.0071634795115636,0.2552369815618427,-0.2156430881978469, ,0.030299151200022596,0.014081754200693096,0.008586960388140163,0.0150475642087323,0.013524898637632121,0.015244690459396935, ,1.2696208953857422
0.01208505048580949,0.02117646528165955,-0.085016406921548, ,0.012410598608717816,0.02108570461541854,-0.08535932639437686, ,0.0004814694629058802, ,0.003839046590201761,0.0007446538739614736,-0.008169811159459948,-0.001558004274730185,-0.011850084435635108,-0.007721920248402783, ,0.009057516353558623, ,0.011952064342832988, ,4.924011733143554e-05, ,0.1447857959259611,-0.21603572942355642,0.09520861163000001,3.0071634795115636,0.2552369815618427,-0.2156430881978469, ,0.030299151200022596,0.014081754200693096,0.008586960388140163,0.0150475642087323,0.013524898637632121,0.015244690459396935, ,1.2783360481262207
0.01212811312653799,0.02118414057059575,-0.08510378759472023, ,0.012447103968071799,0.021093324112415268,-0.08543870846972959, ,0.0004713541965188489, ,0.003927556368194522,0.0006406491776241876,-0.007894764246256729,-0.011363757167109897,0.01636220439487639,0.007643996805466491, ,0.008841008590546073, ,0.019921261981712436, ,4.9734520443495193e-05, ,0.14510242797380432,-0.21588899749894616,0.09529546306000002,3.007582859398533,0.2553736180616082,-0.21534611240084053, ,0.03182325337306196,0.014227427520010612,0.008352811494493972,0.013817180594554043,0.010646079622738317,0.04986958332233029, ,1.2871360778808594
0.012164255958551914,0.021190943238545035,-0.08517887911337273, ,0.012483594801936022,0.021100812983604007,-0.08551797805908982, ,0.0004744353008957931, ,0.0038665651430128583,0.0008411024300413244,-0.008411823852315927,-0.0035431789332149907,-0.0117585229075277,-0.0038543343201500042, ,0.009296050764995565, ,0.012280754691926318, ,5.031737302336133e-05, ,0.14541133728877328,-0.21574998830721012,0.09537972191,3.0077925493420175,0.25551025456137366,-0.2151308153439747, ,0.0301547319855325,0.013343214504846847,0.008844426163242644,0.011307821953502285,0.011498920388995137,0.016403591695961575, ,1.294234037399292
0.012201734034698297,0.021199326563244372,-0.08526146588224023, ,0.012520071061068075,0.021108171918968223,-0.08559713519239526, ,0.0004715098273747997, ,0.004352232055224732,0.0010093339722416121,-0.009719664921838829,-0.008290958432624977,0.0017961672343665015,0.0041708178933083494, ,0.010697315790555634, ,0.008483284842437345, ,5.0888777137986495e-05, ,0.14570480113799383,-0.2156187018483483,0.09546657334000001,3.0077925493420175,0.2556468910611391,-0.2148338395469683, ,0.03347334799240592,0.014792976080821633,0.010210776615384616,0.011307821953502285,0.011879323327577528,0.03546793217848399, ,1.3017070293426514
0.012201734034698297,0.021199326563244372,-0.08526146588224023, ,0.012556532696581895,0.021115401607132725,-0.08567617989970829, ,0.0005521894647828995, ,0.004352232055224732,0.0010093339722416121,-0.009719664921838829,-0.008290958432624977,0.0017961672343665015,0.0041708178933083494, ,0.010697315790555634, ,0.008483284842437345, ,5.159715148793142e-05, ,0.14570480113799383,-0.2156187018483483,0.09546657334000001,3.0077925493420175,0.2556468910611391,-0.2148338395469683, ,0.03347334799240592,0.014792976080821633,0.010210776615384616,0.011307821953502285,0.011879323327577528,0.03546793217848399, ,1.308593988418579
0.012252401936743429,0.02121157474497385,-0.08538192924982399, ,0.012592979659947661,0.02112250273536528,-0.0857551122112162, ,0.0005130229342945127, ,0.0045085163837258494,0.0013719892608076729,-0.011141241002075423,-0.00490852347055983,-0.011658936315635077,-0.002657982282856744, ,0.012096955219410484, ,0.01265006826122179, ,5.222895303966108e-05, ,0.14606004685020815,-0.2154565244579896,0.09558323944000001,3.0077925493420175,0.2556468910611391,-0.21450712458640606, ,0.03261063283796247,0.0142530702250632,0.011652385896122898,0.011307821953502285,0.011708163309937826,0.02012792371111733, ,1.3152060508728027
0.012298276055748198,0.02122461352758407,-0.08549448592387772, ,0.012629411902990906,0.021129475989577963,-0.08583393215723066, ,0.0004836588113582849, ,0.004883567426116059,0.001265935473528444,-0.011921960129080516,-0.017210692141827074,0.01068791287058045,0.002531300525455016, ,0.012945460854984847, ,0.02025929822783811, ,5.280258804358968e-05, ,0.14641529256242247,-0.21529434706763087,0.09571027586000001,3.008002239285502,0.25578352756090456,-0.2142101487893997, ,0.03543575114207273,0.016789975505745007,0.012454113776387804,0.016905695937389387,0.006275808233124352,0.04723837617828433, ,1.3220560550689697
0.012298276055748198,0.02122461352758407,-0.08549448592387772, ,0.012665829377892141,0.021136322054327587,-0.08591263976818803, ,0.0005636873835561142, ,0.004883567426116059,0.001265935473528444,-0.011921960129080516,-0.017210692141827074,0.01068791287058045,0.002531300525455016, ,0.012945460854984847, ,0.02025929822783811, ,5.35098823183285e-05, ,0.14641529256242247,-0.21529434706763087,0.09571027586000001,3.008002239285502,0.25578352756090456,-0.2142101487893997, ,0.03543575114207273,0.016789975505745007,0.012454113776387804,0.016905695937389387,0.006275808233124352,0.04723837617828433, ,1.328618049621582
0.012349054275040072,0.021239172900153952,-0.08561942661319151, ,0.01270223203718635,0.02114304161281702,-0.08599123507464915, ,0.0005217444662775101, ,0.004994778436819076,0.0014899659857405545,-0.01267809415138562,-0.004001750893671818,-0.014399446597325314,-0.020406842580511828, ,0.013707730723317222, ,0.014945157910844057, ,5.4136991379652326e-05, ,0.14677053827463682,-0.21512444694439795,0.09584120115000001,3.0086313091159558,0.2559201640606699,-0.21399485173253385, ,0.035120999836591706,0.016695450661236944,0.013262957135720236,0.027400441914904504,0.011795183963846564,0.015117108351732836, ,1.3367910385131836
0.012395090801706308,0.021252135704682637,-0.08573195128672995, ,0.012738619833762444,0.021149635346896855,-0.08606971810729921, ,0.0004925494333456404, ,0.005033702317534044,0.0012041674653716508,-0.011584954318653041,-0.006571124553282718,0.023468111673321693,-0.039690971397145884, ,0.012688551724743253, ,0.024370714694704244, ,5.4707178701252814e-05, ,0.14710261578822845,-0.21496999228691346,0.09595916354,3.00884099905944,0.2560568005604354,-0.21369787593552747, ,0.03637291742371437,0.017313800685727198,0.01215012320366133,0.06306081233283897,0.011608898965709522,0.050847576731197615, ,1.3468260765075684
0.012449209779554127,0.021264986949093054,-0.08585275605866263, ,0.01277499272086271,0.021156103937065438,-0.0861480888969484, ,0.000453002782028771, ,0.0048202993953069175,0.0011635077488079976,-0.011002651240255998,-0.013146720868522598,-0.013943172608462069,0.02865062311273584, ,0.012068445254324989, ,0.019163720169607906, ,5.5203538230333586e-05, ,0.14751192063056237,-0.2147923694308063,0.09608619996000001,3.0090506890029243,0.2561934370602008,-0.21331922139838047, ,0.03692487998384077,0.015916964367405365,0.011550987324147935,-0.01741885464060513,0.010881688534719365,0.02864587557881302, ,1.3537089824676514
0.012497026497129422,0.021273866031656694,-0.08595656656480159, ,0.012811350652082297,0.021162448062470703,-0.08622634747453067, ,0.00042894682362574934, ,0.0046848243798052955,0.000752309176343881,-0.0096891820641456,-0.0015251754848755218,-0.020461036513178675,0.022413496900127304, ,0.010788595721343443, ,0.02051779934733934, ,5.5653685596034016e-05, ,0.14788261180852513,-0.21461474657469912,0.09619508832000001,3.0090506890029243,0.2563300735599663,-0.212858888121093, ,0.03756806870881661,0.01841228978627683,0.010197702637644048,-0.0133549864489746,0.02286829349976151,0.0192541101408371, ,1.360274076461792
0.012497026497129422,0.021273866031656694,-0.08595656656480159, ,0.0128476935813687,0.021168668400911052,-0.08630449387110445, ,0.0005050617347953953, ,0.0046848243798052955,0.000752309176343881,-0.0096891820641456,-0.0015251754848755218,-0.020461036513178675,0.022413496900127304, ,0.010788595721343443, ,0.02051779934733934, ,5.622868674910764e-05, ,0.14788261180852513,-0.21461474657469912,0.09619508832000001,3.0090506890029243,0.2563300735599663,-0.212858888121093, ,0.03756806870881661,0.01841228978627683,0.010197702637644048,-0.0133549864489746,0.02286829349976151,0.0192541101408371, ,1.3668370246887207
0.012544971385791429,0.021279765841909874,-0.08605029369817065, ,0.012884021463021221,0.021174765628835968,-0.08638252811785262, ,0.00048616839596636645, ,0.004635332704652613,0.0005981084323105545,-0.00879662713119881,-0.010255289890723666,0.01338873284110852,0.024370287526267225, ,0.009961159162716261, ,0.01686502550135108, ,5.676588190260856e-05, ,0.1482764711851106,-0.21442940098571775,0.09629360636,3.00884099905944,0.2564667100597317,-0.21239855484380546, ,0.0380196079961822,0.017537782583343334,0.009287936746355686,0.0,0.01826890852262243,0.055553969041239555, ,1.3764569759368896
0.012544971385791429,0.021279765841909874,-0.08605029369817065, ,0.012920334251690466,0.021180740421348005,-0.08646045024608234, ,0.000564740390629388, ,0.004635332704652613,0.0005981084323105545,-0.00879662713119881,-0.010255289890723666,0.01338873284110852,0.024370287526267225, ,0.009961159162716261, ,0.01686502550135108, ,5.7526773347505986e-05, ,0.1482764711851106,-0.21442940098571775,0.09629360636,3.00884099905944,0.2564667100597317,-0.21239855484380546, ,0.0380196079961822,0.017537782583343334,0.009287936746355686,0.0,0.01826890852262243,0.055553969041239555, ,1.3812799453735352
0.01258621481429903,0.02128650941225468,-0.08612964816784195, ,0.012956631902377749,0.02118659345220315,-0.0865382602872246, ,0.0005604961037510554, ,0.004719040138477306,0.0006444873920196047,-0.009265836830236057,-0.0033971166792391614,-0.02446198184812983,0.0033173236187549384, ,0.010418274136899601, ,0.024696738435878517, ,5.8275416300541355e-05, ,0.14860854869870224,-0.21427494632823324,0.09637786521000001,3.0090506890029243,0.2567399830592626,-0.21229467569063606, ,0.0380196079961822,0.018003593541732265,0.00976030117647059,0.0023173574581438214,0.01685940753573148,0.012332961076061964, ,1.3861980438232422
0.01258621481429903,0.02128650941225468,-0.08612964816784195, ,0.012992914370434693,0.02119232539381189,-0.08661595827283507, ,0.0006409154987277123, ,0.004719040138477306,0.0006444873920196047,-0.009265836830236057,-0.0033971166792391614,-0.02446198184812983,0.0033173236187549384, ,0.010418274136899601, ,0.024696738435878517, ,5.9153749074622806e-05, ,0.14860854869870224,-0.21427494632823324,0.09637786521000001,3.0090506890029243,0.2567399830592626,-0.21229467569063606, ,0.0380196079961822,0.018003593541732265,0.00976030117647059,0.0023173574581438214,0.01685940753573148,0.012332961076061964, ,1.390721082687378
0.012652505000277205,0.021294855313496897,-0.08625780023034296, ,0.013029181611562626,0.021197936917240947,-0.08669354423459295, ,0.0005840815715823515, ,0.005007884245127506,0.0007276140291632054,-0.010053329423506063,-0.007031706606576109,-0.00032533507514693766,-0.009117674834082793, ,0.011255121469160792, ,0.007039221407018211, ,5.993133517384335e-05, ,0.14911824906840107,-0.2140355416091323,0.09651008679,3.0094700688898937,0.256876619559028,-0.21175266367320797, ,0.0389240941585196,0.018632817898776903,0.010493288221343874,0.025136563301332775,0.01530110009095018,0.042492570638988675, ,1.3951349258422852
0.012652505000277205,0.021294855313496897,-0.08625780023034296, ,0.013065433581811968,0.02120342869221322,-0.08677101820430176, ,0.0006650274650884987, ,0.005007884245127506,0.0007276140291632054,-0.010053329423506063,-0.007031706606576109,-0.00032533507514693766,-0.009117674834082793, ,0.011255121469160792, ,0.007039221407018211, ,6.083843133813755e-05, ,0.14911824906840107,-0.2140355416091323,0.09651008679,3.0094700688898937,0.256876619559028,-0.21175266367320797, ,0.0389240941585196,0.018632817898776903,0.010493288221343874,0.025136563301332775,0.01530110009095018,0.042492570638988675, ,1.399554967880249
0.01270672178333734,0.021305068712230493,-0.08638049477521657, ,0.013101670237581896,0.021208801387110173,-0.0868483802138893, ,0.0006198132485821462, ,0.005931700418488398,0.001368121210341547,-0.014358398520424209,-0.019034099967905428,0.012251125716313656,-0.011395901778560064, ,0.015595526075519285, ,0.022635954422641547, ,6.166452816385209e-05, ,0.1495352766436092,-0.213819305088654,0.09664101208,3.009679758833378,0.2570132560587935,-0.21129233039592046, ,0.04191561022900653,0.021577294579006544,0.014984770950141113,0.03302332309150251,0.007775608975832169,0.052277342142188266, ,1.4039881229400635
0.01270672178333734,0.021305068712230493,-0.08638049477521657, ,0.013137891535619648,0.021214055668971672,-0.08692563029540669, ,0.0007009732268063927, ,0.005931700418488398,0.001368121210341547,-0.014358398520424209,-0.019034099967905428,0.012251125716313656,-0.011395901778560064, ,0.015595526075519285, ,0.022635954422641547, ,6.261931191670944e-05, ,0.1495352766436092,-0.213819305088654,0.09664101208,3.009679758833378,0.2570132560587935,-0.21129233039592046, ,0.04191561022900653,0.021577294579006544,0.014984770950141113,0.03302332309150251,0.007775608975832169,0.052277342142188266, ,1.4083669185638428
0.01277112485381834,0.021324933641284266,-0.08655052168666061, ,0.013174097433020135,0.02121919220349809,-0.08700276848102932, ,0.000614894555408007, ,0.006541596640225491,0.002282775650668703,-0.017741545269485282,-0.002318175485172238,-0.014240343903023617,-0.020416344057571683, ,0.019046416456223226, ,0.01442773628487789, ,6.342599384681584e-05, ,0.14997547241743997,-0.2136030685681757,0.09681860381000001,3.009679758833378,0.2571498925585589,-0.21083199711863293, ,0.04305668854740053,0.020683727453895115,0.018565048391608396,0.031212685050385516,0.018358612103281255,0.022468286411898693, ,1.412909984588623
0.01277112485381834,0.021324933641284266,-0.08655052168666061, ,0.013210287887225225,0.021224211655050687,-0.0870797948030564, ,0.0006950820959867169, ,0.006541596640225491,0.002282775650668703,-0.017741545269485282,-0.002318175485172238,-0.014240343903023617,-0.020416344057571683, ,0.019046416456223226, ,0.01442773628487789, ,6.435904821182913e-05, ,0.14997547241743997,-0.2136030685681757,0.09681860381000001,3.009679758833378,0.2571498925585589,-0.21083199711863293, ,0.04305668854740053,0.020683727453895115,0.018565048391608396,0.031212685050385516,0.018358612103281255,0.022468286411898693, ,1.4200599193572998
0.012826918219975962,0.02134514948519331,-0.08670119190992213, ,0.013246462856023464,0.021229114686653026,-0.08715670929391106, ,0.0006300617931795502, ,0.006541596640225491,0.002282775650668703,-0.017741545269485282,-0.002318175485172238,-0.014240343903023617,-0.020416344057571683, ,0.019046416456223226, ,0.01442773628487789, ,6.517957799375366e-05, ,0.15034616359540276,-0.21342544571206856,0.09697675119000002,3.0098894487768626,0.2574231655580898,-0.2105647604851824, ,0.045999486940606286,0.021291662902955075,0.02016305255696203,0.014380196204279057,0.022336497527246382,0.0655453946967418, ,1.4250819683074951
0.012826918219975962,0.02134514948519331,-0.08670119190992213, ,0.013282622297549266,0.021233901959991613,-0.08723351198613971, ,0.0007095117206394295, ,0.007001097024777993,0.002588447369770216,-0.019249762758579286,-0.009812592656916603,0.017789650848775897,0.014883445919228334, ,0.02064627776617402, ,0.02031639753477238, ,6.612436194914015e-05, ,0.15034616359540276,-0.21342544571206856,0.09697675119000002,3.0098894487768626,0.2574231655580898,-0.2105647604851824, ,0.045999486940606286,0.021291662902955075,0.02016305255696203,0.014380196204279057,0.022336497527246382,0.0655453946967418, ,1.4298310279846191
0.012908434500366073,0.021375932133999347,-0.08692467905582393, ,0.013318766170282704,0.021238574135417687,-0.0873102029124129, ,0.000579541148763536, ,0.006879551431311007,0.002387279731710025,-0.018890329684953272,0.002410155327999197,-0.010900248878932326,-0.01980404017433191, ,0.0202452929842893, ,0.011163416541106513, ,6.685166670501861e-05, ,0.15087130943085003,-0.21317059552721915,0.09721137968000002,3.010518518607316,0.2578330750573861,-0.20991886931458495, ,0.04455255472228675,0.022888794394228362,0.019762793449131517,0.03333696524675721,0.02585108218305708,0.02638393518065004, ,1.4343791007995605
0.012908434500366073,0.021375932133999347,-0.08692467905582393, ,0.01335489443304871,0.021243131871947735,-0.08738678210552457, ,0.0006561262147137487, ,0.006879551431311007,0.002387279731710025,-0.018890329684953272,0.002410155327999197,-0.010900248878932326,-0.01980404017433191, ,0.0202452929842893, ,0.011163416541106513, ,6.769838126142658e-05, ,0.15087130943085003,-0.21317059552721915,0.09721137968000002,3.010518518607316,0.2578330750573861,-0.20991886931458495, ,0.04455255472228675,0.022888794394228362,0.019762793449131517,0.03333696524675721,0.02585108218305708,0.02638393518065004, ,1.4388070106506348
0.012978296522115747,0.02139570512289123,-0.0871073265924053, ,0.01339100704501664,0.021247575827264616,-0.08746324959839252, ,0.0005647596392510206, ,0.007356886364453858,0.0018976467758448877,-0.018599158760301666,-0.021800873047903287,0.0298753048749423,-0.03451344203087513, ,0.020091131049701207, ,0.036983911114458305, ,6.839202080379841e-05, ,0.1513346734033035,-0.21292346807524395,0.09740193431000001,3.0109378984942854,0.2579697115571516,-0.20937685729715688, ,0.049143936591647217,0.025999162070813913,0.019401719269183923,0.06536026355404646,0.008464151405374817,0.07261776544508887, ,1.4431979656219482
0.012978296522115747,0.02139570512289123,-0.0871073265924053, ,0.013427103965699835,0.02125190665771881,-0.08753960542405784, ,0.0006395084896209798, ,0.007356886364453858,0.0018976467758448877,-0.018599158760301666,-0.021800873047903287,0.0298753048749423,-0.03451344203087513, ,0.020091131049701207, ,0.036983911114458305, ,6.9201560977733e-05, ,0.1513346734033035,-0.21292346807524395,0.09740193431000001,3.0109378984942854,0.2579697115571516,-0.20937685729715688, ,0.049143936591647217,0.025999162070813913,0.019401719269183923,0.06536026355404646,0.008464151405374817,0.07261776544508887, ,1.4475901126861572
0.012978296522115747,0.02139570512289123,-0.0871073265924053, ,0.013463185154954944,0.021256125018329356,-0.0876158496156851, ,0.0007163764771764833, ,0.007356886364453858,0.0018976467758448877,-0.018599158760301666,-0.021800873047903287,0.0298753048749423,-0.03451344203087513, ,0.020091131049701207, ,0.036983911114458305, ,7.012928706958054e-05, ,0.1513346734033035,-0.21292346807524395,0.09740193431000001,3.0109378984942854,0.2579697115571516,-0.20937685729715688, ,0.049143936591647217,0.025999162070813913,0.019401719269183923,0.06536026355404646,0.008464151405374817,0.07261776544508887, ,1.45204496383667
0.013052636380669337,0.02141363251183233,-0.08728943112425791, ,0.013499250572981479,0.021260231562784972,-0.08769198220656245, ,0.0006205187038339876, ,0.0071589387361972205,0.0013244171203500672,-0.016048139290440987,-0.004062560453043975,-0.0152160464593502,-0.02488735555292859, ,0.017622351126416053, ,0.01574901275770172, ,7.089770327709227e-05, ,0.15185981923875075,-0.21264544969177188,0.09759248894000001,3.0109378984942854,0.2582429845566825,-0.20886458444328468, ,0.05196984751285365,0.02749042339469026,0.01682028671594509,0.03860742618538407,0.023562674709628535,0.028994129151659623, ,1.4566419124603271
0.013052636380669337,0.02141363251183233,-0.08728943112425791, ,0.01353530018032134,0.021264226943445184,-0.0877680032301014, ,0.000695929326764622, ,0.0071589387361972205,0.0013244171203500672,-0.016048139290440987,-0.004062560453043975,-0.0152160464593502,-0.02488735555292859, ,0.017622351126416053, ,0.01574901275770172, ,7.189615634975605e-05, ,0.15185981923875075,-0.21264544969177188,0.09759248894000001,3.0109378984942854,0.2582429845566825,-0.20886458444328468, ,0.05196984751285365,0.02749042339469026,0.01682028671594509,0.03860742618538407,0.023562674709628535,0.028994129151659623, ,1.4590799808502197
0.013052636380669337,0.02141363251183233,-0.08728943112425791, ,0.013571333937858112,0.02126811181134128,-0.08784391271983659, ,0.0007730933125700189, ,0.0071589387361972205,0.0013244171203500672,-0.016048139290440987,-0.004062560453043975,-0.0152160464593502,-0.02488735555292859, ,0.017622351126416053, ,0.01574901275770172, ,7.301449312203717e-05, ,0.15185981923875075,-0.21264544969177188,0.09759248894000001,3.0109378984942854,0.2582429845566825,-0.20886458444328468, ,0.05196984751285365,0.02749042339469026,0.01682028671594509,0.03860742618538407,0.023562674709628535,0.028994129151659623, ,1.4615569114685059
0.013109566068160312,0.02142585469696637,-0.08741184265491542, ,0.013607351806816773,0.021271886816177612,-0.08791971070942657, ,0.0007276171457004603, ,0.007293367468939468,0.0016450157899690959,-0.014996256875279428,0.034226733902181145,-0.03666272855956594,-0.01940076396265592, ,0.016756700339135913, ,0.05015599884974013, ,7.405685403378625e-05, ,0.15229229227970734,-0.21243693590416782,0.09772211794,3.0109378984942854,0.25865289405597874,-0.20887212319381165, ,0.05578891332067653,0.024777269336415348,0.01597674174523571,0.029491372376232144,0.056956555172717735,0.006403443209045644, ,1.4639689922332764
0.013109566068160312,0.02142585469696637,-0.08741184265491542, ,0.01364335374876291,0.021275552606331873,-0.087995397232652, ,0.0008050192243726363, ,0.007293367468939468,0.0016450157899690959,-0.014996256875279428,0.034226733902181145,-0.03666272855956594,-0.01940076396265592, ,0.016756700339135913, ,0.05015599884974013, ,7.521895637136788e-05, ,0.15229229227970734,-0.21243693590416782,0.09772211794,3.0109378984942854,0.25865289405597874,-0.20887212319381165, ,0.05578891332067653,0.024777269336415348,0.01597674174523571,0.029491372376232144,0.056956555172717735,0.006403443209045644, ,1.466521978378296
0.013109566068160312,0.02142585469696637,-0.08741184265491542, ,0.013679339725602426,0.021279109828857643,-0.088070972323418, ,0.0008835315483510102, ,0.007293367468939468,0.0016450157899690959,-0.014996256875279428,0.034226733902181145,-0.03666272855956594,-0.01940076396265592, ,0.016756700339135913, ,0.05015599884974013, ,7.650199223165303e-05, ,0.15229229227970734,-0.21243693590416782,0.09772211794,3.0109378984942854,0.25865289405597874,-0.20887212319381165, ,0.05578891332067653,0.024777269336415348,0.01597674174523571,0.029491372376232144,0.056956555172717735,0.006403443209045644, ,1.469012975692749
0.013109566068160312,0.02142585469696637,-0.08741184265491542, ,0.013715309699580857,0.021282559129483996,-0.08814643601575199, ,0.0009628532455425483, ,0.007293367468939468,0.0016450157899690959,-0.014996256875279428,0.034226733902181145,-0.03666272855956594,-0.01940076396265592, ,0.016756700339135913, ,0.05015599884974013, ,0.00042747050740420833, ,0.15229229227970734,-0.21243693590416782,0.09772211794,3.0109378984942854,0.25865289405597874,-0.20887212319381165, ,0.05578891332067653,0.024777269336415348,0.01597674174523571,0.029491372376232144,0.056956555172717735,0.006403443209045644, ,1.4714000225067139
0.013199900945278883,0.021437697488141966,-0.0876027035540929, ,0.013751263633282863,0.02128590115261741,-0.0882217883438045, ,0.0008427982665228409, ,0.008254004235746076,0.0011773843078196518,-0.018176073267656634,-0.017170686617379825,0.005036488100400428,0.01683141942101201, ,0.019997111270461946, ,0.017894041116712788, ,0.0004310509191207483, ,0.15296417003976487,-0.2120816901919535,0.09792174660000001,3.0113572783812543,0.2587895305557442,-0.20800339621582137, ,0.06087039227611981,0.03453309372578995,0.01900812830548926,0.012336799263344432,0.028850747104263563,0.06753757517771579, ,1.4736080169677734
0.013199900945278883,0.021437697488141966,-0.0876027035540929, ,0.013787201489631806,0.02128913654134253,-0.08829702934184969, ,0.0009214556874073033, ,0.008254004235746076,0.0011773843078196518,-0.018176073267656634,-0.017170686617379825,0.005036488100400428,0.01683141942101201, ,0.019997111270461946, ,0.017894041116712788, ,0.00043524241286678727, ,0.15296417003976487,-0.2120816901919535,0.09792174660000001,3.0113572783812543,0.2587895305557442,-0.20800339621582137, ,0.06087039227611981,0.03453309372578995,0.01900812830548926,0.012336799263344432,0.028850747104263563,0.06753757517771579, ,1.4758729934692383
0.013199900945278883,0.021437697488141966,-0.0876027035540929, ,0.01382312323188908,0.021292265937423213,-0.08837215904428407, ,0.0010008087259099183, ,0.008254004235746076,0.0011773843078196518,-0.018176073267656634,-0.017170686617379825,0.005036488100400428,0.01683141942101201, ,0.019997111270461946, ,0.017894041116712788, ,0.000440035347723085, ,0.15296417003976487,-0.2120816901919535,0.09792174660000001,3.0113572783812543,0.2587895305557442,-0.20800339621582137, ,0.06087039227611981,0.03453309372578995,0.01900812830548926,0.012336799263344432,0.028850747104263563,0.06753757517771579, ,1.4781510829925537
0.013199900945278883,0.021437697488141966,-0.0876027035540929, ,0.013859028823653653,0.021295289981303884,-0.0884471774856271, ,0.0010806783421053114, ,0.008254004235746076,0.0011773843078196518,-0.018176073267656634,-0.017170686617379825,0.005036488100400428,0.01683141942101201, ,0.019997111270461946, ,0.017894041116712788, ,0.0004454189022977256, ,0.15296417003976487,-0.2120816901919535,0.09792174660000001,3.0113572783812543,0.2587895305557442,-0.20800339621582137, ,0.06087039227611981,0.03453309372578995,0.01900812830548926,0.012336799263344432,0.028850747104263563,0.06753757517771579, ,1.4803760051727295
0.013299695097495519,0.02145857249871913,-0.08783541246469513, ,0.013894918228861495,0.02129820931211018,-0.0885220847005216, ,0.0009227814948228083, ,0.010615274118131473,0.0025981466398144488,-0.02615226956300285,-0.02473054290080041,0.05469644456959988,-0.09401907191919404, ,0.028343881418412268, ,0.06002739847212147, ,0.0004493969239021012, ,0.15362832506694818,-0.21171872174686493,0.09815637509000001,3.012405728098677,0.25906280355527506,-0.20716440840138686, ,0.06957253779946537,0.036767509321375735,0.027089815510204087,0.1403003476757731,0.011287589216081079,0.1071924331691523, ,1.4830710887908936
0.013299695097495519,0.02145857249871913,-0.08783541246469513, ,0.01393079141178523,0.021301024567650553,-0.08859688072373281, ,0.00100146783174295, ,0.010615274118131473,0.0025981466398144488,-0.02615226956300285,-0.02473054290080041,0.05469644456959988,-0.09401907191919404, ,0.028343881418412268, ,0.06002739847212147, ,0.00045395949338838926, ,0.15362832506694818,-0.21171872174686493,0.09815637509000001,3.012405728098677,0.25906280355527506,-0.20716440840138686, ,0.06957253779946537,0.036767509321375735,0.027089815510204087,0.1403003476757731,0.011287589216081079,0.1071924331691523, ,1.4854769706726074
0.013299695097495519,0.02145857249871913,-0.08783541246469513, ,0.01396664833703326,0.021303736384416756,-0.08867156559014897, ,0.0010807186938460729, ,0.010615274118131473,0.0025981466398144488,-0.02615226956300285,-0.02473054290080041,0.05469644456959988,-0.09401907191919404, ,0.028343881418412268, ,0.06002739847212147, ,0.000459096863883944, ,0.15362832506694818,-0.21171872174686493,0.09815637509000001,3.012405728098677,0.25906280355527506,-0.20716440840138686, ,0.06957253779946537,0.036767509321375735,0.027089815510204087,0.1403003476757731,0.011287589216081079,0.1071924331691523, ,1.487874984741211
0.013299695097495519,0.02145857249871913,-0.08783541246469513, ,0.014002488969549599,0.02130634539758535,-0.08874613933478058, ,0.0011603946521817475, ,0.010615274118131473,0.0025981466398144488,-0.02615226956300285,-0.02473054290080041,0.05469644456959988,-0.09401907191919404, ,0.028343881418412268, ,0.06002739847212147, ,0.0004647984719188855, ,0.15362832506694818,-0.21171872174686493,0.09815637509000001,3.012405728098677,0.25906280355527506,-0.20716440840138686, ,0.06957253779946537,0.036767509321375735,0.027089815510204087,0.1403003476757731,0.011287589216081079,0.1071924331691523, ,1.4901371002197266
0.013299695097495519,0.02145857249871913,-0.08783541246469513, ,0.01403831327461308,0.02130885224101839,-0.08882060199276152, ,0.0012403916209593362, ,0.010615274118131473,0.0025981466398144488,-0.02615226956300285,-0.02473054290080041,0.05469644456959988,-0.09401907191919404, ,0.028343881418412268, ,0.06002739847212147, ,0.00047105325537888913, ,0.15362832506694818,-0.21171872174686493,0.09815637509000001,3.012405728098677,0.25906280355527506,-0.20716440840138686, ,0.06957253779946537,0.036767509321375735,0.027089815510204087,0.1403003476757731,0.011287589216081079,0.1071924331691523, ,1.49235200881958
0.013409095277774839,0.02149506865356649,-0.08812900407116613, ,0.014074121217836974,0.021311257547265188,-0.0888949535993477, ,0.001030885397838579, ,0.011259894033832209,0.004272031922727531,-0.03175964485863423,0.06188900638026719,-0.01937514259339781,-0.03452853097846045, ,0.033966314370983866, ,0.06485069736081332, ,0.00047553191251856663, ,0.1543542619571253,-0.21131713963740525,0.09847396614000001,3.0130347979291305,0.2598826225538677,-0.2066894134615975, ,0.06972589387102922,0.03987266452036587,0.033393734842767295,0.06052946253893151,0.10006558206821552,0.028431179286794207, ,1.494596004486084
0.013409095277774839,0.02149506865356649,-0.08812900407116613, ,0.014109912765168415,0.02131356194756232,-0.08896919418991787, ,0.0011090578301464757, ,0.011259894033832209,0.004272031922727531,-0.03175964485863423,0.06188900638026719,-0.01937514259339781,-0.03452853097846045, ,0.033966314370983866, ,0.06485069736081332, ,0.000480559895991804, ,0.1543542619571253,-0.21131713963740525,0.09847396614000001,3.0130347979291305,0.2598826225538677,-0.2066894134615975, ,0.06972589387102922,0.03987266452036587,0.033393734842767295,0.06052946253893151,0.10006558206821552,0.028431179286794207, ,1.496859073638916
0.013409095277774839,0.02149506865356649,-0.08812900407116613, ,0.014145687882887779,0.02131576607183568,-0.08904332379997315, ,0.0011877283562364564, ,0.011259894033832209,0.004272031922727531,-0.03175964485863423,0.06188900638026719,-0.01937514259339781,-0.03452853097846045, ,0.033966314370983866, ,0.06485069736081332, ,0.0004861281515842816, ,0.1543542619571253,-0.21131713963740525,0.09847396614000001,3.0130347979291305,0.2598826225538677,-0.2066894134615975, ,0.06972589387102922,0.03987266452036587,0.033393734842767295,0.06052946253893151,0.10006558206821552,0.028431179286794207, ,1.4993369579315186
0.013409095277774839,0.02149506865356649,-0.08812900407116613, ,0.01418144653760842,0.021317870548701243,-0.0891173424651372, ,0.0012667827035177217, ,0.011259894033832209,0.004272031922727531,-0.03175964485863423,0.06188900638026719,-0.01937514259339781,-0.03452853097846045, ,0.033966314370983866, ,0.06485069736081332, ,0.0004922270152712616, ,0.1543542619571253,-0.21131713963740525,0.09847396614000001,3.0130347979291305,0.2598826225538677,-0.2066894134615975, ,0.06972589387102922,0.03987266452036587,0.033393734842767295,0.06052946253893151,0.10006558206821552,0.028431179286794207, ,1.503113031387329
0.013409095277774839,0.02149506865356649,-0.08812900407116613, ,0.014217188696275779,0.021319876005465782,-0.08919125022115612, ,0.0013461330989696532, ,0.011259894033832209,0.004272031922727531,-0.03175964485863423,0.06188900638026719,-0.01937514259339781,-0.03452853097846045, ,0.033966314370983866, ,0.06485069736081332, ,0.0004988464422766755, ,0.1543542619571253,-0.21131713963740525,0.09847396614000001,3.0130347979291305,0.2598826225538677,-0.2066894134615975, ,0.06972589387102922,0.03987266452036587,0.033393734842767295,0.06052946253893151,0.10006558206821552,0.028431179286794207, ,1.5055809020996094
0.013409095277774839,0.02149506865356649,-0.08812900407116613, ,0.014252914326167184,0.021321783068128194,-0.0892650471038982, ,0.001425711139315933, ,0.011259894033832209,0.004272031922727531,-0.03175964485863423,0.06188900638026719,-0.01937514259339781,-0.03452853097846045, ,0.033966314370983866, ,0.06485069736081332, ,0.000505976170715439, ,0.1543542619571253,-0.21131713963740525,0.09847396614000001,3.0130347979291305,0.2598826225538677,-0.2066894134615975, ,0.06972589387102922,0.03987266452036587,0.033393734842767295,0.06052946253893151,0.10006558206821552,0.028431179286794207, ,1.5079090595245361
0.013409095277774839,0.02149506865356649,-0.08812900407116613, ,0.014288623394891028,0.021323592361380737,-0.08933873314935419, ,0.0015054628093026598, ,0.012219440277710924,0.004593491472535136,-0.034645364000527326,0.038297149021388324,0.008984215801452838,0.002350109893525026, ,0.037023183700727734, ,0.039336215404609895, ,0.0005136058397122881, ,0.15479445773095607,-0.21107001218543006,0.09868396512000001,3.0130347979291305,0.2604291685529295,-0.20631829767497759, ,0.0754347707142057,0.042101571232684466,0.0363671495890411,0.040062927073640404,0.09012688114808012,0.0732961700629474, ,1.5105199813842773
0.013479410136590812,0.02152142795948379,-0.0883290941123065, ,0.01432431587038658,0.021325304508609977,-0.08941230839363716, ,0.0013876899099807306, ,0.012219440277710924,0.004593491472535136,-0.034645364000527326,0.038297149021388324,0.008984215801452838,0.002350109893525026, ,0.037023183700727734, ,0.039336215404609895, ,0.0005202276887294731, ,0.15479445773095607,-0.21107001218543006,0.09868396512000001,3.0130347979291305,0.2604291685529295,-0.20631829767497759, ,0.0754347707142057,0.042101571232684466,0.0363671495890411,0.040062927073640404,0.09012688114808012,0.0732961700629474, ,1.5130259990692139
0.013479410136590812,0.02152142795948379,-0.0883290941123065, ,0.014359991720923095,0.021326920131897725,-0.08948577287298194, ,0.0014666843481318985, ,0.012219440277710924,0.004593491472535136,-0.034645364000527326,0.038297149021388324,0.008984215801452838,0.002350109893525026, ,0.037023183700727734, ,0.039336215404609895, ,0.000527343904213702, ,0.15479445773095607,-0.21107001218543006,0.09868396512000001,3.0130347979291305,0.2604291685529295,-0.20631829767497759, ,0.0754347707142057,0.042101571232684466,0.0363671495890411,0.040062927073640404,0.09012688114808012,0.0732961700629474, ,1.5152308940887451
0.013479410136590812,0.02152142795948379,-0.0883290941123065, ,0.014395650915099506,0.021328439852022252,-0.08955912662374603, ,0.0015458724245622775, ,0.012219440277710924,0.004593491472535136,-0.034645364000527326,0.038297149021388324,0.008984215801452838,0.002350109893525026, ,0.037023183700727734, ,0.039336215404609895, ,0.0005349448633207808, ,0.15479445773095607,-0.21107001218543006,0.09868396512000001,3.0130347979291305,0.2604291685529295,-0.20631829767497759, ,0.0754347707142057,0.042101571232684466,0.0363671495890411,0.040062927073640404,0.09012688114808012,0.0732961700629474, ,1.517535924911499
0.013746497767625071,0.02161338536034748,-0.08908462633233874, ,0.01443129342184385,0.021329864288459222,-0.08963236968240884, ,0.0009216029859910441, ,0.012219440277710924,0.004593491472535136,-0.034645364000527326,0.038297149021388324,0.008984215801452838,0.002350109893525026, ,0.037023183700727734, ,0.039336215404609895, ,0.0005378089975627828, ,0.1564393998331659,-0.210104670576152,0.09947470202000001,3.0134541778160995,0.2620688065501148,-0.20414312669329046, ,0.08786753848006552,0.053104052355048,0.03829041230769231,0.003928903576755655,0.08660465106886049,0.09204666189964301, ,1.5198380947113037
0.013746497767625071,0.02161338536034748,-0.08908462633233874, ,0.014466919210412694,0.02133119405938309,-0.08970550208557164, ,0.0009920310915090796, ,0.013698446863014833,0.003896277991980477,-0.036577579330042055,0.014907942055726014,0.0050377937462438745,0.04302682647702149, ,0.039252359652575695, ,0.015734059465773963, ,0.0005411488659006232, ,0.1564393998331659,-0.210104670576152,0.09947470202000001,3.0134541778160995,0.2620688065501148,-0.20414312669329046, ,0.08786753848006552,0.053104052355048,0.03829041230769231,0.003928903576755655,0.08660465106886049,0.09204666189964301, ,1.5224730968475342
0.013746497767625071,0.02161338536034748,-0.08908462633233874, ,0.014502528250390717,0.021332429781667637,-0.08977852386995795, ,0.0010639604883529215, ,0.013698446863014833,0.003896277991980477,-0.036577579330042055,0.014907942055726014,0.0050377937462438745,0.04302682647702149, ,0.039252359652575695, ,0.015734059465773963, ,0.000544965009130202, ,0.1564393998331659,-0.210104670576152,0.09947470202000001,3.0134541778160995,0.2620688065501148,-0.20414312669329046, ,0.08786753848006552,0.053104052355048,0.03829041230769231,0.003928903576755655,0.08660465106886049,0.09204666189964301, ,1.5247089862823486
0.013746497767625071,0.02161338536034748,-0.08908462633233874, ,0.014538120511689987,0.02133357207088746,-0.08985143507241285, ,0.0011370829739879773, ,0.013698446863014833,0.003896277991980477,-0.036577579330042055,0.014907942055726014,0.0050377937462438745,0.04302682647702149, ,0.039252359652575695, ,0.015734059465773963, ,0.0005492557190204757, ,0.1564393998331659,-0.210104670576152,0.09947470202000001,3.0134541778160995,0.2620688065501148,-0.20414312669329046, ,0.08786753848006552,0.053104052355048,0.03829041230769231,0.003928903576755655,0.08660465106886049,0.09204666189964301, ,1.5269720554351807
0.013746497767625071,0.02161338536034748,-0.08908462633233874, ,0.014573695964549622,0.021334621541319036,-0.08992423572990392, ,0.0012111606269501645, ,0.013698446863014833,0.003896277991980477,-0.036577579330042055,0.014907942055726014,0.0050377937462438745,0.04302682647702149, ,0.039252359652575695, ,0.015734059465773963, ,0.0005540176248329195, ,0.1564393998331659,-0.210104670576152,0.09947470202000001,3.0134541778160995,0.2620688065501148,-0.20414312669329046, ,0.08786753848006552,0.053104052355048,0.03829041230769231,0.003928903576755655,0.08660465106886049,0.09204666189964301, ,1.529184103012085
0.013895320218596794,0.0216494860049679,-0.08944278492351859, ,0.014609254579535153,0.021335578805941363,-0.08999692587951957, ,0.0009567194993553909, ,0.014533345557217851,0.0028230879012692382,-0.032409221615985126,0.04635169152919956,0.01756788873247226,-0.12673775527004008, ,0.035630683464365855, ,0.04956888405665873, ,0.0005568940667937943, ,0.15742790964106662,-0.2095331883434594,0.09985192241000002,3.0147123174770067,0.2631618985482383,-0.2034008951200506, ,0.09905735026980249,0.05611883001683665,0.034181998969957085,0.17412662988226815,0.09231678415683052,0.07814129910537242, ,1.5323328971862793
0.013895320218596794,0.0216494860049679,-0.08944278492351859, ,0.01464479632753804,0.021336444476437958,-0.09006950555847129, ,0.001025908470933731, ,0.014533345557217851,0.0028230879012692382,-0.032409221615985126,0.04635169152919956,0.01756788873247226,-0.12673775527004008, ,0.035630683464365855, ,0.04956888405665873, ,0.0005602204100855668, ,0.15742790964106662,-0.2095331883434594,0.09985192241000002,3.0147123174770067,0.2631618985482383,-0.2034008951200506, ,0.09905735026980249,0.05611883001683665,0.034181998969957085,0.17412662988226815,0.09231678415683052,0.07814129910537242, ,1.5345749855041504
0.013895320218596794,0.0216494860049679,-0.08944278492351859, ,0.014680321179775123,0.021337219163196586,-0.09014197480409109, ,0.0010966328367396755, ,0.014533345557217851,0.0028230879012692382,-0.032409221615985126,0.04635169152919956,0.01756788873247226,-0.12673775527004008, ,0.035630683464365855, ,0.04956888405665873, ,0.0005639979623859478, ,0.15742790964106662,-0.2095331883434594,0.09985192241000002,3.0147123174770067,0.2631618985482383,-0.2034008951200506, ,0.09905735026980249,0.05611883001683665,0.034181998969957085,0.17412662988226815,0.09231678415683052,0.07814129910537242, ,1.5368340015411377
0.013895320218596794,0.0216494860049679,-0.08944278492351859, ,0.014715829107788085,0.021337903475311514,-0.09021433365383338, ,0.0011685914398451523, ,0.014533345557217851,0.0028230879012692382,-0.032409221615985126,0.04635169152919956,0.01756788873247226,-0.12673775527004008, ,0.035630683464365855, ,0.04956888405665873, ,0.0005682258888017465, ,0.15742790964106662,-0.2095331883434594,0.09985192241000002,3.0147123174770067,0.2631618985482383,-0.2034008951200506, ,0.09905735026980249,0.05611883001683665,0.034181998969957085,0.17412662988226815,0.09231678415683052,0.07814129910537242, ,1.5391349792480469
0.014043850012980722,0.021667815341200027,-0.08975856011565835, ,0.014751320083442845,0.02133849802058373,-0.09028658214527388, ,0.000942216037868644, ,0.014451109882844553,0.0009881535596060614,-0.02879282020494648,-0.008834341592442103,-0.002894439976140767,-0.007329334564618767, ,0.03223100246126055, ,0.009295352886040163, ,0.0005708230426147112, ,0.15848592404483539,-0.20889992424777298,0.10018377265000002,3.015551077250945,0.2639817175468309,-0.20259918521969897, ,0.10650610724856428,0.06416290842357726,0.03022544880455408,0.052213170688543774,0.06644123444468941,0.09584928988189642, ,1.5415139198303223
0.014043850012980722,0.021667815341200027,-0.08975856011565835, ,0.0147867940789293,0.021339003405522902,-0.0903587203161099, ,0.0010100868479383336, ,0.014451109882844553,0.0009881535596060614,-0.02879282020494648,-0.008834341592442103,-0.002894439976140767,-0.007329334564618767, ,0.03223100246126055, ,0.009295352886040163, ,0.0005738524481686672, ,0.15848592404483539,-0.20889992424777298,0.10018377265000002,3.015551077250945,0.2639817175468309,-0.20259918521969897, ,0.10650610724856428,0.06416290842357726,0.03022544880455408,0.052213170688543774,0.06644123444468941,0.09584928988189642, ,1.543916940689087
0.014043850012980722,0.021667815341200027,-0.08975856011565835, ,0.014822251066760404,0.021339420235347677,-0.09043074820416015, ,0.0010796241810911834, ,0.014451109882844553,0.0009881535596060614,-0.02879282020494648,-0.008834341592442103,-0.002894439976140767,-0.007329334564618767, ,0.03223100246126055, ,0.009295352886040163, ,0.0005773166381201913, ,0.15848592404483539,-0.20889992424777298,0.10018377265000002,3.015551077250945,0.2639817175468309,-0.20259918521969897, ,0.10650610724856428,0.06416290842357726,0.03022544880455408,0.052213170688543774,0.06644123444468941,0.09584928988189642, ,1.546328067779541
0.014043850012980722,0.021667815341200027,-0.08975856011565835, ,0.01485769101977201,0.021339749113986915,-0.09050266584736527, ,0.0011505033566800232, ,0.014451109882844553,0.0009881535596060614,-0.02879282020494648,-0.008834341592442103,-0.002894439976140767,-0.007329334564618767, ,0.03223100246126055, ,0.009295352886040163, ,0.0005812158674981494, ,0.15848592404483539,-0.20889992424777298,0.10018377265000002,3.015551077250945,0.2639817175468309,-0.20259918521969897, ,0.10650610724856428,0.06416290842357726,0.03022544880455408,0.052213170688543774,0.06644123444468941,0.09584928988189642, ,1.5519249439239502
0.014043850012980722,0.021667815341200027,-0.08975856011565835, ,0.01489311391112202,0.021339990644081132,-0.09057447328378687, ,0.0012224698354776592, ,0.014780867605839574,0.00019515898030691287,-0.026342781340159518,-0.013058323530399225,-0.023917068969772897,0.01123917507402983, ,0.030206857879369192, ,0.027249464508748097, ,0.000585548664579092, ,0.1594667111198619,-0.20832071928220616,0.10043784549000001,3.015551077250945,0.2645282635458927,-0.20173799699223566, ,0.11433366452827805,0.06682883208343011,0.02775054271777004,0.028420970570601535,0.06674167176500952,0.0864651510219113, ,1.5543980598449707
0.014172386921210159,0.021672129633147623,-0.09000041259520791, ,0.014928519714290166,0.0213401454269832,-0.09064617055160788, ,0.0010483099027327086, ,0.014780867605839574,0.00019515898030691287,-0.026342781340159518,-0.013058323530399225,-0.023917068969772897,0.01123917507402983, ,0.030206857879369192, ,0.027249464508748097, ,0.0005886544447009284, ,0.1594667111198619,-0.20832071928220616,0.10043784549000001,3.015551077250945,0.2645282635458927,-0.20173799699223566, ,0.11433366452827805,0.06682883208343011,0.02775054271777004,0.028420970570601535,0.06674167176500952,0.0864651510219113, ,1.55696702003479
0.014172386921210159,0.021672129633147623,-0.09000041259520791, ,0.014963908403077125,0.021340214062759218,-0.09071775768913258, ,0.0011185965250710057, ,0.014780867605839574,0.00019515898030691287,-0.026342781340159518,-0.013058323530399225,-0.023917068969772897,0.01123917507402983, ,0.030206857879369192, ,0.027249464508748097, ,0.0005921873919033955, ,0.1594667111198619,-0.20832071928220616,0.10043784549000001,3.015551077250945,0.2645282635458927,-0.20173799699223566, ,0.11433366452827805,0.06682883208343011,0.02775054271777004,0.028420970570601535,0.06674167176500952,0.0864651510219113, ,1.5592010021209717
0.01433255690324153,0.02166915723522777,-0.09027736207544475, ,0.014999279951604307,0.021340197150190282,-0.09078923473478692, ,0.00090263391258475, ,0.014290027463790208,-0.0004975860388407669,-0.024794412526159382,-0.005003772855111702,-0.034903915486817566,0.01616750984430739, ,0.02862193860134734, ,0.035260625185317994, ,0.0005942433291264508, ,0.16072551657836048,-0.20755616872765792,0.10072951074000001,3.015551077250945,0.2653480825444854,-0.2009362870918841, ,0.11138138680571688,0.07113713760005305,0.026070067954173493,0.018116578540041613,0.0780812805432399,0.07152507121672491, ,1.5613679885864258
0.01433255690324153,0.02166915723522777,-0.09027736207544475, ,0.015034634334313105,0.021340095286773064,-0.09086060172711695, ,0.0009702386182911812, ,0.014290027463790208,-0.0004975860388407669,-0.024794412526159382,-0.005003772855111702,-0.034903915486817566,0.01616750984430739, ,0.02862193860134734, ,0.035260625185317994, ,0.0005967169823446398, ,0.16072551657836048,-0.20755616872765792,0.10072951074000001,3.015551077250945,0.2653480825444854,-0.2009362870918841, ,0.11138138680571688,0.07113713760005305,0.026070067954173493,0.018116578540041613,0.0780812805432399,0.07152507121672491, ,1.5636301040649414
0.01433255690324153,0.02166915723522777,-0.09027736207544475, ,0.015069971525964631,0.021339909068720776,-0.0909318587047914, ,0.0010394953192680544, ,0.014290027463790208,-0.0004975860388407669,-0.024794412526159382,-0.005003772855111702,-0.034903915486817566,0.01616750984430739, ,0.02862193860134734, ,0.035260625185317994, ,0.0005996109584029628, ,0.16072551657836048,-0.20755616872765792,0.10072951074000001,3.015551077250945,0.2653480825444854,-0.2009362870918841, ,0.11138138680571688,0.07113713760005305,0.026070067954173493,0.018116578540041613,0.0780812805432399,0.07152507121672491, ,1.565845012664795
0.01433255690324153,0.02166915723522777,-0.09027736207544475, ,0.015105291501638824,0.02133963909096479,-0.0910030057065987, ,0.0011100719104603228, ,0.014290027463790208,-0.0004975860388407669,-0.024794412526159382,-0.005003772855111702,-0.034903915486817566,0.01616750984430739, ,0.02862193860134734, ,0.035260625185317994, ,0.0006029256399098288, ,0.16072551657836048,-0.20755616872765792,0.10072951074000001,3.015551077250945,0.2653480825444854,-0.2009362870918841, ,0.11138138680571688,0.07113713760005305,0.026070067954173493,0.018116578540041613,0.0780812805432399,0.07152507121672491, ,1.5681309700012207
0.014480347264567166,0.021661925253019774,-0.09052608717492523, ,0.015140594236734146,0.021339285947154975,-0.09107404277144901, ,0.0009166665269913117, ,0.01426012993064846,-0.001346874518708352,-0.023805213219538136,-0.013562945179825963,-0.039602208073240656,0.010969625877710954, ,0.02778225248311942, ,0.041860252286965695, ,0.0006049497746651931, ,0.1617989764478777,-0.20686884550185194,0.10097450955000001,3.0159704571379136,0.2660312650433126,-0.2002681955082578, ,0.11151226975143451,0.07573578735711954,0.024811232897196264,0.010693781717534039,0.07772458581379806,0.06333430320765768, ,1.5705339908599854
0.014480347264567166,0.021661925253019774,-0.09052608717492523, ,0.015175879706967085,0.021338850229661328,-0.09114496993837322, ,0.000985473857614637, ,0.01426012993064846,-0.001346874518708352,-0.023805213219538136,-0.013562945179825963,-0.039602208073240656,0.010969625877710954, ,0.02778225248311942, ,0.041860252286965695, ,0.0006073890316071768, ,0.1617989764478777,-0.20686884550185194,0.10097450955000001,3.0159704571379136,0.2660312650433126,-0.2002681955082578, ,0.11151226975143451,0.07573578735711954,0.024811232897196264,0.010693781717534039,0.07772458581379806,0.06333430320765768, ,1.5727660655975342
0.014480347264567166,0.021661925253019774,-0.09052608717492523, ,0.015211147888371454,0.021338332529574955,-0.09121578724652346, ,0.0010556836605639841, ,0.01426012993064846,-0.001346874518708352,-0.023805213219538136,-0.013562945179825963,-0.039602208073240656,0.010969625877710954, ,0.02778225248311942, ,0.041860252286965695, ,0.0006102444114094494, ,0.1617989764478777,-0.20686884550185194,0.10097450955000001,3.0159704571379136,0.2660312650433126,-0.2002681955082578, ,0.11151226975143451,0.07573578735711954,0.024811232897196264,0.010693781717534039,0.07772458581379806,0.06333430320765768, ,1.5750079154968262
0.014480347264567166,0.021661925253019774,-0.09052608717492523, ,0.015246398757297993,0.021337733436708795,-0.09128649473517207, ,0.001127011482176952, ,0.01426012993064846,-0.001346874518708352,-0.023805213219538136,-0.013562945179825963,-0.039602208073240656,0.010969625877710954, ,0.02778225248311942, ,0.041860252286965695, ,0.0006135150890725349, ,0.1617989764478777,-0.20686884550185194,0.10097450955000001,3.0159704571379136,0.2660312650433126,-0.2002681955082578, ,0.11151226975143451,0.07573578735711954,0.024811232897196264,0.010693781717534039,0.07772458581379806,0.06333430320765768, ,1.5772340297698975
0.014480347264567166,0.021661925253019774,-0.09052608717492523, ,0.015281632290413854,0.021337053539599093,-0.09135709244371305, ,0.001199236873841084, ,0.01426012993064846,-0.001346874518708352,-0.023805213219538136,-0.013562945179825963,-0.039602208073240656,0.010969625877710954, ,0.02778225248311942, ,0.041860252286965695, ,0.0006171988738823999, ,0.1617989764478777,-0.20686884550185194,0.10097450955000001,3.0159704571379136,0.2660312650433126,-0.2002681955082578, ,0.11151226975143451,0.07573578735711954,0.024811232897196264,0.010693781717534039,0.07772458581379806,0.06333430320765768, ,1.579477071762085
0.01463096325717082,0.021645517628590454,-0.09077667050160594, ,0.015316848464701827,0.02133629342550625,-0.09142758041166035, ,0.0009948576967033804, ,0.015257844590105207,-0.001441777329587354,-0.026116326535168242,-0.02227808905798961,0.023594375311158485,-0.07594335698801272, ,0.030281067601645877, ,0.03244989443499505, ,0.0006195592415250311, ,0.16303461370775363,-0.20598845395419035,0.10125321190000001,3.0172285967988213,0.2668510840419052,-0.19938480686776563, ,0.11502659582844943,0.08223305161045995,0.027275362191780828,0.12939035612870547,0.06257540022646907,0.11841371466218242, ,1.5817549228668213
0.01463096325717082,0.021645517628590454,-0.09077667050160594, ,0.015352047257460309,0.02133545368041616,-0.09149795867864942, ,0.0010660011359157292, ,0.015257844590105207,-0.001441777329587354,-0.026116326535168242,-0.02227808905798961,0.023594375311158485,-0.07594335698801272, ,0.030281067601645877, ,0.03244989443499505, ,0.0006223321725460913, ,0.16303461370775363,-0.20598845395419035,0.10125321190000001,3.0172285967988213,0.2668510840419052,-0.19938480686776563, ,0.11502659582844943,0.08223305161045995,0.027275362191780828,0.12939035612870547,0.06257540022646907,0.11841371466218242, ,1.5840981006622314
0.01463096325717082,0.021645517628590454,-0.09077667050160594, ,0.015387228646302148,0.02133453488904089,-0.09156822728443552, ,0.0011380728199633027, ,0.015257844590105207,-0.001441777329587354,-0.026116326535168242,-0.02227808905798961,0.023594375311158485,-0.07594335698801272, ,0.030281067601645877, ,0.03244989443499505, ,0.0006255157567894075, ,0.16303461370775363,-0.20598845395419035,0.10125321190000001,3.0172285967988213,0.2668510840419052,-0.19938480686776563, ,0.11502659582844943,0.08223305161045995,0.027275362191780828,0.12939035612870547,0.06257540022646907,0.11841371466218242, ,1.5864710807800293
