NicholasDascanio/dvrk_moveit_final/test/execution/third_experiment_notsharpbends/thirdexp_500vel3.0/thirdexp_500vel3.0_1.csv
Current Position (x),Current Position (y),Current Position (z), ,Planned Position (x),Planned Position (y),Planned Position (z), ,Position Error,,Cartesian linear Velocity(x),Cartesian linear Velocity(y),Cartesian linear Velocity(z),Cartesian Angular Velocity(x),Cartesian Angular Velocity(y),Cartesian Angular Velocity(z), ,Total Linear Velocity, ,Total Angular Velocity, ,MSE, ,Joint 1 Position,Joint 2 Position,Joint 3 Position,Joint 4 Position,Joint 5 Position,Joint 6 Position, ,Joint 1 Velocity,Joint 2 Velocity,Joint 3 Velocity,Joint 4 Velocity,Joint 5 Velocity,Joint 6 Velocity, ,Time Stamp
0.008423138777693908,0.02094973404277138,-0.0757441595965957, ,0.00854158755226149,0.0209257754462786,-0.0758349020787391, ,0.0001511235408796753, ,9.763613879397058e-06,-0.00013380706593207493,-3.592332642060047e-05,-0.01973854503065786,0.08265320789504076,0.042633417870733666, ,0.00013888896439407132, ,0.08497742603343629, ,1.2593628406639609e-05, ,0.11495287883283183,-0.23979857847754524,0.08579365736000001,3.00003402143309,0.25236761506676847,-0.32463143503180836, ,7.320050715697634e-05,0.0017557587392674405,0.0,0.0,0.0,0.09488033031594267, ,0.022037029266357422
0.008427070420409731,0.02098380468000025,-0.07576615616800642, ,0.008594910280141673,0.020912839838548743,-0.07598726894792956, ,0.00028652589530864074, ,-4.644789981693594e-05,0.0032523107434768396,-0.0013327198913091589,0.27565478457939147,0.32678625557529695,0.19829798002418375, ,0.003515085331570682, ,0.42752171534839, ,1.9893156190378005e-05, ,0.1150378288944483,-0.23969818295018033,0.08583254606000001,3.00003402143309,0.2564667100597317,-0.3119649390751508, ,0.0030334190561544143,0.0021934120507756823,0.0028469725683646116,0.0,0.34654062107693134,0.32450606416404026, ,0.04924607276916504
0.00844524507278166,0.021047064971477812,-0.0758749763730006, ,0.008648219551916905,0.020899936822976948,-0.07613927372491217, ,0.0003642779453782271, ,0.0008210277148744958,0.002174112111103537,-0.004974469149559047,0.17401446336019605,0.017976444393023535,0.02566195887746573, ,0.005490554917324279, ,0.17494052134513163, ,2.5060230673954473e-05, ,0.115200006284807,-0.23945105549820514,0.08596865651,3.0004534013200588,0.262751989048942,-0.3085138949304272, ,0.008196030480587155,0.011041513086451587,0.005149955227934046,0.0010721188415644305,0.017917467070864043,-0.03292249018535509, ,0.07390213012695312
0.0084825389805982,0.0210450353770956,-0.07601665763162074, ,0.008701515032347838,0.02088706647845263,-0.07629091672615886, ,0.00038486716554572264, ,0.002113547994181388,-0.0018142779693778176,-0.0068149095527164005,-0.1419852966176287,-0.4988107779190629,-0.2768122063901273, ,0.007362179153320239, ,0.5186251214597277, ,2.825701302648252e-05, ,0.1154471337367822,-0.23915759164898462,0.08610476696000001,3.0004534013200588,0.26124898755152215,-0.3196217877509915, ,0.013462468656330086,0.018120477670129993,0.005800732527312455,0.0010721188415644305,-0.2282165704930994,-0.5234837474564755, ,0.09638619422912598
0.008524609881393926,0.02101185012101117,-0.07615120917598756, ,0.008754796387193146,0.020874228883621584,-0.07644219826835974, ,0.00039572728527646766, ,0.0022591315967564383,-0.00018672452768504332,-0.007604792565119055,-0.09734763262978488,0.1265958849607589,0.06801062587446811, ,0.007935452827608047, ,0.15969683666931528, ,3.0433112161321797e-05, ,0.11571742938738006,-0.23883323686826718,0.08622013677000001,3.0004534013200588,0.2567399830592626,-0.3182320016529453, ,0.01706165795729428,0.02057609313930416,0.0073915598700696064,0.0010721188415644305,-0.045331849240972034,0.17188430613496292, ,0.12210822105407715
0.008577678939685026,0.021029615892578072,-0.07631144360524197, ,0.00880806328320833,0.02086142411688675,-0.07659311866842225, ,0.0004008818533788674, ,0.001994844660005042,-5.507655871015999e-05,-0.004361046133801231,0.09934939531917736,-0.02280867034450774,-0.008890976977551684, ,0.004795952671369125, ,0.10193398742123828, ,3.199038202850969e-05, ,0.11621168429133043,-0.23818452730683232,0.08639124705000001,3.0006630912635437,0.26015589555339863,-0.3141564350735486, ,0.02081073279791026,0.027707136221451323,0.004638558974956319,0.012840913608714654,0.12316547237974618,-0.025129792445752308, ,0.14363503456115723
0.008651695354159477,0.021004660016790185,-0.07646379648403175, ,0.008861315388144952,0.020848652256408046,-0.07674367824347142, ,0.0003829004821289335, ,0.00232992340153507,-0.0011534665552568248,-0.004160446506591747,0.04987440209508233,-0.13846600352975988,-0.06501153402780173, ,0.004905949784224077, ,0.1471743527813148, ,3.286533566522964e-05, ,0.11695306664725598,-0.2372577993619254,0.08654161669,3.000872781207028,0.261522260551053,-0.31355536056756095, ,0.024514838945613737,0.033215590324981024,0.004057262231278656,0.005074961705456316,0.05656511939859321,-0.14139412391695622, ,0.1699061393737793
0.008704655397832254,0.020977352629267212,-0.07657881608517698, ,0.008914552370749467,0.02083591338010262,-0.07689387731084932, ,0.0004041353441190288, ,0.0027697017116405072,-0.0012819458562284588,-0.006539923464291718,-0.053121861012978305,-0.008469722246690828,0.0037642078124345488, ,0.007217009884194358, ,0.053792827593041014, ,3.378584770750686e-05, ,0.11744732155120634,-0.23657819886899362,0.08664791247,3.0010824711505126,0.261522260551053,-0.3140454330084044, ,0.025448361908948988,0.03385549110184473,0.006214908903628561,0.0,-0.015809772894255475,0.022253483243682114, ,0.1931471824645996
0.008765945731453336,0.020960266487600528,-0.07673867586388168, ,0.008967773900762374,0.020823207565644958,-0.07704371618811412, ,0.00039060127677990555, ,0.00286543613208406,-0.0007266126114507652,-0.007899938192710605,-0.039957934313319864,-0.01415095140562685,-0.015396578479837745, ,0.00843491040633034, ,0.04238969107581037, ,3.435913900864639e-05, ,0.11798791285240207,-0.2358754301774392,0.08680605985,3.0015018510374816,0.261522260551053,-0.3139637542682638, ,0.024214580647734314,0.03184461126123181,0.007683941881331405,0.014942679162039247,-0.008532564831812127,0.008888874837863952, ,0.21540212631225586
0.008841624518758744,0.02092926977268486,-0.0769387279108524, ,0.009020979648917227,0.02081053489046739,-0.07719319519304071, ,0.0003331963875459454, ,0.002547058542746979,-0.0011413293109643653,-0.006087854225580981,-0.030938401796709807,-0.01739221791939629,-0.01628350694406506, ,0.006697171708129557, ,0.03549188557301814, ,3.4257227219033466e-05, ,0.11865206787958536,-0.23491008856816115,0.08699791077,3.0015018510374816,0.2613856240512876,-0.31360730014414573, ,0.02292750460460758,0.032299843961358335,0.005824062712979892,0.014119357903371144,0.0,0.0025844754911243306, ,0.24178004264831543
0.008889508183760431,0.020903587779630115,-0.07705337320852779, ,0.009074169286939524,0.020797895431759996,-0.07734231464361906, ,0.0003588282992438307, ,0.0021658809757651156,-0.0012144440525336648,-0.005666741033362387,-0.03040651004497326,-0.015028725654525728,-0.014402343492101757, ,0.006186911078810544, ,0.033917818946250705, ,3.440237031772539e-05, ,0.11909226365341616,-0.23423821080810361,0.08710679913000001,3.0015018510374816,0.261522260551053,-0.31355536056756095, ,0.018698904740585377,0.031748725847598115,0.005361431006395154,0.011542017743300008,0.0,0.0011387974576887176, ,0.26405811309814453
0.008950447385910767,0.020885096576216185,-0.07723249268283126, ,0.009127342487546004,0.020785289266470892,-0.07749107485805545, ,0.00032881319530214545, ,0.0018846533972330247,-0.00017481141531563906,-0.006890537992909619,-0.0010737887985318656,-0.01629819580526431,-0.013191763177040586, ,0.0071457673688945095, ,0.01633352972744161, ,3.427769402366713e-05, ,0.11958651855736653,-0.2334196011234358,0.08728179828,3.0021309208679354,0.2620688065501148,-0.31367431722178435, ,0.013535435966120495,0.024732067124959806,0.006821760822269807,0.009644055680200549,0.021086947452945093,-0.009011258534741138, ,0.29350805282592773
0.008987381884584813,0.020871792029097273,-0.07735335200793607, ,0.00918049892444332,0.020772716471306827,-0.07763947615477022, ,0.0003591339369048448, ,0.0016722718827503246,-0.000497123662964981,-0.005121402790199644,-0.006295525850269047,-0.0020499156898339766,-0.003905833666559407, ,0.005410396632926438, ,0.006620860710177605, ,3.440161066509269e-05, ,0.11987225967371284,-0.23290217802086277,0.08739846438000001,3.0021309208679354,0.2620688065501148,-0.313184244780941, ,0.013496933801517676,0.023061225166092537,0.005010635898081159,0.007840162480704868,0.017633127753028055,0.008327948841950154, ,0.31602001190185547
0.009021960566720716,0.02086644720633238,-0.07746330949541289, ,0.009233638272327361,0.020760177122732683,-0.0777875188523991, ,0.0004015127505778518, ,0.0017299367092488615,-0.00014007246184006812,-0.005632782445122478,-0.007787494412431169,0.0005611589151376646,-0.0012376641476415833, ,0.005894110567901885, ,0.007807686141314185, ,3.505337133595806e-05, ,0.12015027805718492,-0.23246970497990618,0.08750735274,3.0021309208679354,0.2624787160494111,-0.31335514101174916, ,0.013378956937610431,0.019729093879099956,0.0055929815730337085,0.006647490586208039,0.01361057859256574,0.012134456668371832, ,0.3367021083831787
0.009060621766053573,0.020864203406511232,-0.07760193928195099, ,0.00928676020688215,0.020747671296972126,-0.07793520326979153, ,0.00041926508627048554, ,0.0019813370190460457,0.00026521041740965165,-0.007651031433971122,0.007470270984571158,-0.014439068239790666,-0.017022420602528045, ,0.007907864120744556, ,0.016257048132986344, ,3.574526963093715e-05, ,0.12042057370778278,-0.2320063410074527,0.08764475948000001,3.002550300754904,0.262751989048942,-0.31325126185857977, ,0.013382730441188942,0.02197705918445363,0.0076913623949782725,0.014693534262208782,0.026374718781416447,-0.00917590642469382, ,0.35660719871520996
0.00910502554934291,0.020872206150750104,-0.07777627435475076, ,0.009339864404778877,0.020735199070007756,-0.07808252972601117, ,0.0004095272648089039, ,0.0023699787384968253,0.0005100298018790857,-0.009750581592343228,-0.015268121597280342,0.009317637857615656,0.0016935326826996442, ,0.010047426088739066, ,0.01788669405505555, ,3.629759565691495e-05, ,0.12071403755700331,-0.23156614523362193,0.08781975863000001,3.002759990698389,0.2630252620484728,-0.31290234648498866, ,0.014982150546016858,0.023385150704403838,0.009784282260442262,0.008359281316073101,0.011735763926158977,0.02387795221990327, ,0.376453161239624
0.009144033762926454,0.020879116888742978,-0.07792360577983531, ,0.009392950543674923,0.020722760517581346,-0.07822949854033463, ,0.0004242372678901621, ,0.0022878343556645827,0.00010025167083548003,-0.007215438331898899,0.017798985861115443,-0.01847633919918954,-0.007355951469167131, ,0.007570124619707423, ,0.02565499928532807, ,3.687830343654547e-05, ,0.1209920559404754,-0.2311491176584138,0.08796883198000001,3.002759990698389,0.2637084445473001,-0.3132143997830491, ,0.01825994642264206,0.024116122378264496,0.007296752872194229,0.006986269652982174,0.040174833857568336,-0.008299427349026745, ,0.39828920364379883
0.009198596942386388,0.020867660349180923,-0.0780778997692821, ,0.009446018302213014,0.02071035571519392,-0.07837611003225194, ,0.0004182002368636092, ,0.0024243218157932447,-0.0008450870322998026,-0.006118012380445987,-0.03226365997499159,-0.0006160493017559297,0.007296027795791673, ,0.00663487632484455, ,0.03226954079550356, ,3.736584866781496e-05, ,0.12143997444718041,-0.2305467444942243,0.08812049791000001,3.0029696806418733,0.2638450810470655,-0.3125090302853399, ,0.021182353026444372,0.027993198099843887,0.005932518256983241,0.0,0.0,0.023605739802091144, ,0.41872119903564453
0.009248795317436153,0.020853508389568103,-0.07819812513418822, ,0.009499067360019969,0.020697984738106166,-0.07852236452146566, ,0.00043812655902738536, ,0.002377111411131766,-0.0007130277863782526,-0.005681882827313125,0.036089961405623816,-0.04024760686591481,-0.024457976608421167, ,0.0062002306205814735, ,0.05405881211024476, ,3.791334286683136e-05, ,0.12188789295388544,-0.22993664859716056,0.08823975659000001,3.0033890605288422,0.2646649000456581,-0.3127691440068156, ,0.02168081826787087,0.03162177326173635,0.0056726536752136755,0.014664859811141202,0.060464840770401346,-0.03445813880939969, ,0.4390530586242676
0.009305358642495088,0.02082807606124001,-0.07833555522556741, ,0.009552097397706074,0.020685647661338263,-0.07866826232789056, ,0.0004380181256043026, ,0.0025487565142803025,-0.0010542498845734658,-0.006043027320776514,-0.016082076699269233,-0.0063264828105715175,-0.006220705388150691, ,0.006642723973481121, ,0.01728171194224665, ,3.840974307094839e-05, ,0.12238987059071003,-0.22921843443985768,0.08837197817,3.0033890605288422,0.2648015365454236,-0.3125538469499498, ,0.02264303067489162,0.03202731743451596,0.005862646860507914,0.011246964539651494,0.01721736026669187,0.01313997566614403, ,0.4595050811767578
0.009361625986504045,0.020806244607333445,-0.07847574343225516, ,0.009605108096863864,0.02067334455967047,-0.07881380377165308, ,0.0004372993869283658, ,0.003032221360561679,-0.0008616869849415029,-0.007840676171633776,-0.025031119524736356,-0.028852445540053062,-0.015280263566232752, ,0.008450625637660787, ,0.03819712723060353, ,3.885882002825148e-05, ,0.12288412549466039,-0.22852338848117745,0.08850808862000001,3.0033890605288422,0.2650748095449545,-0.3123682890566399, ,0.02573127482604956,0.03353248818320522,0.007672837919075146,0.009266031006756813,0.005955758112372098,-0.0069056828041991385, ,0.47951602935791016
0.00942775595610565,0.020791116999407333,-0.07865008582032819, ,0.009658099140067232,0.020661075507643414,-0.07895898917309148, ,0.0004066817592739387, ,0.002942566363506057,-0.0006012160030692297,-0.008381631787289005,-0.0027872618364617203,-0.007731426777108718,-0.005331531081337263, ,0.008903477348973112, ,0.008218500300471518, ,3.912620208937671e-05, ,0.12343243952873034,-0.2277820061252519,0.08868049519000001,3.0040181303592957,0.2656213555440162,-0.3124872457108633, ,0.024000238128090736,0.03462128477142312,0.008309239186228482,0.011299548007729587,0.032924274278412026,0.010688265263577964, ,0.5005371570587158
0.009486495614547974,0.0207753482668219,-0.07881252907199136, ,0.009711070210870552,0.020648840579557577,-0.07910381885275437, ,0.0003889571706851271, ,0.002880894961157273,-0.0009811572301133458,-0.007914509374620422,-0.034906584179545876,0.020068160048716893,0.009234649106842026, ,0.008479486065109112, ,0.040264135850288214, ,3.929206403478543e-05, ,0.12388808076830958,-0.22714101929669128,0.08882956854000001,3.0040181303592957,0.2658946285435471,-0.3121383303372722, ,0.023641490174008666,0.035108006495919636,0.007709976534365925,0.009032422977036882,0.007796023410324897,0.023262727960157045, ,0.5226430892944336
0.009538526771031876,0.020758523427640556,-0.07894510569833854, ,0.009764020993807571,0.020636639849474458,-0.07924829313140168, ,0.00039702124716342396, ,0.0024450535654427018,-0.0008854312021399822,-0.0057821923661978145,0.010068376119012058,-0.02239749049209579,-0.008789943905911575, ,0.006340033431404238, ,0.02455646089227821, ,3.9479911094743676e-05, ,0.12437461293938573,-0.22643825060513684,0.08897086415000001,3.0040181303592957,0.26671444754213974,-0.31231676531860736, ,0.021865654736974834,0.03118532420587275,0.005701077852541161,0.007349041014631621,0.03932863241652021,-0.008529785663423554, ,0.5429642200469971
0.009615435886819092,0.02072432634254498,-0.0791313268782676, ,0.009816951174390508,0.02062447339121613,-0.07939241233000283, ,0.00034459343598196914, ,0.002478616832443762,-0.0007375834816383555,-0.006768619580967611,-0.021740120713971193,0.007585444776893047,0.0020562132950481295, ,0.007245811329748896, ,0.023025459971831048, ,3.9435220411949e-05, ,0.1250233225008206,-0.22545746353011034,0.08915104846,3.004856890133234,0.26712435704143606,-0.3119159103684315, ,0.02016938184027009,0.02903823181103757,0.006634240533111204,0.008907710479068867,0.011484419710658703,0.02778461936931543, ,0.5656402111053467
0.009667097248584694,0.02071634070427119,-0.0792863886825293, ,0.00986986043910912,0.020612341278365667,-0.07953617676973754, ,0.00033811666704182907, ,0.0024495767472225093,-0.0002883239512480773,-0.008083045098201201,-0.014947793827404502,0.0012551851130645705,0.04164923938688173, ,0.008450986628847012, ,0.015000399843677799, ,3.936774926068108e-05, ,0.12542490461028027,-0.22487053583166927,0.08930530697000001,3.0050665800767185,0.26767090304049784,-0.31187150954237386, ,0.019005996707084076,0.028134284482203013,0.008032683570347959,-0.030294653197295643,0.022340939091794413,0.027570707488068773, ,0.5856850147247314
0.009693141173870955,0.020711086896707476,-0.07936953703156105, ,0.009922748475429677,0.0206002435842674,-0.07967958677199441, ,0.0004014182287646644, ,0.002421828851696977,-0.0003961068163692142,-0.007897374376959575,-0.018803373102014603,-0.011706176285690331,0.027761770895024195, ,0.00826986563655926, ,0.02214952307671118, ,3.955034028943509e-05, ,0.12561797293213586,-0.22457707198244875,0.08938697324000001,3.0050665800767185,0.26767090304049784,-0.31162647332195215, ,0.018621848814456592,0.028051120768096596,0.007808240941176472,-0.024447667667056375,0.014578263890376725,0.01194901164261439, ,0.6075131893157959
0.00975770202760017,0.020698044361763555,-0.07955300858059376, ,0.009975614971794092,0.020588180382026814,-0.07982264265837143, ,0.00036367386652036145, ,0.002284655028563239,-0.00033502072992747534,-0.0064335234470699,0.027747213887886747,-0.030639178672254297,-0.005005145029993466, ,0.006835357447348207, ,0.04133602710988155, ,3.9728051357874486e-05, ,0.12615084150045736,-0.2238125214279005,0.08956975013000001,3.004856890133234,0.2686273585388559,-0.31183464746684314, ,0.018952854315652242,0.02726923608002034,0.006483032771672773,0.0,0.05185154340228251,-0.021295007571830307, ,0.625258207321167
0.009782667538071716,0.02069340466847013,-0.07962499685657069, ,0.010028459617618819,0.02057615174451141,-0.07996534475067482, ,0.0004358883842981749, ,0.0023564444386922163,-0.00025661663754204594,-0.0071613319345514,-0.010085708716061174,0.01985462120883105,0.0009102483847775646, ,0.007543431418667008, ,0.022269429377876945, ,4.015894177187149e-05, ,0.12633618708943875,-0.22354222577730265,0.08964104608000001,3.005276270020203,0.26876399503862136,-0.31161935040997735, ,0.017717875571036365,0.024979452897728554,0.007142964807174889,0.015773662215377675,0.019993191876158396,0.03601768216121051, ,0.643496036529541
0.009831890925821348,0.02068756555338986,-0.07977923030487316, ,0.01008128210329402,0.02056415774435016,-0.08010769337091907, ,0.00043048046702430254, ,0.002599493978853045,-0.0003259512411443537,-0.008391916391602734,-0.02772162175258086,0.018179762078741644,-0.02835712687248601, ,0.008791352221435985, ,0.033151048553740584, ,4.054620749119536e-05, ,0.12669143280165307,-0.22303252540760385,0.0897940083,3.005695649907172,0.2689006315383868,-0.31091398091226813, ,0.017691450700684334,0.027043870492582153,0.008296256,0.04016628420106147,0.0,0.030921421824735562, ,0.661959171295166
0.009881718596598293,0.020691824693301684,-0.07994672351397973, ,0.010134082120182547,0.020552198453934134,-0.08024968884132615, ,0.00041829514021789215, ,0.0026248753495949325,0.00019168821003560758,-0.008278317591456918,0.022452862262742786,0.002128192343222972,-0.01674198135431052, ,0.008686613673682215, ,0.02255349612722759, ,4.0870088457706844e-05, ,0.12705440124674164,-0.22253827050365346,0.08996382229000001,3.005695649907172,0.26972045053697946,-0.3112557733738845, ,0.01920990719807101,0.025482529956624804,0.008423485732416712,0.02649739788380189,0.04745011467144941,0.010566006818476442, ,0.6821880340576172
0.009945162383630527,0.02067957122794614,-0.08012607858764816, ,0.010186859360618972,0.020540273945416552,-0.08039133148432508, ,0.0003849418927591246, ,0.002672185724420572,-0.0007821754328573394,-0.006966222458384286,-0.03157870289922614,0.009086050207555959,-0.007729401176348853, ,0.0075020417416367564, ,0.03285986562307317, ,4.1064656192933254e-05, ,0.12755637888356622,-0.22187411547647015,0.09014141402,3.005695649907172,0.26999372353651035,-0.3105801430397311, ,0.021306003942180237,0.028361309491473634,0.006824683598971724,0.018304773474225062,0.0,0.030206631133982018, ,0.7006590366363525
0.00999874470183948,0.020669662547608717,-0.08026401829843761, ,0.010239613517908676,0.020528384290713207,-0.08053262162255218, ,0.0003874597761721879, ,0.002672462719485647,-0.0005466336477179157,-0.006946402790956032,0.01198038305016812,-0.004884250526190024,0.009210143916959049, ,0.007462799546152889, ,0.012937753478019263, ,4.1257278828974824e-05, ,0.12800429739027125,-0.2212794650451549,0.09028011705000001,3.0059053398506568,0.2709501790348684,-0.31095167466490325, ,0.02247145194375344,0.030106897702560524,0.0069649372627896815,0.0,0.04531510252806287,0.013300807894693588, ,0.7188730239868164
0.010027061664827332,0.02066237469556856,-0.08034021867077432, ,0.010292344286326851,0.020516529561502617,-0.08067355957885, ,0.0004502908320153675, ,0.002772942292855888,-0.0006107694668489958,-0.00802084643867451,-0.014223589371126012,-0.006617408589899478,-0.0025881998812245484, ,0.008508597175442108, ,0.015687592480904084, ,4.1640185202807843e-05, ,0.12822053391074953,-0.2209705557301859,0.09035530187000002,3.0063247197376257,0.2710868155346338,-0.3106546988678968, ,0.021349143207754953,0.030840734988128296,0.007936627563527655,0.0072571804278254185,0.018169355132728958,0.012317530958240525, ,0.7366790771484375
0.010088244444773874,0.020653413536545304,-0.08051689885601124, ,0.010345051361117484,0.02050470982922583,-0.08081414567626696, ,0.0004200217339669573, ,0.0030524613250640657,-0.000633278194838494,-0.008687779928948026,-0.006555619130032712,-0.01676319957669015,-0.004312366044806717, ,0.009230172344376996, ,0.017999470901472747, ,4.191006176288392e-05, ,0.12867617515032878,-0.22035273710024794,0.09052511586,3.00653440968111,0.2716333615336956,-0.31052861930169856, ,0.023807561856114094,0.033134406968739795,0.0087185613136289,0.00557538905720056,0.02726023197928489,0.0032573430324984096, ,0.7553830146789551
0.010140339358034905,0.020640592773745695,-0.0806541945823679, ,0.010397734438492604,0.020492925165087054,-0.08095438023805711, ,0.0004221011466133977, ,0.0030896437991452235,-0.0007953884927462437,-0.007797957194828767,-0.01583673056857281,-0.01592235632825361,-0.0037548390171982388, ,0.008425359225123366, ,0.02245714668677858, ,4.217315464927885e-05, ,0.1291163709241596,-0.21976580940180687,0.09066770776000001,3.00653440968111,0.2720432710329919,-0.3101277643515228, ,0.025421093372212905,0.03216845476558331,0.007717447441860466,0.00557538905720056,0.017033333469879498,0.006924964351639706, ,0.7752161026000977
0.01020698966615851,0.020614538712248255,-0.08080614673107493, ,0.010450393215631053,0.020481175640053948,-0.08109426358767936, ,0.0004000528964781473, ,0.002717678575006624,-0.001235146664727901,-0.006103750876770735,-0.0043755521142585605,-0.019720290193194875,-0.005795603538313217, ,0.006794640453042236, ,0.02019988349314046, ,4.2358561925266765e-05, ,0.1296955758897264,-0.21899353611438444,0.09081678111000001,3.00653440968111,0.27258981703205365,-0.31008336352546506, ,0.023647381400067474,0.03391599054984659,0.005963613448146762,0.00557538905720056,0.02892967950387839,-0.001244470160278767, ,0.7935590744018555
0.010261712338627188,0.020595826831491828,-0.08093507464629857, ,0.01050302739067773,0.020469461324857337,-0.08123379604879781, ,0.0004042717797772466, ,0.002894771075354284,-0.0007604899312818789,-0.007461645157995079,-0.012691646401235799,-0.009808533204911866,-0.007891532393630368, ,0.00803953935111461, ,0.016040111872303215, ,4.254758875872085e-05, ,0.13014349439643144,-0.21838344021732067,0.09094381753000001,3.0071634795115636,0.27299972653135,-0.3097641873154299, ,0.023236273643112336,0.0308006950855147,0.0073881315027829325,0.011560804484063804,0.01861463394344283,0.00971996318972327, ,0.8114762306213379
0.010293751015263442,0.02058615555319682,-0.08102071354125123, ,0.010555636662742507,0.020457782289992163,-0.08137297794528038, ,0.00045733357345306756, ,0.003036773277532407,-0.0010479786440510245,-0.008078591319123883,-0.04132531317136666,0.021548820183438913,0.006760212336840909, ,0.008693899520867819, ,0.04660614901062121, ,4.2877964079012656e-05, ,0.13061458110175914,-0.2177270079230116,0.09110066862,3.0071634795115636,0.27354627253041175,-0.3095564290090911, ,0.02435128087207359,0.03167454658159906,0.008081588797564689,0.010097495774767935,0.0235563693918934,-0.02959965814574572, ,0.8289721012115479
0.010352502004369137,0.020575970260805685,-0.08117961809815015, ,0.010608220731899428,0.02044613860571663,-0.08151180960119882, ,0.0004388616193865763, ,0.002882719582472686,-0.0005218419300535254,-0.007920340283636293,0.016438160570902444,-0.027499330942141083,-0.012283681631240754, ,0.008444772430310086, ,0.03203788841436703, ,4.314270967778192e-05, ,0.13086943128660855,-0.21740265314229418,0.09118752005000001,3.0071634795115636,0.2739561820297081,-0.3097273252398992, ,0.022670076817599326,0.03172749634184914,0.007948508742514971,0.009022953129933349,0.04495715717210482,-0.014497080180953987, ,0.8483631610870361
0.010415528035974389,0.020561540384941783,-0.08134998965440515, ,0.010660779299185576,0.02043453034205355,-0.08165029134082864, ,0.0004079961224937632, ,0.0031066340441003037,-0.0005634679801744978,-0.008502732178202934,-0.024799049571104643,0.0052321161664528205,0.011487150075835234, ,0.00907001244447286, ,0.025344976913926644, ,4.3312586556353565e-05, ,0.1313559634576847,-0.21676938904660775,0.09135603775000001,3.007373169455048,0.2740928185294736,-0.30902195574219005, ,0.024116122378264496,0.030135580043972942,0.008454783184713377,0.0006161501423162409,0.011247974258342721,0.03176495722645098, ,0.8660421371459961
0.01047532817821037,0.02055581831333273,-0.0815125956758617, ,0.010713312066600186,0.02042295756878983,-0.08178842348864794, ,0.0003877747940236387, ,0.0029121738550552272,-0.00016870594166688716,-0.008648572603353553,0.02917261444759694,-0.0237500756173024,-0.008186720217564142, ,0.009127268284229328, ,0.03761791431152783, ,4.3536954429375225e-05, ,0.13181932743013816,-0.2161747386152925,0.09152066658,3.0077925493420175,0.2750492740278316,-0.3093118086272215, ,0.021875735721178142,0.03051348603166263,0.008771371982378857,0.007844217510589533,0.05724916739123305,-0.012613738036553496, ,0.8843221664428711
0.010532658012723175,0.02054193019585263,-0.08166801074963509, ,0.010765818737103767,0.020411420355476842,-0.08192620636933752, ,0.00037156657527570754, ,0.0026697661505826996,-0.0008284806836526357,-0.006516437733365063,-0.02821082767843331,-0.002404729256655376,-0.000601387643014626, ,0.007090697587318663, ,0.02831313316024405, ,4.371093332070355e-05, ,0.13226724593684316,-0.21556464271822873,0.09167492509000001,3.0077925493420175,0.27545918352712795,-0.3086659174566241, ,0.021528344273700265,0.026867763748151408,0.0064074060820595346,0.006502802757486822,0.0014157798864359982,0.020090651340165824, ,0.9006240367889404
0.010560559648365166,0.02053667987789464,-0.08173749326886759, ,0.010818299014617063,0.020399918771430686,-0.0820636403077801, ,0.0004376129250245855, ,0.0028592043534132012,-0.0006167379674357127,-0.007557767464264252,0.00572410853980584,-0.005968840503872676,0.007407282923763982, ,0.008104027659068362, ,0.008269972846242842, ,4.40475992843344e-05, ,0.1324912051901957,-0.21527890160188243,0.09174492475000001,3.008002239285502,0.27586909302642426,-0.3086734562071511, ,0.02281176479770932,0.030931206505368573,0.007570727908745247,0.0007579507987264886,0.039627813737612705,0.013194942404724835, ,0.9163610935211182
0.01060474313147859,0.02052685719159962,-0.08185280987795651, ,0.010870752604020078,0.020388452885732544,-0.08220072562906028, ,0.0004593061737343033, ,0.0029410830047269824,-0.0006228658517891824,-0.007533647440015329,-0.011279085502421763,-0.004008565314228602,-0.011929589474362304, ,0.008111336194516197, ,0.011970227290314831, ,4.442692837665592e-05, ,0.1328387281695358,-0.21480781489655473,0.09186029456000001,3.0082119292289864,0.27641563902548605,-0.30854737664095283, ,0.022944134806206665,0.028747937460912077,0.007510047864214994,0.01810866194039943,0.018013557394049067,0.014580795505338223, ,0.9352591037750244
0.010679563152445705,0.020513308458044062,-0.08205658848980538, ,0.010923179211151227,0.02037702276722835,-0.08233746265846376, ,0.00039599605073771147, ,0.0029432036842744974,-0.0004911533446381039,-0.008588190036645292,-0.0048014508122303035,0.011029353410467431,-0.001800488361440988, ,0.009091792322782654, ,0.012029152914261097, ,4.463682356702905e-05, ,0.13341021040222842,-0.21406643254062918,0.09206381209,3.008421619172471,0.2769621850245478,-0.3079312246339112, ,0.02139245751994382,0.03091105588223804,0.008586960388140163,0.015886923954947844,0.029857652272480176,0.028817540498358978, ,0.9509150981903076
0.010727068606078404,0.020508872901284763,-0.0821963338797315, ,0.010975578542806279,0.020365628484529948,-0.08247385172147707, ,0.00039911439972899654, ,0.0030087739894134142,-0.00040866302338407427,-0.008381627289976247,0.0017724291256317347,0.002536025062918082,-0.0019142909501180987, ,0.008914673432836825, ,0.0030940082028508044, ,4.484715520479554e-05, ,0.13376545611444274,-0.21357217763667882,0.09220510770000001,3.008421619172471,0.27778200402314046,-0.3080279808751058, ,0.022578382478817695,0.029813679408881803,0.008427942603174603,0.013031507757753424,0.03423652024923315,0.020506393901937106, ,0.9682199954986572
0.010756237142392011,0.02050509022573314,-0.08227731728404424, ,0.011027950306737425,0.02035427010601414,-0.08260989314378701, ,0.000455171895743026, ,0.0028695219838969664,-0.000474981893240912,-0.007819747967784632,0.007036600101191009,-0.011866008011354701,-0.00803913162086741, ,0.008343154229345553, ,0.013795501363507242, ,4.5184247828445794e-05, ,0.13398941536779524,-0.21327871378745827,0.09228677397000001,3.008421619172471,0.2781919135224367,-0.30795384088549227, ,0.021835467454779284,0.029253064598788774,0.007858318460779478,0.011706890634032524,0.03588477134952903,0.0032459330849989726, ,0.9838440418243408
0.010819650005937735,0.02048918923137232,-0.08244160951425272, ,0.011080294211652424,0.02034294769982361,-0.08274558725128012, ,0.00042629151074194426, ,0.002961542469846218,-0.0009885445493548403,-0.007443965953532507,-0.021571335149898997,0.010762387571875807,-0.0007500334585032646, ,0.008072210554991311, ,0.024107083264870405, ,4.5442467959766975e-05, ,0.13446822480599716,-0.21263000422602343,0.09245010651,3.0090506890029243,0.2786018230217331,-0.30722627097475425, ,0.02307804998990048,0.03199492297992946,0.0073404661382488485,0.014150790822174632,0.014856887771713335,0.0331249243036969, ,0.9994790554046631
0.010842541499888675,0.020482938781113926,-0.08250174901270953, ,0.011132609967213455,0.020331661333867376,-0.0828809343700428, ,0.000500805468218495, ,0.0029462771738463004,-0.0007605519765447343,-0.0077645071927804525,-0.03502671997527607,0.02576187746381441,0.006677788191427581, ,0.008339458042396594, ,0.04348040264839071, ,4.586442683390122e-05, ,0.13464584766210433,-0.21239059950692246,0.09250973585000001,3.0090506890029243,0.27873845952149856,-0.30701097391788845, ,0.022187734757650405,0.028774087798202178,0.007672837919075146,0.013206670326425266,0.0015147490954261732,0.051479061574500315, ,1.0152430534362793
0.01091388712405334,0.020472447464740744,-0.0827043315298093, ,0.011184897284036432,0.02032041107582027,-0.08301593482636013, ,0.0004400661141139881, ,0.003173081142424982,-0.0003437774609089802,-0.009236349923678432,0.00880593176474138,-0.020937736182478423,-0.010650339156893202, ,0.009772245739423289, ,0.022714162178513738, ,4.6134915757257306e-05, ,0.13517871623042582,-0.21167238534961957,0.09271325338000001,3.0090506890029243,0.2795582785200912,-0.30702605141894246, ,0.022988600183738078,0.031226371029440866,0.009304212336448599,0.010316261646531872,0.038117799916784545,-0.005771610976822179, ,1.0306470394134521
0.010985530449644279,0.020461086000558102,-0.08291169388740985, ,0.011237155873689748,0.02030919699312355,-0.08315058894671591, ,0.00048207226933867116, ,0.003191670637004868,-0.000549885224418515,-0.009074960177167985,-0.008871482203777993,-0.003945568938870225,-0.012400319320496168, ,0.009635561085496664, ,0.009709307348825313, ,4.649090649335992e-05, ,0.13568841660012462,-0.21096189392519094,0.09292065978000001,3.0094700688898937,0.2801048245191529,-0.3066549356323225, ,0.02289431641941394,0.03154818535853417,0.009071077175398635,0.018631078247122696,0.02303215820698473,0.013827627209810107, ,1.0501010417938232
0.011018750782587988,0.020454624703223973,-0.0830007636922898, ,0.011289385448693578,0.020298019152985115,-0.08328489705779202, ,0.00042249282864365457, ,0.0031371578825217083,-0.0006387841635092126,-0.007664279935605521,0.023658051017581352,-0.004061829937738877,-0.005877967284711872, ,0.008306081610407138, ,0.024004204089029667, ,4.670468729333819e-05, ,0.13594326678497404,-0.21062209367872506,0.09301010379,3.0094700688898937,0.28051473401844923,-0.3064991169025684, ,0.025012372577351286,0.03249895258851739,0.007762578713450294,0.016429757883362466,0.05711178246866578,0.011627641434624879, ,1.0663161277770996
0.01108096346730595,0.02043585231395839,-0.08315157743839388, ,0.011341585722518817,0.02028687762237952,-0.08341885948646803, ,0.0004019416771945553, ,0.003049534234476012,-0.0010439945357398985,-0.0071268783592334135,-0.014221500774780363,-0.00849081544683799,0.00423991417610806, ,0.007821890998039125, ,0.01656336357304699, ,4.6867396330520815e-05, ,0.13643752168892442,-0.20995793865154175,0.09316047343000002,3.009679758833378,0.2811979165172765,-0.3059943827992232, ,0.02469345343702076,0.03193033026866446,0.007057515073105894,0.0015807703845536732,0.020510216954949305,0.015149170307599148, ,1.0823101997375488
0.01110642327841973,0.02042967383361602,-0.0832079309639749, ,0.011393756409586104,0.02027577246804845,-0.08355247655982077, ,0.00047429698102162003, ,0.003023915487611235,-0.000885492070078792,-0.00685586219416218,0.004055487558025585,0.013049323962404163,0.011458275698504035, ,0.007545263912397617, ,0.013664985183403668, ,4.71798433534011e-05, ,0.13664603547652848,-0.20970308846669233,0.09321751019,3.0098894487768626,0.28160782601657275,-0.3060019215497502, ,0.02492041532522867,0.03162177326173635,0.006880696120950325,0.007223959004496478,0.04205046334903779,0.03556029856217005, ,1.0984280109405518
0.01117103874175461,0.020407821563973992,-0.0833530621658934, ,0.011445897225264968,0.020264703756500992,-0.08368574860512433, ,0.00045465388992248413, ,0.0030270843795912467,-0.0010668387151729838,-0.006930489853319203,-0.003206113312275932,0.013947169794913979,-0.0014206232640980865, ,0.007637609200025732, ,0.014310929105769976, ,4.754181556817342e-05, ,0.13717890404484998,-0.2089925970422637,0.09336269467000001,3.010099138720347,0.28256428151493085,-0.3058017019939384, ,0.024301393484883683,0.033007631846424614,0.006895589402597403,0.01846668238413888,0.034260985234985886,0.03437107389968311, ,1.1122231483459473
0.011203275261651654,0.020397897178514323,-0.08343559145124296, ,0.011498007885872772,0.02025367155401302,-0.08381867594984803, ,0.0005044026998485955, ,0.003386201153474634,-0.0007548174587192627,-0.008807289790369441,-0.019575556574233762,0.0005355694716520182,-0.00726762459800404, ,0.009465963294843591, ,0.01958288019822047, ,4.7998381831589164e-05, ,0.13742603149682514,-0.20866051952867204,0.09344436094000001,3.010099138720347,0.2827009180146963,-0.30542304745679144, ,0.025225130664133646,0.03202731743451596,0.008781042734288865,0.016300280576120377,0.01472184529927029,0.023461660728095492, ,1.1264631748199463
0.011274867433435353,0.02039278547017841,-0.08363477966549504, ,0.011550088108673846,0.020242675926628654,-0.08395125892165815, ,0.0004454642687410581, ,0.003645733430839785,4.126895992712879e-05,-0.01057528306766237,0.04702263958274347,-0.03942643739001885,-0.02183146242404916, ,0.011186138177985408, ,0.061364260496872935, ,4.8322402361942087e-05, ,0.1379434545993982,-0.20801180996723717,0.09364658218000001,3.010518518607316,0.28365737351305437,-0.3053861853812608, ,0.02606342805780576,0.033030609661841556,0.010843302600408444,0.01635076971004168,0.07348031192806577,-0.029922007400149532, ,1.1407041549682617
0.011313820648749457,0.020390570169904972,-0.08374879747950449, ,0.011602137611878472,0.020231716940159555,-0.08408349784841622, ,0.0004694521879575539, ,0.003776311981822576,-0.00024161732391479208,-0.011239666858928635,-0.014926250118770915,-0.0005494907584485937,-0.005016955588335082, ,0.011859554047896202, ,0.01493635508832553, ,4.868727588589717e-05, ,0.13821375024999605,-0.20766428698789707,0.09376195199000001,3.010728208550801,0.2840672830123507,-0.30523036665150666, ,0.025773205203278318,0.032388034661594116,0.011313076363636366,0.014376888032326597,0.019910686730280885,0.022572980273280543, ,1.1538550853729248
0.011352717811356314,0.0203872623287318,-0.08385968603869841, ,0.011654156114641994,0.02022079466018556,-0.08421539305817842, ,0.0004950798108046055, ,0.003834119737102784,-0.0005182478456073935,-0.01068947879556423,-0.03721409920690472,0.03538039564638648,0.017762273568345015, ,0.011368113823705984, ,0.05134843168305358, ,4.909481836679923e-05, ,0.1384840459005939,-0.20733993220717964,0.09387343293000001,3.0109378984942854,0.28420391951211615,-0.30468835463407856, ,0.027237928116667847,0.03284767793647309,0.010697657165883145,0.009809451699528925,0.007048149973202842,0.06833837844286118, ,1.1677021980285645
0.01140997699600611,0.02038277606613926,-0.08401750001899325, ,0.011706143337063858,0.020209909152054322,-0.08434694487919596, ,0.0004755327406969667, ,0.0035048175113808707,-8.28820319206643e-05,-0.009542588831260537,0.04538039254923264,-0.0055292060986460246,0.003392936998317794, ,0.01016619972368218, ,0.04571599357856718, ,4.9453873586037665e-05, ,0.13890879620867624,-0.20680706363885815,0.09403417289,3.0109378984942854,0.28516037501047425,-0.3048148500388291, ,0.026128012543631823,0.03225592846990849,0.00982047565967941,0.009809451699528925,0.07955528471340907,0.009664149291916686, ,1.1814441680908203
0.01144396018935471,0.02037834534972253,-0.08410409737091437, ,0.011758099000186581,0.020199060480882696,-0.08447815363991379, ,0.0005203309995027621, ,0.003485159674363283,-0.0005474981201117014,-0.008491539503750152,0.020877753927762106,-0.022674398334020948,-0.007603391064024122, ,0.009195234379344726, ,0.030822214468267675, ,4.989232017032499e-05, ,0.13917136912639988,-0.20649043159101493,0.09412232061,3.0109378984942854,0.285706921009536,-0.3046887704726308, ,0.027183311818525,0.0321793630242356,0.00863350217886179,0.009809451699528925,0.051655403769957586,-0.00468249035923669, ,1.195336103439331
0.011520938632671056,0.020356711105510582,-0.08428913458387359, ,0.011810022825994958,0.020188248711555598,-0.08460901966897102, ,0.0004628992511060791, ,0.0037739543471372516,-0.0011030618997843198,-0.009253877211878288,-0.03729003121406201,0.023731712423118695,0.004513978117261006, ,0.010054537305194717, ,0.044201137254810244, ,5.020926848444152e-05, ,0.13975057409196673,-0.20576449470083782,0.09430639379000001,3.011566968324739,0.2859801940090668,-0.3036864251779152, ,0.028361309491473634,0.03564873837658557,0.00917558267281106,0.01665101199603247,0.0062244527630196,0.054832665569197164, ,1.2091190814971924
0.011556119131012501,0.02035058995804042,-0.08437458022157114, ,0.011861914537414928,0.020177473908727067,-0.08473954329519925, ,0.0005066340318403101, ,0.0034661896789060526,-0.0003088147136630264,-0.008799959810714726,0.05940106826606134,-0.044871415618694795,-0.023854907813318532, ,0.00946304021378563, ,0.07444414549179096, ,5.060271373527229e-05, ,0.14002086974256459,-0.20543241718724617,0.09439324522,3.0117766582682233,0.2865267400081286,-0.30372370309199803, ,0.026500123305911973,0.03333225906514604,0.009065914354012522,0.016949296003928083,0.08490430295273438,-0.03730790189587829, ,1.2235522270202637
0.011632299875690548,0.020335961838586443,-0.08457575977040581, ,0.01191377385831289,0.020166736136820212,-0.08486972484762395, ,0.0004407725123637178, ,0.003943113304705483,-0.0008527176942601539,-0.010404813467194081,-0.01996888607833862,-0.0072614341711878545,-0.010712618175680323, ,0.011159543596713669, ,0.02124816969729524, ,5.0862479322302744e-05, ,0.14058462924238296,-0.2047142030299433,0.09459546646000001,3.0117766582682233,0.2872099225069558,-0.30330064772879345, ,0.028378271997150352,0.03644275789495806,0.010397396553524807,0.016949296003928083,0.017513164846137762,0.01768860563295776, ,1.2368361949920654
0.011677960856005996,0.02032712324599937,-0.08469328510345715, ,0.011965600513494391,0.02015603546002705,-0.08499956465546167, ,0.0004536681243431581, ,0.004007439033245727,-0.0009342250439242665,-0.009922125589871275,-0.029007282708533297,0.0019330481754661942,-0.0059376680781609075, ,0.010741551110480047, ,0.029071618964464203, ,5.1140556566515e-05, ,0.14092442948884884,-0.2043048981876094,0.09471342885,3.0117766582682233,0.2874831955064867,-0.30303341109534293, ,0.02972961828272894,0.035409306551668206,0.009905977313432835,0.016949296003928083,0.00977245865514896,0.03088990105628657, ,1.2511601448059082
0.011721271111681758,0.020319870940908424,-0.08480167245931065, ,0.012017394228703508,0.020145371942309843,-0.08512906304812189, ,0.000474682418664048, ,0.0037805197097324607,-0.0007030504904696078,-0.009023810359028163,0.03621359810168895,-0.041359758386315684,-0.021007301851051208, ,0.009808963383738831, ,0.05497321385375624, ,5.145136967626492e-05, ,0.1412565070024405,-0.20389559334527552,0.09482361350000001,3.0117766582682233,0.2881663780053139,-0.3034271431335439, ,0.02929822215451398,0.036178780617030414,0.009196773394919169,0.015254431992207796,0.06628496643987815,-0.026965555016855665, ,1.2645330429077148
0.011760326738099828,0.020307769470877257,-0.08489025164869277, ,0.01206915473062178,0.020134745647399765,-0.08525822035520494, ,0.0005106005693574533, ,0.0038109823921183466,-0.0011143938689921534,-0.008591574769001502,-0.007261804815210246,-0.015540679510745076,-0.00561593230376017, ,0.009464703772418162, ,0.017153614255228638, ,5.182113588743683e-05, ,0.14155769358453527,-0.20353262490018695,0.09491176122000002,3.0119863482117077,0.2883030145050794,-0.3031301673365375, ,0.029964301092033716,0.036082487284589654,0.008605516758508914,0.010164484357233886,0.029572492414559587,0.009874020780443724, ,1.2783870697021484
0.011836781893583304,0.020284061002087225,-0.08507316564932993, ,0.012120881746867162,0.0201241566387986,-0.08538703690650261, ,0.000452545354758844, ,0.003797943109955333,-0.001105813093555159,-0.009152923275696799,-0.019243304792356065,-0.008630043466893028,-0.006242145292097153, ,0.009971118239953202, ,0.021089864042542497, ,5.207769121249883e-05, ,0.14212145308435364,-0.20281441074288406,0.09509324182000001,3.0126154180421616,0.28843965100484475,-0.3025881553191094, ,0.02774764373054701,0.03604137544947618,0.00874248711306257,0.01426056665153891,0.0,0.02666267622534025, ,1.2924489974975586
0.01188461218360227,0.020273257611780598,-0.0851924278772072, ,0.012172575005993247,0.02011360497977756,-0.08551551303199638, ,0.00046129769913801267, ,0.003691780256016394,-0.0006392259068744603,-0.009503678714331207,0.029988359121978184,-0.009747786674924524,-0.004686521598982896, ,0.010215564611119839, ,0.03153285509370412, ,5.2438390033101196e-05, ,0.14240719420069997,-0.20243599683204708,0.09518916728000001,3.0126154180421616,0.289122833503672,-0.30273685113688875, ,0.026974684922817165,0.03626172776403163,0.009521106706515244,0.01426056665153891,0.06669839534007145,0.009700456215646351, ,1.3044021129608154
0.011916614794852107,0.020268038176763866,-0.0852782610367511, ,0.01222423423748825,0.020103090733378733,-0.0856436490618589, ,0.0005053175135093189, ,0.003921399225897131,-0.0007302331540228017,-0.010183151234245028,0.004515212465708674,-0.027324762660136885,-0.01607286589744923, ,0.0109365068192548, ,0.02769530083866388, ,5.287099779705816e-05, ,0.14271610351566894,-0.20204213745546162,0.09530064822,3.0126154180421616,0.28953274300296833,-0.30258103240713463, ,0.028318991810943234,0.03593220051437743,0.01027002676982592,0.01426056665153891,0.03749684844311555,-0.007544392947881123, ,1.3156991004943848
0.011957968200485732,0.02025851135967234,-0.0853856298661107, ,0.012275859171774001,0.020092613962414567,-0.08577144532645183, ,0.0005267164184660818, ,0.004050179171700182,-0.0009288085301221091,-0.01079386252631965,-0.030292279341905315,0.017455605152014678,0.004323894392850365, ,0.011566075602622922, ,0.03496169607492293, ,5.3333716367571016e-05, ,0.1430172900977637,-0.2016560008117504,0.09540824029000002,3.0126154180421616,0.2898060160024992,-0.3022321170335435, ,0.02840375383372367,0.03712712893523896,0.010777274370771315,0.01426056665153891,0.013696365305390854,0.047236157534845134, ,1.326625108718872
0.011998577270205799,0.020252672999796772,-0.08549758237089201, ,0.012327449540205124,0.0200821747294681,-0.085898902156326, ,0.0005461540078955434, ,0.004301684585315072,-0.0005192442753175529,-0.011878336348290835,-0.016507368194839524,0.021440101251084136,0.007550093228176977, ,0.01264393053176561, ,0.02705865683853556, ,5.3822327252287254e-05, ,0.14329530848123578,-0.20130075509953607,0.09552101752000001,3.0128251079856456,0.29007928900203006,-0.301964880400093, ,0.02957212264209124,0.03637291742371437,0.011985561715575624,0.015136634039256842,0.027608868193395607,0.05093430317922443, ,1.3407142162322998
0.012086726486239058,0.02024801761794665,-0.08574870076630098, ,0.012379005075067952,0.020071773096893626,-0.08602601988222106, ,0.0004397667526583973, ,0.0042091389053119195,-0.00012761218196061155,-0.012447302677416418,0.0005537060552955349,0.0025987603274381216,0.004351078429270979, ,0.013140337862338742, ,0.0026570372293448137, ,5.411809001900643e-05, ,0.14386679071392838,-0.2005902636751074,0.09576731262,3.0134541778160995,0.29103574450038816,-0.3017646608442812, ,0.027658683054057352,0.034147873896535,0.012753251817453966,0.009615926584958863,0.04135871143309903,0.03929350769915968, ,1.3518400192260742
0.012128874103742115,0.020242634622882876,-0.08586530822993445, ,0.01243052550957973,0.0200614091268163,-0.08615279883506503, ,0.00045440851566265456, ,0.0042019842293287285,-0.0009361787606834981,-0.010721342043480653,-0.014044851896203638,-0.011094398150798442,-0.0032801016280657727, ,0.01155336649417771, ,0.01789813938528856, ,5.443392861963808e-05, ,0.14417570002889737,-0.20019640429852195,0.09589434904000001,3.0134541778160995,0.2914456539996845,-0.3015271633743865, ,0.03023158380327199,0.03786789367855977,0.010762710486486488,0.009615926584958863,0.025670289510480337,0.016032344903351824, ,1.362619161605835
0.012170127141910425,0.02023347121976461,-0.08596577670192043, ,0.012482010577887498,0.02005108288113281,-0.08627923934597387, ,0.0004783258438791527, ,0.0041877395876985845,-0.0007276431725579116,-0.010075854018924555,0.0014561013638861881,-0.009694488786116399,-0.019846236804084087, ,0.010935696669697188, ,0.009803226007563554, ,5.478513168740804e-05, ,0.14447688661099212,-0.1998334358534334,0.09599545966,3.013663867759584,0.29171892699921537,-0.301259926740936, ,0.03066137045507941,0.03508204863529419,0.010210776615384616,0.027273223442098093,0.035509469633281755,0.012715814564962867, ,1.374000072479248
0.012201150153042486,0.0202280093150071,-0.08604127497310537, ,0.012533460015067376,0.020040794421511566,-0.08640534174625046, ,0.0005272796943310262, ,0.004271965750284789,-0.0008415212972530733,-0.010272636523855084,0.0017013809718180706,-0.016247880534349172,-0.020219954595988472, ,0.01115728061028216, ,0.01633671339878592, ,5.521309458587761e-05, ,0.14470856859721887,-0.19957086293570978,0.09607194077,3.013663867759584,0.29199219999874626,-0.30115604758776665, ,0.031329462383120094,0.036838874828598905,0.010390614168297457,0.024686298524389277,0.03668926557011072,0.006407357400197038, ,1.3884761333465576
0.012253829753055234,0.02021468675545337,-0.0861635639511194, ,0.012584873557123342,0.020030543809392357,-0.08653110636738512, ,0.0005278125164775398, ,0.004068812666456832,-0.0011070874369467731,-0.008853073521471884,-0.005400452356958746,-0.016330028102068888,-0.015447482287784874, ,0.009806007846435344, ,0.01719984444959431, ,5.563478142599177e-05, ,0.14511015070667854,-0.19909977623038208,0.09619508832000001,3.013663867759584,0.2924021094980425,-0.3007551926375908, ,0.031339808969111885,0.0357561950107275,0.00891870745800672,0.01964059876137604,0.029459569100606795,0.008514000305371038, ,1.3996341228485107
0.01229201579495893,0.02020308720327226,-0.08625120382185981, ,0.012636250940986535,0.020020331105987353,-0.08665653354105422, ,0.0005623075743022455, ,0.003848631795083966,-0.0012408222291248896,-0.009036857512719102,0.0018347471179670984,0.011223783488369464,0.0014557575868314162, ,0.009900323237329646, ,0.011372754833927835, ,5.610676426182612e-05, ,0.14540361455589906,-0.19872908505241932,0.09628323604000001,3.013663867759584,0.2928120189973389,-0.30068105264797723, ,0.028756648957112357,0.039052239324473575,0.009076245880341883,0.01695042785333958,0.04577277249556299,0.03536778336421656, ,1.410738229751587
0.012334210860047684,0.020191581915137036,-0.08634897603578352, ,0.01268759190451413,0.020010156372280707,-0.08678162359912031, ,0.0005873476860005237, ,0.004308136547008338,-0.001079944874932296,-0.010196197707555817,-0.009573541810500671,-0.014825262607029306,-0.010295878502776095, ,0.01112154526727864, ,0.017647691179367864, ,5.661222367647422e-05, ,0.14571252387086805,-0.19833522567583386,0.09638175408,3.0140832476465533,0.2932219284966352,-0.3004435551780826, ,0.03180192411476903,0.03824947261526432,0.010256800721184806,0.015387106026727274,0.028957015010109853,0.011824837510485207, ,1.424037218093872
0.012425074204900612,0.020174451728312878,-0.08656767265445144, ,0.01273889618648858,0.020000019669029225,-0.08690637687363181, ,0.0004935902425335449, ,0.004414486261012666,-0.0004261871201107414,-0.010927022765260837,0.02551620414016984,0.007280337391190139,-0.03160713312836466, ,0.011792758410251033, ,0.026534502642281885, ,5.6956225513322536e-05, ,0.14636895616517714,-0.1975629523884114,0.09660341967000001,3.0147123174770067,0.2940417474952278,-0.2999685602382932, ,0.03098169819081645,0.03600035719213611,0.011154629915966389,0.049543345927624764,0.05968392802769716,0.02466546547004115, ,1.4372742176055908
0.012468136311340881,0.02016848637187632,-0.08667739110653827, ,0.012790163526616393,0.019989921056762013,-0.08703079369682154, ,0.0005103728930486976, ,0.004597618689181491,-0.000990672763657459,-0.01096620453978435,-0.008023035273524028,-0.0043003080486394354,-0.02604155460877474, ,0.011932190584471508, ,0.009102833939012915, ,5.73218523617538e-05, ,0.1466778654801461,-0.19720770667619708,0.09671490061000002,3.0147123174770067,0.2944516569945242,-0.29964938402825797, ,0.03296177198974323,0.03860738061776679,0.011131244947589101,0.03633673966003051,0.029906142434256853,0.022996137453993797, ,1.4481770992279053
0.012512562137133205,0.020158138932265375,-0.08678556100778467, ,0.012841393665527532,0.019979860595781305,-0.08715487440110764, ,0.000525647906695538, ,0.004459479846241103,-0.0010546753960418787,-0.010422807164919383,-0.01379963999583297,0.008530230715730796,-0.012643557483535663, ,0.01138570199360327, ,0.01622327886319464, ,5.779908343622807e-05, ,0.14700222026086354,-0.19682157003248585,0.09682378897,3.0147123174770067,0.29472492999405503,-0.2993004686546669, ,0.03237698449623704,0.03803484631602035,0.010507131609498682,0.02888030519573486,0.027167914890425974,0.036482616925200176, ,1.4574151039123535
0.012542514212602392,0.020152552959263586,-0.08685674382811062, ,0.012892586344774231,0.019969838346162127,-0.08727861931909192, ,0.0005778529721779287, ,0.004398449648021392,-0.0008083674864107866,-0.010387753599825902,0.01924870056433243,-0.024341569723818547,-0.022976645025813182, ,0.011309519978759558, ,0.031032633937263587, ,5.835373405772089e-05, ,0.14722617951421604,-0.1965589971147622,0.09689638121000001,3.0147123174770067,0.2951348394933514,-0.29922632866505333, ,0.032124895585128904,0.03768742714792326,0.010583927920265782,0.02532434129594138,0.053262798029046425,-0.004316517740115534, ,1.4669220447540283
0.012609788323101941,0.02014023230740792,-0.08701909928185819, ,0.01294374130683007,0.019959854367753,-0.08740202878356051, ,0.0005391621274988279, ,0.004880492448748436,-0.0005160278452027512,-0.012574043220983213,-0.004712371365578063,-0.006909005492544241,0.01259679186339596, ,0.013497853688733961, ,0.00836304289485304, ,5.883981862253479e-05, ,0.1477127116852922,-0.19600296034781806,0.09706101004,3.014922007420491,0.29568138549241313,-0.2988552128784334, ,0.034333191591342536,0.03767246588267994,0.01279422612048193,0.0,0.038307899265782035,0.025945971205769466, ,1.4766480922698975
0.012662134497105154,0.020137072715747294,-0.08715761938398703, ,0.012994858295089128,0.01994990872017565,-0.08752510312748224, ,0.0005298865809930242, ,0.0049529575030081725,-0.0003516752457829314,-0.013768423450579265,-0.01709201240481189,0.03111541416642035,0.027808219563918428, ,0.014636425377104974, ,0.03550078016049698, ,5.930510662648879e-05, ,0.14806795739750653,-0.19561682370410682,0.09720230565000001,3.0151316973639757,0.29609129499170944,-0.2985360366683982, ,0.03289322064418398,0.03789813960002826,0.01398490914837577,0.002790191991581896,0.03355048186661209,0.06786392953262008, ,1.4853482246398926
0.012713884980097746,0.02013280590726135,-0.08729879998431846, ,0.01304593705386501,0.01994000146282582,-0.0876478426840092, ,0.0005189055209714346, ,0.0049529575030081725,-0.0003516752457829314,-0.013768423450579265,-0.01709201240481189,0.03111541416642035,0.027808219563918428, ,0.014636425377104974, ,0.03550078016049698, ,5.974731242627761e-05, ,0.14840003491109818,-0.1951997961288987,0.09734619384000001,3.015760767194429,0.29663784099077123,-0.2982465996219188, ,0.033461544978304225,0.040210568456979144,0.014600193877176905,0.04223953635485824,0.06110007525920415,0.019992568948560593, ,1.4941661357879639
0.012713884980097746,0.02013280590726135,-0.08729879998431846, ,0.01309697732838988,0.01993013265487294,-0.08777024778647562, ,0.0006403899005391127, ,0.005163767691086954,-0.00021558395572477285,-0.01427250408734085,0.02232433174025125,-0.00027158471211603634,-0.02753972829372215, ,0.015179438268020352, ,0.02232597038563738, ,6.0373522489981205e-05, ,0.14840003491109818,-0.1951997961288987,0.09734619384000001,3.015760767194429,0.29663784099077123,-0.2982465996219188, ,0.033461544978304225,0.040210568456979144,0.014600193877176905,0.04223953635485824,0.06110007525920415,0.019992568948560593, ,1.5034351348876953
0.012804605554827538,0.020127192897625462,-0.08755407005992918, ,0.013147978864813469,0.01992030235526025,-0.08789231876839748, ,0.000524519890291433, ,0.00502505467748551,-0.0006825501768355016,-0.013389335422645752,-0.0018707725105029417,-0.0030745373142352962,-0.03832879366479208, ,0.01431751906985751, ,0.0035989080509420597, ,6.0812322180417646e-05, ,0.14899468534241347,-0.19446613650584738,0.09760674813,3.0159704571379136,0.29773093298889475,-0.29783108300924116, ,0.03270053120553783,0.04072830109805613,0.013567982555366271,0.048001796720178305,0.03565782206269118,0.018270163825624866, ,1.5151021480560303
0.012804605554827538,0.020127192897625462,-0.08755407005992918, ,0.013198941410202256,0.019910510622705713,-0.08801405596347248, ,0.0006434586284735384, ,0.00502505467748551,-0.0006825501768355016,-0.013389335422645752,-0.0018707725105029417,-0.0030745373142352962,-0.03832879366479208, ,0.01431751906985751, ,0.0035989080509420597, ,6.142897755753917e-05, ,0.14899468534241347,-0.19446613650584738,0.09776748809000001,3.0159704571379136,0.29814084248819106,-0.29726687057878426, ,0.03730225690191462,0.04153039017876183,0.013430701112984824,0.033781063469744355,0.029115230535106597,0.04474724545376152, ,1.5240960121154785
0.01286668041212963,0.0201190704301319,-0.08771234076766647, ,0.013249864712538442,0.019900757515701636,-0.08813545970557976, ,0.0006111631306841874, ,0.0053965614622771,-0.0008499114091808577,-0.013244014515448049,-0.01611098900358021,0.011895745381812924,-0.013919627882791257, ,0.014326518959781848, ,0.020026789992157148, ,6.198862108043969e-05, ,0.14942715838337003,-0.19398732706764546,0.09776748809000001,3.0159704571379136,0.29814084248819106,-0.29726687057878426, ,0.03730225690191462,0.04153039017876183,0.013430701112984824,0.033781063469744355,0.029115230535106597,0.04474724545376152, ,1.533560037612915
0.01291769077877917,0.020109111355473348,-0.08783770465799207, ,0.013300748520718966,0.019891043092515083,-0.08825653032877788, ,0.000608031202718114, ,0.005043745216086214,-0.0009410649385131831,-0.012043710995972531,0.007354839456655958,0.00739603689329743,-0.007325363612914896, ,0.013091063500640467, ,0.010430473228147772, ,6.253668305668984e-05, ,0.1497901268284586,-0.19356257675956312,0.09789452451000001,3.0159704571379136,0.29855075198748743,-0.2970293731088896, ,0.03576967265679261,0.04200838493070862,0.012262364526558892,0.027073828940920246,0.05291423646894297,0.03598837356905996, ,1.5423061847686768
0.0129681579782499,0.020098955160572352,-0.08795610608725346, ,0.013351592584554749,0.019881367411187945,-0.08837726816730625, ,0.0006097081463033896, ,0.005083230968755173,-0.0010679175654006714,-0.01206512775791723,0.005450518235122491,-0.03253431431973786,0.0010948203781383087, ,0.013135714400940201, ,0.03298771743586941, ,6.308064888736552e-05, ,0.15015309527354714,-0.19313782645148075,0.09801507948,3.0161801470813985,0.29909729798654916,-0.29682161480255076, ,0.03682457957255366,0.04280421360327955,0.012252931938461541,0.0,0.04851046747426727,-0.0019049867057310335, ,1.5526530742645264
0.013014801211312816,0.020088621135043526,-0.08806602727753965, ,0.013402396654769486,0.019871730529537338,-0.08849767355558405, ,0.0006193466492157663, ,0.005193976386180304,-0.0012582511504396323,-0.012555544502850846,-0.010626127376281928,-0.0017360247433316298,0.007838588987997771, ,0.013645595788416473, ,0.010766989036392014, ,6.363256475754042e-05, ,0.1504851727871388,-0.1927439670748953,0.09812656042000001,3.016389837024883,0.2995072074858454,-0.29666579607279664, ,0.0368102954066993,0.04501752445847759,0.012682174777070065,0.007267752993350802,0.039929642936289485,0.03294103057290814, ,1.5626780986785889
0.01307714417939808,0.02007362184510013,-0.08821628072654109, ,0.013453160482998933,0.01986213250515564,-0.08861774682820893, ,0.0005893140353599083, ,0.005189191525984771,-0.0009962610275175508,-0.012264981027972337,-0.00016911783528694713,-0.009981116597131622,-0.04287767621326459, ,0.013354774589817075, ,0.009982535340388834, ,6.41329889374055e-05, ,0.15090992309522114,-0.19221109850657384,0.09827822635000001,3.0170189068553364,0.2999171169851418,-0.29634661986276145, ,0.03578316046699501,0.04129544889402558,0.012454113776387804,0.050469226419244125,0.03655452733927667,0.013388543063499316, ,1.5721020698547363
0.013130351503138574,0.020061687466327197,-0.08834332755793678, ,0.013503883821789839,0.01985257339541107,-0.08873748831995826, ,0.0005819087506211409, ,0.005474373074586437,-0.0014878856611902445,-0.012743732029124502,-0.016654716215080682,-0.016499955334996774,-0.0412215165593923, ,0.013949382435458074, ,0.023444141318257512, ,6.461646114375249e-05, ,0.15128833700605815,-0.19177862546561725,0.09840655906000001,3.0170189068553364,0.3001903899846727,-0.2960793832293109, ,0.03805009685584233,0.04644980007756769,0.01282513004830918,0.044991607622173545,0.02531126826890706,0.011310616415185031, ,1.5808830261230469
0.013181569005843963,0.020047273458609353,-0.0884658300161738, ,0.013554566424599028,0.01984305325744698,-0.08885689836578638, ,0.0005777260761203802, ,0.005411887816821504,-0.0014657364366582777,-0.012637090315801677,-0.02715966883968234,0.010505087259664484,-0.015963871250977577, ,0.01382508461794492, ,0.02912051077046597, ,6.518432607376599e-05, ,0.1516513054511467,-0.19133070695891222,0.09852970661,3.0170189068553364,0.3004636629842035,-0.29581214659586036, ,0.03771738535710285,0.045470503861270134,0.012712539122106946,0.03388295916302867,0.02169167087118323,0.04476326281642644, ,1.589379072189331
0.013181569005843963,0.020047273458609353,-0.0884658300161738, ,0.01360520804579252,0.01983357214818349,-0.08897597730082667, ,0.0006966983122449523, ,0.005411887816821504,-0.0014657364366582777,-0.012637090315801677,-0.02715966883968234,0.010505087259664484,-0.015963871250977577, ,0.01382508461794492, ,0.02912051077046597, ,6.592238989412484e-05, ,0.1516513054511467,-0.19133070695891222,0.09852970661,3.0170189068553364,0.3004636629842035,-0.29581214659586036, ,0.03771738535710285,0.045470503861270134,0.012712539122106946,0.03388295916302867,0.02169167087118323,0.04476326281642644, ,1.5970261096954346
0.013191245106994622,0.02004386420056719,-0.08848798335168609, ,0.013655808440644495,0.019824130124316195,-0.08909472546038893, ,0.000795134040090686, ,0.005416534998538562,-0.0014240709162763893,-0.012573970117213423,-0.026077032518043147,0.006806536887286777,-0.01614313319123443, ,0.013764866649319694, ,0.026950700455317254, ,6.67982943961898e-05, ,0.1517208100470147,-0.19124575689729575,0.09855174354000001,3.0170189068553364,0.3004636629842035,-0.2957304678557198, ,0.03789813960002826,0.04486853028769304,0.012662012337042927,0.032445065567376495,0.02169167087118323,0.04105328951222877, ,1.6046841144561768
0.013295734606831646,0.020026486660600758,-0.08873631027297832, ,0.013706367365336418,0.019814727242317587,-0.08921314317996024, ,0.0006639510032899194, ,0.0056716298643840896,-0.0007656117604040915,-0.014107441153007579,0.01645455218923977,-0.03062688616427186,0.004633168882315747, ,0.015224107283247, ,0.03476719553094827, ,6.747501865911149e-05, ,0.15246219240294026,-0.1904039790140053,0.09880581638000001,3.0172285967988213,0.3016933914820925,-0.29575308410730083, ,0.039343673946298,0.04446904477903973,0.014428271304347828,0.0,0.06207245636120821,0.0013227786245120152, ,1.611363172531128
0.013352767686400712,0.02001546186128842,-0.08887720961193582, ,0.013756884576956015,0.019805363558436418,-0.08933123079520439, ,0.0006431072950526739, ,0.00618575355866161,-0.0011553626805238942,-0.01565070447806036,-0.030026677266032087,0.02426071497822863,0.018059967535285278, ,0.01686840124823988, ,0.0386028846057512, ,6.811554516939541e-05, ,0.1528483290466515,-0.18995606050730027,0.09894840828000001,3.0174382867423053,0.30196666448162335,-0.29515913251328807, ,0.04154857336185235,0.048840422829887174,0.015833808667992052,0.01084661047039047,0.03027212776154579,0.0687248307204048, ,1.618138074874878
0.013352767686400712,0.02001546186128842,-0.08887720961193582, ,0.013807359833496508,0.019796039128698546,-0.08944898864196023, ,0.0007627133242274099, ,0.00618575355866161,-0.0011553626805238942,-0.01565070447806036,-0.030026677266032087,0.02426071497822863,0.018059967535285278, ,0.01686840124823988, ,0.0386028846057512, ,6.892360115885882e-05, ,0.1528483290466515,-0.18995606050730027,0.09894840828000001,3.0174382867423053,0.30196666448162335,-0.29515913251328807, ,0.04154857336185235,0.048840422829887174,0.015833808667992052,0.01084661047039047,0.03027212776154579,0.0687248307204048, ,1.6246252059936523
0.01342111932933034,0.020008865237140728,-0.08904957857822055, ,0.013857792893855525,0.01978675400890682,-0.08956641705624342, ,0.0007121370739034097, ,0.006746689588889281,-0.0004053024147069777,-0.017324392857494517,0.004997222538304511,0.019973313214450464,-0.06755179542760449, ,0.01859614686802084, ,0.02058892695759585, ,6.965179463209634e-05, ,0.1532885248204823,-0.1894618056033499,0.09912470372000001,3.0182770465162436,0.3025132104806852,-0.2947063379865276, ,0.04247848771641485,0.04602179513019921,0.017738097461024498,0.0915735738944708,0.046317212112935005,0.04530591607633286, ,1.632930040359497
0.01348732336031014,0.020006882396231142,-0.08922452223758072, ,0.013908183517834067,0.019777508254640804,-0.08968351637424307, ,0.0006636349798735647, ,0.006777589220132886,8.536683390507338e-06,-0.017751223393960354,0.06424608312670387,-0.025216417637223206,-0.04059024760434754, ,0.019001097876020483, ,0.06901757133533604, ,7.030413264641094e-05, ,0.15372099786143886,-0.18899071889802221,0.09930488803000001,3.018486736459728,0.3033330294792778,-0.2943947005270194, ,0.04381206904823212,0.04766295407256192,0.018393546789838337,0.05127854203689476,0.10523258216576976,-0.0042671238217945676, ,1.6400251388549805
0.013556249563531545,0.02000611958852922,-0.08940778357178875, ,0.013958531466135876,0.01976830192125833,-0.08980028693232447, ,0.0006102842452996549, ,0.006599105915473671,-0.0004235021408802147,-0.0176216496685285,0.00021529849539940124,0.007574482799213699,0.033785118848310064, ,0.018821532615260646, ,0.0075774299048834955, ,7.087466385692584e-05, ,0.1541689163681439,-0.18850418672694605,0.09949414637000001,3.0186964264032126,0.30428948497763586,-0.2941944809712076, ,0.04311537553769685,0.047235909187889884,0.018039424144960365,-0.007821414605569068,0.0591097738411923,0.05153383687856694, ,1.6466100215911865
0.013556249563531545,0.02000611958852922,-0.08940778357178875, ,0.014008836500366233,0.01975913506389414,-0.08991672906702589, ,0.000724473469441635, ,0.006599105915473671,-0.0004235021408802147,-0.0176216496685285,0.00021529849539940124,0.007574482799213699,0.033785118848310064, ,0.018821532615260646, ,0.0075774299048834955, ,7.160275699756717e-05, ,0.1541689163681439,-0.18850418672694605,0.09949414637000001,3.0186964264032126,0.30428948497763586,-0.2941944809712076, ,0.04311537553769685,0.047235909187889884,0.018039424144960365,-0.007821414605569068,0.0591097738411923,0.05153383687856694, ,1.6531331539154053
0.013620946487583233,0.019997392835294277,-0.08957906505456559, ,0.014059098383031004,0.019750007737461394,-0.09003284311505946, ,0.0006775625419840173, ,0.006937753479549375,-0.0010595227165040933,-0.017667611350902834,-0.0429642586742065,0.03947659021302887,0.03884695237366498, ,0.019010510318672097, ,0.058346610671419934, ,7.225821630492032e-05, ,0.15459366667622623,-0.18802537728874413,0.09966784923000001,3.018486736459728,0.30456275797716675,-0.29327381441663253, ,0.04593269194504877,0.05091037637257016,0.017917673250843646,0.0,0.02566686354428423,0.0941776156793474, ,1.6604630947113037
0.013692631665942367,0.019987426308116545,-0.08975587527083237, ,0.01410931687753598,0.019740919996650907,-0.09014862941331113, ,0.0006234161881018442, ,0.006937753479549375,-0.0010595227165040933,-0.017667611350902834,-0.0429642586742065,0.03947659021302887,0.03884695237366498, ,0.019010510318672097, ,0.058346610671419934, ,7.28317586733083e-05, ,0.15507247611442815,-0.18750795418617108,0.09984803354,3.0186964264032126,0.30497266747646307,-0.2927096019861756, ,0.04879020131540914,0.04947702896687736,0.01765943627494457,0.0047612387892027605,0.03225504384770864,0.052972481853884396, ,1.667189121246338
0.013692631665942367,0.019987426308116545,-0.08975587527083237, ,0.014159491748185623,0.019731871895932045,-0.09026408829883883, ,0.0007358986858356555, ,0.007169159861762157,-0.0009420909891541766,-0.017316955900235555,-0.026624309149390134,0.0022850659206270912,0.017127628055873544, ,0.018765962544086304, ,0.026722159469174778, ,7.355844885563376e-05, ,0.15507247611442815,-0.18750795418617108,0.09984803354,3.0186964264032126,0.30497266747646307,-0.2927096019861756, ,0.04879020131540914,0.04947702896687736,0.01765943627494457,0.0047612387892027605,0.03225504384770864,0.052972481853884396, ,1.674118995666504
0.013732364164621534,0.019984311870264365,-0.08985010646110672, ,0.014209622760182297,0.01972286348955248,-0.09037922010887328, ,0.0007590074275435884, ,0.0069344597723525764,-0.0005442138975731052,-0.01664584468944854,0.04227889035453742,-0.044604930508931474,-0.015386994040068512, ,0.018040705266866092, ,0.061458141180176416, ,7.431136085699976e-05, ,0.155342771765026,-0.18723765853557323,0.09994525529,3.018906116346697,0.3053825769757594,-0.2925537832564215, ,0.04751975040484265,0.048941176667597105,0.017201740302375815,0.018127765298097516,0.08752144415775494,-0.012565855055168083, ,1.6819000244140625
0.01383748908253609,0.01996836104513244,-0.09009007004567905, ,0.014259709679625244,0.019713894831538813,-0.09049402518081673, ,0.0006373405978525902, ,0.0069344597723525764,-0.0005442138975731052,-0.01664584468944854,0.04227889035453742,-0.044604930508931474,-0.015386994040068512, ,0.018040705266866092, ,0.061458141180176416, ,7.499297574701174e-05, ,0.1560609859223289,-0.186473107981025,0.10019155039000001,3.019744876120635,0.3063390324741175,-0.29235356370060966, ,0.050156945855428535,0.05295588256611093,0.016204284354018314,0.07180688690149024,0.045620887960866184,0.04212625115898913, ,1.6863641738891602
0.01383748908253609,0.01996836104513244,-0.09009007004567905, ,0.014309752273509748,0.019704965975696365,-0.09060850385224307, ,0.0007491215495100367, ,0.007272559317552663,-0.0014360719918229334,-0.015859585358906785,-0.0046839779431118705,0.005425672790683881,-0.0510069730456594, ,0.017506537908720584, ,0.007167745198992026, ,7.582626586942622e-05, ,0.1560609859223289,-0.186473107981025,0.10019155039000001,3.019744876120635,0.3063390324741175,-0.29235356370060966, ,0.050156945855428535,0.05295588256611093,0.016204284354018314,0.07180688690149024,0.045620887960866184,0.04212625115898913, ,1.6910381317138672
0.01383748908253609,0.01996836104513244,-0.09009007004567905, ,0.014359750309726057,0.019696076975609544,-0.09072265646089664, ,0.0008643268922460736, ,0.007272559317552663,-0.0014360719918229334,-0.015859585358906785,-0.0046839779431118705,0.005425672790683881,-0.0510069730456594, ,0.017506537908720584, ,0.007167745198992026, ,7.681471851922819e-05, ,0.1560609859223289,-0.186473107981025,0.10019155039000001,3.019744876120635,0.3063390324741175,-0.29235356370060966, ,0.050156945855428535,0.05295588256611093,0.016204284354018314,0.07180688690149024,0.045620887960866184,0.04212625115898913, ,1.6956610679626465
0.013910457851678467,0.019952328840148224,-0.09025713495563811, ,0.014409703557058564,0.019687227884642285,-0.0908364833446927, ,0.0008094253188841934, ,0.007605832043386592,-0.0016848018353013304,-0.017752520485800338,-0.04856860256789223,0.05804280141768377,0.004869071103386939, ,0.01938657323755804, ,0.07568272054185478, ,7.772176676521123e-05, ,0.15657068629202772,-0.18591707121408085,0.10036136438000001,3.019744876120635,0.3067489419734138,-0.2914626363095906, ,0.05096505991324961,0.056995160095177654,0.01797834257336343,0.0420045490673663,0.023006844701381937,0.11267797563676558, ,1.7010300159454346
0.013910457851678467,0.019952328840148224,-0.09025713495563811, ,0.014459611785184791,0.019678418755937788,-0.09094998484171612, ,0.0009255472659761633, ,0.007605832043386592,-0.0016848018353013304,-0.017752520485800338,-0.04856860256789223,0.05804280141768377,0.004869071103386939, ,0.01938657323755804, ,0.07568272054185478, ,7.878397880996398e-05, ,0.15657068629202772,-0.18591707121408085,0.10036136438000001,3.019744876120635,0.3067489419734138,-0.2914626363095906, ,0.05096505991324961,0.056995160095177654,0.01797834257336343,0.0420045490673663,0.023006844701381937,0.11267797563676558, ,1.705470085144043
0.013986646892311721,0.01994091792505096,-0.09044070589713085, ,0.014509474764674547,0.01966964964241923,-0.09106316129022143, ,0.0008569633490814865, ,0.008089993551784021,-0.0006788090766246188,-0.019616505475617496,0.051285822258362514,-0.0578223809977237,-0.03114514720845287, ,0.021230074528963534, ,0.07728945855817526, ,7.974600823425774e-05, ,0.15708810939460074,-0.18535331171426245,0.10054932643000002,3.019744876120635,0.307432124472241,-0.2914479746470887, ,0.054041538472933255,0.05709803944552995,0.020265663511450382,0.030030081026060657,0.10079653436853048,-0.024433787643526543, ,1.7098572254180908
0.013986646892311721,0.01994091792505096,-0.09044070589713085, ,0.014559292266988856,0.019660920596789852,-0.09117601302863236, ,0.0009731381230891383, ,0.008089993551784021,-0.0006788090766246188,-0.019616505475617496,0.051285822258362514,-0.0578223809977237,-0.03114514720845287, ,0.021230074528963534, ,0.07728945855817526, ,8.086212086336696e-05, ,0.15708810939460074,-0.18535331171426245,0.10054932643000002,3.019744876120635,0.307432124472241,-0.2914479746470887, ,0.054041538472933255,0.05709803944552995,0.020265663511450382,0.030030081026060657,0.10079653436853048,-0.024433787643526543, ,1.7154312133789062
0.013986646892311721,0.01994091792505096,-0.09044070589713085, ,0.0146090640644791,0.019652231671532915,-0.09128854039554132, ,0.001090672373297342, ,0.008089993551784021,-0.0006788090766246188,-0.019616505475617496,0.051285822258362514,-0.0578223809977237,-0.03114514720845287, ,0.021230074528963534, ,0.07728945855817526, ,8.213291174102853e-05, ,0.15708810939460074,-0.18535331171426245,0.10054932643000002,3.019744876120635,0.307432124472241,-0.2914479746470887, ,0.054041538472933255,0.05709803944552995,0.020265663511450382,0.030030081026060657,0.10079653436853048,-0.024433787643526543, ,1.7201600074768066
0.014065024482045782,0.019934107822928496,-0.09063762660118305, ,0.014658789930386025,0.019643582918911728,-0.0914007437297081, ,0.001009608775390237, ,0.008911526981466212,-0.0008149431809614284,-0.02321840557599158,0.0002592399077338912,-0.06875196933644281,-0.008927525964235152, ,0.024883203230710322, ,0.06875240901359461, ,8.328617634117613e-05, ,0.15759780976429957,-0.18481272041306673,0.10075154767000001,3.01995456606412,0.3081153069710682,-0.2914333129845869, ,0.05689265081443092,0.061501582345088,0.023738914336810735,0.0,0.05829848484949517,-0.021524078416213385, ,1.7249760627746582
0.014065024482045782,0.019934107822928496,-0.09063762660118305, ,0.014708469638838895,0.019634974390970707,-0.09151262337006105, ,0.0011265530726345338, ,0.008911526981466212,-0.0008149431809614284,-0.02321840557599158,0.0002592399077338912,-0.06875196933644281,-0.008927525964235152, ,0.024883203230710322, ,0.06875240901359461, ,8.459227255879814e-05, ,0.15759780976429957,-0.18481272041306673,0.10075154767000001,3.01995456606412,0.3081153069710682,-0.2914333129845869, ,0.05689265081443092,0.061501582345088,0.023738914336810735,0.0,0.05829848484949517,-0.021524078416213385, ,1.729504108428955
0.01421470074450652,0.019923476640216053,-0.09102985622429687, ,0.014758102964854471,0.019626406139534928,-0.09162417965569522, ,0.000858345616033037, ,0.009568067667138228,-0.0007862875126985937,-0.024911461802253933,-0.04204636811356282,0.05226979311533141,-0.049559768641018395, ,0.02669732376214362, ,0.06708217907866017, ,8.55273622072587e-05, ,0.15850909224345805,-0.18384737880378868,0.10115210128,3.0210030157815426,0.30866185297013,-0.2902454097965613, ,0.05737420892289647,0.061342560800562884,0.02540480306220096,0.09284619940608299,0.02395048136529557,0.10274813012750411, ,1.7339820861816406
0.01421470074450652,0.019923476640216053,-0.09102985622429687, ,0.014807689684336114,0.0196178782162103,-0.09173541292587252, ,0.0009709977027024028, ,0.009568067667138228,-0.0007862875126985937,-0.024911461802253933,-0.04204636811356282,0.05226979311533141,-0.049559768641018395, ,0.02669732376214362, ,0.06708217907866017, ,8.660982902496896e-05, ,0.15850909224345805,-0.18384737880378868,0.10115210128,3.0210030157815426,0.30866185297013,-0.2902454097965613, ,0.05737420892289647,0.061342560800562884,0.02540480306220096,0.09284619940608299,0.02395048136529557,0.10274813012750411, ,1.738361120223999
0.014313790367716848,0.01991616543998498,-0.09128618393775761, ,0.01485722957407279,0.019609390672384205,-0.09184632352002128, ,0.0008385662052931796, ,0.010210714763305965,-0.0004961969806390361,-0.02580940006230279,0.05733865532347166,-0.037564453129842704,-0.03836940372498729, ,0.02776022404443424, ,0.06854777954851336, ,8.750773259749696e-05, ,0.15912691087339603,-0.18317550104373115,0.10141524815000001,3.021422395668511,0.3094816719687226,-0.2897704148567719, ,0.06464369315972122,0.06851764733463594,0.026681426331658296,0.05229010833551174,0.12035954972148541,0.0038507505525772617, ,1.743563175201416
0.014313790367716848,0.01991616543998498,-0.09128618393775761, ,0.014906722411738217,0.019600943559225238,-0.09195691177773534, ,0.0009491096239414327, ,0.010210714763305965,-0.0004961969806390361,-0.02580940006230279,0.05733865532347166,-0.037564453129842704,-0.03836940372498729, ,0.02776022404443424, ,0.06854777954851336, ,8.854958207091074e-05, ,0.15912691087339603,-0.18317550104373115,0.10141524815000001,3.021422395668511,0.3094816719687226,-0.2897704148567719, ,0.06464369315972122,0.06851764733463594,0.026681426331658296,0.05229010833551174,0.12035954972148541,0.0038507505525772617, ,1.7480080127716064
0.014413056114253989,0.019912162559705262,-0.09154328825616566, ,0.01495616797588985,0.01959253692768366,-0.0920671780387743, ,0.0008195068902800703, ,0.010121190651764703,-0.0008023765498340156,-0.025678182930175326,0.026847581886220134,0.001841636570465259,0.036902930875919324, ,0.027612522284873584, ,0.026910464774014452, ,8.941187432076073e-05, ,0.1597524522362082,-0.18250362328367362,0.10168098760000001,3.021632085611996,0.31071140046661155,-0.2894663161477908, ,0.06499790517703478,0.06993142340344198,0.026459819800664457,-0.0006128825236780247,0.11013691882078909,0.061766506344720064, ,1.7525920867919922
0.014413056114253989,0.019912162559705262,-0.09154328825616566, ,0.015005566045968003,0.01958417082849183,-0.09217712264306244, ,0.0009275735145728053, ,0.010121190651764703,-0.0008023765498340156,-0.025678182930175326,0.026847581886220134,0.001841636570465259,0.036902930875919324, ,0.027612522284873584, ,0.026910464774014452, ,9.041421671156566e-05, ,0.1597524522362082,-0.18250362328367362,0.10168098760000001,3.021632085611996,0.31071140046661155,-0.2894663161477908, ,0.06499790517703478,0.06993142340344198,0.026459819800664457,-0.0006128825236780247,0.11013691882078909,0.061766506344720064, ,1.7584941387176514
0.014510456734411837,0.01990230759294713,-0.09178684319735059, ,0.015054916402294853,0.019575845312164136,-0.09228674593068859, ,0.0008080326067208679, ,0.010121190651764703,-0.0008023765498340156,-0.025678182930175326,0.026847581886220134,0.001841636570465259,0.036902930875919324, ,0.027612522284873584, ,0.026910464774014452, ,9.125160546096184e-05, ,0.1603857163318946,-0.1818394682564903,0.10193117157,3.021422395668511,0.31153121946520423,-0.2884195700270175, ,0.06916686702512448,0.06832033229551533,0.025900506536585367,0.010063621178033558,0.08590779374773683,0.10599084692400446, ,1.7635180950164795
0.014510456734411837,0.01990230759294713,-0.09178684319735059, ,0.015104218826073467,0.01956756042899664,-0.09239604824190523, ,0.0009141880942005918, ,0.010514316312452454,-0.0009782676227856075,-0.02512981570586243,-0.001901671410300598,0.03541693985170315,0.04226896791849902, ,0.02725831052120994, ,0.03546781584470294, ,9.222588626426233e-05, ,0.1603857163318946,-0.1818394682564903,0.10193117157,3.021422395668511,0.31153121946520423,-0.2884195700270175, ,0.06916686702512448,0.06832033229551533,0.025900506536585367,0.010063621178033558,0.08590779374773683,0.10599084692400446, ,1.7681832313537598
0.01461954289938219,0.01988875375662136,-0.09203560361946178, ,0.015153473099387051,0.019559316229068688,-0.09250502991712857, ,0.0007835633937202522, ,0.010215406148608965,-0.0018985330565846267,-0.02242102258312694,-0.0032308611473000366,0.010397288533986844,0.03674195778957654, ,0.02471156013328723, ,0.010887442610891161, ,9.302151922733234e-05, ,0.16111937595494594,-0.1811135313663132,0.10218783699000002,3.021632085611996,0.31248767496356233,-0.28748424180994064, ,0.07045058764548684,0.07216497456917931,0.023051825643994214,0.003118406633743944,0.08464228716655271,0.08046915986466763, ,1.7726261615753174
0.01461954289938219,0.01988875375662136,-0.09203560361946178, ,0.015202679005197775,0.019551112762241786,-0.09261369129693799, ,0.0008878257271791726, ,0.010215406148608965,-0.0018985330565846267,-0.02242102258312694,-0.0032308611473000366,0.010397288533986844,0.03674195778957654, ,0.02471156013328723, ,0.010887442610891161, ,9.39510327223317e-05, ,0.16111937595494594,-0.1811135313663132,0.10218783699000002,3.021632085611996,0.31248767496356233,-0.28748424180994064, ,0.07045058764548684,0.07216497456917931,0.023051825643994214,0.003118406633743944,0.08464228716655271,0.08046915986466763, ,1.7770330905914307
0.014722613801770364,0.01986682089329084,-0.09225214030629926, ,0.01525183632734602,0.019542950078160773,-0.09272203272207533, ,0.000778310779106622, ,0.010508533570696806,-0.0024362992658131365,-0.021951562810983732,0.02288639826275777,-0.00585614783092419,-0.08005223665775, ,0.02445886223362868, ,0.02362364484391519, ,9.47309649728759e-05, ,0.16182214464650038,-0.18036442627751342,0.10241079887000001,3.022470845385934,0.3134441304619204,-0.28703898603370714, ,0.0710306448790949,0.07765707165177642,0.02256205597733711,0.10554012037417836,0.09258417407736401,0.04052769157260554, ,1.7816550731658936
0.014722613801770364,0.01986682089329084,-0.09225214030629926, ,0.015300944850549354,0.019534828226253374,-0.09283005453344456, ,0.0008824232470223157, ,0.010508533570696806,-0.0024362992658131365,-0.021951562810983732,0.02288639826275777,-0.00585614783092419,-0.08005223665775, ,0.02445886223362868, ,0.02362364484391519, ,9.577013684893056e-05, ,0.16182214464650038,-0.18036442627751342,0.10241079887000001,3.022470845385934,0.3134441304619204,-0.28703898603370714, ,0.0710306448790949,0.07765707165177642,0.02256205597733711,0.10554012037417836,0.09258417407736401,0.04052769157260554, ,1.7839601039886475
0.014722613801770364,0.01986682089329084,-0.09225214030629926, ,0.015350004360401485,0.019526747255730437,-0.09293775707211126, ,0.000989615754515629, ,0.010508533570696806,-0.0024362992658131365,-0.021951562810983732,0.02288639826275777,-0.00585614783092419,-0.08005223665775, ,0.02445886223362868, ,0.02362364484391519, ,9.694779905929511e-05, ,0.16182214464650038,-0.18036442627751342,0.10241079887000001,3.022470845385934,0.3134441304619204,-0.28703898603370714, ,0.0710306448790949,0.07765707165177642,0.02256205597733711,0.10554012037417836,0.09258417407736401,0.04052769157260554, ,1.7862911224365234
0.014722613801770364,0.01986682089329084,-0.09225214030629926, ,0.01539901464337161,0.019518707215586663,-0.09304514067930224, ,0.0010988861736806338, ,0.010508533570696806,-0.0024362992658131365,-0.021951562810983732,0.02288639826275777,-0.00585614783092419,-0.08005223665775, ,0.02445886223362868, ,0.02362364484391519, ,9.826613902590213e-05, ,0.16182214464650038,-0.18036442627751342,0.10241079887000001,3.022470845385934,0.3134441304619204,-0.28703898603370714, ,0.0710306448790949,0.07765707165177642,0.02256205597733711,0.10554012037417836,0.09258417407736401,0.04052769157260554, ,1.7886590957641602
0.014722613801770364,0.01986682089329084,-0.09225214030629926, ,0.015447975486803234,0.019510708154600424,-0.09315220569640503, ,0.0012095799118857628, ,0.010508533570696806,-0.0024362992658131365,-0.021951562810983732,0.02288639826275777,-0.00585614783092419,-0.08005223665775, ,0.02445886223362868, ,0.02362364484391519, ,9.972647249877974e-05, ,0.16182214464650038,-0.18036442627751342,0.10241079887000001,3.022470845385934,0.3134441304619204,-0.28703898603370714, ,0.0710306448790949,0.07765707165177642,0.02256205597733711,0.10554012037417836,0.09258417407736401,0.04052769157260554, ,1.791018009185791
0.014722613801770364,0.01986682089329084,-0.09225214030629926, ,0.015496886678913276,0.01950275012133403,-0.09325895246496771, ,0.0013212557428881866, ,0.010508533570696806,-0.0024362992658131365,-0.021951562810983732,0.02288639826275777,-0.00585614783092419,-0.08005223665775, ,0.02445886223362868, ,0.02362364484391519, ,0.00010132952928406768, ,0.16182214464650038,-0.18036442627751342,0.10241079887000001,3.022470845385934,0.3134441304619204,-0.28703898603370714, ,0.0710306448790949,0.07765707165177642,0.02256205597733711,0.10554012037417836,0.09258417407736401,0.04052769157260554, ,1.794288158416748
0.014722613801770364,0.01986682089329084,-0.09225214030629926, ,0.015545748008791178,0.019494833164133935,-0.09336538132669761, ,0.0014336074647227027, ,0.010508533570696806,-0.0024362992658131365,-0.021951562810983732,0.02288639826275777,-0.00585614783092419,-0.08005223665775, ,0.02445886223362868, ,0.02362364484391519, ,0.0001030756340487317, ,0.16182214464650038,-0.18036442627751342,0.10241079887000001,3.022470845385934,0.3134441304619204,-0.28703898603370714, ,0.0710306448790949,0.07765707165177642,0.02256205597733711,0.10554012037417836,0.09258417407736401,0.04052769157260554, ,1.7970330715179443
0.01487001846412846,0.019832398427464936,-0.09256607673808533, ,0.015594559266397957,0.019486957331130844,-0.09347149262346165, ,0.0012099863018570135, ,0.011491849490895992,-0.0027116373789036856,-0.024910385246453705,-0.026623235953740776,-0.018697701071828946,-0.022751801043639695, ,0.027567061416168617, ,0.03253292372618116, ,0.0005745085977053187, ,0.16282609992014957,-0.17929868914087044,0.10273227879,3.0230999152163878,0.3144005859602785,-0.2864303727771925, ,0.07721476123553359,0.08244738623672526,0.025445385814696485,0.04381061129738299,0.0585443323706555,0.050220374951746305, ,1.7995622158050537
0.01487001846412846,0.019832398427464936,-0.09256607673808533, ,0.015643320242565255,0.019479122670240476,-0.09357728669728589, ,0.0013211150528104787, ,0.011491849490895992,-0.0027116373789036856,-0.024910385246453705,-0.026623235953740776,-0.018697701071828946,-0.022751801043639695, ,0.027567061416168617, ,0.03253292372618116, ,0.0005798415009560698, ,0.16282609992014957,-0.17929868914087044,0.10273227879,3.0230999152163878,0.3144005859602785,-0.2864303727771925, ,0.07721476123553359,0.08244738623672526,0.025445385814696485,0.04381061129738299,0.0585443323706555,0.050220374951746305, ,1.801915168762207
0.01487001846412846,0.019832398427464936,-0.09256607673808533, ,0.015692030728994454,0.019471329229162906,-0.0936827638903547, ,0.0014328521645990086, ,0.011491849490895992,-0.0027116373789036856,-0.024910385246453705,-0.026623235953740776,-0.018697701071828946,-0.022751801043639695, ,0.027567061416168617, ,0.03253292372618116, ,0.000585891221974814, ,0.16282609992014957,-0.17929868914087044,0.10273227879,3.0230999152163878,0.3144005859602785,-0.2864303727771925, ,0.07721476123553359,0.08244738623672526,0.025445385814696485,0.04381061129738299,0.0585443323706555,0.050220374951746305, ,1.804232120513916
0.01487001846412846,0.019832398427464936,-0.09256607673808533, ,0.015740690518255593,0.01946357705538349,-0.09378792454501005, ,0.0015449954995496746, ,0.011491849490895992,-0.0027116373789036856,-0.024910385246453705,-0.026623235953740776,-0.018697701071828946,-0.022751801043639695, ,0.027567061416168617, ,0.03253292372618116, ,0.0005926454774506934, ,0.16282609992014957,-0.17929868914087044,0.10273227879,3.0230999152163878,0.3144005859602785,-0.2864303727771925, ,0.07721476123553359,0.08244738623672526,0.025445385814696485,0.04381061129738299,0.0585443323706555,0.050220374951746305, ,1.8064630031585693
0.015036980962038914,0.019803006331723876,-0.09295505656334166, ,0.01578929940378659,0.019455866196172688,-0.09389276900375182, ,0.0012513168792932217, ,0.013790979514720676,-0.0013793540894354774,-0.034203136787396816,-0.030020748977640975,-0.03200204060013781,-0.0042995276870934455, ,0.03690458372312124, ,0.04387857293391138, ,0.0005972515711698718, ,0.16391500525541522,-0.17816344740835943,0.10313023982000001,3.0230999152163878,0.31522040495887116,-0.2857103416169815, ,0.08518576441514432,0.08595737460006411,0.03508548792951543,0.023620253008574687,0.061448678491694206,0.047871916034449756, ,1.8087730407714844
0.015036980962038914,0.019803006331723876,-0.09295505656334166, ,0.015837857179892202,0.019448196698586384,-0.09399729760923668, ,0.0013614547329377133, ,0.013790979514720676,-0.0013793540894354774,-0.034203136787396816,-0.030020748977640975,-0.03200204060013781,-0.0042995276870934455, ,0.03690458372312124, ,0.04387857293391138, ,0.0006025585375710374, ,0.16391500525541522,-0.17816344740835943,0.10313023982000001,3.0230999152163878,0.31522040495887116,-0.2857103416169815, ,0.08518576441514432,0.08595737460006411,0.03508548792951543,0.023620253008574687,0.061448678491694206,0.047871916034449756, ,1.8110530376434326
0.015036980962038914,0.019803006331723876,-0.09295505656334166, ,0.01588636364174315,0.019440568609466205,-0.09410151070427773, ,0.0014721308149639233, ,0.013790979514720676,-0.0013793540894354774,-0.034203136787396816,-0.030020748977640975,-0.03200204060013781,-0.0042995276870934455, ,0.03690458372312124, ,0.04387857293391138, ,0.0006085555877599539, ,0.16391500525541522,-0.17816344740835943,0.10313023982000001,3.0230999152163878,0.31522040495887116,-0.2857103416169815, ,0.08518576441514432,0.08595737460006411,0.03508548792951543,0.023620253008574687,0.061448678491694206,0.047871916034449756, ,1.813298225402832
0.015036980962038914,0.019803006331723876,-0.09295505656334166, ,0.015934818585375224,0.01943298197543958,-0.09420540863184472, ,0.0015831647789575425, ,0.013790979514720676,-0.0013793540894354774,-0.034203136787396816,-0.030020748977640975,-0.03200204060013781,-0.0042995276870934455, ,0.03690458372312124, ,0.04387857293391138, ,0.0006152309931791155, ,0.16391500525541522,-0.17816344740835943,0.10313023982000001,3.0230999152163878,0.31522040495887116,-0.2857103416169815, ,0.08518576441514432,0.08595737460006411,0.03508548792951543,0.023620253008574687,0.061448678491694206,0.047871916034449756, ,1.8155360221862793
0.015036980962038914,0.019803006331723876,-0.09295505656334166, ,0.015983221807688075,0.019425436842919922,-0.09430899173506253, ,0.0016944234730649098, ,0.013790979514720676,-0.0013793540894354774,-0.034203136787396816,-0.030020748977640975,-0.03200204060013781,-0.0042995276870934455, ,0.03690458372312124, ,0.04387857293391138, ,0.0006225724386205154, ,0.16391500525541522,-0.17816344740835943,0.10313023982000001,3.0230999152163878,0.31522040495887116,-0.2857103416169815, ,0.08518576441514432,0.08595737460006411,0.03508548792951543,0.023620253008574687,0.061448678491694206,0.047871916034449756, ,1.8177580833435059
0.015189822419278163,0.019794078965324726,-0.09335149309449521, ,0.016031573106444718,0.01941793325810709,-0.09441226035721152, ,0.001405438365085527, ,0.01665072467630692,-0.00035551210654194074,-0.044380688228639095,-0.004453344738645726,0.01826348915327141,-0.13892084319914594, ,0.04740272680713356, ,0.01879401873959799, ,0.0006278620732587925, ,0.1647953968030768,-0.17724444219632673,0.10353727488000002,3.024358054877295,0.3159035874576983,-0.28504225003335515, ,0.09222248936683264,0.09604953599035504,0.04564129375358167,0.17852134135179037,0.07830277375562275,0.08004525074158554, ,1.8204262256622314
0.015189822419278163,0.019794078965324726,-0.09335149309449521, ,0.016079872280270236,0.01941047126698738,-0.09451521484172629, ,0.0015144609358627354, ,0.01665072467630692,-0.00035551210654194074,-0.044380688228639095,-0.004453344738645726,0.01826348915327141,-0.13892084319914594, ,0.04740272680713356, ,0.01879401873959799, ,0.0006338124011957317, ,0.1647953968030768,-0.17724444219632673,0.10353727488000002,3.024358054877295,0.3159035874576983,-0.28504225003335515, ,0.09222248936683264,0.09604953599035504,0.04564129375358167,0.17852134135179037,0.07830277375562275,0.08004525074158554, ,1.8226680755615234
0.015189822419278163,0.019794078965324726,-0.09335149309449521, ,0.016128119128650927,0.019403050915333647,-0.09461785553219615, ,0.001623877296571217, ,0.01665072467630692,-0.00035551210654194074,-0.044380688228639095,-0.004453344738645726,0.01826348915327141,-0.13892084319914594, ,0.04740272680713356, ,0.01879401873959799, ,0.0006404128338315683, ,0.1647953968030768,-0.17724444219632673,0.10353727488000002,3.024358054877295,0.3159035874576983,-0.28504225003335515, ,0.09222248936683264,0.09604953599035504,0.04564129375358167,0.17852134135179037,0.07830277375562275,0.08004525074158554, ,1.8249421119689941
0.015189822419278163,0.019794078965324726,-0.09335149309449521, ,0.016176313451933478,0.01939567224870577,-0.09472018277236402, ,0.0017335523942647569, ,0.01665072467630692,-0.00035551210654194074,-0.044380688228639095,-0.004453344738645726,0.01826348915327141,-0.13892084319914594, ,0.04740272680713356, ,0.01879401873959799, ,0.0006476521686688742, ,0.1647953968030768,-0.17724444219632673,0.10353727488000002,3.024358054877295,0.3159035874576983,-0.28504225003335515, ,0.09222248936683264,0.09604953599035504,0.04564129375358167,0.17852134135179037,0.07830277375562275,0.08004525074158554, ,1.8271210193634033
0.015369012888471407,0.01980230101165048,-0.09384199112276294, ,0.016224455051323933,0.01938833531245098,-0.09482219690612625, ,0.0013652663739499452, ,0.01783175658901483,0.0012853423354572818,-0.05032355377316597,0.02871261780910208,0.01962211969357155,-0.03380022802308568, ,0.05340490344837184, ,0.0347723922092895, ,0.0006523733147562496, ,0.16577618387810333,-0.1762945460527971,0.10404412427000001,3.0258258844816868,0.31699667945582183,-0.2842183397199748, ,0.0963420726481937,0.09349452370292687,0.052054939607843145,0.08844513964026243,0.1278735645291994,0.09823768929726312, ,1.8297991752624512
0.015369012888471407,0.01980230101165048,-0.09384199112276294, ,0.016272543728886757,0.01938104015170325,-0.09492389827753167, ,0.0014711736074457438, ,0.01783175658901483,0.0012853423354572818,-0.05032355377316597,0.02871261780910208,0.01962211969357155,-0.03380022802308568, ,0.05340490344837184, ,0.0347723922092895, ,0.0006577249506561809, ,0.16577618387810333,-0.1762945460527971,0.10404412427000001,3.0258258844816868,0.31699667945582183,-0.2842183397199748, ,0.0963420726481937,0.09349452370292687,0.052054939607843145,0.08844513964026243,0.1278735645291994,0.09823768929726312, ,1.8322491645812988
0.015369012888471407,0.01980230101165048,-0.09384199112276294, ,0.016320579287543914,0.01937378681138476,-0.09502528723078216, ,0.0015777492547697875, ,0.01783175658901483,0.0012853423354572818,-0.05032355377316597,0.02871261780910208,0.01962211969357155,-0.03380022802308568, ,0.05340490344837184, ,0.0347723922092895, ,0.0006636991344491264, ,0.16577618387810333,-0.1762945460527971,0.10404412427000001,3.0258258844816868,0.31699667945582183,-0.2842183397199748, ,0.0963420726481937,0.09349452370292687,0.052054939607843145,0.08844513964026243,0.1278735645291994,0.09823768929726312, ,1.834665060043335
0.015369012888471407,0.01980230101165048,-0.09384199112276294, ,0.016368561531073973,0.019366575336205092,-0.09512636411023083, ,0.0016848051294165054, ,0.01783175658901483,0.0012853423354572818,-0.05032355377316597,0.02871261780910208,0.01962211969357155,-0.03380022802308568, ,0.05340490344837184, ,0.0347723922092895, ,0.0006702869150618192, ,0.16577618387810333,-0.1762945460527971,0.10404412427000001,3.0258258844816868,0.31699667945582183,-0.2842183397199748, ,0.0963420726481937,0.09349452370292687,0.052054939607843145,0.08844513964026243,0.1278735645291994,0.09823768929726312, ,1.8381271362304688
0.015466487896762342,0.019808699259876904,-0.09412153354281043, ,0.01641649026411106,0.019359405770661777,-0.09522712926038267, ,0.0015253560332372704, ,0.0184805805608493,0.0011722396329138726,-0.052359679073999514,0.039495795243972454,0.02150111397714147,0.007901149872124463, ,0.05553775289256163, ,0.04496467733496688, ,0.0006757681273578157, ,0.16630905244642483,-0.1757616774844756,0.10433319694000001,3.0258258844816868,0.31781649845441445,-0.2836616660400449, ,0.10020796363090896,0.09999677719543813,0.054179631020408174,0.05394720705118764,0.15318395780071123,0.10848148859885015, ,1.8406071662902832
0.015466487896762342,0.019808699259876904,-0.09412153354281043, ,0.016464365292144054,0.0193522781590406,-0.09532758302589349, ,0.0016305320828328793, ,0.0184805805608493,0.0011722396329138726,-0.052359679073999514,0.039495795243972454,0.02150111397714147,0.007901149872124463, ,0.05553775289256163, ,0.04496467733496688, ,0.0006818494264372747, ,0.16630905244642483,-0.1757616774844756,0.10433319694000001,3.0258258844816868,0.31781649845441445,-0.2836616660400449, ,0.10020796363090896,0.09999677719543813,0.054179631020408174,0.05394720705118764,0.15318395780071123,0.10848148859885015, ,1.843074083328247
0.015466487896762342,0.019808699259876904,-0.09412153354281043, ,0.016512186421515553,0.019345192545415908,-0.09542772575156974, ,0.001736220598093745, ,0.0184805805608493,0.0011722396329138726,-0.052359679073999514,0.039495795243972454,0.02150111397714147,0.007901149872124463, ,0.05553775289256163, ,0.04496467733496688, ,0.0006885226617009232, ,0.16630905244642483,-0.1757616774844756,0.10433319694000001,3.0258258844816868,0.31781649845441445,-0.2836616660400449, ,0.10020796363090896,0.09999677719543813,0.054179631020408174,0.05394720705118764,0.15318395780071123,0.10848148859885015, ,1.845353126525879
0.015466487896762342,0.019808699259876904,-0.09412153354281043, ,0.016559953459420934,0.019338148973650212,-0.09552755778236781, ,0.0018422781198318564, ,0.0184805805608493,0.0011722396329138726,-0.052359679073999514,0.039495795243972454,0.02150111397714147,0.007901149872124463, ,0.05553775289256163, ,0.04496467733496688, ,0.0006957789853369668, ,0.16630905244642483,-0.1757616774844756,0.10433319694000001,3.0258258844816868,0.31781649845441445,-0.2836616660400449, ,0.10020796363090896,0.09999677719543813,0.054179631020408174,0.05394720705118764,0.15318395780071123,0.10848148859885015, ,1.8476412296295166
0.015739294616956837,0.019821392904482947,-0.09487856844882596, ,0.016607666213907565,0.01933114748739533,-0.09562707946339383, ,0.0012468674902713559, ,0.018956181965421988,0.0005444730889056712,-0.050457229902323576,0.04506642568530925,0.05175956852922417,0.08809415171012212, ,0.05390329614287673, ,0.06862731676396709, ,0.0006992232884928068, ,0.16782270808977282,-0.17426346730687606,0.10511745239,3.026035574425171,0.3202759554501924,-0.2815015725594117, ,0.10857773633692308,0.10382597544690457,0.05239740631578948,0.0,0.1816803109976249,0.1598562046517609, ,1.8499181270599365
0.015739294616956837,0.019821392904482947,-0.09487856844882596, ,0.016655324493873684,0.019324188130091926,-0.09572629113990298, ,0.0013434869124961328, ,0.018956181965421988,0.0005444730889056712,-0.050457229902323576,0.04506642568530925,0.05175956852922417,0.08809415171012212, ,0.05390329614287673, ,0.06862731676396709, ,0.0007032249259089766, ,0.16782270808977282,-0.17426346730687606,0.10511745239,3.026035574425171,0.3202759554501924,-0.2815015725594117, ,0.10857773633692308,0.10382597544690457,0.05239740631578948,0.0,0.1816803109976249,0.1598562046517609, ,1.852174997329712
0.015739294616956837,0.019821392904482947,-0.09487856844882596, ,0.01670292810906741,0.019317270944969458,-0.09582519315729873, ,0.0014418137174656443, ,0.018956181965421988,0.0005444730889056712,-0.050457229902323576,0.04506642568530925,0.05175956852922417,0.08809415171012212, ,0.05390329614287673, ,0.06862731676396709, ,0.0007077841159803139, ,0.16782270808977282,-0.17426346730687606,0.10511745239,3.026035574425171,0.3202759554501924,-0.2815015725594117, ,0.10857773633692308,0.10382597544690457,0.05239740631578948,0.0,0.1816803109976249,0.1598562046517609, ,1.8544042110443115
