NicholasDascanio/dvrk_moveit_final/test/execution/third_experiment_notsharpbends/thirdexp_500vel3.0/thirdexp_500vel3.0_8.csv
Current Position (x),Current Position (y),Current Position (z), ,Planned Position (x),Planned Position (y),Planned Position (z), ,Position Error,,Cartesian linear Velocity(x),Cartesian linear Velocity(y),Cartesian linear Velocity(z),Cartesian Angular Velocity(x),Cartesian Angular Velocity(y),Cartesian Angular Velocity(z), ,Total Linear Velocity, ,Total Angular Velocity, ,MSE, ,Joint 1 Position,Joint 2 Position,Joint 3 Position,Joint 4 Position,Joint 5 Position,Joint 6 Position, ,Joint 1 Velocity,Joint 2 Velocity,Joint 3 Velocity,Joint 4 Velocity,Joint 5 Velocity,Joint 6 Velocity, ,Time Stamp
0.008123655618719866,0.0204069376380457,-0.0743157201663877, ,0.00821621025230215,0.02031395934411422,-0.07445929248952564, ,0.0001944847945500755, ,0.000251645199174853,0.0003631632650907145,-0.001573605589251026,0.05459859449574499,-0.24755010434030733,-0.12339081581855245, ,0.0016344563052896732, ,0.2534996265870981, ,1.6207066212506292e-05, ,0.11315348207313751,-0.23904947338874546,0.08422125759000001,2.9922754935241627,0.23843069209069356,-0.23330332225716297, ,0.0009582168244605189,0.00031172406061225576,0.0016317159926244624,0.000337243969858449,0.0,-0.2810590790089291, ,0.022146940231323242
0.008136290574046828,0.020404706158422645,-0.07437089215021957, ,0.008282281058561792,0.02031446240229838,-0.07465393618157298, ,0.0003310152274036996, ,0.000790499014246817,-0.0002257275981849523,-0.003625460087371403,-0.04168594986307294,-0.259051566474119,-0.1354053154771388, ,0.003717499493642279, ,0.26238413158583956, ,2.3886364634262503e-05, ,0.11320754120325709,-0.23895680059425478,0.08427051661000001,2.992485183467647,0.23761087309210094,-0.2385156841251049, ,0.0030761467627722127,0.003481365316571788,0.003317120266555602,0.0007126999119993193,-0.08846246263151793,-0.26873182256601424, ,0.0465848445892334
0.008160526368547411,0.020396202454893604,-0.07447241645318647, ,0.008348257133269197,0.020314959682522334,-0.07484797533919021, ,0.0004276537208326, ,0.001561731242880701,0.0002116877593872379,-0.007255390472693166,-0.1009285379861535,0.009296182845552715,0.01257909718694571, ,0.007424588008348399, ,0.10135575353878726, ,2.9786054462074223e-05, ,0.11333110492924468,-0.2388023459367703,0.08436255320000001,2.992904563354616,0.235151416096323,-0.24214599492826813, ,0.008578560122657845,0.010234711660540366,0.0070512667197875165,-0.010408467197847705,-0.08415283166715774,0.013169247124599659, ,0.0684199333190918
0.008217185782269857,0.020431542273213407,-0.07475805582942961, ,0.008414138425054174,0.020315451213314826,-0.07504141095490893, ,0.00036408461217621427, ,0.001969611091081268,0.0008139396849274078,-0.009418189330032477,-0.0187712511473525,-0.019479249263511633,0.005488296812967449, ,0.009656301358032882, ,0.02705181966899418, ,3.136281797529975e-05, ,0.11364773697708788,-0.2383698728958137,0.08465551474,2.992904563354616,0.2350147795965576,-0.24440326048864805, ,0.012108191105582887,0.018832494851849728,0.009458914204275535,-0.010408467197847705,0.0,-0.00558591016651222, ,0.09440779685974121
0.008263222837528592,0.020442600988710938,-0.07493989568503175, ,0.008479924883010538,0.020315937023246845,-0.07523424402043338, ,0.00038683908698173544, ,0.0020055429614025916,0.0007546388068138264,-0.007002031024005439,0.051706900064907274,0.05369812282267765,0.019827130629807187, ,0.0073225761013399875, ,0.07454590459690114, ,3.277072003739086e-05, ,0.11397981449067954,-0.23791423165623446,0.08483829163,2.9931142532981005,0.23528805259608845,-0.239562014407326, ,0.016858579065281716,0.02191109248637053,0.0072900739221967974,0.017550630589530006,0.0853318414779648,0.06155688417602709, ,0.11671185493469238
0.008319504274669442,0.02043774222010446,-0.07511734718031891, ,0.008545616456695321,0.02031641714093077,-0.0754264755266416, ,0.00040175468659021794, ,0.002313826477723567,-0.0004099127890646462,-0.006463191005927805,-0.014103149914688366,0.028505123322634808,0.0106777172113696, ,0.006877111271657561, ,0.03180315836323051, ,3.396503433120231e-05, ,0.11445862392888145,-0.23722690843042848,0.08501458707000001,2.993323943241585,0.23597123509491563,-0.23979238896524585, ,0.02071985623547397,0.02767481526931198,0.006384293194388779,0.011224538004271922,0.022212528561603637,0.04932968436404989, ,0.14347600936889648
0.008368059828744279,0.02042178231921979,-0.07525809510004297, ,0.008611213096128303,0.020316891595020783,-0.07561810646358536, ,0.00044691582802823765, ,0.0026660020047358183,-0.00045379791976023253,-0.008313112682624472,-0.014585794929850978,-0.04070376844291952,-0.02403233413617792, ,0.008741930090960803, ,0.043238202315636735, ,3.545483273003862e-05, ,0.1148833742369638,-0.2365936443347421,0.08515069752000001,2.993323943241585,0.23597123509491563,-0.23995574644552697, ,0.02228150776202648,0.03256586875719657,0.008168621292307693,0.011224538004271922,0.01173878984129534,-0.02583886659115836, ,0.16547083854675293
0.008446989651088378,0.020413254638069152,-0.07549708129095976, ,0.008676714751791343,0.020317360414211838,-0.07580913782049171, ,0.0003991849216662743, ,0.003310639823638292,-0.0001359245409944176,-0.0098011547691623,-0.030333847325258508,-0.02561070163054071,-0.014027101270134979, ,0.010346083622887319, ,0.039699499255221406, ,3.5999181441817746e-05, ,0.1155398065312729,-0.23573642098570316,0.0853866223,2.9939530130720384,0.23610787159468108,-0.2399854856090828, ,0.02811761231362097,0.031748725847598115,0.009730489627367138,0.01073335324219379,0.0,0.0, ,0.18928980827331543
0.008512102894259722,0.02040852748943689,-0.07568492579839878, ,0.008742121374627586,0.020317823627240626,-0.07599957058576298, ,0.000400171256018627, ,0.00302607903298881,-0.0003495975609728295,-0.00883589429529875,-0.03105688662534213,-0.010922960079530647,-0.009761205107719861, ,0.009346250626118777, ,0.032921743725083656, ,3.6435914502692193e-05, ,0.11610356603109127,-0.23507226595851985,0.08557328806,2.9941627030155233,0.23638114459421197,-0.23979992771577288, ,0.025703396955165436,0.03146450316925424,0.008723335991237677,0.012477189645650555,0.0013943432926059236,0.013257324286440154, ,0.21197080612182617
0.008573105793526646,0.020402687247095007,-0.07584620241818418, ,0.00880743291604112,0.020318281262884288,-0.07618940574697763, ,0.00042405435431250906, ,0.002980002879273494,-0.00021563049354246652,-0.007286395733212411,-0.008607109937188412,-0.016379386896696185,-0.009642422267773586, ,0.007875181042439578, ,0.01850315205699408, ,3.702116165255089e-05, ,0.1169298984486333,-0.23419187441085826,0.08580402768,2.9941627030155233,0.23679105409350829,-0.23939907276559708, ,0.028497580047588827,0.029082728028952128,0.007432949846010267,0.011851054832175729,0.017197406979012224,0.029799290312356754, ,0.2345290184020996
0.008662022555968821,0.020393750582933228,-0.07606851360629752, ,0.008872649327896099,0.020318733349961086,-0.07637864429089083, ,0.00038232481455121665, ,0.0028323757637446624,-9.875385910775459e-05,-0.007387410259853325,-0.01339212374702194,-5.1259366571835717e-05,-0.0014944424157691061, ,0.007912391240271363, ,0.013392221024768987, ,3.7129315206351854e-05, ,0.11747048974982902,-0.23362811491103988,0.08595569361000001,2.9945820829024923,0.2372009635928046,-0.23924325403584296, ,0.025380299962147843,0.025346405330788135,0.007408749544186048,0.011257816291508219,0.01535571229351262,0.023308363460127282, ,0.2587738037109375
0.00871967570018128,0.020392999287785357,-0.0762211189253039, ,0.008937770562516337,0.020319179917329504,-0.0765672872034358, ,0.0004157488968310682, ,0.0030689149650488298,0.00012099011199117682,-0.008381947808321216,-0.015312641278657477,0.008423516977071999,0.005884541521232531, ,0.008926921458785281, ,0.017476629532553665, ,3.749370655690554e-05, ,0.11798019011952783,-0.23314158273996372,0.08610865583,2.9947917728459768,0.23733760009257007,-0.2389462782388366, ,0.026890604012034792,0.02560629831583129,0.008450297888594166,0.00897166299840609,0.016257656643306324,0.0350979331050884, ,0.2806999683380127
0.00881500305448734,0.02040971631510439,-0.07651420058125304, ,0.009002796572684513,0.020319620993888517,-0.0767553354697226, ,0.00031863710835226486, ,0.0027848588273405653,0.0003198533551485505,-0.008205065621708734,-0.01804241460403576,-0.010172443663537612,0.00399178503883778, ,0.008670688941114368, ,0.02071249134322401, ,3.706719172950561e-05, ,0.11876018613982452,-0.2324388140484093,0.08640550624000001,2.995001462789461,0.23761087309210094,-0.23851568412510493, ,0.02336787529142349,0.021229740840821205,0.008283313322932919,0.000381459760093072,0.005827639749955593,0.013931470190536244, ,0.30628490447998047
0.008869461976250456,0.020411650729579605,-0.07666446032089097, ,0.009067727311641701,0.0203200566085776,-0.07694279007404112, ,0.00035378818197977544, ,0.0025029612269347936,6.559379427223573e-05,-0.0068109866062369216,0.0008211477057914281,-0.004023378557469776,-0.009752116550322862, ,0.007256628418192893, ,0.004106317561302815, ,3.6948292185031804e-05, ,0.11923127284515221,-0.2319677273430816,0.08655717217,2.995211152732946,0.23802078259139725,-0.23835986539535084, ,0.02165113884519069,0.022192923657266318,0.006883669628349179,0.016376003112717825,0.023788879460191682,0.011896284024689674, ,0.32851386070251465
0.008916784075727961,0.020412162567677257,-0.0767961940201207, ,0.009132562733086732,0.020320486790376166,-0.07712965199985951, ,0.0004076261784611043, ,0.002419745349772274,8.499456792849993e-05,-0.007246823572179576,-0.01816182938202008,-0.00033939034431299756,0.004419278858237202, ,0.007640604918500854, ,0.01816499965100035, ,3.744558721016967e-05, ,0.11963285495461189,-0.23156614523362193,0.08668939375000001,2.99542084267643,0.2381574190911627,-0.23806288959834443, ,0.019890367126068075,0.020611846559181315,0.0071365643010752695,0.002919916876966198,0.0066189022993552804,0.021427139091562852, ,0.3507828712463379
0.008971108792235906,0.020415754218583937,-0.07696781716611267, ,0.009197302791175576,0.020320911568303242,-0.0773159222298262, ,0.0004258356359577963, ,0.0026978069880042995,0.0004475619854100543,-0.009013931874998226,-0.014001990519819839,0.004377842856811346,-0.009620464934061494, ,0.009419630678663473, ,0.014670418776865453, ,3.800074565433385e-05, ,0.12005760526269423,-0.23107189032967154,0.08686180032000002,2.9958402225633995,0.23843069209069356,-0.23771397422475332, ,0.0202988110285499,0.02225538029044812,0.009096979737292977,0.018404878251230126,0.01035233632565359,0.021545335987218972, ,0.37105584144592285
0.009025731301085601,0.020428958860584767,-0.0771659558133903, ,0.009261947440520769,0.02032133097141795,-0.07750160174576938, ,0.00042431122890961167, ,0.0029541538510773437,0.0008420059893410412,-0.01139677174253111,-0.012122719639919644,0.03944317205201603,0.010381347542028421, ,0.01180349122985555, ,0.04126407591021564, ,3.848775463670431e-05, ,0.1204591873721539,-0.23059308089146963,0.08706272527,2.9958402225633995,0.23897723808975535,-0.2373428584381334, ,0.02006277834217141,0.02560629831583129,0.011542617043478264,0.016236721439060596,0.023466016625496508,0.05951568918766677, ,0.39313387870788574
0.009084760286520846,0.020438217460962083,-0.07736890453903365, ,0.009326496636190843,0.020321745028818797,-0.07768669152869867, ,0.0004159217005657448, ,0.0027959349214576705,6.605544876324854e-05,-0.008917519046595742,-0.017494385892690992,0.013403503854499423,0.01218469588500511, ,0.009345788428684635, ,0.022038770313872143, ,3.887838333802682e-05, ,0.1208993831459847,-0.23006793505602235,0.08726753909000001,2.996049912506884,0.23938714758905166,-0.2366969672675359, ,0.02201274450440055,0.027013077585673433,0.00893371369601795,0.0029610748682704223,0.01646934300900308,0.036759868103264454, ,0.41353797912597656
0.009164429519521795,0.02042641917217664,-0.07758409008939135, ,0.009390950333709673,0.0203221537696439,-0.07787119255880447, ,0.00038027724277001226, ,0.002495019310321796,-0.0003992535227182012,-0.006001812501878897,0.001968069650272308,-0.014210989555451747,-0.015268924821946184, ,0.0065120102919138095, ,0.014346620316497177, ,3.904079934191864e-05, ,0.12157126090604223,-0.22923387990560612,0.08748142694000001,2.9966789823373374,0.23993369358811342,-0.23681592392175935, ,0.022177364234276884,0.030740829788944213,0.006763826547770702,0.011924292828727248,0.02109900762643167,-0.0007461826625159585, ,0.43653297424316406
0.009191486788752649,0.02041874339467827,-0.07766113246576382, ,0.009455308489055965,0.020322557223070335,-0.07805510581545944, ,0.00048380643797897566, ,0.002849488900772196,-0.000403685318299,-0.008245180252632676,-0.012837130951675192,-0.02301216708815406,-0.015124083015697858, ,0.008733014727471719, ,0.026350554587274404, ,3.971650976998858e-05, ,0.12179522015939474,-0.2289172478577629,0.08755661176000001,2.9966789823373374,0.23993369358811342,-0.23673424518161879, ,0.02328187967577791,0.03051348603166263,0.008177007967145792,0.011924292828727248,0.015363999239557911,-0.005211018447501234, ,0.45611000061035156
0.009281771129353569,0.02041459616361653,-0.07794115733752051, ,0.009519571058662626,0.020322955418314588,-0.07823843227721823, ,0.0003915599856358826, ,0.003177249212934917,-0.0002159817144222415,-0.010001653723575034,-0.038208991652141255,0.022834776990191923,-0.002015062408219778, ,0.010496410713589796, ,0.04451240257706255, ,3.9882906831968995e-05, ,0.1225057115838234,-0.22804457904297554,0.08783531411,2.9966789823373374,0.24007033008787887,-0.235947196943769, ,0.024073298213716583,0.03141242686477021,0.009924493158878505,0.019457616759087436,0.0,0.048168857140394414, ,0.4772348403930664
0.009316038698346544,0.02041742765073728,-0.07804282812923262, ,0.009583737999416222,0.020323348384631842,-0.07842117292181858, ,0.00047292558207506915, ,0.003447319763596916,0.0005956276605377907,-0.010008236416146133,0.05830792687301639,-0.04844083765120015,-0.0238540099423249, ,0.010602055556539838, ,0.07580454464058509, ,4.041552094686315e-05, ,0.12279145270016971,-0.22771250152938388,0.08793901731,2.9966789823373374,0.24075351258670605,-0.23625925024182942, ,0.028800285753708885,0.030376741856104606,0.010323273830200909,0.016223490414019655,0.08066184791715411,-0.03927089167480928, ,0.49695682525634766
0.00942156703941121,0.020422895810096396,-0.07834556828377798, ,0.009647809268656434,0.02032373615131638,-0.07860332872618153, ,0.00035701348698794806, ,0.0029335270198669874,-0.0003181119993019479,-0.007923703756655043,-0.03205667972708987,0.005896671102926628,0.05094541750010577, ,0.008455285757655907, ,0.03259449975051512, ,4.038535860814646e-05, ,0.12362550785058594,-0.2268321099817223,0.08824494175000001,2.9979371219982447,0.24143669508553328,-0.23485604999693807, ,0.02560629831583129,0.027183311818525,0.007893365470763133,-0.035618572897373205,0.007786085723077788,0.04353850131684046, ,0.5207688808441162
0.009480131457386048,0.020414830274362264,-0.07848859401940443, ,0.009711784824175384,0.02032411874770081,-0.07878490066641196, ,0.0003868972634627042, ,0.0027927439191036667,-0.0005076019491733314,-0.0067198684420247,-0.003388034099842156,-0.013767328918598677,0.024411282739874984, ,0.007294772800753601, ,0.014178085445924957, ,4.0486345832238645e-05, ,0.12415065368603322,-0.226237459550407,0.08838882994000001,2.9979371219982447,0.2422565140841259,-0.23478944875785154, ,0.02550993052647064,0.028489024784890654,0.006718182842682413,-0.018226263845743093,0.03028971450367834,0.013150323188684029, ,0.543914794921875
0.009538094534767918,0.020403615125322926,-0.0786284508795581, ,0.009775664624217171,0.020324496203156385,-0.07896588971779865, ,0.00042019557446367416, ,0.003042472695246917,-0.0003368846296508839,-0.007617022998548617,-0.03682870798982613,0.015940402443776223,0.030325211787823207, ,0.008209090736216564, ,0.04013041410986111, ,4.071795770764747e-05, ,0.12466035405573203,-0.22568914551633706,0.08852753297,2.9979371219982447,0.24239315058389135,-0.23383904303972067, ,0.026485331163402397,0.025668634449140054,0.007595999771101576,-0.012027475148261326,0.0,0.051113421275150894, ,0.5652289390563965
0.009597936035422125,0.020405423142973694,-0.07879399277939747, ,0.009839448627477224,0.020324868547092746,-0.07914629685481563, ,0.00043466715610333026, ,0.002981409927349744,0.00012274763151544918,-0.008384428383470463,0.008430747631807393,-0.0067882016424522015,0.008742536535871977, ,0.008899579285195866, ,0.010823915453052148, ,4.0990779854585476e-05, ,0.12517005442543086,-0.22514083148226713,0.08869605067000001,2.99772743205476,0.24334960608224945,-0.23388385970433057, ,0.02468702954174578,0.026265414214910264,0.00851808102673797,0.0,0.03809797106190204,0.014249194724997872, ,0.5858118534088135
0.009679675652350183,0.02041243755330523,-0.07903771796164766, ,0.009903136793101773,0.020325235808958036,-0.07932612305112184, ,0.0003751220085223036, ,0.003417700692146299,0.0005337499637853953,-0.010521052491265637,-0.024696882415561925,0.009588468191653775,-0.023406654591824796, ,0.011075112305024499, ,0.026492915928558698, ,4.101473734428059e-05, ,0.12578787305536882,-0.22450756738658073,0.08894234577000001,2.998566191828698,0.24362287908178032,-0.23304487188989606, ,0.02505860616806728,0.023219217410929967,0.010654723424749164,0.03468887632380127,0.0,0.030500378226016277, ,0.606982946395874
0.009741732387760901,0.020421802926724297,-0.07922574918125454, ,0.009966729080687362,0.02032559801823771,-0.07950536927956185, ,0.00037157273261388435, ,0.0027255754844754485,0.0003413082237352914,-0.008189592044507608,0.03289318782140301,-0.02830128259348311,-0.004664771188067431, ,0.008637978402417154, ,0.04339267639419108, ,4.1023842182024467e-05, ,0.12627440522644495,-0.22402103521550457,0.08913419669000001,2.998566191828698,0.24430606158060753,-0.2329485314872537, ,0.021735442409177914,0.024616586655893846,0.008392419135932562,0.003018928525691028,0.05489159506781294,-0.01684128422169308, ,0.6297738552093506
0.00979708298071364,0.02041797120206517,-0.07937865300621674, ,0.010030225450280142,0.020325955204455962,-0.07968403651216628, ,0.0003950714373852105, ,0.00260953987276532,-0.0001903479713957529,-0.0069875857146597204,-0.016171336721437498,0.03133289718120678,0.02010091185792231, ,0.0074613862530687365, ,0.03525992853747288, ,4.1266163558578866e-05, ,0.12672232373314998,-0.22353450304442843,0.08928715891000001,2.998566191828698,0.24444269808037297,-0.23183476828884167, ,0.021503952313272328,0.023670975694305506,0.007020190180696343,0.0038376927881473466,0.0181045561647344,0.05603588997061718, ,0.6481888294219971
0.00982302308895566,0.020419576089780202,-0.079450725805313, ,0.010093625862375404,0.02032630739717434,-0.07986212572015217, ,0.0005011734230109769, ,0.0029071819390632816,1.2411379416064905e-05,-0.00812671418402439,-0.002155756651345162,-0.011478683871520543,0.0008465345462501123, ,0.008631068549025546, ,0.011679359345250774, ,4.186843156753079e-05, ,0.12693856025362826,-0.22329509832532748,0.08936104744000001,2.998566191828698,0.24498924407943473,-0.23203540368320566, ,0.02345450854139169,0.025038770859754825,0.008214962104177412,0.0036979713458149097,0.024472371063585945,0.008785985450864443, ,0.6661028861999512
0.00989676593309944,0.020426416631423822,-0.07967047003751225, ,0.010156930277917083,0.02032665462599206,-0.08003963787392364, ,0.00046251792990415635, ,0.0030667428034241804,0.00033920841771015436,-0.009271295589553682,-0.012846870068156824,0.032045906327098236,0.007059629376935919, ,0.009771227951587098, ,0.03452509398063145, ,4.230531676398254e-05, ,0.1274868742876982,-0.22271589335976064,0.08958141674,2.999195261659152,0.2455357900784965,-0.2310925367156018, ,0.023044424856355213,0.02358860093424578,0.009380925512367492,0.017125237798803133,0.019920167181777165,0.05643584198883122, ,0.6855349540710449
0.00995849287142566,0.020438093012147034,-0.07986936188737315, ,0.010220138658297047,0.020326996920546004,-0.08021657394307204, ,0.00044872828190255687, ,0.0031835554900390304,0.0008616606659224636,-0.009887574418907008,0.05246336387332303,-0.02414504432123498,-0.0042317596738057186, ,0.010423128731373313, ,0.0577528148203652, ,4.2672935923284864e-05, ,0.12795023826015167,-0.22219847025718759,0.08978752685000001,2.9994049516026364,0.24649224557685456,-0.23113735338021169, ,0.024521173529320612,0.024926961270940576,0.010256800721184806,0.007475627404485306,0.0753620732904937,-0.013242775521149018, ,0.7056019306182861
0.010026449865988057,0.0204469972015995,-0.08008408736515606, ,0.01028325096535466,0.020327334310510366,-0.08039293489637621, ,0.0004191095437716591, ,0.0032551350692072946,-3.8112295719676045e-05,-0.010046611893856756,-0.03602909874486795,0.020206743715634017,0.00976933710049951, ,0.010560860164383025, ,0.041308695762567196, ,4.292529324921142e-05, ,0.12845221589697628,-0.22167332442174031,0.09000530357000001,2.9994049516026364,0.2469021550761509,-0.23049146220961422, ,0.023849444975740333,0.027878067437858627,0.010049723356466879,0.007475627404485306,0.0,0.048050492429471556, ,0.7272908687591553
0.010087305529695523,0.020448661742093054,-0.08025109260844836, ,0.010346267161376184,0.02032766682559666,-0.08056872170180356, ,0.00042730450201972433, ,0.002962208365380746,-7.794104899616974e-06,-0.007736322689906084,0.029212786529945807,-0.006289202470834297,3.9615901088274966e-05, ,0.008284046590305886, ,0.029882117342166562, ,4.319080640119254e-05, ,0.12893874806805242,-0.2211636240520415,0.09017511756,2.999614641546121,0.24758533757497808,-0.2303951218069718, ,0.02464855624895345,0.027387284721059387,0.007916904333996026,0.009916076683436633,0.05821475100117005,0.009230792503107134, ,0.7450599670410156
0.010144069496820313,0.020442792265818882,-0.08039843713605273, ,0.01040918720909432,0.020327994495553427,-0.0807439353265097, ,0.00045037198961343496, ,0.003128217746539217,-0.00036548644880981303,-0.008239093781105461,-0.034253488378719735,0.029155653028964626,-0.0026443237994253866, ,0.008820543801142717, ,0.044981702187559036, ,4.3514403741945296e-05, ,0.12938666657475745,-0.2206616464152169,0.09032289462000001,3.0002437113765743,0.24785861057450898,-0.22980117021295907, ,0.024521173529320612,0.026799475164775707,0.008219200990712074,0.023482888290381254,0.0,0.054980430896725246, ,0.7658669948577881
0.010213543258583176,0.020444111693656286,-0.08060341200578333, ,0.01047201107168753,0.020328317350166315,-0.0809185767368392, ,0.00042372484951527605, ,0.0032700366424758265,0.0002386823874653719,-0.009631007468978967,0.015261905664311737,0.0010361959197895615,-0.012337537587267688, ,0.010173810190521023, ,0.015297038394013763, ,4.374214355995648e-05, ,0.12991953514307894,-0.22005155051815317,0.09053030102000001,3.0002437113765743,0.24854179307333618,-0.22978650855045718, ,0.02458469988561419,0.027878067437858627,0.00981442484288355,0.023482888290381254,0.044085293770270643,0.016350852365292344, ,0.7835748195648193
0.010247138988616861,0.020442718182127798,-0.08070051945460906, ,0.010534738712779594,0.020328635419257415,-0.081092646898326, ,0.0004994921523293486, ,0.0033628892304725104,7.380014798568767e-05,-0.009701867670751357,-0.0013056463556911165,-0.005082299876307837,-0.0157793549137415, ,0.010268432535642481, ,0.005247322982506601, ,4.418201121833794e-05, ,0.13032883998541284,-0.21959590927857392,0.09068715211,3.0002437113765743,0.2486784295731016,-0.22916281779288852, ,0.026867763748151408,0.029664564413401307,0.009999253935969869,0.020678526024161405,0.0,0.07242806456729955, ,0.8023929595947266
0.010346000530809907,0.020440168259146768,-0.08096237997454737, ,0.010597370096438973,0.020328948732686213,-0.08126614677569363, ,0.0004096714672384265, ,0.00339616468665022,-0.0002674453426434998,-0.008462696414428511,-0.0011852683159404903,-0.0008219387252682688,0.005356707993783665, ,0.00912264721410035, ,0.0014423594709584513, ,4.434354965940612e-05, ,0.13096982681397346,-0.2189240315185164,0.09089326222,3.0004534013200588,0.2496348850714597,-0.22896259823707674, ,0.028026267441958293,0.029280142412363704,0.008563877161290324,0.00654258248936925,0.032420688442075817,0.02416316491148637, ,0.8211607933044434
0.010384481468109422,0.02043789364441634,-0.08106143881261368, ,0.010659905187178409,0.020329257320348335,-0.08143907733285569, ,0.0004798655310640361, ,0.0034618500605422247,-0.0002090415129680891,-0.0096078011609863,-0.04071616045283038,0.04121706166422847,0.016968418212052635, ,0.010214594820396446, ,0.05793661892434126, ,4.469500228240833e-05, ,0.13125556793031976,-0.21862284493642165,0.09098918768000001,3.0010824711505126,0.2496348850714597,-0.22830916831595224, ,0.026331004871939727,0.028125945927229036,0.009653825163636366,0.011237916886844428,0.01860785700176509,0.05882293217074286, ,0.839622974395752
0.010450822241516118,0.020442272239076895,-0.08124911327939542, ,0.010722343949954234,0.020329561212175995,-0.08161143953291639, ,0.00046659203564650186, ,0.003295333555736618,0.0004288869593752822,-0.0099691710885498,0.03807221226043583,-0.011380468845457261,-0.0031306077849758245, ,0.010508450859201993, ,0.03973673765016542, ,4.4994540791713924e-05, ,0.13178071376576703,-0.2180668081694775,0.09118492747000001,3.0010824711505126,0.2507279770695832,-0.22846540288425857, ,0.02458469988561419,0.02839525480504811,0.010243608694533763,0.011237916886844428,0.06663804267679294,0.0018820188754634995, ,0.85788893699646
0.01052107662288032,0.02044310498941508,-0.08145471625888992, ,0.010784686350165898,0.020329860438137826,-0.08178323433817052, ,0.0004361634385500186, ,0.003547327567776026,-0.00013395544513363118,-0.009645600480388757,-0.03615770288330451,0.028823405935486286,0.005241550110793483, ,0.010278087641271626, ,0.046240330059666185, ,4.5199398620252385e-05, ,0.13229813686834008,-0.21750304866965908,0.09139233387000001,3.001292161093997,0.2510012500691141,-0.22754473632968353, ,0.02686015894663764,0.02716774736858597,0.009694955276932442,0.01692190434818214,0.0,0.0589295425357247, ,0.8761038780212402
0.010589909161470826,0.020446694862986902,-0.08164350765654137, ,0.01084693235365552,0.020330155028238386,-0.08195446271010387, ,0.0004199232069558441, ,0.003470198162796711,0.0001957438371155808,-0.008880081839087424,0.020595242779473406,-0.00786144157037957,-0.00406134106151089, ,0.009536060214141722, ,0.022044641831778837, ,4.535289340444666e-05, ,0.1328387281695358,-0.21694701190271493,0.09158548108,3.001292161093997,0.25195770556747216,-0.22750787425415286, ,0.027837178515245174,0.026243623218603643,0.009128258750716333,0.01383655061829358,0.04819095992961492,0.011799547419332354, ,0.8969018459320068
0.010627638023002761,0.020442780020546402,-0.08173489014507776, ,0.010909081926707141,0.02033044501251881,-0.08212512560939401, ,0.0004940784781500222, ,0.0030826739905868653,-0.0003773698809925556,-0.007162496747884951,-0.018357175498468017,0.02828595464833753,0.011478959950460504, ,0.007806833328743709, ,0.033720633205782065, ,4.580924540527068e-05, ,0.13341021040222842,-0.21636780693714808,0.09175659136000001,3.001711540980966,0.25223097856700305,-0.22675056517985898, ,0.02605627170743294,0.028713144193183295,0.008979036933483654,0.008410113977970016,0.0,0.03233999229605863, ,0.9125938415527344
0.010695723886414484,0.020441608462769822,-0.08191334566018268, ,0.010971135036046426,0.02033073042105579,-0.08229522399591038, ,0.00048371097235237813, ,0.0032828871725877557,0.0005911991425374776,-0.00980240351420121,0.05020312928721389,-0.03615659689220022,-0.029365536291052412, ,0.01035441834529118, ,0.061868033737551384, ,4.622306838627444e-05, ,0.13365733785420358,-0.21609751128655022,0.09185510940000001,3.0021309208679354,0.25277752456606484,-0.226951200574223, ,0.02389147571965528,0.026006287080973085,0.010191178195777351,0.024737581556283424,0.06829426921986666,-0.03368087262520862, ,0.9288678169250488
0.010764150130119693,0.020449828000536997,-0.08212359847949763, ,0.011033091648839892,0.020331011283962114,-0.08246475882871442, ,0.0004503746623722116, ,0.0036186601179803075,0.000548384672831686,-0.011695283883084606,-0.020853738042535163,0.039030582548118684,0.0019049060568308816, ,0.012254594726256618, ,0.04425228294211383, ,4.653931073956195e-05, ,0.13415159275815397,-0.21559553364972564,0.09207288612,3.0021309208679354,0.25318743406536115,-0.2263053094036255, ,0.023939692623226736,0.025482529956624804,0.011878308366890382,0.024737581556283424,0.013711658645964788,0.06321648116318737, ,0.9455947875976562
0.010799954429927571,0.02045520417600566,-0.08223813463880901, ,0.01109495173269463,0.02033128763138615,-0.08263373106606052, ,0.0005087978497639675, ,0.003648127396367464,0.00027431822341399473,-0.010917584089437164,-0.009091074968918948,-0.019876866275524444,-0.026011301875835738, ,0.01151424015459793, ,0.021857202518119984, ,4.6987895726294876e-05, ,0.13439872021012914,-0.215332960732002,0.09218955222000001,3.0021309208679354,0.25346070706489204,-0.22611975151031555, ,0.025482529956624804,0.026663934127134248,0.011069361723419043,0.024737581556283424,0.014063590404955702,-0.0018008189133946473, ,0.9608149528503418
0.010860868028487201,0.02046157223332636,-0.08241822768349145, ,0.011156715255657553,0.020331559493512053,-0.08280214166539535, ,0.0005018155436409972, ,0.0036695643789979157,0.0004537784638758407,-0.01096324314006861,0.013343223847394779,-0.012271357846237363,-0.0031717722598962874, ,0.011569974838959215, ,0.018128091119970664, ,4.74045228914923e-05, ,0.13483891598395994,-0.21486959675954853,0.0923736254,3.00234061081142,0.25414388956371925,-0.2260234111076731, ,0.026360261544019662,0.027363593298290304,0.01121747290140845,0.00964952229657128,0.04153505495525903,0.007247810501869401, ,0.9770169258117676
0.010908769949461111,0.02046446015057248,-0.08255270132143484, ,0.011218382186215006,0.020331826900559336,-0.08296999158335956, ,0.0005362671711507231, ,0.0033718006457317887,0.00020280326625257868,-0.009139900782615883,0.0021800360727356363,0.01219619511274757,0.008184547388518803, ,0.009744124130747845, ,0.01238949832411605, ,4.7888967230142245e-05, ,0.13519416169617426,-0.21449890558158577,0.09251103214,3.002550300754904,0.254690435562781,-0.22581565280133428, ,0.0255580235815973,0.02468060898789877,0.009347894084507044,0.009331213087600758,0.03301743930320713,0.035451346072994064, ,0.9925289154052734
0.01098397156877451,0.020467172963193267,-0.08276731223824352, ,0.011279952493292153,0.020332089882782855,-0.0831372817757867, ,0.000492675963490614, ,0.0037208023846082247,0.00022076259642080012,-0.011403555481022669,-0.007321327171627086,-0.00941316609539966,-0.0033548108362844173, ,0.011997257358165108, ,0.011925155539936904, ,4.825599098976839e-05, ,0.13573475299736998,-0.21393514608176736,0.09272880886000001,3.0029696806418733,0.25510034506207735,-0.22508808289059626, ,0.025766207319704255,0.029020471424608806,0.011559369753265604,0.0089833435659952,0.023247751582040857,0.012805777984403799, ,1.008025884628296
0.01105975835111478,0.020473497652203604,-0.08299511377568748, ,0.01134142614625246,0.02033234847047293,-0.08330401319770471, ,0.00044122408280094757, ,0.003948277427361963,0.0005923876405479461,-0.012039989497347857,0.04298761360090834,-0.052514573543419645,-0.029921171156989373, ,0.012684682292290047, ,0.0678654190626006, ,4.849322068213667e-05, ,0.1362444533670688,-0.21338683204769743,0.09294917816,3.0029696806418733,0.25578352756090456,-0.22491006374781333, ,0.02724574836591179,0.030183505584755334,0.012309746151468317,0.0089833435659952,0.06389442997964273,-0.04240134984376603, ,1.0259788036346436
0.011100707062230021,0.020475592624408286,-0.08311505011868556, ,0.011402803114897298,0.020332602693954756,-0.08347018680333547, ,0.00048767838790783667, ,0.003997111177027899,0.0002849622335313242,-0.011334653666091151,0.004708834809261778,0.0010846739098596793,-0.005637169409860415, ,0.012022165984808814, ,0.004832127447165764, ,4.88278162648294e-05, ,0.136561085414912,-0.21304703180123155,0.09308269603000001,3.0031793705853578,0.2560568005604354,-0.2248061845946439, ,0.028852825040580957,0.02938895681587822,0.011576171162790699,0.01845853654377729,0.03682367054433885,0.02386236716332838, ,1.0413098335266113
0.011179618680028088,0.02047086703155577,-0.08332575536883605, ,0.011464083369465205,0.020332852583588773,-0.08363580354609539, ,0.0004428295604473899, ,0.0038542285012707917,-0.0003707426088240236,-0.009522306013455878,-0.02939352464688609,0.01524582868503441,0.013715251690921162, ,0.010279437690647467, ,0.03311215041596859, ,4.9052338146148476e-05, ,0.1371248449147304,-0.21244465863704204,0.09328880614000001,3.0033890605288422,0.2563300735599663,-0.22421223300063114, ,0.030011682972318397,0.029416286905911585,0.009869152118959109,0.004665466584422325,0.008666769555801366,0.049512379728459475, ,1.0589499473571777
0.01123987941981994,0.020463979422197576,-0.0834558817808829, ,0.01152526688063145,0.02033309816977006,-0.08380086437859625, ,0.00046646425131031575, ,0.0033480490099312044,-0.0006556083057497842,-0.006298104352871876,0.012443846589989281,-0.004595406225613901,-0.016344910673199174, ,0.007162776896088074, ,0.013265257872508754, ,4.9321698943275996e-05, ,0.13764226801730345,-0.21191951280159477,0.09342880546000001,3.0040181303592957,0.2572865290583244,-0.2243387284053816, ,0.028976165361365123,0.027788269856067582,0.006430686927735164,0.02649004868612039,0.04026639152720826,0.01518718306552265, ,1.0746479034423828
0.011281255674338863,0.0204484491215457,-0.0835281118093372, ,0.011586353619507616,0.020333339482928914,-0.08396537025264442, ,0.0005454630430122064, ,0.00315895506391014,-0.0013164295732824315,-0.006012647563638421,-0.030819352114309365,0.017770250354377955,0.06128021082511288, ,0.006918375144623419, ,0.03557547265384892, ,4.975318849157185e-05, ,0.138005236462392,-0.21155654435650623,0.09350010141000001,3.00422782030278,0.2572865290583244,-0.22360361974411655, ,0.028617895524267425,0.03195183217456929,0.005930309575577067,-0.03872899634240425,0.017840735705572933,0.05902744042527161, ,1.090669870376587
0.011356206563406773,0.020445728234442836,-0.08372271768572273, ,0.011647343557640919,0.020333576553530075,-0.0841293221192422, ,0.0005125094284995585, ,0.004101364645517362,0.0009321907513521605,-0.012307231548877886,0.039127912592686734,-0.01161824463620572,-0.0004040588504612081, ,0.0130060801147041, ,0.04081637992189547, ,5.01018872369191e-05, ,0.13858444142795884,-0.21095417119231671,0.09369843378,3.0040181303592957,0.258106348056917,-0.22353701850503, ,0.028617895524267425,0.0270053903125984,0.012753251817453966,0.010886699552283672,0.0671944896557786,0.006465229156317372, ,1.106881856918335
0.011385883245759086,0.02045140895065435,-0.08381492613590254, ,0.011708236667013726,0.020333809412072624,-0.08429272092858761, ,0.0005882425040628901, ,0.004240294336747072,0.0007916256946002408,-0.013222675547673172,0.008192537718505005,-0.016918945243574547,-0.004922948563518381, ,0.013908483596051536, ,0.018798084429638838, ,5.059881044487822e-05, ,0.13878523248268868,-0.2107611028704611,0.09379306295,3.0040181303592957,0.25837962105644785,-0.22335146061172004, ,0.0282768002260044,0.02763451996461001,0.013556435336170215,0.00955963356894206,0.03608664484781786,0.005117029752794721, ,1.1229329109191895
0.011486161317557824,0.02046833038445583,-0.08413364527056093, ,0.011769032920043101,0.020334038089090352,-0.08445556763007495, ,0.00044909327499105436, ,0.004266465759450597,0.0006032762080811459,-0.013499432819921043,-0.006304246855260499,0.009809551168801615,-0.003940121710493838, ,0.014170439609248632, ,0.011660633526367337, ,5.089943113149348e-05, ,0.1394262193112493,-0.210104670576152,0.09411843174000001,3.0046472001897495,0.2589261670555097,-0.22232691490397558, ,0.027522314837143496,0.029361677462398136,0.013767339256698359,0.019343634315194366,0.02725793314388774,0.033581951968928374, ,1.1366569995880127
0.011528135595080743,0.020479365693880536,-0.08425557681244668, ,0.011829732289580222,0.020334262615151606,-0.08461786317229461, ,0.0004932209201985368, ,0.004266063827444952,0.001099548723519409,-0.01176936782707227,0.05243925107763424,-0.034390851708080726,-0.02152842265029009, ,0.01256687419464965, ,0.06271048962469244, ,5.128274609763547e-05, ,0.13971968316046984,-0.20985754312417682,0.09424546816000001,3.004856890133234,0.25960934955433684,-0.22247561072175484, ,0.0308006950855147,0.02401238399758876,0.012309746151468317,0.022112310153219687,0.07097011685227633,-0.019998470286386603, ,1.1504719257354736
0.011613348820990835,0.02048228191468466,-0.08448204122985993, ,0.011890334748909845,0.02033448302085852,-0.08477960850303418, ,0.00043256444530929863, ,0.004029118304871801,2.4606442554196348e-05,-0.010053636250366128,-0.019322480295592154,-0.01806499837126105,0.03241091175648437, ,0.010830974178085003, ,0.026451886666483276, ,5.153449603457799e-05, ,0.1403375017904078,-0.20930150635723266,0.09447620778000002,3.0050665800767185,0.2598826225538677,-0.22220837408830432, ,0.031205834119852276,0.025921043856452004,0.010256800721184806,-0.026424622808227154,0.013950298783350539,0.018993706435920524, ,1.1651008129119873
0.011654664797143418,0.020478756364473015,-0.08458587143660172, ,0.011950840271749865,0.020334699336847693,-0.08494080456927808, ,0.0004842002350660828, ,0.0037173194510874445,-0.0005042163623640329,-0.009579384382158445,-0.027273144763116094,-0.02398353441199537,-0.016694693568542387, ,0.01028772585086956, ,0.03631851136122902, ,5.188308818369873e-05, ,0.14065413383825098,-0.2089925970422637,0.09458120727000001,3.004856890133234,0.26001925905363316,-0.22191139829129794, ,0.027020769236466628,0.02929822215451398,0.00960724458383595,0.013149867438859547,0.0,0.00034978264437985664, ,1.1781229972839355
0.011691627424505486,0.02047686295186964,-0.08468450927921148, ,0.012011248832250623,0.02033491159378943,-0.08510145231720839, ,0.0005441962231437251, ,0.0036871405549003104,-0.00020911276136643606,-0.010357308556274144,-0.027958872803445004,0.000664825533726575,-0.0005684799804796655, ,0.01099602537958268, ,0.027966773897626297, ,5.234154821133954e-05, ,0.14091670675597462,-0.2087145786587916,0.09468102160000001,3.0050665800767185,0.26015589555339863,-0.2217777799745727, ,0.02549622287976109,0.028134284482203013,0.010431441728880159,0.009049099169975518,0.003947427845845289,0.026900148238009583, ,1.194593906402588
0.011768491129922651,0.02048002371615981,-0.08489295723215769, ,0.012071560404994694,0.020335119822388326,-0.08526155269220456, ,0.0004987090705912596, ,0.003949585162968645,0.00011686962902816931,-0.009993747562968771,0.018812380388249523,-0.016416565447961863,-0.02737152282382513, ,0.010746528361386086, ,0.02496816327429076, ,5.2700808486287447e-05, ,0.14146502079004458,-0.208143096426099,0.09489490945000001,3.005485959963688,0.2611123510517567,-0.221740917899042, ,0.02891436366802888,0.027538288322249208,0.01027665259354839,0.031766925601996204,0.04273719005041529,0.00029388467887689167, ,1.210291862487793
0.011808969665255782,0.020476144214463598,-0.08499856723866912, ,0.012131774964995965,0.020335324053382398,-0.08542110663884418, ,0.0005500664723536451, ,0.0041663739391950986,-0.0002432963955120767,-0.010600963032642342,-0.012445440548021436,0.02015892338573882,-0.005777587468705392, ,0.011392904904225383, ,0.02369115971460799, ,5.3150542373664214e-05, ,0.1417584846392651,-0.20784190984400422,0.09500120523000001,3.005485959963688,0.2611123510517567,-0.22116916671805806, ,0.03023158380327199,0.03111375133064616,0.010769987505070995,0.026459163037598345,0.024389862413595878,0.04720082492992248, ,1.2232317924499512
0.011892785677528,0.02047847732937282,-0.0852142217023446, ,0.012191892487699496,0.02033552431754363,-0.0855801151009034, ,0.0004937392293416683, ,0.004254258590227841,0.0005571362717089962,-0.011820392003694306,0.06426089522230476,-0.056331665819836424,-0.012343618299523438, ,0.012575006325993697, ,0.08545594770436028, ,5.348293015902483e-05, ,0.14237630326920306,-0.20724725941268896,0.09522287082000001,3.005695649907172,0.2620688065501148,-0.2208872684221057, ,0.030552782214575268,0.031144385152107244,0.012281273338473403,0.004325139194393896,0.08813341058400567,-0.04342751018826668, ,1.2375469207763672
0.011936887785715155,0.020483656225590355,-0.08534010272031849, ,0.012251912948980778,0.020335720645677416,-0.08573857902135633, ,0.0005290644117529653, ,0.004631592780063142,0.0004476217624551082,-0.0134552171628173,-0.008971093212433088,0.01089494326384436,0.004822713127668752, ,0.014237095413781903, ,0.01411310954869093, ,5.387422119436094e-05, ,0.14267748985129783,-0.20694607283059419,0.09535249982,3.0059053398506568,0.26261535254917656,-0.22084286759604807, ,0.031022210381978024,0.030221955910341013,0.0137554503626943,0.013149094396559641,0.027542678094645723,0.04027845791559655, ,1.2506558895111084
0.011985927981667576,0.020486755254371915,-0.08548580779565458, ,0.012311836325145225,0.02033591306862284,-0.0858964993423764, ,0.0005455613255159025, ,0.004537548312376793,0.00044708197568716496,-0.013950814080580475,-0.021284491380148957,0.01396555337693066,0.005665131691337753, ,0.014677003798155135, ,0.025457135070408345, ,5.4287447957092797e-05, ,0.142994121899141,-0.20662944078275097,0.09550027688000001,3.0061150297941412,0.26261535254917656,-0.22018943767492358, ,0.02889675443315188,0.030059214937748106,0.014196801711229948,0.0116273022601797,0.015614940820598193,0.043490138089756915, ,1.2636778354644775
0.012062845931655346,0.020496525369793496,-0.08571860016885863, ,0.012371662592927785,0.020336101617251832,-0.08605387700533616, ,0.0004832329332086027, ,0.004481276023246498,0.0005437585584185597,-0.013180616868989012,0.03226263991036317,-0.015033116396077656,-0.02382998140061926, ,0.01393219900853613, ,0.035593147159966664, ,5.4576985173023036e-05, ,0.1434883768030914,-0.20611201768017795,0.09573879424000001,3.00653440968111,0.2632985350480037,-0.21984806105185947, ,0.029461950188907415,0.03153770075057188,0.013567982555366271,0.03060574125552723,0.06063875109206517,0.0001958930512503121, ,1.2822229862213135
0.012094910392630026,0.02049891024940525,-0.08580942918672002, ,0.012431391729492307,0.020336286322470417,-0.08621071295080783, ,0.0005483565363783071, ,0.0038022445029707143,1.199569039185902e-06,-0.010513673928966146,0.023035985564881595,-0.02290713047698951,0.03048765753329684, ,0.011180089632197023, ,0.0324868146972567, ,5.497861176455061e-05, ,0.14370461332356968,-0.2058803356939512,0.09583212712000001,3.0067440996245947,0.2637084445473001,-0.21993727854252706, ,0.027522314837143496,0.030770733319867308,0.010777274370771315,-0.024787632774031444,0.05875554076211851,0.0022082813346525065, ,1.2954559326171875
0.012189122887879896,0.020473858087512824,-0.08600826103853279, ,0.012491023712431049,0.02033646721521691,-0.08636700811856282, ,0.0004885896305540785, ,0.003892234861337338,-0.0009177412380937775,-0.008430638781414227,-0.03055940154029312,0.02705742784167965,0.013705935264689252, ,0.009330991986846476, ,0.04081643518632027, ,5.526407572132539e-05, ,0.14446144114524367,-0.20508489420790607,0.09603175578,3.00653440968111,0.2641183540465964,-0.21888299367122677, ,0.030250858003975385,0.031506288698031466,0.008472772085106385,0.009982304008430226,0.01125617833078558,0.06089678638680399, ,1.3089098930358887
0.012274309591428742,0.020472268760159087,-0.08620954719871396, ,0.012550558519764225,0.020336644326463375,-0.08652276344757316, ,0.0004391034911854096, ,0.00448458070747941,0.0001784296271209974,-0.011617060019909236,0.0034161434457948806,0.015402990009870792,-0.01891098504399164, ,0.012453890346389945, ,0.015777259765346902, ,5.545539073352726e-05, ,0.14508698250805585,-0.20449024377659078,0.09623916218,3.007373169455048,0.2650748095449545,-0.21884613159569608, ,0.031103553444270987,0.029154206315966442,0.011931694022471913,0.03836881539258184,0.03510401558927432,0.03862402091542359, ,1.3291900157928467
0.012316558727473639,0.02047304715286454,-0.08633211418197974, ,0.012609996129939377,0.020336817687214227,-0.08667797987601093, ,0.0004735895425206197, ,0.004090096402529301,3.628965924708325e-05,-0.01202036050149959,-0.02447568673321112,0.009494393989947494,-0.027712811367120744, ,0.012697215131963499, ,0.026252666671187627, ,5.5801621048964625e-05, ,0.14536500089152796,-0.20419677992737026,0.09636360602,3.007373169455048,0.2652114460447199,-0.2184674770585491, ,0.02545518818628508,0.02839525480504811,0.012168687181054242,0.03836881539258184,0.004093656474318501,0.03014995477459386, ,1.3401198387145996
0.012357611862091044,0.020474313865947964,-0.08645068661539529, ,0.012669336521830957,0.020336987328507118,-0.08683265834124868, ,0.0005117941390118402, ,0.0044448135014225395,1.4714778813673147e-05,-0.012285683231854767,-0.03438047893696408,0.03251435502821074,-0.011305497441925084, ,0.013065014200551832, ,0.04732018950659057, ,5.62085896394664e-05, ,0.14563529654212581,-0.20391876154389818,0.09648416099000001,3.007373169455048,0.2653480825444854,-0.21808882252140216, ,0.029020471424608806,0.028976165361365123,0.012463858779342725,0.034662990931239576,0.0012749020121754482,0.06152143756050827, ,1.3512380123138428
0.012391149043882442,0.02047756703590935,-0.08654772807014727, ,0.012728579674739799,0.020337153281412574,-0.08698679977986049, ,0.0005712787580185032, ,0.004389647415256046,0.0003782510743554658,-0.012568929389183905,0.012237252988351845,-0.02717138913861726,-0.030328239448462115, ,0.013318786141980284, ,0.0297999066230042, ,5.671159797537831e-05, ,0.14585925579547832,-0.20368707955767143,0.09658397532000002,3.007373169455048,0.26575799204378164,-0.21809636127192916, ,0.028480474657404192,0.028861600230678464,0.01288738796116505,0.028672309261529208,0.0355431509164762,-0.01035732743499567, ,1.36336088180542
0.012445237258002612,0.0204828288480023,-0.08670049120383809, ,0.012787725568392552,0.020337315577033117,-0.08714040512762075, ,0.0005761914743553252, ,0.004415861040415593,0.00045961478957623307,-0.011780802672216824,0.010047199620913626,0.003437441653408225,-0.007496798070600191, ,0.012589614215088902, ,0.01061894525940403, ,5.7214404649739875e-05, ,0.14622222424056686,-0.20334727931120555,0.09674082641000001,3.007373169455048,0.266167901543078,-0.21794054254217507, ,0.030193108990922937,0.02646317388691321,0.012159398106870231,0.022615813905460653,0.03916085214371861,0.02709285281160563, ,1.375525951385498
0.012495047987699223,0.02048650790472342,-0.08683167067113294, ,0.012846774182941244,0.02033747424650456,-0.08729347531950608, ,0.0005993211834739079, ,0.004769104949511239,0.000240708243740893,-0.01240703273198568,-0.03205724383699346,0.03493871423680829,0.009080510841002655, ,0.013294237988339968, ,0.04741708912355346, ,5.774804887499577e-05, ,0.14656974721990698,-0.20305381546198503,0.09687564057,3.007373169455048,0.26644117454260885,-0.21759162716858396, ,0.032689266813114286,0.027043870492582153,0.012692280095617531,0.019036996468041825,0.005919237886880508,0.07133835355705863, ,1.3865809440612793
0.01259055303337332,0.020497355687029123,-0.08709581713637592, ,0.012905725498962684,0.020337629320994657,-0.08744601128969451, ,0.0004974757683453334, ,0.004657995968894066,0.0007232788784153465,-0.013497963390921883,0.033144849477686956,0.01424399342757017,-0.03807970701111975, ,0.014297379986727027, ,0.036075919220415885, ,5.810064266548624e-05, ,0.14688637926775017,-0.20276807434563873,0.09700786215000001,3.0077925493420175,0.26671444754213974,-0.21724271179499288, ,0.03118532420587275,0.029109491275604533,0.013374316977329978,0.010894409535035876,0.0216708063965678,0.012796894620133194, ,1.397933006286621
0.012621178920341787,0.020501798690710414,-0.08718517438064853, ,0.012964579497457994,0.02033778083170357,-0.08759801397156604, ,0.0005614822724413187, ,0.004932773702323418,0.0009097555581896533,-0.014377391366371188,0.021383480590181476,-0.00831944710736026,-0.06392299448443375, ,0.015227254975070038, ,0.02294484316779265, ,5.855454393703379e-05, ,0.14738063417170055,-0.20228926490743682,0.09723989806000001,3.0086313091159558,0.2675342665407324,-0.21701275307562526, ,0.030049696503632293,0.02741893717378526,0.014845117912395157,0.07011940369833358,0.03989180551205039,0.0027867047662898173, ,1.4095659255981445
0.012688945569552988,0.020511252231946008,-0.0873919422947829, ,0.01302333615985213,0.02033792880986381,-0.08774948429770317, ,0.0005193210561638399, ,0.005001607571690555,0.000568838829907852,-0.015305786250235112,-0.025379515612452185,0.022057256795793415,0.042237455863481, ,0.016112316675558777, ,0.033625013755838686, ,5.8930870077363815e-05, ,0.14779766174690867,-0.20190312826372558,0.09745119333,3.0086313091159558,0.26767090304049784,-0.21622570483777548, ,0.031236649624249765,0.030810695311191814,0.015631807183513247,-0.017662532859808323,0.019954315247729348,0.06140248608509817, ,1.421072006225586
0.01273887458496368,0.02051654083357614,-0.08753338498962536, ,0.013081995467993296,0.02033807328673991,-0.08790042319989075, ,0.000533197574487716, ,0.0049629694548447316,0.00021539686687296368,-0.013447101944491302,-0.023074094548997424,0.025541738590928384,-0.0033222604720192887, ,0.014335341374572224, ,0.03442083395004446, ,5.9323857266986376e-05, ,0.14812973926050033,-0.20160966441450506,0.09759637781000001,3.008421619172471,0.2679441760400287,-0.21587678946418437, ,0.032521227401806296,0.030068739403824703,0.013743581984469372,0.02674963956194366,0.01425367389028667,0.05756375525691417, ,1.4325828552246094
0.0127860652342236,0.020521106241096456,-0.08765801037890049, ,0.013140557404152497,0.02033821429362844,-0.0880508316091166, ,0.0005598416578801906, ,0.0046969817864653965,0.00037678362891362116,-0.011938754259177313,0.06721493220909175,-0.05094173685751293,-0.009092515518568241, ,0.012835009040371938, ,0.08433805442021033, ,5.975395918127601e-05, ,0.14845409404121776,-0.20129303236666185,0.09772600681000002,3.0086313091159558,0.26876399503862136,-0.21597354570537902, ,0.033579951011490014,0.03242123046070064,0.012463858779342725,0.005841492812659784,0.0939338411331658,-0.03479497769150515, ,1.4440929889678955
0.012831632160990772,0.020520997936044134,-0.08777246594642765, ,0.01319902195102296,0.020338351861858003,-0.08820071045557185, ,0.0005930667802597377, ,0.004664921584374764,-0.00034262993864353497,-0.011428940447986853,-0.017495141769803782,0.01201819472810443,0.01338469859491449, ,0.01234907156133004, ,0.021225380916966095, ,6.023093970697027e-05, ,0.14877844882193517,-0.20097640031881864,0.0978439692,3.0086313091159558,0.26931054103768315,-0.21584746613918074, ,0.033053619490933744,0.032190278683334725,0.011652385896122898,0.005815648914089569,0.02299739996786701,0.04634059398169675, ,1.4558219909667969
0.01285941831172402,0.02051875222946618,-0.08783882325423847, ,0.013257389091719697,0.020338486022788815,-0.08835006066865084, ,0.0006724881715653087, ,0.004748894759853219,-0.00028759690384601386,-0.011397522153573128,-0.02044555392027041,0.009729582293278546,0.005971285280720457, ,0.012350636609521527, ,0.02264255406035424, ,6.082793885975236e-05, ,0.14897151714379078,-0.20079877746271146,0.09791137628,3.00884099905944,0.26931054103768315,-0.2155207511786185, ,0.03375913965082561,0.031001941051444225,0.0116353626880935,0.011634174239680226,0.017443072786586647,0.04405057399526967, ,1.4682447910308838
0.012945437124956032,0.02051204640110127,-0.08804489757921846, ,0.01331565880977904,0.020338616807813025,-0.08849888317695147, ,0.0006109376749639091, ,0.004992535039150254,-0.0003838867448011261,-0.012343168369063734,-0.021408818861812107,-0.018005221553048942,-0.013602917283845392, ,0.013320156926141392, ,0.02797365263469468, ,6.131724983369996e-05, ,0.14958161304085452,-0.20022729523001886,0.09812137526,3.0090506890029243,0.269583814037214,-0.2148451208444651, ,0.03450797874853483,0.033520643432875585,0.012552254940898346,0.016831443973123205,0.012100773751833207,0.013117781696682797, ,1.4798178672790527
0.012996156660711938,0.02051277728802748,-0.0881744595544356, ,0.013373831089157885,0.020338744248354367,-0.08864717890827602, ,0.0006295943617084989, ,0.005068015108275394,0.000542518448954532,-0.013456517460762554,0.048703278266896896,-0.05677691808159441,-0.007099725635416672, ,0.014389474124406743, ,0.07480392569617277, ,6.182833861936451e-05, ,0.15027665899953474,-0.19955541746996133,0.09839748503000001,3.009260378946409,0.2705402695355721,-0.21497161624921557, ,0.03547549217139095,0.034952832986545404,0.014158943573333334,0.0,0.03135572427194867,0.009790422596921897, ,1.49086594581604
0.013048021245885052,0.020514741355514066,-0.0883132619851021, ,0.01343190591423344,0.02033886837586791,-0.08879494878963044, ,0.0006405629720950893, ,0.005257344914818297,-8.531266798825123e-05,-0.013737172380734793,-0.006398190434846075,-0.023482927449642185,0.0040469637065777934, ,0.014709074030091354, ,0.02433894478496111, ,6.244665562819727e-05, ,0.15027665899953474,-0.19955541746996133,0.09839748503000001,3.009260378946409,0.2705402695355721,-0.21497161624921557, ,0.03547549217139095,0.034952832986545404,0.014158943573333334,0.0,0.03135572427194867,0.009790422596921897, ,1.5004010200500488
0.013090125731784986,0.02051180004966499,-0.08842195975096762, ,0.013489883269802636,0.020338989221840412,-0.08894219374722565, ,0.0006784637663707241, ,0.005168060190760503,-0.0002501101627097168,-0.01341286791936587,-0.025811329459801205,0.026635133730136262,0.011771233111489844, ,0.014376245234802038, ,0.03708981859198286, ,6.311646366547529e-05, ,0.15055467738300682,-0.19927739908648925,0.09850766968,3.0094700688898937,0.2705402695355721,-0.2144815438083722, ,0.03453309372578995,0.034837350058175766,0.01366107334476844,0.013829210433600997,0.01929019692341857,0.06332169824595188, ,1.5104289054870605
0.013162105357603569,0.02051049618230514,-0.0886068733297928, ,0.013547763141081588,0.020339106817789786,-0.08908891470647715, ,0.0006406794276874265, ,0.005300985921094223,-0.00023520035918394612,-0.013827179632044525,-0.023860755040836686,0.009455933292353405,0.0038749927895342685, ,0.014810356765501173, ,0.025666121641379602, ,6.371927977265779e-05, ,0.15103348682120873,-0.19880631238116156,0.09869692802,3.0098894487768626,0.2709501790348684,-0.21408068885819642, ,0.035147015392026214,0.035356535603007,0.01408382981432361,0.013527874595171758,0.01817799168287047,0.044811610882619306, ,1.5195848941802979
0.013218007877836863,0.02051268089857035,-0.08875373146228667, ,0.013605545513705032,0.02033922119526519,-0.08923511259200535, ,0.0006418734142603499, ,0.005537775004066843,0.00044469234737368104,-0.01481992598564225,0.040065175917579514,-0.04185707837294317,-0.014233308838865769, ,0.015827030975498677, ,0.0579416311157202, ,6.431649627754933e-05, ,0.15141190073204575,-0.19843562120319877,0.09884859395000001,3.0098894487768626,0.2716333615336956,-0.21406602719569456, ,0.03663974577547135,0.035147015392026214,0.015345675838150292,0.013527874595171758,0.07078563541582462,-0.019241975868722814, ,1.5283088684082031
0.013274377814987104,0.02051437159993474,-0.08890557737500329, ,0.013663230373726059,0.020339332385847033,-0.08938078832763602, ,0.0006384907896034036, ,0.005886412539409857,0.00012033176954647472,-0.015799968596530233,-0.026761469162263924,0.023064653377998443,0.005594285514794839, ,0.016861297102246472, ,0.03532921570770791, ,6.490119689793767e-05, ,0.1517748691771343,-0.19808809822385867,0.09900414875,3.010099138720347,0.2719066345332265,-0.21363543308196295, ,0.03786789367855977,0.03571582294259344,0.016154981257606494,0.019266371965852035,0.01810061367219913,0.062047776881915845, ,1.537647008895874
0.013333850555996831,0.020515942948791673,-0.08906668091871403, ,0.01372081770761524,0.02033944042114672,-0.08952594283640071, ,0.0006259538543167287, ,0.00634593937459956,0.00015857051484707407,-0.017714653520403887,-0.048997018700136646,0.03544789881722988,0.005086994940215068, ,0.018817678935039512, ,0.06047528112864696, ,6.545965584111599e-05, ,0.1521532830879713,-0.19773285251164435,0.09916877758,3.0103088286638315,0.2720432710329919,-0.2130117423243943, ,0.039197414935345225,0.03767246588267994,0.018039424144960365,0.023734693529811616,0.0,0.07920687335912426, ,1.5470149517059326
0.013404697651086771,0.020527269046502854,-0.08926958295856544, ,0.013778307502260423,0.02033954533280642,-0.08967057704053652, ,0.0005793278582580092, ,0.006208502062862888,0.0012466847288458505,-0.01783495796547122,0.05774392690655811,-0.054434895454988204,-0.02645948229880364, ,0.01892578786491689, ,0.07935689720037327, ,6.594070013640924e-05, ,0.15258575612892786,-0.1973389931350589,0.09937877656,3.010728208550801,0.2727264535318191,-0.21291540192175193, ,0.03841981439614202,0.03401324070196086,0.018565048391608396,0.02167963284309723,0.08337708028576021,-0.035015002492116885, ,1.5567858219146729
0.013465857644373939,0.020534306472445217,-0.08944264091759704, ,0.013835699744966064,0.02033964715249921,-0.08981469186148652, ,0.0005595510120277598, ,0.0060409774880516515,0.0001762961087158916,-0.016600162228427535,0.0001009157825404628,-0.01137105798017415,-0.011535312555823194, ,0.017666065644030858, ,0.011371450348528473, ,6.63861643103281e-05, ,0.1529718927726391,-0.1969683019570961,0.09955766458000001,3.010728208550801,0.27340963603064633,-0.2129007402592501, ,0.03795877662338831,0.0384665348838552,0.01701796102564103,0.02167963284309723,0.039604638076962025,0.019558943620408005, ,1.5656609535217285
0.013526914548786276,0.020532886195904456,-0.08960544804588329, ,0.013892994423452796,0.020339745911929236,-0.08995828821990107, ,0.0005438877019484632, ,0.0060052159848072014,-0.00015028302127401746,-0.015651700496220007,-0.02999767486058784,0.020793878300448668,0.00397809891105493, ,0.016764871977860158, ,0.03649993058223849, ,6.680284551497952e-05, ,0.15336575214922454,-0.1965821653133849,0.0997235897,3.010728208550801,0.27354627253041175,-0.21227704950168144, ,0.03878093239005753,0.03761273942071771,0.01597674174523571,0.01968793705067226,0.01634285226960619,0.06071497582079489, ,1.5744309425354004
0.013526914548786276,0.020532886195904456,-0.08960544804588329, ,0.013950191525856886,0.02033984164283087,-0.09010136703563582, ,0.0006799744430392827, ,0.0060052159848072014,-0.00015028302127401746,-0.015651700496220007,-0.02999767486058784,0.020793878300448668,0.00397809891105493, ,0.016764871977860158, ,0.03649993058223849, ,6.741707626048454e-05, ,0.15336575214922454,-0.1965821653133849,0.0997235897,3.010728208550801,0.27354627253041175,-0.21227704950168144, ,0.03878093239005753,0.03761273942071771,0.01597674174523571,0.01968793705067226,0.01634285226960619,0.06071497582079489, ,1.5832428932189941
0.013584376336483005,0.020531319993807556,-0.0897510175032386, ,0.014007291040729666,0.020339934376969196,-0.09024392922775418, ,0.0006770873426416674, ,0.006338333111506388,-0.0002518248176058835,-0.015815516838524436,-0.03308246751169472,0.0013039710493329745,0.0046646583976303726, ,0.01704020115024557, ,0.03310814110845284, ,6.80197671445078e-05, ,0.15374416606006153,-0.19621919686829634,0.09987266305,3.0109378984942854,0.27381954552994264,-0.21184645538794977, ,0.04217641847043145,0.03860738061776679,0.016154981257606494,0.011145575804125169,0.012374847539851762,0.04496431085048544, ,1.5939569473266602
0.013652865986944497,0.02053275113936135,-0.08991641038452514, ,0.014064292957037185,0.020340024146139828,-0.09038597571452649, ,0.0006533815460931966, ,0.005963371569821749,0.00023428450763962085,-0.01377708722814344,0.04943085141422633,-0.04597339683968895,-0.029279299301037107, ,0.015014154062155862, ,0.0675052723286557, ,6.858050608203011e-05, ,0.15419980729964078,-0.19581761475883666,0.10004377333000002,3.011566968324739,0.27436609152900443,-0.21172037582175152, ,0.041712941344382755,0.035147015392026214,0.014389170298102983,0.028946401646985708,0.07735989871808825,-0.022332820875780902, ,1.603024959564209
0.013707109135967744,0.020529722986972553,-0.09003254849937566, ,0.01412119726415954,0.020340110982168532,-0.09052750741343021, ,0.0006726113416210376, ,0.005798914489758283,-0.0008791236825623962,-0.011808049617440008,0.004645423160860609,0.0009173324108959005,-0.04742631302490013, ,0.01318447205908131, ,0.00473510565229312, ,6.916280040555778e-05, ,0.15459366667622623,-0.19547781451237078,0.10016432830000001,3.0117766582682233,0.27491263752806616,-0.21167597499569382, ,0.041768020052143834,0.039343673946298,0.012140862439024392,0.06274979139639146,0.04054683419845923,0.02869216461180312, ,1.6119508743286133
0.013772437871952023,0.020517317137901003,-0.09017724327362965, ,0.014178003951890476,0.02034019491691162,-0.09066852524115104, ,0.0006612216708310056, ,0.006340669895580111,-0.00048788968897950976,-0.014687381951726088,-0.024170765015010982,0.01778025535209726,-0.01849344578909544, ,0.01600504044572264, ,0.03000604402987414, ,6.972176911080309e-05, ,0.15502613971718282,-0.19506078693716267,0.10030043875000001,3.0117766582682233,0.27491263752806616,-0.21094086633442877, ,0.04282352958414746,0.03987266452036587,0.014845117912395157,0.04236038051343452,0.020382643960803044,0.04977625812461274, ,1.6212689876556396
0.013832344175325105,0.0205163852332306,-0.09032588573887161, ,0.014234713010436799,0.020340275982255157,-0.09080903011358238, ,0.0006529499479768191, ,0.00635493273129583,-0.0001242981292529999,-0.015941588368830258,-0.018942822208254724,-0.004548693223472288,-0.020015009770965247, ,0.017162017939783624, ,0.019481275463374862, ,7.036400448076605e-05, ,0.15545861275813938,-0.194659204827703,0.10046377129,3.0117766582682233,0.27532254702736253,-0.210540011384253, ,0.04108092708158908,0.03782261520863722,0.016337242584615386,0.03213119996157855,0.02009261745660366,0.03142146130349187, ,1.627793788909912
0.013887569295617117,0.020520025954741505,-0.09046413840313222, ,0.014291324430417869,0.020340354210115867,-0.0909490229458253, ,0.0006560588117215314, ,0.006742716920981714,0.0005613425509932669,-0.016832380963767886,0.048244898000033586,-0.043523315980541356,-0.024546514468184802, ,0.018141344653731274, ,0.06497574828926882, ,7.100516701430962e-05, ,0.15582930393610217,-0.19433485004698556,0.10060765948000001,3.0117766582682233,0.2760057295261897,-0.2106070284618917, ,0.04451076058089624,0.03805009685584233,0.017542743964757714,0.02687803504617637,0.08054358228378283,-0.016337166639878928, ,1.6393139362335205
0.013951759107610998,0.020524149338368,-0.09063510321249565, ,0.014347838202865308,0.020340429632439913,-0.09108850465219034, ,0.0006294477306027819, ,0.006992043734022326,0.00041675084051008733,-0.0194698509125758,-0.02851446451507916,0.004928571657072996,0.019244099091316236, ,0.02069148258099152, ,0.02893722010462288, ,7.160263075829794e-05, ,0.15623088604556182,-0.19397188160189702,0.10078395492000002,3.0119863482117077,0.27641563902548605,-0.21036953099199704, ,0.04253560804951626,0.039213612214244124,0.019960916691729325,0.0,0.020526593267792423,0.05077787845593936, ,1.6468307971954346
0.013951759107610998,0.020524149338368,-0.09063510321249565, ,0.014404254319222057,0.020340502281203654,-0.09122747614619585, ,0.000767713390997341, ,0.006992043734022326,0.00041675084051008733,-0.0194698509125758,-0.02851446451507916,0.004928571657072996,0.019244099091316236, ,0.02069148258099152, ,0.02893722010462288, ,7.239249575647285e-05, ,0.15623088604556182,-0.19397188160189702,0.10078395492000002,3.0119863482117077,0.27641563902548605,-0.21036953099199704, ,0.04253560804951626,0.039213612214244124,0.019960916691729325,0.0,0.020526593267792423,0.05077787845593936, ,1.653397798538208
0.014038464933468974,0.020528571390726957,-0.09086627628134218, ,0.014460572771342321,0.02034057218841296,-0.09136593834056947, ,0.0006805739491753003, ,0.0068724425808637255,-5.2824419644363456e-05,-0.016894627291420838,-0.04643832601829084,0.014756786941962292,0.0070619374646494985, ,0.018239015564514478, ,0.048726579069708634, ,7.305166568806017e-05, ,0.1567560318810091,-0.19350851762944354,0.10102117599,3.0126154180421616,0.27655227552525147,-0.20950080401400675, ,0.04474160375222573,0.036838874828598905,0.017313925565217395,0.014975663282069757,0.0,0.06406982566783945, ,1.660038948059082
0.014107153058429472,0.020530932370425012,-0.09103386462681264, ,0.014516793551490785,0.02034063938610385,-0.09150389214724805, ,0.0006518762331946408, ,0.007003416687831603,0.0003778433573103611,-0.01744461031845475,0.04048284307486684,-0.025306606265033935,-0.059631189754395436, ,0.01880172970949215, ,0.047741840020887126, ,7.366458528597866e-05, ,0.15720395038771412,-0.1931223809857323,0.10119487885000002,3.0130347979291305,0.27709882152431325,-0.2093747244478085, ,0.04451076058089624,0.04007472194192178,0.01812151481228669,0.06691279040167034,0.07094995632516732,-0.0029029050166976753, ,1.667069911956787
0.014107153058429472,0.020530932370425012,-0.09103386462681264, ,0.01457291665234224,0.020340703906341486,-0.0916413384773783, ,0.0007887630018473212, ,0.007003416687831603,0.0003778433573103611,-0.01744461031845475,0.04048284307486684,-0.025306606265033935,-0.059631189754395436, ,0.01880172970949215, ,0.047741840020887126, ,7.446538817171828e-05, ,0.15720395038771412,-0.1931223809857323,0.10119487885000002,3.0130347979291305,0.27709882152431325,-0.2093747244478085, ,0.04451076058089624,0.04007472194192178,0.01812151481228669,0.06691279040167034,0.07094995632516732,-0.0029029050166976753, ,1.6737020015716553
0.014175898252847137,0.020534301402241155,-0.09121192825597513, ,0.014628942066981003,0.02034076578122084,-0.091778278241316, ,0.0007506377555281148, ,0.007402164513395792,0.0005568948831997985,-0.018961101660339697,0.02526702153341242,-0.02342818967276562,-0.034402182443200015, ,0.020362356139898126, ,0.034457219819027635, ,7.520589602426457e-05, ,0.15764414616154493,-0.19272852160914686,0.10137895203000001,3.0130347979291305,0.277645367523375,-0.20916696614146968, ,0.046518108607093524,0.040261748645935846,0.019665199407407408,0.04382837727234706,0.061294533331763615,0.007901984622101028, ,1.6810739040374756
0.014250208016036875,0.020541461198194083,-0.0914057012057487, ,0.014684869788900335,0.02034082504286608,-0.09191471234862739, ,0.0006987689655302918, ,0.007415216137850473,0.0008908996992307815,-0.01937786310406809,-0.0008058898852688007,0.03631749774687677,0.006811957963526497, ,0.020767299081130675, ,0.036326400438180834, ,7.586764606266666e-05, ,0.15811523286687262,-0.19234238496543563,0.10157987698000001,3.0130347979291305,0.2781919135224367,-0.20855081413442805, ,0.045910470033125685,0.036082487284589654,0.02011213575757576,0.030891728936162415,0.0465747443523801,0.07974950138187678, ,1.6897838115692139
0.014323055655860522,0.020551686478966276,-0.09159462436077506, ,0.014740699812002173,0.020340881723430633,-0.09205064170808858, ,0.0006533124116122154, ,0.006592563079469828,0.0004193045730428238,-0.016535708489279675,0.01851126672977663,0.017009906925033146,0.005325461299179431, ,0.017806385358185396, ,0.02513966374610476, ,7.646055619278395e-05, ,0.15857859683932607,-0.1919871392532213,0.10177691306000002,3.0130347979291305,0.2788750960212639,-0.20796440129094226, ,0.04217641847043145,0.0363450561311646,0.017183183948220066,0.023589895653751258,0.06251296477934454,0.05299799955123922, ,1.6964399814605713
0.014323055655860522,0.020551686478966276,-0.09159462436077506, ,0.014796432130596508,0.020340935855097667,-0.09218606722768674, ,0.0007863242188278212, ,0.006592563079469828,0.0004193045730428238,-0.016535708489279675,0.01851126672977663,0.017009906925033146,0.005325461299179431, ,0.017806385358185396, ,0.02513966374610476, ,7.723301465360153e-05, ,0.15857859683932607,-0.1919871392532213,0.10177691306000002,3.0130347979291305,0.2788750960212639,-0.20796440129094226, ,0.04217641847043145,0.0363450561311646,0.017183183948220066,0.023589895653751258,0.06251296477934454,0.05299799955123922, ,1.7029898166656494
0.014389158254980427,0.020545849105328085,-0.0917555496853873, ,0.014852066739400647,0.02034098747007897,-0.09232098981461936, ,0.0007589302301866403, ,0.0072173273107722785,-0.0008254492918574451,-0.01806051327338551,-0.04275328538056003,-0.02424583681600444,-0.017258127245141867, ,0.019466723395126912, ,0.04914979239219062, ,7.79612345240792e-05, ,0.15901106988028266,-0.19156238894513897,0.10194154189000001,3.0130347979291305,0.2791483690207948,-0.20769716465749172, ,0.045470503861270134,0.04695543867316713,0.01835116534562212,0.019417166642750762,0.004412825786710808,0.019211215985909115, ,1.7097008228302002
0.014465510652436632,0.020545213422689362,-0.09195159910291083, ,0.01490760363353914,0.0203410366006155,-0.09245541037529503, ,0.0007006855049119223, ,0.0074469726443741145,0.0001936621926804747,-0.01994654353817757,-0.046045866225841815,0.00764522354428987,-0.0017585129278216444, ,0.021292240505201503, ,0.046676204666483506, ,7.860332778589445e-05, ,0.1594667111198619,-0.19112991590418238,0.10214246684000002,3.0138735577030684,0.2792850055205603,-0.20731851012034477, ,0.044448216186637364,0.039722453561519794,0.020421553230769232,0.019490937172741942,0.0006799530034142417,0.05466338760117504, ,1.7163569927215576
0.014465510652436632,0.020545213422689362,-0.09195159910291083, ,0.014963042808542963,0.020341083278977188,-0.0925893298153338, ,0.0008342108986936562, ,0.0074469726443741145,0.0001936621926804747,-0.01994654353817757,-0.046045866225841815,0.00764522354428987,-0.0017585129278216444, ,0.021292240505201503, ,0.046676204666483506, ,7.94230550671766e-05, ,0.1594667111198619,-0.19112991590418238,0.10214246684000002,3.0138735577030684,0.2792850055205603,-0.20731851012034477, ,0.044448216186637364,0.039722453561519794,0.020421553230769232,0.019490937172741942,0.0006799530034142417,0.05466338760117504, ,1.723479986190796
0.014529701890707675,0.02054890123705843,-0.092115996406966, ,0.015018384260349005,0.02034112753746275,-0.09272274903956702, ,0.0008063058512811511, ,0.008100842684032909,0.00030536175485037197,-0.02000901540937216,-0.004993057633202465,-0.02322959122962296,-0.08764220828529232, ,0.021588830344538523, ,0.02376007840906727, ,8.030756291027331e-05, ,0.1598528477635731,-0.19079783839059072,0.10231228083,3.0145026275335223,0.2795582785200912,-0.20721463096717538, ,0.04945124625246002,0.04104538994743546,0.02065993712062257,0.09104216276368236,0.023189159807373953,0.006868143124712805, ,1.7285218238830566
0.014529701890707675,0.02054890123705843,-0.092115996406966, ,0.015073627985299876,0.020341169408400046,-0.0928556689520379, ,0.0009413413742894888, ,0.008100842684032909,0.00030536175485037197,-0.02000901540937216,-0.004993057633202465,-0.02322959122962296,-0.08764220828529232, ,0.021588830344538523, ,0.02376007840906727, ,8.137122264933182e-05, ,0.1598528477635731,-0.19079783839059072,0.10231228083,3.0145026275335223,0.2795582785200912,-0.20721463096717538, ,0.04945124625246002,0.04104538994743546,0.02065993712062257,0.09104216276368236,0.023189159807373953,0.006868143124712805, ,1.7330639362335205
0.014624285531351693,0.020555264015127677,-0.09236162881869414, ,0.015128773980142955,0.020341208924145107,-0.09298809045600173, ,0.0008323354852206392, ,0.008212035771987645,0.000684039184228635,-0.022109731197141033,-0.003839888727087435,-0.014765950550810359,-0.032004119195332935, ,0.02359545834977139, ,0.01525689213630691, ,8.228099580139972e-05, ,0.16041660726339152,-0.1903190289523888,0.10255857593,3.0145026275335223,0.2801048245191529,-0.20708855140097712, ,0.04744847077923539,0.041712941344382755,0.02272298362339515,0.04400315594802922,0.03636681916826347,0.02345222983376261, ,1.7376959323883057
0.014624285531351693,0.020555264015127677,-0.09236162881869414, ,0.015183822242030203,0.020341246117082594,-0.09312001445392591, ,0.0009664542218886822, ,0.008212035771987645,0.000684039184228635,-0.022109731197141033,-0.003839888727087435,-0.014765950550810359,-0.032004119195332935, ,0.02359545834977139, ,0.01525689213630691, ,8.336757063918547e-05, ,0.16041660726339152,-0.1903190289523888,0.10255857593,3.0145026275335223,0.2801048245191529,-0.20708855140097712, ,0.04744847077923539,0.041712941344382755,0.02272298362339515,0.04400315594802922,0.03636681916826347,0.02345222983376261, ,1.7421088218688965
0.01471556880253541,0.02055880342864192,-0.09260932342827763, ,0.015238772768517605,0.02034128101962601,-0.09325144184749067, ,0.0008563728467999395, ,0.009567114202218426,0.0006136659633380337,-0.026350940804549396,-0.054946668975290686,0.035387258194098235,0.006158800964884286, ,0.028040655152077234, ,0.06535580899049188, ,8.429951348448487e-05, ,0.1609803667632099,-0.18981705131556423,0.10282042651000001,3.0145026275335223,0.2802414610189184,-0.20630150316312737, ,0.05498084678938052,0.04856547674435557,0.02704382261460102,0.028740342344399733,0.006958503236572606,0.09511964494612717, ,1.7465558052062988
0.01471556880253541,0.02055880342864192,-0.09260932342827763, ,0.015293625557564553,0.02034131366421701,-0.09338237353758869, ,0.0009894735373774603, ,0.009567114202218426,0.0006136659633380337,-0.026350940804549396,-0.054946668975290686,0.035387258194098235,0.006158800964884286, ,0.028040655152077234, ,0.06535580899049188, ,8.540581336374162e-05, ,0.1609803667632099,-0.18981705131556423,0.10282042651000001,3.0145026275335223,0.2802414610189184,-0.20630150316312737, ,0.05498084678938052,0.04856547674435557,0.02704382261460102,0.028740342344399733,0.006958503236572606,0.09511964494612717, ,1.7510027885437012
0.014809704849446163,0.020575551304879428,-0.0928778039662353, ,0.015348380607533449,0.020341344083325504,-0.09351281042432599, ,0.0008650189574777046, ,0.009812669363895032,0.0023031574955394898,-0.02899576874022905,0.05384078466932114,-0.022213368819338965,0.02133372207025811, ,0.0306976810090148, ,0.0582429682616045, ,8.633888773302954e-05, ,0.1615132353315314,-0.18937685554173342,0.10309912886000001,3.0147123174770067,0.28092464351774554,-0.20579676905978214, ,0.05463266641247599,0.04499617902250867,0.03022544880455408,0.0,0.10507486889382288,0.021905194917058786, ,1.755518913269043
0.014809704849446163,0.020575551304879428,-0.0928778039662353, ,0.015403037917189173,0.02034137230944982,-0.09364275340702184, ,0.0009960078203194007, ,0.009812669363895032,0.0023031574955394898,-0.02899576874022905,0.05384078466932114,-0.022213368819338965,0.02133372207025811, ,0.0306976810090148, ,0.0582429682616045, ,8.744254731058094e-05, ,0.1615132353315314,-0.18937685554173342,0.10309912886000001,3.0147123174770067,0.28092464351774554,-0.20579676905978214, ,0.05463266641247599,0.04499617902250867,0.03022544880455408,0.0,0.10507486889382288,0.021905194917058786, ,1.7604219913482666
0.01491965588775596,0.02059951690942318,-0.09319318802133046, ,0.015457597485698487,0.02034139837511614,-0.0937722033842088, ,0.0008314235569184405, ,0.009812669363895032,0.0023031574955394898,-0.02899576874022905,0.05384078466932114,-0.022213368819338965,0.02133372207025811, ,0.0306976810090148, ,0.0582429682616045, ,8.832027252755591e-05, ,0.16212333122859512,-0.18886715517203462,0.10342838652000001,3.01534138730746,0.2821543720156345,-0.20549267035080096, ,0.06222750266129232,0.050263210571223925,0.0325077786122449,0.01968575383454562,0.11582358881871635,0.057096444659005305, ,1.7653570175170898
0.01491965588775596,0.02059951690942318,-0.09319318802133046, ,0.015512059312629773,0.020341422312879075,-0.09390116125363354, ,0.0009585305087607592, ,0.010966210118035183,0.0022969978425402774,-0.031145265788190678,0.055486330874554485,0.006243436717471009,0.018428861892203857, ,0.033099268035087615, ,0.055836225783253875, ,8.936279247916343e-05, ,0.16212333122859512,-0.18886715517203462,0.10342838652000001,3.01534138730746,0.2821543720156345,-0.20549267035080096, ,0.06222750266129232,0.050263210571223925,0.0325077786122449,0.01968575383454562,0.11582358881871635,0.057096444659005305, ,1.7703349590301514
0.014947255788202177,0.020605197605512965,-0.09327013989156639, ,0.015566423397952205,0.020341444155320722,-0.09402962791225652, ,0.0010147691683450436, ,0.011187235854741885,0.002201460833805905,-0.03115225272925268,0.05129454945395591,0.03214805472053481,-0.03133051201868425, ,0.03317323508462259, ,0.06053593054430603, ,9.047455256345429e-05, ,0.16227778588607963,-0.18874359144604702,0.10350875650000001,3.015551077250945,0.28242764501516543,-0.2053887911976316, ,0.0627625274857611,0.05055777387238721,0.0325077786122449,0.07753179549370283,0.10614823124639541,0.07612062869881397, ,1.7758309841156006
0.014947255788202177,0.020605197605512965,-0.09327013989156639, ,0.015620689742035468,0.0203414639350514,-0.09415760425625275, ,0.0011448413591842424, ,0.011187235854741885,0.002201460833805905,-0.03115225272925268,0.05129454945395591,0.03214805472053481,-0.03133051201868425, ,0.03317323508462259, ,0.06053593054430603, ,9.17529242531855e-05, ,0.16227778588607963,-0.18874359144604702,0.10350875650000001,3.015551077250945,0.28242764501516543,-0.2053887911976316, ,0.0627625274857611,0.05055777387238721,0.0325077786122449,0.07753179549370283,0.10614823124639541,0.07612062869881397, ,1.7804009914398193
0.014947255788202177,0.020605197605512965,-0.09327013989156639, ,0.015674858345649204,0.020341481684708857,-0.09428509118101142, ,0.001276353277284596, ,0.011187235854741885,0.002201460833805905,-0.03115225272925268,0.05129454945395591,0.03214805472053481,-0.03133051201868425, ,0.03317323508462259, ,0.06053593054430603, ,9.319848963516727e-05, ,0.16227778588607963,-0.18874359144604702,0.10350875650000001,3.015551077250945,0.28242764501516543,-0.2053887911976316, ,0.0627625274857611,0.05055777387238721,0.0325077786122449,0.07753179549370283,0.10614823124639541,0.07612062869881397, ,1.7848289012908936
0.015142909638934917,0.02063827650476329,-0.093815095215924, ,0.015728929209962394,0.02034149743695867,-0.09441208958113671, ,0.0008876367640031226, ,0.01131398787448943,0.0015194041614677457,-0.030615696967392952,0.0006658438002193571,0.05539000242492276,0.014540246468831454, ,0.03267469680699751, ,0.05539376154904027, ,9.412360808468282e-05, ,0.16338213668709373,-0.1878554771655112,0.10407523523000001,3.0161801470813985,0.2837940100128198,-0.2033174993691138, ,0.06477606932318823,0.052574482857878545,0.031794034970059885,0.04135603759624682,0.07025894193406433,0.11750894108962859, ,1.7893199920654297
0.015142909638934917,0.02063827650476329,-0.093815095215924, ,0.01578290233654314,0.020341511224494176,-0.09453860035044824, ,0.0010105048066426953, ,0.01131398787448943,0.0015194041614677457,-0.030615696967392952,0.0006658438002193571,0.05539000242492276,0.014540246468831454, ,0.03267469680699751, ,0.05539376154904027, ,9.520552596688457e-05, ,0.16338213668709373,-0.1878554771655112,0.10407523523000001,3.0161801470813985,0.2837940100128198,-0.2033174993691138, ,0.06477606932318823,0.052574482857878545,0.031794034970059885,0.04135603759624682,0.07025894193406433,0.11750894108962859, ,1.793773889541626
0.015249329265171137,0.02064891827040169,-0.09409143459037571, ,0.015836777727357733,0.020341523080035857,-0.09466462438198019, ,0.000876432562143276, ,0.011082882318600716,0.0009138762346593693,-0.027462901503084766,0.05066009296291109,0.0021092203622330398,0.01069172652614439, ,0.02962897921340462, ,0.05070382833386896, ,9.610581666269757e-05, ,0.16402312351565437,-0.18732260859718972,0.10436301161000001,3.0161801470813985,0.2847504655111779,-0.2025455286323181, ,0.0682711809773171,0.056352103063224926,0.0287005612972973,0.02711826943638855,0.11593173735825756,0.057836636666472305, ,1.7982048988342285
0.015249329265171137,0.02064891827040169,-0.09409143459037571, ,0.01589055538477063,0.020341533036331877,-0.0947901625679828, ,0.0009969340024653926, ,0.011082882318600716,0.0009138762346593693,-0.027462901503084766,0.05066009296291109,0.0021092203622330398,0.01069172652614439, ,0.02962897921340462, ,0.05070382833386896, ,9.715911819298552e-05, ,0.16402312351565437,-0.18732260859718972,0.10436301161000001,3.0161801470813985,0.2847504655111779,-0.2025455286323181, ,0.0682711809773171,0.056352103063224926,0.0287005612972973,0.02711826943638855,0.11593173735825756,0.057836636666472305, ,1.8026177883148193
0.0153561301657586,0.020652136344767976,-0.09434743998881769, ,0.015944235311543514,0.020341541126157412,-0.09491521579992186, ,0.0008744749418922445, ,0.010434365241784314,-0.00028799603400038454,-0.024207034354101056,0.021374959451733754,0.0038576354282624566,0.03672526495862416, ,0.026361703889073357, ,0.021720081275509777, ,9.80470512288945e-05, ,0.1646950012757119,-0.18674340363162287,0.10463004735,3.016389837024883,0.28584355750930146,-0.20204833327949995, ,0.06725509678134002,0.05994753099082172,0.025163999241706165,0.0,0.09585767353559274,0.06721356570885549, ,1.8073318004608154
0.0153561301657586,0.020652136344767976,-0.09434743998881769, ,0.015997817510835097,0.020341547382315247,-0.09503978496847934, ,0.0009937654266935852, ,0.010434365241784314,-0.00028799603400038454,-0.024207034354101056,0.021374959451733754,0.0038576354282624566,0.03672526495862416, ,0.026361703889073357, ,0.021720081275509777, ,9.908568576565987e-05, ,0.1646950012757119,-0.18674340363162287,0.10463004735,3.016389837024883,0.28584355750930146,-0.20204833327949995, ,0.06725509678134002,0.05994753099082172,0.025163999241706165,0.0,0.09585767353559274,0.06721356570885549, ,1.8123838901519775
0.015478787032155519,0.020646873692912928,-0.09461235267018316, ,0.016051301986200413,0.02034155183763503,-0.09516387096355336, ,0.0008515675168988939, ,0.011549706715364656,-0.000451103434085472,-0.024920877287263887,-0.003805128384094106,0.008265365932823978,0.014847078870944854, ,0.027470881752977065, ,0.009098662756656993, ,9.993425218821516e-05, ,0.16549816549463126,-0.18607152587156534,0.10490615712000001,3.0170189068553364,0.28680001300765945,-0.2011946838025636, ,0.07616126930856403,0.06067579383533937,0.025942689771986976,0.023543180886627265,0.0695687267928156,0.08106400153256717, ,1.817058801651001
0.015478787032155519,0.020646873692912928,-0.09461235267018316, ,0.016104688741590482,0.0203415545249734,-0.09528747467425888, ,0.0009699291028586165, ,0.011549706715364656,-0.000451103434085472,-0.024920877287263887,-0.003805128384094106,0.008265365932823978,0.014847078870944854, ,0.027470881752977065, ,0.009098662756656993, ,0.00010093174001008328, ,0.16549816549463126,-0.18607152587156534,0.10490615712000001,3.0170189068553364,0.28680001300765945,-0.2011946838025636, ,0.07616126930856403,0.06067579383533937,0.025942689771986976,0.023543180886627265,0.0695687267928156,0.08106400153256717, ,1.8216328620910645
0.015478787032155519,0.020646873692912928,-0.09461235267018316, ,0.016157977781351605,0.02034155547721397,-0.09541059698892686, ,0.0010916562091783902, ,0.011549706715364656,-0.000451103434085472,-0.024920877287263887,-0.003805128384094106,0.008265365932823978,0.014847078870944854, ,0.027470881752977065, ,0.009098662756656993, ,0.00010221340167783012, ,0.16549816549463126,-0.18607152587156534,0.10490615712000001,3.0170189068553364,0.28680001300765945,-0.2011946838025636, ,0.07616126930856403,0.06067579383533937,0.025942689771986976,0.023543180886627265,0.0695687267928156,0.08106400153256717, ,1.823974847793579
0.015582541392734866,0.02064243820116135,-0.09483540668806072, ,0.016211169110225142,0.020341554727267445,-0.09553323879510639, ,0.0009862420198325074, ,0.011832257638275575,-0.0005183808592256912,-0.025772945843622847,-0.003893643443114457,0.01150140161480416,-0.06721631873226859, ,0.028363987325340182, ,0.01214213024145079, ,0.00010335555751523927, ,0.1661700432546888,-0.18553093457036962,0.10513819303000001,3.0176479766857898,0.2873465590067213,-0.20049685305538145, ,0.0750173451055105,0.06174166659627246,0.02677111179831933,0.10015606465099156,0.055439932034917074,0.06942733555349137, ,1.8262598514556885
0.015582541392734866,0.02064243820116135,-0.09483540668806072, ,0.016264262733346777,0.02034155230807129,-0.09565540097956318, ,0.0011080013289716472, ,0.011832257638275575,-0.0005183808592256912,-0.025772945843622847,-0.003893643443114457,0.01150140161480416,-0.06721631873226859, ,0.028363987325340182, ,0.01214213024145079, ,0.00010465187463969915, ,0.1661700432546888,-0.18553093457036962,0.10513819303000001,3.0176479766857898,0.2873465590067213,-0.20049685305538145, ,0.0750173451055105,0.06174166659627246,0.02677111179831933,0.10015606465099156,0.055439932034917074,0.06942733555349137, ,1.828535795211792
0.015582541392734866,0.02064243820116135,-0.09483540668806072, ,0.016317258656245958,0.020341548252589166,-0.09577708442828047, ,0.0012317066147741402, ,0.011832257638275575,-0.0005183808592256912,-0.025772945843622847,-0.003893643443114457,0.01150140161480416,-0.06721631873226859, ,0.028363987325340182, ,0.01214213024145079, ,0.00010610426476873837, ,0.1661700432546888,-0.18553093457036962,0.10513819303000001,3.0176479766857898,0.2873465590067213,-0.20049685305538145, ,0.0750173451055105,0.06174166659627246,0.02677111179831933,0.10015606465099156,0.055439932034917074,0.06942733555349137, ,1.8308019638061523
0.015582541392734866,0.02064243820116135,-0.09483540668806072, ,0.01637015688484567,0.02034154259381183,-0.09589829002645923, ,0.0013566861541935036, ,0.011832257638275575,-0.0005183808592256912,-0.025772945843622847,-0.003893643443114457,0.01150140161480416,-0.06721631873226859, ,0.028363987325340182, ,0.01214213024145079, ,0.00010771376526992855, ,0.1661700432546888,-0.18553093457036962,0.10513819303000001,3.0176479766857898,0.2873465590067213,-0.20049685305538145, ,0.0750173451055105,0.06174166659627246,0.02677111179831933,0.10015606465099156,0.055439932034917074,0.06942733555349137, ,1.8330237865447998
0.015582541392734866,0.02064243820116135,-0.09483540668806072, ,0.016422957425461727,0.020341535364756275,-0.0960190186585188, ,0.001482490782984049, ,0.011832257638275575,-0.0005183808592256912,-0.025772945843622847,-0.003893643443114457,0.01150140161480416,-0.06721631873226859, ,0.028363987325340182, ,0.01214213024145079, ,0.00010948083084539658, ,0.1661700432546888,-0.18553093457036962,0.10513819303000001,3.0176479766857898,0.2873465590067213,-0.20049685305538145, ,0.0750173451055105,0.06174166659627246,0.02677111179831933,0.10015606465099156,0.055439932034917074,0.06942733555349137, ,1.835270881652832
0.0157151496667821,0.020633931927783438,-0.09513206979779282, ,0.016475660284802202,0.020341526598465925,-0.09613927120809637, ,0.0012955045185764776, ,0.013416467722061426,-0.0005261202969547851,-0.031160758618098527,-0.014947232710081934,-0.026629520975571287,-0.01892064294481706, ,0.033930388833012005, ,0.030537219484883023, ,0.00011100332595159823, ,0.16701954387085347,-0.1847972749473183,0.10544541376000001,3.0178576666292747,0.2880297415055485,-0.19999211895203628, ,0.0830971467237047,0.07205538463057766,0.03224455773279353,0.03973735765057647,0.060240261589973455,0.04739964881259073, ,1.838346004486084
0.0157151496667821,0.020633931927783438,-0.09513206979779282, ,0.016528265469967295,0.02034151632801088,-0.09625904855804802, ,0.0014201215857968688, ,0.013416467722061426,-0.0005261202969547851,-0.031160758618098527,-0.014947232710081934,-0.026629520975571287,-0.01892064294481706, ,0.033930388833012005, ,0.030537219484883023, ,0.0006189557218457174, ,0.16701954387085347,-0.1847972749473183,0.10544541376000001,3.0178576666292747,0.2880297415055485,-0.19999211895203628, ,0.0830971467237047,0.07205538463057766,0.03224455773279353,0.03973735765057647,0.060240261589973455,0.04739964881259073, ,1.8406238555908203
0.0157151496667821,0.020633931927783438,-0.09513206979779282, ,0.016580772988448303,0.02034150458648691,-0.09637835159044846, ,0.0015453270824181968, ,0.013416467722061426,-0.0005261202969547851,-0.031160758618098527,-0.014947232710081934,-0.026629520975571287,-0.01892064294481706, ,0.033930388833012005, ,0.030537219484883023, ,0.0006254338432483222, ,0.16701954387085347,-0.1847972749473183,0.10544541376000001,3.0178576666292747,0.2880297415055485,-0.19999211895203628, ,0.0830971467237047,0.07205538463057766,0.03224455773279353,0.03973735765057647,0.060240261589973455,0.04739964881259073, ,1.8429038524627686
0.0157151496667821,0.020633931927783438,-0.09513206979779282, ,0.016633182848127568,0.020341491407016424,-0.09649718118659116, ,0.001670878656295754, ,0.013416467722061426,-0.0005261202969547851,-0.031160758618098527,-0.014947232710081934,-0.026629520975571287,-0.01892064294481706, ,0.033930388833012005, ,0.030537219484883023, ,0.0006326938766722627, ,0.16701954387085347,-0.1847972749473183,0.10544541376000001,3.0178576666292747,0.2880297415055485,-0.19999211895203628, ,0.0830971467237047,0.07205538463057766,0.03224455773279353,0.03973735765057647,0.060240261589973455,0.04739964881259073, ,1.8452680110931396
0.015865642201903514,0.020637901500000076,-0.09551997168489608, ,0.016685495057277618,0.020341476822747687,-0.09661553822698896, ,0.001400104403929435, ,0.015764291775258434,0.0013957560679200391,-0.04279370527971042,-0.03205954747554269,-0.003354883545974857,0.008051591016102477, ,0.045626332766762354, ,0.03223237987225501, ,0.0006379863630671397, ,0.16789221268564083,-0.18403272439277008,0.10584596737000002,3.0178576666292747,0.28857628750461023,-0.1992126094647135, ,0.08658480069203538,0.07373499732592913,0.044246698666666674,0.025388400879238743,0.0535384029320597,0.08162312268604012, ,1.8476569652557373
0.015865642201903514,0.020637901500000076,-0.09551997168489608, ,0.016737709624560986,0.02034146086685472,-0.09673342359137453, ,0.00152343170768376, ,0.015764291775258434,0.0013957560679200391,-0.04279370527971042,-0.03205954747554269,-0.003354883545974857,0.008051591016102477, ,0.045626332766762354, ,0.03223237987225501, ,0.0006440510572083495, ,0.16789221268564083,-0.18403272439277008,0.10584596737000002,3.0178576666292747,0.28857628750461023,-0.1992126094647135, ,0.08658480069203538,0.07373499732592913,0.044246698666666674,0.025388400879238743,0.0535384029320597,0.08162312268604012, ,1.850003957748413
0.015865642201903514,0.020637901500000076,-0.09551997168489608, ,0.016789826559029487,0.02034144357253787,-0.0968508381586999, ,0.0016471823213617058, ,0.015764291775258434,0.0013957560679200391,-0.04279370527971042,-0.03205954747554269,-0.003354883545974857,0.008051591016102477, ,0.045626332766762354, ,0.03223237987225501, ,0.0006508750794134744, ,0.16789221268564083,-0.18403272439277008,0.10584596737000002,3.0178576666292747,0.28857628750461023,-0.1992126094647135, ,0.08658480069203538,0.07373499732592913,0.044246698666666674,0.025388400879238743,0.0535384029320597,0.08162312268604012, ,1.8527288436889648
0.015865642201903514,0.020637901500000076,-0.09551997168489608, ,0.01684184587012378,0.020341424973022878,-0.09696778280713703, ,0.0017711659940784076, ,0.015764291775258434,0.0013957560679200391,-0.04279370527971042,-0.03205954747554269,-0.003354883545974857,0.008051591016102477, ,0.045626332766762354, ,0.03223237987225501, ,0.0006584446126206699, ,0.16789221268564083,-0.18403272439277008,0.10584596737000002,3.0178576666292747,0.28857628750461023,-0.1992126094647135, ,0.08658480069203538,0.07373499732592913,0.044246698666666674,0.025388400879238743,0.0535384029320597,0.08162312268604012, ,1.855179786682129
0.015865642201903514,0.020637901500000076,-0.09551997168489608, ,0.01689376756767282,0.020341405101561374,-0.09708425841407842, ,0.0018952426897686123, ,0.015764291775258434,0.0013957560679200391,-0.04279370527971042,-0.03205954747554269,-0.003354883545974857,0.008051591016102477, ,0.045626332766762354, ,0.03223237987225501, ,0.0006667452708565621, ,0.16789221268564083,-0.18403272439277008,0.10584596737000002,3.0178576666292747,0.28857628750461023,-0.1992126094647135, ,0.08658480069203538,0.07373499732592913,0.044246698666666674,0.025388400879238743,0.0535384029320597,0.08162312268604012, ,1.8590879440307617
0.015865642201903514,0.020637901500000076,-0.09551997168489608, ,0.016945591661893467,0.020341383991430702,-0.09720026585613689, ,0.0020193072997755014, ,0.015764291775258434,0.0013957560679200391,-0.04279370527971042,-0.03205954747554269,-0.003354883545974857,0.008051591016102477, ,0.045626332766762354, ,0.03223237987225501, ,0.0006757623510493551, ,0.16789221268564083,-0.18403272439277008,0.10584596737000002,3.0178576666292747,0.28857628750461023,-0.1992126094647135, ,0.08658480069203538,0.07373499732592913,0.044246698666666674,0.025388400879238743,0.0535384029320597,0.08162312268604012, ,1.8615729808807373
0.016137574842615365,0.020676747888593024,-0.09625966624147995, ,0.01699731816338989,0.020341361675933547,-0.09731580600914586, ,0.0014025240454636982, ,0.01901967087539564,0.003490304632973857,-0.05271370052080206,0.04281799696495842,0.012002321769405529,-0.13264575370440324, ,0.05614859151604909, ,0.04446380067295598, ,0.0006805753424030925, ,0.16933636373312083,-0.18288203719451063,0.10661466734000001,3.019744876120635,0.2898060160024992,-0.19809172335432668, ,0.09753025853902444,0.07579627920005652,0.05492693627586208,0.176570336713642,0.10497914091337064,0.07343888328893756, ,1.8637969493865967
0.016137574842615365,0.020676747888593024,-0.09625966624147995, ,0.017048947083153076,0.020341338188398082,-0.09743087974816012, ,0.001521459860146704, ,0.01901967087539564,0.003490304632973857,-0.05271370052080206,0.04281799696495842,0.012002321769405529,-0.13264575370440324, ,0.05614859151604909, ,0.04446380067295598, ,0.0006861074773882479, ,0.16933636373312083,-0.18288203719451063,0.10661466734000001,3.019744876120635,0.2898060160024992,-0.19809172335432668, ,0.09753025853902444,0.07579627920005652,0.05492693627586208,0.176570336713642,0.10497914091337064,0.07343888328893756, ,1.8660149574279785
0.016137574842615365,0.020676747888593024,-0.09625966624147995, ,0.01710047843256023,0.02034131356217765,-0.09754548794745503, ,0.0016410475222927274, ,0.01901967087539564,0.003490304632973857,-0.05271370052080206,0.04281799696495842,0.012002321769405529,-0.13264575370440324, ,0.05614859151604909, ,0.04446380067295598, ,0.0006923489155902379, ,0.16933636373312083,-0.18288203719451063,0.10661466734000001,3.019744876120635,0.2898060160024992,-0.19809172335432668, ,0.09753025853902444,0.07579627920005652,0.05492693627586208,0.176570336713642,0.10497914091337064,0.07343888328893756, ,1.8682289123535156
0.016137574842615365,0.020676747888593024,-0.09625966624147995, ,0.017151912223374588,0.02034128783065139,-0.09765963148052793, ,0.0017610554911820214, ,0.01901967087539564,0.003490304632973857,-0.05271370052080206,0.04281799696495842,0.012002321769405529,-0.13264575370440324, ,0.05614859151604909, ,0.04446380067295598, ,0.0006992885686784963, ,0.16933636373312083,-0.18288203719451063,0.10661466734000001,3.019744876120635,0.2898060160024992,-0.19809172335432668, ,0.09753025853902444,0.07579627920005652,0.05492693627586208,0.176570336713642,0.10497914091337064,0.07343888328893756, ,1.8704450130462646
0.016339324418854998,0.02071187202676883,-0.09683064532604868, ,0.017203248467744535,0.020341261027223154,-0.09777331122009773, ,0.001331291201442132, ,0.019559386929086042,0.003006771585039439,-0.054734216664313835,0.005582189989290267,0.008905002000178871,0.031178320287179328, ,0.058201759133744, ,0.01048659452734202, ,0.0007033660050189068, ,0.1703712099382669,-0.18204798204409436,0.10720836816000001,3.0205836358945732,0.2908991080006227,-0.19718613430080567, ,0.10236994774376568,0.0830971467237047,0.05688861257142858,0.02159143519135991,0.1070596107697295,0.10715675882600498, ,1.872668981552124
0.016339324418854998,0.02071187202676883,-0.09683064532604868, ,0.017254487178203364,0.02034123318532209,-0.09788652803810513, ,0.0014456086360100297, ,0.019559386929086042,0.003006771585039439,-0.054734216664313835,0.005582189989290267,0.008905002000178871,0.031178320287179328, ,0.058201759133744, ,0.01048659452734202, ,0.0007081239706021832, ,0.1703712099382669,-0.18204798204409436,0.10720836816000001,3.0205836358945732,0.2908991080006227,-0.19718613430080567, ,0.10236994774376568,0.0830971467237047,0.05688861257142858,0.02159143519135991,0.1070596107697295,0.10715675882600498, ,1.874912977218628
0.016339324418854998,0.02071187202676883,-0.09683064532604868, ,0.017305628367668534,0.020341204338402086,-0.0979992828057131, ,0.0015610417725250613, ,0.019559386929086042,0.003006771585039439,-0.054734216664313835,0.005582189989290267,0.008905002000178871,0.031178320287179328, ,0.058201759133744, ,0.01048659452734202, ,0.0007135565680666601, ,0.1703712099382669,-0.18204798204409436,0.10720836816000001,3.0205836358945732,0.2908991080006227,-0.19718613430080567, ,0.10236994774376568,0.0830971467237047,0.05688861257142858,0.02159143519135991,0.1070596107697295,0.10715675882600498, ,1.877152919769287
0.016339324418854998,0.02071187202676883,-0.09683064532604868, ,0.01735667204944145,0.020341174519942412,-0.09811157639330735, ,0.0016772588476724833, ,0.019559386929086042,0.003006771585039439,-0.054734216664313835,0.005582189989290267,0.008905002000178871,0.031178320287179328, ,0.058201759133744, ,0.01048659452734202, ,0.0007196559495831527, ,0.1703712099382669,-0.18204798204409436,0.10720836816000001,3.0205836358945732,0.2908991080006227,-0.19718613430080567, ,0.10236994774376568,0.0830971467237047,0.05688861257142858,0.02159143519135991,0.1070596107697295,0.10715675882600498, ,1.8794059753417969
0.016339324418854998,0.02071187202676883,-0.09683064532604868, ,0.017407618237206754,0.02034114376344662,-0.09822340967049563, ,0.0017940132794149579, ,0.019559386929086042,0.003006771585039439,-0.054734216664313835,0.005582189989290267,0.008905002000178871,0.031178320287179328, ,0.058201759133744, ,0.01048659452734202, ,0.0007264129139217174, ,0.1703712099382669,-0.18204798204409436,0.10720836816000001,3.0205836358945732,0.2908991080006227,-0.19718613430080567, ,0.10236994774376568,0.0830971467237047,0.05688861257142858,0.02159143519135991,0.1070596107697295,0.10715675882600498, ,1.8816218376159668
0.016546394989905924,0.02074229666249505,-0.09739883195072009, ,0.017458466945031784,0.020341112102443267,-0.09833478350610882, ,0.0013670514315802555, ,0.020774542685007672,0.0029399260318472738,-0.05668842148744574,-0.002941960787453759,0.02664835254276046,0.07115668692745569, ,0.060446686588945794, ,0.026799335827015776, ,0.0007304169046570833, ,0.17146783800640678,-0.18118303596218122,0.10779947640000001,3.0207933258380577,0.29199219999874626,-0.19579047280644135, ,0.11060249598889368,0.0870614142738264,0.05899559822222222,-0.004134646905401923,0.11340459951373213,0.14101571701429838, ,1.8837878704071045
0.016546394989905924,0.02074229666249505,-0.09739883195072009, ,0.017509218187366424,0.020341079570485768,-0.09844569876820163, ,0.0014778138577075134, ,0.020774542685007672,0.0029399260318472738,-0.05668842148744574,-0.002941960787453759,0.02664835254276046,0.07115668692745569, ,0.060446686588945794, ,0.026799335827015776, ,0.0007350591217567754, ,0.17146783800640678,-0.18118303596218122,0.10779947640000001,3.0207933258380577,0.29199219999874626,-0.19579047280644135, ,0.11060249598889368,0.0870614142738264,0.05899559822222222,-0.004134646905401923,0.11340459951373213,0.14101571701429838, ,1.885976791381836
0.016546394989905924,0.02074229666249505,-0.09739883195072009, ,0.01755987197904203,0.020341046201151593,-0.09855615632405107, ,0.0015898230232773282, ,0.020774542685007672,0.0029399260318472738,-0.05668842148744574,-0.002941960787453759,0.02664835254276046,0.07115668692745569, ,0.060446686588945794, ,0.026799335827015776, ,0.0007403354421365319, ,0.17146783800640678,-0.18118303596218122,0.10779947640000001,3.0207933258380577,0.29199219999874626,-0.19579047280644135, ,0.11060249598889368,0.0870614142738264,0.05899559822222222,-0.004134646905401923,0.11340459951373213,0.14101571701429838, ,1.8882558345794678
