NicholasDascanio/dvrk_moveit_final/test/execution/third_experiment_notsharpbends/thirdexp_500vel3.0/thirdexp_500vel3.0_2.csv
Current Position (x),Current Position (y),Current Position (z), ,Planned Position (x),Planned Position (y),Planned Position (z), ,Position Error,,Cartesian linear Velocity(x),Cartesian linear Velocity(y),Cartesian linear Velocity(z),Cartesian Angular Velocity(x),Cartesian Angular Velocity(y),Cartesian Angular Velocity(z), ,Total Linear Velocity, ,Total Angular Velocity, ,MSE, ,Joint 1 Position,Joint 2 Position,Joint 3 Position,Joint 4 Position,Joint 5 Position,Joint 6 Position, ,Joint 1 Velocity,Joint 2 Velocity,Joint 3 Velocity,Joint 4 Velocity,Joint 5 Velocity,Joint 6 Velocity, ,Time Stamp
0.009146508956752857,0.02054664768803499,-0.07611453480436427, ,0.009219485911866164,0.020444816771518468,-0.07626645318269482, ,0.00019691207482221173, ,2.2446803359953358e-05,-1.8428039034939073e-06,-2.0210947288547417e-05,0.012343997238633615,-0.05796405202421387,-0.02899945677841528, ,3.0261151623948284e-05, ,0.05926386415762278, ,1.6409339568517644e-05, ,0.12394986263130338,-0.2314889179048797,0.08616180372000001,3.0038084404158116,0.27067690603533756,-0.3036227884652815, ,0.00030212310339477517,8.242997358650388e-05,2.1502368779862217e-05,-0.0014046734865493262,0.0,-0.06608588465259846, ,0.02385401725769043
0.009153848818484753,0.020543274886088654,-0.07615454547268999, ,0.009260769285446861,0.02044453575252031,-0.07641420321202687, ,0.000297663475002832, ,0.0003745127050876273,-0.0010972146763390412,-0.0014537807827025486,-0.09904544298767784,-0.1560128192587776,-0.09167275755477267, ,0.0018594672291818088, ,0.18479718490737584, ,2.248070681022926e-05, ,0.12396530809705184,-0.2314348587747601,0.08619809984000001,3.0038084404158116,0.26972045053697946,-0.3073351938471375, ,0.0005326888208924612,0.0037237209509827316,0.0008776843366325406,-0.0014046734865493262,-0.12815922546784422,-0.15898959684524527, ,0.045953989028930664
0.009179980051996658,0.020532857666594455,-0.0763042928925367, ,0.009302084884864663,0.02044423615485748,-0.0765616149399025, ,0.0002982918011156234, ,0.0011790208360923295,5.205956541310536e-05,-0.007106081526287106,-0.14267249571390558,-0.002299383068815882,-0.010862833731431432, ,0.007203415508529947, ,0.14269102346542992, ,2.4777104716895847e-05, ,0.12400392176142296,-0.23127268138440138,0.08633421029,3.0038084404158116,0.2660312650433126,-0.31380164430363927, ,0.001691531678376817,0.005197941201018991,0.006678746968553461,-0.0014046734865493262,-0.1362824004774344,0.020614415493052318, ,0.07248902320861816
0.009203978681672342,0.020546877066732867,-0.07644743056977876, ,0.009343432334201762,0.020443918107735305,-0.07670868857220287, ,0.0003135340687585491, ,0.0011400849585080544,0.0009510907105189977,-0.0071218668359690086,0.06007882865075998,-0.268389870265314,-0.1415077064895918, ,0.007274981407641333, ,0.2750319764950207, ,2.6342890945219435e-05, ,0.1240811490901652,-0.23108733579542,0.08647680219000001,3.0035987504723267,0.26548471904425075,-0.31556129867264876, ,0.003349686839715667,0.010406507463369973,0.007237079291231259,0.0026544405586364046,0.011863199268753148,-0.30706560278209405, ,0.09601712226867676
0.009229867159168128,0.020552922727671168,-0.07657265592581988, ,0.009384811258541539,0.02044358174019314,-0.07685542431533762, ,0.000340471860193709, ,0.0011341237048512465,0.0005350035317824733,-0.005382652469776415,-0.03780492532407877,0.3014854223383283,0.15927923631299393, ,0.005526790476154797, ,0.30384646164923657, ,2.7824486151787023e-05, ,0.12420471281615279,-0.23080931741194793,0.08660124603000001,3.0038084404158116,0.2653480825444854,-0.3128361610844544, ,0.006518316193624539,0.013815248443510085,0.0055250820395421445,0.002919586577250911,0.04236751279109712,0.34654304860953206, ,0.11820816993713379
0.009254207526847746,0.020561280213653506,-0.07668059819443183, ,0.009426221283967643,0.020443227181104515,-0.07700182237624457, ,0.0003830277093289472, ,0.0012476135601289544,-0.00013613588631178081,-0.0055475680490954925,-0.031359846846082846,0.05728000253422037,0.02905041247160607, ,0.00568775736422579, ,0.06530266977142501, ,2.9514532084223746e-05, ,0.12435916747363727,-0.23044634896685937,0.08671272697000001,3.0040181303592957,0.26671444754213974,-0.3119900503580451, ,0.0061715791204267215,0.019070928769789147,0.005190228582600197,0.002209856913768222,0.05853068563889302,-0.09439518026429367, ,0.14320802688598633
0.009298030049368237,0.020553857882434638,-0.07687820433689342, ,0.009467662037562979,0.020442854559176958,-0.07714788296238857, ,0.00033737710390911783, ,0.0015705917667300055,-0.0002969566562308554,-0.0065057730167987805,-0.020261262685230114,-0.018142179127909684,-0.009477937321950737, ,0.006699255503375506, ,0.02719664349611062, ,3.0101084626819307e-05, ,0.12460629492561247,-0.2297667484739276,0.08690587418000001,3.0040181303592957,0.2668510840419052,-0.3125098619624443, ,0.009618012492963224,0.022508762229238796,0.00635120076555024,0.002045609514872929,-0.00013835622177654227,-0.010308323553728932, ,0.16583514213562012
0.009324579128181347,0.020549799174015435,-0.07698845285636871, ,0.009509133147408814,0.02044246400295205,-0.07729360628176059, ,0.00037242400297055815, ,0.0016244486785271088,-0.00032983711302383544,-0.006342133546575052,-0.025488908538631724,0.005123615416813497,0.004237597414856459, ,0.006555172305354682, ,0.025998766954789296, ,3.0971976781726194e-05, ,0.12476074958309695,-0.2294115027617133,0.08701346625,3.00422782030278,0.26671444754213974,-0.3121534078383262, ,0.010574653616945708,0.022418365593780007,0.0061931615552099535,0.0010657629794590283,0.0,0.01775347766954612, ,0.19073820114135742
0.00936670039575534,0.020541632756265908,-0.07714318460740081, ,0.009550634242583672,0.020442055640805933,-0.07743899254287713, ,0.0003622838619413763, ,0.0016051482563536833,-0.0002889549892125297,-0.005901470256966811,-0.01889973232680781,-0.009724086323861356,-0.013399218030516165, ,0.006122691165209136, ,0.02125459314361807, ,3.154332563090135e-05, ,0.12504649069944326,-0.2288477432618949,0.08716513218000001,3.004437510246265,0.2668510840419052,-0.3121014682617415, ,0.010702870056844793,0.020634255611757076,0.005779684876632802,0.010452557133319912,0.0,-0.0015990478037748728, ,0.21346616744995117
0.009398367861849019,0.020535202747114373,-0.077266291727242, ,0.009592164953162619,0.020441629600948863,-0.07758404195477984, ,0.00038376874988106256, ,0.0017440466996847255,-0.0002079937495279324,-0.006580688133829804,-0.020275657182651195,-0.009379326244396104,-0.011298514375016592, ,0.006811051064648705, ,0.022339964696615717, ,3.221328145023517e-05, ,0.12525500448704732,-0.22839982475518988,0.08728568715000001,3.004437510246265,0.2669877205416706,-0.3122128861654379, ,0.011396294170586138,0.021616615389173297,0.00649360437015899,0.008930398557129916,0.0,0.0, ,0.23606610298156738
0.009448101503066967,0.020528744477506727,-0.07745166525947547, ,0.009633724910216088,0.020441186011425423,-0.07772875472703389, ,0.00034482039860768974, ,0.0015634802395618653,-0.00012558065396439666,-0.006029107470252813,-0.01339817958351134,0.013942811485934745,0.0029458972321887073, ,0.006229797576808482, ,0.019336835323234217, ,3.2415849165461404e-05, ,0.1255948047335132,-0.22775883792662924,0.08746846404000001,3.004437510246265,0.26726099354120153,-0.31178229205170627, ,0.010135313634355525,0.019944712391439846,0.005963613448146762,0.007335707175868841,0.01030428361181121,0.02416301364704667, ,0.25884318351745605
0.009485279443126082,0.020533141258156404,-0.07758915790376958, ,0.009675313745808982,0.020440725000114783,-0.07787313106972764, ,0.00035396971612107605, ,0.0018208373352273433,0.0003877351185260173,-0.007039830674014437,0.00920808412026641,-0.005593812252304449,-0.002750694843942609, ,0.007281826902796493, ,0.010774021133694415, ,3.2660203464366824e-05, ,0.12583420945261417,-0.227372701282918,0.08760198191000002,3.004856890133234,0.26780753954026326,-0.3119012487059297, ,0.012076984504409716,0.0182775311168087,0.007107903400267739,0.005696351409979313,0.02771921704266808,-0.00508947954521061, ,0.28366708755493164
0.009539373648745046,0.020542800118895938,-0.07780100701968355, ,0.009716931092999672,0.020440246694730747,-0.07801717119347196, ,0.00029794429151749837, ,0.0017624560346142844,0.00011864118873100571,-0.006370307889215364,-0.015040886022960156,-0.005856793833087593,-0.004967111957930715, ,0.006610684503817387, ,0.016140950277735443, ,3.269075659671947e-05, ,0.1261894551648285,-0.22685527818034498,0.08781975863000001,3.004856890133234,0.2679441760400287,-0.31127755794836104, ,0.011936793405864407,0.016979234488901554,0.006361346453674121,0.005696351409979313,0.002133917962980068,0.005182368252688716, ,0.3077070713043213
0.009571809091708811,0.020545020071585058,-0.07790857224950327, ,0.009758576585839231,0.02043975122282155,-0.07816087530939932, ,0.0003310898086873963, ,0.0016406194326333901,0.00027736859207587406,-0.005474481676713341,0.02287541175427673,-0.02163347075410943,-0.0111705661778415, ,0.005721758041657701, ,0.031484782274607555, ,3.2954135163268907e-05, ,0.12642885988392946,-0.2265154779338791,0.08792864699000001,3.0050665800767185,0.2684907220390905,-0.31172322956314674, ,0.01227168518795691,0.016084227382791656,0.005598879268892795,0.006765813834960901,0.035352259223892867,-0.017871322683962226, ,0.3289661407470703
0.009606566961867173,0.020546912575677152,-0.07802794288138702, ,0.009800249859370171,0.020439238711770044,-0.07830424362916287, ,0.0003541875618585952, ,0.0017153217171434476,0.0002353607681828459,-0.006194745218930977,0.0029520127047912613,-0.00552487097960465,-0.0035742621885066998, ,0.006432152953092126, ,0.006264069701715954, ,3.334071466252512e-05, ,0.12667598733590463,-0.2261988458860359,0.08804790567000001,3.0050665800767185,0.2684907220390905,-0.311314835862444, ,0.011810446989230963,0.016885576789763487,0.006256406724273371,0.005933500039755836,0.01989626171240618,0.002657733035577285, ,0.35004711151123047
0.009641441672357629,0.02055026013157698,-0.07815904403919878, ,0.009841950549625725,0.020438709288794012,-0.07844727636493558, ,0.0003684091122496112, ,0.0018577405652458465,0.0002510415631987212,-0.007071869642447012,-0.004111508390070532,-0.0032357470106204617,-0.009399803587588653, ,0.00731611660062747, ,0.005232068641623975, ,3.3773263271935783e-05, ,0.1268922238563829,-0.22586676837244424,0.08817883096000001,3.005485959963688,0.2684907220390905,-0.3110697996420223, ,0.011888867647014629,0.018480417051308817,0.007107903400267739,0.011786290438354406,0.013966939816378357,0.004780416801704447, ,0.37438511848449707
0.009680891959182918,0.0205582887326641,-0.07830360475245797, ,0.00988367829362875,0.02043816308094597,-0.07858997372941007, ,0.0003708903619660038, ,0.0018162117421607069,-6.703160458524683e-05,-0.006091358055132409,-0.007897052998102557,-0.022754770677128208,-0.018388029159102797, ,0.006356709941801827, ,0.024086158395170237, ,3.417404765827459e-05, ,0.12716251950698076,-0.22551152266022992,0.08832531173000001,3.005485959963688,0.2689006315383868,-0.3111590171326898, ,0.0128221782946184,0.018754336276377626,0.006065807890327494,0.010563828501089499,0.006672967523638899,-0.015119208451064976, ,0.3947641849517822
0.009715524075788204,0.02055180792074373,-0.07841569402123565, ,0.009925432729390869,0.020437600215113202,-0.07873233593579713, ,0.00039669527970450806, ,0.0018359781166525507,-0.00011658795682356919,-0.006333557408515205,-0.02166079482853836,0.0006028312435950884,0.004472163646238975, ,0.006595328486395593, ,0.0216691815240165, ,3.4680461583161165e-05, ,0.127548656150692,-0.22491687222891463,0.08849512572000001,3.005695649907172,0.26903726803815226,-0.3108620413356834, ,0.012843001970289723,0.019206019339905032,0.006276127470449173,7.127765645242675e-05,0.00029888076137668437,0.015359545894536468, ,0.41764307022094727
0.00977095770968309,0.020549733788038708,-0.07861109244450751, ,0.009967213495911375,0.020437020818018015,-0.07887436319782504, ,0.00034717724117710736, ,0.0018567775903524867,-3.385303850260684e-05,-0.006969004780627476,-0.022914046821511547,0.003913168616212526,0.005684626473155636, ,0.007212197770489912, ,0.023245782712551344, ,3.4869937728721477e-05, ,0.1277957836026672,-0.22451529011945495,0.08862993988000001,3.005695649907172,0.2691739045379177,-0.31072842301895814, ,0.01226120933506443,0.0215527916326302,0.007159016413483147,7.127765645242675e-05,0.012418351042322228,0.011399790849113639, ,0.43802404403686523
0.009812102983203251,0.0205503263379536,-0.07875762370935574, ,0.010009020233176364,0.02043642501621789,-0.07901605572973906, ,0.000344292061467472, ,0.00202510588508194,-0.00010980425380294374,-0.007079917090451532,-0.020915230795399437,0.009695406054616823,-0.0033335802762429543, ,0.0073646681410376134, ,0.023053150760799765, ,3.502696155299456e-05, ,0.12806607925326505,-0.22408281707849836,0.08877642065,3.0061150297941412,0.26944717753744857,-0.3103795076453671, ,0.013601396238852053,0.02143594794634533,0.007026383555359507,0.011962777049525952,0.0033126226899068086,0.02316627880853983, ,0.4596261978149414
0.009851332833557427,0.020549077117378165,-0.07889779772172854, ,0.010050852582157844,0.020435812936105083,-0.07915741374630039, ,0.00034646411799135225, ,0.0020601464406890205,-9.345271495281087e-05,-0.0069329594057276275,-0.004438319610896856,5.9438253049038086e-05,-0.005234252199589954, ,0.00723317792456973, ,0.004438715789161374, ,3.5180761868336436e-05, ,0.1283363749038629,-0.22363489857179336,0.08891641997000001,3.0061150297941412,0.2698570870367449,-0.3103870463958941, ,0.014496935771229878,0.022439570006732273,0.006928582653327534,0.010696533764114205,0.01898728070410443,0.01110398527401495, ,0.48032402992248535
0.009893786436549399,0.020545559133309143,-0.0790414469329973, ,0.010092710184812552,0.020435184703907178,-0.0792984374627857, ,0.0003432161195075054, ,0.0018175305808216299,-0.0002467128728184764,-0.005919563886724516,-0.006519500830235968,-0.005391974900816663,0.004014169086032757, ,0.006197218832899901, ,0.008460335521592588, ,3.530618291877265e-05, ,0.12862983875308343,-0.2231792573322141,0.08905901187000001,3.0063247197376257,0.26999372353651035,-0.3100900705988877, ,0.013367649184176754,0.021046117001213303,0.005882131285081241,-0.001070698375213908,0.016150198683939198,0.006980486342575502, ,0.5037341117858887
0.00993067404148788,0.02053637966335399,-0.0791589175886977, ,0.01013459268408124,0.020434540445686964,-0.07943912709498586, ,0.00036120825913371586, ,0.0019650514477714052,-0.00035192021452384826,-0.006149803728727346,-0.01625101411971937,-0.022943346587834097,-0.019127139043747337, ,0.006465706529966217, ,0.028115700307343765, ,3.5502801076531755e-05, ,0.1289078571365555,-0.22273133882550908,0.08917438168000001,3.0061150297941412,0.2701303600362758,-0.30962973732160015, ,0.01419975184175831,0.02135394724538046,0.00606349886562619,0.011064368459015693,0.0010980629368152932,-0.012990287867080598, ,0.5232651233673096
0.009958835625639042,0.020537495152599332,-0.07925125309707076, ,0.010176499723887535,0.0204338802873423,-0.07957948285920559, ,0.0004072449836641915, ,0.0019458380444766416,-7.682463661663926e-06,-0.006610226353963478,-0.00012464497574676998,-0.014625519389604576,-0.014177296526797844, ,0.006890677554944353, ,0.014626050087601582, ,3.588419139816395e-05, ,0.12910864819128534,-0.22244559770916278,0.08926771456,3.0063247197376257,0.2705402695355721,-0.30980063355240833, ,0.013412995273282088,0.020182250437786212,0.006625961530782031,0.011571392236444466,0.017489405709183555,-0.006953529646334447, ,0.5466082096099854
0.010010269481901136,0.020538062020294203,-0.07943039431793535, ,0.010218430949137056,0.020433204354606826,-0.07971950497226211, ,0.00037136410292389456, ,0.0019185503678018643,-2.618823676504411e-06,-0.00685257485239252,-0.010563766464184833,0.011447828499053932,0.03884167365906685, ,0.007116082101808022, ,0.015577096139635005, ,3.6086728554400016e-05, ,0.129440725704877,-0.22194362007233817,0.08944660258,3.0069537895680796,0.27067690603533756,-0.3093403002751209, ,0.013749194662195131,0.02075157261282982,0.006862908884101682,-0.024752528428082107,0.0196293150861632,0.032174942446845996, ,0.5666689872741699
0.010053983574763538,0.020541922809363497,-0.07957799843064949, ,0.010260386005716484,0.020432512773049256,-0.0798591936514855, ,0.00036557252600624143, ,0.0020896461634140016,0.0002554218132281021,-0.0074893004702407985,-0.01495657182409002,0.009535823770566823,0.0352384176138802, ,0.007779555445171185, ,0.017737839557025813, ,3.6397978342137024e-05, ,0.129749635019846,-0.2215420379628785,0.08959567593000001,3.0069537895680796,0.2710868155346338,-0.30926616028550724, ,0.01460627082629995,0.01864013780366741,0.007545623647560399,-0.0222651848325946,0.012542219110030532,0.031391943359924304, ,0.584834098815918
0.010063126483993268,0.020544216724236578,-0.07961099372034998, ,0.010302364540492479,0.020431805668073864,-0.07999854911471617, ,0.00046911648545693794, ,0.0021293894471698313,0.0003999759864720025,-0.007786717467081757,-0.007025328625336398,-0.004011829960392352,0.026820063424179738, ,0.008082527396775629, ,0.008090117013883054, ,3.70957534743717e-05, ,0.1300353761361923,-0.2211636240520415,0.08974863815,3.0067440996245947,0.2713600885341647,-0.3089172449119162, ,0.012646180911310072,0.019594660656302044,0.0064099845150905445,0.005266025574649516,0.026069992023390078,0.03605137681390967, ,0.6034250259399414
0.010115085281186835,0.020546380580203572,-0.07979466920549165, ,0.010344366201310878,0.020431083164920382,-0.08013757158030557, ,0.0004283051166597706, ,0.001952355871619307,-7.844493969510211e-05,-0.006922327902460719,-0.023184190051095382,0.012861663673745824,0.005284828021567238, ,0.007192806868476059, ,0.026512809071972208, ,3.759590210123404e-05, ,0.1301666625950541,-0.22096283299731168,0.08981345265000001,3.0067440996245947,0.2714967250339302,-0.30878362659519093, ,0.012761826460256961,0.01985291664403154,0.00687772518134715,0.005053554229121946,0.0011772378430207182,0.02791698976260056, ,0.621514081954956
0.010166634535661238,0.020551286073363206,-0.07997330229389954, ,0.010386390636995552,0.02043034538866438,-0.08027626126711501, ,0.00039332369969384166, ,0.002222953840644858,9.095893748539002e-05,-0.007093658331086043,-0.004898185508950478,-0.004787413299822865,-0.006759136555210053, ,0.007434365193083578, ,0.006849199181039504, ,3.793743893844426e-05, ,0.13050646284151998,-0.22049174629198398,0.08999363696000001,3.0071634795115636,0.2719066345332265,-0.3085461291252963, ,0.015797726245791708,0.019807334910972817,0.007149376804308797,0.010401649398427417,0.015206388465345846,0.007730585337495679, ,0.6451961994171143
0.010209847974173672,0.020549151006357493,-0.08011329967192882, ,0.010428437497347664,0.020429592464216904,-0.08041461839451408, ,0.0003909841393466382, ,0.002084842532472704,-5.508633429952359e-05,-0.006846286067043328,-0.00485146337336546,0.0022202634920714687,-0.0017954891434264005, ,0.007156901270887099, ,0.005335377380877943, ,3.82510039127779e-05, ,0.13081537215648897,-0.2200592732510274,0.09013363628000001,3.0071634795115636,0.2721799075327574,-0.30827889249184576, ,0.014539136135815962,0.021046117001213303,0.00686586703448276,0.008633805686831662,0.01801596141253157,0.01434282178326441, ,0.6632590293884277
0.010252994030007718,0.020544217206915325,-0.08025565486136037, ,0.010470506433144549,0.02042882451632485,-0.08055264318238123, ,0.00038578385319095246, ,0.002248585942789126,-0.000343201011925177,-0.007379848649390971,-0.027505855541500313,0.007901177255555294,0.0011808463634380394, ,0.007722440790618797, ,0.02861818773444635, ,3.852896844897556e-05, ,0.13111655873858372,-0.21960363201144817,0.09027493189000001,3.0071634795115636,0.2723165440325228,-0.3079002379546988, ,0.01544546574844902,0.023963874130926963,0.007280078391224864,0.007152228967623268,0.0,0.025344187771902067, ,0.681157112121582
0.010301085235846935,0.02054580155240606,-0.08041630985926401, ,0.010512597096138759,0.020428041669570872,-0.08069033585110158, ,0.0003656431337411217, ,0.0024216694332767678,0.00030002258598577775,-0.008315934216939845,0.014703559508839451,-0.01025977139385199,-0.009719521199155048, ,0.008666559772864867, ,0.01792923678002274, ,3.872358331727833e-05, ,0.13144091351930115,-0.21913254530612047,0.09043696814,3.007582859398533,0.2728630900315846,-0.30785583712864106, ,0.01632214337091001,0.02253013807181168,0.008450297888594166,0.012208394038068083,0.03596645933860824,-0.0014686674307218175, ,0.698976993560791
0.010335016963030408,0.02054409764376293,-0.08053066881976935, ,0.010554709139057147,0.020427244048373434,-0.08082769662156712, ,0.0003874853932777751, ,0.0022222460774615777,-0.00041649130719090656,-0.006765288768721211,-0.02702710993651659,0.015104062787820408,5.670433961399912e-05, ,0.007133090127142957, ,0.030961223652287338, ,3.8980008158002915e-05, ,0.1316725955055279,-0.2187927450596546,0.09055104166000001,3.007582859398533,0.27299972653135,-0.30747718259149415, ,0.01571922172576955,0.023849444975740333,0.007130175255147718,0.012208394038068083,0.02354438790605302,0.030147685123710976, ,0.7188231945037842
0.010370468326067014,0.02054074121949027,-0.08063818755408185, ,0.010596842215599903,0.02042643177698716,-0.08096472571517542, ,0.0004134476474210378, ,0.0023730824583866553,-0.000190553879391645,-0.007199420664849946,-0.016737344982108823,0.011562583501347035,0.0009610565452290078, ,0.0075828417525834, ,0.020342862014336945, ,3.9306720640822894e-05, ,0.13193516842325154,-0.21843749934744025,0.09065863373000001,3.007582859398533,0.2732729995308809,-0.30696490973762186, ,0.01710162940322054,0.022524790305832133,0.0071945851490514915,0.01086790178508311,0.009835148142663947,0.02866367520409021, ,0.7362051010131836
0.010437316306758163,0.020536349294179874,-0.08084740311583183, ,0.01063899598043966,0.020425604979502538,-0.0811014233538294, ,0.00034273207512862294, ,0.0020473285547938816,-2.0366151929366617e-05,-0.006530622692001494,-0.0007997182858122858,0.004956618650209408,0.006097378546751229, ,0.006844048636348492, ,0.005020717667968941, ,3.93953673806412e-05, ,0.13240625512857923,-0.21776562158738272,0.09086604013,3.0077925493420175,0.2739561820297081,-0.3067052118546984, ,0.014674028383867449,0.019940521445360532,0.006623206453222454,0.0031420154108611287,0.022763061028213346,0.015848262788727478, ,0.758620023727417
0.010460507990177607,0.02053463260451669,-0.08091863024497385, ,0.010681170089220355,0.020424763779845957,-0.0812377897599354, ,0.0004032687894927756, ,0.0021779773245536485,-0.0004424795373811773,-0.006621183943785901,-0.03072686073475735,0.026101625300735478,0.013322144503425374, ,0.0069842286750019245, ,0.04031668142627277, ,3.966480423216305e-05, ,0.13257615525181216,-0.217533939601156,0.09093992866,3.008002239285502,0.2740928185294736,-0.3063265573175515, ,0.01559010046960256,0.02272436340001695,0.006533556817063167,0.004744175410312711,0.0,0.0465737900554729, ,0.7763051986694336
0.0105047236595322,0.02053509951887965,-0.08105775241217596, ,0.01072336419855639,0.02042390830178026,-0.08137382515640379, ,0.0004000864302979344, ,0.0021649441224076624,0.0001302728821220944,-0.006718176111075513,0.021941409583072266,-0.0009144998077297416,-0.0017054677239369698, ,0.0070595923633301645, ,0.021960458799967983, ,3.991187287825448e-05, ,0.13289278729965537,-0.21708602109445096,0.09108122427000001,3.0082119292289864,0.27491263752806616,-0.30658667103902715, ,0.015690631871440274,0.02077883546277004,0.006862908884101682,0.009842644795471266,0.0437122640465612,0.007994432669736151, ,0.7957282066345215
0.010505080141645478,0.02053502669363094,-0.08106041900668695, ,0.010765577966031717,0.02042303866890431,-0.08150952976664733, ,0.0005311317246261239, ,0.002169349039863284,0.00012512277307031357,-0.006740165900690993,0.020603821922054073,-0.0003248131974716729,-0.0015132250636647436, ,0.007081777131055043, ,0.020606381717762613, ,4.052947270799235e-05, ,0.13289278729965537,-0.21707829836157674,0.09108381685000001,3.0082119292289864,0.27491263752806616,-0.30658667103902715, ,0.015690631871440274,0.020769739890232168,0.006880696120950325,0.009842644795471266,0.04250160033484109,0.008849993616365567, ,0.8139681816101074
0.010594565415091652,0.02053890526962379,-0.0813628037250528, ,0.010807811050198813,0.020422155004653227,-0.08164490381458012, ,0.0003724040625104262, ,0.002241844383801393,0.00026568661805467667,-0.007739768207155078,0.031474443674252915,-0.030599464680903788,-0.01486682292062322, ,0.008062286742648373, ,0.0438972415487296, ,4.0782894861005144e-05, ,0.13349516046384488,-0.21625968867690895,0.09138844500000001,3.0082119292289864,0.2755958200268934,-0.30583690071526026, ,0.014977421331829352,0.022135978903305525,0.007901196190476193,0.0077850785127777196,0.04832632162130619,-0.026994960725666043, ,0.829754114151001
0.01064223469334614,0.020543997919548564,-0.08153112360608993, ,0.010850063110577637,0.020421257432298476,-0.08177994752461773, ,0.0003466572091430811, ,0.0023281737746238154,0.00031476519377680217,-0.008054037125554832,0.0011271903894878189,0.0013594063692143345,-0.0054056208894808725, ,0.00838969512389306, ,0.001765930338683292, ,4.095425885292684e-05, ,0.1337886243130654,-0.21585038383457505,0.09155825899000002,3.0086313091159558,0.27586909302642426,-0.30565134282195033, ,0.014937343232877502,0.019602755950933855,0.008168621292307693,0.012255318651082212,0.021776219603027332,0.012427476655647236, ,0.8488130569458008
0.010666516778398097,0.02054512269816221,-0.08161355313189098, ,0.010892333807654878,0.020420346074948005,-0.08191466112167574, ,0.0003965205643031879, ,0.002244953476549153,-0.0001998830798562042,-0.007418995792548079,-0.027444459140802426,0.021768227358224684,0.004318168103741147, ,0.007753790552196328, ,0.03502933110086737, ,4.125601916153316e-05, ,0.13394307897054988,-0.21563414731409675,0.09164122155000001,3.00884099905944,0.2760057295261897,-0.305517724505225, ,0.014674028383867449,0.021641263753357075,0.007374449777777778,0.010694723858814861,0.0,0.03910944182859956, ,0.8644862174987793
0.010709768783490359,0.020546413167786173,-0.08176491171609614, ,0.01093462280288273,0.020419421055546127,-0.08204904483116894, ,0.0003839504573367103, ,0.002164905030791075,0.00017052482124198763,-0.007914795808510705,0.020502198186838023,-0.008050464423027318,0.01830112426006967, ,0.00820730681755122, ,0.022026122601561504, ,4.151251059874604e-05, ,0.134221097354022,-0.21518622880739174,0.09179418377000001,3.0090506890029243,0.2766889120250169,-0.3055847415828638, ,0.014212511840417968,0.023202186200115105,0.008036736387487387,-0.012827490778439003,0.046795816655443995,0.0032747234977167985, ,0.8825850486755371
0.01075702383844251,0.02054617556197903,-0.08192647886578971, ,0.010976929758678202,0.020418482496873735,-0.08218309887901125, ,0.00036127270007089003, ,0.002383637303523356,1.800854899372843e-05,-0.008244295409512565,-0.02190427512962049,0.01682868873086492,0.028475691725341652, ,0.00858198449671723, ,0.027622490750622824, ,4.1699508286258394e-05, ,0.13453000666899095,-0.2147383103006867,0.09195622002,3.0090506890029243,0.2769621850245478,-0.3050724687289915, ,0.015714015823558664,0.02191109248637053,0.008261831701244815,-0.012827490778439003,0.009068128254652663,0.039053895775546923, ,0.8994200229644775
0.010780872950261165,0.020549673542253188,-0.08200738441851446, ,0.011019254338421977,0.020417530521548228,-0.08231682349161354, ,0.00041235907180868834, ,0.002370613896489874,0.00039625529422617585,-0.008144474946948924,0.04994129559672414,-0.039517709553263614,0.0054720694020482024, ,0.00849171953528329, ,0.06368502444358341, ,4.2012397932504836e-05, ,0.13469218405934968,-0.2145143510473342,0.09203918258,3.0090506890029243,0.27750873102360957,-0.30535478286349615, ,0.016541213449271532,0.023489341969918507,0.008392419135932562,-0.012827490778439003,0.0700636258747889,-0.03354891624244704, ,0.9146740436553955
0.010816387158703214,0.020548630722234167,-0.08212558603923581, ,0.011061596206457507,0.020416565252023584,-0.0824502188958846, ,0.0004277326935580915, ,0.0022469063454079188,-0.00021884410000676648,-0.007322021758520161,0.0023676420348683644,0.0035363484485965817,-0.004168315347843742, ,0.007662146141740238, ,0.004255757054845736, ,4.2353331371358304e-05, ,0.13493931151132485,-0.21414365986937142,0.09215844126000002,3.00884099905944,0.2780552770226713,-0.3051470245571573, ,0.015015338854188414,0.024220760989910866,0.007343850401106501,0.012168768200796659,0.028051589669617565,0.01413183545308394, ,0.9319400787353516
0.010853479351868634,0.020545384107110865,-0.08224372055709259, ,0.011103955028090104,0.020415586810590865,-0.08258328531922872, ,0.000441463056491788, ,0.00248359380176572,-4.1974140555727825e-05,-0.0080991605022812,-0.017810380660872357,0.039820620555414035,0.023148847020654388, ,0.008471505228845483, ,0.04362214398506405, ,4.271671417058707e-05, ,0.13518643896330004,-0.2137884141571571,0.09227640365,3.0090506890029243,0.2781919135224367,-0.304278297579167, ,0.016613610216819116,0.02289984110966959,0.008139402922841084,0.004030332476525239,0.01629718780545098,0.0612425790910668, ,0.9472811222076416
0.010903786310069625,0.020546538192122075,-0.08240214613123827, ,0.011146330469585823,0.020414595319377435,-0.08271602298954608, ,0.0004180374064180302, ,0.0024335024305230336,4.300186050789365e-05,-0.0074549906230499,0.03014353266563368,-0.00987825073005329,-0.006265990974759214, ,0.00784223618804806, ,0.03172085080862462, ,4.300986788296126e-05, ,0.13552623920976592,-0.21332505018470363,0.09243714361000001,3.0094700688898937,0.2788750960212639,-0.3039369209561029, ,0.017298020699684793,0.02401846154352589,0.007617796040172167,0.01105894386144159,0.05324523590180213,-0.002035272299170228, ,0.9649720191955566
0.01094336353274453,0.020541072200547114,-0.08252315430624126, ,0.011188722198170695,0.020413590900347757,-0.08284843213523091, ,0.0004269168802383546, ,0.0025777756063986193,-0.0002727871673494065,-0.008070831043471003,-0.019146087540427452,-0.0201292500372118,0.017408438323935224, ,0.008476889385138249, ,0.027780556886458686, ,4.331458411796762e-05, ,0.13579653486036378,-0.2129389135409924,0.09255769858000001,3.009679758833378,0.2790117325210294,-0.30372162389923707, ,0.018245903010665403,0.024413928880491584,0.008052988634984834,-0.019416069315217825,0.008042531356309864,0.0013581899822849046, ,0.9803659915924072
0.010997154571165459,0.020542213352621998,-0.08269215187274426, ,0.011231129882029657,0.02041257367530313,-0.08298051298517185, ,0.0003933230519430803, ,0.002691943472761942,0.00025652304670205307,-0.008418945511320212,0.011508819562289224,-0.024514033747579815,-0.018179679037644995, ,0.008842567910771943, ,0.027081187861684824, ,4.352915783967549e-05, ,0.1361749487712008,-0.2124678268356647,0.09272880886000001,3.0094700688898937,0.2795582785200912,-0.30400393803374165, ,0.018256433543376447,0.02139728107293591,0.008577712180936998,0.013751665173404017,0.02871755898328351,-0.014722633117970991, ,0.9964840412139893
0.011035579232982684,0.020541531154972995,-0.08282047547046774, ,0.01127355319030564,0.020411543765881935,-0.08311226576875048, ,0.0003983339100033944, ,0.0028019191996094643,0.0001564334458770177,-0.009602942782590107,0.00011016147445907349,-0.01707488935909942,-0.013992820461150988, ,0.010004585584112343, ,0.017075242326644244, ,4.374843138797915e-05, ,0.13642207622317595,-0.21213574932207305,0.09285714157000001,3.0094700688898937,0.2795582785200912,-0.3038405805534605, ,0.017541024317647095,0.02473851448343868,0.009694955276932442,0.012095263620277503,0.022419706171126597,-0.005688329090646708, ,1.0175371170043945
0.011078332001680057,0.02054117169696291,-0.08295722558774693, ,0.01131599179309852,0.02041050129355931,-0.0832436907158403, ,0.0003944859951839579, ,0.0024548926219261124,-0.0003507348249130581,-0.007162827637421735,-0.02876116745331052,0.022408696204718876,0.006790985037590917, ,0.0075799480516693975, ,0.03646031267032587, ,4.395176543283654e-05, ,0.13670781733952228,-0.2117727808769845,0.09299454831000001,3.0094700688898937,0.27969491501985655,-0.3036252834965947, ,0.01710471188869336,0.022135978903305525,0.007130175255147718,0.009737616008125866,0.0,0.04289487229115507, ,1.03279709815979
0.011129466607473161,0.02053843726231072,-0.08309719922368251, ,0.011358445361464306,0.020409446379647873,-0.08337478805680647, ,0.0003822636235173265, ,0.0024815906929787123,8.318211745495093e-05,-0.0069401618517844245,0.03930230307311055,-0.007714034757412797,-0.01590147657548958, ,0.007370960463949502, ,0.04005218274936321, ,4.42212041394736e-05, ,0.13707078578461082,-0.2113016941716568,0.09313714021000001,3.0103088286638315,0.28051473401844923,-0.30372203973778933, ,0.018162094078176226,0.02265925061090515,0.007159016413483147,0.022255775569295304,0.05966605711583905,-0.0021259279836705917, ,1.0460929870605469
0.011151855985650145,0.020537528401593057,-0.08315838595866167, ,0.011400913567414062,0.020408379145296907,-0.08350555802250458, ,0.00044636045002764777, ,0.002478632880593238,-9.18114345928615e-06,-0.007206501581583102,0.012749956046536186,-0.0244504178664672,0.0418054463844767, ,0.007620851021737198, ,0.027575066520260066, ,4.462710823182966e-05, ,0.13723296317496952,-0.2111086258498012,0.09319936213,3.010518518607316,0.2807880070179801,-0.3036998393247604, ,0.019272327692622007,0.022156652243397332,0.00735062829718505,-0.04047025830505789,0.04058319208930994,-0.0021572180141905314, ,1.0608580112457275
0.011185543803072141,0.02053763868552644,-0.08326118790717985, ,0.011443396083912939,0.020407299711493524,-0.08363600084428052, ,0.0004732449521176019, ,0.0025040796923535584,2.644871743340575e-05,-0.008264626842662336,-0.01564681778363373,0.010703560209455332,0.04788360007296984, ,0.008635691720341005, ,0.018957559688776323, ,4.5081715096269096e-05, ,0.13746464516119627,-0.21083833019920334,0.09330306533,3.010518518607316,0.28092464351774554,-0.3031578273073323, ,0.017250852855566403,0.02200763950799415,0.008330968368200839,-0.03233253878809663,0.01788685208366526,0.0371347215791413, ,1.0741040706634521
0.011239469836502924,0.020541918544437807,-0.08344340023032226, ,0.011485892584879335,0.02040620819906152,-0.08376611675396879, ,0.0004281208046732092, ,0.00270563470830192,0.0007789712139919906,-0.009538888925220389,0.06459943133773742,-0.03681603945202212,-0.005228385227403785, ,0.0099457356316508, ,0.07435393204879634, ,4.5425886524425416e-05, ,0.13781216814053637,-0.21035952076100142,0.09348454593000001,3.0103088286638315,0.2817444625163382,-0.30300954732810526, ,0.017447497988319686,0.023173856302434865,0.009869152118959109,4.530056725150772e-05,0.08279899386753888,-0.033425277554640254, ,1.0873980522155762
0.011268274190524941,0.02054719309411245,-0.08354189776584435, ,0.01152840274518386,0.020405104728662332,-0.08389590598389259, ,0.00046171180079234526, ,0.003037402174712279,0.0004976623382192766,-0.010192627136685662,0.026244057390650936,-0.031688783417685724,-0.006416178372553157, ,0.010647212204203019, ,0.041145223693730824, ,4.5833551355558594e-05, ,0.138005236462392,-0.21011239330902623,0.09358954542,3.0103088286638315,0.28229100851539995,-0.3030468252421881, ,0.019655538848067686,0.02438256463475611,0.010438277536041943,0.0013758770470971334,0.047255802315624845,-0.021039901793863242, ,1.1008260250091553
0.011328545114298727,0.020551664485865317,-0.0837368811491293, ,0.011570926240648335,0.020403989420794747,-0.08402536876686167, ,0.00040469944506880566, ,0.0026362858681446685,-0.00038919928047419705,-0.007590466859672948,-0.032930578450314836,0.03861073289826238,0.011520633477728515, ,0.008044666954342748, ,0.050746543397719925, ,4.610950483839998e-05, ,0.138383650373229,-0.20966447480232123,0.09378658150000001,3.010728208550801,0.28242764501516543,-0.30209641952405725, ,0.018110103350853203,0.023287593020483624,0.007563538233618236,0.013411342691231265,0.0,0.061752633234106354, ,1.117225170135498
0.01135345858310873,0.02054994722090492,-0.08380664443499983, ,0.011613462748044874,0.02040286239579526,-0.08415450533617397, ,0.00045852297448150417, ,0.002688631453999478,-0.0002629808846921662,-0.007339195182048263,0.03623563148455323,-0.03649946217428252,-0.019179342375890723, ,0.00782059358113879, ,0.05143181609473813, ,4.6491576152372894e-05, ,0.13856899596221037,-0.20941734735034603,0.09385787745000002,3.010728208550801,0.28297419101422716,-0.3023787336585618, ,0.019919593106312087,0.026905852440734554,0.007488862961918196,0.011633612862446354,0.05686327268395425,-0.030070147239223594, ,1.1305441856384277
0.011381595954844602,0.020546916029917286,-0.08388871747920304, ,0.011656011945095059,0.020401723773837362,-0.08428331592561161, ,0.0005020884990106585, ,0.002823488448421052,-0.00010789632114254497,-0.008718691708658887,0.015042355359705602,-0.007328341067899704,-0.004576171739593322, ,0.009165113951562219, ,0.01673251287748824, ,4.6954520223112355e-05, ,0.1387697870169402,-0.20913932896687396,0.09394084001000001,3.010728208550801,0.28338410051352353,-0.3023862724090889, ,0.019047960971190443,0.0269517016638656,0.008839518046614873,0.010249451057399743,0.042180827607561186,0.004818769523709163, ,1.1441872119903564
0.011438266410464176,0.020547049172332535,-0.0840680132011788, ,0.011698573510468652,0.02040057367493244,-0.08441180076944313, ,0.00045541711621813424, ,0.003232293968870427,0.0002145266424264207,-0.010581505022931738,-0.022757868837084118,0.04267467134758424,0.030615244950235716, ,0.011066254765359258, ,0.04836370577169518, ,4.731044234376699e-05, ,0.13913275546202877,-0.20869913319304315,0.09412102432000001,3.0109378984942854,0.28338410051352353,-0.3014878062675427, ,0.020643232881981895,0.025085102183048054,0.010704846451612904,0.0,0.015709117522134806,0.07020786772856735, ,1.1588630676269531
0.01147753857828955,0.0205530645364288,-0.08420353335914901, ,0.011741147123782979,0.02039941221892985,-0.08453996010242074, ,0.0004541821809784892, ,0.003130469915032269,0.0004941425662877601,-0.010855584710715988,0.043957901019052274,-0.04244092332199126,-0.024170142228622647, ,0.011308746092130211, ,0.06110260946695231, ,4.7655218714042066e-05, ,0.13935671471538127,-0.20839022387807418,0.09425194961000001,3.0111475884377694,0.28393064651258526,-0.30144340544148496, ,0.01882502312209299,0.02724574836591179,0.0111157093649686,0.013629790577095303,0.0216594098186165,-0.005307704486707586, ,1.1719861030578613
0.011509799888037258,0.020557269061306588,-0.08431116240184519, ,0.011783732465601788,0.020398239525516053,-0.08466779415978014, ,0.0004769860176909498, ,0.0032136878385692503,0.0001368542443348636,-0.01046974948796802,0.0029522212853478813,0.00793256123424825,-0.001711575811588816, ,0.010952724453247556, ,0.008464101396635348, ,4.803732812485547e-05, ,0.13956522850298533,-0.20810448276172785,0.09436602313,3.0113572783812543,0.284477192511647,-0.3015623620957084, ,0.020351049015327208,0.027237928116667847,0.010676147131367292,0.01463420159801998,0.048499374152160005,0.011621884642683607, ,1.185075044631958
0.011574979442794238,0.020552029591361667,-0.08450634276197998, ,0.011826329217434378,0.020397055714215632,-0.08479530317723984, ,0.0004131485609275117, ,0.0033776254581081334,-0.00035707022562377067,-0.009325283408771505,-0.031529426112507614,0.009160244945522991,0.000528911542386757, ,0.009924553568558956, ,0.0328331346040307, ,4.828421467066253e-05, ,0.14001314700969036,-0.2075484459947837,0.09456565179000001,3.0113572783812543,0.2847504655111779,-0.3009684105016956, ,0.023606204367778803,0.026814620389508555,0.009347894084507044,0.011698338570788665,0.0,0.03476009294250601, ,1.1999330520629883
0.011607160271374668,0.02055252540273412,-0.08459736165363764, ,0.01186893706173451,0.020395860904390987,-0.08492248739100039, ,0.00044584481392955254, ,0.0032148778743975428,2.496266229509974e-05,-0.009374187237192773,0.024889367195928106,-0.03413622654401744,-0.016568917846725154, ,0.009910168981392175, ,0.04224644943294011, ,4.858917468219687e-05, ,0.1402448289959171,-0.20727815034418584,0.09465898467000002,3.0113572783812543,0.2852970115102396,-0.3013324033763407, ,0.022244946450649502,0.027198894112488037,0.009572603076923078,0.010551903206783578,0.047065581425130204,-0.02295591944531819, ,1.2131330966949463
0.011638605252548187,0.020549446953725434,-0.08468897345724792, ,0.011911555681899597,0.020394655215242505,-0.08504934703774303, ,0.0004778404929519368, ,0.0030900630317133872,-0.00015003257314838338,-0.00881074035591334,0.01837378013280722,-0.023831190522987596,-0.010991259567905469, ,0.009338101784211135, ,0.03009188237740619, ,4.904351630606718e-05, ,0.1404610655163954,-0.20700785469358798,0.09475102126000001,3.0113572783812543,0.2854336480100051,-0.30119878505961545, ,0.021646200173008844,0.02733994282871529,0.008963878176702309,0.009615643421575377,0.04298451989336851,-0.011021696468470312, ,1.2242960929870605
0.011666254414535473,0.020543034695127076,-0.08476743483296273, ,0.01195418476226967,0.020393438765808177,-0.08517588235462978, ,0.0005216437531218749, ,0.0028443283196746922,-0.000595030607961611,-0.008281552197201216,-0.0021784634348288824,-0.015096485198584525,0.0010322107759844056, ,0.008776580872383215, ,0.015252853153865048, ,4.957306835892454e-05, ,0.14064641110537676,-0.20674528177586435,0.09482879866,3.011566968324739,0.2854336480100051,-0.3010354275793343, ,0.019712700780737596,0.029407171229770927,0.008283313322932919,0.0,0.027784790652029916,0.001248454546615211, ,1.2380762100219727
0.01171315537231235,0.020536362036222097,-0.08489844097938377, ,0.011996823988126423,0.020392211674964415,-0.08530209357930202, ,0.0005139869956227984, ,0.003471885979573945,2.8133275655397444e-05,-0.010352125291078226,-0.013012178756413997,0.014679963444232811,-0.002241181613802083, ,0.010918849837713799, ,0.019616778630097798, ,5.007804303412031e-05, ,0.14095532042034575,-0.2063514223992789,0.09495972395,3.012196038155192,0.2854336480100051,-0.3003003189180693, ,0.022833720297995855,0.02647055552537539,0.010486380197498356,0.018227488943487233,0.01788918481275397,0.03607850372303694, ,1.2494940757751465
0.01177945097471782,0.02053967656103675,-0.08509400212185012, ,0.012039473045692292,0.02039097406142561,-0.08542798094987947, ,0.0004486265355017624, ,0.00327688041585868,0.0002651452430408787,-0.0099960918154766,0.046380201723967444,-0.02013457042004577,0.029618488816068628, ,0.010522837014949136, ,0.05056208004177589, ,5.045066769639693e-05, ,0.14140323892705078,-0.20579538563233474,0.0951606489,3.0126154180421616,0.2866633765078941,-0.3007313288703532, ,0.023066830714261247,0.028687104461448235,0.010316587772020727,-0.02249272779190976,0.0790924351113766,-0.0027818096896564046, ,1.2611432075500488
0.01177945097471782,0.02053967656103675,-0.08509400212185012, ,0.012082131622129465,0.02038972604374408,-0.08555354470496027, ,0.0005703333390618345, ,0.00327688041585868,0.0002651452430408787,-0.0099960918154766,0.046380201723967444,-0.02013457042004577,0.029618488816068628, ,0.010522837014949136, ,0.05056208004177589, ,5.1042995444217876e-05, ,0.14140323892705078,-0.20579538563233474,0.0951606489,3.0126154180421616,0.2866633765078941,-0.3007313288703532, ,0.023066830714261247,0.028687104461448235,0.010316587772020727,-0.02249272779190976,0.0790924351113766,-0.0027818096896564046, ,1.273557186126709
0.01182844548294453,0.020540554500546322,-0.08525278452771247, ,0.012124799405538884,0.02038846774031075,-0.08567878508361967, ,0.0005407702873764982, ,0.003472064233070564,0.0002798778980061716,-0.01154327162074982,-0.011185448394465686,-0.006437637016430904,0.022195046712041974, ,0.012057391151769459, ,0.012905704986251473, ,5.1569850260002766e-05, ,0.14171214824201975,-0.20538608079000084,0.09532138886000001,3.0126154180421616,0.2870732860071904,-0.30041215266031795, ,0.02170561334823211,0.02634562508563875,0.011703755709037473,-0.014860022181491293,0.020794604816431576,0.01795367541017768, ,1.284933090209961
0.01189506162689317,0.020539809380666296,-0.08546022557055552, ,0.012167476084959397,0.020387199269354422,-0.0858037023254089, ,0.0004641936709636941, ,0.003668973950905686,-0.0001383536960310565,-0.01186752904029911,-0.024793994810425095,-0.011069108508948898,0.01392954764990369, ,0.0124225100973987, ,0.02715266297151995, ,5.1947079546408024e-05, ,0.14213689855010211,-0.20488410315317623,0.09553009155000002,3.0126154180421616,0.2870732860071904,-0.29975872273919346, ,0.023044424856355213,0.030592179741608886,0.011922763113772456,-0.0103443976281949,0.009915701833656422,0.01468764246788029, ,1.296032190322876
0.01193200638365988,0.020541875177720537,-0.08558302115886149, ,0.012210161350366783,0.02038592074894232,-0.0859282966703551, ,0.0004700076044027772, ,0.0038552477281585756,0.0001632172346558037,-0.012569340446533994,-0.02617075855426149,0.005501933716560133,0.01174844366339854, ,0.013148303851525333, ,0.02674284136347988, ,5.232800745704342e-05, ,0.14236858053632884,-0.2045906393039557,0.09565453539,3.012405728098677,0.2873465590067213,-0.29973652232616455, ,0.023635601882558102,0.028739231241208592,0.012692280095617531,0.0,0.008539794436675798,0.03212051800566847, ,1.307636022567749
0.01193200638365988,0.020541875177720537,-0.08558302115886149, ,0.012252854892672608,0.020384632296980346,-0.08605256835895986, ,0.0005900370008731507, ,0.0038552477281585756,0.0001632172346558037,-0.012569340446533994,-0.02617075855426149,0.005501933716560133,0.01174844366339854, ,0.013148303851525333, ,0.02674284136347988, ,5.291758907928387e-05, ,0.14259253978968134,-0.20432034365335786,0.09577638665,3.012405728098677,0.2880297415055485,-0.29996689688408446, ,0.022540841225289973,0.02726923608002034,0.012309746151468317,0.0,0.07144127231389055,-0.03593737268443906, ,1.321465015411377
0.012038031934791166,0.02054282540212723,-0.08590720678430463, ,0.012295556403723462,0.020383334031212633,-0.08617651763219872, ,0.00040532046862761477, ,0.0032062198397231827,-0.000735880172465508,-0.008465943363879678,-0.013729003070645208,-0.005521302966089037,-0.0002002116241905721, ,0.009082596673269203, ,0.01479764401073334, ,5.316800282168813e-05, ,0.1430481810292606,-0.203741138687791,0.09598379305000002,3.0128251079856456,0.2883030145050794,-0.29937294529007163, ,0.02272436340001695,0.029945390204629465,0.00846826768740032,0.006195870950271298,0.018401989157309125,0.015608181685657013, ,1.333625078201294
0.012069475487266923,0.020535887311681805,-0.08599017634824929, ,0.012338265576300042,0.02038202606922177,-0.0863001447315207, ,0.00043818009142550945, ,0.0033508618000849394,-0.0007901962876736795,-0.008731864937094144,-0.038286898016066724,0.023958560161103485,0.014042682867168296, ,0.009386061487971185, ,0.04516524232110727, ,5.347195357533376e-05, ,0.1432721402826131,-0.2034553975714447,0.09606675561000001,3.0128251079856456,0.28843965100484475,-0.2991576482332058, ,0.023665072707848074,0.029343519343992198,0.008690022651391162,0.005781766695867339,0.0,0.053172924885939166, ,1.344724178314209
0.012103020750826816,0.020533536350494583,-0.08607747171561922, ,0.012380982104116034,0.020380708528428916,-0.08642344989884689, ,0.0004693823179341385, ,0.0032968758701951996,-0.00022369970488420304,-0.008755509614481254,0.03133265648274793,-0.041354822592124585,-0.013959416479514108, ,0.009358332152190063, ,0.051884069447561694, ,5.3825139851658e-05, ,0.14351154500171406,-0.2031696564550984,0.09615619962000001,3.0130347979291305,0.28898619700390654,-0.2994399623677103, ,0.023653275562928906,0.028361309491473634,0.008963878176702309,0.005961594551040832,0.0542057982381381,-0.029432056259993716, ,1.3558440208435059
0.012147603999432195,0.020528661663980985,-0.08620479676640701, ,0.01242370568181717,0.02037938152609419,-0.08654643337657003, ,0.0004639313224896504, ,0.003628356248239012,-6.065963561434264e-05,-0.011086412514782953,-0.006265825886463453,0.01985544802368994,0.014682023982365285, ,0.011665212861472525, ,0.02082064414911145, ,5.416275791618375e-05, ,0.1438127315838088,-0.2027912425442614,0.09628453233,3.0130347979291305,0.28925947000343744,-0.29909104699411926, ,0.023219217410929967,0.029562910142825787,0.011241221961891321,0.005961594551040832,0.03106342766652149,0.04346645960364574, ,1.3697571754455566
0.012183556170098118,0.020527815132213013,-0.08631790367650193, ,0.012466436004980479,0.02037804517931588,-0.08666909540755348, ,0.00047517120255005776, ,0.003700590516225389,-0.00015577788248501753,-0.011572931452610017,-0.03359699663444267,0.006577968348687969,0.004555226691226194, ,0.012151188391439704, ,0.03423488926309074, ,5.4607715181046614e-05, ,0.14403669083716134,-0.2025055014279151,0.09639860585000001,3.0130347979291305,0.28939610650320285,-0.29871239245697234, ,0.02277891059972894,0.028635166432851772,0.011626869722627739,0.005961594551040832,0.0,0.03222867566544978, ,1.378871202468872
0.012221020829203696,0.020530185867704855,-0.08643473146965934, ,0.01250917277011299,0.020376699605031492,-0.08679143623513084, ,0.00048355750804771, ,0.0038381695249092938,0.00014527328871852176,-0.011895864050064764,-0.011132200100740319,0.022089069814382,0.010425937688871834, ,0.012500569232158221, ,0.024735655360766363, ,5.506092312518939e-05, ,0.14426837282338806,-0.2022197603115688,0.09651786453000001,3.013244487872615,0.2898060160024992,-0.29839321624693715, ,0.023915559868566225,0.02844632540721546,0.012085592959028833,0.010878515410368649,0.024847851671274172,0.04659051867404757, ,1.3876891136169434
0.01226021290330518,0.020535354099877494,-0.08655669185999215, ,0.01255191567465114,0.020375344920017222,-0.0869134561031047, ,0.0004878259624232229, ,0.003967205292687117,0.0005414933006800422,-0.01271009782153746,0.06133102567694789,-0.06553411670945143,-0.034641655011364715, ,0.013325859051560517, ,0.08975641944604972, ,5.5515222395006815e-05, ,0.1445000548096148,-0.20193401919522247,0.0966384195,3.013663867759584,0.29048919850132643,-0.298623590804857, ,0.024301393484883683,0.03113416717797598,0.013045709680589684,0.016213037405962392,0.07997799080633781,-0.06253102899413464, ,1.397001028060913
0.012296170401596078,0.020537645977380784,-0.08666599182004471, ,0.012594664416959486,0.020373981240887972,-0.08703515525574615, ,0.0005021617920928699, ,0.004306830878131154,0.0004101191365538208,-0.012974228466889658,0.0007676507123197487,0.0144423271661894,-0.003992610724587767, ,0.013676534437862597, ,0.014462701475316366, ,5.598756793044163e-05, ,0.14473173679584153,-0.20167144627749883,0.09675508560000001,3.0138735577030684,0.29076247150085727,-0.298438032911547, ,0.027059293287274244,0.028852825040580957,0.013274009600000001,0.023012406081984158,0.03387547524324682,0.03739342578488633, ,1.4084701538085938
0.012334503465457971,0.020540542052024224,-0.08678454289801868, ,0.012637418696330031,0.02037260868409774,-0.0871565339377935, ,0.0005082682233133998, ,0.004273120237052866,0.0001739736703329168,-0.012704578131184046,-0.029675935754722726,0.004503723753562674,-0.012666325452710308, ,0.013405078473833704, ,0.03001573519984516, ,5.6463812405469494e-05, ,0.1449711415149425,-0.20141659609264945,0.09687564057,3.0138735577030684,0.2908991080006227,-0.29805937837440005, ,0.026619057940665016,0.02749042339469026,0.01287696970088925,0.023012406081984158,0.0,0.030356030534992924, ,1.41795015335083
0.012387219019707787,0.020542727489994174,-0.08694220147507407, ,0.012680178212981013,0.020371227365939642,-0.08727759239445232, ,0.0004772048305239626, ,0.00407277632527896,-5.5192695073707707e-05,-0.012192067988536899,-0.010871076922448158,0.007051582496114487,-0.010146902730460833, ,0.012854457400701458, ,0.012957810762622599, ,5.6882031342078626e-05, ,0.14531094176140838,-0.20103818218181244,0.09703638053000001,3.0138735577030684,0.29130901749991905,-0.29782188090450534, ,0.025387089769521344,0.030830715256163342,0.012357495360744767,0.023012406081984158,0.0222866070276216,0.028688578284951676, ,1.426820993423462
0.012387219019707787,0.020542727489994174,-0.08694220147507407, ,0.012722942668056243,0.0203698374025457,-0.08739833087139408, ,0.0005921616135698009, ,0.00407277632527896,-5.5192695073707707e-05,-0.012192067988536899,-0.010871076922448158,0.007051582496114487,-0.010146902730460833, ,0.012854457400701458, ,0.012957810762622599, ,5.7484731322576947e-05, ,0.14531094176140838,-0.20103818218181244,0.09703638053000001,3.0138735577030684,0.29130901749991905,-0.29782188090450534, ,0.025387089769521344,0.030830715256163342,0.012357495360744767,0.023012406081984158,0.0222866070276216,0.028688578284951676, ,1.4355180263519287
0.012427412902718473,0.020545272612092352,-0.08706625503813051, ,0.012765711763623837,0.02036843890988693,-0.08751874961475514, ,0.0005920030569179944, ,0.004159104087216447,0.00035008223823706185,-0.012535605150629623,0.032745546872750775,-0.03167355796833678,-0.025925939504874207, ,0.01321219515729016, ,0.045557489009186665, ,5.807925370620205e-05, ,0.1455657919462578,-0.20072927286684344,0.09716341695000001,3.0138735577030684,0.2918555634989808,-0.2978591588185882, ,0.026156819613690954,0.030464507723425613,0.01287696970088925,0.023012406081984158,0.05716095221554222,-0.01973697906761383, ,1.444352149963379
0.012461850755084799,0.020546472131666944,-0.08717093358382845, ,0.012808485202675456,0.02036703200377376,-0.0876388488711365, ,0.0006093430198594052, ,0.004532421097628657,0.0001861656049651876,-0.013480087915859295,-0.014092969826008528,0.01487303244910561,-0.002491584587251736, ,0.014222878360514696, ,0.020489471629174732, ,5.8694304285377566e-05, ,0.14578202846673607,-0.2004898681477425,0.09726971273000001,3.0138735577030684,0.29199219999874626,-0.2975621830215819, ,0.028344367251634046,0.030971586670519188,0.013719906563307495,0.0209798626157229,0.021914241414824315,0.04156050096898335, ,1.4554400444030762
0.012516652593256034,0.020549546343082828,-0.08733238887943877, ,0.012851262689125315,0.020365616799855917,-0.08775862888760291, ,0.0005722539101562162, ,0.0045594782771589465,0.00012670091789157307,-0.01376318454557378,-0.03050550208061506,0.03151815684785601,0.0174627406516791, ,0.014499315298247701, ,0.04386318928699677, ,5.9241268131430576e-05, ,0.14612182871320195,-0.20012689970265393,0.09743434156000001,3.0142929375900374,0.29226547299827715,-0.2971315889078502, ,0.028285228482405594,0.031083177713223314,0.013960395723049959,0.009252426886307206,0.01140659472311238,0.06472540317817897, ,1.4658901691436768
0.01254445601221674,0.02055165518307425,-0.08741190667186347, ,0.012894043927809164,0.020364193413622257,-0.08787808991168171, ,0.0006121114594759364, ,0.004301833089988575,0.0001308447015780428,-0.0122618200540566,-0.003304711924002359,0.0003108908337519725,0.002827930488594295, ,0.012995196008837893, ,0.0033192614875878325, ,5.9845368593508214e-05, ,0.14629945156930912,-0.19994155411367256,0.09751600783000001,3.0145026275335223,0.292538745997808,-0.2971093884948213, ,0.028034546989208504,0.029416286905911585,0.012522650566037737,0.00989583348157031,0.029948653815356947,0.02593842321920807, ,1.4746840000152588
0.012603207463521709,0.02054648726083406,-0.08756729598238105, ,0.012936828624483426,0.020362761960400936,-0.08799723219136185, ,0.0005743720125959007, ,0.004113854636782213,-0.0006922346067138527,-0.010880819999601837,0.00017599947652880137,0.006172405578752833,0.006616087924714706, ,0.011653121152165291, ,0.006174901936947107, ,6.03813534546632e-05, ,0.1467010336787688,-0.1994781901412191,0.09767415521000002,3.0147123174770067,0.2930852919968697,-0.29690163018848253, ,0.028259958772623817,0.03624787683669625,0.011008162764340015,0.009494921680748673,0.04152271376950394,0.03136602083627028, ,1.4839670658111572
0.01264487621663755,0.020540992655866622,-0.08768285928076877, ,0.012979616485824207,0.02036132255535962,-0.0881160559750943, ,0.0005761872688683028, ,0.004482323203658206,-0.00041525374114353194,-0.012352344908335661,-0.020393431803511212,-0.007093283082414428,-0.0018941256513630503, ,0.01314701797770401, ,0.021591814144240655, ,6.0913407278271544e-05, ,0.14697905206224088,-0.199130667161879,0.09779082131000001,3.0147123174770067,0.2933585649964006,-0.29663439355503196, ,0.029553703381647704,0.03406207521840301,0.012483394608150471,0.009494921680748673,0.016315560953905996,0.02124315623720573, ,1.4934370517730713
0.012692521270114667,0.02053866167337975,-0.08781023750558847, ,0.013022407219426213,0.020359875313505738,-0.0882345615117901, ,0.0005664275454717733, ,0.0047723867912243135,-0.00020751192623665905,-0.012686472977934791,-0.014204155754252518,-0.008070140963996357,-0.0003016131241840017, ,0.01355600728475949, ,0.016336611865435557, ,6.152050747389965e-05, ,0.14730340684295828,-0.19879086691541312,0.09792045031,3.0147123174770067,0.2936318379959315,-0.2962854781814409, ,0.032212132233017915,0.033065136431522923,0.012908275137763372,0.009494921680748673,0.021857458681907683,0.022383734788940467, ,1.500364065170288
0.012741373239471153,0.020539441827346853,-0.0879471048077683, ,0.013065200533802111,0.020358420349685984,-0.08835274905081979, ,0.0005497091447748085, ,0.0051383962748392294,0.00033954941069391873,-0.015096430308261183,0.0232531947271939,-0.046015976942405314,-0.02685399795127135, ,0.015950567956401148, ,0.0515575446941085, ,6.209554309965257e-05, ,0.1476200388908015,-0.1984510666689472,0.09806044963,3.014922007420491,0.2940417474952278,-0.2962113381918274, ,0.03228885388175256,0.03518611107099398,0.015479894577259477,0.018794312330559605,0.05135503821866206,-0.027234308750856317, ,1.5077381134033203
0.012741373239471153,0.020539441827346853,-0.0879471048077683, ,0.013107996138381164,0.0203569577785865,-0.08847061884201292, ,0.0006646651202735347, ,0.0051383962748392294,0.00033954941069391873,-0.015096430308261183,0.0232531947271939,-0.046015976942405314,-0.02685399795127135, ,0.015950567956401148, ,0.0515575446941085, ,6.284535264663467e-05, ,0.1476200388908015,-0.1984510666689472,0.09806044963,3.014922007420491,0.2940417474952278,-0.2962113381918274, ,0.03228885388175256,0.03518611107099398,0.015479894577259477,0.018794312330559605,0.05135503821866206,-0.027234308750856317, ,1.5143871307373047
0.012796477436477055,0.020543067201519025,-0.08811597230933964, ,0.01315079374350861,0.020355487714733413,-0.08858817113565703, ,0.0006194334838114256, ,0.005459504441766796,0.00046213953511298634,-0.017231268402224553,-0.0009766928892491742,-0.015359606101047116,-0.0017387115246852202, ,0.018081381928632782, ,0.015390578594701354, ,6.351757952006918e-05, ,0.14795211640439315,-0.19807265275811023,0.09823285620000001,3.0151316973639757,0.2944516569945242,-0.29605551946207326, ,0.032332859134061594,0.03705464332622834,0.017581469668874174,0.008427571852105433,0.037605937094552,0.012206916942634741, ,1.521017074584961
0.012848078734178026,0.020547033733214842,-0.08828289527056998, ,0.013193593060444547,0.020354010272492517,-0.08870540618249641, ,0.0005789245864026932, ,0.005435608972656851,0.00035291347969893753,-0.017912029470840956,-0.02036348986761918,0.019009291565681465,0.006701162770714842, ,0.018721944145629103, ,0.027857190123459358, ,6.412064139560098e-05, ,0.1482455802536137,-0.1977174070458959,0.09840267019000001,3.01534138730746,0.29472492999405503,-0.29570660408848215, ,0.030484080166550197,0.03840426611026741,0.01818357479452055,0.014722858443314767,0.025449624926211202,0.04974080263076687, ,1.52813720703125
0.012848078734178026,0.020547033733214842,-0.08828289527056998, ,0.013236393801363029,0.02035252556606935,-0.08882232423373293, ,0.0006925356487490324, ,0.005435608972656851,0.00035291347969893753,-0.017912029470840956,-0.02036348986761918,0.019009291565681465,0.006701162770714842, ,0.018721944145629103, ,0.027857190123459358, ,6.489370743047305e-05, ,0.1482455802536137,-0.1977174070458959,0.09840267019000001,3.01534138730746,0.29472492999405503,-0.29570660408848215, ,0.030484080166550197,0.03840426611026741,0.01818357479452055,0.014722858443314767,0.025449624926211202,0.04974080263076687, ,1.5352880954742432
0.012848078734178026,0.020547033733214842,-0.08828289527056998, ,0.013279195679351024,0.020351033709509244,-0.08893892554102278, ,0.0008091066341702234, ,0.005435608972656851,0.00035291347969893753,-0.017912029470840956,-0.02036348986761918,0.019009291565681465,0.006701162770714842, ,0.018721944145629103, ,0.027857190123459358, ,6.583897744874814e-05, ,0.1482455802536137,-0.1977174070458959,0.09840267019000001,3.01534138730746,0.29472492999405503,-0.29570660408848215, ,0.030484080166550197,0.03840426611026741,0.01818357479452055,0.014722858443314767,0.025449624926211202,0.04974080263076687, ,1.5425851345062256
0.01296617137854262,0.020560010000255143,-0.08865261461270199, ,0.013321998408407622,0.020349534816697483,-0.0890552103564781, ,0.0005770580655209872, ,0.005699543705550988,0.0002515309750927225,-0.017045921529885995,0.018937877140881146,0.003154898467605409,-0.029430185335060463, ,0.017975302698033983, ,0.019198831626066785, ,6.642020429893917e-05, ,0.14893290347941968,-0.19694513375847345,0.09878118687000001,3.0159704571379136,0.29568138549241313,-0.2952613483122487, ,0.03404985344760344,0.04064108846187185,0.017446671982475355,0.04561742626916967,0.05835774572174658,0.02415929957950738, ,1.5500521659851074
0.01296617137854262,0.020560010000255143,-0.08865261461270199, ,0.013364801703442909,0.02034802900135945,-0.08917117893266466, ,0.0006875689301890166, ,0.005699543705550988,0.0002515309750927225,-0.017045921529885995,0.018937877140881146,0.003154898467605409,-0.029430185335060463, ,0.017975302698033983, ,0.019198831626066785, ,6.716457673383581e-05, ,0.14893290347941968,-0.19694513375847345,0.09878118687000001,3.0159704571379136,0.29568138549241313,-0.2952613483122487, ,0.03404985344760344,0.04064108846187185,0.017446671982475355,0.04561742626916967,0.05835774572174658,0.02415929957950738, ,1.5566380023956299
0.013022322555229046,0.020561723165991263,-0.0888159513707953, ,0.01340760528027718,0.02034651637706025,-0.08928683152260097, ,0.0006453563802946757, ,0.005942394252500854,0.0001339470501615014,-0.01604990015344335,0.009481856507194011,0.023686242695558336,-0.003657224356191712, ,0.017115177071824382, ,0.025513577381980675, ,6.783811641531255e-05, ,0.149288149191634,-0.196551274381888,0.09894840828000001,3.0159704571379136,0.2962279314914749,-0.29497191126576927, ,0.038560317577598854,0.03940902888640813,0.01648945291925466,0.03342958746414533,0.05538713172098202,0.05598720838486658, ,1.563385009765625
0.013082572007233525,0.020558998166295396,-0.08898136696071594, ,0.013450408855639754,0.02034499705720549,-0.08940216837975878, ,0.000598476612747403, ,0.00580090527036359,-0.00042127245919701146,-0.015910636810642427,-0.006724960909207011,-0.0061941824510029315,-0.014477932492624693, ,0.01694037591556869, ,0.009142864750609037, ,6.843473614869845e-05, ,0.14968200856821945,-0.19611880134093143,0.09911692598,3.0159704571379136,0.29663784099077123,-0.29448937757545296, ,0.037083603578925664,0.043134973435668536,0.01617138225380711,0.026163489063798458,0.03752662183305348,0.024242635075956136, ,1.5702672004699707
0.013082572007233525,0.020558998166295396,-0.08898136696071594, ,0.013493212147168296,0.020343471155040586,-0.08951718975806115, ,0.0007086489167852611, ,0.00580090527036359,-0.00042127245919701146,-0.015910636810642427,-0.006724960909207011,-0.0061941824510029315,-0.014477932492624693, ,0.01694037591556869, ,0.009142864750609037, ,6.919164548454682e-05, ,0.14968200856821945,-0.19611880134093143,0.09911692598,3.0159704571379136,0.29663784099077123,-0.29448937757545296, ,0.037083603578925664,0.043134973435668536,0.01617138225380711,0.026163489063798458,0.03752662183305348,0.024242635075956136, ,1.5773930549621582
0.013124556090603912,0.02055723393928352,-0.08909951168434553, ,0.013536014873407668,0.020341938783651283,-0.08963189591188211, ,0.0007064582788210372, ,0.005640373285924022,-0.00034006905033105717,-0.01581776284779219,-0.005019535288539293,0.00811645662970018,-0.0035780987930998363, ,0.01679675799886851, ,0.009543144792429467, ,6.993847683539621e-05, ,0.1499523042188173,-0.19580216929308822,0.09923748095000001,3.0159704571379136,0.2970477504900675,-0.2941702013654177, ,0.035528619078424105,0.042308043494636995,0.01608970860606061,0.022650977923277915,0.041816145905598096,0.039032932025645735, ,1.5893990993499756
0.013200218555813523,0.020551499341594847,-0.08930289941267362, ,0.01357881675380903,0.020340400055963683,-0.08974628709604573, ,0.0006200743033584932, ,0.005581523183942541,-0.0002766037423429426,-0.014656324907865568,0.026702149514690732,-0.03589700954305459,0.002109166333484615, ,0.01568559117432578, ,0.0447392378853373, ,7.065518929761666e-05, ,0.15044655912276766,-0.1952306870603956,0.09944488735000001,3.0161801470813985,0.29773093298889475,-0.29399218222263473, ,0.03761273942071771,0.041349429872972014,0.015041370651558077,0.0,0.06769551098514598,-0.007544940819064858, ,1.5938920974731445
0.013200218555813523,0.020551499341594847,-0.08930289941267362, ,0.013621617508728862,0.020338855084744055,-0.08986036356582525, ,0.0007304525580342822, ,0.005581523183942541,-0.0002766037423429426,-0.014656324907865568,0.026702149514690732,-0.03589700954305459,0.002109166333484615, ,0.01568559117432578, ,0.0447392378853373, ,7.153188896940096e-05, ,0.15044655912276766,-0.1952306870603956,0.09944488735000001,3.0161801470813985,0.29773093298889475,-0.29399218222263473, ,0.03761273942071771,0.041349429872972014,0.015041370651558077,0.0,0.06769551098514598,-0.007544940819064858, ,1.5983250141143799
0.013268803180844764,0.020544065487916718,-0.08948148955587669, ,0.013664416859428109,0.020337303982599184,-0.08997412557694275, ,0.0006647937665285491, ,0.005794738417605553,-0.0010106502162845806,-0.015352581085235559,-0.029984968238714174,-0.009515494910640437,-0.008693452183120856, ,0.01644086838238426, ,0.031458577697564036, ,7.230596907116616e-05, ,0.15088675489659847,-0.1947209866906968,0.09962636795000002,3.016809216911852,0.29814084248819106,-0.29367300601259955, ,0.03753834713547103,0.045910470033125685,0.01546486555339806,0.01700204839110178,0.018166472102393784,0.025769709939461784, ,1.6033570766448975
0.013268803180844764,0.020544065487916718,-0.08948148955587669, ,0.013707214528071079,0.020335746861976384,-0.09008757338556728, ,0.0007764913186268537, ,0.005794738417605553,-0.0010106502162845806,-0.015352581085235559,-0.029984968238714174,-0.009515494910640437,-0.008693452183120856, ,0.01644086838238426, ,0.031458577697564036, ,7.324070188253379e-05, ,0.15088675489659847,-0.1947209866906968,0.09962636795000002,3.016809216911852,0.29814084248819106,-0.29367300601259955, ,0.03753834713547103,0.045910470033125685,0.01546486555339806,0.01700204839110178,0.018166472102393784,0.025769709939461784, ,1.6078011989593506
0.013334366477227822,0.020535053175793405,-0.08965481398136399, ,0.013750010237724607,0.020334183835163153,-0.09020070724831558, ,0.0007149179579142092, ,0.0067429054337705425,-0.000598955999664039,-0.01822880370587386,-0.042315488488201373,0.014045174237731241,-0.045659718852802504, ,0.01944517437632243, ,0.044585484999141466, ,7.407910387980391e-05, ,0.1513037824718066,-0.19423445451962065,0.09980136710000001,3.0172285967988213,0.2982774789879565,-0.2931309939951714, ,0.04142162442534735,0.04640437240023021,0.018436124444444448,0.06314594258072682,0.0035307663294892088,0.049031325746060984, ,1.6122682094573975
0.013334366477227822,0.020535053175793405,-0.08965481398136399, ,0.013792803712357062,0.020332615014287878,-0.09031352742225002, ,0.0008276770535604992, ,0.0067429054337705425,-0.000598955999664039,-0.01822880370587386,-0.042315488488201373,0.014045174237731241,-0.045659718852802504, ,0.01944517437632243, ,0.044585484999141466, ,7.507839630009935e-05, ,0.1513037824718066,-0.19423445451962065,0.09980136710000001,3.0172285967988213,0.2982774789879565,-0.2931309939951714, ,0.04142162442534735,0.04640437240023021,0.018436124444444448,0.06314594258072682,0.0035307663294892088,0.049031325746060984, ,1.616791009902954
0.013402395900415018,0.020537924713450444,-0.08985452830315638, ,0.013835594676837301,0.02033104051131967,-0.09042603416487836, ,0.0007463787262292781, ,0.0067429054337705425,-0.000598955999664039,-0.01822880370587386,-0.042315488488201373,0.014045174237731241,-0.045659718852802504, ,0.01944517437632243, ,0.044585484999141466, ,7.595262200923289e-05, ,0.1517208100470147,-0.19377109054716718,0.10000618092,3.0172285967988213,0.2989606614867837,-0.29311633233266965, ,0.043490807313689636,0.04742475840003537,0.023051825643994214,0.03987085331198932,0.07487550222144722,0.010327162125356476, ,1.6214900016784668
0.013402395900415018,0.020537924713450444,-0.08985452830315638, ,0.013878382856933925,0.020329460438067826,-0.09053822773415296, ,0.000858758318056938, ,0.007449995475282264,0.0007389051112972039,-0.02241647406070655,0.0302605790856651,-0.017675204348469774,-0.028216186520057723, ,0.023633593096682462, ,0.035044398055869674, ,7.698603293618972e-05, ,0.1517208100470147,-0.19377109054716718,0.10000618092,3.0172285967988213,0.2989606614867837,-0.29311633233266965, ,0.043490807313689636,0.04742475840003537,0.023051825643994214,0.03987085331198932,0.07487550222144722,0.010327162125356476, ,1.6261401176452637
0.013402395900415018,0.020537924713450444,-0.08985452830315638, ,0.013921167979314137,0.02032787490618287,-0.09065010838846972, ,0.0009727245568636814, ,0.007449995475282264,0.0007389051112972039,-0.02241647406070655,0.0302605790856651,-0.017675204348469774,-0.028216186520057723, ,0.023633593096682462, ,0.035044398055869674, ,7.817954968690591e-05, ,0.1517208100470147,-0.19377109054716718,0.10000618092,3.0172285967988213,0.2989606614867837,-0.29311633233266965, ,0.043490807313689636,0.04742475840003537,0.023051825643994214,0.03987085331198932,0.07487550222144722,0.010327162125356476, ,1.6327509880065918
0.013402395900415018,0.020537924713450444,-0.08985452830315638, ,0.013963949771542816,0.020326284027155916,-0.09076167638666774, ,0.0010876820195682968, ,0.007449995475282264,0.0007389051112972039,-0.02241647406070655,0.0302605790856651,-0.017675204348469774,-0.028216186520057723, ,0.023633593096682462, ,0.035044398055869674, ,7.953321672207231e-05, ,0.1517208100470147,-0.19377109054716718,0.10000618092,3.0172285967988213,0.2989606614867837,-0.29311633233266965, ,0.043490807313689636,0.04742475840003537,0.023051825643994214,0.03987085331198932,0.07487550222144722,0.010327162125356476, ,1.6375620365142822
0.013562601839947184,0.020558712706940253,-0.09035089248614019, ,0.014006727962081715,0.020324687912319207,-0.09087293198802777, ,0.000724251930194681, ,0.0074295402696055775,0.0007931953348812356,-0.023264888606745915,-0.01188885922325327,0.005333018738679796,0.0223052773542517, ,0.024435266917741335, ,0.013029936564887752, ,8.035232613765279e-05, ,0.15263981525904743,-0.1928289171365118,0.10051562289,3.0174382867423053,0.30005375348490726,-0.29221074327914864, ,0.04215768172299901,0.04497485381918047,0.02380988269058296,0.0,0.042672068562034364,0.048416658447968206, ,1.6421771049499512
0.013562601839947184,0.020558712706940253,-0.09035089248614019, ,0.014049502280288277,0.0203230866728455,-0.0909838754522723, ,0.0008326218242161177, ,0.0074295402696055775,0.0007931953348812356,-0.023264888606745915,-0.01188885922325327,0.005333018738679796,0.0223052773542517, ,0.024435266917741335, ,0.013029936564887752, ,8.132330470982159e-05, ,0.15263981525904743,-0.1928289171365118,0.10051562289,3.0174382867423053,0.30005375348490726,-0.29221074327914864, ,0.04215768172299901,0.04497485381918047,0.02380988269058296,0.0,0.042672068562034364,0.048416658447968206, ,1.6468331813812256
0.013562601839947184,0.020558712706940253,-0.09035089248614019, ,0.01409227245641483,0.02032148041974887,-0.09109450703956419, ,0.000943288250801023, ,0.0074295402696055775,0.0007931953348812356,-0.023264888606745915,-0.01188885922325327,0.005333018738679796,-0.0006181596309672525, ,0.024435266917741335, ,0.013029936564887752, ,8.244814857348353e-05, ,0.15308001103287824,-0.19234238496543563,0.10074506622000001,3.0178576666292747,0.300600299483969,-0.29183962749252873, ,0.04839211706194329,0.05523686935883049,0.024244766392694066,0.01633021978334594,0.06702375615605777,0.027737729764914197, ,1.6516411304473877
0.013641232931350373,0.02056221595112522,-0.09058400370773312, ,0.014135038221607655,0.020319869263884422,-0.09120482701050599, ,0.0008294559390157381, ,0.008170641019156861,0.0001230914904306775,-0.02384358515851249,0.008122295938559355,-0.014191798027088455,-0.0006181596309672525, ,0.02520498124161536, ,0.01635148666160076, ,8.340297564513407e-05, ,0.15308001103287824,-0.19234238496543563,0.10074506622000001,3.0178576666292747,0.300600299483969,-0.29183962749252873, ,0.04839211706194329,0.05523686935883049,0.024244766392694066,0.01633021978334594,0.06702375615605777,0.027737729764914197, ,1.6561241149902344
0.013641232931350373,0.02056221595112522,-0.09058400370773312, ,0.014177799307905865,0.020318253315948186,-0.09131483562613926, ,0.0009389017716319514, ,0.008170641019156861,0.0001230914904306775,-0.02384358515851249,0.008122295938559355,-0.014191798027088455,-0.0006181596309672525, ,0.02520498124161536, ,0.01635148666160076, ,8.450913011553762e-05, ,0.15308001103287824,-0.19234238496543563,0.10074506622000001,3.0178576666292747,0.300600299483969,-0.29183962749252873, ,0.04839211706194329,0.05523686935883049,0.024244766392694066,0.01633021978334594,0.06702375615605777,0.027737729764914197, ,1.6605820655822754
0.013728424528407489,0.02056920249646687,-0.0908320933125864, ,0.014220555448240704,0.020316632686477428,-0.09142453314794347, ,0.0008105364332908737, ,0.008692442173214743,0.0008228745520557704,-0.024479510562594144,0.02541738717986986,0.01644963526102016,-0.08206764862685045, ,0.025990038684989707, ,0.030275820067679753, ,8.54255846484802e-05, ,0.1536051568683255,-0.1918017936642399,0.10100950938000001,3.0186964264032126,0.3012834819827962,-0.29141657212932404, ,0.05034320507080678,0.049684262596058,0.02524375835182251,0.10901776325392092,0.06782775032938147,0.04331427926535992, ,1.6650681495666504
0.013728424528407489,0.02056920249646687,-0.0908320933125864, ,0.014263306376434344,0.020315007485850894,-0.09153391983783582, ,0.0009182996059643869, ,0.008692442173214743,0.0008228745520557704,-0.024479510562594144,0.02541738717986986,0.01644963526102016,-0.08206764862685045, ,0.025990038684989707, ,0.030275820067679753, ,8.649032601125431e-05, ,0.1536051568683255,-0.1918017936642399,0.10100950938000001,3.0186964264032126,0.3012834819827962,-0.29141657212932404, ,0.05034320507080678,0.049684262596058,0.02524375835182251,0.10901776325392092,0.06782775032938147,0.04331427926535992, ,1.6718060970306396
0.013762198467496534,0.020571759210180215,-0.09092777351079988, ,0.014306051827199079,0.02031337782428819,-0.09164299595816969, ,0.0009349227597277158, ,0.008799190464677626,0.0006633764766405433,-0.02419370590963823,0.025956859328771245,-0.008351692119646453,-0.04089840336493426, ,0.0257526935838855, ,0.027267215081248238, ,8.757263014151738e-05, ,0.15380594792305533,-0.19160100260951007,0.10110802742000001,3.018906116346697,0.3015567549823271,-0.29131269297615464, ,0.05334285641285598,0.05112981765003813,0.024966789216300942,0.06048859555562422,0.07435506950781746,0.028083290293979952, ,1.676401138305664
0.013762198467496534,0.020571759210180215,-0.09092777351079988, ,0.014348791536136364,0.02031174381185073,-0.09175176177173441, ,0.001044344813604517, ,0.008799190464677626,0.0006633764766405433,-0.02419370590963823,0.025956859328771245,-0.008351692119646453,-0.04089840336493426, ,0.0257526935838855, ,0.027267215081248238, ,8.880379098191608e-05, ,0.15380594792305533,-0.19160100260951007,0.10110802742000001,3.018906116346697,0.3015567549823271,-0.29131269297615464, ,0.05334285641285598,0.05112981765003813,0.024966789216300942,0.06048859555562422,0.07435506950781746,0.028083290293979952, ,1.6809661388397217
0.013762198467496534,0.020571759210180215,-0.09092777351079988, ,0.014391525239735763,0.020310105558441004,-0.09186021754175415, ,0.0011549747575543637, ,0.008799190464677626,0.0006633764766405433,-0.02419370590963823,0.025956859328771245,-0.008351692119646453,-0.04089840336493426, ,0.0257526935838855, ,0.027267215081248238, ,9.031181215104261e-05, ,0.15380594792305533,-0.19160100260951007,0.10110802742000001,3.018906116346697,0.3015567549823271,-0.29131269297615464, ,0.05334285641285598,0.05112981765003813,0.024966789216300942,0.06048859555562422,0.07435506950781746,0.028083290293979952, ,1.6833701133728027
0.013929099039753009,0.02057291849395427,-0.09135793463373541, ,0.014434252675374116,0.020308463173803144,-0.09196836353188739, ,0.0008353084769332202, ,0.008511146672646299,-0.0007400366304124474,-0.02160063915021746,-0.012167956643867881,0.0012087200632161406,0.04156810747727574, ,0.023228751227639375, ,0.012227651881401324, ,9.136406732728863e-05, ,0.15488713052544675,-0.19058160187011244,0.10155135860000002,3.0191158062901815,0.30292311997998145,-0.29022154602932365, ,0.05601944602034875,0.0584340773143293,0.022092665076282943,-0.013391840733140587,0.06028786045504423,0.060129929464354505, ,1.6860060691833496
0.013929099039753009,0.02057291849395427,-0.09135793463373541, ,0.014476973581314556,0.02030681676752273,-0.09207620000622584, ,0.0009417440137425494, ,0.008511146672646299,-0.0007400366304124474,-0.02160063915021746,-0.012167956643867881,0.0012087200632161406,0.04156810747727574, ,0.023228751227639375, ,0.012227651881401324, ,9.256347486807177e-05, ,0.15488713052544675,-0.19058160187011244,0.10155135860000002,3.0191158062901815,0.30292311997998145,-0.29022154602932365, ,0.05601944602034875,0.0584340773143293,0.022092665076282943,-0.013391840733140587,0.06028786045504423,0.060129929464354505, ,1.68825101852417
0.013929099039753009,0.02057291849395427,-0.09135793463373541, ,0.014519687696705485,0.020305166449027065,-0.09218372722929376, ,0.0010499616803305808, ,0.008511146672646299,-0.0007400366304124474,-0.02160063915021746,-0.012167956643867881,0.0012087200632161406,0.04156810747727574, ,0.023228751227639375, ,0.012227651881401324, ,9.391192304477954e-05, ,0.15488713052544675,-0.19058160187011244,0.10155135860000002,3.0191158062901815,0.30292311997998145,-0.29022154602932365, ,0.05601944602034875,0.0584340773143293,0.022092665076282943,-0.013391840733140587,0.06028786045504423,0.060129929464354505, ,1.6905090808868408
0.013929099039753009,0.02057291849395427,-0.09135793463373541, ,0.014562394761579655,0.020303512327584875,-0.09229094546604706, ,0.0011593758523329096, ,0.008511146672646299,-0.0007400366304124474,-0.02160063915021746,-0.012167956643867881,0.0012087200632161406,0.04156810747727574, ,0.023228751227639375, ,0.012227651881401324, ,9.541046584265313e-05, ,0.15488713052544675,-0.19058160187011244,0.10155135860000002,3.0191158062901815,0.30292311997998145,-0.29022154602932365, ,0.05601944602034875,0.0584340773143293,0.022092665076282943,-0.013391840733140587,0.06028786045504423,0.060129929464354505, ,1.6928091049194336
0.013929099039753009,0.02057291849395427,-0.09135793463373541, ,0.014605094516853346,0.020301854512306792,-0.092397854981873, ,0.001269598321390391, ,0.008511146672646299,-0.0007400366304124474,-0.02160063915021746,-0.012167956643867881,0.0012087200632161406,0.04156810747727574, ,0.023228751227639375, ,0.012227651881401324, ,9.705960608920895e-05, ,0.15488713052544675,-0.19058160187011244,0.10155135860000002,3.0191158062901815,0.30292311997998145,-0.29022154602932365, ,0.05601944602034875,0.0584340773143293,0.022092665076282943,-0.013391840733140587,0.06028786045504423,0.060129929464354505, ,1.6951360702514648
0.014025301279348257,0.020571531582916417,-0.09161870839851233, ,0.014647786704325136,0.020300193112145155,-0.0925044560425886, ,0.0011160920925334954, ,0.009809160773530105,0.0003983042129311262,-0.028581117232564582,0.02586602881227794,0.01600652879412878,0.040130212886427485, ,0.03022016782859752, ,0.030417779974301763, ,0.0005401733202157713, ,0.15549722642251051,-0.18992516957580335,0.10181969063000001,3.018906116346697,0.304016211978105,-0.2897243506765055, ,0.058005465500287755,0.06459968792271667,0.029388951143911442,0.0,0.10536248114877718,0.070240127309767, ,1.698085069656372
0.014025301279348257,0.020571531582916417,-0.09161870839851233, ,0.014690471066675231,0.020298528235894207,-0.0926107489144406, ,0.0012252044966866446, ,0.009809160773530105,0.0003983042129311262,-0.028581117232564582,0.02586602881227794,0.01600652879412878,0.040130212886427485, ,0.03022016782859752, ,0.030417779974301763, ,0.0005454025658376863, ,0.15549722642251051,-0.18992516957580335,0.10181969063000001,3.018906116346697,0.304016211978105,-0.2897243506765055, ,0.058005465500287755,0.06459968792271667,0.029388951143911442,0.0,0.10536248114877718,0.070240127309767, ,1.7003190517425537
0.014025301279348257,0.020571531582916417,-0.09161870839851233, ,0.014733147347464367,0.020296859992189924,-0.09271673386410385, ,0.0013349720828493552, ,0.009809160773530105,0.0003983042129311262,-0.028581117232564582,0.02586602881227794,0.01600652879412878,0.040130212886427485, ,0.03022016782859752, ,0.030417779974301763, ,0.0005513841530877748, ,0.15549722642251051,-0.18992516957580335,0.10181969063000001,3.018906116346697,0.304016211978105,-0.2897243506765055, ,0.058005465500287755,0.06459968792271667,0.029388951143911442,0.0,0.10536248114877718,0.070240127309767, ,1.7026171684265137
0.014025301279348257,0.020571531582916417,-0.09161870839851233, ,0.014775815291132883,0.020295188489510452,-0.0928224111586817, ,0.0014451771939792016, ,0.009809160773530105,0.0003983042129311262,-0.028581117232564582,0.02586602881227794,0.01600652879412878,0.040130212886427485, ,0.03022016782859752, ,0.030417779974301763, ,0.0005581044015155298, ,0.15549722642251051,-0.18992516957580335,0.10181969063000001,3.018906116346697,0.304016211978105,-0.2897243506765055, ,0.058005465500287755,0.06459968792271667,0.029388951143911442,0.0,0.10536248114877718,0.070240127309767, ,1.7049431800842285
0.014025301279348257,0.020571531582916417,-0.09161870839851233, ,0.0148184746429997,0.020293513836175746,-0.09292778106570392, ,0.001555663556266908, ,0.009809160773530105,0.0003983042129311262,-0.028581117232564582,0.02586602881227794,0.01600652879412878,0.040130212886427485, ,0.03022016782859752, ,0.030417779974301763, ,0.0005655488728196446, ,0.15549722642251051,-0.18992516957580335,0.10181969063000001,3.018906116346697,0.304016211978105,-0.2897243506765055, ,0.058005465500287755,0.06459968792271667,0.029388951143911442,0.0,0.10536248114877718,0.070240127309767, ,1.707313060760498
0.014135321988975064,0.020583559274871453,-0.09193673693942167, ,0.014861125149261557,0.020291836140347876,-0.09303284385312656, ,0.001346604240662333, ,0.011900147139993485,0.0018111832498130531,-0.03532760565232083,0.020471594885944622,0.02979364353880969,-0.09616989881234518, ,0.03732202577358026, ,0.036148200039589844, ,0.0005713344681369979, ,0.15611504505244847,-0.18931507367873962,0.102147652,3.01995456606412,0.30483603097669765,-0.28900431951629446, ,0.06424979117025781,0.06114493657117962,0.03645036961098399,0.13466717097685318,0.07488903840219982,0.06843657289065835, ,1.7097020149230957
0.014135321988975064,0.020583559274871453,-0.09193673693942167, ,0.014903766556991846,0.020290155510031153,-0.09313759978933107, ,0.00145556326129423, ,0.011900147139993485,0.0018111832498130531,-0.03532760565232083,0.020471594885944622,0.02979364353880969,-0.09616989881234518, ,0.03732202577358026, ,0.036148200039589844, ,0.0005778361504396246, ,0.15611504505244847,-0.18931507367873962,0.102147652,3.01995456606412,0.30483603097669765,-0.28900431951629446, ,0.06424979117025781,0.06114493657117962,0.03645036961098399,0.13466717097685318,0.07488903840219982,0.06843657289065835, ,1.7120020389556885
0.014135321988975064,0.020583559274871453,-0.09193673693942167, ,0.014946398614139758,0.020288472053072108,-0.09324204914312388, ,0.0015648519768629002, ,0.011900147139993485,0.0018111832498130531,-0.03532760565232083,0.020471594885944622,0.02979364353880969,-0.09616989881234518, ,0.03732202577358026, ,0.036148200039589844, ,0.0005850406455230061, ,0.15611504505244847,-0.18931507367873962,0.102147652,3.01995456606412,0.30483603097669765,-0.28900431951629446, ,0.06424979117025781,0.06114493657117962,0.03645036961098399,0.13466717097685318,0.07488903840219982,0.06843657289065835, ,1.7143712043762207
0.014135321988975064,0.020583559274871453,-0.09193673693942167, ,0.014989021069529406,0.02028678587715918,-0.0933461921837346, ,0.0016743478298878794, ,0.011900147139993485,0.0018111832498130531,-0.03532760565232083,0.020471594885944622,0.02979364353880969,-0.09616989881234518, ,0.03732202577358026, ,0.036148200039589844, ,0.0005929341758444907, ,0.15611504505244847,-0.18931507367873962,0.102147652,3.01995456606412,0.30483603097669765,-0.28900431951629446, ,0.06424979117025781,0.06114493657117962,0.03645036961098399,0.13466717097685318,0.07488903840219982,0.06843657289065835, ,1.7166531085968018
0.014299425474514097,0.020608182003033007,-0.09244525943735578, ,0.015031633672858714,0.020285097089823564,-0.09345002918081624, ,0.0012845524295412105, ,0.014555324026464977,0.0027533748975415266,-0.04652341992864808,-0.018142476623753297,0.011581904603167052,-0.02004993183923871, ,0.048824861829800704, ,0.021519108290871062, ,0.0005979098467343953, ,0.15697999113436162,-0.18846557306257494,0.10267005687000001,3.0210030157815426,0.30551921347552485,-0.28792783423196533, ,0.0749580896986341,0.07167442715896584,0.04783426882882884,0.05658024566896083,0.06009662539999203,0.07879371144359806, ,1.7188751697540283
0.014299425474514097,0.020608182003033007,-0.09244525943735578, ,0.015074236174698549,0.020283405798438563,-0.09355356040444376, ,0.0013907344239067559, ,0.014555324026464977,0.0027533748975415266,-0.04652341992864808,-0.018142476623753297,0.011581904603167052,-0.02004993183923871, ,0.048824861829800704, ,0.021519108290871062, ,0.0006035728794284835, ,0.15697999113436162,-0.18846557306257494,0.10267005687000001,3.0210030157815426,0.30551921347552485,-0.28792783423196533, ,0.0749580896986341,0.07167442715896584,0.04783426882882884,0.05658024566896083,0.06009662539999203,0.07879371144359806, ,1.7211170196533203
0.014299425474514097,0.020608182003033007,-0.09244525943735578, ,0.015116828326491749,0.02028171211022019,-0.09365678612511436, ,0.0014975069043198692, ,0.014555324026464977,0.0027533748975415266,-0.04652341992864808,-0.018142476623753297,0.011581904603167052,-0.02004993183923871, ,0.048824861829800704, ,0.021519108290871062, ,0.0006099128370518267, ,0.15697999113436162,-0.18846557306257494,0.10267005687000001,3.0210030157815426,0.30551921347552485,-0.28792783423196533, ,0.0749580896986341,0.07167442715896584,0.04783426882882884,0.05658024566896083,0.06009662539999203,0.07879371144359806, ,1.7233691215515137
0.014299425474514097,0.020608182003033007,-0.09244525943735578, ,0.015159409880552293,0.02028001613222638,-0.0937597066137444, ,0.0016046923059911396, ,0.014555324026464977,0.0027533748975415266,-0.04652341992864808,-0.018142476623753297,0.011581904603167052,-0.02004993183923871, ,0.048824861829800704, ,0.021519108290871062, ,0.0006169183262697092, ,0.15697999113436162,-0.18846557306257494,0.10267005687000001,3.0210030157815426,0.30551921347552485,-0.28792783423196533, ,0.0749580896986341,0.07167442715896584,0.04783426882882884,0.05658024566896083,0.06009662539999203,0.07879371144359806, ,1.7256720066070557
0.01445112372630213,0.02064549572760328,-0.09294629596260359, ,0.015201980590064066,0.020278317971358206,-0.09386232214167137, ,0.0012400441505354093, ,0.014555324026464977,0.0027533748975415266,-0.04652341992864808,-0.018142476623753297,0.011581904603167052,-0.02004993183923871, ,0.048824861829800704, ,0.021519108290871062, ,0.0006212758495163224, ,0.15697999113436162,-0.18846557306257494,0.10267005687000001,3.0210030157815426,0.30551921347552485,-0.28792783423196533, ,0.0749580896986341,0.07167442715896584,0.04783426882882884,0.05658024566896083,0.06009662539999203,0.07879371144359806, ,1.728295087814331
0.01445112372630213,0.02064549572760328,-0.09294629596260359, ,0.015244540209080226,0.02027661773435916,-0.09396463298065105, ,0.0013426060372907491, ,0.01642287393793542,0.004158064329077189,-0.0542987626791731,0.03680343507934949,-0.018825302254146338,0.0035065931735554206, ,0.0568801891332582, ,0.04133295090198762, ,0.0006262850869314226, ,0.15775226442178406,-0.18773963617239783,0.10318727658000001,3.0210030157815426,0.3066123054736483,-0.28751231761928764, ,0.08223305161045995,0.07740370437069395,0.05608736450704226,0.029201899779569607,0.12091265054215221,0.04999290605180905, ,1.7307991981506348
0.01445112372630213,0.02064549572760328,-0.09294629596260359, ,0.015287088492522072,0.020274915527815345,-0.09406663940285806, ,0.00144614528971236, ,0.01642287393793542,0.004158064329077189,-0.0542987626791731,0.03680343507934949,-0.018825302254146338,0.0035065931735554206, ,0.0568801891332582, ,0.04133295090198762, ,0.0006319392952264636, ,0.15775226442178406,-0.18773963617239783,0.10318727658000001,3.0210030157815426,0.3066123054736483,-0.28751231761928764, ,0.08223305161045995,0.07740370437069395,0.05608736450704226,0.029201899779569607,0.12091265054215221,0.04999290605180905, ,1.7330291271209717
0.01445112372630213,0.02064549572760328,-0.09294629596260359, ,0.015329625196178039,0.020273211458155596,-0.09416834168088377, ,0.001550405155892885, ,0.01642287393793542,0.004158064329077189,-0.0542987626791731,0.03680343507934949,-0.018825302254146338,0.0035065931735554206, ,0.0568801891332582, ,0.04133295090198762, ,0.0006382301572858227, ,0.15775226442178406,-0.18773963617239783,0.10318727658000001,3.0210030157815426,0.3066123054736483,-0.28751231761928764, ,0.08223305161045995,0.07740370437069395,0.05608736450704226,0.029201899779569607,0.12091265054215221,0.04999290605180905, ,1.7352571487426758
0.01445112372630213,0.02064549572760328,-0.09294629596260359, ,0.015372150076703008,0.02027150563165156,-0.09426974008773652, ,0.001655192581650725, ,0.01642287393793542,0.004158064329077189,-0.0542987626791731,0.03680343507934949,-0.018825302254146338,0.0035065931735554206, ,0.0568801891332582, ,0.04133295090198762, ,0.0006451482690161962, ,0.15775226442178406,-0.18773963617239783,0.10318727658000001,3.0210030157815426,0.3066123054736483,-0.28751231761928764, ,0.08223305161045995,0.07740370437069395,0.05608736450704226,0.029201899779569607,0.12091265054215221,0.04999290605180905, ,1.7374730110168457
0.014619138974041978,0.020685210062779704,-0.09348976718781955, ,0.015414662891616998,0.020269798154417686,-0.0943708348968404, ,0.0012576588030631026, ,0.016968317064119873,0.0037426785529022025,-0.05391479941349116,0.009585677930816544,0.012777012840522087,0.05241050914391993, ,0.05664571495299395, ,0.015958750715845203, ,0.0006492868537057023, ,0.15860948777082298,-0.18695964015210115,0.10374857015000001,3.021212705725027,0.3077053974717719,-0.2866067285657667, ,0.08827622470555421,0.07901493884968425,0.055695145174825184,0.0,0.10910359568165683,0.10096671831180005, ,1.7399461269378662
0.014619138974041978,0.020685210062779704,-0.09348976718781955, ,0.015457163399304485,0.020268089132411612,-0.09447162638203516, ,0.0013565847873072336, ,0.016968317064119873,0.0037426785529022025,-0.05391479941349116,0.009585677930816544,0.012777012840522087,0.05241050914391993, ,0.05664571495299395, ,0.015958750715845203, ,0.0006540338197030279, ,0.15860948777082298,-0.18695964015210115,0.10374857015000001,3.021212705725027,0.3077053974717719,-0.2866067285657667, ,0.08827622470555421,0.07901493884968425,0.055695145174825184,0.0,0.10910359568165683,0.10096671831180005, ,1.7422242164611816
0.014619138974041978,0.020685210062779704,-0.09348976718781955, ,0.015499651359013376,0.020266378671433567,-0.09457211481757341, ,0.0014567766424880499, ,0.016968317064119873,0.0037426785529022025,-0.05391479941349116,0.009585677930816544,0.012777012840522087,0.05241050914391993, ,0.05664571495299395, ,0.015958750715845203, ,0.0006593854385215948, ,0.15860948777082298,-0.18695964015210115,0.10374857015000001,3.021212705725027,0.3077053974717719,-0.2866067285657667, ,0.08827622470555421,0.07901493884968425,0.055695145174825184,0.0,0.10910359568165683,0.10096671831180005, ,1.7463600635528564
0.014619138974041978,0.020685210062779704,-0.09348976718781955, ,0.01554212653085404,0.020264666877126972,-0.09467230047812278, ,0.0015579305452118907, ,0.016968317064119873,0.0037426785529022025,-0.05391479941349116,0.009585677930816544,0.012777012840522087,0.05241050914391993, ,0.05664571495299395, ,0.015958750715845203, ,0.0006653360683672259, ,0.15860948777082298,-0.18695964015210115,0.10374857015000001,3.021212705725027,0.3077053974717719,-0.2866067285657667, ,0.08827622470555421,0.07901493884968425,0.055695145174825184,0.0,0.10910359568165683,0.10096671831180005, ,1.7488341331481934
0.014619138974041978,0.020685210062779704,-0.09348976718781955, ,0.015584588675798303,0.020262953854978547,-0.09477218363876264, ,0.00165981486476578, ,0.016968317064119873,0.0037426785529022025,-0.05391479941349116,0.009585677930816544,0.012777012840522087,0.05241050914391993, ,0.05664571495299395, ,0.015958750715845203, ,0.0006718786920277427, ,0.15860948777082298,-0.18695964015210115,0.10374857015000001,3.021212705725027,0.3077053974717719,-0.2866067285657667, ,0.08827622470555421,0.07901493884968425,0.055695145174825184,0.0,0.10910359568165683,0.10096671831180005, ,1.7513680458068848
0.014769741044007412,0.020712520116094438,-0.09394861488750028, ,0.015627037555678645,0.020261239710317697,-0.09487176457498422, ,0.0013382139810446559, ,0.01728815048167552,0.0024111371750931143,-0.05030617982695032,0.03185439328671207,0.01312613239458917,0.023896497079205575, ,0.05324852540996452, ,0.03444815724074122, ,0.0006762338246356964, ,0.1594049292568681,-0.18622598052904982,0.10422301229000001,3.0218417755554805,0.3087984894698954,-0.2857828182523862, ,0.09604953599035504,0.08738208246636352,0.052054939607843145,0.032391346671244506,0.134974779105307,0.1000081157632629, ,1.7554981708526611
0.014769741044007412,0.020712520116094438,-0.09394861488750028, ,0.015669472933187024,0.020259524548317545,-0.09497104356269016, ,0.0014352988722502228, ,0.01728815048167552,0.0024111371750931143,-0.05030617982695032,0.03185439328671207,0.01312613239458917,0.023896497079205575, ,0.05324852540996452, ,0.03444815724074122, ,0.0006811628184513751, ,0.1594049292568681,-0.18622598052904982,0.10422301229000001,3.0218417755554805,0.3087984894698954,-0.2857828182523862, ,0.09604953599035504,0.08738208246636352,0.052054939607843145,0.032391346671244506,0.134974779105307,0.1000081157632629, ,1.7577860355377197
0.014769741044007412,0.020712520116094438,-0.09394861488750028, ,0.015711894571874222,0.020257808473994124,-0.09507002087819344, ,0.0015336125141299365, ,0.01728815048167552,0.0024111371750931143,-0.05030617982695032,0.03185439328671207,0.01312613239458917,0.023896497079205575, ,0.05324852540996452, ,0.03444815724074122, ,0.0006866624939073658, ,0.1594049292568681,-0.18622598052904982,0.10422301229000001,3.0218417755554805,0.3087984894698954,-0.2857828182523862, ,0.09604953599035504,0.08738208246636352,0.052054939607843145,0.032391346671244506,0.134974779105307,0.1000081157632629, ,1.7600500583648682
0.014769741044007412,0.020712520116094438,-0.09394861488750028, ,0.015754302236148612,0.020256091592207044,-0.09516869679821606, ,0.0016328770949904318, ,0.01728815048167552,0.0024111371750931143,-0.05030617982695032,0.03185439328671207,0.01312613239458917,0.023896497079205575, ,0.05324852540996452, ,0.03444815724074122, ,0.0006927279721194368, ,0.1594049292568681,-0.18622598052904982,0.10422301229000001,3.0218417755554805,0.3087984894698954,-0.2857828182523862, ,0.09604953599035504,0.08738208246636352,0.052054939607843145,0.032391346671244506,0.134974779105307,0.1000081157632629, ,1.762242078781128
0.015048132301798106,0.020722905712511154,-0.0946563898535547, ,0.01579669569127533,0.020254374007658962,-0.09526707159988881, ,0.001073685848757917, ,0.01597442516964078,-0.0012480643815343216,-0.035399076741878935,0.030445265331117098,0.00902813434568998,-0.037250845995243684, ,0.038856589639060475, ,0.031754776106619746, ,0.0006951544554101277, ,0.16105759409195214,-0.18472777035145027,0.10495671243000002,3.0241483649338106,0.31098467346614245,-0.28397164014534426, ,0.10405366398955129,0.09442481747111521,0.03670233069124424,0.09028970840382174,0.1298143679288212,0.09338820071607716, ,1.764470100402832
0.015048132301798106,0.020722905712511154,-0.0946563898535547, ,0.01583907470337543,0.0202526558248965,-0.09536514556075087, ,0.0011614902031001546, ,0.01597442516964078,-0.0012480643815343216,-0.035399076741878935,0.030445265331117098,0.00902813434568998,-0.037250845995243684, ,0.038856589639060475, ,0.031754776106619746, ,0.0006981059474841152, ,0.16105759409195214,-0.18472777035145027,0.10495671243000002,3.0241483649338106,0.31098467346614245,-0.28397164014534426, ,0.10405366398955129,0.09442481747111521,0.03670233069124424,0.09028970840382174,0.1298143679288212,0.09338820071607716, ,1.7667121887207031
0.015048132301798106,0.020722905712511154,-0.0946563898535547, ,0.01588143903942467,0.020250937148309316,-0.09546291895874802, ,0.001252055766366856, ,0.01597442516964078,-0.0012480643815343216,-0.035399076741878935,0.030445265331117098,0.00902813434568998,-0.037250845995243684, ,0.038856589639060475, ,0.031754776106619746, ,0.0007015899086091639, ,0.16105759409195214,-0.18472777035145027,0.10495671243000002,3.0241483649338106,0.31098467346614245,-0.28397164014534426, ,0.10405366398955129,0.09442481747111521,0.03670233069124424,0.09028970840382174,0.1298143679288212,0.09338820071607716, ,1.768923044204712
0.015048132301798106,0.020722905712511154,-0.0946563898535547, ,0.015923788467252783,0.020249218082130854,-0.09556039207223195, ,0.001344757860228923, ,0.01597442516964078,-0.0012480643815343216,-0.035399076741878935,0.030445265331117098,0.00902813434568998,-0.037250845995243684, ,0.038856589639060475, ,0.031754776106619746, ,0.0007056097083067874, ,0.16105759409195214,-0.18472777035145027,0.10495671243000002,3.0241483649338106,0.31098467346614245,-0.28397164014534426, ,0.10405366398955129,0.09442481747111521,0.03670233069124424,0.09028970840382174,0.1298143679288212,0.09338820071607716, ,1.7711780071258545
0.015208731679025447,0.020703392423419165,-0.09499019426951992, ,0.01596612275554246,0.020247498730438292,-0.09565756517996096, ,0.001107639036053825, ,0.016381783313775208,-0.002563451379596437,-0.0332753866399317,-0.015465642244908389,-0.023526703078277613,0.06982061449354188, ,0.037177754955779456, ,0.02815405924501331, ,0.0007081067848766447, ,0.16212333122859512,-0.1837933196736691,0.10529115525,3.0241483649338106,0.3122144019640314,-0.2830957902553791, ,0.11364903180655184,0.10010225902792276,0.03440348060475163,-0.024606105411265587,0.10814817528464604,0.09457510073077209, ,1.77384614944458
0.015208731679025447,0.020703392423419165,-0.09499019426951992, ,0.01600844167382835,0.020245779197152248,-0.09575443856109715, ,0.0011970861614146494, ,0.016381783313775208,-0.002563451379596437,-0.0332753866399317,-0.015465642244908389,-0.023526703078277613,0.06982061449354188, ,0.037177754955779456, ,0.02815405924501331, ,0.0007111251760898422, ,0.16212333122859512,-0.1837933196736691,0.10529115525,3.0241483649338106,0.3122144019640314,-0.2830957902553791, ,0.11364903180655184,0.10010225902792276,0.03440348060475163,-0.024606105411265587,0.10814817528464604,0.09457510073077209, ,1.7761361598968506
