NicholasDascanio/dvrk_moveit_final/test/execution/third_experiment_notsharpbends/thirdexp_500vel3.0/thirdexp_500vel3.0_18.csv
Current Position (x),Current Position (y),Current Position (z), ,Planned Position (x),Planned Position (y),Planned Position (z), ,Position Error,,Cartesian linear Velocity(x),Cartesian linear Velocity(y),Cartesian linear Velocity(z),Cartesian Angular Velocity(x),Cartesian Angular Velocity(y),Cartesian Angular Velocity(z), ,Total Linear Velocity, ,Total Angular Velocity, ,MSE, ,Joint 1 Position,Joint 2 Position,Joint 3 Position,Joint 4 Position,Joint 5 Position,Joint 6 Position, ,Joint 1 Velocity,Joint 2 Velocity,Joint 3 Velocity,Joint 4 Velocity,Joint 5 Velocity,Joint 6 Velocity, ,Time Stamp
0.009979213694706949,0.02063089495303786,-0.07733412176812653, ,0.010032873267406138,0.02052237423748181,-0.07739524798722806, ,0.00013561898874680375, ,-1.6659998041544023e-05,-3.837873157068049e-06,-3.1736629697872524e-06,0.0063464935805525955,-0.029162732775303013,-0.013821866125269856, ,1.7388414009327967e-05, ,0.029845317282477125, ,1.130158239556698e-05, ,0.13235219599845965,-0.23114139492553956,0.08740753841000001,3.0010824711505126,0.24881506607286705,-0.21400031129029984, ,-0.00019548831433565964,4.623547474070441e-05,0.0,-0.0007616569838914283,0.0,-0.03324958264876243, ,0.023477792739868164
0.009982356459842542,0.020628268691007298,-0.07735717627429176, ,0.010052057676960418,0.020520747397389544,-0.07749217328117576, ,0.00018612705369340792, ,0.0003945986072968612,-0.0001939986777638945,-0.0022104131918992565,-0.0121928012845063,-0.2643318768071778,-0.13739297252426666, ,0.002253723591476342, ,0.26461293524602253, ,1.4624820110918711e-05, ,0.13234447326558543,-0.23110278126116846,0.08742827905,3.0010824711505126,0.2482685200738053,-0.22123244124872699, ,0.00020285164114545458,0.0012345392200099664,0.00198194905937822,-0.0007369134179905406,-0.06902126614001901,-0.2899259745091487, ,0.04597878456115723
0.00999194078620614,0.020605229126197503,-0.07739773208861037, ,0.010071331655743327,0.020519119093213883,-0.0775890687553653, ,0.00022433806629994308, ,0.0003826371980901866,-0.0008505427665639653,-0.0017862248132277012,-0.11435690555470784,-0.003716414715346828,-0.011991687472469467, ,0.0020150516882965876, ,0.11441727835587871, ,1.7065128398129836e-05, ,0.13235219599845965,-0.231017831199552,0.08745679743000001,3.0010824711505126,0.24539915357873104,-0.22477353456122262, ,0.00010470523447563903,0.0052408847106672355,0.0018177349674768917,-0.0007179336396866199,-0.057219503187644,0.021681930196191024, ,0.07276296615600586
0.010001396832595372,0.02060753578308722,-0.0774583377706741, ,0.010090694917219228,0.020517489355089458,-0.07768593371139353, ,0.0002605425480504247, ,0.00040533766846470793,-0.0005793030001370895,-0.0024073958725855786,-0.040379632515994045,-0.053675710405312986,-0.030812780950230014, ,0.0025090726332225454, ,0.06716841973398575, ,1.920539659025189e-05, ,0.1323676414642081,-0.23088654474069017,0.08751642677,3.0010824711505126,0.2452625170789656,-0.22776590878286757, ,0.00042262469311831667,0.009292577760887395,0.0021280977314629256,-0.0006996714241444306,-0.04252582877382926,-0.053777715370797785, ,0.09531188011169434
0.01000950604208712,0.02061105501889804,-0.07751338762962101, ,0.010110147175321691,0.020515858213191497,-0.07778276745275348, ,0.00030291345071875895, ,0.0006171631219583968,0.0008012746344022244,-0.004644407793820766,-0.019045607067467992,0.23148221940280236,0.11805343451284017, ,0.004753257316214316, ,0.23226440331237702, ,2.1337309759794972e-05, ,0.13237536419708232,-0.23078614921332524,0.08757087095,3.0010824711505126,0.24512588057920015,-0.22357055387214303, ,0.0006370723704695809,0.007942426945855572,0.004815239274486094,-0.0006902424639751862,0.04007521433527942,0.25786922996092354, ,0.11829996109008789
0.01003242674721722,0.02062809455311975,-0.07768200851226888, ,0.010129688144453272,0.020514225697735335,-0.07787956928483414, ,0.0002479035184813823, ,0.0006386790061336882,-4.347282515006646e-05,-0.004145297470357389,-0.030151078463265705,0.07653730156894986,0.03741846385260645, ,0.0041944358234634865, ,0.08226205724834743, ,2.1894252032108397e-05, ,0.13239853239570498,-0.2303922898367398,0.08774198123,3.0010824711505126,0.24621897257732367,-0.2236451097003088, ,0.0011044625407199556,0.012276447808340333,0.004043871926884997,-0.0006660704348523394,-0.0006462248783227083,0.0885778312630793, ,0.14130687713623047
0.010044686404192413,0.020624396018950913,-0.07775571541998619, ,0.010149317539485194,0.020512591838976628,-0.0779763385149171, ,0.0002685561377985497, ,0.0005047486379756727,-0.0003705314779560004,-0.003365660532001501,-0.009892727379816621,-0.0304678682097876,-0.016081714820504682, ,0.0034234099346071864, ,0.032033686141755384, ,2.2583330052628756e-05, ,0.13241397786145345,-0.2302687261107522,0.08777957364000001,3.0010824711505126,0.24621897257732367,-0.2236451097003088, ,0.0007982977752649856,0.013263024676236308,0.0035100950903481716,-0.0006598134102816469,-0.002679864107791956,0.018495595909747378, ,0.16474485397338867
0.010055715041399939,0.02061758415851938,-0.0778385050446216, ,0.010169035075756814,0.0205109566672112,-0.07807307445217611, ,0.0002814847403497961, ,0.000535898533831256,-0.00037623251844057085,-0.0035903452771271047,-0.0176735100915647,0.0048847822436199895,-0.00022992949111724, ,0.0036495639952579995, ,0.018336140704292913, ,2.3262006148037397e-05, ,0.1324294233272019,-0.2298208076040472,0.08789235087000001,3.0010824711505126,0.24621897257732367,-0.22397182466087104, ,0.0006706527442256945,0.01447261576307317,0.003411610948811309,0.0007888331073210627,-0.002221423072017988,0.006456618438328009, ,0.19005680084228516
0.010069751423054895,0.020611686527776618,-0.07792200512727385, ,0.010188840469075535,0.02050932021277466,-0.0781697764076747, ,0.0002933456505910091, ,0.0006658152152443581,-0.00016770322997872178,-0.004406114584611254,-0.016798846203370573,0.003952385197280059,-0.0013926179233992673, ,0.004459291424309494, ,0.01725753692887613, ,2.392206689923995e-05, ,0.13246031425869878,-0.2295118982890782,0.08797272085,3.001292161093997,0.24621897257732367,-0.22397182466087104, ,0.0009197101537069047,0.014304633940076994,0.004264742040160643,0.0016091035333951717,-0.0018159872675808624,0.005403456507235853, ,0.21319985389709473
0.010089765580031633,0.020608022494387482,-0.07803412913701382, ,0.010208733435716377,0.020507682506042787,-0.07826644369436501, ,0.0002796274619999248, ,0.0007054527986505713,-0.00021679559994495189,-0.0037674559384750983,-0.013544718461702401,0.00041085187021977585,-0.002004923189283557, ,0.0038390608528168315, ,0.013550948184796754, ,2.4318211928725494e-05, ,0.13253754158744105,-0.22902536611800206,0.08811920162,3.001292161093997,0.24608233607755825,-0.2238604067571746, ,0.0020180701886048165,0.013648344823597119,0.0037719184276580634,0.0015538946129110458,0.0,0.0026413608785105405, ,0.23914694786071777
0.010115080424308816,0.020600299692252758,-0.07817335251556883, ,0.010228713692421629,0.020506043577431056,-0.07836307562708565, ,0.00024039882247404298, ,0.0006353794009509182,-0.00022441709639276332,-0.0030787751069610452,-0.011294362128049115,-0.001654219584707945,-0.0025824908662215804, ,0.0031516545139892954, ,0.01141486127981052, ,2.429336106432182e-05, ,0.13260704618330907,-0.22867784313866196,0.08821642337,3.001292161093997,0.24608233607755825,-0.22377872801703405, ,0.0027833794495425064,0.011415486774746875,0.002977347947663552,0.0015123019393796131,0.0,0.0008934353276845741, ,0.26784491539001465
0.010125188772960635,0.020594264924941576,-0.07822737071075608, ,0.010248780956400558,0.02050440345739464,-0.07845967152256071, ,0.00027805355297536824, ,0.0005467489170479581,-0.00027661843931489193,-0.0030608457321131743,-0.011797726329991789,-0.0006751851240426405,-0.0026752116972144323, ,0.0031215747204027576, ,0.01181703098246118, ,2.4581229444093537e-05, ,0.13264565984768018,-0.228438438419561,0.08826827497,3.001292161093997,0.24621897257732367,-0.22389014592073048, ,0.0016969789103735602,0.011942254734577294,0.0029361864552995397,0.0014842530650858996,0.0,0.0007790215383070586, ,0.29004383087158203
0.01013270362861761,0.020593297524911038,-0.07826986518420782, ,0.010268934945329083,0.020502762176428366,-0.07855623069939703, ,0.0003297890678409474, ,0.0006425746395331547,1.0917315219150089e-05,-0.00384695057610466,-0.010411506766807625,-0.001249333515154914,-0.0028316824001406392, ,0.003900262823212653, ,0.010486195999734358, ,2.5217417121366357e-05, ,0.13266882804630284,-0.22830715196069917,0.08830975625000001,3.001292161093997,0.24621897257732367,-0.22380846718058992, ,0.001581501310037963,0.010694594681971,0.0037754945532116626,0.0014676097583698013,0.0,0.0, ,0.3142068386077881
0.010152991129244778,0.02059669890931553,-0.078386240709716, ,0.010289175377349425,0.020501119765066498,-0.07865275247808362, ,0.00031418154771666544, ,0.0007722146304791911,0.00014855729076674782,-0.004503393802755825,-0.010685198175516272,-0.0013568613052552798,-0.002611945197290252, ,0.004571535895830376, ,0.010771004168577097, ,2.583603267898599e-05, ,0.13273060990929664,-0.22800596537860443,0.08842512606000001,3.001292161093997,0.24635560907708912,-0.22375652760400522, ,0.0021037015159412397,0.010871645228856166,0.004456858287632905,0.001430561688964998,0.0,0.0004810592025180586, ,0.334636926651001
0.010171155623137845,0.020603331633304092,-0.07848313124013627, ,0.010309501971069704,0.02049947625388281,-0.07874923618098913, ,0.0003173917002177661, ,0.0008908854809597903,0.0003850784724268371,-0.005055072179885349,-0.008659921932259902,-0.002205144579280751,-0.0009469276028261074, ,0.005147399063018366, ,0.008936269198464963, ,2.6401815386365273e-05, ,0.13279239177229044,-0.22779745159100037,0.08852234781000001,3.0015018510374816,0.24649224557685456,-0.22370458802742052, ,0.0027164576762839982,0.00968878457853572,0.005063195015893199,1.4193761214511517e-05,0.0010462433269586317,0.00041550136320043894, ,0.35675883293151855
0.010187397521522921,0.020609529423659782,-0.0785760477238615, ,0.010329914445563835,0.02049783167349033,-0.07884568113236108, ,0.0003247916809435023, ,0.0007016100943077627,6.585102512551193e-05,-0.004054504307688727,-0.0027357343257594707,-0.007724271166069907,0.0028717812002439017, ,0.004115288357212782, ,0.008194425315568184, ,2.6950087980492413e-05, ,0.13286189636815846,-0.22746537407740872,0.08865456939000001,3.001711540980966,0.24676551857638546,-0.22376406635453225, ,0.0021860972530406467,0.012206964440245792,0.003921420856720828,-0.005765877458055165,0.00836358200482002,-0.00220530539852586, ,0.37743091583251953
0.010206462784709032,0.020609032187052827,-0.07868171234067103, ,0.010350412520370942,0.020496186054541364,-0.07894208665832314, ,0.0003416419753905614, ,0.0008117292170060256,0.00016947346835398955,-0.004591842487087893,-0.004898013813843333,0.0008396735302499281,0.006845385443467084, ,0.004481857769073687, ,0.005077477349655207, ,2.7539916454100324e-05, ,0.1329005100325296,-0.22728002848842732,0.08871938389,3.001711540980966,0.24676551857638546,-0.22351903013411056, ,0.0027514120998165604,0.01166531004214998,0.004569366471600689,-0.005414197796252487,0.00836358200482002,0.004173728000109358, ,0.39964985847473145
0.010229342951714574,0.02061361702341728,-0.07881034377723427, ,0.010370995915495177,0.020494539427727238,-0.0790384520868741, ,0.0002937319132642746, ,0.0008501272919138696,2.1490536301080245e-05,-0.004827898294238467,-0.00655378750282924,0.0025192846091648853,0.006933494949369567, ,0.004902221965100929, ,0.007021319174575563, ,2.7799084053972478e-05, ,0.13297773736127183,-0.22693250550908722,0.08884771660000002,3.001711540980966,0.24717542807568177,-0.22360824762477813, ,0.0028306003179502763,0.014159495905471617,0.004766251202872532,-0.004903346244243883,0.009468676051602135,0.005868189547678327, ,0.41977596282958984
0.010245400075517538,0.020611362451902027,-0.07889794042251379, ,0.010391664351405334,0.0204928918237784,-0.07913477674788648, ,0.0003025226820339716, ,0.0009083936315349259,-4.6847488005121157e-05,-0.004975280292494306,-0.00727957168201444,-0.0031522641339044285,0.0038272381072127406, ,0.005057745314448705, ,0.00793277568036408, ,2.808043311605968e-05, ,0.1330317964913914,-0.22666220985848937,0.08893327174000001,3.001711540980966,0.24717542807568177,-0.22352656888463757, ,0.0032834840629699445,0.015273932328741475,0.004896652788195512,-0.0046099845402764955,0.008649612674302032,-8.978662009201561e-06, ,0.4423389434814453
0.010267801009630246,0.020608044020504868,-0.07900629531038379, ,0.010412417549034535,0.020491243273464056,-0.07923105997310365, ,0.0002916770672955509, ,0.0008611973076577495,-0.0004315718059448193,-0.004126224712139663,-0.017647133851503967,0.004479725918285193,0.006695999315887075, ,0.0042371742236395555, ,0.018206846961507695, ,2.828019295837257e-05, ,0.1331321920187563,-0.22630696414627502,0.08903956752000002,3.001711540980966,0.24731206457544722,-0.22355630804819343, ,0.003981712150655053,0.016724875142486918,0.003965350141896938,-0.00429079220766073,0.0015521286546893267,0.010461439611750067, ,0.4623298645019531
0.010277111925893064,0.020603859903036967,-0.07905853072894825, ,0.010433255229779987,0.02048959380759248,-0.07932730109614006, ,0.0003311721337873572, ,0.0006906078195287591,-0.0003567714738630539,-0.004104949375436606,-0.005198103068919078,-0.004745465667068851,0.0019926677729434667, ,0.004177898325696075, ,0.007038445762159665, ,2.8655930199362787e-05, ,0.13316308295025323,-0.22609845035867096,0.08909012283000001,3.001711540980966,0.24744870107521263,-0.2235860472117493, ,0.002040678623504772,0.016754403523741312,0.0039623909253731346,-0.004131626113761144,0.011466774027640075,-0.003788486862014926, ,0.4841787815093994
0.01030058586015046,0.020591568375935797,-0.07917339189330172, ,0.01045417711550247,0.020487943457010414,-0.07942349945247751, ,0.00031125903794069863, ,0.0009759113618774515,-0.0002320634192135686,-0.004864040459402282,-0.009151984336658738,-0.003146095539130665,0.0032154585330465128, ,0.004966401716281211, ,0.009677640813605962, ,2.890642628455731e-05, ,0.13326347847761813,-0.2256350863862175,0.08920030748,3.001711540980966,0.24744870107521263,-0.22325933225118705, ,0.0042588271808188536,0.017080083073878833,0.004753450170098478,-0.003821867646462419,0.008642648995891351,0.0009005571791381758, ,0.5046417713165283
0.010317671667892927,0.02059148279413406,-0.07927559763650868, ,0.010475182928526155,0.020486292252603292,-0.07951965437946476, ,0.0003089312885353854, ,0.0008122008083711501,-0.00012593174003757346,-0.005034894781639329,-0.0035635388376754973,-0.0007235537354957293,-0.0003818717123601937, ,0.005101538436437246, ,0.0036362529917749876, ,2.912612651867609e-05, ,0.1333175376077377,-0.22531073160550008,0.08930141810000002,3.0015018510374816,0.24785861057450898,-0.22351190722213576, ,0.0019000355105626315,0.01667784561660295,0.0049330478538247135,0.0,0.013129973461354558,-0.0006931269281745174, ,0.527155876159668
0.010336618306085378,0.0205874084706932,-0.07937269058405047, ,0.01049627239163822,0.020484640225295205,-0.07961576521631591, ,0.0003084412685534764, ,0.0009104734857876312,-0.00014092041337030034,-0.004735723647338947,-0.003961383564122527,0.002354555834253964,-0.00525989535169025, ,0.0048245102337120226, ,0.0046083066886628025, ,2.9326585955409387e-05, ,0.1333793194707315,-0.22499409955765687,0.08939604727000001,3.0019212309244505,0.24785861057450898,-0.22326687100171408, ,0.003404981050683916,0.015938350950364593,0.0046521061682242995,0.0065995859413963895,0.011838547326096344,0.003042377468533128, ,0.5468368530273438
0.010349886060380195,0.020585165308021736,-0.07943900671740757, ,0.010517445228088503,0.020482987406048325,-0.07971183130410771, ,0.00033607983194903265, ,0.0007772862008483422,-0.00023613096307893364,-0.004392352048269211,-0.014023469681435523,0.007771447203276159,-0.003762875427295744, ,0.004466843201377072, ,0.016032875347378298, ,2.9627171615202507e-05, ,0.13343337860085108,-0.2247855857700528,0.08946086177000001,3.0019212309244505,0.24785861057450898,-0.22310351352143296, ,0.003146252708170993,0.014501366375071939,0.004481939088351154,0.006518329885475742,0.010002839079886475,0.005620875700587268, ,0.569633960723877
0.010375343163058708,0.020580555419907602,-0.07957527696304029, ,0.01053870116158925,0.02048133382586376,-0.0798078519857789, ,0.00030103471828075426, ,0.000846935981941508,-0.00014470109441916445,-0.004344111748825274,-0.004961197739396105,0.0024255742793221433,-0.004396886815410606, ,0.004428266686923351, ,0.005522399120567622, ,2.9765284762768498e-05, ,0.13352605139534177,-0.22432994453047356,0.08959437964000001,3.0019212309244505,0.24813188357403987,-0.2230813131084041, ,0.003243223281888808,0.014610768523244153,0.00426360051391863,0.0057246236752935215,0.009674582147044053,0.003497534028846616, ,0.5897839069366455
0.010392248346775984,0.0205783047206995,-0.07966510403211259, ,0.010560039916314686,0.020479679515780082,-0.0799038266061283, ,0.0003080087810409669, ,0.0008656620319669196,-4.186074002941612e-05,-0.0044851586704607715,-0.009797854097911096,-0.0002307727168050274,-0.005761364519406585, ,0.004568125586534848, ,0.009800571368839823, ,2.9920793360350087e-05, ,0.13358783325833556,-0.22404420341412726,0.08968252736000001,3.0019212309244505,0.2482685200738053,-0.2230293735318194, ,0.0031390629478304953,0.013024559642941365,0.0044136357772236075,0.005317328291684541,0.002780337576929593,0.0015312329480227068, ,0.610867977142334
0.010411198076705964,0.020577432820086825,-0.07975266700412864, ,0.010581461216900763,0.020478024506874543,-0.0799997545118127, ,0.00031610723828824676, ,0.0009875352309925262,1.621703304076653e-05,-0.004747179675893979,-0.002099379682308611,-0.001561680746052954,-0.0047536329163249055, ,0.004848835293122769, ,0.002616531939837048, ,3.0209292952099883e-05, ,0.13368050605282628,-0.22376618503065518,0.08976937879,3.0019212309244505,0.24854179307333618,-0.22317053059907166, ,0.004338338024192197,0.013953380614390646,0.004712666130177515,0.004973263794946249,0.011369710246972713,0.0001471136949735127, ,0.6288838386535645
0.010434615070196078,0.020580688866659518,-0.07986612025926948, ,0.010602964788444814,0.020476368830262204,-0.08009563505134568, ,0.0003031523336709541, ,0.0011186500912797163,0.00025204160723182574,-0.0054916219421860275,-0.0014857933467562322,-0.003876496897650263,-0.005319834230266987, ,0.0056100636854134875, ,0.004151482274095492, ,3.0433665178574902e-05, ,0.13378090158019118,-0.22349588938005732,0.08988215602,3.0019212309244505,0.24854179307333618,-0.2228438156385094, ,0.004705853455977756,0.013101883412739304,0.005502180145077721,0.004666525160204102,0.010769456161221911,-0.001891175821054478, ,0.650432825088501
0.010455430987130258,0.020581585204736567,-0.07996134515061717, ,0.010624550356505153,0.020474712517095896,-0.08019146757509578, ,0.0003049253395656285, ,0.0010268720520018166,-8.193267757734737e-05,-0.004580338496013981,-0.010768798469900646,0.005762163813325912,-0.000898978463877202, ,0.004694750250322698, ,0.012213498691241156, ,3.0651594320904795e-05, ,0.1338812971075561,-0.2232333164623337,0.08997678519,3.0019212309244505,0.2486784295731016,-0.2227918760619247, ,0.004986184804169909,0.013894134928033791,0.004520094074914871,0.004403034232891359,0.004547578300170782,0.010387085261095805, ,0.6695148944854736
0.010466369208816634,0.020582269104366512,-0.08000772306154842, ,0.010646217647100843,0.02047305559856679,-0.08028725143528447, ,0.00034987020782834867, ,0.0010990482539458316,-1.3222228320170512e-05,-0.004562867061600142,-0.0005423092512428736,-0.004614134783430259,-0.004543197171775883, ,0.004693382331928504, ,0.004645894655049129, ,3.101248209077069e-05, ,0.13399713810066946,-0.2229552980788616,0.09007011807000001,3.0021309208679354,0.24895170257263252,-0.22285135438903644, ,0.00590449664942384,0.012860406770357878,0.004949910354257303,0.0,0.012357102157334997,0.005142123367465502, ,0.6871957778930664
0.01048927231639722,0.0205831025640609,-0.080105376320529, ,0.010667966386711289,0.020471398105903222,-0.0803829859859855, ,0.0003485349094317298, ,0.0012331648668172132,3.64675600712603e-05,-0.005424373003819742,-0.009722604264486193,-0.004632882031374786,-0.0006893825941155065, ,0.005562899240167692, ,0.010769987228600973, ,3.134951246897729e-05, ,0.13405891996366326,-0.22281628888712554,0.09012067338,3.0021309208679354,0.24908833907239794,-0.22279941481245175, ,0.006232708965991577,0.014811447098247353,0.005388637185385657,0.0,0.005270406409589806,0.0010042790852876765, ,0.7049398422241211
0.01051290481432513,0.0205846737566352,-0.08021515836360502, ,0.010689796302276022,0.020469740070371414,-0.08047867058312165, ,0.0003375485751447426, ,0.001163757396074782,5.862010230104058e-05,-0.005513954469981482,-0.01036049104705284,-0.00033588944398079334,0.0009220619179124748, ,0.005635730785829049, ,0.010365934176793965, ,3.163301729052279e-05, ,0.1341670382239024,-0.22253827050365346,0.09022956174,3.0021309208679354,0.24908833907239794,-0.22263605733217062, ,0.005218333964576651,0.014726403097217686,0.00547193800068705,0.0,0.005270406409589806,0.0047273379275703815, ,0.7228279113769531
0.01053921083880889,0.02058787441143342,-0.08033303116605206, ,0.010711707121194224,0.02046808152327508,-0.08057430458446488, ,0.00031987210869765555, ,0.0012720602831433922,0.00016013793654661573,-0.005475619048022459,-0.006215297248185378,-0.00026507580147517315,0.002115517522542246, ,0.005623716340796238, ,0.0062209468846430895, ,3.184578152738098e-05, ,0.13429832468276423,-0.2222293611886845,0.09034752413000001,3.0021309208679354,0.24936161207192883,-0.22261385691914176, ,0.006643055530756361,0.01380720814178245,0.005481352897453545,0.0,0.008808672479133703,0.005879300398680337, ,0.7411389350891113
0.010565005424534393,0.02058837858151374,-0.08044221178237983, ,0.010733698571324484,0.02046642249595525,-0.08066988734963278, ,0.00030849121300718685, ,0.0011857232481485643,-6.0844347023153705e-05,-0.005283379588678578,-0.005917257938832317,0.0028399073327685298,0.003272115211689757, ,0.0054151400290140305, ,0.006563460295956178, ,3.2012629231691977e-05, ,0.13443733387450027,-0.22191272914084129,0.09045641249000001,3.0021309208679354,0.2496348850714597,-0.22242829902583178, ,0.005934415868827913,0.01613893563919571,0.005238017599473858,0.0,0.01192292164220932,0.008118011023565453, ,0.7589190006256104
0.010581947165322875,0.02058729867476728,-0.08051625943070288, ,0.010755770380984405,0.020464763019790676,-0.08076541824008857, ,0.0003275814545085715, ,0.001051377956247827,-0.0001393362252462612,-0.004743387002028636,0.005421852256769275,-0.001379302671955294,-0.0025250456532970042, ,0.004860507220606091, ,0.005594546930164867, ,3.222923656701027e-05, ,0.13452228393611673,-0.22165787895599187,0.09053030102000001,3.00234061081142,0.250044794570756,-0.22268087399678047, ,0.0055805038323105665,0.01647516346501229,0.005013790217186026,0.003994398646342359,0.03303110440030969,-0.01105210429112657, ,0.7786059379577637
0.010600183225447132,0.02058453621183794,-0.08059950880902933, ,0.010777922278950445,0.02046310312619677,-0.08086089661913842, ,0.00033861593686980516, ,0.0012026743687571038,8.750806189957968e-05,-0.005792461948028362,0.006943512834003288,-0.0022969624718411096,-0.0027625687684136573, ,0.005916645900974575, ,0.007313576454238279, ,3.246823669817513e-05, ,0.1346072339977332,-0.22140302877114246,0.09061196729000001,3.00234061081142,0.250044794570756,-0.22243583777635878, ,0.005342535934275228,0.016897603553858755,0.005790189574700111,0.003966580080511999,0.023481534767195292,-0.00114002398225394, ,0.7971069812774658
0.01062288766826245,0.020578921542549228,-0.08070282567696081, ,0.010800153994457282,0.02046144284662637,-0.08095632185192995, ,0.00033088503308903835, ,0.001050729938506789,-0.0005789660176934882,-0.0044363005872659405,-0.02221651974149108,0.014881930695998033,0.003407365573291413, ,0.004595649894617133, ,0.026740336739581802, ,3.2673841147607605e-05, ,0.13471535225797235,-0.22104778305892814,0.09071307791000001,3.00234061081142,0.2501814310705215,-0.2221388619793524, ,0.005370155051487579,0.01859266096365023,0.00425676416889364,0.003693023886002703,0.0,0.022046988206869202, ,0.8219258785247803
0.010646297172812012,0.020570882876723942,-0.08079741745514929, ,0.010822465257197787,0.02045978221256952,-0.08105169330545102, ,0.00032868641526289933, ,0.0008790982098376498,-0.00023208408830954568,-0.003437534482674326,0.030977389019686673,-0.031147379126476436,-0.014393394767076503, ,0.0035557446486159943, ,0.043929009281401636, ,3.2863941955748956e-05, ,0.1348543614497084,-0.22063075548372002,0.09080641079000001,3.00234061081142,0.25086461356934864,-0.22236923653727225, ,0.005530501775241114,0.016078776949927275,0.0034418348141745897,0.003412880784179294,0.04037641201389851,-0.03610163320763027, ,0.8414778709411621
0.01066673862059925,0.020559775007057284,-0.08088247027812637, ,0.010844855797322582,0.020458121255552977,-0.08114701034852725, ,0.00033472475660831615, ,0.0010738315473512836,-0.0003672635097400382,-0.0047672098175133085,-0.017694049142339793,0.01146969239325006,0.0025656608192747934, ,0.004900437339857402, ,0.02108632770742988, ,3.306232101918079e-05, ,0.13496247970994754,-0.2202755097715057,0.09088807706,3.00234061081142,0.25086461356934864,-0.22212420031685057, ,0.005127786708150908,0.017163490967348663,0.0046358589988358566,0.0032065338461438305,0.0023732336134113306,0.01766115869706151, ,0.8594129085540771
0.01068200610733577,0.020556500216614527,-0.08095272556117555, ,0.010867325345439594,0.020456460007140298,-0.08124227235182098, ,0.0003580343663618, ,0.0010637509789387894,-0.0002180225618082991,-0.005061866968684034,-0.016922085185004827,0.015515381791672412,0.004559348495576319, ,0.005177025902128091, ,0.022958310822591924, ,3.331512047379796e-05, ,0.13503198430581556,-0.22005155051815317,0.09095678043000001,3.00234061081142,0.25086461356934864,-0.22187916409642888, ,0.004523736306610915,0.016224472825862674,0.004956070790292471,0.003078937681405953,0.002989873575272301,0.021498860954215576, ,0.880551815032959
0.010707568378974004,0.020555507454191213,-0.08107543211271095, ,0.01088987363261392,0.020454798498931753,-0.08133747868782953, ,0.00033473258984679567, ,0.001061503179495407,-8.553494227384051e-05,-0.00490647700886623,-0.0006838069612205498,-0.01759466337291096,-0.007042933480682709, ,0.005020719257732059, ,0.0176079461699199, ,3.3584422188732205e-05, ,0.1351401025660547,-0.2196731366073162,0.09107863169000001,3.002550300754904,0.251274523068645,-0.22205006032723704, ,0.00494995931085753,0.015108572131582676,0.0048563449756097565,-3.279492215941069e-05,0.01143361192573059,-0.0160814779735681, ,0.8961567878723145
0.010721596310723561,0.02055509410266048,-0.08114106900600503, ,0.010912500390367374,0.02045313676256443,-0.08143262873088336, ,0.00036310706409438447, ,0.0011055457603911336,6.576713054338122e-05,-0.005072436933886744,-0.004071509706001033,-0.0003669221799367906,0.0015278801611851803, ,0.005191933473383212, ,0.004088009272759807, ,3.39177974719959e-05, ,0.13520188442904849,-0.21949551375120901,0.09114344619,3.002550300754904,0.251274523068645,-0.22196838158709647, ,0.005186797009050547,0.013675881475496584,0.005056765561904762,-4.031848256209875e-06,0.010466673427029683,0.003860047737498918, ,0.9118077754974365
0.010747628499104784,0.02055616212331015,-0.08125729659729625, ,0.010935205350678129,0.020451474829711942,-0.08152772185714434, ,0.0003453611527821189, ,0.001296066327146047,0.0003208826458084681,-0.006147290546660147,-0.007924744479428638,0.005529419371767118,0.004360523354152351, ,0.0062906227562778, ,0.009663128110226044, ,3.419385008191444e-05, ,0.13532544815503608,-0.2192020499019885,0.091258816,3.002550300754904,0.251274523068645,-0.2217233453666748, ,0.005660902168594843,0.01319846196918926,0.006171565873692368,3.6068700844868306e-05,0.007553453541524339,0.011517041999459555, ,0.9284989833831787
0.010773791765674421,0.020565345057063,-0.0813851156008077, ,0.010957988245980549,0.020449812732084044,-0.08162275744460441, ,0.00032210201395723733, ,0.0013405200608500346,0.00040319089552412306,-0.006598493108848211,0.0005299327095516431,-0.005887346370600465,-0.0008748445716559809, ,0.006745344189831403, ,0.005911147389047186, ,3.4401752251220555e-05, ,0.13543356641527524,-0.21891630878564217,0.09138844500000001,3.002759990698389,0.25182106906770674,-0.2220873382413199, ,0.005533425567451002,0.014062972963614518,0.006645311439299125,0.00018398324641984186,0.014254689961294977,-0.0026293616288531867, ,0.9441568851470947
0.010773791765674421,0.020565345057063,-0.0813851156008077, ,0.0109808488091647,0.020448150501427387,-0.08171773487308333, ,0.00040895325334166263, ,0.0013405200608500346,0.00040319089552412306,-0.006598493108848211,0.0005299327095516431,-0.005887346370600465,-0.0008748445716559809, ,0.006745344189831403, ,0.005911147389047186, ,3.481691518352455e-05, ,0.13543356641527524,-0.21891630878564217,0.09138844500000001,3.002759990698389,0.25182106906770674,-0.2220873382413199, ,0.005533425567451002,0.014062972963614518,0.006645311439299125,0.00018398324641984186,0.014254689961294977,-0.0026293616288531867, ,0.960014820098877
0.010812705676039543,0.02057235985334606,-0.08156490931674394, ,0.011003786773576019,0.020446488169524168,-0.08181265352422766, ,0.00033724302656339453, ,0.0013883976735158288,5.969393298252109e-05,-0.005810488566420637,-0.006667316436869449,0.02208516852178279,0.013496486055666125, ,0.005974360957120354, ,0.023069628746075765, ,3.5043916689055437e-05, ,0.13561118927138238,-0.21849928121043405,0.09156862931000001,3.002759990698389,0.25209434206723763,-0.22141170790716655, ,0.007398483921758723,0.01611700773751202,0.005813434861313869,0.00018398324641984186,0.015637891864171256,0.030980554732253533, ,0.9756419658660889
0.010825891416333647,0.02057106373771537,-0.0816157465694758, ,0.011026801873015173,0.02044482576819329,-0.08190751278150848, ,0.0003760698858416299, ,0.001394846451819887,-0.00030352599169095095,-0.005164215438460748,-0.0229505909390057,0.01949491770125176,0.011015510793388663, ,0.005357876981288656, ,0.0301128118407289, ,3.535599895401544e-05, ,0.13568841660012462,-0.21833710382007535,0.09161918462000002,3.002759990698389,0.25223097856700305,-0.2214414470707224, ,0.008296079741285456,0.01703409469726634,0.005072869910828026,0.00018398324641984186,0.0,0.031456224503348694, ,0.9910569190979004
0.010844456856216152,0.020573666553738868,-0.08169202035784656, ,0.011049893841737456,0.02044316332928929,-0.08200231203022068, ,0.00039435563715578423, ,0.0014388411751454023,0.00012709306634599337,-0.00598712860829343,0.02969054958919548,-0.023500494945875094,-0.005861627741850009, ,0.006158906197292881, ,0.037865577902847676, ,3.5700749293164916e-05, ,0.13579653486036378,-0.21809769910097437,0.09169696202000001,3.002759990698389,0.25291416106583026,-0.22191685784906398, ,0.008116922219383912,0.018721037987467107,0.006065807890327494,0.00018398324641984186,0.044516410510700086,-0.02430565020590058, ,1.0076439380645752
0.010884887797121988,0.020569829214648765,-0.08185601973782301, ,0.011073062414452692,0.02044150088470303,-0.08209705065747966, ,0.0003316229049760389, ,0.0015141732404493399,-0.00020475275838190447,-0.0060512953935383485,-0.0011662172108288966,-0.018711226539461816,-0.006287133091953662, ,0.0062412194508778725, ,0.01874753458670679, ,3.588947368097989e-05, ,0.13601277138084206,-0.21762661239564668,0.09185899827,3.002759990698389,0.25291416106583026,-0.22118174918779893, ,0.008461450026067869,0.01972089392320673,0.0059995523615819215,0.00018398324641984186,0.015976120516318266,-0.014110014419241554, ,1.023190975189209
0.010899438965698149,0.020569366780420893,-0.08191424239868758, ,0.011096307326324719,0.020439838466360955,-0.0821917280522216, ,0.0003640508528711354, ,0.00149479043206555,-0.00027423156945924386,-0.006077778416187345,-0.013043150399784476,0.002877773557420496,0.00012018454652392352, ,0.00626490158468236, ,0.013356846360797337, ,3.614589308348961e-05, ,0.1360899987095843,-0.21744126680666528,0.09191733132,3.0029696806418733,0.25318743406536115,-0.22115954877477007, ,0.007981664099044916,0.019778437173503707,0.0059905270853704414,0.0030745149592152333,0.00832779001880412,0.010283800467547446, ,1.0399367809295654
0.010929795028407272,0.020565970601327956,-0.08203247556589391, ,0.011119628312971237,0.02043817610622526,-0.08228634360520017, ,0.00034178515223470335, ,0.0014374949200331947,-8.634065951192496e-05,-0.005097617237276603,0.027589584247589297,-0.03717597214897287,-0.015514727057937678, ,0.005297126376856205, ,0.04629511918910927, ,3.634447004243878e-05, ,0.13625989883281725,-0.2170628528958283,0.09202751597000002,3.0029696806418733,0.25373398006442294,-0.2215235416494152, ,0.009444347671840561,0.01823888940197401,0.00512015799421408,0.0030745149592152333,0.04163919100107819,-0.04101253008517202, ,1.0555989742279053
0.010944476254026907,0.02056059081394806,-0.08208305337016228, ,0.01114302511046333,0.02043651383629389,-0.08238089670898592, ,0.00037885010130342937, ,0.0014913018151751062,-0.00038526201617090786,-0.005304865803451563,0.00650177168576866,-0.014660403505865885,-0.006186582312566752, ,0.005523948688907097, ,0.016037470555155534, ,3.661856433980961e-05, ,0.13636029436018215,-0.21684661637535002,0.09208455273,3.0029696806418733,0.25373398006442294,-0.22144186290927464, ,0.009419438438840397,0.020760652277066454,0.005255299082810954,0.0030745149592152333,0.025192446628700797,-0.010543666136646429, ,1.071558952331543
0.010976470273525031,0.020552763105504163,-0.08220436992509908, ,0.011166497455325195,0.020434851688600247,-0.08247538675796338, ,0.00035137381199372257, ,0.001531644331418133,-0.0003061500172691521,-0.00636237528228156,-0.01804346364412573,-0.012754207740160273,-0.008423701961714354, ,0.00655129616363255, ,0.022096071708124113, ,3.682473323702232e-05, ,0.13654563994916355,-0.21642958880014188,0.09220381141,3.0029696806418733,0.25387061656418836,-0.22114488711226826, ,0.00776945867416244,0.019877867942704394,0.006246592752941177,0.0030745149592152333,0.0,-0.006397581919795927, ,1.091270923614502
0.011005752575325788,0.020551768377541118,-0.08232585087948277, ,0.011190045084533817,0.020433189695213416,-0.08256981314833142, ,0.00032793630703925966, ,0.0012193273395089358,-8.151459152867845e-05,-0.005096026144597915,0.040922656749679896,-0.028028507534541183,-0.01057150183450407, ,0.005240504389458282, ,0.04960101880636245, ,3.705382939894336e-05, ,0.13670009460664806,-0.21603572942355642,0.09232566267,3.0031793705853578,0.25455379906301556,-0.2217836553708909, ,0.0069064479945257036,0.019594660656302044,0.00515495518446602,0.0028383849873546934,0.054812326994471236,-0.03300301123014884, ,1.105672836303711
0.011018633441861818,0.020548667301230544,-0.08237953531482264, ,0.01121366773551868,0.02043152788823748,-0.08266417527809947, ,0.00036438980017670843, ,0.0013106856222288724,-0.00012097592185758869,-0.005218800068405262,0.03878127423421414,-0.03233674858989813,-0.012563023665109148, ,0.005382230590375477, ,0.05049408417551834, ,3.7354182091930776e-05, ,0.13676959920251608,-0.21583493836882658,0.09237881056000001,3.0031793705853578,0.25482707206254646,-0.22192481243814322, ,0.0077502243443237145,0.02011380702807774,0.005270950205162145,0.0028383849873546934,0.052439016981568325,-0.036568368430701284, ,1.118940830230713
0.011048708502812617,0.020541969081771954,-0.08249434030538655, ,0.011237365146161308,0.020429866299811975,-0.08275847254708706, ,0.0003434009375474924, ,0.001586704283765883,-8.082665053095288e-05,-0.006136096973957325,-0.01916928193530997,0.013961310092522267,0.005901184104860848, ,0.006338442198629352, ,0.023714542810607392, ,3.7603192206744775e-05, ,0.136939499325749,-0.21546424719086382,0.09249158779000001,3.0031793705853578,0.25482707206254646,-0.22118970377687816, ,0.008772362083355911,0.016831667534315496,0.006095986039035591,0.0028383849873546934,0.0019741090329651687,0.024774314653594413, ,1.1351737976074219
0.011065185076227588,0.020541672925068623,-0.08256328420404131, ,0.011261137054795001,0.020428204962111434,-0.08285270435692163, ,0.0003674726947888841, ,0.0016338429619410333,-0.00010209406561266727,-0.007243164642628563,-0.021702397440843093,0.005284308244614521,0.0004799668557775049, ,0.0074258534905249874, ,0.022336471260435056, ,3.789567373571058e-05, ,0.13702444938736547,-0.2152711788690082,0.09256029116,3.0031793705853578,0.2549637085623119,-0.22105608546015287, ,0.007474852815742771,0.019594660656302044,0.007159016413483147,0.0028383849873546934,0.0,0.013772155263963276, ,1.1483409404754639
0.011080722020298896,0.020542547427468767,-0.08263475178109757, ,0.01128498320020458,0.020426543907345718,-0.08294687011103724, ,0.0003906370414870198, ,0.0016334625588449796,7.424510072976754e-05,-0.0074205536421435014,-0.013318890147267337,-0.00751537165087854,-0.0052693775108224265, ,0.007598574117692079, ,0.01529292723143134, ,3.8228184935451434e-05, ,0.13709395398323349,-0.2150858332800268,0.09263158711000001,3.0031793705853578,0.25510034506207735,-0.2211675033638493, ,0.007230019057127358,0.018433749331482282,0.007381284300278036,0.0028383849873546934,0.004337872414523798,-0.0016724885952045876, ,1.1619207859039307
0.01111186475582801,0.02054630967745051,-0.08277447339538435, ,0.011308903321625988,0.02042488316775942,-0.08304096921467262, ,0.0003529711253992457, ,0.001681642819781688,0.00026816108846543533,-0.0074209151075788,0.003083336417695461,-0.013318216680093998,-0.007170005853961279, ,0.0076137910384105984, ,0.013670473162886167, ,3.8476881144277465e-05, ,0.13723296317496952,-0.21474603303356093,0.09277158643000001,3.0033890605288422,0.2553736180616082,-0.22139033917124215, ,0.007958243710699399,0.01763555873601018,0.007464297806935334,0.0037317177397057735,0.018578728304757236,-0.00980838411322019, ,1.177583932876587
0.011130850429369501,0.020546651227999545,-0.08285531625512357, ,0.011332897158745915,0.020423222775632126,-0.0831350010748695, ,0.000366443804834839, ,0.0015271820535642754,-3.846294145145451e-05,-0.006387784589729948,-0.0025508895593137856,-0.00704532699712939,-0.0046685994070698985, ,0.006567918725698826, ,0.00749290727321231, ,3.874642889371916e-05, ,0.13731791323658601,-0.21455296471170532,0.09284677125000002,3.0033890605288422,0.2553736180616082,-0.2213086604311016, ,0.007915317911261434,0.018068724592245004,0.006399683214142226,0.0037317177397057735,0.01503570078584239,-0.0025092556401015145, ,1.1909308433532715
0.011146120006462059,0.020543746245601253,-0.08291860921542907, ,0.011356964451701515,0.02042156276327796,-0.0832289651004714, ,0.00039459467662576026, ,0.0015429268731716906,-0.00014052693682858018,-0.0062589689916164384,-0.005288556053640664,-0.010013488094976115,-0.006289240506547976, ,0.006447872827060557, ,0.01132425535544655, ,3.906492811427603e-05, ,0.13740286329820248,-0.21435217365697548,0.09291417833000001,3.0033890605288422,0.2553736180616082,-0.22122698169096103, ,0.008093615710219723,0.018654794880768776,0.0062173347072599534,0.0037317177397057735,0.012015136222151819,-0.004906713353281689, ,1.2042229175567627
0.011164294560444866,0.02054327605759735,-0.08299108830021272, ,0.011381104941080121,0.02041990316304596,-0.08332286070212101, ,0.00041509100078078134, ,0.0016090554198980541,-9.273246923427328e-05,-0.006426629110395026,-0.007660690527780019,-0.0031676046982448505,-0.0028030197112215594, ,0.006625648675996212, ,0.008289745950515933, ,3.941580468145103e-05, ,0.13750325882556738,-0.2141359371364972,0.09298677057000002,3.0033890605288422,0.2556468910611391,-0.22128646001807273, ,0.008571981478945064,0.01841228978627683,0.006397113060240965,0.0037317177397057735,0.011017126649370908,0.0035441632439839697, ,1.2197809219360352
0.0111998857998408,0.020544359042062036,-0.08313382057356893, ,0.011405318367918811,0.02041824400731952,-0.08341668729225933, ,0.00037164650214674476, ,0.001790349994639196,0.00010056161184254569,-0.007758251239525721,-0.012061329439085678,0.0023946409939593913,-0.0033211397974680953, ,0.00796278393758636, ,0.012296745310072956, ,3.967521288501732e-05, ,0.13768088168167456,-0.21377296869140866,0.09312936247,3.0038084404158116,0.25578352756090456,-0.2211528417013475, ,0.008393434698410982,0.01918660363090796,0.007743710024307245,0.0062831606163786845,0.008119678649254974,0.009475719723659869, ,1.233123779296875
0.011216459566441224,0.020546295114001033,-0.08320859874113995, ,0.011429604473704153,0.020416585328516614,-0.08351044428512391, ,0.00039161985696018045, ,0.0016871476827688453,4.538610643912717e-05,-0.007038986620327772,0.001350936470261249,-0.0009910677425857728,-0.003646483336246083, ,0.007238498452253988, ,0.001675478241219216, ,3.996661436442923e-05, ,0.1377581090104168,-0.21357990036955304,0.09320454729000001,3.0038084404158116,0.2560568005604354,-0.2211306412883186, ,0.008520169463828366,0.019276242445352584,0.0070512667197875165,0.0062831606163786845,0.020823059448115917,0.003854070433754235, ,1.2462959289550781
0.011238513090756115,0.020548224146050256,-0.08329685358191909, ,0.011453963000371836,0.02041492715908952,-0.08360413109674675, ,0.00039825396596254595, ,0.001585827390431923,4.848927192792601e-05,-0.006155685867456219,0.034650200641139245,-0.023188800078491077,-0.011296703147910786, ,0.0063568599340033, ,0.04169360676066367, ,4.026390194374625e-05, ,0.1378816727364044,-0.21332505018470363,0.0932939913,3.0038084404158116,0.2566033465594972,-0.22116791920240148, ,0.009168344481920816,0.01995309957074659,0.00624904335817968,0.0062831606163786845,0.049876150672249486,-0.02497709826003326, ,1.262237787246704
0.011266444926174849,0.020541753329574163,-0.08338831123061229, ,0.011478393690306411,0.020413269531524787,-0.08369774714495304, ,0.00039646052774770243, ,0.0014533655580567075,-0.000432496455587635,-0.004920761619902518,-0.013270452521591111,0.02916447857530727,0.024678728738664703, ,0.005149098906541513, ,0.03204171839668178, ,4.0551243532030525e-05, ,0.13805929559251157,-0.21299297267111197,0.0933847316,3.0040181303592957,0.256876619559028,-0.2208190038288104, ,0.009451218211156676,0.018732124271312826,0.0048563449756097565,-0.006571821949197569,0.014837161766023694,0.043068211501999645, ,1.2756998538970947
0.011298785030815885,0.02053697042344237,-0.08349939289914252, ,0.01150289628634079,0.020411612478343215,-0.08379129184935948, ,0.00037759901505326875, ,0.0015568695912791248,0.00011680454788045051,-0.0060277693994232415,0.033783682284968475,-0.04181074572964088,-0.006712535696792898, ,0.006226675690870564, ,0.05375384301836248, ,4.0797650052876554e-05, ,0.13826780938011562,-0.2125913905616523,0.09349621254000001,3.0040181303592957,0.2575598020578552,-0.22088602090644913, ,0.009273583096235414,0.01829514971244858,0.006131182263279446,-0.006571821949197569,0.04566207467965956,-0.042230916769818064, ,1.2890229225158691
0.011298785030815885,0.02053697042344237,-0.08349939289914252, ,0.011527470531756151,0.020409956032099406,-0.08388476463137201, ,0.00046576934844414695, ,0.0015568695912791248,0.00011680454788045051,-0.0060277693994232415,0.033783682284968475,-0.04181074572964088,-0.006712535696792898, ,0.006226675690870564, ,0.05375384301836248, ,4.127361568593067e-05, ,0.13836820490748053,-0.21239832223979668,0.09356750849,3.0040181303592957,0.2576964385576207,-0.22099743881014558, ,0.009543305010082033,0.019028863356420848,0.007412197077710565,-0.006571821949197569,0.03142832507777987,-0.029747830964419804, ,1.3016488552093506
0.01134230159070899,0.020536521006124738,-0.08367605494327418, ,0.01155211617028136,0.02040830022538239,-0.0839781649141852, ,0.0003895294095946554, ,0.0019121744541845526,-7.853801072241987e-05,-0.007796836220217098,-0.02532540425317706,-0.0050115450493357465,-0.007748511549880443, ,0.00802827717553732, ,0.025816499676662653, ,4.160363610244419e-05, ,0.13849949136634235,-0.2121203038563246,0.09367250798000001,3.0038084404158116,0.2578330750573861,-0.22094549923356083, ,0.009427804404157428,0.019655538848067686,0.007728680989810773,0.00614724386551651,-0.005963373454625696,0.004444374051641954, ,1.3135359287261963
0.011360845968914122,0.02053400979858593,-0.08375116080658317, ,0.011576832946092875,0.020406645090814444,-0.08407149212277923, ,0.0004067976096690251, ,0.0019635636730076836,-0.00010347022510939991,-0.00775432286167751,-0.013574392148430717,-0.011291118655765504,-0.009397772320723715, ,0.007999738210002506, ,0.017656541412794786, ,4.1958599368795623e-05, ,0.13859216416083306,-0.21191951280159477,0.09374639651000001,3.0038084404158116,0.2576964385576207,-0.22075240258972387, ,0.010251078745780783,0.02099954449180588,0.007713710179176756,0.00614724386551651,0.005843320588206158,-0.0035316399390325232, ,1.3243889808654785
0.01138109355066421,0.020535026007504543,-0.08383130254125895, ,0.011601620603814256,0.020404990661052162,-0.08416474568391977, ,0.0004203875615257368, ,0.002211123182794899,0.00015761365475861454,-0.008477022849019723,-0.017404721328031898,-0.008106009087331266,-0.007276579118209437, ,0.008762067346035516, ,0.019199782916905377, ,4.23313331115952e-05, ,0.13870028242107219,-0.21171872174686493,0.09382676649,3.0038084404158116,0.2578330750573861,-0.22094549923356083, ,0.011886171108562878,0.01940632751706969,0.008495366144000002,0.00614724386551651,0.0015207392567861036,0.002587354542989495, ,1.3368117809295654
0.01139549476704582,0.020537823741115166,-0.08388488418071825, ,0.011626478888515819,0.02040333696878568,-0.08425792502615512, ,0.00045891156955030075, ,0.0023045366326372944,0.00028095259145521174,-0.0089765903558219,-0.008596752819533935,-0.012721663811926114,-0.010828828323976586, ,0.00927194682178707, ,0.01535398420276652, ,4.276511364491507e-05, ,0.13877750974981443,-0.21160288075375155,0.09388121067,3.0040181303592957,0.2579697115571516,-0.22105691713725725, ,0.012206185783363058,0.02003736097096089,0.009035060419739083,0.008196624250611422,0.009586747332763393,-0.003989934194401764, ,1.3506569862365723
0.011448992964739203,0.02054556386885649,-0.08410088946800152, ,0.011651407545714445,0.020401684046738193,-0.08435102957981444, ,0.0003524814056683748, ,0.0020492550424909065,0.00023704416563868772,-0.007976981307051515,0.0060968676652765385,0.0010960686358122745,-0.0024952554018686235, ,0.008239409380452404, ,0.0061946048689988055, ,4.300625423177385e-05, ,0.13905552813328653,-0.21111634858267542,0.09409898739000001,3.0040181303592957,0.25837962105644785,-0.22081941966736257, ,0.011051182053600674,0.019671836973149,0.008065221022784811,0.007796309543953647,0.02665792199502387,0.007859386698042614, ,1.3618998527526855
0.01146927385867219,0.020542836210348185,-0.08417952474541891, ,0.011676406321373104,0.020400031927667123,-0.08444405877700735, ,0.00036506872520805005, ,0.0019226920753694192,-0.0002004800789326927,-0.007444798085945756,-0.00922744695668613,0.02660337203908187,0.008988142381298726, ,0.0076916809358708324, ,0.028158216532982706, ,4.326493949737588e-05, ,0.13916364639352566,-0.21089238932932292,0.09417676479,3.0040181303592957,0.25837962105644785,-0.22049270470680032, ,0.010340304121403738,0.02253548837769432,0.007419101779226828,0.007262216694807848,0.01975223788118419,0.037118794793095294, ,1.373511791229248
0.01146927385867219,0.020542836210348185,-0.08417952474541891, ,0.011701474961900632,0.020398380644362963,-0.08453701205162105, ,0.00045009103188163726, ,0.0019226920753694192,-0.0002004800789326927,-0.007444798085945756,-0.00922744695668613,0.02660337203908187,0.008988142381298726, ,0.0076916809358708324, ,0.028158216532982706, ,4.366454006899085e-05, ,0.13916364639352566,-0.21089238932932292,0.09417676479,3.0040181303592957,0.25837962105644785,-0.22049270470680032, ,0.010340304121403738,0.02253548837769432,0.007419101779226828,0.007262216694807848,0.01975223788118419,0.037118794793095294, ,1.386887788772583
0.011508053374076737,0.02054444510471129,-0.08432380053388924, ,0.011726613214151367,0.020396730229649235,-0.08462988883931913, ,0.00040407689704929315, ,0.0018112863886557155,-8.673409290111669e-05,-0.006303007544979604,0.026722592030712897,-0.015467817844272164,-0.0035285432990567528, ,0.006558672525494062, ,0.03087637128542517, ,4.397937769052363e-05, ,0.1393876056468782,-0.21045991628836633,0.09432324556,3.00422782030278,0.25933607655480595,-0.22086423633197247, ,0.011352436131610954,0.02103212357235611,0.0063868530553328,0.0030273139552609188,0.045805218696696536,-0.012326931209285047, ,1.3988559246063232
0.011527929647850316,0.02053924699169142,-0.08439096687258309, ,0.011751820825424697,0.02039508071638287,-0.08472268857753966, ,0.00042538272634332395, ,0.001867176445518716,-0.0004563612256957036,-0.006486376905158903,0.00015472697702063084,0.008462053542800657,0.00024359189215711992, ,0.006765182835873483, ,0.008463467322369633, ,4.4324732039919775e-05, ,0.13950344663999154,-0.21023595703501383,0.09438935635000001,3.004437510246265,0.25933607655480595,-0.22045584263126966, ,0.011269617806578336,0.023653275562928906,0.006443693980582525,0.008121873847978526,0.026261175175670393,0.016451941897511486, ,1.410740852355957
0.011565281956635346,0.020533155578133015,-0.08451963278892409, ,0.011777097543464968,0.020393432137453912,-0.08481541070549374, ,0.0003897089409154823, ,0.002045413095389192,-0.00029372453515703325,-0.007227211455303618,-0.008879857289588473,-0.004081359561878208,0.013821534566356923, ,0.007516819423999398, ,0.009772888090999675, ,4.4604874174446245e-05, ,0.13972740589334406,-0.2098112067269315,0.09451768906,3.0046472001897495,0.2597459860541023,-0.220218345161375, ,0.012468393319993533,0.02259989082126001,0.007201090198915011,-0.01044238065599689,0.017128518451908156,0.009372202394305196, ,1.4255998134613037
0.011586563647058056,0.020534161995199775,-0.0846010771724814, ,0.011802443116460903,0.020391784525785314,-0.08490805466416425, ,0.00040138568672339704, ,0.00195713886904358,0.00019073169679656053,-0.007561982038966577,0.04583337997788794,-0.03723930756832039,0.0020500775305491497, ,0.007813471922937791, ,0.05905476038083667, ,4.489968626676223e-05, ,0.13985096961933163,-0.20955635654208207,0.09460065162,3.0046472001897495,0.2604291685529295,-0.22044871971929486, ,0.011535533926563393,0.022573011788408842,0.007724932841901067,-0.01044238065599689,0.06404968252467161,-0.03634658356506905, ,1.4372069835662842
0.011608408558558422,0.02053217685597835,-0.084681667852572, ,0.011827857293045444,0.020390137914332793,-0.08500061989630271, ,0.0004123872139285393, ,0.0019506170154271803,-0.00018918135449219001,-0.007576650929928546,-0.001940507113246357,-0.0003701495918275906,0.015449069106567723, ,0.007826003810358684, ,0.0019754881950389148, ,4.5207700664458496e-05, ,0.13997453334531923,-0.20932467455585532,0.09468102160000001,3.0046472001897495,0.26056580505269494,-0.220233422662429, ,0.01085882347994735,0.02289984110966959,0.007567131363420429,-0.010326935992131825,0.024759503567135258,0.010567106520160269, ,1.4484689235687256
0.011622847592967849,0.02052961981881178,-0.0847368033025671, ,0.011853339822295358,0.020388492336085022,-0.08509310584642939, ,0.000447208158382533, ,0.002101996095838576,-0.00026396863714836126,-0.00786763506451071,-0.016802961019382112,0.029608103647242853,0.029021150691671056, ,0.008147867729451494, ,0.034043784608344466, ,4.5567326119841004e-05, ,0.14005176067406147,-0.20916249716549662,0.09473546578000001,3.0046472001897495,0.26056580505269494,-0.21990670770186677, ,0.012003154763277358,0.023712379200017685,0.007835126178061978,-0.009713948166629158,0.017459052594016058,0.04677708667070617, ,1.459385871887207
0.01164928348049,0.02052707735987721,-0.08483541817648105, ,0.011878890453730896,0.02038684782406325,-0.08518551196083067, ,0.000441530681511131, ,0.0020545053806524773,-0.0003461553984294291,-0.0072390763163445,-0.013325908387414648,-0.004162991667212469,-0.003563880353968362, ,0.0075329304943595275, ,0.013961028403777288, ,4.598616517805064e-05, ,0.14020621533154598,-0.2088690333162761,0.09483398382000001,3.004437510246265,0.2608390780522258,-0.21980282854869737, ,0.01194573785982764,0.02236552947406806,0.007188091841155235,0.0048494254458409745,0.009584616988496596,0.006224572155785516, ,1.4693739414215088
0.011667199183964175,0.020525941321663,-0.08489958390343508, ,0.01190450893731544,0.020385204411321328,-0.08527783768755731, ,0.0004681866317730015, ,0.0019337713444251942,-7.935168680125787e-05,-0.006940247607862079,0.03761270224361703,-0.03910026537253963,-0.01631322847493523, ,0.007205054140057071, ,0.054254457016619385, ,4.644241232261052e-05, ,0.1403143335917851,-0.20866051952867204,0.09489879832,3.004437510246265,0.26124898755152215,-0.21989204603936496, ,0.011629527151773381,0.022933045325875007,0.00703880314626602,0.0048494254458409745,0.05306987694748885,-0.04029972675189311, ,1.4787888526916504
0.011690826084324528,0.020525799083688637,-0.08498991785972697, ,0.01193019502345525,0.020383562130945544,-0.08537008247642314, ,0.00047122603443989884, ,0.0022566068227500096,0.00015433332513524554,-0.009168118809551071,0.004767974825830502,-0.00402313739679728,-0.00850336527844517, ,0.00944301305907036, ,0.006238521754325749, ,4.68976856641567e-05, ,0.1404378973177727,-0.20841339207669685,0.09498953862000001,3.0046472001897495,0.261522260551053,-0.2198698456263361, ,0.011171246174414978,0.023027649007151364,0.009228743638470453,0.010754762095993292,0.027007769213229758,0.0014903129347864537, ,1.4874918460845947
0.011714412444801082,0.020525674297986376,-0.08508219133718817, ,0.011955948462999074,0.020381921016054603,-0.08546224577900316, ,0.00047270078580049113, ,0.0024661365589614902,0.00011073263304647429,-0.009798099778291922,-0.012176273778738892,0.021843590706787833,0.0021293483514463977, ,0.01010429861538306, ,0.025008078850563345, ,4.7349524084353e-05, ,0.14055373831088608,-0.20818943282334434,0.09508157521,3.004856890133234,0.261522260551053,-0.21954313066577386, ,0.012357981710961164,0.023988104539552774,0.009832599703703704,0.011972943557760381,0.01678487849034594,0.03340024802654713, ,1.4967989921569824
0.011714412444801082,0.020525674297986376,-0.08508219133718817, ,0.011981769007237787,0.020380281099799478,-0.08555432704863197, ,0.0005617213219894134, ,0.0024661365589614902,0.00011073263304647429,-0.009798099778291922,-0.012176273778738892,0.021843590706787833,0.0021293483514463977, ,0.01010429861538306, ,0.025008078850563345, ,4.7935859872781344e-05, ,0.14055373831088608,-0.20818943282334434,0.09508157521,3.004856890133234,0.261522260551053,-0.21954313066577386, ,0.012357981710961164,0.023988104539552774,0.009832599703703704,0.011972943557760381,0.01678487849034594,0.03340024802654713, ,1.5068418979644775
0.011765637488651741,0.020535951884894838,-0.08530051629393585, ,0.012007656407904166,0.020378642415363586,-0.08564632574040242, ,0.00045044822093757286, ,0.002640707275740645,0.0008773089107139359,-0.011283407357346169,0.03805884833125915,-0.020826095918992128,-0.01378940663666929, ,0.011621458059674841, ,0.0433843523016543, ,4.834071868568658e-05, ,0.14080086576286127,-0.20768745518651974,0.09530324080000001,3.004856890133234,0.2624787160494111,-0.219914662290946, ,0.012445500532258465,0.02276798022036247,0.011550987324147935,0.01148968225085382,0.05631712520116599,-0.020688757940455816, ,1.518394947052002
0.011789481877215586,0.02053995230349448,-0.08539517234528696, ,0.012033610417172425,0.02037700499596194,-0.08573824131116298, ,0.00045149405799058356, ,0.0023387445191907818,-0.0001581854709121421,-0.008819079366266993,-0.04354896544135525,0.03637646929749895,0.007916932612755747, ,0.009125289553639865, ,0.05674292780793453, ,4.8742166871142e-05, ,0.14092442948884884,-0.20747894139891568,0.09539916626000002,3.004856890133234,0.262751989048942,-0.21964742565749548, ,0.012020724621725869,0.021523461455765655,0.008747288039538717,0.010449634475949467,-0.01344316408371397,0.054424842724651375, ,1.5271198749542236
0.01181508159742124,0.02053315515273682,-0.08548904545750255, ,0.012059630787657968,0.02037536887484167,-0.08583007321951697, ,0.0004483310723137616, ,0.0025639749892058215,-0.0005540781358518918,-0.009502619947084096,-0.031139968323860654,0.03022418711273653,0.007591292927838989, ,0.009858030035692864, ,0.04339584123337054, ,4.913376255093983e-05, ,0.1410634386805849,-0.20719320028256938,0.09549120285000001,3.004856890133234,0.26261535254917656,-0.21904593531295571, ,0.013755173439407273,0.029370764951553937,0.009386453459045376,0.009535248167123717,0.0058112597551735964,0.04671614632215689, ,1.5358049869537354
0.011840634570273132,0.020532997361944937,-0.08558713850564723, ,0.01208571727241699,0.020373734085282175,-0.08592182092582071, ,0.0004443451862647704, ,0.002683908019173287,0.00010587085901829323,-0.010480378648766884,-0.004405549737554244,-0.0032737826265343785,7.193319485667392e-05, ,0.010819099200751452, ,0.005488751655499782, ,4.9514423282216346e-05, ,0.1411947251394467,-0.20693062736484574,0.09558972089000001,3.0050665800767185,0.26288862554870746,-0.21877869867950517, ,0.01390431378146092,0.02596359550163359,0.010534928253968255,0.00352770180543124,0.022846209362411954,0.0077732278577883965, ,1.5451219081878662
0.011868068226470546,0.020537942818371586,-0.08569224356085693, ,0.012111869624946306,0.02037210066059426,-0.08601348389218179, ,0.00043604826987924067, ,0.0025957520090844925,0.00043920244370086346,-0.009921462381572377,0.04230422809764533,-0.02356667877221219,-0.015942262529371237, ,0.010264806041429854, ,0.04842557141795978, ,4.987776767420165e-05, ,0.14134145706405699,-0.2066680544471221,0.09569731296,3.005276270020203,0.26357180804753466,-0.2192541094578467, ,0.014044241757950389,0.024790214618200305,0.010145739821656051,0.013279191845272298,0.0619561938821645,-0.023210440712616246, ,1.5548408031463623
0.011895684790567554,0.020539575610804894,-0.0858020076843819, ,0.012138087599182782,0.020370468634120488,-0.08610506158245693, ,0.0004233177959008583, ,0.002859856031116418,0.00018628483430318393,-0.01121338199241263,-0.0035662855874955867,0.004096611014704666,-0.006482242915031387, ,0.011573824530636713, ,0.005431430512107274, ,5.021738334218959e-05, ,0.14148046625579302,-0.2064132042622727,0.09580749761000001,3.005276270020203,0.2637084445473001,-0.21903881240098086, ,0.014408888788106708,0.02688298627718719,0.011289023047484055,0.013279191845272298,0.024526783388309204,0.01418477553995678, ,1.5650978088378906
0.011924528171570963,0.02053697073310784,-0.08591425331749344, ,0.012164370949503166,0.020368838039234966,-0.08619655346225097, ,0.00040680035964254645, ,0.0027578037198732665,-0.00026469163872678246,-0.010319504137678175,-0.015456596389315807,0.0049358472437493126,-0.0065494359500263746, ,0.010684929043681837, ,0.01622556140559278, ,5.05279879067051e-05, ,0.14161947544752906,-0.20614290861167484,0.09591249710000001,3.005276270020203,0.2637084445473001,-0.2187120974404186, ,0.014400142876854443,0.02895848079294195,0.010397396553524807,0.012690790413981747,0.015299837145079521,0.017359694645127884, ,1.5739259719848633
0.01195175061986977,0.020535187654649723,-0.08601246635372169, ,0.01219071943072372,0.020367208909343574,-0.08628795899891502, ,0.00040152104426941003, ,0.002655089857976989,-0.00030340522413928143,-0.009447659021645136,-0.01980558895908153,0.015953951276701215,-5.559520536921976e-06, ,0.009818340892087624, ,0.02543206322903429, ,5.0826952063590546e-05, ,0.14177393010501355,-0.20585716749532854,0.09601101514,3.005276270020203,0.2639817175468309,-0.21868989702738972, ,0.014902157908051317,0.026867763748151408,0.009386453459045376,0.011546499863115482,0.011233125258976746,0.032482084097550615, ,1.5826959609985352
0.01195175061986977,0.020535187654649723,-0.08601246635372169, ,0.012217132798099868,0.02036558127788329,-0.0863792776615448, ,0.0004834713632769658, ,0.002655089857976989,-0.00030340522413928143,-0.009447659021645136,-0.01980558895908153,0.015953951276701215,-5.559520536921976e-06, ,0.009818340892087624, ,0.02543206322903429, ,5.1320967745808744e-05, ,0.14177393010501355,-0.20585716749532854,0.09601101514,3.005276270020203,0.2639817175468309,-0.21868989702738972, ,0.014902157908051317,0.026867763748151408,0.009386453459045376,0.011546499863115482,0.011233125258976746,0.032482084097550615, ,1.589533805847168
0.01196509393428817,0.020536064675402557,-0.08606192139703435, ,0.012243610807325883,0.020363955178322384,-0.08647050892097842, ,0.0005235810274204383, ,0.0025101368860572853,9.548078546408809e-06,-0.009241043971449358,0.04011407270301667,-0.03140638067539766,-0.017682517793396656, ,0.00957589536465441, ,0.05094604507279628, ,5.187017743998855e-05, ,0.14185888016663,-0.2056949901049698,0.0960680519,3.005276270020203,0.2643916270461273,-0.21894247199833844, ,0.01410687402385473,0.02765062399722342,0.009380925512367492,0.010956361049447642,0.06131529152010258,-0.03137206538492096, ,1.5981309413909912
0.01200996150894125,0.020529277488238462,-0.08620963193608111, ,0.012270153214534495,0.020362330644160397,-0.08656165224979553, ,0.0004684968235481959, ,0.0028525267693493357,-0.00016119763422938957,-0.009247046644301812,-0.009839119566737144,0.012621750556262308,0.010301878095440514, ,0.009678365837734649, ,0.01600364937576387, ,5.233302698322557e-05, ,0.14212917581722787,-0.20523162613251633,0.09621582896000001,3.005485959963688,0.2648015365454236,-0.21870497452844379, ,0.01761264691137171,0.025647822042829938,0.009309650216247809,0.002761117941882697,0.02154346899421032,0.030368627607081297, ,1.6049089431762695
0.01200996150894125,0.020529277488238462,-0.08620963193608111, ,0.01229675977629668,0.020360707708928068,-0.08665270712231507, ,0.0005540619435686686, ,0.0028525267693493357,-0.00016119763422938957,-0.009247046644301812,-0.009839119566737144,0.012621750556262308,0.010301878095440514, ,0.009678365837734649, ,0.01600364937576387, ,5.291780292228153e-05, ,0.14212917581722787,-0.20523162613251633,0.09621582896000001,3.005485959963688,0.2648015365454236,-0.21870497452844379, ,0.01761264691137171,0.025647822042829938,0.009309650216247809,0.002761117941882697,0.02154346899421032,0.030368627607081297, ,1.6117589473724365
0.01204016980041996,0.02052464019449182,-0.0863127167392527, ,0.012323430249621237,0.020359086406187006,-0.08674367301459424, ,0.0005416344248291787, ,0.003174299417392239,-0.00031504562990718275,-0.011553230278913206,-0.029133155600428663,0.038806788246252624,0.019168686181099577, ,0.011985514607966452, ,0.048525327030265984, ,5.3479212036742426e-05, ,0.14229907594046082,-0.2049381622832958,0.09631823587,3.005695649907172,0.2648015365454236,-0.21821490208760042, ,0.017316960138407077,0.031812585168780015,0.011525912821997107,0.0046158538372594775,0.013721539011874248,0.06043700185418679, ,1.6189119815826416
0.01207415153987651,0.020527777633501887,-0.08644042347337745, ,0.012350164391954454,0.020357466769529736,-0.08683454940442588, ,0.0005104156486863736, ,0.003502654353947148,0.00029196437373287063,-0.013292120266522003,-0.0019617035786372457,-0.012419641552309192,-0.0034251462189367043, ,0.013748974212589067, ,0.012573597826065997, ,5.3990128843422933e-05, ,0.1424844215294422,-0.2046215302354526,0.09644786487000001,3.005695649907172,0.2653480825444854,-0.21825218000168328, ,0.01836241129227376,0.03054294868312545,0.013419386284751476,0.0046158538372594775,0.0285581770861222,0.001377903159290485, ,1.625532865524292
0.01207415153987651,0.020527777633501887,-0.08644042347337745, ,0.012376961961179737,0.02035584883257945,-0.08692533577133725, ,0.0005969871024981351, ,0.003502654353947148,0.00029196437373287063,-0.013292120266522003,-0.0019617035786372457,-0.012419641552309192,-0.0034251462189367043, ,0.013748974212589067, ,0.012573597826065997, ,5.462242058174832e-05, ,0.1424844215294422,-0.2046215302354526,0.09644786487000001,3.005695649907172,0.2653480825444854,-0.21825218000168328, ,0.01836241129227376,0.03054294868312545,0.013419386284751476,0.0046158538372594775,0.0285581770861222,0.001377903159290485, ,1.6324927806854248
0.012112236281897545,0.020534442368410608,-0.08658924883211501, ,0.012403822715617472,0.0203542326289903,-0.08701603159658913, ,0.0005473954023953937, ,0.0035758253373310914,0.0006022202528908494,-0.014115779377851235,0.03362240123762563,-0.030451544461055562,-0.018846138212825214, ,0.014574101122205141, ,0.04536256016379307, ,5.5177454070388186e-05, ,0.14267748985129783,-0.20428172998898672,0.09659953080000001,3.0059053398506568,0.2660312650433126,-0.21848255455960316, ,0.017969502283368827,0.031973363058783955,0.014363220486925161,0.013526246422957194,0.05970260591076934,-0.026207177173776942, ,1.6424939632415771
0.012112236281897545,0.020534442368410608,-0.08658924883211501, ,0.012430746414024458,0.020352618192446905,-0.08710663636317295, ,0.0006341912901693113, ,0.0035758253373310914,0.0006022202528908494,-0.014115779377851235,0.03362240123762563,-0.030451544461055562,-0.018846138212825214, ,0.014574101122205141, ,0.04536256016379307, ,5.585275511931923e-05, ,0.14267748985129783,-0.20428172998898672,0.09659953080000001,3.0059053398506568,0.2660312650433126,-0.21848255455960316, ,0.017969502283368827,0.031973363058783955,0.014363220486925161,0.013526246422957194,0.05970260591076934,-0.026207177173776942, ,1.6495389938354492
0.012169330421929933,0.020541577883193007,-0.08682117691298571, ,0.012457732815593692,0.0203510055566642,-0.08719714955580916, ,0.0005107339625100701, ,0.0037713773351180555,0.0003174655301089926,-0.014667668045538436,-0.022327907868977134,0.01840252464828785,0.0023747466121626587, ,0.015148087577669958, ,0.028934196106632542, ,5.634511623431509e-05, ,0.14294778550189569,-0.20381064328365903,0.096832863,3.0059053398506568,0.266167901543078,-0.21769550632175338, ,0.018629160101780676,0.031887413158088296,0.014762568600556072,0.011803680954680599,0.01508959517860381,0.036973423568476854, ,1.6562609672546387
0.012208716627898328,0.020540654352095303,-0.08695905512589118, ,0.012484781679953975,0.02034939475538783,-0.08728757066094679, ,0.00046980272782527353, ,0.0037818255202425174,-0.0005107091660260053,-0.012160609443494577,-0.02738831981264244,0.023123857619938137,0.007301027029923971, ,0.01274533052356941, ,0.03584456147661757, ,5.677478391877556e-05, ,0.1431717447552482,-0.2034553975714447,0.09697156603000001,3.0059053398506568,0.26644117454260885,-0.21734659094816228, ,0.022784379725923357,0.03525146417476626,0.012159398106870231,0.010799143364223477,0.015487026343419268,0.04720011553023283, ,1.6634759902954102
0.012208716627898328,0.020540654352095303,-0.08695905512589118, ,0.012511892767169686,0.020347785822393622,-0.08737789916676081, ,0.0005518553902470942, ,0.0037818255202425174,-0.0005107091660260053,-0.012160609443494577,-0.02738831981264244,0.023123857619938137,0.007301027029923971, ,0.01274533052356941, ,0.03584456147661757, ,5.7317502323456594e-05, ,0.1431717447552482,-0.2034553975714447,0.09697156603000001,3.0059053398506568,0.26644117454260885,-0.21734659094816228, ,0.022784379725923357,0.03525146417476626,0.012159398106870231,0.010799143364223477,0.015487026343419268,0.04720011553023283, ,1.6701109409332275
0.012269311565184212,0.020540483024109973,-0.08715744862802106, ,0.012539065837740355,0.02034617879148747,-0.08746813456314999, ,0.0004550244528201181, ,0.003618477552890238,-0.0004980664833740935,-0.01178030420347882,-0.009715393600555915,0.001473643601884512,0.008754348810988988, ,0.012333572764983062, ,0.009826508607142612, ,5.7718454088116296e-05, ,0.14354243593321095,-0.20287619260587786,0.09717378727,3.0061150297941412,0.26767090304049784,-0.2176959221603056, ,0.021931347713998333,0.035448988254938654,0.011807866212008898,0.0006446913896936465,0.030207611670284684,0.021841610760281235, ,1.6816959381103516
0.012269311565184212,0.020540483024109973,-0.08715744862802106, ,0.01256630065260035,0.02034457369650545,-0.08755827634173671, ,0.000535953205764497, ,0.003618477552890238,-0.0004980664833740935,-0.01178030420347882,-0.009715393600555915,0.001473643601884512,0.008754348810988988, ,0.012333572764983062, ,0.009826508607142612, ,5.8230157675563615e-05, ,0.14354243593321095,-0.20287619260587786,0.09717378727,3.0061150297941412,0.26767090304049784,-0.2176959221603056, ,0.021931347713998333,0.035448988254938654,0.011807866212008898,0.0006446913896936465,0.030207611670284684,0.021841610760281235, ,1.6888008117675781
0.012303977310663995,0.02053292911432605,-0.08726184236910126, ,0.012593596973118548,0.020342970571314022,-0.08764832399586417, ,0.0005189719113486293, ,0.0035229677286464046,-0.0007121456739933888,-0.010551801159628418,-0.017767884906048522,0.013273758360918876,-0.002758903993925561, ,0.011147150343940244, ,0.022178599240056752, ,5.879627806374575e-05, ,0.14375094972081504,-0.20255183782516045,0.09727749047,3.00653440968111,0.26767090304049784,-0.21736920719974334, ,0.0222501621473554,0.03408654510002543,0.01054190041032429,0.016179105603522006,0.020640442226304845,0.03346689594752771, ,1.6935248374938965
0.012303977310663995,0.02053292911432605,-0.08726184236910126, ,0.012620954561098015,0.020341369449808633,-0.08773827702059443, ,0.0006034564271810864, ,0.0035229677286464046,-0.0007121456739933888,-0.010551801159628418,-0.017767884906048522,0.013273758360918876,-0.002758903993925561, ,0.011147150343940244, ,0.022178599240056752, ,5.947771406802849e-05, ,0.14375094972081504,-0.20255183782516045,0.09727749047,3.00653440968111,0.26767090304049784,-0.21736920719974334, ,0.0222501621473554,0.03408654510002543,0.01054190041032429,0.016179105603522006,0.020640442226304845,0.03346689594752771, ,1.697955846786499
0.012351149013387778,0.020521650805965637,-0.08740801597965972, ,0.012648373178775672,0.02033977036591554,-0.08782813491270818, ,0.0005458228804924904, ,0.003613041378123959,-0.0008198392820360874,-0.011698095014524568,-0.041864991470945724,0.02195561749960732,-0.0009450185460876412, ,0.012270763277695886, ,0.04727289320091427, ,6.007473148391162e-05, ,0.14404441357003556,-0.20208075111983276,0.09742267495000001,3.00653440968111,0.26780753954026326,-0.2168271951823153, ,0.021060129063131552,0.035702385838401345,0.01159302148471616,0.015613957099856073,0.0,0.045165496402876856, ,1.702439785003662
0.012351149013387778,0.020521650805965637,-0.08740801597965972, ,0.012675852588821878,0.020338173353590006,-0.0879178971707015, ,0.0006317240033496656, ,0.003613041378123959,-0.0008198392820360874,-0.011698095014524568,-0.041864991470945724,0.02195561749960732,-0.0009450185460876412, ,0.012270763277695886, ,0.04727289320091427, ,6.0788224566731484e-05, ,0.14404441357003556,-0.20208075111983276,0.09742267495000001,3.00653440968111,0.26780753954026326,-0.2168271951823153, ,0.021060129063131552,0.035702385838401345,0.01159302148471616,0.015613957099856073,0.0,0.045165496402876856, ,1.7070817947387695
0.012392100072067367,0.020518523079739632,-0.08754486865427391, ,0.01270339255434028,0.02033657844681716,-0.08800756329478522, ,0.0005865945698067914, ,0.003972426392157972,9.097743942119811e-05,-0.013765642132248302,0.06313775537789394,-0.052242517832670254,-0.024750751727639, ,0.014327642920198927, ,0.08194910816698996, ,6.143498134096421e-05, ,0.14429154102201075,-0.2016560008117504,0.09756137798000002,3.00653440968111,0.2686273585388559,-0.21725066638407212, ,0.0229385887257604,0.03924604696380099,0.014046571005291006,0.013718500252773788,0.0925034483960305,-0.05012776189206089, ,1.711803913116455
0.012392100072067367,0.020518523079739632,-0.08754486865427391, ,0.012730992838867309,0.020334985679611638,-0.08809713278688296, ,0.0006734463280778093, ,0.003972426392157972,9.097743942119811e-05,-0.013765642132248302,0.06313775537789394,-0.052242517832670254,-0.024750751727639, ,0.014327642920198927, ,0.08194910816698996, ,6.219861014179068e-05, ,0.14429154102201075,-0.2016560008117504,0.09756137798000002,3.00653440968111,0.2686273585388559,-0.21725066638407212, ,0.0229385887257604,0.03924604696380099,0.014046571005291006,0.013718500252773788,0.0925034483960305,-0.05012776189206089, ,1.7162997722625732
0.012392100072067367,0.020518523079739632,-0.08754486865427391, ,0.012758653206371892,0.020333395086017492,-0.08818660515062897, ,0.0007618787994701787, ,0.003972426392157972,9.097743942119811e-05,-0.013765642132248302,0.06313775537789394,-0.052242517832670254,-0.024750751727639, ,0.014327642920198927, ,0.08194910816698996, ,6.308032740207642e-05, ,0.14429154102201075,-0.2016560008117504,0.09756137798000002,3.00653440968111,0.2686273585388559,-0.21725066638407212, ,0.0229385887257604,0.03924604696380099,0.014046571005291006,0.013718500252773788,0.0925034483960305,-0.05012776189206089, ,1.720801830291748
0.01243407738169006,0.02052140348152834,-0.08769554230923764, ,0.012786373421255156,0.02033180670010796,-0.08827597989136736, ,0.0007049590241757442, ,0.004832317273663838,0.0005419636365541448,-0.01738384611124007,-0.0013608198678534003,-0.0031200345384937616,-0.0035090198800231563, ,0.01805112518476268, ,0.0034036537246138364, ,6.387866998052e-05, ,0.14452322300823747,-0.20129303236666185,0.09771434020000001,3.00653440968111,0.2691739045379177,-0.21720626555801442, ,0.025892753494807852,0.03718532192730046,0.017639879867109635,0.012371242523048494,0.03792772302569765,0.017326926073579444, ,1.7283389568328857
0.012481771167773582,0.020526715864178237,-0.08786858435901886, ,0.012814153248350108,0.020330220555985795,-0.08836525651614945, ,0.0006291037158519857, ,0.005409930539071439,0.0005671816045407802,-0.020242974774976864,-0.046477116307536204,0.044443815724690694,0.027211470207950658, ,0.02096108468449228, ,0.06430685575639682, ,6.456827985107151e-05, ,0.14477035046021267,-0.20094550938732175,0.09788933935000001,3.0067440996245947,0.26931054103768315,-0.21674593228072694, ,0.02745860577502048,0.04033019190755239,0.020421553230769232,0.0025669004863774054,0.008655363154687297,0.0795692155051454, ,1.7331809997558594
0.012481771167773582,0.020526715864178237,-0.08786858435901886, ,0.012841992452921204,0.020328636687782425,-0.08845443453373321, ,0.000715692085751886, ,0.005409930539071439,0.0005671816045407802,-0.020242974774976864,-0.046477116307536204,0.044443815724690694,0.027211470207950658, ,0.02096108468449228, ,0.06430685575639682, ,6.537288276746348e-05, ,0.14477035046021267,-0.20094550938732175,0.09788933935000001,3.0067440996245947,0.26931054103768315,-0.21674593228072694, ,0.02745860577502048,0.04033019190755239,0.020421553230769232,0.0025669004863774054,0.008655363154687297,0.0795692155051454, ,1.737703800201416
0.01254317909133381,0.02053909356173237,-0.08810021210594629, ,0.01286989080066411,0.020327055129658492,-0.08854351345458039, ,0.0005900990792999828, ,0.005435091490094016,0.001081708474558958,-0.020242741918776164,0.018375108356335212,-0.04201151488837131,-0.027212383876129072, ,0.020987589502365504, ,0.04585421018137721, ,6.600127307357163e-05, ,0.14507925977518163,-0.20050531361349094,0.09812526413000001,3.0069537895680796,0.2698570870367449,-0.21653817397438813, ,0.02769904890790157,0.0385759925034434,0.020633175544041454,0.018719114257296658,0.04967216655938374,-0.027835505918184823, ,1.742473840713501
0.01254317909133381,0.02053909356173237,-0.08810021210594629, ,0.012897848057705344,0.0203254759158037,-0.0886324927908559, ,0.0006743480569312883, ,0.005435091490094016,0.001081708474558958,-0.020242741918776164,0.018375108356335212,-0.04201151488837131,-0.027212383876129072, ,0.020987589502365504, ,0.04585421018137721, ,6.674117145117619e-05, ,0.14507925977518163,-0.20050531361349094,0.09812526413000001,3.0069537895680796,0.2698570870367449,-0.21653817397438813, ,0.02769904890790157,0.0385759925034434,0.020633175544041454,0.018719114257296658,0.04967216655938374,-0.027835505918184823, ,1.7469189167022705
0.01254317909133381,0.02053909356173237,-0.08810021210594629, ,0.012925863990601942,0.020323899080436258,-0.08872137205642497, ,0.000760655034155981, ,0.005435091490094016,0.001081708474558958,-0.020242741918776164,0.018375108356335212,-0.04201151488837131,-0.027212383876129072, ,0.020987589502365504, ,0.04585421018137721, ,6.759446762975255e-05, ,0.14507925977518163,-0.20050531361349094,0.09812526413000001,3.0069537895680796,0.2698570870367449,-0.21653817397438813, ,0.02769904890790157,0.0385759925034434,0.020633175544041454,0.018719114257296658,0.04967216655938374,-0.027835505918184823, ,1.751405954360962
0.01259896183530121,0.02054955118061993,-0.08831125500942416, ,0.012953938366341037,0.02032232465780329,-0.08881015076685302, ,0.0006530981603410941, ,0.005393419447359861,0.0006261540779710032,-0.020253429215036957,0.009798146783525627,0.003475591533719808,-0.0029696906466124147, ,0.02096860599164932, ,0.010396153565322903, ,6.829719385103016e-05, ,0.14536500089152796,-0.2000805633054086,0.09834044827,3.0069537895680796,0.2705402695355721,-0.21660519105202683, ,0.027237928116667847,0.04393376924003276,0.02055330518709678,0.016429141200515685,0.056641179978909675,0.02265309778941999, ,1.7559068202972412
0.01259896183530121,0.02054955118061993,-0.08831125500942416, ,0.012982070952339761,0.020320752682180424,-0.08889882843940275, ,0.0007378101951471218, ,0.005393419447359861,0.0006261540779710032,-0.020253429215036957,0.009798146783525627,0.003475591533719808,-0.0029696906466124147, ,0.02096860599164932, ,0.010396153565322903, ,6.911074704107759e-05, ,0.14536500089152796,-0.2000805633054086,0.09834044827,3.0069537895680796,0.2705402695355721,-0.21660519105202683, ,0.027237928116667847,0.04393376924003276,0.02055330518709678,0.016429141200515685,0.056641179978909675,0.02265309778941999, ,1.7603399753570557
0.012656340717403904,0.020555031918859157,-0.08851710541385024, ,0.0130102615164446,0.020319183187871976,-0.0889874045930325, ,0.000634086645373781, ,0.00576998311382456,0.0004849936814244546,-0.020154318043339555,-0.02363416107882175,0.023809122218306576,0.019981326481152764, ,0.020969608002939028, ,0.033547645898507346, ,6.977993078101231e-05, ,0.1456661874736227,-0.1996403675315778,0.09854915096000001,3.0071634795115636,0.2709501790348684,-0.21612265736171046, ,0.03142282833061946,0.042554682313215596,0.020421553230769232,0.0035607660053206245,0.029744171396547305,0.05733985775500653, ,1.7648627758026123
0.012656340717403904,0.020555031918859157,-0.08851710541385024, ,0.01303850982693128,0.020317616209210396,-0.08907587874839544, ,0.0007173890763482045, ,0.00576998311382456,0.0004849936814244546,-0.020154318043339555,-0.02363416107882175,0.023809122218306576,0.019981326481152764, ,0.020969608002939028, ,0.033547645898507346, ,7.055762824371242e-05, ,0.1456661874736227,-0.1996403675315778,0.09854915096000001,3.0071634795115636,0.2709501790348684,-0.21612265736171046, ,0.03142282833061946,0.042554682313215596,0.020421553230769232,0.0035607660053206245,0.029744171396547305,0.05733985775500653, ,1.7698218822479248
0.01269411581927617,0.020558106933303566,-0.0886446754153019, ,0.013066815652504378,0.020316051780556687,-0.0891642504278373, ,0.00068370611838041, ,0.005900790225220791,0.000248059089050099,-0.01968617849327873,-0.009920583530079817,0.0020651688343553275,0.0065117879870959985, ,0.020553016378696134, ,0.01013311122966843, ,7.128593812544796e-05, ,0.14587470126122676,-0.19936234914810572,0.09867877996,3.007373169455048,0.2712234520343993,-0.21585542072825994, ,0.033556202814169295,0.04506027614362336,0.019960916691729325,0.008031598440891742,0.040747405247348344,0.032494044489286576, ,1.7745089530944824
0.01269411581927617,0.020558106933303566,-0.0886446754153019, ,0.01309517876229703,0.02031448993629985,-0.08925251915539467, ,0.0007679028179813088, ,0.005900790225220791,0.000248059089050099,-0.01968617849327873,-0.009920583530079817,0.0020651688343553275,0.0065117879870959985, ,0.020553016378696134, ,0.01013311122966843, ,7.212306120674704e-05, ,0.14587470126122676,-0.19936234914810572,0.09867877996,3.007373169455048,0.2712234520343993,-0.21585542072825994, ,0.033556202814169295,0.04506027614362336,0.019960916691729325,0.008031598440891742,0.040747405247348344,0.032494044489286576, ,1.7791259288787842
0.012748066146686885,0.020562432081627086,-0.08881972007871025, ,0.013123598925870445,0.020312930710857286,-0.08934068445679326, ,0.0006889700178445737, ,0.005953248911976032,0.0005766073820361577,-0.01915743855151037,0.03778026842840135,-0.023956881076854786,-0.02166451068709377, ,0.020069407079828197, ,0.044735648570816494, ,7.285032942494608e-05, ,0.14618361057619575,-0.19895304430577182,0.09885766798000001,3.0077925493420175,0.2719066345332265,-0.21584075906575811, ,0.03482456570953056,0.04387283474732814,0.019616762955665026,0.027121356160612505,0.07810725995761289,-0.005332067557885303, ,1.7839808464050293
0.012748066146686885,0.020562432081627086,-0.08881972007871025, ,0.013152075913213731,0.02031137413867412,-0.08942874585944684, ,0.0007727654131563202, ,0.005953248911976032,0.0005766073820361577,-0.01915743855151037,0.03778026842840135,-0.023956881076854786,-0.02166451068709377, ,0.020069407079828197, ,0.044735648570816494, ,7.368530246663241e-05, ,0.14618361057619575,-0.19895304430577182,0.09885766798000001,3.0077925493420175,0.2719066345332265,-0.21584075906575811, ,0.03482456570953056,0.04387283474732814,0.019616762955665026,0.027121356160612505,0.07810725995761289,-0.005332067557885303, ,1.788451910018921
0.012748066146686885,0.020562432081627086,-0.08881972007871025, ,0.013180609494743518,0.020309820254223586,-0.08951670289245475, ,0.0008583073610003463, ,0.005953248911976032,0.0005766073820361577,-0.01915743855151037,0.03778026842840135,-0.023956881076854786,-0.02166451068709377, ,0.020069407079828197, ,0.044735648570816494, ,7.472868286361874e-05, ,0.14618361057619575,-0.19895304430577182,0.09885766798000001,3.0077925493420175,0.2719066345332265,-0.21584075906575811, ,0.03482456570953056,0.04387283474732814,0.019616762955665026,0.027121356160612505,0.07810725995761289,-0.005332067557885303, ,1.7907309532165527
0.01283886383741902,0.020557842922603573,-0.08910192598806539, ,0.0132091994413036,0.02030826909200661,-0.08960455508660081, ,0.0006723626752861332, ,0.005953248911976032,0.0005766073820361577,-0.01915743855151037,0.03778026842840135,-0.023956881076854786,-0.02166451068709377, ,0.020069407079828197, ,0.044735648570816494, ,7.552235350428609e-05, ,0.14618361057619575,-0.19895304430577182,0.09885766798000001,3.0077925493420175,0.2719066345332265,-0.21584075906575811, ,0.03482456570953056,0.04387283474732814,0.019616762955665026,0.027121356160612505,0.07810725995761289,-0.005332067557885303, ,1.7936649322509766
0.01283886383741902,0.020557842922603573,-0.08910192598806539, ,0.01323784552416455,0.020306720686551788,-0.08969230197435121, ,0.0007555081528222661, ,0.005880767373798355,-0.000814849621966018,-0.01783222225444788,-0.031741011051121204,0.0054441368776236565,-0.01419209818046026, ,0.018794561855578748, ,0.03220448114406507, ,7.642419143441603e-05, ,0.14673192461026568,-0.1982271074155947,0.09914285178000001,3.0077925493420175,0.2724531805322883,-0.2152246070587165, ,0.03521222321279064,0.05023660220141386,0.01789754103370787,0.027121356160612505,0.02168233441085205,0.03679050637130486, ,1.7961399555206299
0.01283886383741902,0.020557842922603573,-0.08910192598806539, ,0.01326654751502356,0.02030517507241549,-0.08977994308985336, ,0.0008405126774326317, ,0.005880767373798355,-0.000814849621966018,-0.01783222225444788,-0.031741011051121204,0.0054441368776236565,-0.01419209818046026, ,0.018794561855578748, ,0.03220448114406507, ,7.7436229164215e-05, ,0.14673192461026568,-0.1982271074155947,0.09914285178000001,3.0077925493420175,0.2724531805322883,-0.2152246070587165, ,0.03521222321279064,0.05023660220141386,0.01789754103370787,0.027121356160612505,0.02168233441085205,0.03679050637130486, ,1.7983639240264893
0.01283886383741902,0.020557842922603573,-0.08910192598806539, ,0.013295305186003931,0.020303632284181593,-0.08986747796893403, ,0.0009268395701505308, ,0.005880767373798355,-0.000814849621966018,-0.01783222225444788,-0.031741011051121204,0.0054441368776236565,-0.01419209818046026, ,0.018794561855578748, ,0.03220448114406507, ,7.855977855705404e-05, ,0.14673192461026568,-0.1982271074155947,0.09914285178000001,3.0077925493420175,0.2724531805322883,-0.2152246070587165, ,0.03521222321279064,0.05023660220141386,0.01789754103370787,0.027121356160612505,0.02168233441085205,0.03679050637130486, ,1.800635814666748
0.01283886383741902,0.020557842922603573,-0.08910192598806539, ,0.013324118309654806,0.020302092356461313,-0.08995490614909699, ,0.0010141279061441917, ,0.005880767373798355,-0.000814849621966018,-0.01783222225444788,-0.031741011051121204,0.0054441368776236565,-0.01419209818046026, ,0.018794561855578748, ,0.03220448114406507, ,7.979566776126426e-05, ,0.14673192461026568,-0.1982271074155947,0.09914285178000001,3.0077925493420175,0.2724531805322883,-0.2152246070587165, ,0.03521222321279064,0.05023660220141386,0.01789754103370787,0.027121356160612505,0.02168233441085205,0.03679050637130486, ,1.8029348850250244
0.012898015855347762,0.020552640364249225,-0.08929208028987574, ,0.013352986658950848,0.020300555323893143,-0.0900422271695225, ,0.0009128338516654184, ,0.006391023588692769,-0.0003646122857279936,-0.02139530435654089,0.0021184174567558498,-0.02960555786180576,-0.02522189115821654, ,0.022332424255757564, ,0.02968117695756256, ,0.0004443344517894381, ,0.14707944758960578,-0.19770196158014744,0.09933470270000001,3.0077925493420175,0.27299972653135,-0.2151802062326588, ,0.035369713588695784,0.05592041341100223,0.021583755447154476,0.024062830839562916,0.05392618756843507,-0.006814541972423621, ,1.8051798343658447
0.012898015855347762,0.020552640364249225,-0.08929208028987574, ,0.013381910007291857,0.02029902122114277,-0.09012944057106476, ,0.0009998242148241297, ,0.006391023588692769,-0.0003646122857279936,-0.02139530435654089,0.0021184174567558498,-0.02960555786180576,-0.02522189115821654, ,0.022332424255757564, ,0.02968117695756256, ,0.0004483307810199035, ,0.14707944758960578,-0.19770196158014744,0.09933470270000001,3.0077925493420175,0.27299972653135,-0.2151802062326588, ,0.035369713588695784,0.05592041341100223,0.021583755447154476,0.024062830839562916,0.05392618756843507,-0.006814541972423621, ,1.8074438571929932
0.012898015855347762,0.020552640364249225,-0.08929208028987574, ,0.013410888128502553,0.020297490082903075,-0.09021654589625046, ,0.001087555190329093, ,0.006391023588692769,-0.0003646122857279936,-0.02139530435654089,0.0021184174567558498,-0.02960555786180576,-0.02522189115821654, ,0.022332424255757564, ,0.02968117695756256, ,0.00045289666965782626, ,0.14707944758960578,-0.19770196158014744,0.09933470270000001,3.0077925493420175,0.27299972653135,-0.2151802062326588, ,0.035369713588695784,0.05592041341100223,0.021583755447154476,0.024062830839562916,0.05392618756843507,-0.006814541972423621, ,1.8096919059753418
0.012898015855347762,0.020552640364249225,-0.08929208028987574, ,0.013439920796832096,0.020295961943894172,-0.0903035426892776, ,0.0011758405344624123, ,0.006391023588692769,-0.0003646122857279936,-0.02139530435654089,0.0021184174567558498,-0.02960555786180576,-0.02522189115821654, ,0.022332424255757564, ,0.02968117695756256, ,0.00045802393111034107, ,0.14707944758960578,-0.19770196158014744,0.09933470270000001,3.0077925493420175,0.27299972653135,-0.2151802062326588, ,0.035369713588695784,0.05592041341100223,0.021583755447154476,0.024062830839562916,0.05392618756843507,-0.006814541972423621, ,1.811917781829834
0.012971645460864028,0.020557730344425436,-0.0895526121198328, ,0.013469007786953832,0.02029443683886255,-0.09039043049601302, ,0.0010092731963895142, ,0.007950298548855156,0.0012338507669248655,-0.029126067268899845,0.012387823964953942,-0.01760770721607741,-0.001657244939950161, ,0.03021684016047092, ,0.02152832030435379, ,0.00046190596818977193, ,0.14746558423331702,-0.19712275661458062,0.09959914586000002,3.008002239285502,0.2736829090301772,-0.21508386583001643, ,0.04022761405615548,0.056926779579166635,0.029662591284916204,0.011228020385929419,0.07118664861838545,0.012599707157061713, ,1.814154863357544
0.012971645460864028,0.020557730344425436,-0.0895526121198328, ,0.013498148873964935,0.020292914802582055,-0.09047720886399103, ,0.0010964544014762838, ,0.007950298548855156,0.0012338507669248655,-0.029126067268899845,0.012387823964953942,-0.01760770721607741,-0.001657244939950161, ,0.03021684016047092, ,0.02152832030435379, ,0.0004663433698211461, ,0.14746558423331702,-0.19712275661458062,0.09959914586000002,3.008002239285502,0.2736829090301772,-0.21508386583001643, ,0.04022761405615548,0.056926779579166635,0.029662591284916204,0.011228020385929419,0.07118664861838545,0.012599707157061713, ,1.8164680004119873
0.012971645460864028,0.020557730344425436,-0.0895526121198328, ,0.013527343833386142,0.020291395869852936,-0.09056387734241246, ,0.0011842263651720584, ,0.007950298548855156,0.0012338507669248655,-0.029126067268899845,0.012387823964953942,-0.01760770721607741,-0.001657244939950161, ,0.03021684016047092, ,0.02152832030435379, ,0.0004713286683999719, ,0.14746558423331702,-0.19712275661458062,0.09959914586000002,3.008002239285502,0.2736829090301772,-0.21508386583001643, ,0.04022761405615548,0.056926779579166635,0.029662591284916204,0.011228020385929419,0.07118664861838545,0.012599707157061713, ,1.818854808807373
0.012971645460864028,0.020557730344425436,-0.0895526121198328, ,0.013556592441161254,0.02028988007550217,-0.0906504354821413, ,0.0012724475907287696, ,0.007950298548855156,0.0012338507669248655,-0.029126067268899845,0.012387823964953942,-0.01760770721607741,-0.001657244939950161, ,0.03021684016047092, ,0.02152832030435379, ,0.00047685362648499806, ,0.14746558423331702,-0.19712275661458062,0.09959914586000002,3.008002239285502,0.2736829090301772,-0.21508386583001643, ,0.04022761405615548,0.056926779579166635,0.029662591284916204,0.011228020385929419,0.07118664861838545,0.012599707157061713, ,1.8212249279022217
0.012971645460864028,0.020557730344425436,-0.0895526121198328, ,0.01358589447365703,0.020288367454383234,-0.09073688283570495, ,0.0013610126173997836, ,0.007950298548855156,0.0012338507669248655,-0.029126067268899845,0.012387823964953942,-0.01760770721607741,-0.001657244939950161, ,0.03021684016047092, ,0.02152832030435379, ,0.00048290950998441435, ,0.14746558423331702,-0.19712275661458062,0.09959914586000002,3.008002239285502,0.2736829090301772,-0.21508386583001643, ,0.04022761405615548,0.056926779579166635,0.029662591284916204,0.011228020385929419,0.07118664861838545,0.012599707157061713, ,1.8235788345336914
0.012971645460864028,0.020557730344425436,-0.0895526121198328, ,0.013615249707662603,0.02028685804137602,-0.09082321895729142, ,0.001449841359064178, ,0.007950298548855156,0.0012338507669248655,-0.029126067268899845,0.012387823964953942,-0.01760770721607741,-0.001657244939950161, ,0.03021684016047092, ,0.02152832030435379, ,0.0004894872776652291, ,0.14746558423331702,-0.19712275661458062,0.09959914586000002,3.008002239285502,0.2736829090301772,-0.21508386583001643, ,0.04022761405615548,0.056926779579166635,0.029662591284916204,0.011228020385929419,0.07118664861838545,0.012599707157061713, ,1.826023817062378
0.012971645460864028,0.020557730344425436,-0.0895526121198328, ,0.013644657920389396,0.020285351871386737,-0.09090944340274767, ,0.001538871967886771, ,0.007950298548855156,0.0012338507669248655,-0.029126067268899845,0.012387823964953942,-0.01760770721607741,-0.001657244939950161, ,0.03021684016047092, ,0.02152832030435379, ,0.0004965777147613206, ,0.14746558423331702,-0.19712275661458062,0.09959914586000002,3.008002239285502,0.2736829090301772,-0.21508386583001643, ,0.04022761405615548,0.056926779579166635,0.029662591284916204,0.011228020385929419,0.07118664861838545,0.012599707157061713, ,1.8284449577331543
0.012971645460864028,0.020557730344425436,-0.0895526121198328, ,0.013674118889470564,0.020283848979347735,-0.09099555572957813, ,0.0016280559514156503, ,0.007950298548855156,0.0012338507669248655,-0.029126067268899845,0.012387823964953942,-0.01760770721607741,-0.001657244939950161, ,0.03021684016047092, ,0.02152832030435379, ,0.0005041715284301415, ,0.14746558423331702,-0.19712275661458062,0.09959914586000002,3.008002239285502,0.2736829090301772,-0.21508386583001643, ,0.04022761405615548,0.056926779579166635,0.029662591284916204,0.011228020385929419,0.07118664861838545,0.012599707157061713, ,1.8309299945831299
0.013149062926447222,0.020598489382969386,-0.09021084905339966, ,0.01370363239296086,0.020282349400217753,-0.0910815554969435, ,0.0010796395197991714, ,0.010137631829329218,0.003072453047960338,-0.038530846824625486,0.040948581374203416,0.009331295397025277,-0.0523800768627977, ,0.03996045174746779, ,0.041997314961025246, ,0.000508007981705935, ,0.14831508484948172,-0.1959875148820696,0.10027192037,3.009260378946409,0.27518591052759706,-0.21443085174744414, ,0.046701250766963964,0.059571212528857984,0.039525586898263035,0.07644920806023767,0.09728759730669435,0.03234534709043403, ,1.834230899810791
0.013149062926447222,0.020598489382969386,-0.09021084905339966, ,0.01373319820933612,0.0202808531689812,-0.09116744226565829, ,0.0011649795564265205, ,0.010137631829329218,0.003072453047960338,-0.038530846824625486,0.040948581374203416,0.009331295397025277,-0.0523800768627977, ,0.03996045174746779, ,0.041997314961025246, ,0.0005123587868365349, ,0.14831508484948172,-0.1959875148820696,0.10027192037,3.009260378946409,0.27518591052759706,-0.21443085174744414, ,0.046701250766963964,0.059571212528857984,0.039525586898263035,0.07644920806023767,0.09728759730669435,0.03234534709043403, ,1.8364830017089844
0.013149062926447222,0.020598489382969386,-0.09021084905339966, ,0.013762816117493094,0.020279360320648573,-0.09125321559818952, ,0.001251025320141012, ,0.010137631829329218,0.003072453047960338,-0.038530846824625486,0.040948581374203416,0.009331295397025277,-0.0523800768627977, ,0.03996045174746779, ,0.041997314961025246, ,0.0005172184350819591, ,0.14831508484948172,-0.1959875148820696,0.10027192037,3.009260378946409,0.27518591052759706,-0.21443085174744414, ,0.046701250766963964,0.059571212528857984,0.039525586898263035,0.07644920806023767,0.09728759730669435,0.03234534709043403, ,1.838749885559082
0.013149062926447222,0.020598489382969386,-0.09021084905339966, ,0.013792485896748882,0.02027787089025615,-0.09133887505865516, ,0.0013376217720694511, ,0.010137631829329218,0.003072453047960338,-0.038530846824625486,0.040948581374203416,0.009331295397025277,-0.0523800768627977, ,0.03996045174746779, ,0.041997314961025246, ,0.0005225805483956028, ,0.14831508484948172,-0.1959875148820696,0.10027192037,3.009260378946409,0.27518591052759706,-0.21443085174744414, ,0.046701250766963964,0.059571212528857984,0.039525586898263035,0.07644920806023767,0.09728759730669435,0.03234534709043403, ,1.8409929275512695
0.013251931779007088,0.02062212637661538,-0.09059230443570923, ,0.013822207326840946,0.020276384912866128,-0.09142442021282222, ,0.00106638080756034, ,0.010539591260396018,0.0013977984599520665,-0.037570159814265446,0.007690905807474264,-0.0014394478454977308,0.04592414439052636, ,0.03904553409726017, ,0.007819666757923978, ,0.0005261117189096597, ,0.1488170624863063,-0.19533108258776052,0.10066210366000002,3.0094700688898937,0.27614236602595515,-0.21374055975078896, ,0.05472718659658061,0.07425425787047792,0.03829041230769231,-0.019303102127206113,0.09591529815695414,0.05057237668670617, ,1.8432488441467285
0.013251931779007088,0.02062212637661538,-0.09059230443570923, ,0.013851980187926419,0.020274902423565846,-0.09150985062810507, ,0.0011500059051144345, ,0.010539591260396018,0.0013977984599520665,-0.037570159814265446,0.007690905807474264,-0.0014394478454977308,0.04592414439052636, ,0.03904553409726017, ,0.007819666757923978, ,0.000530136842691626, ,0.1488170624863063,-0.19533108258776052,0.10066210366000002,3.0094700688898937,0.27614236602595515,-0.21374055975078896, ,0.05472718659658061,0.07425425787047792,0.03829041230769231,-0.019303102127206113,0.09591529815695414,0.05057237668670617, ,1.8454837799072266
0.013251931779007088,0.02062212637661538,-0.09059230443570923, ,0.013881804260582019,0.020273423457468628,-0.09159516587356409, ,0.0012345299236564253, ,0.010539591260396018,0.0013977984599520665,-0.037570159814265446,0.007690905807474264,-0.0014394478454977308,0.04592414439052636, ,0.03904553409726017, ,0.007819666757923978, ,0.0005346521829542208, ,0.1488170624863063,-0.19533108258776052,0.10066210366000002,3.0094700688898937,0.27614236602595515,-0.21374055975078896, ,0.05472718659658061,0.07425425787047792,0.03829041230769231,-0.019303102127206113,0.09591529815695414,0.05057237668670617, ,1.8477399349212646
0.013251931779007088,0.02062212637661538,-0.09059230443570923, ,0.013911679325803629,0.02027194804971321,-0.0916803655199037, ,0.0013197608151004126, ,0.010539591260396018,0.0013977984599520665,-0.037570159814265446,0.007690905807474264,-0.0014394478454977308,0.04592414439052636, ,0.03904553409726017, ,0.007819666757923978, ,0.0005396528748787188, ,0.1488170624863063,-0.19533108258776052,0.10066210366000002,3.0094700688898937,0.27614236602595515,-0.21374055975078896, ,0.05472718659658061,0.07425425787047792,0.03829041230769231,-0.019303102127206113,0.09591529815695414,0.05057237668670617, ,1.8500008583068848
0.013251931779007088,0.02062212637661538,-0.09059230443570923, ,0.013941605165005883,0.02027047623546344,-0.09176544913947074, ,0.0014055517411646218, ,0.011960781662841582,0.002035219950771095,-0.04310097025629027,0.013397369112179258,0.0017606064271336857,0.02981984766151283, ,0.04477606565195073, ,0.013507053400552794, ,0.0005451332474501485, ,0.1488170624863063,-0.19533108258776052,0.10066210366000002,3.0094700688898937,0.27614236602595515,-0.21374055975078896, ,0.05472718659658061,0.07425425787047792,0.03829041230769231,-0.019303102127206113,0.09591529815695414,0.05057237668670617, ,1.8523759841918945
0.013354909614953628,0.020636429751465128,-0.09095967748250887, ,0.01397158156002199,0.020269008049908166,-0.09185041630625268, ,0.0011439836741553263, ,0.011960781662841582,0.002035219950771095,-0.04310097025629027,0.013397369112179258,0.0017606064271336857,0.02981984766151283, ,0.04477606565195073, ,0.013507053400552794, ,0.0005488996023350868, ,0.1493499310546278,-0.19461286843045764,0.10103673147000002,3.009260378946409,0.27709882152431325,-0.21337698271469602, ,0.06021379540512105,0.07961152815307952,0.04400224176795581,0.0,0.10517073618358619,0.05479572973765555, ,1.8552379608154297
0.013354909614953628,0.020636429751465128,-0.09095967748250887, ,0.014001608293103294,0.02026754352826189,-0.0919352665958762, ,0.0012272205767955991, ,0.011960781662841582,0.002035219950771095,-0.04310097025629027,0.013397369112179258,0.0017606064271336857,0.02981984766151283, ,0.04477606565195073, ,0.013507053400552794, ,0.000553139108425465, ,0.1493499310546278,-0.19461286843045764,0.10103673147000002,3.009260378946409,0.27709882152431325,-0.21337698271469602, ,0.06021379540512105,0.07961152815307952,0.04400224176795581,0.0,0.10517073618358619,0.05479572973765555, ,1.8575198650360107
0.013354909614953628,0.020636429751465128,-0.09095967748250887, ,0.014031685146918903,0.0202660827057637,-0.09201999958560553, ,0.0013112837287337848, ,0.011960781662841582,0.002035219950771095,-0.04310097025629027,0.013397369112179258,0.0017606064271336857,0.02981984766151283, ,0.04477606565195073, ,0.013507053400552794, ,0.0005578480812224111, ,0.1493499310546278,-0.19461286843045764,0.10103673147000002,3.009260378946409,0.27709882152431325,-0.21337698271469602, ,0.06021379540512105,0.07961152815307952,0.04400224176795581,0.0,0.10517073618358619,0.05479572973765555, ,1.8597638607025146
