NicholasDascanio/dvrk_moveit_final/test/execution/third_experiment_notsharpbends/thirdexp_500vel3.0/thirdexp_500vel3.0_22.csv
Current Position (x),Current Position (y),Current Position (z), ,Planned Position (x),Planned Position (y),Planned Position (z), ,Position Error,,Cartesian linear Velocity(x),Cartesian linear Velocity(y),Cartesian linear Velocity(z),Cartesian Angular Velocity(x),Cartesian Angular Velocity(y),Cartesian Angular Velocity(z), ,Total Linear Velocity, ,Total Angular Velocity, ,MSE, ,Joint 1 Position,Joint 2 Position,Joint 3 Position,Joint 4 Position,Joint 5 Position,Joint 6 Position, ,Joint 1 Velocity,Joint 2 Velocity,Joint 3 Velocity,Joint 4 Velocity,Joint 5 Velocity,Joint 6 Velocity, ,Time Stamp
0.009878076411726427,0.0202016847179608,-0.07939456211205989, ,0.00993312606653073,0.020097978878148248,-0.07943314893105341, ,0.00012358927261432582, ,-1.5036787354135892e-05,-4.520909770320583e-05,-1.3374146092725864e-05,0.015571230772377709,-0.07316015204362378,-0.03550780580373812, ,4.9485707762757986e-05, ,0.07479887081241796, ,1.0299106051193818e-05, ,0.12795023826015167,-0.21923294083348538,0.08929104778000001,2.998566191828698,0.26029253205316405,-0.220418980555739, ,-0.00017662624631268098,0.0005606978042392775,0.0,-0.001073876637139182,0.0,-0.08330062113059289, ,0.023741960525512695
0.009880875603994704,0.020200930190636346,-0.07941579356302807, ,0.009956645727225042,0.020119096213031214,-0.07949317561999325, ,0.0001357420134121372, ,0.0005235067200506222,-0.00029823322799732237,-0.0029382095925212584,-0.051369616143897866,-0.26468681032969366,-0.1402550585869065, ,0.0029993462544034163, ,0.2696255644872341, ,1.1787785728475594e-05, ,0.12794251552727745,-0.21922521810061116,0.08931049213,2.998566191828698,0.2597459860541023,-0.22724271681346336, ,0.00012311461948097575,-0.0001397838368368548,0.002589851598962871,-0.0010477618299498004,-0.10919846830148106,-0.28381486840657466, ,0.04584908485412598
0.009892985844688397,0.02017361567548328,-0.07945025058349531, ,0.009980225980296048,0.020139994217898565,-0.07955327741562342, ,0.0001391250222257502, ,0.00037255629027204123,0.0001342324459150247,-0.0016625993583898402,-0.027329914651237356,-0.009790312486303491,-0.007672202593834864, ,0.001709108880521046, ,0.029030577903491422, ,1.2451759632881664e-05, ,0.12797340645877436,-0.2192406635663596,0.08932993648000001,2.998566191828698,0.2556468910611391,-0.23067951513423737, ,0.0014791213157432865,-0.0002065944202047317,0.001617737891908114,0.0009386627142271415,-0.02928738945601532,-0.005047927144044451, ,0.07135391235351562
0.009900624388984914,0.02017997380282159,-0.07948029519906046, ,0.010003866574019993,0.020160673890577314,-0.07961345367189594, ,0.00016959544295568069, ,0.0002741852638525201,-0.00020790576780993554,-0.0004911737484378871,-0.014752357396987204,-0.10597313397558418,-0.05662932303967296, ,0.0005997116126581506, ,0.10699503340517974, ,1.3525041695426046e-05, ,0.12801202012314547,-0.21924838629923382,0.08936104744000001,2.9987758817721826,0.25551025456137366,-0.23457035549742852, ,0.0019654669782446462,-0.00016466796307080733,0.0003769478684594705,0.0018796336403843186,-0.03793135501918623,-0.11269402169454867, ,0.09357810020446777
0.00991316271311983,0.020188995966656964,-0.07951953378662416, ,0.010027567257303131,0.02018113622693387,-0.07967370374417707, ,0.00019214200751051035, ,0.0004460637153230041,0.0015371427975872792,-0.0018795138069097302,0.075462132432926,0.19179504145025464,0.10515516788380747, ,0.0024686743342665746, ,0.20610645636710634, ,1.4619110744584696e-05, ,0.12810469291763615,-0.21924838629923382,0.08940252872000001,2.9987758817721826,0.25551025456137366,-0.22713759014463733, ,0.0042988208928470386,-0.0007807334627817525,0.002478420961568384,0.0018210770390327251,0.11677903298695097,0.20399713865654623, ,0.11947298049926758
0.009921973280351958,0.02021267408659879,-0.07956740332069141, ,0.010051327779680977,0.020201382220876692,-0.07973402698924605, ,0.0002112428452060596, ,0.000656847978818205,0.0005390872428253782,-0.0032869195332190645,-0.04160645325109135,0.06770949474867115,0.030473982552806894, ,0.00339498222977848, ,0.07947120630059616, ,1.566833232136232e-05, ,0.12815875204775573,-0.21925610903210804,0.08945826919000001,2.9987758817721826,0.256876619559028,-0.22800673296117988, ,0.0024205251889734217,-0.0003542608685707389,0.0033198856857023767,0.0017806161629674874,-0.02649740100329834,0.08351563890414312, ,0.14169788360595703
0.009940983011502673,0.020229185133172102,-0.07964193119748053, ,0.0100751478913177,0.020221412864357035,-0.07979442276529425, ,0.00020325919755966745, ,0.0005945180887714405,0.0006978587649900815,-0.0020903084916602905,0.03282669587789479,-0.05830783643946252,-0.025092413901686542, ,0.00228250919035544, ,0.06691334509999482, ,1.631521946505738e-05, ,0.12826687030799488,-0.2192638317649823,0.08953604659000002,2.9989855717156675,0.2567399830592626,-0.2271602063962184, ,0.004323400432546302,-0.00045731305338960956,0.0022958794349956764,0.00023188250560827385,0.020208690383018004,-0.06464402845397008, ,0.16882896423339844
0.009960306373818527,0.020245955373535705,-0.07970095277908552, ,0.010099027343005463,0.020241229147371052,-0.07985489043192392, ,0.0002072743241873396, ,0.000717866217988578,0.0005187328366666824,-0.0019697743210726508,-0.0005677426430670163,0.000362155920687337,0.002852813817392965, ,0.0021597283483629857, ,0.0006734156146034018, ,1.6853294215505745e-05, ,0.12841360223260515,-0.21928699996360496,0.0895995648,2.9989855717156675,0.256876619559028,-0.22751666052033648, ,0.005716692633160179,-0.0007448294282691677,0.0021092176271186444,0.00023188250560827385,0.0,0.006856873668573443, ,0.1923229694366455
0.009973814027153196,0.0202579123733897,-0.07974740198451316, ,0.010122965886163796,0.020260832057961076,-0.07991542935014698, ,0.0002246953430896033, ,0.0007632510250725548,0.0006886496213500878,-0.002631847758157934,-0.0012816357035167038,0.005252265216036161,0.005057117887103706, ,0.0028254934171540497, ,0.005406374002031406, ,1.746375509522907e-05, ,0.12850627502709583,-0.2193024454293534,0.08964882382000001,2.9989855717156675,0.256876619559028,-0.22743498178019592, ,0.005215235706141609,-0.0010057747169001277,0.0027935481445106984,0.00023188250560827385,0.0,0.011848738211828488, ,0.2143080234527588
0.009989765641345502,0.020269690927752628,-0.07979792338092291, ,0.010146963272838892,0.02028022258221776,-0.07997603888238404, ,0.0002377964317513072, ,0.0008659927594199728,0.000656319181409377,-0.002629186596146406,0.00013855728597868787,0.0005207422555038561,-0.0032610027969229207, ,0.0028448761808925215, ,0.0005388603645946356, ,1.808295980894492e-05, ,0.12861439328733498,-0.21931789089510184,0.08970197171000001,2.999195261659152,0.2567399830592626,-0.22724188513635896, ,0.006308588611368887,-0.0005733639509533959,0.002795509217269217,0.006239993129847022,0.0,0.00622313430122404, ,0.23716211318969727
0.010007816701210032,0.02028481092579272,-0.07985511910752512, ,0.010171019255702931,0.020299401704280687,-0.08003671839246253, ,0.0002445940818982989, ,0.0009435987676601299,0.0007949624515199962,-0.0028470935866203857,0.0014973795099335872,-0.0019730133885479343,-0.0035078832414251297, ,0.003102947924898407, ,0.0024768784873478115, ,1.865228555723822e-05, ,0.1287456797461968,-0.21934105909372453,0.08976289734000001,2.999195261659152,0.2567399830592626,-0.22724188513635896, ,0.006922712368059351,-0.0016126981421276437,0.003048576367464115,0.005729576472822769,0.0,0.004211578681689988, ,0.2596120834350586
0.010024472859742648,0.020297901296335213,-0.07990627003621513, ,0.010195133588053533,0.020318370406341327,-0.08009746724561717, ,0.00025710006132860454, ,0.0009002532169731219,0.0006864944869998663,-0.002653733805047738,0.0015096737556155198,-0.00555228422486486,-0.005000839334557608, ,0.0028851401427668656, ,0.005753866076862415, ,1.938971936974616e-05, ,0.1288692434721844,-0.21935650455947298,0.08981734152000001,2.999195261659152,0.2567399830592626,-0.2271602063962184, ,0.006701220052316407,-0.0008544642867596547,0.0028307822143237966,0.005279910341729956,0.0,0.0, ,0.281282901763916
0.010042976582205163,0.020312564169839627,-0.07996650909318387, ,0.010219306023812989,0.020337129668643376,-0.08015828480848694, ,0.0002616743409071849, ,0.0007927875310997372,0.0006406054557016063,-0.0021902277635649065,0.001717142471414113,-0.005944077637989839,-0.001037930630835869, ,0.002415778358134788, ,0.006187134812106747, ,2.0060233728049767e-05, ,0.128992807198172,-0.21937967275809564,0.08988085973000001,2.9994049516026364,0.2566033465594972,-0.22704878849252194, ,0.006222836924213173,-0.0015693571820050527,0.002360523343212804,0.0012808993077156445,0.0,0.0, ,0.30164098739624023
0.010070358045846205,0.020330391900622035,-0.08003694764753105, ,0.010243536317527668,0.02035568046948511,-0.08021917044911572, ,0.0002526566344173196, ,0.0009433907177876579,0.0007540312766499725,-0.0029381061212275152,0.00013102138916751434,-0.0049811658301315105,-0.0002690524285439979, ,0.0031766360811665054, ,0.004982888661483712, ,2.057904330261719e-05, ,0.12920904371865027,-0.21941056368959255,0.08995604455,2.999614641546121,0.2564667100597317,-0.22669233436840383, ,0.006861253777101962,-0.0009716411865896076,0.0031251346909947036,0.0011789647666002906,-0.0006166425846395757,0.001942980477199966, ,0.32266688346862793
0.010080760023553327,0.020338350969432827,-0.08006863489309404, ,0.010267824224367339,0.02037402378522062,-0.08028012353694942, ,0.000284592711593609, ,0.0010979977191367958,0.000980445900646314,-0.003904888927171334,0.0002974035810340852,-0.005552857109542732,-0.00036821800286686735, ,0.00417313199993351, ,0.005560815593157163, ,2.1250538720658095e-05, ,0.12936349837613476,-0.21943373188821522,0.09003122937000001,2.999614641546121,0.2564667100597317,-0.22661065562826327, ,0.007203780455686939,-0.0010628910635609497,0.004129844832771585,0.0011789647666002906,-0.0005916926362416001,0.0016784569704127318, ,0.34272003173828125
0.010100191853788182,0.0203557409184933,-0.08013584764433586, ,0.010292169500124498,0.020392160590261728,-0.08034114344283612, ,0.00028342225400700437, ,0.0011303592939917503,0.0009599172894154285,-0.003851056132422876,0.00020692087060257666,-0.006084895418963965,-0.0004085259508066273, ,0.004126716209179404, ,0.006088412573026626, ,2.1837592259008934e-05, ,0.12941755750625433,-0.21944145462108944,0.09006104404000001,2.999614641546121,0.2564667100597317,-0.22661065562826327, ,0.00768200266158458,-0.000949411847892891,0.004076992966470438,0.0011789647666002906,-0.0005816550011414697,0.0016156790460833221, ,0.3634669780731201
0.010131352812015807,0.02037718730031395,-0.0802250854580886, ,0.010316571901213779,0.020410091857079215,-0.08040222953902446, ,0.00025839668393742073, ,0.0011120502411475252,0.0005885925490988114,-0.002367190149126828,-0.0008671148451613403,-0.004634568514323588,-0.0024808888106648765, ,0.0026807995318214304, ,0.004714988164813191, ,2.2210232943384477e-05, ,0.12964923949248106,-0.21946462281971213,0.09015567321000001,2.9998243314896054,0.2563300735599663,-0.22625420150414519, ,0.009706312441161947,-0.00048227350038178025,0.0025551510298363815,0.004609120903202738,-0.0010189905892070046,0.004785693274150661, ,0.3836688995361328
0.010152713231322663,0.020390350533845726,-0.08027291974828853, ,0.01034103118467118,0.02042781855620484,-0.08046338119916292, ,0.00027044975230540924, ,0.0011465886383017622,0.0006923276526395153,-0.0026710749632945486,-0.0010175443106161483,-0.00202167418067661,-0.0011735649382369345, ,0.0029880804111721967, ,0.002263307928876607, ,2.2613419548041326e-05, ,0.12983458508146245,-0.2194877910183348,0.09020752481000001,2.9998243314896054,0.2563300735599663,-0.22617252276400462, ,0.009631591697835298,-0.0008963961968183745,0.0028773142196531795,0.004609120903202738,-0.0010189905892070046,0.007671734296318853, ,0.4054570198059082
0.010177451465302976,0.020406380198603427,-0.08034143988864487, ,0.010365547108153551,0.02044534165623253,-0.0805245977982976, ,0.00026541436643164924, ,0.0013010791792740224,0.0008891311690771259,-0.0036595950195252775,-0.0032225431823052026,-0.0010665141001063808,-0.0015364138934213728, ,0.003984469472024982, ,0.0033944419616709688, ,2.294979775727653e-05, ,0.13001993067044385,-0.21950323648408324,0.09028011705000001,3.00003402143309,0.2561934370602008,-0.22589774738002705, ,0.009875953739205998,-0.0007868471605527835,0.0038917203811385296,0.005319125924453708,-0.0029604685286037462,0.009162699846210862, ,0.4250791072845459
0.010199437342364923,0.02042202752872989,-0.0804033752036773, ,0.010390119429937762,0.02046266212382015,-0.08058587871287239, ,0.0002670549750665722, ,0.001229247915443076,0.0008044831568159925,-0.003294312136059036,-0.0032013284949809185,-0.0009526625697420494,-0.00163633158273031, ,0.003607039788664331, ,0.003340070316111842, ,2.3263304468422036e-05, ,0.1301898307936768,-0.21951868194983168,0.09034622784000002,3.00003402143309,0.2561934370602008,-0.22589774738002705, ,0.00956651083378888,-0.0007643686795286664,0.003510868750275513,0.005319125924453708,-0.0029604685286037462,0.008940296910617731, ,0.4460430145263672
0.010226452502902631,0.02043880606377567,-0.0804697699549029, ,0.010414747908920222,0.020479780923691307,-0.08064722332072673, ,0.0002619614401293429, ,0.0012649786777514677,0.0007060508188934206,-0.0028329852906009544,-0.0026246355764490475,-0.00458391302678382,-0.002853885911247565, ,0.003181899506707793, ,0.005282136912632782, ,2.3523659418489087e-05, ,0.1304137900470293,-0.21953412741558015,0.09041752379000001,3.00003402143309,0.2561934370602008,-0.22573438989974592, ,0.010725242038706012,-0.0007938695047927723,0.003047409894777119,0.005319125924453708,-0.0029604685286037462,0.00612904777685379, ,0.46549010276794434
0.010255286212384274,0.020455253006017565,-0.080536306101542, ,0.010439432304616109,0.020496699018636676,-0.08070863100109547, ,0.0002652845508804818, ,0.0012144573212971939,0.0007461346587750227,-0.0029571625493091903,-0.0032720222104922923,0.0010251653808239516,-0.002475009418135354, ,0.0032600172644505956, ,0.0035952798002417863, ,2.3777553333721697e-05, ,0.13064547203325602,-0.2195572956142028,0.09048881974,3.0004534013200588,0.2560568005604354,-0.22529625703548728, ,0.009838807785248547,-0.0009575158839494891,0.0031705436942675164,0.00714560071272404,-0.0030496699385782,0.011057410264440844, ,0.48845410346984863
0.01027474206397686,0.020467518725653416,-0.08058324852843948, ,0.01046417237715874,0.020513417369515445,-0.08077010113460681, ,0.0002700081952313309, ,0.001149173020233069,0.0006580707108948044,-0.002601173535625718,-0.0030955607863014266,0.0007936037246332836,-0.002703086271501995, ,0.0029188626986223223, ,0.0031956694657546774, ,2.414188104404844e-05, ,0.13080764942361475,-0.21957274107995126,0.09053937505000001,3.0004534013200588,0.2560568005604354,-0.22529625703548728, ,0.009604228112137162,-0.0008511996872154022,0.002798947727991566,0.00714560071272404,-0.0028726003643367998,0.010499799817869188, ,0.5060429573059082
0.010298191513117368,0.020482327317455286,-0.08064115725367918, ,0.010488967887298882,0.02052993693525759,-0.08083163310328235, ,0.0002737578308198283, ,0.0012942501169484575,0.0008271675112490978,-0.003221049041613542,-0.0006770840302101732,-0.00838543218665242,-0.006794310950985384, ,0.003568535607972357, ,0.00841272342313628, ,2.4497047486636283e-05, ,0.13100071774547037,-0.2195881865456997,0.09060159697,3.0004534013200588,0.2560568005604354,-0.22513289955520616, ,0.010367851148090329,-0.001145488082132253,0.003455273648590022,0.00714560071272404,-0.0026089489219354124,0.0008913893179338384, ,0.5241808891296387
0.01032478655942685,0.02049949636284143,-0.08071182561698387, ,0.0105138185964042,0.020546258672864744,-0.08089322629053408, ,0.0002661316009176555, ,0.001307634843811793,0.0008669924294837744,-0.0033917776901902378,-0.0019498405224629089,0.0036313711269481846,-0.0006607851544728782, ,0.0037370764853298217, ,0.004121739180950742, ,2.4795580342059963e-05, ,0.13120923153307443,-0.2196113547443224,0.09067678179000001,3.0004534013200588,0.2559201640606699,-0.2248581241712286, ,0.010265025436201988,-0.0010058508416125082,0.0036342257631759075,0.007019978035172452,-0.0010996905016768797,0.014230537671135553, ,0.5428531169891357
0.010350209576488974,0.02051578774038206,-0.08077583445595762, ,0.010538724266458438,0.020562383537412143,-0.08095488008116536, ,0.0002641330962624353, ,0.0012497826609313854,0.0008238873134356247,-0.0031961500838515555,-0.0023785209601449907,0.003787054873383279,0.002311791413225577, ,0.00352932321604429, ,0.004472040500524832, ,2.506623241418324e-05, ,0.13141002258780426,-0.21962680021007083,0.09074548516000001,3.0006630912635437,0.2559201640606699,-0.22469476669094748, ,0.009937956298120082,-0.0010364828628578323,0.0034285001119242365,0.004180021186449501,-0.0010996905016768797,0.014738366982528141, ,0.5605909824371338
0.010371169534817903,0.02052869179485188,-0.08082510583868248, ,0.01056368466006091,0.02057831248205005,-0.08101659386136796, ,0.00027602889138158215, ,0.0012791079233484093,0.0008001935339030243,-0.0032090270635200197,-0.001525520980047961,0.0003035895973767987,-0.002152764463090174, ,0.003546023331236952, ,0.0015554358115647266, ,2.536702537062992e-05, ,0.1315799227110372,-0.21964224567581928,0.09079863305000001,3.000872781207028,0.2559201640606699,-0.22453140921066636, ,0.010187207986939513,-0.0007065739680382504,0.003438862590673575,0.006808467701709529,-0.0010996905016768797,0.0104101957021265, ,0.5865750312805176
0.01039933140472457,0.020546050646196842,-0.08089387402089326, ,0.01058869954042569,0.020594046458005773,-0.08107836701872238, ,0.0002687034704243545, ,0.0011267880567490615,0.0006630770854858166,-0.0026844001833778754,-0.002124934702136006,0.003290229187832061,-0.001207966978500637, ,0.0029858544657514474, ,0.003916753178005012, ,2.5620953044218005e-05, ,0.13181160469726394,-0.21965769114156772,0.09087252158,3.000872781207028,0.2559201640606699,-0.2244497304705258, ,0.009163216489895933,-0.0005089838065659187,0.0028819995512936497,0.006808467701709529,-0.0010701922333945133,0.012636626086306547, ,0.6037929058074951
0.010437812171547944,0.020567685004373844,-0.08098611442071617, ,0.010613768671381148,0.020609586414584706,-0.08114019894219551, ,0.000237609885675512, ,0.001319227565606272,0.0007854252979269202,-0.0032756812058103275,-0.002878676783545862,0.0010219976841633234,-0.0015481368229038972, ,0.0036176431043675444, ,0.003054710937783856, ,2.574320870459916e-05, ,0.13212823674510712,-0.2196731366073162,0.09097103962000001,3.000872781207028,0.25578352756090456,-0.22417495508654828, ,0.010516318615353345,-0.00043168262278224566,0.003503147464262151,0.006620504850466128,-0.0019106276187058663,0.011772827969630537, ,0.6300230026245117
0.01044979231023083,0.020574530559747423,-0.08101516739593582, ,0.01063889181736909,0.020624933299172293,-0.08120208902214093, ,0.0002706265953017671, ,0.0011215536470193638,0.0006244255392680937,-0.0025892316199404098,-0.00271140770053877,-0.00043666003962118796,-0.00044625721547529845, ,0.0028899671657186565, ,0.0027463436770312102, ,2.597841207065361e-05, ,0.13222090953959784,-0.2196731366073162,0.09100215058000001,3.0010824711505126,0.25578352756090456,-0.22401159760626715, ,0.009280884315647225,-0.00040133810216925596,0.00277892734124215,0.004355636640764092,-0.0019106276187058663,0.009270766842387193, ,0.6476809978485107
0.010470528975126818,0.020585264800235675,-0.08106096444729068, ,0.01066406874344418,0.020640088057235387,-0.08126403665029548, ,0.0002858348317851062, ,0.0011432430446942385,0.0006161233948603742,-0.0025868863215744243,-0.002515961901437829,-0.0022571735464700904,-0.0009065735999778537, ,0.002894580027859807, ,0.0033800734596341996, ,2.6254057071430565e-05, ,0.13239853239570498,-0.2196731366073162,0.09105140960000001,3.0010824711505126,0.25578352756090456,-0.22384824012598603, ,0.009544674750756744,-0.00030455033093145005,0.0027774736739319965,0.004057447938600094,-0.0019106276187058663,0.007575176433641041, ,0.6670589447021484
0.010496246419529955,0.020602479859140172,-0.0811260271913154, ,0.010689299215273375,0.020655051632324135,-0.08132604121978089, ,0.00028291126676583837, ,0.0013155514698616876,0.0008541733621855601,-0.0035225659579305284,-0.0036306447437190227,0.002405391665364138,0.003970991469607987, ,0.0038560029474176563, ,0.004355168168570281, ,2.6504499718146694e-05, ,0.13259932345043482,-0.21969630480593885,0.09112140926000001,3.001292161093997,0.25578352756090456,-0.2236848826457049, ,0.010165243477467995,-0.0005978399140264313,0.0037576814154281677,0.001989858371736329,-0.001785291003148741,0.01407216651244731, ,0.6857030391693115
0.010520904416935045,0.02061720641193434,-0.08119484326736752, ,0.010714582999135053,0.020669824966073468,-0.08138810212510043, ,0.0002786199769128702, ,0.0012219285709455803,0.0007888475785160374,-0.0032599980844668585,-0.003544361920849382,0.0030918389250509364,0.003954383275223843, ,0.003569730724487676, ,0.004703399727455105, ,2.6727188611684143e-05, ,0.13278466903941621,-0.21969630480593885,0.09119400150000001,3.001292161093997,0.2556468910611391,-0.22341010726172733, ,0.009441436528785098,-0.0005300399072093528,0.003477906445414847,0.001989858371736329,-0.001640772397526631,0.014006293484111327, ,0.7041549682617188
0.010547116597416667,0.020634222776027934,-0.0812679702512604, ,0.01073991986191853,0.020684408998204326,-0.08145021876213904, ,0.0002700116208913901, ,0.0012921619231859628,0.0008825770873813927,-0.0037121736008920384,-0.0027151381751197496,0.0020200119060767604,-0.0008363178239519367, ,0.004028505627904972, ,0.0033841428317613817, ,2.6910231321775074e-05, ,0.13297773736127183,-0.21969630480593885,0.0912717789,3.0015018510374816,0.2556468910611391,-0.22341010726172733, ,0.009432843487022467,-0.00041673900926905835,0.003944727964338782,0.005937449280756336,-0.001640772397526631,0.011799794972553755, ,0.7227890491485596
0.010560122543493174,0.020643048698564946,-0.08130311733224548, ,0.010765309571123387,0.02069880466652574,-0.0815123905281614, ,0.0002983382556760515, ,0.001292443333777881,0.0007840952826150351,-0.003407412982226922,-0.0020145197429022087,-0.0032467589806760375,-0.0032393066487971956, ,0.003727690761677342, ,0.0038209597241811227, ,2.7260443539684713e-05, ,0.13307041015576251,-0.21970402753881307,0.09130677873000001,3.0015018510374816,0.2556468910611391,-0.22332842852158677, ,0.009868681912054205,-5.7944071016253214e-05,0.003635055116385213,0.005937449280756336,-0.001640772397526631,0.006404946112541485, ,0.7383899688720703
0.010582728534455724,0.020656996749231226,-0.08136565252715994, ,0.010790751894858642,0.020713012906936584,-0.08157461682181129, ,0.0003001293135242378, ,0.0013500287895817106,0.0009047162430339589,-0.0037671555114554443,-0.0024369600013294974,-0.00020625622693200665,-0.001117692341485927, ,0.004102749061373126, ,0.0024456726928459133, ,2.760096132394155e-05, ,0.1332480330118697,-0.2197117502716873,0.0913754821,3.0015018510374816,0.25551025456137366,-0.2229719743974687, ,0.010030446444826119,-0.0005229136094392364,0.0040102748036253775,0.005454761542152465,-0.0017415812907779983,0.010083240390746562, ,0.756572961807251
0.01061400498901859,0.020677121970904242,-0.08145214536437458, ,0.010816246601842302,0.020727034653426384,-0.08163689704311053, ,0.0002784351425913129, ,0.0014024855782791606,0.0009520658599103885,-0.004020944766420137,-0.0030930506158421463,-0.00028872464220992106,0.0020207549930924685, ,0.004363644350023204, ,0.0031064968984515656, ,2.7860804047489482e-05, ,0.13347971499809644,-0.2197117502716873,0.09146751869000001,3.001711540980966,0.25551025456137366,-0.22264525943690644, ,0.01030908818661808,-0.0004132098562106126,0.004272749871244636,0.002610195457377627,-0.0017415812907779983,0.011010001782378636, ,0.7731850147247314
0.01062838266206783,0.020686793526869758,-0.08149363232290889, ,0.01084179346140062,0.020740870838077633,-0.08169923059345753, ,0.00030122943699433755, ,0.0014379433065158718,0.0009983033847857372,-0.004229829105026463,-0.0034299525463509922,0.006120645949036258,-0.001452850527685545, ,0.004577744516523113, ,0.007016186995062761, ,2.817783034200265e-05, ,0.13358011052546134,-0.2197117502716873,0.09151159255,3.0019212309244505,0.25551025456137366,-0.22256358069676588, ,0.01021800711312672,-0.00037746777291096736,0.004489518466741827,0.008734200230720801,-0.0017415812907779983,0.016672409965828815, ,0.7888948917388916
0.01065737919301852,0.020704728538296184,-0.08156749616501294, ,0.010867392243467323,0.020754522391066916,-0.08176161687562591, ,0.00029028909628412184, ,0.001389198331359733,0.000686941320226902,-0.003234410530267044,-0.006273478870063644,-0.0012554383841452913,0.014740252389965625, ,0.003586526433694597, ,0.006397863886919041, ,2.8449889651622836e-05, ,0.13380406977881384,-0.21971947300456152,0.09159066624000001,3.0021309208679354,0.25551025456137366,-0.22248190195662532, ,0.011718737630543796,0.0005862506213784649,0.003450034983755686,-0.009148032745812676,-0.0017415812907779983,0.014424082636136844, ,0.8044140338897705
0.010688481332200052,0.020721963394998093,-0.08164125760314918, ,0.01089304271858314,0.02076799024066703,-0.08182405529376392, ,0.0003174969038137496, ,0.001504853007127937,0.0008341740497275333,-0.0038627728204767313,-0.004591001201297389,-0.008707907548344185,0.011254492643996063, ,0.004228645501920749, ,0.009844030934572935, ,2.8788994741171232e-05, ,0.13405891996366326,-0.21971947300456152,0.09166973993000001,3.0021309208679354,0.25551025456137366,-0.22223686573620363, ,0.01207033090288359,0.0005393363145231761,0.004105363793814433,-0.009148032745812676,-0.0016691457599120598,0.006343918635901016, ,0.8202559947967529
0.010697068127071484,0.020727548690952335,-0.08166566807984064, ,0.010918744657895,0.020781275313248075,-0.08188654525339317, ,0.00031751182664242875, ,0.001525509411125018,0.0008719921589657614,-0.0039900600262847315,-0.003388719867736865,0.0011138091381268755,-0.003413219162943602, ,0.004359831224036555, ,0.0035670705245102147, ,2.911480615536851e-05, ,0.13412842455953128,-0.21971947300456152,0.09169566573000001,3.0019212309244505,0.25551025456137366,-0.22215518699606307, ,0.011609267939396529,0.0005069802279914815,0.004239768836837903,0.008799182218700567,-0.0016357365249587608,0.012531318015970579, ,0.8385269641876221
0.01073380629599158,0.020750217258443844,-0.08176290954542499, ,0.010944497833155441,0.020794378533279374,-0.08194908616140688, ,0.0002846100391167479, ,0.0015581259085880243,0.0007991509230429429,-0.0036085337541036534,-0.003455430165491401,0.004035044948797951,-0.004826227225428006, ,0.004010974245656415, ,0.005312399152505885, ,2.9337413306964012e-05, ,0.13440644294300336,-0.21971947300456152,0.09179936893000001,3.0021309208679354,0.25551025456137366,-0.22191015077564138, ,0.012509483464074713,0.0004085334634268952,0.0038596587157741706,0.011888112768230197,-0.0015132301165886673,0.016089071435260463, ,0.8546390533447266
0.010749593742246247,0.020757911180572602,-0.08179527077378271, ,0.010970302016721894,0.020807300823330904,-0.08201167742607014, ,0.00031302287198871733, ,0.0015626472742163895,0.0007471380717822178,-0.0033565880517766834,-0.001531547739397896,-0.0031562674574338624,-0.010245865699373562, ,0.0037771371634152174, ,0.0035082278025851932, ,2.9628388925450417e-05, ,0.13466129312785277,-0.21971947300456152,0.09187066488000001,3.00234061081142,0.25551025456137366,-0.2216651145552197, ,0.013460559086307911,0.00035371189888867794,0.003910830228332925,0.01303338602709261,-0.0014277203415932996,0.014602850542826774, ,0.8700480461120605
0.010782244575419151,0.020775428575908972,-0.08187008823642085, ,0.010996156981556074,0.020820043104074884,-0.08207431845701682, ,0.0002990969017349295, ,0.0017751754082715504,0.0009304901677212429,-0.004137169214199771,-0.00265519659976646,-0.0005619851085923778,-0.00593802932506698, ,0.004597089164817268, ,0.0027140182449004353, ,2.9871620170163354e-05, ,0.13480802505246303,-0.21971947300456152,0.09191473874000002,3.00234061081142,0.25551025456137366,-0.2216651145552197, ,0.014227427520010612,0.0003298722128346906,0.004428360166805671,0.011623719786170014,-0.0013853498848444817,0.012862503878675623, ,0.8864290714263916
0.010818047855559183,0.020794886237670493,-0.0819618050462339, ,0.011022062501223291,0.020832606294287334,-0.0821370086652503, ,0.0002715531005771622, ,0.001668184042143505,0.000956812226220943,-0.004241292373705678,-0.0012667973324762037,-0.0038555629838983043,-0.006894468454144349, ,0.004656918362389668, ,0.004058342029935737, ,3.003425496023111e-05, ,0.13496247970994754,-0.21971947300456152,0.09196659034000002,3.00234061081142,0.2553736180616082,-0.2214720179113827, ,0.012799695381504016,0.00030735880153133873,0.004522660851788757,0.010400053128504274,-0.0008473666745618959,0.007717372426947885, ,0.9019529819488525
0.01083507799720553,0.020804557466278063,-0.08200292693650232, ,0.011048018349891747,0.02084499131085018,-0.08219974746314068, ,0.00029277433168775787, ,0.0016179560738744092,0.0009161973975878805,-0.0039579478852763104,-0.003630209361434401,5.8910711000212824e-05,0.005791449763504268, ,0.004372933911105577, ,0.0036306871950669744, ,3.032289291388847e-05, ,0.1352096071619227,-0.2197117502716873,0.09205473806000002,3.002550300754904,0.2553736180616082,-0.2210636242106799, ,0.012823911021414969,0.0,0.0042318840382571735,0.00047178060818725873,-0.0008473666745618959,0.014778699107189472, ,0.915471076965332
0.010845928299947787,0.02081027319309507,-0.0820269986587526, ,0.01107402430233197,0.020857199068751827,-0.08226253426442565, ,0.00033122023737925326, ,0.0016954088843785938,0.0008898022501900795,-0.0038094421722647772,-0.00189015407636431,0.0017943025518768379,-0.006697661911865221, ,0.004263567636792288, ,0.0026061855800812656, ,3.069986988332262e-05, ,0.13530227995641342,-0.2197117502716873,0.09208196015,3.002759990698389,0.2553736180616082,-0.22098194547053934, ,0.013715412857128309,0.0,0.0040948101593830345,0.013262877743129441,-0.0008473666745618959,0.014467119191011296, ,0.9304521083831787
0.010884387090908495,0.020830897800183972,-0.08211506656004192, ,0.011100080133916123,0.020869230481089962,-0.08232536848420684, ,0.00030367710242097483, ,0.001723066370729674,0.0009196832735691744,-0.003941509715055996,-0.0026655408820700785,0.004581903309006972,-0.004445438870424925, ,0.004398894619731557, ,0.005300843817335671, ,3.099707854780282e-05, ,0.1356189120042566,-0.2197117502716873,0.09217658932000002,3.002759990698389,0.2553736180616082,-0.22073690925011766, ,0.013821284817720766,0.0,0.0042330086420409255,0.012491130109569452,-0.0008473666745618959,0.01794563407738958, ,0.9435749053955078
0.010901010813975992,0.02083986375409895,-0.08215641489569506, ,0.011126185620617166,0.020881086459072135,-0.08238824953895088, ,0.00032580716192980063, ,0.0017065685425752927,0.0009759140861548307,-0.00426949498031386,-0.0023664653616704097,0.0022882641556873275,-0.0048173783479834725, ,0.004700358697055813, ,0.0032918550599191844, ,3.133978612290817e-05, ,0.13575019846311842,-0.21970402753881307,0.09222066318000001,3.002759990698389,0.2553736180616082,-0.2205735517698365, ,0.013103692565378458,0.00017762754888152107,0.004560209424563414,0.011435309132925795,-0.0008473666745618959,0.014785919497209567, ,0.9575750827789307
0.01091860136545937,0.02085003444148255,-0.08220002350904078, ,0.011152340539008453,0.02089276791201771,-0.0824511768464868, ,0.00034574289532203294, ,0.0018189541915296322,0.0010617843805008072,-0.004641039719436248,-0.0029095777288186456,0.0033003098979796047,-0.0029856554010367978, ,0.005096590046192021, ,0.004399737018229499, ,3.1720714090503784e-05, ,0.13588920765485446,-0.21970402753881307,0.09226732962,3.002759990698389,0.2553736180616082,-0.22049187302969597, ,0.013849524453950785,0.00017095086830562603,0.0049529886567164175,0.01053576765864058,-0.0008473666745618959,0.017005859777455397, ,0.9721450805664062
0.010958316725086879,0.02087530864705116,-0.08230829591913366, ,0.011178544666263003,0.020904275747360014,-0.08251414982600605, ,0.0003028452904530692, ,0.0018448684956621818,0.0012020050763896957,-0.005269121812996836,-0.0016995767704526565,-0.005199115807265824,-0.00233604266510714, ,0.005710691783851804, ,0.005469859441930784, ,3.1988621247432464e-05, ,0.1361749487712008,-0.21970402753881307,0.09238269943,3.0031793705853578,0.2553736180616082,-0.22024683680927426, ,0.0132278981821119,0.00015243056216580035,0.005594946090621708,0.005758704615794245,-0.0008124095501972747,0.007819696794172775, ,0.9858279228210449
0.01097648525184898,0.02088568526090654,-0.08235581391774424, ,0.011204797780152655,0.020915610870647017,-0.08257716789806005, ,0.00031940528690115136, ,0.0017472163677170207,0.0009807945634839734,-0.004227023649240687,-0.0019620548330743174,-0.0038261908301845614,-0.001382898409203423, ,0.004677868311808065, ,0.004299929544478277, ,3.228785495498307e-05, ,0.13631395796293683,-0.21969630480593885,0.09243325474000001,3.0031793705853578,0.2553736180616082,-0.2201651580691337, ,0.013751187010356585,1.3432234806282339e-05,0.004526516487638534,0.005758704615794245,-0.0007948173799875346,0.009971250487239725, ,0.9991469383239746
0.011012225543354265,0.02090431845526233,-0.08243798217823034, ,0.011231099659047603,0.020926774185543274,-0.08264023048456026, ,0.0002988553425259669, ,0.0018775639268752997,0.0009998618291364649,-0.004322275107788457,-0.005028351917900871,0.011770595489697645,0.0027443766165815313, ,0.0048173677547261465, ,0.01279965779557367, ,3.253120729941841e-05, ,0.13659969907928313,-0.21968858207306463,0.09252140246000001,3.0033890605288422,0.2553736180616082,-0.21967508562829033, ,0.015012963385298337,9.82652883572764e-05,0.004639910142732305,0.009628396637333007,-0.0007632094209817848,0.028159698511447815, ,1.0166869163513184
0.011030013164596572,0.020913640940526262,-0.08247772507691632, ,0.01125745008191566,0.020937766593832032,-0.0827033370087765, ,0.00032126366477508656, ,0.0017912427453918498,0.0009144063162230649,-0.003947382157213741,-0.004530568180779506,0.009743039024459995,0.0018805562350682906, ,0.004430182318952232, ,0.01074489909279953, ,3.281905300941516e-05, ,0.1367464310038934,-0.21968858207306463,0.09256418003000001,3.0033890605288422,0.2553736180616082,-0.21959340688814977, ,0.014592794334687189,9.82652883572764e-05,0.004247683072000001,0.00931247215686445,-0.000747729956248749,0.025454865009729058, ,1.0298728942871094
0.011066036031014748,0.02093092105330835,-0.08256018748388974, ,0.011283848828321601,0.020948588995415983,-0.08276648689533589, ,0.0003005229076326501, ,0.0017289755139977955,0.0010303500925899235,-0.004093390548258135,-0.0028409133192069808,0.006376238548355574,0.0014312179950210398, ,0.00456144975001074, ,0.006980487473201962, ,3.305240568864074e-05, ,0.13703989485311394,-0.21966541387444197,0.09265232775000001,3.0033890605288422,0.2553736180616082,-0.21959340688814977, ,0.013622874182955895,-0.0008760861594670018,0.004408749382784391,0.007869990873321055,-0.0007183505012944768,0.02088081610454906, ,1.0435841083526611
0.011075870577614784,0.020936570458158762,-0.08258439792972533, ,0.011310295678426525,0.020959242288319406,-0.08282967957022105, ,0.0003400473833713508, ,0.0017845885325939504,0.0010348759650524598,-0.004106350435434673,-0.000985864907644505,-0.002904243041139965,-0.00246316541295299, ,0.004595414931461969, ,0.0030670109374719493, ,3.336736779806187e-05, ,0.13711712218185618,-0.21966541387444197,0.09267825355,3.0033890605288422,0.2553736180616082,-0.2195117281480092, ,0.014263781986843646,-0.0008760861594670018,0.004429591635150168,0.007540828179910807,-0.0007103893529084398,0.011146406132456358, ,1.0577359199523926
0.011122218864840187,0.020961839730853863,-0.08269174776760838, ,0.011336790412987074,0.020969727368689663,-0.08289291446077018, ,0.0002942298464507602, ,0.0018071502018627097,0.0009427054059941862,-0.004383356428432602,-0.00432774769712624,-0.001417953820289279,0.005874280159639597, ,0.004834076841886619, ,0.004554118086770255, ,3.357356437626886e-05, ,0.13748009062694472,-0.21966541387444197,0.09279362336000001,3.0038084404158116,0.2553736180616082,-0.21918501318744696, ,0.014942047167134431,0.0007449425498198064,0.0052208494001966576,0.012312218003063381,-0.0006782333065024005,0.009508997604002128, ,1.072983980178833
0.011141468741383689,0.020973421010797234,-0.08274149512174042, ,0.011363332813354962,0.02098004513079864,-0.08295619099567536, ,0.0003088071626147207, ,0.0019854532968968954,0.0010800602127444472,-0.004915049831851854,-0.001570940553452321,-0.004513783874759888,-0.00774369526975053, ,0.005409830839028081, ,0.004779340563521714, ,3.387928962731741e-05, ,0.13762682255155498,-0.21966541387444197,0.09284677125000002,3.0038084404158116,0.2553736180616082,-0.21918501318744696, ,0.01514474011466179,0.0007328248529529052,0.005244916536055319,0.011922942037594466,-0.0006658575494375867,0.009226276028298596, ,1.0839450359344482
0.011162034464153,0.020984357136713795,-0.08279122673641161, ,0.011389922661476114,0.020990196467044617,-0.08301950860498075, ,0.00032261391751644983, ,0.0020468470297413575,0.0011178140565585382,-0.004967917130382443,-0.000952525570316627,-0.0074448250320460815,-0.00780482373128547, ,0.005488104558274032, ,0.007505512753561046, ,3.420808248006389e-05, ,0.1377889999419137,-0.21965769114156772,0.09289991914000001,3.0038084404158116,0.2553736180616082,-0.21910333444730637, ,0.015792468224075682,0.0004555930956662705,0.005313145937291528,0.01097082316924678,-0.000653634012219715,0.006866444094587406, ,1.0973210334777832
0.011181016632643152,0.020994429026489764,-0.08284004063066527, ,0.011416559739890201,0.021000182267953485,-0.0830828667200829, ,0.0003383462204027001, ,0.0020521555127540362,0.0012322066443433604,-0.005612169678705343,-0.0026875104909894064,-0.006885375878306035,0.0009491373982152716, ,0.0061013214933709516, ,0.0073912859542380705, ,3.4563296509792936e-05, ,0.13792800913364975,-0.21964224567581928,0.09295177074000001,3.0040181303592957,0.2553736180616082,-0.21893997696702525, ,0.015003469021102098,0.0007459736188714321,0.005961381556886228,0.0026772727141827386,-0.000642932213195336,0.008656442297856106, ,1.1123969554901123
0.01122176781564886,0.021017178748119505,-0.08294905275904811, ,0.011443243831729684,0.02101000342218058,-0.08314626477372775, ,0.0002966406744453021, ,0.0019044326300795792,0.0011419990666592986,-0.005266907188265049,-0.0022007139029506864,-0.007151864353531594,0.00023856574509299256, ,0.0057158846070018395, ,0.007482800368908704, ,3.4823431366718016e-05, ,0.1382291957157445,-0.21962680021007083,0.09306714055000001,3.0040181303592957,0.2552369815618427,-0.2185835228429071, ,0.015154414174140972,0.0013037079385463254,0.005231136788177341,0.0026772727141827386,-0.00034642325468689413,0.0076121163908770325, ,1.1233348846435547
0.011242859181503261,0.021026005162593297,-0.08300088029513752, ,0.011469974720719566,0.02101966081651255,-0.08320970220001132, ,0.00030859084049243463, ,0.0019322587123129797,0.0009431737762322276,-0.004881043771903138,-0.002071063716047235,-0.004953990841663413,0.0018105182087689486, ,0.005333646858080875, ,0.005369481111306583, ,3.510300243461582e-05, ,0.13839137310610322,-0.21960363201144817,0.09312158473000001,3.0040181303592957,0.25510034506207735,-0.2183087474589296, ,0.014765355773840172,0.00240658028808875,0.005178417269180755,0.0026772727141827386,0.001974702526483216,0.010180320131217873, ,1.1345279216766357
0.011262017745903326,0.02103522365832482,-0.08304583369717879, ,0.011496752191176265,0.021029155335868188,-0.08327317843437722, ,0.0003268374425717712, ,0.0020264764125111734,0.0009560482518294008,-0.004611184619441202,-0.0011583942564152873,-0.004033622114190822,-0.0008138998406095955, ,0.005126759064444253, ,0.004196663261281994, ,3.541436546012753e-05, ,0.13853810503071348,-0.2195881865456997,0.09316954746000002,3.00422782030278,0.25510034506207735,-0.21822706871878902, ,0.01620784655140406,0.0016301345507268076,0.0049345760594795545,0.006302298723628031,0.001974702526483216,0.011967074725487078, ,1.146087884902954
0.011281656579149448,0.02104415825283544,-0.0830894434437442, ,0.011523576028007347,0.0210384878633009,-0.0833366929136162, ,0.00034596166464678085, ,0.002168171186393785,0.0010793810420188462,-0.005040341657161722,0.00021688420201110867,-0.0027158114355503166,-0.009055838866468385, ,0.0055920545194318065, ,0.00272445724088843, ,3.575833661561866e-05, ,0.13869255968819796,-0.21957274107995126,0.09321621390000001,3.004437510246265,0.25510034506207735,-0.2180637112385079, ,0.016921708551795787,0.0013875003878817108,0.005395938861788619,0.014939914125887615,0.001974702526483216,0.012137811148147258, ,1.1580729484558105
0.011306899743559438,0.02105659484228399,-0.08315432317939728, ,0.011550446016710568,0.021047659279999784,-0.08340024507586495, ,0.0003462256642731685, ,0.002215606466425643,0.0011118094004909053,-0.005775429298835127,-0.0016469232291730957,-0.004677118744499926,-0.004801839390557609, ,0.006284951530674702, ,0.0049586076117423316, ,3.6095905126092606e-05, ,0.13887790527717936,-0.21954185014845437,0.09328491727,3.0046472001897495,0.25510034506207735,-0.2180637112385079, ,0.016386969704450145,0.0028500852077671104,0.006117055115207375,0.00964718002149231,0.001974702526483216,0.010612725384140001, ,1.1691570281982422
0.011329083427041826,0.021067501438607975,-0.08320652032748468, ,0.011577361943373447,0.02105667046529105,-0.0834638343606045, ,0.0003577290081824666, ,0.0020698623902410595,0.001107046687676107,-0.005206512434215273,-0.003226900028543399,-0.011794061390482877,0.01921304011634286, ,0.005711186777795603, ,0.012227541210349038, ,3.644969650843193e-05, ,0.13904780540041228,-0.2195264046827059,0.09334065774000001,3.004856890133234,0.25510034506207735,-0.2180637112385079, ,0.01627455694708811,0.0013408199767245884,0.005550108543554008,-0.015835077631244338,0.001974702526483216,0.0087051820289858, ,1.1804571151733398
0.011365821502800981,0.021084213588954754,-0.0832957102830506, ,0.011604323594672351,0.021065522296640174,-0.08352746020865984, ,0.00033307752889574023, ,0.002110096308986856,0.0009260449390001465,-0.005029679621407612,-0.002981062140346374,-0.021051996655133437,0.014798502946221691, ,0.005532426479967967, ,0.021262015225126225, ,3.6747777627707783e-05, ,0.1393335465167586,-0.21948006828546057,0.09343528691000001,3.004856890133234,0.25510034506207735,-0.21790035375822678, ,0.017003573115655042,0.0029461090324623914,0.0053416537625754525,-0.015835077631244338,0.0019387498835087777,-0.0009749971228621441, ,1.196958065032959
0.011392989340049462,0.021095465496129447,-0.08335252512522644, ,0.011631330757872076,0.021074215649653127,-0.08359112206219788, ,0.00033791520498064893, ,0.002181207698350599,0.0009260486795608556,-0.0042109652030421635,0.0010804808423805275,-0.007243164995546676,-0.010013231227548575, ,0.004831921059112229, ,0.00732331049999945, ,3.704949253346534e-05, ,0.13956522850298533,-0.21945690008683788,0.09349621254000001,3.0046472001897495,0.25510034506207735,-0.2176553175378051, ,0.018348209891428997,0.0010355192775497479,0.0045641293753581665,0.014450877812969963,0.0018863240248009948,0.008752258489647953, ,1.2084369659423828
0.011414383173106175,0.02110395697397237,-0.08339734033888382, ,0.011658383220825009,0.021082751398078158,-0.08365481936472717, ,0.00035536058938075404, ,0.0022361132394129366,0.0008561305141420465,-0.004656039423840856,-0.0017488694976701509,-0.004285204578330509,-0.007268784960831236, ,0.005235634153861711, ,0.004628338860740946, ,3.74517500465661e-05, ,0.1397428513590925,-0.21943373188821522,0.09354417527000002,3.0046472001897495,0.25510034506207735,-0.21757363879766453, ,0.0182775311168087,0.002937104525675445,0.0049824246230841425,0.012963522548053984,0.0018487264858679027,0.012404382888735615, ,1.217379093170166
0.01143696714671878,0.02111329271479761,-0.08344582123135352, ,0.01168548077197051,0.02109113041380708,-0.08371855156109581, ,0.0003696376905596735, ,0.002289253644715282,0.0009958058073518401,-0.004926040257903681,-0.0011883788188195494,-0.004538062670327142,-0.0054228559958987505, ,0.005522516100319275, ,0.0046910824034781876, ,3.787531592397151e-05, ,0.1399281969480739,-0.21941056368959255,0.09359602687000002,3.0046472001897495,0.25510034506207735,-0.2174102813173834, ,0.018476818839266117,0.002043446292016615,0.005283187900497513,0.011331223296366561,0.0018119252817536907,0.01275272652812734, ,1.226449966430664
0.011461946616290427,0.02112436024636393,-0.08350431965075109, ,0.011712623200334294,0.021099353566877196,-0.08378231809749151, ,0.0003751629248699059, ,0.0023814476147839287,0.0011973744381741118,-0.00611574845868146,-0.002636787819197423,0.00019836324209222085,-0.0044101350536415096, ,0.006671384975926474, ,0.0026442370210948375, ,3.830296728376887e-05, ,0.14011354253705527,-0.21937967275809564,0.09365824879000001,3.0050665800767185,0.25510034506207735,-0.21732860257724285, ,0.01754426725059545,0.002759152974703725,0.006488314264765784,0.012029856613818416,0.0017751388478305728,0.01690482268253012, ,1.2356131076812744
0.01148700876528718,0.02113620600831194,-0.08356665169905717, ,0.011739810295527734,0.02110742172547281,-0.08384611842143934, ,0.0003779402036692621, ,0.0026755093370334064,0.0013519182422800208,-0.006890901002515415,-0.0018705956174486006,-0.0014978892852489083,-0.011042361153872585, ,0.007514688933870143, ,0.0023964108031429682, ,3.872939676106334e-05, ,0.14029888812603666,-0.21934878182659875,0.09372435958000001,3.005276270020203,0.25510034506207735,-0.21716524509696172, ,0.019514073937583958,0.003062088304958047,0.0073101475539238195,0.018291803374325084,0.0017428361070796732,0.01567328461857452, ,1.244642972946167
0.01148700876528718,0.02113620600831194,-0.08356665169905717, ,0.01176704184774712,0.021115335755926553,-0.08390995198180135, ,0.0004435190850897835, ,0.0026755093370334064,0.0013519182422800208,-0.006890901002515415,-0.0018705956174486006,-0.0014978892852489083,-0.011042361153872585, ,0.007514688933870143, ,0.0023964108031429682, ,3.927290240710012e-05, ,0.14029888812603666,-0.21934878182659875,0.09372435958000001,3.005276270020203,0.25510034506207735,-0.21716524509696172, ,0.019514073937583958,0.003062088304958047,0.0073101475539238195,0.018291803374325084,0.0017428361070796732,0.01567328461857452, ,1.2534809112548828
0.01151780636313313,0.021152341845553,-0.08364733311182027, ,0.011794317647773105,0.021123096522721586,-0.08397381822877469, ,0.00042884299112088103, ,0.0028170264991238744,0.0016234604025698262,-0.00809704740264707,-0.008561667575418368,-0.019749011697265374,0.042493664207544295, ,0.008725447760212193, ,0.021524998952063955, ,3.9780848914562705e-05, ,0.14050740191364072,-0.21931789089510184,0.09380732214000001,3.005695649907172,0.25510034506207735,-0.21692020887654004, ,0.0206387432706548,0.0028363521753199754,0.00852720102783726,-0.039374510318838166,0.0017085140752505304,0.01053447654169113, ,1.2621750831604004
0.01154498595579295,0.021168594213472017,-0.08372414026166371, ,0.011821637486970037,0.021130704888492457,-0.08403771661389105, ,0.0004198830781613352, ,0.00296076902107615,0.0017130514534349438,-0.008797004451063678,-0.01250732272364127,-0.00645078662782185,0.04383803263130891, ,0.009438643217661847, ,0.014072871673811514, ,4.026463311215655e-05, ,0.14070819296837056,-0.21928699996360496,0.09389158099000001,3.005695649907172,0.2552369815618427,-0.2168682692999553, ,0.021027463230328114,0.0035104346575295957,0.009266324328097734,-0.03459240471814026,0.0005585028888725191,0.025008959492320564, ,1.2710421085357666
0.011577003318396001,0.02118619448659024,-0.08381506249408094, ,0.01184900115728518,0.02113816171402711,-0.08410164659001564, ,0.0003980206221330651, ,0.002794982715915507,0.001414885666462765,-0.007809935264498459,-0.011620930227802627,-0.007178561339641593,0.03456723594999693, ,0.008414803542988085, ,0.013659346002293222, ,4.0701027384135265e-05, ,0.1409321522217231,-0.21924838629923382,0.09398750645000001,3.005695649907172,0.2552369815618427,-0.2167049118196742, ,0.020465158843750438,0.004374030457490141,0.008223444254001034,-0.026659454756505985,0.0005585028888725191,0.02158347501565732, ,1.281574010848999
0.011577003318396001,0.02118619448659024,-0.08381506249408094, ,0.01187640845124814,0.021145467858268638,-0.08416560761134527, ,0.00046280014160598077, ,0.002794982715915507,0.001414885666462765,-0.007809935264498459,-0.011620930227802627,-0.007178561339641593,0.03456723594999693, ,0.008414803542988085, ,0.013659346002293222, ,4.1249466199618695e-05, ,0.1409321522217231,-0.21924838629923382,0.09398750645000001,3.005695649907172,0.2552369815618427,-0.2167049118196742, ,0.020465158843750438,0.004374030457490141,0.008223444254001034,-0.026659454756505985,0.0005585028888725191,0.02158347501565732, ,1.290658950805664
0.01163456268149706,0.021211263138561295,-0.08395854417070746, ,0.011903859161970178,0.021152624178316266,-0.08422959913340784, ,0.000386561657253191, ,0.0026788270027520134,0.0009058764057668135,-0.005699549066748984,-0.008065878957631119,-0.0030323088213519956,0.006474214622793806, ,0.006362514105090656, ,0.008617035112651258, ,4.165157834563452e-05, ,0.14137234799555387,-0.21915571350474314,0.09413917238000001,3.005485959963688,0.2552369815618427,-0.2164598755992525, ,0.02177034676725643,0.004907327979550365,0.0060565823269962,0.0019370858917850977,0.0005585028888725191,0.02071093204993858, ,1.300065040588379
0.011662949555862528,0.021220177567363805,-0.08401978402881131, ,0.011931353083143564,0.021159631529427663,-0.08429362061306143, ,0.00038819164215685945, ,0.002817866771597181,0.0009499439888372048,-0.006289776796938186,-0.012432365272050999,0.011610122687797217,0.013915926228999707, ,0.006957302557723176, ,0.017010545118816736, ,4.205083119027293e-05, ,0.14159630724890637,-0.21909393164174934,0.09420398688,3.005695649907172,0.2552369815618427,-0.21621483937883082, ,0.022381354141148765,0.005909254842531868,0.00665363889724311,0.0018348957277961086,0.0005585028888725191,0.0380510415382195, ,1.3087680339813232
0.011662949555862528,0.021220177567363805,-0.08401978402881131, ,0.011958890009040858,0.021166490765020213,-0.08435767150849209, ,0.0004523615517462796, ,0.002984776753083467,0.001078796126510362,-0.0068064546877334604,-0.0079112468494735,0.0038368898063800986,-0.00619944185569341, ,0.007510027880406972, ,0.008792584119082172, ,4.2635435237182355e-05, ,0.14159630724890637,-0.21909393164174934,0.09420398688,3.005695649907172,0.2552369815618427,-0.21621483937883082, ,0.022381354141148765,0.005909254842531868,0.00665363889724311,0.0018348957277961086,0.0005585028888725191,0.0380510415382195, ,1.3156371116638184
0.011692348587339214,0.02123064817812039,-0.0840845308640474, ,0.011986469734514317,0.0211732027366723,-0.08442175127921397, ,0.00045113726997875696, ,0.002984776753083467,0.001078796126510362,-0.0068064546877334604,-0.0079112468494735,0.0038368898063800986,-0.00619944185569341, ,0.007510027880406972, ,0.008792584119082172, ,4.3211604513951e-05, ,0.1418202665022589,-0.21903987251162976,0.09427269025000001,3.0061150297941412,0.2552369815618427,-0.21596980315840913, ,0.02301647867049983,0.0058474425035095375,0.007204347137042063,0.01732961656742404,0.0005585028888725191,0.026123601608223326, ,1.3233520984649658
0.011723436611622473,0.021241643123178784,-0.08415834512808082, ,0.01201409205499509,0.021179768294125413,-0.08448585938606731, ,0.0004422382507393051, ,0.0031037727534110366,0.0011609108976982272,-0.007706923101757399,-0.011712809558616536,0.01530665678230076,-0.0008478324388511843, ,0.008389146745266357, ,0.019273910408057524, ,4.376586592742166e-05, ,0.14205967122135985,-0.21897036791576174,0.09435046765,3.0061150297941412,0.2552369815618427,-0.21572476693798745, ,0.022861224176938276,0.007175743599964527,0.008106265404580152,0.01732961656742404,0.0005585028888725191,0.03896679757059734, ,1.331928014755249
0.011754298227633983,0.02125503649590628,-0.0842407266278594, ,0.012041756766492741,0.021186188285285512,-0.08454999529121732, ,0.0004278078935733694, ,0.0032484426562155062,0.0013211035431854212,-0.008822628736746215,-0.008885473486351853,0.0022267147835830906,-0.007409519674979206, ,0.009494022966529923, ,0.009160231675502624, ,4.428881177537775e-05, ,0.1422681850089639,-0.21890086331989372,0.09443083763000001,3.0061150297941412,0.2553736180616082,-0.21567282736140278, ,0.022621440180803525,0.00810796237426075,0.009196773394919169,0.01732961656742404,0.001533120207126228,0.024521628693634088, ,1.338573932647705
0.011754298227633983,0.02125503649590628,-0.0842407266278594, ,0.01206946366559449,0.021192463556224696,-0.08461415845815373, ,0.0004926418150565422, ,0.0032484426562155062,0.0013211035431854212,-0.008822628736746215,-0.008885473486351853,0.0022267147835830906,-0.007409519674979206, ,0.009494022966529923, ,0.009160231675502624, ,4.4919996652097767e-05, ,0.1422681850089639,-0.21890086331989372,0.09443083763000001,3.0061150297941412,0.2553736180616082,-0.21567282736140278, ,0.022621440180803525,0.00810796237426075,0.009196773394919169,0.01732961656742404,0.001533120207126228,0.024521628693634088, ,1.3451220989227295
0.011789707374261117,0.021268883445869816,-0.08433613331160238, ,0.012097212549464484,0.02119859495118249,-0.08467834835168905, ,0.00046541491050866574, ,0.003508037591586516,0.0013876353025662688,-0.009598749152204135,-0.011081216290666804,-9.76988311124162e-05,-0.0014249998917674352, ,0.010313478790585256, ,0.011081643292308983, ,4.5497055850269445e-05, ,0.14253075792668754,-0.21880046779252882,0.09453713341000002,3.0063247197376257,0.2553736180616082,-0.2154277911409811, ,0.024483215056365006,0.00947397352412366,0.010037058298676748,0.011360224708378155,0.001533120207126228,0.02465014031097783, ,1.3519558906555176
0.01182183782235225,0.021281242361222183,-0.08442562407719449, ,0.012125003215843191,0.021204583312568165,-0.08474256443795737, ,0.0004452382034726582, ,0.0035543086492746826,0.001336033857020497,-0.009611240595194621,-0.012410267203766676,0.00278161913798506,0.00012158263083454418, ,0.010334120292513096, ,0.012718178135328367, ,4.6033075009856e-05, ,0.14275471718004007,-0.2187077949980381,0.09463046629,3.0063247197376257,0.2553736180616082,-0.21526443366069997, ,0.024946619757747313,0.010074397558471716,0.010043386834804543,0.011360224708378155,0.001533120207126228,0.028443996284749938, ,1.358583927154541
0.01182183782235225,0.021281242361222183,-0.08442562407719449, ,0.012152835463046775,0.021210429480961246,-0.08480680618441348, ,0.0005097780899765133, ,0.0035543086492746826,0.001336033857020497,-0.009611240595194621,-0.012410267203766676,0.00278161913798506,0.00012158263083454418, ,0.010334120292513096, ,0.012718178135328367, ,4.667500741909079e-05, ,0.14275471718004007,-0.2187077949980381,0.09463046629,3.0063247197376257,0.2553736180616082,-0.21526443366069997, ,0.024946619757747313,0.010074397558471716,0.010043386834804543,0.011360224708378155,0.001533120207126228,0.028443996284749938, ,1.3664019107818604
0.011850854146666347,0.02129209073989219,-0.08450243999469911, ,0.012180709089966362,0.021216134295114174,-0.08487107305983174, ,0.0005004637867337145, ,0.0038417490006333508,0.0013627499580631487,-0.009974458822923022,-0.012171214023456943,-0.004006950285138466,-0.0019902035900464946, ,0.010775247173139713, ,0.012813820767550877, ,4.7294318010974716e-05, ,0.14296323096764413,-0.21863056766929587,0.09471083627000002,3.0063247197376257,0.2553736180616082,-0.2151827549205594, ,0.02762647498063196,0.010746746849658451,0.010438277536041943,0.011360224708378155,0.001533120207126228,0.023780770272940916, ,1.3738429546356201
0.01189762803734046,0.0213073303164795,-0.08462150427332356, ,0.012208623896067416,0.021221698591953223,-0.08493536453430485, ,0.00045006608382981527, ,0.004146162666481647,0.0013233885715976993,-0.010338907873494903,-0.016172494119765356,0.005044251324751101,0.0037045805957478433, ,0.011217621770454577, ,0.016940894880363568, ,4.782112677985829e-05, ,0.14329530848123578,-0.21849155847755983,0.09483528011,3.0067440996245947,0.2553736180616082,-0.21493771870013773, ,0.030464507723425613,0.012146095653701143,0.010821203478260872,0.011282568257669625,0.001533120207126228,0.037290718137184264, ,1.3808538913726807
0.011942805802780062,0.021321329650016853,-0.08472895447247045, ,0.012236579681389035,0.02122712320658038,-0.08499968007924284, ,0.000410451336823491, ,0.003901047092224553,0.0011597367035726964,-0.009454880313530659,-0.0043590208094303005,-0.028935243810362634,-0.0340636524547282, ,0.010293586322587329, ,0.029261738178451114, ,4.827518793034114e-05, ,0.14362738599482744,-0.21836799475157223,0.09494805734,3.0071634795115636,0.2553736180616082,-0.21469268247971604, ,0.028523276693258423,0.01176088864602258,0.009899820708514607,0.03016531289540539,0.001533120207126228,-0.008109855729619577, ,1.3876030445098877
0.011942805802780062,0.021321329650016853,-0.08472895447247045, ,0.012264576246543235,0.0212324089722748,-0.08506401916737132, ,0.00047298145331362365, ,0.003901047092224553,0.0011597367035726964,-0.009454880313530659,-0.0043590208094303005,-0.028935243810362634,-0.0340636524547282, ,0.010293586322587329, ,0.029261738178451114, ,4.883044324256212e-05, ,0.14362738599482744,-0.21836799475157223,0.09494805734,3.0071634795115636,0.2553736180616082,-0.21469268247971604, ,0.028523276693258423,0.01176088864602258,0.009899820708514607,0.03016531289540539,0.001533120207126228,-0.008109855729619577, ,1.3941230773925781
0.011982024393075904,0.02132926109573107,-0.08481987845712, ,0.012292613392714492,0.021237556720494752,-0.0851283812727313, ,0.00044726860651523914, ,0.0036642992737883342,0.0005354975446637301,-0.008112933318586606,-0.014021487587488413,-0.0002707768667615622,-0.020827823047149065, ,0.008918157535055057, ,0.014024100653181364, ,4.942000094918963e-05, ,0.14392857257692218,-0.21822126282696197,0.09504268651000002,3.0071634795115636,0.2553736180616082,-0.2143659675191538, ,0.02796844726155932,0.015298555788887759,0.008427942603174603,0.03016531289540539,0.001533120207126228,0.023787248430682542, ,1.3986148834228516
0.011982024393075904,0.02132926109573107,-0.08481987845712, ,0.012320690921658816,0.021242567280878363,-0.08519276587067708, ,0.0005111319382560674, ,0.0036642992737883342,0.0005354975446637301,-0.008112933318586606,-0.014021487587488413,-0.0002707768667615622,-0.020827823047149065, ,0.008918157535055057, ,0.014024100653181364, ,5.01129285733202e-05, ,0.14392857257692218,-0.21822126282696197,0.09504268651000002,3.0071634795115636,0.2553736180616082,-0.2143659675191538, ,0.02796844726155932,0.015298555788887759,0.008427942603174603,0.03016531289540539,0.001533120207126228,0.023787248430682542, ,1.4030709266662598
0.01201784201732206,0.021335635549297294,-0.08490192938975438, ,0.012348808635703212,0.021247441481246326,-0.08525717243787617, ,0.0004934721059603003, ,0.003960856825271125,0.0006290211073781524,-0.008767580022446828,-0.013672078902561405,-0.002960747853355544,-0.021030656229608265, ,0.009641292122627175, ,0.013988985580119512, ,5.077163250768144e-05, ,0.14420659096039426,-0.2180668081694775,0.09512824165000001,3.0071634795115636,0.25551025456137366,-0.21447738542285022, ,0.030250858003975385,0.01602176963675009,0.009123030652920965,0.03016531289540539,0.0024984910308462967,0.023186477968011425, ,1.4075369834899902
0.01201784201732206,0.021335635549297294,-0.08490192938975438, ,0.012376966337745059,0.021252180147602665,-0.08532160045230709, ,0.0005586223074094098, ,0.003960856825271125,0.0006290211073781524,-0.008767580022446828,-0.013672078902561405,-0.002960747853355544,-0.021030656229608265, ,0.009641292122627175, ,0.013988985580119512, ,5.1534702695317575e-05, ,0.14420659096039426,-0.2180668081694775,0.09512824165000001,3.0071634795115636,0.25551025456137366,-0.21447738542285022, ,0.030250858003975385,0.01602176963675009,0.009123030652920965,0.03016531289540539,0.0024984910308462967,0.023186477968011425, ,1.4121079444885254
0.01201784201732206,0.021335635549297294,-0.08490192938975438, ,0.012405163831251296,0.021256784104136613,-0.08538604939325886, ,0.000624986332444589, ,0.003960856825271125,0.0006290211073781524,-0.008767580022446828,-0.013672078902561405,-0.002960747853355544,-0.021030656229608265, ,0.009641292122627175, ,0.013988985580119512, ,5.240311688342732e-05, ,0.14420659096039426,-0.2180668081694775,0.09512824165000001,3.0071634795115636,0.25551025456137366,-0.21447738542285022, ,0.030250858003975385,0.01602176963675009,0.009123030652920965,0.03016531289540539,0.0024984910308462967,0.023186477968011425, ,1.4178600311279297
0.012048907749462906,0.02134167945176185,-0.08497288419487045, ,0.01243340092025793,0.02126125417322435,-0.0854505187413293, ,0.000618415704673484, ,0.004366010379138242,0.0010912082895616752,-0.010460274930697932,-0.013796281408973873,-0.0035544879641844817,-0.01605935276625617, ,0.011387279472628157, ,0.014246811579124588, ,5.3254873883272476e-05, ,0.14444599567949523,-0.2179509671763641,0.09520213018000001,3.0071634795115636,0.25551025456137366,-0.2143140279425691, ,0.03213577431712522,0.01511820002524626,0.010917622700479782,0.02623211053545904,0.0024984910308462967,0.02561859864145787, ,1.422544002532959
0.012048907749462906,0.02134167945176185,-0.08497288419487045, ,0.0124616774093692,0.021265591175430146,-0.0855150079784249, ,0.0006856138961760321, ,0.004366010379138242,0.0010912082895616752,-0.010460274930697932,-0.013796281408973873,-0.0035544879641844817,-0.01605935276625617, ,0.011387279472628157, ,0.014246811579124588, ,5.421207082279229e-05, ,0.14444599567949523,-0.2179509671763641,0.09520213018000001,3.0071634795115636,0.25551025456137366,-0.2143140279425691, ,0.03213577431712522,0.01511820002524626,0.010917622700479782,0.02623211053545904,0.0024984910308462967,0.02561859864145787, ,1.4269568920135498
0.012116270339183404,0.021360603633135463,-0.08514198488808232, ,0.012489993103757023,0.02126979592950861,-0.08557951658775864, ,0.000582536464112061, ,0.00515099354415989,0.0014197568538312604,-0.013045960685655108,-0.017868675383844138,-0.01667622587620149,-0.003024351144733404, ,0.014097713794358162, ,0.02444147482342873, ,5.4993145489129154e-05, ,0.14493252785057137,-0.2177270079230116,0.09537842562000001,3.007373169455048,0.25551025456137366,-0.2139056342418663, ,0.03712712893523896,0.017891580233497507,0.013591136109215017,0.00997379581495739,0.0024356454877407477,0.020392653174399755, ,1.43137788772583
0.012116270339183404,0.021360603633135463,-0.08514198488808232, ,0.012518347809160293,0.021273869252405698,-0.08564404405384923, ,0.0006490397141887092, ,0.00515099354415989,0.0014197568538312604,-0.013045960685655108,-0.017868675383844138,-0.01667622587620149,-0.003024351144733404, ,0.014097713794358162, ,0.02444147482342873, ,5.5878290683234986e-05, ,0.14493252785057137,-0.2177270079230116,0.09537842562000001,3.007373169455048,0.25551025456137366,-0.2139056342418663, ,0.03712712893523896,0.017891580233497507,0.013591136109215017,0.00997379581495739,0.0024356454877407477,0.020392653174399755, ,1.4358890056610107
0.012168790015211423,0.021376941716129826,-0.08527981268508644, ,0.012546741331884177,0.02127781195926056,-0.0857085898625201, ,0.0005801066922210094, ,0.005477282252492693,0.0017604426293104406,-0.015280724218910042,-0.020746084590368582,-0.009574293996199511,-0.007126598862187713, ,0.016327899796941086, ,0.022848770168504114, ,5.6644821142898715e-05, ,0.14529549629565994,-0.21754166233403022,0.09552231381000001,3.0077925493420175,0.2556468910611391,-0.21360865844485988, ,0.0368102954066993,0.019502043065859183,0.015865350119521913,0.016564728628054512,0.0013922422826286522,0.02663044742888167, ,1.440601110458374
0.012168790015211423,0.021376941716129826,-0.08527981268508644, ,0.01257517347879955,0.02128162486340714,-0.08577315350089801, ,0.0006462336902672768, ,0.005477282252492693,0.0017604426293104406,-0.015280724218910042,-0.020746084590368582,-0.009574293996199511,-0.007126598862187713, ,0.016327899796941086, ,0.022848770168504114, ,5.7514224157550396e-05, ,0.14529549629565994,-0.21754166233403022,0.09552231381000001,3.0077925493420175,0.2556468910611391,-0.21360865844485988, ,0.0368102954066993,0.019502043065859183,0.015865350119521913,0.016564728628054512,0.0013922422826286522,0.02663044742888167, ,1.4450979232788086
0.012226767533859565,0.021396601246815472,-0.08544163602820447, ,0.012603644057342222,0.021285308776375796,-0.08583773445741215, ,0.0005579568921966387, ,0.006087616107401493,0.0020053270537078137,-0.01676935994952667,-0.009798066720483316,0.0012941811373181726,-0.07168136992521612, ,0.017952488395211838, ,0.00988310124183832, ,5.82344330093903e-05, ,0.14567391020649692,-0.21733314854642616,0.09569083151,3.008421619172471,0.25578352756090456,-0.21339336138799406, ,0.03944178784641346,0.02103212357235611,0.017446671982475355,0.08304208564422125,0.00421586244504677,0.02527026275608473, ,1.4522299766540527
0.012226767533859565,0.021396601246815472,-0.08544163602820447, ,0.012632152875512273,0.02128886450789468,-0.08590233222179286, ,0.0006230453137027856, ,0.006087616107401493,0.0020053270537078137,-0.01676935994952667,-0.009798066720483316,0.0012941811373181726,-0.07168136992521612, ,0.017952488395211838, ,0.00988310124183832, ,5.9055464529137476e-05, ,0.14567391020649692,-0.21733314854642616,0.09569083151,3.008421619172471,0.25578352756090456,-0.21339336138799406, ,0.03944178784641346,0.02103212357235611,0.017446671982475355,0.08304208564422125,0.00421586244504677,0.02527026275608473, ,1.4571809768676758
0.012239341501493868,0.021401973085418323,-0.08547461043039817, ,0.012660699741873426,0.021292292865891533,-0.08596694628507026, ,0.000657242049086106, ,0.00616151772730347,0.0020293352456731122,-0.01684674760319931,-0.009770323861055037,-0.006781324024373113,-0.05237603582963338, ,0.01805257341902001, ,0.011893032702884576, ,5.9926435643883566e-05, ,0.14575886026811338,-0.21729453488205502,0.09572583134000001,3.0086313091159558,0.2559201640606699,-0.21309638559098765, ,0.040710828639412604,0.021144594821406144,0.017542743964757714,0.06217132827024826,0.0067879882379749575,0.022281478462031407, ,1.4624249935150146
0.012239341501493868,0.021401973085418323,-0.08547461043039817, ,0.012689284465552427,0.0212955946564954,-0.08603157613957377, ,0.0007238617563066786, ,0.00616151772730347,0.0020293352456731122,-0.01684674760319931,-0.009770323861055037,-0.006781324024373113,-0.05237603582963338, ,0.01805257341902001, ,0.011893032702884576, ,6.089907475019421e-05, ,0.14575886026811338,-0.21729453488205502,0.09572583134000001,3.0086313091159558,0.2559201640606699,-0.21309638559098765, ,0.040710828639412604,0.021144594821406144,0.017542743964757714,0.06217132827024826,0.0067879882379749575,0.022281478462031407, ,1.4668889045715332
0.012361058327548441,0.02143841254876412,-0.08580242217372971, ,0.01271790685623827,0.02129877068403762,-0.08609622127892973, ,0.00048286502982584987, ,0.005974377616296829,0.001528654527776817,-0.014849402392039779,-0.014559473647821949,-0.033914062833840346,0.02655505622865542, ,0.016079015018592335, ,0.036907197249134494, ,6.147863635585306e-05, ,0.14660063815140387,-0.21685433910822424,0.09606675561000001,3.0086313091159558,0.2560568005604354,-0.2131261247545435, ,0.04391343894422526,0.021997436615315436,0.015494952840466926,-0.02185921874842835,0.013476599791158887,0.014693047564889242, ,1.4712409973144531
0.012361058327548441,0.02143841254876412,-0.08580242217372971, ,0.012746566724181594,0.021301821751054415,-0.08616088119806221, ,0.000543844317814433, ,0.005974377616296829,0.001528654527776817,-0.014849402392039779,-0.014559473647821949,-0.033914062833840346,0.02655505622865542, ,0.016079015018592335, ,0.036907197249134494, ,6.215205562801742e-05, ,0.14660063815140387,-0.21685433910822424,0.09606675561000001,3.0086313091159558,0.2560568005604354,-0.2131261247545435, ,0.04391343894422526,0.021997436615315436,0.015494952840466926,-0.02185921874842835,0.013476599791158887,0.014693047564889242, ,1.475635051727295
0.012361058327548441,0.02143841254876412,-0.08580242217372971, ,0.012775263880193974,0.02130474865828756,-0.08622555539318973, ,0.0006070205901535098, ,0.005974377616296829,0.001528654527776817,-0.014849402392039779,-0.014559473647821949,-0.033914062833840346,0.02655505622865542, ,0.016079015018592335, ,0.036907197249134494, ,6.302245264802619e-05, ,0.14660063815140387,-0.21685433910822424,0.09606675561000001,3.0086313091159558,0.2560568005604354,-0.2131261247545435, ,0.04391343894422526,0.021997436615315436,0.015494952840466926,-0.02185921874842835,0.013476599791158887,0.014693047564889242, ,1.477849006652832
0.012361058327548441,0.02143841254876412,-0.08580242217372971, ,0.012803998135647317,0.02130755220468627,-0.08629024336182543, ,0.0006717809276884554, ,0.006024325256687462,0.0008812498129858355,-0.012934088821246833,-0.015626385922025365,-0.0041781716687624626,-0.0001949083043353353, ,0.014295445067123734, ,0.01617531123354993, ,6.399335930678286e-05, ,0.1470485566581089,-0.2166226571219975,0.09620675493000001,3.0086313091159558,0.2561934370602008,-0.2128291489575371, ,0.046540922784929266,0.02471274519751843,0.013510442340966922,0.01759582146475696,0.014689532521562765,0.04158837954859114, ,1.4801299571990967
0.012420010307586762,0.02144951554140034,-0.08593650499518964, ,0.012832769302473143,0.021310233187409162,-0.08635494460277564, ,0.0006040374716767713, ,0.006024325256687462,0.0008812498129858355,-0.012934088821246833,-0.015626385922025365,-0.0041781716687624626,-0.0001949083043353353, ,0.014295445067123734, ,0.01617531123354993, ,6.48533021608752e-05, ,0.1470485566581089,-0.2166226571219975,0.09620675493000001,3.0086313091159558,0.2561934370602008,-0.2128291489575371, ,0.046540922784929266,0.02471274519751843,0.013510442340966922,0.01759582146475696,0.014689532521562765,0.04158837954859114, ,1.482537031173706
0.012420010307586762,0.02144951554140034,-0.08593650499518964, ,0.012861577193161933,0.021312792401825185,-0.08641965861613883, ,0.0006686643049903009, ,0.006024325256687462,0.0008812498129858355,-0.012934088821246833,-0.015626385922025365,-0.0041781716687624626,-0.0001949083043353353, ,0.014295445067123734, ,0.01617531123354993, ,6.581325606044504e-05, ,0.1470485566581089,-0.2166226571219975,0.09620675493000001,3.0086313091159558,0.2561934370602008,-0.2128291489575371, ,0.046540922784929266,0.02471274519751843,0.013510442340966922,0.01759582146475696,0.014689532521562765,0.04158837954859114, ,1.4848639965057373
0.012420010307586762,0.02144951554140034,-0.08593650499518964, ,0.012890421620762427,0.02131523064151586,-0.08648438490330373, ,0.0007345009405138647, ,0.006024325256687462,0.0008812498129858355,-0.012934088821246833,-0.015626385922025365,-0.0041781716687624626,-0.0001949083043353353, ,0.014295445067123734, ,0.01617531123354993, ,6.687466508338697e-05, ,0.1470485566581089,-0.2166226571219975,0.09620675493000001,3.0086313091159558,0.2561934370602008,-0.2128291489575371, ,0.046540922784929266,0.02471274519751843,0.013510442340966922,0.01759582146475696,0.014689532521562765,0.04158837954859114, ,1.4871571063995361
0.012420010307586762,0.02144951554140034,-0.08593650499518964, ,0.012919302398881023,0.021317548698276303,-0.08654912296694948, ,0.0008012544036922801, ,0.006024325256687462,0.0008812498129858355,-0.012934088821246833,-0.015626385922025365,-0.0041781716687624626,-0.0001949083043353353, ,0.014295445067123734, ,0.01617531123354993, ,0.00037332429048892243, ,0.1470485566581089,-0.2166226571219975,0.09620675493000001,3.0086313091159558,0.2561934370602008,-0.2128291489575371, ,0.046540922784929266,0.02471274519751843,0.013510442340966922,0.01759582146475696,0.014689532521562765,0.04158837954859114, ,1.4894750118255615
0.012420010307586762,0.02144951554140034,-0.08593650499518964, ,0.01294821934168106,0.021319747362117576,-0.08661387231104334, ,0.000868718046687212, ,0.006529003928699932,0.0006661695131555418,-0.013989953900149147,-0.01549397597670251,-0.03263651559102085,-0.010785699013322837, ,0.015452847124382465, ,0.03612761970560016, ,0.000377594926318218, ,0.14753508882918503,-0.2163446387385254,0.09634416167000001,3.00884099905944,0.2561934370602008,-0.21233907651669373, ,0.05039667634544386,0.029655294237022116,0.01454685983561644,0.015601950219328453,0.014689532521562765,0.01418424583196137, ,1.4918160438537598
0.012482896353146068,0.021454933608296624,-0.08606900878047066, ,0.012977172263882128,0.021321827421267214,-0.08667863244083998, ,0.000796031996996073, ,0.006529003928699932,0.0006661695131555418,-0.013989953900149147,-0.01549397597670251,-0.03263651559102085,-0.010785699013322837, ,0.015452847124382465, ,0.03612761970560016, ,0.00038117131153768684, ,0.14753508882918503,-0.2163446387385254,0.09634416167000001,3.00884099905944,0.2561934370602008,-0.21233907651669373, ,0.05039667634544386,0.029655294237022116,0.01454685983561644,0.015601950219328453,0.014689532521562765,0.01418424583196137, ,1.4941370487213135
0.012482896353146068,0.021454933608296624,-0.08606900878047066, ,0.013006160980759475,0.021323789662171654,-0.08674340286288046, ,0.0008636040664019459, ,0.006529003928699932,0.0006661695131555418,-0.013989953900149147,-0.01549397597670251,-0.03263651559102085,-0.010785699013322837, ,0.015452847124382465, ,0.03612761970560016, ,0.0003852597247145026, ,0.14753508882918503,-0.2163446387385254,0.09634416167000001,3.00884099905944,0.2561934370602008,-0.21233907651669373, ,0.05039667634544386,0.029655294237022116,0.01454685983561644,0.015601950219328453,0.014689532521562765,0.01418424583196137, ,1.4976720809936523
0.012482896353146068,0.021454933608296624,-0.08606900878047066, ,0.01303518530814327,0.021325634869497664,-0.08680818308499094, ,0.0009317295241270087, ,0.006529003928699932,0.0006661695131555418,-0.013989953900149147,-0.01549397597670251,-0.03263651559102085,-0.010785699013322837, ,0.015452847124382465, ,0.03612761970560016, ,0.000389851907902843, ,0.14753508882918503,-0.2163446387385254,0.09634416167000001,3.00884099905944,0.2561934370602008,-0.21233907651669373, ,0.05039667634544386,0.029655294237022116,0.01454685983561644,0.015601950219328453,0.014689532521562765,0.01418424583196137, ,1.5004549026489258
0.012528644553853528,0.02145983646665615,-0.08616903761179964, ,0.013064245062417988,0.02132736382613375,-0.08687297261628155, ,0.0008943944296541786, ,0.00705851632155134,0.0010041114638702732,-0.01584939494248603,-0.01986151919242169,0.0030904252684532327,-0.023781296293520236, ,0.0173791315242271, ,0.02010048936779273, ,0.0003940564289174375, ,0.1478748890756509,-0.21614384768379558,0.09644786487000001,3.009260378946409,0.2561934370602008,-0.21209404029627205, ,0.05237138055103244,0.03051348603166263,0.01648945291925466,0.04467532285716375,0.01386529405228137,0.0499786215399828, ,1.502837896347046
0.012528644553853528,0.02145983646665615,-0.08616903761179964, ,0.01309334006052162,0.02132897731319184,-0.08693777096714515, ,0.000962785596546446, ,0.00705851632155134,0.0010041114638702732,-0.01584939494248603,-0.01986151919242169,0.0030904252684532327,-0.023781296293520236, ,0.0173791315242271, ,0.02010048936779273, ,0.00039875666997222267, ,0.1478748890756509,-0.21614384768379558,0.09644786487000001,3.009260378946409,0.2561934370602008,-0.21209404029627205, ,0.05237138055103244,0.03051348603166263,0.01648945291925466,0.04467532285716375,0.01386529405228137,0.0499786215399828, ,1.5051639080047607
0.012528644553853528,0.02145983646665615,-0.08616903761179964, ,0.013122470119945287,0.021330476110008975,-0.08700257764925623, ,0.0010315773838443783, ,0.00705851632155134,0.0010041114638702732,-0.01584939494248603,-0.01986151919242169,0.0030904252684532327,-0.023781296293520236, ,0.0173791315242271, ,0.02010048936779273, ,0.00040394372500396163, ,0.1478748890756509,-0.21614384768379558,0.09644786487000001,3.009260378946409,0.2561934370602008,-0.21209404029627205, ,0.05237138055103244,0.03051348603166263,0.01648945291925466,0.04467532285716375,0.01386529405228137,0.0499786215399828, ,1.507460117340088
0.012528644553853528,0.02145983646665615,-0.08616903761179964, ,0.01315163505873215,0.021331860994148653,-0.08706739217557015, ,0.0011006978754316437, ,0.00705851632155134,0.0010041114638702732,-0.01584939494248603,-0.01986151919242169,0.0030904252684532327,-0.023781296293520236, ,0.0173791315242271, ,0.02010048936779273, ,0.0004096083928936176, ,0.1478748890756509,-0.21614384768379558,0.09644786487000001,3.009260378946409,0.2561934370602008,-0.21209404029627205, ,0.05237138055103244,0.03051348603166263,0.01648945291925466,0.04467532285716375,0.01386529405228137,0.0499786215399828, ,1.5097379684448242
0.012629992967034294,0.021482289715501205,-0.08640883807862697, ,0.013180834695477144,0.0213331327414027,-0.08713221406032143, ,0.0009213833206698238, ,0.008119061456341734,0.0019922493422551077,-0.020689703453196744,0.018729376538992974,-0.006494388399568167,-0.038311248413467405, ,0.022314839129036784, ,0.019823290218091153, ,0.0004137356100531031, ,0.14861627143157646,-0.21571909737571324,0.09669934513,3.009679758833378,0.256876619559028,-0.21183434241334853, ,0.05601944602034875,0.03522529382274342,0.02161304141112619,0.05899045810701088,0.05287590408106136,0.034124876757254105, ,1.5119578838348389
0.012629992967034294,0.021482289715501205,-0.08640883807862697, ,0.013210068849326077,0.021334292125792718,-0.0871970428190225, ,0.000989776756929616, ,0.008119061456341734,0.0019922493422551077,-0.020689703453196744,0.018729376538992974,-0.006494388399568167,-0.038311248413467405, ,0.022314839129036784, ,0.019823290218091153, ,0.0004183439392281152, ,0.14861627143157646,-0.21571909737571324,0.09669934513,3.009679758833378,0.256876619559028,-0.21183434241334853, ,0.05601944602034875,0.03522529382274342,0.02161304141112619,0.05899045810701088,0.05287590408106136,0.034124876757254105, ,1.5142180919647217
0.012629992967034294,0.021482289715501205,-0.08640883807862697, ,0.013239337339974937,0.021335339919571483,-0.0872618779684634, ,0.001058570668878727, ,0.008119061456341734,0.0019922493422551077,-0.020689703453196744,0.018729376538992974,-0.006494388399568167,-0.038311248413467405, ,0.022314839129036784, ,0.019823290218091153, ,0.0004234251037491518, ,0.14861627143157646,-0.21571909737571324,0.09669934513,3.009679758833378,0.256876619559028,-0.21183434241334853, ,0.05601944602034875,0.03522529382274342,0.02161304141112619,0.05899045810701088,0.05287590408106136,0.034124876757254105, ,1.5164849758148193
0.012629992967034294,0.021482289715501205,-0.08640883807862697, ,0.013268639987669535,0.02133627689322528,-0.0873267190267099, ,0.0011276946377849213, ,0.008119061456341734,0.0019922493422551077,-0.020689703453196744,0.018729376538992974,-0.006494388399568167,-0.038311248413467405, ,0.022314839129036784, ,0.019823290218091153, ,0.00042897053315100824, ,0.14861627143157646,-0.21571909737571324,0.09669934513,3.009679758833378,0.256876619559028,-0.21183434241334853, ,0.05601944602034875,0.03522529382274342,0.02161304141112619,0.05899045810701088,0.05287590408106136,0.034124876757254105, ,1.5186901092529297
0.012721893444318132,0.02150659102931495,-0.08666387433425622, ,0.013297976613204338,0.021337103815474358,-0.08739156551310259, ,0.000943468168461575, ,0.010063713582670702,0.003438593863098695,-0.02976984013505407,-0.003120044167732021,-0.027600790599657508,-0.025983809946612337, ,0.03161242857636925, ,0.027776157676839375, ,0.000432990045926872, ,0.1492263673286402,-0.21532523799912778,0.09696378829,3.009679758833378,0.2571498925585589,-0.21124039081933574, ,0.06255566351909743,0.03963949104363859,0.03092973110679612,0.03848284869872558,0.03618928351523136,0.025029818173631507, ,1.5209510326385498
0.012721893444318132,0.02150659102931495,-0.08666387433425622, ,0.013327347037922259,0.02133782145327557,-0.08745641694825551, ,0.0010115241068849958, ,0.010063713582670702,0.003438593863098695,-0.02976984013505407,-0.003120044167732021,-0.027600790599657508,-0.025983809946612337, ,0.03161242857636925, ,0.027776157676839375, ,0.00043747480608933805, ,0.1492263673286402,-0.21532523799912778,0.09696378829,3.009679758833378,0.2571498925585589,-0.21124039081933574, ,0.06255566351909743,0.03963949104363859,0.03092973110679612,0.03848284869872558,0.03618928351523136,0.025029818173631507, ,1.523197889328003
0.012721893444318132,0.02150659102931495,-0.08666387433425622, ,0.013356751083713725,0.02133843057182323,-0.0875212728540555, ,0.00108002517726059, ,0.010063713582670702,0.003438593863098695,-0.02976984013505407,-0.003120044167732021,-0.027600790599657508,-0.025983809946612337, ,0.03161242857636925, ,0.027776157676839375, ,0.0004424175012521939, ,0.1492263673286402,-0.21532523799912778,0.09696378829,3.009679758833378,0.2571498925585589,-0.21124039081933574, ,0.06255566351909743,0.03963949104363859,0.03092973110679612,0.03848284869872558,0.03618928351523136,0.025029818173631507, ,1.5254580974578857
0.012721893444318132,0.02150659102931495,-0.08666387433425622, ,0.013386188573016083,0.021338931934551376,-0.08758613275366059, ,0.00114889433031546, ,0.010063713582670702,0.003438593863098695,-0.02976984013505407,-0.003120044167732021,-0.027600790599657508,-0.025983809946612337, ,0.03161242857636925, ,0.027776157676839375, ,0.0004478104541458066, ,0.1492263673286402,-0.21532523799912778,0.09696378829,3.009679758833378,0.2571498925585589,-0.21124039081933574, ,0.06255566351909743,0.03963949104363859,0.03092973110679612,0.03848284869872558,0.03618928351523136,0.025029818173631507, ,1.5277059078216553
0.012721893444318132,0.02150659102931495,-0.08666387433425622, ,0.01341565932881298,0.02133932630313444,-0.08765099617149931, ,0.0012180714727286442, ,0.010063713582670702,0.003438593863098695,-0.02976984013505407,-0.003120044167732021,-0.027600790599657508,-0.025983809946612337, ,0.03161242857636925, ,0.027776157676839375, ,0.00045364576489264626, ,0.1492263673286402,-0.21532523799912778,0.09696378829,3.009679758833378,0.2571498925585589,-0.21124039081933574, ,0.06255566351909743,0.03963949104363859,0.03092973110679612,0.03848284869872558,0.03618928351523136,0.025029818173631507, ,1.5299301147460938
0.012829503991631247,0.021543774247764384,-0.0869918688801083, ,0.01344516317463357,0.02133961443748992,-0.08771586263326875, ,0.0009720516510771108, ,0.011448068651144373,0.003937666850162998,-0.03515877839862779,-0.051754889208612494,0.02503462619201542,0.005063634954838034, ,0.037184717217534455, ,0.05749128056933802, ,0.0004575435535105746, ,0.14986735415720084,-0.21490821042391967,0.09730341627000001,3.0103088286638315,0.2572865290583244,-0.2102899851012049, ,0.0682711809773171,0.04407661010611741,0.0363671495890411,0.03216280803618917,0.006001414014837474,0.0970933119903048, ,1.5322649478912354
0.012829503991631247,0.021543774247764384,-0.0869918688801083, ,0.01347469993455197,0.021339797095779118,-0.08778073166593435, ,0.0010393214027213185, ,0.011448068651144373,0.003937666850162998,-0.03515877839862779,-0.051754889208612494,0.02503462619201542,0.005063634954838034, ,0.037184717217534455, ,0.05749128056933802, ,0.00046188517925095326, ,0.14986735415720084,-0.21490821042391967,0.09730341627000001,3.0103088286638315,0.2572865290583244,-0.2102899851012049, ,0.0682711809773171,0.04407661010611741,0.0363671495890411,0.03216280803618917,0.006001414014837474,0.0970933119903048, ,1.5347790718078613
0.012829503991631247,0.021543774247764384,-0.0869918688801083, ,0.013504269433186514,0.021339875034409272,-0.08784560279772784, ,0.001107133638012187, ,0.011448068651144373,0.003937666850162998,-0.03515877839862779,-0.051754889208612494,0.02503462619201542,0.005063634954838034, ,0.037184717217534455, ,0.05749128056933802, ,0.00046666479746399945, ,0.14986735415720084,-0.21490821042391967,0.09730341627000001,3.0103088286638315,0.2572865290583244,-0.2102899851012049, ,0.0682711809773171,0.04407661010611741,0.0363671495890411,0.03216280803618917,0.006001414014837474,0.0970933119903048, ,1.5375161170959473
0.012868592170499243,0.021559435083733036,-0.08710974657349436, ,0.013533871495699176,0.021339849008034737,-0.0879104755581474, ,0.00106394620730681, ,0.011879145692051863,0.004210195756262521,-0.036038379246075676,-0.015673901848189484,0.033674989723728926,-0.0743929501293879, ,0.038178588624555296, ,0.037143173570172855, ,0.000471056572536373, ,0.15009903614342757,-0.21476147849930938,0.09742656382,3.010728208550801,0.2575598020578552,-0.2101044272078949, ,0.069623581480903,0.04582179698622442,0.03739157633802818,0.11332507968975189,0.03022473469377618,0.08532460052983232, ,1.5433399677276611
0.012868592170499243,0.021559435083733036,-0.08710974657349436, ,0.013563505947794707,0.02133971976955883,-0.08797534947795473, ,0.001131568983919201, ,0.011879145692051863,0.004210195756262521,-0.036038379246075676,-0.015673901848189484,0.033674989723728926,-0.0743929501293879, ,0.038178588624555296, ,0.037143173570172855, ,0.0004758778310136199, ,0.15009903614342757,-0.21476147849930938,0.09742656382,3.010728208550801,0.2575598020578552,-0.2101044272078949, ,0.069623581480903,0.04582179698622442,0.03739157633802818,0.11332507968975189,0.03022473469377618,0.08532460052983232, ,1.5456469058990479
0.012868592170499243,0.021559435083733036,-0.08710974657349436, ,0.013593172615720274,0.021339488070135557,-0.08804022408917547, ,0.0011996590838964391, ,0.011879145692051863,0.004210195756262521,-0.036038379246075676,-0.015673901848189484,0.033674989723728926,-0.0743929501293879, ,0.038178588624555296, ,0.037143173570172855, ,0.00048112262270117654, ,0.15009903614342757,-0.21476147849930938,0.09742656382,3.010728208550801,0.2575598020578552,-0.2101044272078949, ,0.069623581480903,0.04582179698622442,0.03739157633802818,0.11332507968975189,0.03022473469377618,0.08532460052983232, ,1.548011064529419
0.012868592170499243,0.021559435083733036,-0.08710974657349436, ,0.013622871326264397,0.021339154659170557,-0.08810509892509755, ,0.001268143057430511, ,0.011879145692051863,0.004210195756262521,-0.036038379246075676,-0.015673901848189484,0.033674989723728926,-0.0743929501293879, ,0.038178588624555296, ,0.037143173570172855, ,0.0004867846402172149, ,0.15009903614342757,-0.21476147849930938,0.09742656382,3.010728208550801,0.2575598020578552,-0.2101044272078949, ,0.069623581480903,0.04582179698622442,0.03739157633802818,0.11332507968975189,0.03022473469377618,0.08532460052983232, ,1.550429105758667
0.013074563618284844,0.021633000629112574,-0.08771614472187655, ,0.013652601906756661,0.021338720284323837,-0.08816997352026934, ,0.0007916373933304599, ,0.01241226953297958,0.003661901238263968,-0.03525480962300591,0.02221125407119531,-0.01489822794300747,-0.017798652505591876, ,0.037554967144074594, ,0.02674401879808426, ,0.0004889621598823096, ,0.15135784160192617,-0.21394286881464158,0.09805915334000001,3.0119863482117077,0.2589261670555097,-0.20933999522162622, ,0.0782332576739248,0.05398005776932354,0.03670233069124424,0.046493781918370315,0.08006352143557707,0.04913258357339182, ,1.5542941093444824
0.013074563618284844,0.021633000629112574,-0.08771614472187655, ,0.013682364185066818,0.021338185691510025,-0.08823484741049964, ,0.000851698218619072, ,0.01241226953297958,0.003661901238263968,-0.03525480962300591,0.02221125407119531,-0.01489822794300747,-0.017798652505591876, ,0.037554967144074594, ,0.02674401879808426, ,0.0004915347560435631, ,0.15135784160192617,-0.21394286881464158,0.09805915334000001,3.0119863482117077,0.2589261670555097,-0.20933999522162622, ,0.0782332576739248,0.05398005776932354,0.03670233069124424,0.046493781918370315,0.08006352143557707,0.04913258357339182, ,1.5565590858459473
0.013074563618284844,0.021633000629112574,-0.08771614472187655, ,0.013712157989604155,0.02133755162490091,-0.08829972013285571, ,0.0009134423663960538, ,0.01241226953297958,0.003661901238263968,-0.03525480962300591,0.02221125407119531,-0.01489822794300747,-0.017798652505591876, ,0.037554967144074594, ,0.02674401879808426, ,0.0004945059363981581, ,0.15135784160192617,-0.21394286881464158,0.09805915334000001,3.0119863482117077,0.2589261670555097,-0.20933999522162622, ,0.0782332576739248,0.05398005776932354,0.03670233069124424,0.046493781918370315,0.08006352143557707,0.04913258357339182, ,1.5588040351867676
0.013194635367219813,0.021654645657456943,-0.08802776405636922, ,0.013741983149316924,0.021336818826926722,-0.08836459122566269, ,0.000716977008519633, ,0.011437105854085134,0.0010694735163418647,-0.026538090685512723,-0.0475954277156196,0.02405058375141754,0.017937679624796234, ,0.028917493341439577, ,0.053326748967231226, ,0.0004960616781612454, ,0.15216872855371974,-0.2133791093148232,0.09838192955000001,3.0119863482117077,0.25933607655480595,-0.20836738909046645, ,0.08145660219611225,0.05569069340285844,0.02746346813793104,0.026091079543068083,0.025278675015251505,0.10968672661415381, ,1.561223030090332
0.013194635367219813,0.021654645657456943,-0.08802776405636922, ,0.013771839493691495,0.02133598803827766,-0.08842946022850184, ,0.0007720538171545729, ,0.011437105854085134,0.0010694735163418647,-0.026538090685512723,-0.0475954277156196,0.02405058375141754,0.017937679624796234, ,0.028917493341439577, ,0.053326748967231226, ,0.0004979782902375879, ,0.15216872855371974,-0.2133791093148232,0.09838192955000001,3.0119863482117077,0.25933607655480595,-0.20836738909046645, ,0.08145660219611225,0.05569069340285844,0.02746346813793104,0.026091079543068083,0.025278675015251505,0.10968672661415381, ,1.5634489059448242
0.013194635367219813,0.021654645657456943,-0.08802776405636922, ,0.013801726852751904,0.02133505999790586,-0.08849432668220994, ,0.0008296841262960541, ,0.011437105854085134,0.0010694735163418647,-0.026538090685512723,-0.0475954277156196,0.02405058375141754,0.017937679624796234, ,0.028917493341439577, ,0.053326748967231226, ,0.0005002659166931635, ,0.15216872855371974,-0.2133791093148232,0.09838192955000001,3.0119863482117077,0.25933607655480595,-0.20836738909046645, ,0.08145660219611225,0.05569069340285844,0.02746346813793104,0.026091079543068083,0.025278675015251505,0.10968672661415381, ,1.5656640529632568
0.013194635367219813,0.021654645657456943,-0.08802776405636922, ,0.013831645057058944,0.02133403544302622,-0.0885591901288778, ,0.0008893738949891343, ,0.011437105854085134,0.0010694735163418647,-0.026538090685512723,-0.0475954277156196,0.02405058375141754,0.017937679624796234, ,0.028917493341439577, ,0.053326748967231226, ,0.000502931039832177, ,0.15216872855371974,-0.2133791093148232,0.09838192955000001,3.0119863482117077,0.25933607655480595,-0.20836738909046645, ,0.08145660219611225,0.05569069340285844,0.02746346813793104,0.026091079543068083,0.025278675015251505,0.10968672661415381, ,1.5679080486297607
0.013194635367219813,0.021654645657456943,-0.08802776405636922, ,0.013861593937709723,0.02133291510911881,-0.0886240501118493, ,0.0009507372615207071, ,0.011437105854085134,0.0010694735163418647,-0.026538090685512723,-0.0475954277156196,0.02405058375141754,0.017937679624796234, ,0.028917493341439577, ,0.053326748967231226, ,0.0005059773406599901, ,0.15216872855371974,-0.2133791093148232,0.09838192955000001,3.0119863482117077,0.25933607655480595,-0.20836738909046645, ,0.08145660219611225,0.05569069340285844,0.02746346813793104,0.026091079543068083,0.025278675015251505,0.10968672661415381, ,1.5701580047607422
0.013305969902317614,0.021655790870395618,-0.08825663051878463, ,0.01389157332633684,0.02133169972992996,-0.08868890617572052, ,0.000796761370255065, ,0.011138774012447993,-0.0009950340507499222,-0.02037659110477264,-0.041862837183003855,-0.007261245404337909,0.014418899951916444, ,0.023243662454820627, ,0.04248787249320096, ,0.0005079420976167137, ,0.15301822916988445,-0.21279218161638214,0.09861915062000001,3.0119863482117077,0.2597459860541023,-0.2074764616994473, ,0.0885232663791705,0.06420632040491935,0.021042023143989435,0.018215396413358512,0.0356493817947255,0.0826199380049007, ,1.5723950862884521
0.013305969902317614,0.021655790870395618,-0.08825663051878463, ,0.01392158305510778,0.021330390037474136,-0.08875375786633768, ,0.000855570485488706, ,0.011138774012447993,-0.0009950340507499222,-0.02037659110477264,-0.041862837183003855,-0.007261245404337909,0.014418899951916444, ,0.023243662454820627, ,0.04248787249320096, ,0.0005102751740453848, ,0.15301822916988445,-0.21279218161638214,0.09861915062000001,3.0119863482117077,0.2597459860541023,-0.2074764616994473, ,0.0885232663791705,0.06420632040491935,0.021042023143989435,0.018215396413358512,0.0356493817947255,0.0826199380049007, ,1.5758869647979736
0.013305969902317614,0.021655790870395618,-0.08825663051878463, ,0.013951622956724214,0.02132898676203531,-0.0888186047307969, ,0.0009162334892769231, ,0.011138774012447993,-0.0009950340507499222,-0.02037659110477264,-0.041862837183003855,-0.007261245404337909,0.014418899951916444, ,0.023243662454820627, ,0.04248787249320096, ,0.000512981562813595, ,0.15301822916988445,-0.21279218161638214,0.09861915062000001,3.0119863482117077,0.2597459860541023,-0.2074764616994473, ,0.0885232663791705,0.06420632040491935,0.021042023143989435,0.018215396413358512,0.0356493817947255,0.0826199380049007, ,1.5784499645233154
0.013305969902317614,0.021655790870395618,-0.08825663051878463, ,0.013981692864421406,0.021327490632168666,-0.0888834463174428, ,0.000978407181791751, ,0.011138774012447993,-0.0009950340507499222,-0.02037659110477264,-0.041862837183003855,-0.007261245404337909,0.014418899951916444, ,0.023243662454820627, ,0.04248787249320096, ,0.000516063851681, ,0.15301822916988445,-0.21279218161638214,0.09861915062000001,3.0119863482117077,0.2597459860541023,-0.2074764616994473, ,0.0885232663791705,0.06420632040491935,0.021042023143989435,0.018215396413358512,0.0356493817947255,0.0826199380049007, ,1.5811219215393066
0.013393610685627548,0.021646676260647583,-0.08840998411308526, ,0.014011792611967385,0.021325902374702162,-0.0889482821758671, ,0.0008802326876187009, ,0.011233463255040599,-0.0012638058235954468,-0.018586504743799817,0.01757136634572743,-0.05629438810368764,0.018537466081704132, ,0.021754219371271272, ,0.058972949977816116, ,0.0005184596992858534, ,0.15372872059431308,-0.21225159031518642,0.09877859429000001,3.012196038155192,0.2604291685529295,-0.20721676381652376, ,0.09349452370292687,0.06817309020005086,0.019401719269183923,0.0,0.09275424953137033,0.028896811680815968, ,1.5847370624542236
0.013393610685627548,0.021646676260647583,-0.08840998411308526, ,0.014041922033662517,0.02132422271473825,-0.08901311185690777, ,0.0009423624401624117, ,0.011233463255040599,-0.0012638058235954468,-0.018586504743799817,0.01757136634572743,-0.05629438810368764,0.018537466081704132, ,0.021754219371271272, ,0.058972949977816116, ,0.0005212303054353733, ,0.15372872059431308,-0.21225159031518642,0.09877859429000001,3.012196038155192,0.2604291685529295,-0.20721676381652376, ,0.09349452370292687,0.06817309020005086,0.019401719269183923,0.0,0.09275424953137033,0.028896811680815968, ,1.587104082107544
0.013393610685627548,0.021646676260647583,-0.08840998411308526, ,0.014072080964338497,0.021322452375655127,-0.08907793491264754, ,0.001005783931731662, ,0.011233463255040599,-0.0012638058235954468,-0.018586504743799817,0.01757136634572743,-0.05629438810368764,0.018537466081704132, ,0.021754219371271272, ,0.058972949977816116, ,0.0005243767575541804, ,0.15372872059431308,-0.21225159031518642,0.09877859429000001,3.012196038155192,0.2604291685529295,-0.20721676381652376, ,0.09349452370292687,0.06817309020005086,0.019401719269183923,0.0,0.09275424953137033,0.028896811680815968, ,1.5894420146942139
0.013393610685627548,0.021646676260647583,-0.08840998411308526, ,0.014102269239358076,0.021320592079108757,-0.0891427508964133, ,0.0010702686569147991, ,0.011233463255040599,-0.0012638058235954468,-0.018586504743799817,0.01757136634572743,-0.05629438810368764,0.018537466081704132, ,0.021754219371271272, ,0.058972949977816116, ,0.0005278986407758618, ,0.15372872059431308,-0.21225159031518642,0.09877859429000001,3.012196038155192,0.2604291685529295,-0.20721676381652376, ,0.09349452370292687,0.06817309020005086,0.019401719269183923,0.0,0.09275424953137033,0.028896811680815968, ,1.5916740894317627
0.01355048616832963,0.021623167728751447,-0.08864565666729116, ,0.014132486694614074,0.021318642545034336,-0.08920755936277452, ,0.0008644043262876378, ,0.01137195127026387,-0.0021397186645060887,-0.01659620848179929,-0.0048436040545476525,-0.002778536186090405,-0.07348428202737803, ,0.02023199959538944, ,0.005583861076396312, ,0.0005300557285035013, ,0.15504158518293126,-0.21130941690453103,0.09902488939000001,3.013244487872615,0.261522260551053,-0.20655621098342444, ,0.09470752650545987,0.07024199967318341,0.017257650617551468,0.10754329476813908,0.0632394132554611,0.06963983519004202, ,1.5938808917999268
0.01355048616832963,0.021623167728751447,-0.08864565666729116, ,0.014162733166528843,0.021316604491647413,-0.08927235986754228, ,0.0009282156572438624, ,0.01137195127026387,-0.0021397186645060887,-0.01659620848179929,-0.0048436040545476525,-0.002778536186090405,-0.07348428202737803, ,0.02023199959538944, ,0.005583861076396312, ,0.0005325917790050324, ,0.15504158518293126,-0.21130941690453103,0.09902488939000001,3.013244487872615,0.261522260551053,-0.20655621098342444, ,0.09470752650545987,0.07024199967318341,0.017257650617551468,0.10754329476813908,0.0632394132554611,0.06963983519004202, ,1.5961170196533203
0.01355048616832963,0.021623167728751447,-0.08864565666729116, ,0.014193008492053622,0.0213144786354463,-0.08933715196776791, ,0.0009931211624926077, ,0.01137195127026387,-0.0021397186645060887,-0.01659620848179929,-0.0048436040545476525,-0.002778536186090405,-0.07348428202737803, ,0.02023199959538944, ,0.005583861076396312, ,0.000535506521938498, ,0.15504158518293126,-0.21130941690453103,0.09902488939000001,3.013244487872615,0.261522260551053,-0.20655621098342444, ,0.09470752650545987,0.07024199967318341,0.017257650617551468,0.10754329476813908,0.0632394132554611,0.06963983519004202, ,1.5983450412750244
0.01355048616832963,0.021623167728751447,-0.08864565666729116, ,0.014223312508667789,0.02131226569121299,-0.08940193522174197, ,0.001058920494239592, ,0.01137195127026387,-0.0021397186645060887,-0.01659620848179929,-0.0048436040545476525,-0.002778536186090405,-0.07348428202737803, ,0.02023199959538944, ,0.005583861076396312, ,0.0005387984337139766, ,0.15504158518293126,-0.21130941690453103,0.09902488939000001,3.013244487872615,0.261522260551053,-0.20655621098342444, ,0.09470752650545987,0.07024199967318341,0.017257650617551468,0.10754329476813908,0.0632394132554611,0.06963983519004202, ,1.600559949874878
0.013667628903496107,0.021601411517901375,-0.08883539811509573, ,0.01425364505437822,0.021309966372015154,-0.08946670918899358, ,0.0009093452997521752, ,0.012071281311518696,-0.001980502756804713,-0.020991947631414473,-0.021104650846503665,-0.015555291868826307,-0.008551873609532327, ,0.024296092052665162, ,0.026217729043537745, ,0.0005411143516267154, ,0.15504158518293126,-0.21130941690453103,0.09902488939000001,3.013244487872615,0.261522260551053,-0.20655621098342444, ,0.09470752650545987,0.07024199967318341,0.017257650617551468,0.10754329476813908,0.0632394132554611,0.06963983519004202, ,1.602843999862671
0.013667628903496107,0.021601411517901375,-0.08883539811509573, ,0.014284005967718675,0.021307581389207342,-0.08953147343028821, ,0.000975078291342949, ,0.012071281311518696,-0.001980502756804713,-0.020991947631414473,-0.021104650846503665,-0.015555291868826307,-0.008551873609532327, ,0.024296092052665162, ,0.026217729043537745, ,0.0005438097798237106, ,0.1559992040593351,-0.21056031181573126,0.09922062918,3.013663867759584,0.2620688065501148,-0.20569502275596113, ,0.09614685061648508,0.0783624620631468,0.021642406956521743,0.040656392533694234,0.06564321072881975,0.07239978086862173, ,1.6051700115203857
