NicholasDascanio/dvrk_moveit_final/test/execution/first_exp_nosummary/yes_joints_no_ramp/200vel3.csv
Current Position (x),Current Position (y),Current Position (z), ,Planned Position (x),Planned Position (y),Planned Position (z), ,Position Error,,Cartesian linear Velocity(x),Cartesian linear Velocity(y),Cartesian linear Velocity(z),Cartesian Angular Velocity(x),Cartesian Angular Velocity(y),Cartesian Angular Velocity(z), ,Total Linear Velocity, ,Total Angular Velocity, ,MSE, ,Joint 1 Position,Joint 2 Position,Joint 3 Position,Joint 4 Position,Joint 5 Position,Joint 6 Position, ,Joint 1 Velocity,Joint 2 Velocity,Joint 3 Velocity,Joint 4 Velocity,Joint 5 Velocity,Joint 6 Velocity, ,Time Stamp
0.0116738856182801,0.017837395684224273,-0.0798005891198178, ,0.011792149375318074,0.01796965929988738,-0.07985504191433301, ,0.00018559387675117802, ,-2.7519554840896825e-05,1.1907978799004618e-06,3.414818002048781e-06,3.260005476171487e-05,0.00032974827266502526,5.409728695417604e-06, ,2.7756168327401022e-05, ,0.00033135583123891855, ,9.279693837558901e-05, ,0.1644401510908625,-0.2142286099309879,0.08922104812000001,-4.529093089322242,0.17380162770164026,-1.3803816677334744, ,-0.00032974827266502526,-3.304585806156097e-05,-6.932628407472796e-06,0.0,0.0,0.0, ,0.0053560733795166016
0.0116738856182801,0.017837395684224273,-0.0798005891198178, ,0.011748943168301933,0.01817161927866898,-0.07997517997988744, ,0.0003844749865968883, ,-2.7519554840896825e-05,1.1907978799004618e-06,3.414818002048781e-06,3.260005476171487e-05,0.00032974827266502526,5.409728695417604e-06, ,2.7756168327401022e-05, ,0.00033135583123891855, ,0.00019002295444935547, ,0.1644401510908625,-0.2142286099309879,0.08922104812000001,-4.529093089322242,0.17380162770164026,-1.3803816677334744, ,-0.00032974827266502526,-3.304585806156097e-05,-6.932628407472796e-06,0.0,0.0,0.0, ,0.010622024536132812
0.011674055391432228,0.017845451648703565,-0.07980566909220356, ,0.011706608078896208,0.018372716611785293,-0.08009491442494698, ,0.0006022714348767986, ,-0.0001856012999468572,0.002811276093671431,-0.0017219389747232551,0.07061409080353251,-0.0001305971432865368,0.002793547847106826, ,0.003301938059694857, ,0.07061421156968496, ,0.00029308507455621624, ,0.1644169828922398,-0.21431355999260437,0.08922752957,-4.529093089322242,0.1736649912018748,-1.3805969647903402, ,-0.005765693664839545,-0.028940817797642814,0.0022450756194503175,0.0,0.0,-0.04251927664206401, ,0.01601409912109375
0.011674055391432228,0.017845451648703565,-0.07980566909220356, ,0.01166514220063885,0.01857295382396189,-0.08021424612392465, ,0.0008344303750617745, ,-0.0001856012999468572,0.002811276093671431,-0.0017219389747232551,0.07061409080353251,-0.0001305971432865368,0.002793547847106826, ,0.003301938059694857, ,0.07061421156968496, ,0.00040135413465732797, ,0.1644169828922398,-0.21431355999260437,0.08922752957,-4.529093089322242,0.1736649912018748,-1.3805969647903402, ,-0.005765693664839545,-0.028940817797642814,0.0022450756194503175,0.0,0.0,-0.04251927664206401, ,0.021937131881713867
0.011684819899160452,0.017901039325543794,-0.07984885587709346, ,0.011624543622451146,0.018772333437746196,-0.08033317595616456, ,0.000998675421988515, ,0.0024432012697629233,0.006085657865668133,-0.00581605858179027,-0.33915504191797086,-0.31413274763686166,-0.07010157616942948, ,0.008765329516302043, ,0.46228294970678924, ,0.0005009076825458591, ,0.1641930236388873,-0.21490821042391967,0.08927938117,-4.529302779265726,0.17120553420609688,-1.379081514964648, ,-0.02609926885546501,-0.06398984595985892,0.006723854588433939,0.0,-0.4043808547971417,0.34721272523690905, ,0.0272371768951416
0.011684819899160452,0.017901039325543794,-0.07984885587709346, ,0.011584810428715078,0.018970857973488818,-0.08045170480592939, ,0.0012320473467640394, ,0.0024432012697629233,0.006085657865668133,-0.00581605858179027,-0.33915504191797086,-0.31413274763686166,-0.07010157616942948, ,0.008765329516302043, ,0.46228294970678924, ,0.0006053562060055991, ,0.1641930236388873,-0.21490821042391967,0.08927938117,-4.529302779265726,0.17120553420609688,-1.379081514964648, ,-0.02609926885546501,-0.06398984595985892,0.006723854588433939,0.0,-0.4043808547971417,0.34721272523690905, ,0.032679080963134766
0.0117130175335465,0.017956494929134703,-0.07993411256961958, ,0.011545940699282494,0.019168529949248395,-0.08056983356239403, ,0.001378798295322349, ,0.004295866161903916,0.008755866893011168,-0.016792147359449328,-0.3232735394881883,-0.38191924524653903,-0.08964240761653806, ,0.0194189568224089, ,0.5003679544972418, ,0.0007020364671701928, ,0.16396134165266057,-0.21540246532787002,0.08937271405000001,-4.529093089322242,0.16751634871242999,-1.3760732315648445, ,-0.03390387336851403,-0.06812415043680602,0.018080376299659483,0.0,-0.48012276497504497,0.32407068690187923, ,0.03821706771850586
0.0117130175335465,0.017956494929134703,-0.07993411256961958, ,0.011507932509486306,0.01936535188070093,-0.08068756311963919, ,0.0016107841284278657, ,0.004295866161903916,0.008755866893011168,-0.016792147359449328,-0.3232735394881883,-0.38191924524653903,-0.08964240761653806, ,0.0194189568224089, ,0.5003679544972418, ,0.0008030084295321565, ,0.16396134165266057,-0.21540246532787002,0.08937271405000001,-4.529093089322242,0.16751634871242999,-1.3760732315648445, ,-0.03390387336851403,-0.06812415043680602,0.018080376299659483,0.0,-0.48012276497504497,0.32407068690187923, ,0.04352903366088867
0.011766334274959598,0.01811175296916258,-0.08023956299870706, ,0.011470783930162506,0.019561326281062646,-0.08080489437664268, ,0.0015837336770307033, ,0.003930662018372862,0.014886032281400412,-0.029905314110449988,-0.04716225337192514,-0.2496639781191766,-0.09601008589888166, ,0.03363587181909001, ,0.25407942890851115, ,0.0008810809542820111, ,0.1634130276185906,-0.2165222615946326,0.08970197171000001,-4.528464019491787,0.1621875252215778,-1.3736065443439172, ,-0.04879020131540914,-0.10281358782066174,0.03224455773279353,0.03816058985860375,-0.3351276066103258,0.1068569634108325, ,0.049369096755981445
0.011792731727602474,0.018284489161847415,-0.08055142982084637, ,0.011434493027682825,0.01975645566102739,-0.08092182823727087, ,0.0015595561316342715, ,0.001809749587172766,0.01925131258440208,-0.032250346801788315,0.1131417472361744,-0.08589673797680009,-0.07249621816712867, ,0.03760283365155142, ,0.14205375628627717, ,0.0009427605158594893, ,0.16285699085164645,-0.21778106705313116,0.09004159969000002,-4.528254329548303,0.15986470472556533,-1.3739994447050137, ,-0.06071461392096659,-0.14422027592472764,0.03539735893333334,0.05830838146755128,-0.1679371916316139,0.013993702608403713, ,0.0546720027923584
0.011792731727602474,0.018284489161847415,-0.08055142982084637, ,0.011399057863963145,0.019950742528677515,-0.08103836561027218, ,0.0017800241168054716, ,0.001809749587172766,0.01925131258440208,-0.032250346801788315,0.1131417472361744,-0.08589673797680009,-0.07249621816712867, ,0.03760283365155142, ,0.14205375628627717, ,0.0010125324826049879, ,0.16285699085164645,-0.21778106705313116,0.09004159969000002,-4.528254329548303,0.15986470472556533,-1.3739994447050137, ,-0.06071461392096659,-0.14422027592472764,0.03539735893333334,0.05830838146755128,-0.1679371916316139,0.013993702608403713, ,0.05991506576538086
0.011792731727602474,0.018284489161847415,-0.08055142982084637, ,0.01135738156795558,0.02015110866919054,-0.0811558485837462, ,0.0020097562508035243, ,0.0012817376507420616,0.022503910785735493,-0.033717245082938996,-0.08830245479695742,-0.119195714962204,-0.008401383190173991, ,0.040557631440219066, ,0.1483404813636862, ,0.0010892420032356446, ,0.16285699085164645,-0.21778106705313116,0.09004159969000002,-4.528254329548303,0.15986470472556533,-1.3739994447050137, ,-0.06071461392096659,-0.14422027592472764,0.03539735893333334,0.05830838146755128,-0.1679371916316139,0.013993702608403713, ,0.065216064453125
0.011808966381576856,0.018491394687587225,-0.08088043568338806, ,0.011323625302229912,0.020343871254958748,-0.08127157002291151, ,0.001954536125917525, ,0.0012817376507420616,0.022503910785735493,-0.033717245082938996,-0.08830245479695742,-0.119195714962204,-0.008401383190173991, ,0.040557631440219066, ,0.1483404813636862, ,0.0011510487262843504, ,0.16219283582446314,-0.21937967275809564,0.09040456089000001,-4.528044639604819,0.15795179372884915,-1.373174702714529, ,-0.07659155896567456,-0.17972905598195224,0.03739157633802818,-0.011977065774590805,-0.2357468841782831,0.23177977708977182, ,0.0712120532989502
0.011821680040104398,0.018732772068381316,-0.08120166732400383, ,0.011290719421262564,0.020535799553826485,-0.0813868974656658, ,0.0018886867123511365, ,0.000978443802470517,0.025578576172546552,-0.02955364924036495,-0.02326935661953901,-0.1809156126202714,-0.047264666893926124, ,0.039097814449299884, ,0.18240586422036584, ,0.0012002245920221361, ,0.16140511707129226,-0.2214107515040167,0.0907662258,-4.528254329548303,0.1550824272337749,-1.3713249991777474, ,-0.07908078463205898,-0.2254084122528997,0.033963350788912584,0.016575721870234646,-0.3054929601742599,0.20594791886167618, ,0.07662296295166016
0.011821680040104398,0.018732772068381316,-0.08120166732400383, ,0.01125866199520063,0.020726896024969573,-0.08150183184130345, ,0.0020937092469042076, ,0.000978443802470517,0.025578576172546552,-0.02955364924036495,-0.02326935661953901,-0.1809156126202714,-0.047264666893926124, ,0.039097814449299884, ,0.18240586422036584, ,0.0012560673829522656, ,0.16140511707129226,-0.2214107515040167,0.0907662258,-4.528254329548303,0.1550824272337749,-1.3713249991777474, ,-0.07908078463205898,-0.2254084122528997,0.033963350788912584,0.016575721870234646,-0.3054929601742599,0.20594791886167618, ,0.08200407028198242
0.011815815463634678,0.01899188423466048,-0.08146542290050533, ,0.011227451089157176,0.020917163123492514,-0.08161637408436274, ,0.002018825821324012, ,-0.002405860577858288,0.028190162459841336,-0.023403933865207643,0.22235782760476347,-0.11422215557530932,-0.024515816664329792, ,0.036718081989659444, ,0.2499793937500587, ,0.0013009355263858978, ,0.16055561645512756,-0.2237739077635294,0.09107474282000001,-4.528254329548303,0.15262297023799698,-1.3710347304541637, ,-0.09874811816698312,-0.2695935839729284,0.028292738046181175,0.012944085917752427,-0.22707456168754833,0.012801341867147265, ,0.08767294883728027
0.011815815463634678,0.01899188423466048,-0.08146542290050533, ,0.011197084763235854,0.02110660330043003,-0.08173052513460316, ,0.00221926645567154, ,-0.002405860577858288,0.028190162459841336,-0.023403933865207643,0.22235782760476347,-0.11422215557530932,-0.024515816664329792, ,0.036718081989659444, ,0.2499793937500587, ,0.001351953911346211, ,0.16055561645512756,-0.2237739077635294,0.09107474282000001,-4.528254329548303,0.15262297023799698,-1.3710347304541637, ,-0.09874811816698312,-0.2695935839729284,0.028292738046181175,0.012944085917752427,-0.22707456168754833,0.012801341867147265, ,0.09299802780151367
0.0117794688358482,0.019303442693337117,-0.08169546622756023, ,0.011167561072555343,0.02129521900274911,-0.08184428593698304, ,0.0020889593781176345, ,-0.004350882373112017,0.0307746296789179,-0.019696281975842486,-0.03599587894592815,-0.10757809353936008,-0.011997995358351195, ,0.03679608040228047, ,0.11344049782312879, ,0.0013907436727552335, ,0.15938176105824542,-0.22682438724884807,0.09135863033000001,-4.528044639604819,0.14989024024268818,-1.369949874742203, ,-0.12027495761529881,-0.3091105588223804,0.025045301132075475,0.0,-0.28313479074498016,0.30313243851717897, ,0.09839797019958496
0.0117794688358482,0.019303442693337117,-0.08169546622756023, ,0.011138878067273747,0.021483012673351103,-0.08195765744163817, ,0.0022868375681933863, ,-0.004350882373112017,0.0307746296789179,-0.019696281975842486,-0.03599587894592815,-0.10757809353936008,-0.011997995358351195, ,0.03679608040228047, ,0.11344049782312879, ,0.0014355483675271411, ,0.15938176105824542,-0.22682438724884807,0.09135863033000001,-4.528044639604819,0.14989024024268818,-1.369949874742203, ,-0.12027495761529881,-0.3091105588223804,0.025045301132075475,0.0,-0.28313479074498016,0.30313243851717897, ,0.10388612747192383
0.011722314397792257,0.019635707242122522,-0.08188612634177776, ,0.011111033792613306,0.021669986751073296,-0.08207064060385888, ,0.0021321356926134617, ,-0.007084505147139603,0.03521421235595167,-0.018264722554007233,-0.11801192428812537,0.0014077579910426047,-0.06220956103207502, ,0.04029678715486841, ,0.11802031191318088, ,0.0014687191925312514, ,0.15805345100387883,-0.23019149878200995,0.09160751801000001,-4.5272058798308805,0.1472941467471448,-1.3651375361473326, ,-0.14488082680682562,-0.3608248728458964,0.0244682204608295,0.07595081590073467,-0.2366106692668732,0.45624754449825955, ,0.11006617546081543
0.011722314397792257,0.019635707242122522,-0.08188612634177776, ,0.011084026288884647,0.02185614367069111,-0.08218323638406813, ,0.002329382755263088, ,-0.009831646590528728,0.03632274250183047,-0.015474104837219338,-0.1551663988876761,0.19965893490133743,-0.010643076124804394, ,0.04068723163412069, ,0.2528641942673841, ,0.0015078402635645167, ,0.15671741821663798,-0.23350455118505228,0.09181751699000001,-4.526996189887396,0.14633769124878673,-1.3604370312947105, ,-0.15183510649355325,-0.37657516491456666,0.022001120883977904,0.07607668805698534,-0.049127269446828485,0.5372965505479893, ,0.11569404602050781
0.011643214616017406,0.019957233623033324,-0.08203899990845887, ,0.01105785359151162,0.02204148586292006,-0.08229544574779982, ,0.002180027384460716, ,-0.009831646590528728,0.03632274250183047,-0.015474104837219338,-0.1551663988876761,0.19965893490133743,-0.010643076124804394, ,0.04068723163412069, ,0.2528641942673841, ,0.0015370657905600035, ,0.15671741821663798,-0.23350455118505228,0.09181751699000001,-4.526996189887396,0.14633769124878673,-1.3604370312947105, ,-0.15183510649355325,-0.37657516491456666,0.022001120883977904,0.07607668805698534,-0.049127269446828485,0.5372965505479893, ,0.1211080551147461
0.011513694680758859,0.020402077202870687,-0.08221738556660885, ,0.011032513731055512,0.022226015754417495,-0.0824072696656756, ,0.0018958752377871493, ,-0.012183019320465486,0.040033345533324396,-0.014591417137590735,0.16063756375601823,0.2190308956148649,0.10002603936692989, ,0.04431708664202281, ,0.2716228257379769, ,0.0015520161841944679, ,0.15484079412820143,-0.238138190909587,0.09207677499000001,-4.526996189887396,0.14633769124878673,-1.3553729494059956, ,-0.17006620350980425,-0.4198979714976583,0.02197077451034483,-0.023046111137490295,0.01863659603724897,0.2562746247644967, ,0.12638497352600098
0.011513694680758859,0.020402077202870687,-0.08221738556660885, ,0.011008004733239584,0.022409735767784846,-0.08251870911338388, ,0.0020921785574219798, ,-0.012183019320465486,0.040033345533324396,-0.014591417137590735,0.16063756375601823,0.2190308956148649,0.10002603936692989, ,0.04431708664202281, ,0.2716228257379769, ,0.0015736226791235684, ,0.15484079412820143,-0.238138190909587,0.09207677499000001,-4.526996189887396,0.14633769124878673,-1.3553729494059956, ,-0.17006620350980425,-0.4198979714976583,0.02197077451034483,-0.023046111137490295,0.01863659603724897,0.2562746247644967, ,0.1317601203918457
0.011430302018812387,0.020675604675643933,-0.08231963221156392, ,0.01098432461897372,0.022592648321569,-0.0826297650716567, ,0.0019925196542212227, ,-0.012306585909338464,0.041735307314017145,-0.01610605407439229,0.2153580400138818,0.21041224303390094,0.059786546641818566, ,0.04639712179851924, ,0.3010853638644472, ,0.0015897341012427089, ,0.1536746614641935,-0.24099560207305004,0.09222973721000001,-4.5272058798308805,0.14647432774855218,-1.3537691137667403, ,-0.1760611160639532,-0.43331936784689856,0.02391713441441442,0.014559130642520686,0.0,0.21735129626018224, ,0.13730907440185547
0.011430302018812387,0.020675604675643933,-0.08231963221156392, ,0.010961471404378913,0.02277475583026494,-0.08274043852624835, ,0.002191646793955419, ,-0.012306585909338464,0.041735307314017145,-0.01610605407439229,0.2153580400138818,0.21041224303390094,0.059786546641818566, ,0.04639712179851924, ,0.3010853638644472, ,0.0016120271639357723, ,0.1536746614641935,-0.24099560207305004,0.09222973721000001,-4.5272058798308805,0.14647432774855218,-1.3537691137667403, ,-0.1760611160639532,-0.43331936784689856,0.02391713441441442,0.014559130642520686,0.0,0.21735129626018224, ,0.14263296127319336
0.01127698912018822,0.021238302388476803,-0.08254663965302737, ,0.010939443100811632,0.022956060704317046,-0.08285073046791255, ,0.00177682361829553, ,-0.011409844402862569,0.04431982109832405,-0.01831215479776108,0.20765170798923985,0.14216887090768007,0.056615735420587766, ,0.0492926577171707, ,0.2516569443246484, ,0.0016179127515914779, ,0.1513655643348004,-0.24679537446159266,0.09256418003000001,-4.526996189887396,0.14579114524972495,-1.3503532683433384, ,-0.1760611160639532,-0.45405235195440563,0.02695230375634518,0.0017539868458389225,-0.07066545867081998,0.2336519163962657, ,0.14799714088439941
0.01127698912018822,0.021238302388476803,-0.08254663965302737, ,0.010918237714888406,0.02313656535012151,-0.08296064189238074, ,0.001975728396451882, ,-0.011409844402862569,0.04431982109832405,-0.01831215479776108,0.20765170798923985,0.14216887090768007,0.056615735420587766, ,0.0492926577171707, ,0.2516569443246484, ,0.0016302512221039057, ,0.1513655643348004,-0.24679537446159266,0.09256418003000001,-4.526996189887396,0.14579114524972495,-1.3503532683433384, ,-0.1760611160639532,-0.45405235195440563,0.02695230375634518,0.0017539868458389225,-0.07066545867081998,0.2336519163962657, ,0.15352416038513184
0.011175810045904126,0.021677595821784894,-0.0827280790609912, ,0.010897853248510343,0.023316272170027984,-0.08307017380033965, ,0.0016969233825363489, ,-0.009774557430660054,0.044486818444586726,-0.01864629708399557,0.1941879183110733,0.00470395026941034,0.017649203356539016, ,0.04921690139811236, ,0.19424487769842996, ,0.0016324736274516535, ,0.14965111763672254,-0.25129772772726555,0.09283251206000001,-4.526996189887396,0.14401487075277425,-1.3476796544931766, ,-0.17129411833658983,-0.45405235195440563,0.027558497439446373,0.002297636038229793,-0.20921985160345577,0.22703796423344552, ,0.15881013870239258
0.011175810045904126,0.021677595821784894,-0.0827280790609912, ,0.01087828769888765,0.023495183562341548,-0.08317932719740928, ,0.0018962514659761843, ,-0.009774557430660054,0.044486818444586726,-0.01864629708399557,0.1941879183110733,0.00470395026941034,0.017649203356539016, ,0.04921690139811236, ,0.19424487769842996, ,0.001640982589984703, ,0.14965111763672254,-0.25129772772726555,0.09283251206000001,-4.526996189887396,0.14401487075277425,-1.3476796544931766, ,-0.17129411833658983,-0.45405235195440563,0.027558497439446373,0.002297636038229793,-0.20921985160345577,0.22703796423344552, ,0.16463613510131836
0.011095405302074765,0.022075617645312146,-0.08290542263808931, ,0.010859539058564049,0.023673301921324757,-0.08328810309412073, ,0.0016597205373418168, ,-0.008610094137642691,0.045792113668433575,-0.020698140748704623,0.20039333294127934,-0.05691286452036874,0.00011445573771228217, ,0.050984943127701896, ,0.20831840589909145, ,0.0016415681508396129, ,0.148152907459123,-0.2553212715547365,0.09309047377000002,-4.526996189887396,0.14182868675652718,-1.3458152892938933, ,-0.1667784561660295,-0.4606647648469455,0.030111174896030254,0.002956033556966727,-0.2684235506183425,0.21888140697388112, ,0.1704251766204834
0.011095405302074765,0.022075617645312146,-0.08290542263808931, ,0.010841605315441394,0.02385062963719947,-0.08339650250589403, ,0.0018590969423679879, ,-0.008494657006988805,0.04566654973873602,-0.021078017383902456,0.2066306039670628,-0.053212650501385995,-0.012091038388700244, ,0.05100858535132031, ,0.21337241740357285, ,0.0016481599324010788, ,0.14622994697344108,-0.2606422345050772,0.0934495461,-4.526576810000427,0.13868604726192205,-1.3432526775088758, ,-0.16475163465012285,-0.45405235195440563,0.030691351676300584,0.01325356239535642,-0.26407507221103055,0.20814948266836686, ,0.1759340763092041
0.010997597519166695,0.02260934435403842,-0.08315341650984849, ,0.010824484452804112,0.024027169096148895,-0.08350452645301587, ,0.0014708750202777573, ,-0.008494657006988805,0.04566654973873602,-0.021078017383902456,0.2066306039670628,-0.053212650501385995,-0.012091038388700244, ,0.05100858535132031, ,0.21337241740357285, ,0.0016429456702798046, ,0.14622994697344108,-0.2606422345050772,0.0934495461,-4.526576810000427,0.13868604726192205,-1.3432526775088758, ,-0.16475163465012285,-0.45405235195440563,0.030691351676300584,0.01325356239535642,-0.26407507221103055,0.20814948266836686, ,0.18128108978271484
0.010909092637775354,0.023059640037508204,-0.08335029574860339, ,0.01080817444934369,0.024202922680319205,-0.08361217596061735, ,0.001177225945837803, ,-0.00926799931933484,0.044351772204137496,-0.01751857694117208,0.2833012989206475,0.016298699546932485,0.008211282061840575, ,0.04857855542391787, ,0.2837697516068416, ,0.0016296393924386044, ,0.14461589580272816,-0.2651291423050016,0.09374250764000001,-4.526367120056943,0.136499863265675,-1.3413883123095922, ,-0.157374695785192,-0.4455255472228675,0.027135965110732543,0.013053157857465558,-0.17255076264372418,0.13566550528756288, ,0.18666815757751465
0.010909092637775354,0.023059640037508204,-0.08335029574860339, ,0.010792673279183238,0.024377892767822144,-0.0837194520586522, ,0.00137390687795207, ,-0.00926799931933484,0.044351772204137496,-0.01751857694117208,0.2833012989206475,0.016298699546932485,0.008211282061840575, ,0.04857855542391787, ,0.2837697516068416, ,0.0016225357114806453, ,0.14461589580272816,-0.2651291423050016,0.09374250764000001,-4.526367120056943,0.136499863265675,-1.3413883123095922, ,-0.157374695785192,-0.4455255472228675,0.027135965110732543,0.013053157857465558,-0.17255076264372418,0.13566550528756288, ,0.19202113151550293
0.010815686312971534,0.023513618915994405,-0.08353331229709832, ,0.010777978911901954,0.024552081732736066,-0.08382635578187442, ,0.0010796765042456779, ,-0.008551400153957214,0.04279461357513962,-0.017315915873242108,0.23035094416611193,0.022723832614265152,0.00900125779198512, ,0.04695046685782604, ,0.2314690659464457, ,0.0016078638410148352, ,0.14303273556351215,-0.26966238650217145,0.09402509886,-4.526367120056943,0.13486022526848973,-1.3398062612448136, ,-0.14667224352159317,-0.4255468231321559,0.026816181010101015,0.013053157857465558,-0.15997162091167946,0.17115833921267248, ,0.1974351406097412
0.010815686312971534,0.023513618915994405,-0.08353331229709832, ,0.010764089312559608,0.02472549194510858,-0.08393288816981606, ,0.0012770901954067386, ,-0.008551400153957214,0.04279461357513962,-0.017315915873242108,0.23035094416611193,0.022723832614265152,0.00900125779198512, ,0.04695046685782604, ,0.2314690659464457, ,0.0015991592713935695, ,0.14303273556351215,-0.26966238650217145,0.09402509886,-4.526367120056943,0.13486022526848973,-1.3398062612448136, ,-0.14667224352159317,-0.4255468231321559,0.026816181010101015,0.013053157857465558,-0.15997162091167946,0.17115833921267248, ,0.20278501510620117
0.010738156326974753,0.023935688589076312,-0.08371204867287418, ,0.010751002441721141,0.02489812577095827,-0.08403905026676434, ,0.0010165531929710622, ,-0.007142433891911168,0.04228835283617365,-0.018331056333778267,0.09281542845526898,-0.00700063383962276,0.0020435309665488436, ,0.046640612922743525, ,0.09307905545098942, ,0.0015842206539981205, ,0.1416349209132775,-0.27382493952137843,0.09429861605,-4.526367120056943,0.133083950771539,-1.3373776836150735, ,-0.13518082843087004,-0.41439712470947937,0.02794528336842106,0.011146714071731678,-0.19706231814389727,0.2933868101214382, ,0.2080991268157959
0.010738156326974753,0.023935688589076312,-0.08371204867287418, ,0.010738716255481057,0.025069985572276503,-0.08414484312174159, ,0.00121405971623616, ,-0.007142433891911168,0.04228835283617365,-0.018331056333778267,0.09281542845526898,-0.00700063383962276,0.0020435309665488436, ,0.046640612922743525, ,0.09307905545098942, ,0.0015749666305540718, ,0.1416349209132775,-0.27382493952137843,0.09429861605,-4.526367120056943,0.133083950771539,-1.3373776836150735, ,-0.13518082843087004,-0.41439712470947937,0.02794528336842106,0.011146714071731678,-0.19706231814389727,0.2933868101214382, ,0.2134389877319336
0.01067347767375853,0.02433491472051659,-0.08389136422856695, ,0.01072722870548797,0.025241073707029424,-0.08425026778848044, ,0.0009761275775064023, ,-0.006336120557282597,0.03993134651310381,-0.018225389017064067,0.06953824299517657,-0.0004066974537993463,0.007737831961029722, ,0.04434888570064987, ,0.0695394178204345, ,0.0015603607999919332, ,0.14039156092052738,-0.27770175142423914,0.09456954066,-4.526157430113458,0.13130767627458828,-1.3344590335444897, ,-0.12276447808340334,-0.38575992503443407,0.02746346813793104,0.006299780391060933,-0.17543823125897326,0.2908283761372244, ,0.21873903274536133
0.01067347767375853,0.02433491472051659,-0.08389136422856695, ,0.010716537738969141,0.025411392529159933,-0.08435532532540352, ,0.0011729955418053827, ,-0.006336120557282597,0.03993134651310381,-0.018225389017064067,0.06953824299517657,-0.0004066974537993463,0.007737831961029722, ,0.04434888570064987, ,0.0695394178204345, ,0.0015511378176541583, ,0.14039156092052738,-0.27770175142423914,0.09456954066,-4.526157430113458,0.13130767627458828,-1.3344590335444897, ,-0.12276447808340334,-0.38575992503443407,0.02746346813793104,0.006299780391060933,-0.17543823125897326,0.2908283761372244, ,0.22409605979919434
0.010613310248680393,0.024733833559518317,-0.08407115161307241, ,0.010706641298754963,0.025580944388589728,-0.08446001679560057, ,0.000936762281382387, ,-0.005434394257151033,0.03769968161647247,-0.016752842431278805,0.11403483243401943,0.02288203942186655,0.001999593650038939, ,0.04161077221649226, ,0.1163079077997627, ,0.0015368500144850473, ,0.13923315098939368,-0.2815399496627287,0.09484305785000001,-4.525738050226489,0.12980467477716842,-1.3318448980214397, ,-0.10428235336095688,-0.36220206701706403,0.02573313654281099,0.02063548641504825,-0.12682292635852996,0.23139060893008473, ,0.2295839786529541
0.010613310248680393,0.024733833559518317,-0.08407115161307241, ,0.01069753732330343,0.02574973163122095,-0.0845643432668062, ,0.0011324226682212577, ,-0.005434394257151033,0.03769968161647247,-0.016752842431278805,0.11403483243401943,0.02288203942186655,0.001999593650038939, ,0.04161077221649226, ,0.1163079077997627, ,0.0015276584838881432, ,0.13923315098939368,-0.2815399496627287,0.09484305785000001,-4.525738050226489,0.12980467477716842,-1.3318448980214397, ,-0.10428235336095688,-0.36220206701706403,0.02573313654281099,0.02063548641504825,-0.12682292635852996,0.23139060893008473, ,0.23507213592529297
0.010567244474046254,0.02509190262189875,-0.08423509186207455, ,0.01068922374672466,0.025917756598938333,-0.08466830581137826, ,0.0009405254171082052, ,-0.0037759096709620897,0.03472246763770293,-0.016483825933599143,0.051814068459022575,-0.0067883315633769075,-0.009076844980634524, ,0.03862154541319894, ,0.05225684566343399, ,0.0015146110824041446, ,0.1382987003116125,-0.284953397593136,0.09509324182000001,-4.525528360283005,0.12857494627927946,-1.3294535983057822, ,-0.08587958512078804,-0.32836311957948366,0.02492771755868545,0.022540363581768502,-0.14353958550810533,0.25821826786705704, ,0.24074506759643555
0.010530731978166523,0.025443179917874894,-0.08440270393416834, ,0.01068169849880546,0.02608502162961117,-0.08477190550627471, ,0.0007556860949654937, ,-0.0033332051262881125,0.03343529089930361,-0.016422770098845386,0.09203383737808274,0.04717673975061573,0.009907999100822065, ,0.037399683309548196, ,0.10342084316716056, ,0.001498112713112, ,0.13748781335981894,-0.28825872726330404,0.09534731466000002,-4.525528360283005,0.12748185428115594,-1.3270920377536806, ,-0.07211013796236382,-0.31113751330646156,0.02473417937888199,0.022540363581768502,-0.0648835993363379,0.21193967045210743, ,0.24718809127807617
0.010530731978166523,0.025443179917874894,-0.08440270393416834, ,0.010674959505033747,0.026251529057095012,-0.08487514343303286, ,0.000947327287937756, ,-0.0033332051262881125,0.03343529089930361,-0.016422770098845386,0.09203383737808274,0.04717673975061573,0.009907999100822065, ,0.037399683309548196, ,0.10342084316716056, ,0.0014863938742785056, ,0.13748781335981894,-0.28825872726330404,0.09534731466000002,-4.525528360283005,0.12748185428115594,-1.3270920377536806, ,-0.07211013796236382,-0.31113751330646156,0.02473417937888199,0.022540363581768502,-0.0648835993363379,0.21193967045210743, ,0.2524421215057373
0.010503139437464377,0.025769053507523898,-0.08457682570557881, ,0.010669004686623088,0.026417281211233858,-0.08497802067774535, ,0.0007801716749711408, ,-0.001809487874744894,0.030578701183078875,-0.01764219106051488,0.010076635252834584,0.03263452852078081,0.0046060819546908304, ,0.0353493722409407, ,0.0341547847411089, ,0.0014716809117929356, ,0.1368159355997614,-0.2912397021527547,0.09560268379,-4.525528360283005,0.12679867178232873,-1.3245746584718252, ,-0.05668873450326809,-0.2742686172210138,0.025324024674085854,0.022540363581768502,-0.07072153916966942,0.2570211375479986, ,0.25786709785461426
0.010503139437464377,0.025769053507523898,-0.08457682570557881, ,0.010663831960537218,0.026582280417861977,-0.08508053833103994, ,0.0009699930431289079, ,-0.001809487874744894,0.030578701183078875,-0.01764219106051488,0.010076635252834584,0.03263452852078081,0.0046060819546908304, ,0.0353493722409407, ,0.0341547847411089, ,0.0014614423838610166, ,0.1368159355997614,-0.2912397021527547,0.09560268379,-4.525528360283005,0.12679867178232873,-1.3245746584718252, ,-0.05668873450326809,-0.2742686172210138,0.025324024674085854,0.022540363581768502,-0.07072153916966942,0.2570211375479986, ,0.2633321285247803
0.010496734384054204,0.02591740112185983,-0.0846678756131586, ,0.010659439239514514,0.026746528998805842,-0.08518269748805574, ,0.000989427849411955, ,-0.0008050042471739885,0.030008484163094755,-0.019067532017545054,-0.024311519355774164,0.0046367636272833905,-0.003022413756993434, ,0.03556301352310828, ,0.024749687470842056, ,0.0014520020931720354, ,0.13655336268203777,-0.29255256674137287,0.09573101650000002,-4.525528360283005,0.12638876228303242,-1.3233419386191896, ,-0.049788531772545004,-0.26287241428939273,0.026636808561872914,0.0215360576805896,-0.09577732243024337,0.2765576691800745, ,0.2688560485839844
0.010496734384054204,0.02591740112185983,-0.0846678756131586, ,0.010655824432092491,0.0269100292718859,-0.0852844992484222, ,0.001179340915585779, ,-0.0008050042471739885,0.030008484163094755,-0.019067532017545054,-0.024311519355774164,0.0046367636272833905,-0.003022413756993434, ,0.03556301352310828, ,0.024749687470842056, ,0.0014466557955723047, ,0.13655336268203777,-0.29255256674137287,0.09573101650000002,-4.525528360283005,0.12638876228303242,-1.3233419386191896, ,-0.049788531772545004,-0.26287241428939273,0.026636808561872914,0.0215360576805896,-0.09577732243024337,0.2765576691800745, ,0.27413296699523926
0.010508288221581147,0.026359720881458857,-0.08498155378036852, ,0.010652985442632407,0.027072783550918997,-0.08538594471623598, ,0.0008324227804243086, ,0.0018589699646692419,0.02923938482180527,-0.023446520085533922,-0.1016616873196336,-0.0453042564807076,-0.005411112716482487, ,0.03752514754412705, ,0.11129944850759334, ,0.0014348436222040742, ,0.1359896031822194,-0.296305814918246,0.09615749591000002,-4.52531867033952,0.12447585128631626,-1.3185966171019579, ,-0.029181101340243164,-0.23783694626183152,0.03092973110679612,0.010307195410646983,-0.13068251199460607,0.32308180791221164, ,0.27956104278564453
0.010508288221581147,0.026359720881458857,-0.08498155378036852, ,0.010650920171343623,0.02723479414571971,-0.08548703500003961, ,0.0010205921586791476, ,0.0018589699646692419,0.02923938482180527,-0.023446520085533922,-0.1016616873196336,-0.0453042564807076,-0.005411112716482487, ,0.03752514754412705, ,0.11129944850759334, ,0.0014270275568545473, ,0.1359896031822194,-0.296305814918246,0.09615749591000002,-4.52531867033952,0.12447585128631626,-1.3185966171019579, ,-0.029181101340243164,-0.23783694626183152,0.03092973110679612,0.010307195410646983,-0.13068251199460607,0.32308180791221164, ,0.28507304191589355
0.010528851125703766,0.026640593301982384,-0.08520956533050836, ,0.010649626514308173,0.027396063362102704,-0.08558777121279848, ,0.000853440915136833, ,0.0017832502682674735,0.026813033669771415,-0.02124647724847383,0.006702073137460967,0.0016082185725665183,0.0069771639106369935, ,0.03425684678375241, ,0.006892011451509571, ,0.0014164055820079231, ,0.13578108939461533,-0.29856085291751955,0.09645823519,-4.524899290452551,0.12365603228772361,-1.3160494986565463, ,-0.01842659059387782,-0.21616615389173302,0.028242573617021278,0.014450960475167158,-0.05293514224254919,0.20381525441250065, ,0.2904360294342041
0.010548661520670086,0.026904378108475475,-0.08541628653034612, ,0.010649102363505343,0.02755659350188454,-0.08568815447187962, ,0.0007137124490597475, ,0.001987327588510099,0.025512725961262528,-0.02057198345227672,-0.0014143221012618262,0.0062833767871661,-0.035625840874415025, ,0.03283375032004842, ,0.00644029862167517, ,0.0014036293432270472, ,0.13562663473713085,-0.30068460445793127,0.09673434496000001,-4.524479910565582,0.12310948628866183,-1.3141336097192307, ,-0.015551776722135494,-0.20277124264630508,0.027275362191780828,0.05574563283790334,-0.057952083099513746,0.2032529682278717, ,0.2992360591888428
0.010548661520670086,0.026904378108475475,-0.08541628653034612, ,0.010649345606836001,0.027716386862885377,-0.08578818589902903, ,0.0008987795296245542, ,0.001987327588510099,0.025512725961262528,-0.02057198345227672,-0.0014143221012618262,0.0062833767871661,-0.035625840874415025, ,0.03283375032004842, ,0.00644029862167517, ,0.0013946141679841457, ,0.13562663473713085,-0.30068460445793127,0.09673434496000001,-4.524479910565582,0.12310948628866183,-1.3141336097192307, ,-0.015551776722135494,-0.20277124264630508,0.027275362191780828,0.05574563283790334,-0.057952083099513746,0.2032529682278717, ,0.3045191764831543
0.010573297495362085,0.027136154759007495,-0.08560641242588825, ,0.01065035412814728,0.02787544573893127,-0.08588786662034871, ,0.0007947989313230324, ,0.002737057409022915,0.022366715823857276,-0.018495911513744277,-0.044829205454043744,-0.048239858429084716,0.042777735765056404, ,0.02915236187223486, ,0.06585392500294734, ,0.0013840910936567575, ,0.13552623920976592,-0.30251489214912247,0.09698582522000002,-4.524060530678613,0.12228966729006921,-1.3119132062343812, ,-0.0052886605664753715,-0.17638836720905351,0.0244682204608295,-0.037074555522824404,-0.07627383658573478,0.20589773156342814, ,0.30978894233703613
0.010573297495362085,0.027136154759007495,-0.08560641242588825, ,0.010652125807256994,0.028033772419856086,-0.08598719776627639, ,0.000978227398552101, ,0.002737057409022915,0.022366715823857276,-0.018495911513744277,-0.044829205454043744,-0.048239858429084716,0.042777735765056404, ,0.02915236187223486, ,0.06585392500294734, ,0.0013770934437411602, ,0.13552623920976592,-0.30251489214912247,0.09698582522000002,-4.524060530678613,0.12228966729006921,-1.3119132062343812, ,-0.0052886605664753715,-0.17638836720905351,0.0244682204608295,-0.037074555522824404,-0.07627383658573478,0.20589773156342814, ,0.3150479793548584
0.010599511777732284,0.02736235168532226,-0.08577848283236303, ,0.010654658519978103,0.028191369191503068,-0.08608618047156162, ,0.0008859960642705803, ,0.0024571133274007557,0.022046064507805715,-0.015575260528972124,-0.016380673117162396,-0.041248680306523705,0.03420706425826056, ,0.0271045218871571, ,0.044382194202269784, ,0.0013687697593433535, ,0.13548762554539479,-0.3043374571074395,0.09721915742000001,-4.524060530678613,0.121606484791242,-1.3099675781335096, ,-0.00298889208395038,-0.181447306995164,0.02161304141112619,-0.025245872021706257,-0.066973563884753,0.18513507675787994, ,0.3203911781311035
0.010599511777732284,0.02736235168532226,-0.08577848283236303, ,0.010657950138143333,0.028348238335727114,-0.0861848158752442, ,0.001067939170154883, ,0.0024571133274007557,0.022046064507805715,-0.015575260528972124,-0.016380673117162396,-0.041248680306523705,0.03420706425826056, ,0.0271045218871571, ,0.044382194202269784, ,0.0013637559161902124, ,0.13548762554539479,-0.3043374571074395,0.09721915742000001,-4.524060530678613,0.121606484791242,-1.3099675781335096, ,-0.00298889208395038,-0.181447306995164,0.021880235604395604,-0.01852876505276345,-0.10110202120514035,0.22777658685824514, ,0.3264739513397217
0.010629038025457381,0.02758351153573246,-0.08594213645322625, ,0.010661998529629573,0.02850438213039655,-0.08628310512063234, ,0.0009825215921825641, ,0.0029605698589118042,0.021197955380698942,-0.01607240031858294,-0.07362887178974742,-0.06666769264006554,0.01684393918798718, ,0.026766403161657435, ,0.09932668790645088, ,0.0013575061731736936, ,0.13547218007964634,-0.30612913113425955,0.09744341559000001,-4.524060530678613,0.12065002929288392,-1.307799114225245, ,-0.0015096078798471587,-0.17037152883028864,0.021880235604395604,-0.01852876505276345,-0.10110202120514035,0.22777658685824514, ,0.331956148147583
0.01066147333929273,0.027798656157492857,-0.08610857747938994, ,0.010666801558382465,0.02865980284939517,-0.0863810493552799, ,0.0009032402438133301, ,0.003211388156213255,0.020872399147926216,-0.01625272802279661,-0.08857188301417376,-0.06728023458100563,-0.003310206196280696, ,0.02664809989967795, ,0.11122772717224731, ,0.0013501793033453007, ,0.13547218007964634,-0.3078435778323374,0.09766897005000001,-4.524270220622098,0.11955693729476038,-1.305355874933003, ,0.00038127727894008817,-0.16532568215761462,0.022001120883977904,0.0,-0.1074581263518285,0.23933790911940678, ,0.33769917488098145
0.01066147333929273,0.027798656157492857,-0.08610857747938994, ,0.010672357084440804,0.02881450276262406,-0.08647864973096478, ,0.0010812105495465315, ,0.003211388156213255,0.020872399147926216,-0.01625272802279661,-0.08857188301417376,-0.06728023458100563,-0.003310206196280696, ,0.02664809989967795, ,0.11122772717224731, ,0.0013459099580469076, ,0.13547218007964634,-0.3078435778323374,0.09766897005000001,-4.524270220622098,0.11955693729476038,-1.305355874933003, ,0.00038127727894008817,-0.16532568215761462,0.022001120883977904,0.0,-0.1074581263518285,0.23933790911940678, ,0.34297800064086914
0.01066147333929273,0.027798656157492857,-0.08610857747938994, ,0.010678662963961152,0.028968484136003603,-0.08657590740366627, ,0.0012598373865808671, ,0.0030442239483155957,0.021534527651880443,-0.0180733743227036,-0.07792949571725301,-0.04071595978069958,-0.014952580603530512, ,0.02827808409432406, ,0.08792493250047406, ,0.0013445650741177506, ,0.13547990281252056,-0.30975881558514506,0.09793082063000001,-4.523850840735128,0.1186004817964023,-1.3027790173240357, ,-0.0023389072396325598,-0.16475163465012285,0.02395310003007519,0.018573294559031714,-0.08729225905670313,0.23337179959588444, ,0.34834909439086914
0.010697287220203952,0.02804378914646621,-0.08630285885040745, ,0.010685717049242281,0.029121749231475452,-0.08667282353354312, ,0.0011397393037431384, ,0.0030442239483155957,0.021534527651880443,-0.0180733743227036,-0.07792949571725301,-0.04071595978069958,-0.014952580603530512, ,0.02827808409432406, ,0.08792493250047406, ,0.0013414139084196796, ,0.13547990281252056,-0.30975881558514506,0.09793082063000001,-4.523850840735128,0.1186004817964023,-1.3027790173240357, ,-0.0023389072396325598,-0.16475163465012285,0.02395310003007519,0.018573294559031714,-0.08729225905670313,0.23337179959588444, ,0.3540160655975342
0.010729317564030493,0.028262813303292694,-0.08649329213485221, ,0.010693517188749627,0.02927430030700428,-0.08676939928491126, ,0.001049105706714733, ,0.003103155356539978,0.022142590568485915,-0.01957685677762177,-0.07094997780486821,-0.013644960878556232,-0.04115805631038131, ,0.029718297588218937, ,0.07225013101980542, ,0.0013369849962726352, ,0.13546445734677212,-0.3114037576873549,0.09818100460000001,-4.523431460848159,0.11778066279780966,-1.3003952563589056, ,-0.0022441483760893845,-0.1644661032209199,0.025609021736334413,0.05221146615973662,-0.06938622036760204,0.23302474924498312, ,0.35936498641967773
0.010729317564030493,0.028262813303292694,-0.08649329213485221, ,0.010702061227139964,0.02942613961657995,-0.08686563582622234, ,0.0012217654617766624, ,0.003103155356539978,0.022142590568485915,-0.01957685677762177,-0.07094997780486821,-0.013644960878556232,-0.04115805631038131, ,0.029718297588218937, ,0.07225013101980542, ,0.001335265301727919, ,0.13546445734677212,-0.3114037576873549,0.09818100460000001,-4.523431460848159,0.11778066279780966,-1.3003952563589056, ,-0.0022441483760893845,-0.1644661032209199,0.025609021736334413,0.05221146615973662,-0.06938622036760204,0.23302474924498312, ,0.3646371364593506
0.010760266844046401,0.028492321495273844,-0.08669910848655232, ,0.010711347005285723,0.029577269410219303,-0.08696153433003967, ,0.001117305890120926, ,0.003004926313183046,0.02337900176389864,-0.020805437020122886,-0.04344118697242124,0.0027030184420145705,-0.03847277416466481, ,0.03143999865175467, ,0.043525155208113245, ,0.0013320600162631101, ,0.13544128914814946,-0.31309503618681006,0.09844933663000001,-4.523221770904676,0.1172341167987479,-1.2981526524610274, ,-0.003475324643562818,-0.17191474920012823,0.027182272218430035,0.05567725881243878,-0.05187689365747928,0.21570002287433512, ,0.36997294425964355
0.010760266844046401,0.028492321495273844,-0.08669910848655232, ,0.010721372360299597,0.029727691933968015,-0.08705709597301851, ,0.0012867820103388684, ,0.003004926313183046,0.02337900176389864,-0.020805437020122886,-0.04344118697242124,0.0027030184420145705,-0.03847277416466481, ,0.03143999865175467, ,0.043525155208113245, ,0.001331403813278701, ,0.13544128914814946,-0.31309503618681006,0.09844933663000001,-4.523221770904676,0.1172341167987479,-1.2981526524610274, ,-0.003475324643562818,-0.17191474920012823,0.027182272218430035,0.05567725881243878,-0.05187689365747928,0.21570002287433512, ,0.375338077545166
0.010791677911422057,0.028745371566539273,-0.08692842678378125, ,0.010732135125559004,0.029877409429902788,-0.08715232193588192, ,0.0011555016687876942, ,0.002816704282538288,0.02366488732200578,-0.021052448128639902,-0.06424279824857293,-0.014471901120164025,0.02695182596390133, ,0.03179884097239352, ,0.06585263027003127, ,0.001328890925500258, ,0.13538723001802988,-0.3149407693437497,0.09874748333000001,-4.52301208096119,0.11668757079968614,-1.2958283698230089, ,-0.00584089494118727,-0.1738039222682615,0.0275109007253886,-0.01319537507685129,-0.05222202282838113,0.2296291814034414, ,0.3807060718536377
0.010791677911422057,0.028745371566539273,-0.08692842678378125, ,0.010743633130730578,0.03002642413613307,-0.0872472134033996, ,0.001320995418562174, ,0.002816704282538288,0.02366488732200578,-0.021052448128639902,-0.06424279824857293,-0.014471901120164025,0.02695182596390133, ,0.03179884097239352, ,0.06585263027003127, ,0.0013287797211771865, ,0.13538723001802988,-0.3149407693437497,0.09874748333000001,-4.52301208096119,0.11668757079968614,-1.2958283698230089, ,-0.00584089494118727,-0.1738039222682615,0.0275109007253886,-0.01319537507685129,-0.05222202282838113,0.2296291814034414, ,0.38602304458618164
0.010826101057654544,0.029015433146265153,-0.0871666505399084, ,0.01075586420179481,0.03017473828680314,-0.08734177156436577, ,0.0011745590653542567, ,0.0032760857172142986,0.024893288605952912,-0.02097617752679401,-0.07394252168761062,-0.022405105775370047,0.006949771201254406, ,0.03271709918194733, ,0.07726241788437559, ,0.0013266377676240902, ,0.13534089362078452,-0.31692551169242544,0.09905988922000002,-4.523221770904676,0.11600438830085893,-1.293147633060872, ,-0.0019518922170389562,-0.18534558898138823,0.02789634241681261,0.005483188896951206,-0.06602266390744711,0.25140335195264246, ,0.3913309574127197
0.010826101057654544,0.029015433146265153,-0.0871666505399084, ,0.01076882616107031,0.030322354112093757,-0.08743599761157637, ,0.0013356162134824593, ,0.0032760857172142986,0.024893288605952912,-0.02097617752679401,-0.07394252168761062,-0.022405105775370047,0.006949771201254406, ,0.03271709918194733, ,0.07726241788437559, ,0.0013267607600331091, ,0.13534089362078452,-0.31692551169242544,0.09905988922000002,-4.523221770904676,0.11600438830085893,-1.293147633060872, ,-0.0019518922170389562,-0.18534558898138823,0.02789634241681261,0.005483188896951206,-0.06602266390744711,0.25140335195264246, ,0.39666008949279785
0.010853835028646987,0.02927208864433712,-0.08737939763787685, ,0.010782516827238513,0.0304692738382245,-0.0875298927418073, ,0.0012087131382682722, ,0.002426393593176415,0.025586598484606475,-0.020130576492512643,-0.043809219803829826,0.003336806347914237,0.017559391598615245, ,0.03264661571744269, ,0.04393607527521786, ,0.0013251655219011517, ,0.1352713890249165,-0.3188407494452331,0.09934377673000001,-4.52301208096119,0.11545784230179718,-1.2906599929425724, ,-0.007683579514380917,-0.19406327517069688,0.027275362191780828,0.003351875730794159,-0.041136059898577555,0.23305074433816383, ,0.4022190570831299
0.010853835028646987,0.02927208864433712,-0.08737939763787685, ,0.010796934015368097,0.030615499687455285,-0.08762345815579219, ,0.0013665857062362037, ,0.002426393593176415,0.025586598484606475,-0.020130576492512643,-0.043809219803829826,0.003336806347914237,0.017559391598615245, ,0.03264661571744269, ,0.04393607527521786, ,0.001325717791025619, ,0.1352713890249165,-0.3188407494452331,0.09934377673000001,-4.52301208096119,0.11545784230179718,-1.2906599929425724, ,-0.007683579514380917,-0.19406327517069688,0.027275362191780828,0.003351875730794159,-0.041136059898577555,0.23305074433816383, ,0.4075281620025635
0.010870308357144663,0.02952675311414653,-0.08756741485556205, ,0.01081207553693945,0.030761033878088758,-0.0877166950582003, ,0.0012446383589165913, ,0.001366658977078192,0.025410834534187514,-0.01793461193395769,-0.005540142307933625,0.040185607055289146,-0.01608072558197926, ,0.031132436038722424, ,0.04056567928309226, ,0.0013246509563926057, ,0.1351401025660547,-0.32080232359528615,0.09960303473000001,-4.522383011130737,0.11518456930226631,-1.2884768673718057, ,-0.01407757625848847,-0.19811470053960498,0.025084742551181104,0.046460028149410394,-0.01923568715633057,0.20721551836802282, ,0.4127790927886963
0.010870308357144663,0.02952675311414653,-0.08756741485556205, ,0.010827939199869343,0.03090587862447178,-0.08780960465761416, ,0.0014008705218313893, ,0.001366658977078192,0.025410834534187514,-0.01793461193395769,-0.005540142307933625,0.040185607055289146,-0.01608072558197926, ,0.031132436038722424, ,0.04056567928309226, ,0.0013256408208788236, ,0.1351401025660547,-0.32080232359528615,0.09960303473000001,-4.522383011130737,0.11518456930226631,-1.2884768673718057, ,-0.01407757625848847,-0.19811470053960498,0.025084742551181104,0.046460028149410394,-0.01923568715633057,0.20721551836802282, ,0.4182140827178955
0.010881264818689704,0.029781329642682666,-0.08773495761920627, ,0.010844522808535192,0.03105003613699755,-0.08790218816650767, ,0.0012802078737367923, ,0.001057274968419219,0.026345722270760562,-0.016756380669844136,0.012111036657685578,0.05080029952943575,-0.025436190620860444, ,0.031240857950440817, ,0.05222400138068174, ,0.0013250583471975156, ,0.13499337064144443,-0.32282567960833297,0.09984284838000002,-4.522173321187252,0.11504793280250085,-1.2864868384448767, ,-0.01513025216174598,-0.21041450456423677,0.024281724878048784,0.06022044764361929,-0.013304007171938711,0.2043334564817014, ,0.4236409664154053
0.010881264818689704,0.029781329642682666,-0.08773495761920627, ,0.010861824163799716,0.031193508622107527,-0.08799444680122366, ,0.001435953357381794, ,0.001057274968419219,0.026345722270760562,-0.016756380669844136,0.012111036657685578,0.05080029952943575,-0.025436190620860444, ,0.031240857950440817, ,0.05222400138068174, ,0.0013264620815036457, ,0.13499337064144443,-0.32282567960833297,0.09984284838000002,-4.522173321187252,0.11504793280250085,-1.2864868384448767, ,-0.01513025216174598,-0.21041450456423677,0.024281724878048784,0.06022044764361929,-0.013304007171938711,0.2043334564817014, ,0.4289250373840332
0.01089123392339652,0.03004846080690269,-0.0878982024444236, ,0.010879841063035443,0.03133629828229361,-0.08808638178195209, ,0.0013015631461289648, ,0.0008479501604018017,0.02705907388455318,-0.0160076693546433,0.020226612281601115,0.031852989468865625,-0.011688703566671343, ,0.03145088197701011, ,0.03773231680406568, ,0.0013261508448114622, ,0.13481574778533725,-0.32498804481311583,0.10008266203,-4.522173321187252,0.11463802330320454,-1.2842739737105544, ,-0.01785455156321181,-0.21966884620016383,0.02380988269058296,0.04095959626274518,-0.029498090103816096,0.20052888942123037, ,0.43429994583129883
0.01089123392339652,0.03004846080690269,-0.0878982024444236, ,0.010898571300149132,0.031478407316099674,-0.08817799433270743, ,0.001457080765438786, ,0.0008479501604018017,0.02705907388455318,-0.0160076693546433,0.020226612281601115,0.031852989468865625,-0.011688703566671343, ,0.03145088197701011, ,0.03773231680406568, ,0.001327767263584639, ,0.13481574778533725,-0.32498804481311583,0.10008266203,-4.522173321187252,0.11463802330320454,-1.2842739737105544, ,-0.01785455156321181,-0.21966884620016383,0.02380988269058296,0.04095959626274518,-0.029498090103816096,0.20052888942123037, ,0.43955397605895996
0.010902755452202435,0.030339077575740288,-0.08806940672870665, ,0.010918012665606342,0.03161983791812347,-0.08826928568130653, ,0.0012963531281540396, ,0.0011625100450954767,0.0280654730756773,-0.015985046557849696,-0.0007360494199205054,0.0038618018212439893,-0.0101045467985168, ,0.03231940472878697, ,0.003931187908243806, ,0.0013273841643720707, ,0.1346304021963559,-0.3273512010726285,0.10033803116000001,-4.522173321187252,0.11409147730414278,-1.2819496910725356, ,-0.01719458988194796,-0.22921966560017099,0.024171185918057666,0.030784396455712515,-0.059260462972429734,0.22561040459486148, ,0.4449000358581543
0.010902755452202435,0.030339077575740288,-0.08806940672870665, ,0.010938162946455884,0.03176059227901914,-0.08836025705934704, ,0.0014513964507056258, ,0.0011625100450954767,0.0280654730756773,-0.015985046557849696,-0.0007360494199205054,0.0038618018212439893,-0.0101045467985168, ,0.03231940472878697, ,0.003931187908243806, ,0.0013288782883038002, ,0.1346304021963559,-0.3273512010726285,0.10033803116000001,-4.522173321187252,0.11409147730414278,-1.2819496910725356, ,-0.01719458988194796,-0.22921966560017099,0.024171185918057666,0.030784396455712515,-0.059260462972429734,0.22561040459486148, ,0.4502270221710205
0.010914148721365233,0.03061403502117417,-0.0882232724506839, ,0.010959019926354403,0.03190067258549843,-0.08845090970218478, ,0.0013073899055898823, ,0.0011236302332877607,0.028266428031502408,-0.015281570808181197,0.01925728215957016,0.0024186332553113015,0.023288089252624832, ,0.0321524478838971, ,0.01940855145606991, ,0.0013286224742238726, ,0.13448367027174563,-0.32959851633902787,0.10057265965000001,-4.521963631243768,0.11368156780484645,-1.2798185050783542, ,-0.015020092047874451,-0.23259054303546764,0.02363325151335312,0.0,-0.04501461924673172,0.20691604253251608, ,0.45651912689208984
0.010926981022992043,0.030911606840022105,-0.08838085908358982, ,0.010980581385590804,0.032040081020333205,-0.08854124484891152, ,0.0011410743044242796, ,0.0014091211548040816,0.028799687847806416,-0.015440789198315624,0.04771235546204573,0.03853213080014947,-0.04130753821037463, ,0.03270818878548345, ,0.061328566671932434, ,0.001326416025167407, ,0.13436010654575803,-0.3320388999272828,0.10081895475000001,-4.52112487146983,0.11340829480531558,-1.277798736987869, ,-0.010268311154489502,-0.2348934196991851,0.02406164882175227,0.07579623614507497,-0.025630065995202594,0.19300912776177537, ,0.461806058883667
0.010926981022992043,0.030911606840022105,-0.08838085908358982, ,0.011002845101110739,0.03217881976235693,-0.08863126374233278, ,0.0012939422096837822, ,0.0014091211548040816,0.028799687847806416,-0.015440789198315624,0.04771235546204573,0.03853213080014947,-0.04130753821037463, ,0.03270818878548345, ,0.061328566671932434, ,0.0013260384226617833, ,0.13436010654575803,-0.3320388999272828,0.10081895475000001,-4.52112487146983,0.11340829480531558,-1.277798736987869, ,-0.010268311154489502,-0.2348934196991851,0.02406164882175227,0.07579623614507497,-0.025630065995202594,0.19300912776177537, ,0.4671361446380615
0.010943963482774894,0.0311907814506017,-0.0885285995523027, ,0.011025808846541198,0.03231689098646691,-0.08872096762894612, ,0.0011453500893823176, ,0.0018048476738510267,0.02890523019899642,-0.015017594940487355,0.05378667401607177,0.037643461532097314,-0.0149772896081319, ,0.03262357990440858, ,0.0656508624009653, ,0.0013239615452677665, ,0.13429832468276423,-0.334317106125179,0.10105099066,-4.520495801639376,0.11313502180578469,-1.2758606476375243, ,-0.0036880978790495445,-0.23606204367778796,0.02380988269058296,0.05311089481161056,-0.010851955684176174,0.1873089644641145, ,0.4740140438079834
0.010943963482774894,0.0311907814506017,-0.0885285995523027, ,0.011049470392214926,0.032454296863626206,-0.08881035775891852, ,0.001298842020372546, ,0.0018048476738510267,0.02890523019899642,-0.015017594940487355,0.05378667401607177,0.037643461532097314,-0.0149772896081319, ,0.03262357990440858, ,0.0656508624009653, ,0.0013236760961212299, ,0.13429832468276423,-0.334317106125179,0.10105099066,-4.520495801639376,0.11313502180578469,-1.2758606476375243, ,-0.0036880978790495445,-0.23606204367778796,0.02380988269058296,0.05311089481161056,-0.010851955684176174,0.1873089644641145, ,0.4793109893798828
0.010963611772453124,0.03148493940085804,-0.08868526863058519, ,0.011073827505195017,0.032591039560865155,-0.08889943538606458, ,0.001132021409189849, ,0.0020462956158541516,0.029579956428429196,-0.016138246429935117,0.03519812683772856,0.011844963530320092,0.05990138095639815, ,0.033758023429824015, ,0.037137719359880285, ,0.0013215226726725627, ,0.13426743375126732,-0.3367034305833144,0.10129728576000001,-4.520286111695891,0.11299838530601926,-1.2738706187105948, ,-0.002514871545095841,-0.23843452652882108,0.025163999241706165,-0.026136421600483673,-0.010964615049472548,0.19833075268189004, ,0.48471617698669434
0.010963611772453124,0.03148493940085804,-0.08868526863058519, ,0.011098877949299327,0.032727121241284095,-0.08898820176782393, ,0.0012857220340805238, ,0.0020462956158541516,0.029579956428429196,-0.016138246429935117,0.03519812683772856,0.011844963530320092,0.05990138095639815, ,0.033758023429824015, ,0.037137719359880285, ,0.0013211248877993177, ,0.13426743375126732,-0.3367034305833144,0.10129728576000001,-4.520286111695891,0.11299838530601926,-1.2738706187105948, ,-0.002514871545095841,-0.23843452652882108,0.025163999241706165,-0.026136421600483673,-0.010964615049472548,0.19833075268189004, ,0.49007296562194824
0.010987053104290578,0.031811784394315326,-0.08886523684183563, ,0.011124619485124986,0.03286254406405445,-0.08907665816523953, ,0.0010806106461977913, ,0.0025285317647578526,0.029818541481280967,-0.016672971049728706,0.038345325933978616,0.009814762830185663,0.05130880271353698, ,0.03425677819908572, ,0.03958146412089287, ,0.001318481874155345, ,0.13424426555264465,-0.33932143702767653,0.10157728440000001,-4.520286111695891,0.11286174880625381,-1.2717172323033843, ,0.0020260546593578836,-0.23724235389617693,0.02585846025974026,-0.017193421414652438,-0.010832275472633117,0.1951140492101141, ,0.4954221248626709
0.010987053104290578,0.031811784394315326,-0.08886523684183563, ,0.011151049870072953,0.03299731018442108,-0.08916480584293474, ,0.0012337373807307865, ,0.0025285317647578526,0.029818541481280967,-0.016672971049728706,0.038345325933978616,0.009814762830185663,0.05130880271353698, ,0.03425677819908572, ,0.03958146412089287, ,0.001317560738357252, ,0.13424426555264465,-0.33932143702767653,0.10157728440000001,-4.520286111695891,0.11286174880625381,-1.2717172323033843, ,0.0020260546593578836,-0.23724235389617693,0.02585846025974026,-0.017193421414652438,-0.010832275472633117,0.1951140492101141, ,0.500709056854248
0.011013835560276374,0.032124516527406825,-0.08903796203459027, ,0.011178166858372501,0.03313142175370443,-0.08925264606909267, ,0.0010425699712487506, ,0.0026550344024961906,0.029432865260613065,-0.016119645689969077,0.04884296504491469,0.013577781857116892,0.03520170926287518, ,0.033662824336320625, ,0.050695071813401785, ,0.0013146038483883434, ,0.1342828792170158,-0.3418081570131768,0.10184691272000002,-4.520495801639376,0.11286174880625381,-1.2698386212801516, ,0.004435092731809794,-0.2337363092573172,0.02528382780952381,0.0,-0.008461268992540343,0.18352105789409923, ,0.5060901641845703
0.011040350765296355,0.03240301176249258,-0.08918796392881362, ,0.011205968201105693,0.033264880919301916,-0.08934018011543206, ,0.0008907397745536899, ,0.002722834945204397,0.028825145907894544,-0.015080994439199523,0.04195655689646657,0.027642572259748636,0.011230795775573068, ,0.03264566219309087, ,0.05024404131479216, ,0.0013100946561135066, ,0.13433693834713534,-0.34401685861520503,0.10208413379,-4.519866731808922,0.11272511230648836,-1.2679302710933626, ,0.007331997710548189,-0.2297746768970237,0.024171185918057666,0.028105532758523857,-0.0015796788499494163,0.19111095537214506, ,0.5123341083526611
0.011040350765296355,0.03240301176249258,-0.08918796392881362, ,0.011234451646231906,0.033397689824690366,-0.08942740925718654, ,0.0010413422418576502, ,0.002722834945204397,0.028825145907894544,-0.015080994439199523,0.04195655689646657,0.027642572259748636,0.011230795775573068, ,0.03264566219309087, ,0.05024404131479216, ,0.0013072656833318659, ,0.13433693834713534,-0.34401685861520503,0.10208413379,-4.519866731808922,0.11272511230648836,-1.2679302710933626, ,0.007331997710548189,-0.2297746768970237,0.024171185918057666,0.028105532758523857,-0.0015796788499494163,0.19111095537214506, ,0.5176939964294434
0.011070036439122511,0.03267760913374426,-0.08933016426841786, ,0.011263614938612294,0.03352985060942752,-0.08951433477308249, ,0.0008931444133665732, ,0.003048488692382377,0.027718095858601115,-0.013920296233567329,0.04627194515547481,0.0368168819976644,-0.05450954757720901, ,0.03116666117126524, ,0.059131845783920736, ,0.0013029519201030607, ,0.13443733387450027,-0.3462023920186105,0.10231357712000001,-4.519237661978469,0.11258847580672293,-1.2659402421664332, ,0.011602195151762218,-0.22120499197778737,0.022787999313304726,0.09388955912493743,-0.010416671179497456,0.18525329864098056, ,0.5230269432067871
0.011070036439122511,0.03267760913374426,-0.08933016426841786, ,0.01129345582003435,0.03366136540915434,-0.08960095794531539, ,0.0010445199110708345, ,0.003048488692382377,0.027718095858601115,-0.013920296233567329,0.04627194515547481,0.0368168819976644,-0.05450954757720901, ,0.03116666117126524, ,0.059131845783920736, ,0.0013002876725872643, ,0.13443733387450027,-0.3462023920186105,0.10231357712000001,-4.519237661978469,0.11258847580672293,-1.2659402421664332, ,0.011602195151762218,-0.22120499197778737,0.022787999313304726,0.09388955912493743,-0.010416671179497456,0.18525329864098056, ,0.5285260677337646
0.01110212220408783,0.032961505351931875,-0.08947357904303961, ,0.011323972029236401,0.03379223635559668,-0.08968728005952994, ,0.0008860019581340601, ,0.003343224532606532,0.026760945218853235,-0.013339480525721049,0.02877350620830923,-0.0018762798590563033,0.04063579281522037, ,0.030087656604959732, ,0.028834608775872596, ,0.0012960602673377421, ,0.1345763430662363,-0.34846515275075834,0.10254820561000001,-4.519027972034984,0.11258847580672293,-1.264143309883341, ,0.01599746148996473,-0.21373185035691616,0.022001120883977904,-0.008893096486238053,-0.009318421572463235,0.18251085910137127, ,0.5340399742126465
0.01110212220408783,0.032961505351931875,-0.08947357904303961, ,0.011355161301932051,0.03392246557656738,-0.08977330240479564, ,0.0010379342136916383, ,0.003343224532606532,0.026760945218853235,-0.013339480525721049,0.02877350620830923,-0.0018762798590563033,0.04063579281522037, ,0.030087656604959732, ,0.028834608775872596, ,0.001293452933462529, ,0.1345763430662363,-0.34846515275075834,0.10254820561000001,-4.519027972034984,0.11258847580672293,-1.264143309883341, ,0.01599746148996473,-0.21373185035691616,0.022001120883977904,-0.008893096486238053,-0.009318421572463235,0.18251085910137127, ,0.539431095123291
0.011136283241525248,0.033217598981710804,-0.08960146748379855, ,0.0113870213708347,0.03405205519596818,-0.08985902627358602, ,0.0009085831349959893, ,0.003638929434599967,0.025629006498077325,-0.012979426719969373,0.017352499633065933,-0.0011984074572633269,0.03149426601346504, ,0.028957784782119345, ,0.01739382233969465, ,0.0012896042354778633, ,0.1347616886552177,-0.3505039542295536,0.10275950088000001,-4.519237661978469,0.11258847580672293,-1.2624280563403891, ,0.019848764182905414,-0.20277124264630508,0.021352294262734585,0.0,-0.007887572505121959,0.18440546290862694, ,0.5447349548339844
0.011136283241525248,0.033217598981710804,-0.08960146748379855, ,0.011419549965682153,0.03418100733379136,-0.08994445296175643, ,0.00106114783511213, ,0.003638929434599967,0.025629006498077325,-0.012979426719969373,0.017352499633065933,-0.0011984074572633269,0.03149426601346504, ,0.028957784782119345, ,0.01739382233969465, ,0.0012873422909197869, ,0.1347616886552177,-0.3505039542295536,0.10275950088000001,-4.519237661978469,0.11258847580672293,-1.2624280563403891, ,0.019848764182905414,-0.20277124264630508,0.021352294262734585,0.0,-0.007887572505121959,0.18440546290862694, ,0.5500140190124512
0.011176412420648207,0.03348362186697593,-0.08974119420013806, ,0.01145274481326093,0.034309324106122266,-0.09002958376852126, ,0.0009172307899817796, ,0.004192351320692372,0.025436321620134313,-0.013999369649447157,0.018134494844453262,-0.005815019572844474,0.030769197485758848, ,0.029335381670278052, ,0.01904399690698182, ,0.0012837137467929438, ,0.13499337064144443,-0.35258136937272,0.10298635163000001,-4.519027972034984,0.11258847580672293,-1.2606311240572967, ,0.024439078433806535,-0.19606806107122063,0.022340549116409536,0.0,-0.0067693634837369876,0.17705630601923067, ,0.5553910732269287
0.011176412420648207,0.03348362186697593,-0.08974119420013806, ,0.01148660363743093,0.03443700762514045,-0.09011441999643195, ,0.001069794601715351, ,0.004192351320692372,0.025436321620134313,-0.013999369649447157,0.018134494844453262,-0.005815019572844474,0.030769197485758848, ,0.029335381670278052, ,0.01904399690698182, ,0.0012816368618892779, ,0.13499337064144443,-0.35258136937272,0.10298635163000001,-4.519027972034984,0.11258847580672293,-1.2606311240572967, ,0.024439078433806535,-0.19606806107122063,0.022340549116409536,0.0,-0.0067693634837369876,0.17705630601923067, ,0.5607521533966064
0.011221168220249612,0.03373974198999602,-0.0898933689297094, ,0.011521124159149881,0.03456405999912263,-0.09019896295135565, ,0.0009289033596224857, ,0.004651277717453253,0.025263765418975407,-0.015817171194068547,0.019718732598469353,0.0029070268504665484,-0.0003700445032878161, ,0.030167451535261753, ,0.01993183961351852, ,0.0012782451935982508, ,0.13525594355916806,-0.3545043298584019,0.10322227641000001,-4.5186085921480155,0.11258847580672293,-1.258915870514345, ,0.026678926499429514,-0.18643799913255554,0.02406164882175227,0.03221139965787144,-0.005953146188541166,0.17004188524809571, ,0.5660769939422607
0.011221168220249612,0.03373974198999602,-0.0898933689297094, ,0.011556304096497804,0.034690483332443414,-0.0902832139424517, ,0.0010808349965408077, ,0.004651277717453253,0.025263765418975407,-0.015817171194068547,0.019718732598469353,0.0029070268504665484,-0.0003700445032878161, ,0.030167451535261753, ,0.01993183961351852, ,0.001276365096483418, ,0.13525594355916806,-0.3545043298584019,0.10322227641000001,-4.5186085921480155,0.11258847580672293,-1.258915870514345, ,0.026678926499429514,-0.18643799913255554,0.02406164882175227,0.03221139965787144,-0.005953146188541166,0.17004188524809571, ,0.5713939666748047
0.011283606475372177,0.03405673851957589,-0.09010225406819213, ,0.011592141164701551,0.03481627972557836,-0.09036717428215046, ,0.0008615562766871287, ,0.005097774980774834,0.02470060199902599,-0.016693262281976002,0.011671210759742453,0.0031193811494132774,-0.009490433536464055, ,0.030245198866658874, ,0.012080827912521536, ,0.0012724518057306228, ,0.13562663473713085,-0.35679798152204656,0.10353468230000001,-4.518398902204531,0.11258847580672293,-1.2567922232706903, ,0.030173908285682283,-0.17638836720905351,0.024772646220839814,0.04094311384416611,-0.005173847806940219,0.16933847168015198, ,0.5770161151885986
0.011283606475372177,0.03405673851957589,-0.09010225406819213, ,0.011628633076159306,0.03494145127510506,-0.09045084528613076, ,0.0010115709823194207, ,0.005097774980774834,0.02470060199902599,-0.016693262281976002,0.011671210759742453,0.0031193811494132774,-0.009490433536464055, ,0.030245198866658874, ,0.012080827912521536, ,0.0012700136671940695, ,0.13562663473713085,-0.35679798152204656,0.10353468230000001,-4.518398902204531,0.11258847580672293,-1.2567922232706903, ,0.030173908285682283,-0.17638836720905351,0.024772646220839814,0.04094311384416611,-0.005173847806940219,0.16933847168015198, ,0.5824949741363525
0.011334079350955664,0.034286465766508636,-0.09026428194479529, ,0.011665777540465109,0.035066000073705486,-0.0905342282732983, ,0.0008891391596892866, ,0.005541396775175164,0.023759888365832194,-0.017299985893103307,0.007176919363835332,-0.00423391861370441,-0.004066699807111681, ,0.02990867575266921, ,0.008332627961805589, ,0.0012664870513838398, ,0.13593554405209982,-0.3584120326927595,0.10377190337000002,-4.518398902204531,0.11258847580672293,-1.2553220059481602, ,0.03404985344760344,-0.16418155978974183,0.025084742551181104,0.033200369413189205,-0.004709835327569673,0.16072729142723519, ,0.5878760814666748
0.011334079350955664,0.034286465766508636,-0.09026428194479529, ,0.011703572264433271,0.03518992821016801,-0.09061732456576249, ,0.0010379828960211878, ,0.005541396775175164,0.023759888365832194,-0.017299985893103307,0.007176919363835332,-0.00423391861370441,-0.004066699807111681, ,0.02990867575266921, ,0.008332627961805589, ,0.0012643906829860174, ,0.13593554405209982,-0.3584120326927595,0.10377190337000002,-4.518398902204531,0.11258847580672293,-1.2553220059481602, ,0.03404985344760344,-0.16418155978974183,0.025084742551181104,0.033200369413189205,-0.004709835327569673,0.16072729142723519, ,0.5938949584960938
0.011396913010837251,0.034537115351019845,-0.09045434231957544, ,0.011742014952122988,0.035313237769389,-0.09070013548881527, ,0.0008842373212092602, ,0.0055920410147897726,0.02275429659212322,-0.01718200971553661,-0.009441577795544295,-0.003750191884509303,0.006320665064663212, ,0.02905598723117485, ,0.010159027164532663, ,0.0012609347433335015, ,0.13632168069581105,-0.36011103392508886,0.10404412427000001,-4.517979522317562,0.11245183930695749,-1.2534136557613713, ,0.035108006495919636,-0.15405347655595905,0.024657602972136226,0.022696857693251894,0.0,0.16672230457713993, ,0.5991840362548828
0.011457570309147815,0.03475754043209637,-0.09061681355173287, ,0.011781103304862765,0.035435930832375,-0.09078266237090807, ,0.0007696706862862175, ,0.005713844764433653,0.021899685536920382,-0.015803525011524242,0.01968478663769708,0.010300248496452223,-0.03576678747296953, ,0.02760426871695604, ,0.022216772004577754, ,0.0012565089410177602, ,0.13672326280527072,-0.36160924410268847,0.10428004905,-4.517350452487108,0.11231520280719205,-1.251832020535145, ,0.03879678722750236,-0.14944400245428469,0.02311873950653121,0.06864703030032446,0.005693671938655199,0.13942672409911555, ,0.6062259674072266
0.011457570309147815,0.03475754043209637,-0.09061681355173287, ,0.011820835021274942,0.03555800947624449,-0.09086490654363083, ,0.0009133794799233726, ,0.005713844764433653,0.021899685536920382,-0.015803525011524242,0.01968478663769708,0.010300248496452223,-0.03576678747296953, ,0.02760426871695604, ,0.022216772004577754, ,0.0012534452851151318, ,0.13672326280527072,-0.36160924410268847,0.10428004905,-4.517350452487108,0.11231520280719205,-1.251832020535145, ,0.03879678722750236,-0.14944400245428469,0.02311873950653121,0.06864703030032446,0.005693671938655199,0.13942672409911555, ,0.6114881038665771
0.011518256576373046,0.034973643821205505,-0.09077216414634898, ,0.011861207797300186,0.03567947577423011,-0.09094686934168866, ,0.0008039503660827739, ,0.005880556440932659,0.020423469498867735,-0.01448202460210032,0.0068272530113812286,-0.0009785969086458322,-0.016806255970192908, ,0.025718244244155048, ,0.006896984745582562, ,0.0012494674539732524, ,0.13714801311335306,-0.3630842860816653,0.10450819609,-4.51693107260014,0.11231520280719205,-1.250361803212615, ,0.04247848771641485,-0.13955432582128055,0.021409692903225808,0.04683387256700257,0.005693671938655199,0.13971868802824036, ,0.6168379783630371
0.011518256576373046,0.034973643821205505,-0.09077216414634898, ,0.011902219326222018,0.0358003317956801,-0.09102855210288037, ,0.0009468765414069784, ,0.005880556440932659,0.020423469498867735,-0.01448202460210032,0.0068272530113812286,-0.0009785969086458322,-0.016806255970192908, ,0.025718244244155048, ,0.006896984745582562, ,0.0012468131477226712, ,0.13714801311335306,-0.3630842860816653,0.10450819609,-4.51693107260014,0.11231520280719205,-1.250361803212615, ,0.04247848771641485,-0.13955432582128055,0.021409692903225808,0.04683387256700257,0.005693671938655199,0.13971868802824036, ,0.6222400665283203
0.011575436760699736,0.035166174853979076,-0.09090604293001167, ,0.01194386729869128,0.03592057960606073,-0.0911099561680759, ,0.0008639723374888589, ,0.006103587980101696,0.020040248850628703,-0.01354214686481013,0.01377023630341344,0.004517348999112585,-0.042539096194925234, ,0.024945041630232926, ,0.014492252909223248, ,0.0012434840971988989, ,0.13756504068856118,-0.3644048734031577,0.10470782475000001,-4.516302002769685,0.11231520280719205,-1.2489732646302252, ,0.04608884971271043,-0.13833373405024896,0.02044776831835687,0.07430428782023668,0.005556148450582712,0.13503184849047803, ,0.627871036529541
0.011575436760699736,0.035166174853979076,-0.09090604293001167, ,0.011986149402750692,0.03604022126695812,-0.09119108288119465, ,0.0010069209403684109, ,0.006103587980101696,0.020040248850628703,-0.01354214686481013,0.01377023630341344,0.004517348999112585,-0.042539096194925234, ,0.024945041630232926, ,0.014492252909223248, ,0.0012414447596400156, ,0.13756504068856118,-0.3644048734031577,0.10470782475000001,-4.516302002769685,0.11231520280719205,-1.2489732646302252, ,0.04608884971271043,-0.13833373405024896,0.02044776831835687,0.07430428782023668,0.005556148450582712,0.13503184849047803, ,0.6331501007080078
0.011640880439244694,0.03536763769335438,-0.0910421959125967, ,0.012029063323859238,0.03615925883607983,-0.09127193358918313, ,0.0009111143646990461, ,0.006491060743285384,0.0193836773811909,-0.013473114069421758,-0.006406374394283147,-0.012516113583134411,-0.007413026553462762, ,0.024482353259414478, ,0.0140603800855327, ,0.0012386214229311182, ,0.1380670183253858,-0.36579496532051814,0.10491393486000002,-4.5158826228827165,0.11231520280719205,-1.2475030473076951, ,0.050263210571223925,-0.1319846196918926,0.020214227817258887,0.03567490382417484,0.005097464048317716,0.14400683517644158, ,0.6384429931640625
0.011640880439244694,0.03536763769335438,-0.0910421959125967, ,0.012072606744916845,0.03627769436725717,-0.09135250964199232, ,0.001053985466396831, ,0.006491060743285384,0.0193836773811909,-0.013473114069421758,-0.006406374394283147,-0.012516113583134411,-0.007413026553462762, ,0.024482353259414478, ,0.0140603800855327, ,0.0012370567114350648, ,0.1380670183253858,-0.36579496532051814,0.10491393486000002,-4.5158826228827165,0.11231520280719205,-1.2475030473076951, ,0.050263210571223925,-0.1319846196918926,0.020214227817258887,0.03567490382417484,0.005097464048317716,0.14400683517644158, ,0.6438350677490234
0.011707202916282978,0.03556389198072098,-0.09118270385847137, ,0.0121167773462887,0.03639552991044702,-0.09143281239255657, ,0.0009601703696197773, ,0.006678849182661924,0.019182317584008197,-0.013990867569706156,-0.024717364371644297,-0.018026462502367932,0.002125573960134529, ,0.024663996222257848, ,0.03059249770381258, ,0.0012347299354534239, ,0.13858444142795884,-0.3671155526420105,0.10512263755000001,-4.5158826228827165,0.11245183930695749,-1.2460625691487208, ,0.05112981765003813,-0.12772132107465783,0.02065993712062257,0.024278675675414824,0.002586803865167716,0.15639162855975416, ,0.649122953414917
0.011707202916282978,0.03556389198072098,-0.09118270385847137, ,0.012161572805829864,0.03651276751173357,-0.09151284319677037, ,0.0011026371808413589, ,0.006678849182661924,0.019182317584008197,-0.013990867569706156,-0.024717364371644297,-0.018026462502367932,0.002125573960134529, ,0.024663996222257848, ,0.03059249770381258, ,0.0012336291624983234, ,0.13858444142795884,-0.3671155526420105,0.10512263755000001,-4.5158826228827165,0.11245183930695749,-1.2460625691487208, ,0.05112981765003813,-0.12772132107465783,0.02065993712062257,0.024278675675414824,0.002586803865167716,0.15639162855975416, ,0.6544029712677002
0.01177682457088288,0.0357515712125645,-0.09132607098641034, ,0.01220699079890976,0.036629409213330764,-0.09159260341346682, ,0.001013253213168759, ,0.0076104291349663065,0.01935112733582787,-0.01563704791606246,-0.03939346138424136,-0.025992516567477898,0.006483849552138796, ,0.026017340915531744, ,0.04719591912892102, ,0.0012318078736608888, ,0.13911730999628033,-0.368335744436138,0.10533134024000002,-4.5154632429957475,0.11245183930695749,-1.2444289943459097, ,0.05850612919757755,-0.12244766652705909,0.022371926292134834,0.019165785141537724,0.0025281875254417234,0.16527397483928935, ,0.6597340106964111
0.011856689936952098,0.035958581488595466,-0.09149806639317705, ,0.01225302899843663,0.0367454570535835,-0.0916720944043952, ,0.000898077699935936, ,0.007864976685146383,0.019897999312774667,-0.016925481354134752,-0.03376729671257196,-0.0008665189158747564,-0.058730613959593544, ,0.027281131830960394, ,0.03377839240249859, ,0.0012290723804336352, ,0.13972740589334406,-0.3696177180932593,0.10557504276000002,-4.51462448322181,0.11258847580672293,-1.2427434799665136, ,0.05886907044570147,-0.12150696742441842,0.02380988269058296,0.08965556632741545,0.002045695254057732,0.16784027899407333, ,0.6659090518951416
0.011856689936952098,0.035958581488595466,-0.09149806639317705, ,0.012299685074882074,0.036860913066970195,-0.09175131753419943, ,0.001036621005956839, ,0.007864976685146383,0.019897999312774667,-0.016925481354134752,-0.03376729671257196,-0.0008665189158747564,-0.058730613959593544, ,0.027281131830960394, ,0.03377839240249859, ,0.0012275077351126856, ,0.13972740589334406,-0.3696177180932593,0.10557504276000002,-4.51462448322181,0.11258847580672293,-1.2427434799665136, ,0.05886907044570147,-0.12150696742441842,0.02380988269058296,0.08965556632741545,0.002045695254057732,0.16784027899407333, ,0.6722719669342041
0.011921189830395156,0.03611350872510461,-0.09163357529380509, ,0.012346956696305589,0.036975779284104456,-0.09183027417039472, ,0.0009815693501106885, ,0.008389944327956506,0.01976018436520328,-0.017012578995711784,-0.02846291269299204,-0.019786318873439623,-0.02889317646128565, ,0.02739131059402539, ,0.034664598489128486, ,0.0012255243610400886, ,0.1402139380644202,-0.3705521687710404,0.10576430110000001,-4.514414793278324,0.11258847580672293,-1.2415182988644053, ,0.06424979117025781,-0.11951755863787251,0.02391713441441442,0.0566058008848036,0.002045695254057732,0.1561611820395694, ,0.6776490211486816
0.011921189830395156,0.03611350872510461,-0.09163357529380509, ,0.012394841528378945,0.037090057731736875,-0.09190896568334635, ,0.0011197471857562653, ,0.008389944327956506,0.01976018436520328,-0.017012578995711784,-0.02846291269299204,-0.019786318873439623,-0.02889317646128565, ,0.02739131059402539, ,0.034664598489128486, ,0.0012246781436378183, ,0.1402139380644202,-0.3705521687710404,0.10576430110000001,-4.514414793278324,0.11258847580672293,-1.2415182988644053, ,0.06424979117025781,-0.11951755863787251,0.02391713441441442,0.0566058008848036,0.002045695254057732,0.1561611820395694, ,0.6831710338592529
0.012022914892043034,0.03635238837392441,-0.0918304540854583, ,0.012443337234410809,0.0372037504327573,-0.09198739344624782, ,0.0009623940274893691, ,0.00829318950788136,0.019179014317055737,-0.015050904290986187,-0.022962420439489414,-0.034984446131094936,0.01724790634806598, ,0.02575153009752797, ,0.04184714388332213, ,0.0012225965236683863, ,0.14101710228333955,-0.3720272107500173,0.10604559603000001,-4.51420510333484,0.11272511230648836,-1.239751105744869, ,0.06659434495331282,-0.12088782364136405,0.02191033221458047,0.009067058982270448,0.008306983028577032,0.14661574201008548, ,0.6885271072387695
0.012022914892043034,0.03635238837392441,-0.0918304540854583, ,0.012492441475371227,0.037316859406196494,-0.09206555883509732, ,0.001098150184558855, ,0.00829318950788136,0.019179014317055737,-0.015050904290986187,-0.022962420439489414,-0.034984446131094936,0.01724790634806598, ,0.02575153009752797, ,0.04184714388332213, ,0.001221616631234453, ,0.14101710228333955,-0.3720272107500173,0.10604559603000001,-4.51420510333484,0.11272511230648836,-1.239751105744869, ,0.06659434495331282,-0.12088782364136405,0.02191033221458047,0.009067058982270448,0.008306983028577032,0.14661574201008548, ,0.6938750743865967
0.01210532333485898,0.036537022377239596,-0.09197680039299823, ,0.012542151909916028,0.037429386667228115,-0.09214346322867709, ,0.0010074272831473257, ,0.008635647830901962,0.019182981493297967,-0.015384018950355533,-0.023637961029849656,-0.028250183478275386,-0.007325258728935583, ,0.02606202661913444, ,0.03683510834134911, ,0.0012199432769525221, ,0.14167353457764864,-0.37317789794827677,0.10625818759000001,-4.513576033504387,0.11272511230648836,-1.2382808884223386, ,0.06941985483428732,-0.11876963899683453,0.022278058069930072,0.03537121492313227,0.007898164194815645,0.1486171459306535, ,0.6992361545562744
0.01210532333485898,0.036537022377239596,-0.09197680039299823, ,0.012592466194411473,0.037541334227170806,-0.09222110800853067, ,0.0011426445941465685, ,0.008635647830901962,0.019182981493297967,-0.015384018950355533,-0.023637961029849656,-0.028250183478275386,-0.007325258728935583, ,0.02606202661913444, ,0.03683510834134911, ,0.001219344062357127, ,0.14167353457764864,-0.37317789794827677,0.10625818759000001,-4.513576033504387,0.11272511230648836,-1.2382808884223386, ,0.06941985483428732,-0.11876963899683453,0.022278058069930072,0.03537121492313227,0.007898164194815645,0.1486171459306535, ,0.7045791149139404
0.012192322753530233,0.036728393809352555,-0.09212655929976955, ,0.012643381982958649,0.03765270409348974,-0.09229849455893982, ,0.0010427682691567979, ,0.008950516896259595,0.019578257192787083,-0.015271715942416527,-0.009393994271351987,-0.020575772913309406,-0.04902498556355767, ,0.026394037494157783, ,0.022618769388715182, ,0.001217985787024817, ,0.14238402600207728,-0.37436719881090735,0.10647726060000001,-4.5127372737304485,0.11286174880625381,-1.2370037677436454, ,0.07211013796236382,-0.12181892369508443,0.022371926292134834,0.07880106841585437,0.0027120428076323447,0.14232740866309768, ,0.7099430561065674
0.012192322753530233,0.036728393809352555,-0.09212655929976955, ,0.012694896927418015,0.03776349826979926,-0.09237562426690425, ,0.0011773085416106755, ,0.008950516896259595,0.019578257192787083,-0.015271715942416527,-0.009393994271351987,-0.020575772913309406,-0.04902498556355767, ,0.026394037494157783, ,0.022618769388715182, ,0.001217675273701045, ,0.14238402600207728,-0.37436719881090735,0.10647726060000001,-4.5127372737304485,0.11286174880625381,-1.2370037677436454, ,0.07211013796236382,-0.12181892369508443,0.022371926292134834,0.07880106841585437,0.0027120428076323447,0.14232740866309768, ,0.7155671119689941
0.01228499829696933,0.036930072185514216,-0.0922781310132688, ,0.012747008677433853,0.03787371875586378,-0.09245249852211818, ,0.001065047637212443, ,0.009250438812993653,0.019135760473362195,-0.014484698185417989,-0.0002835942642067375,-0.028843926622652186,-0.008693982833939963, ,0.02572070039189216, ,0.028845309690159093, ,0.0012165190037276463, ,0.14316402202237397,-0.3756414497351544,0.10670281506000001,-4.512527583786964,0.11313502180578469,-1.235593028748227, ,0.07772067285706043,-0.11997084899933096,0.02155454874154263,0.040382386662989725,0.017363742254727088,0.12829695801519123, ,0.7216601371765137
0.01237612913675619,0.03712284402071298,-0.09242199308485237, ,0.012799714880458848,0.037983367547600885,-0.09252911871694805, ,0.0009650914586958223, ,0.00900803859263539,0.019278766800014786,-0.014205633824876674,0.00320013793852226,-0.0279523541439837,0.02473679545598629, ,0.025585457607442578, ,0.028134932139897387, ,0.0012146285710582343, ,0.1439362953097964,-0.3768539187964076,0.10691799920000002,-4.512108203899995,0.11340829480531558,-1.2343456472330896, ,0.07659155896567456,-0.12197550328852286,0.021352294262734585,0.009653031650106824,0.030054954854103876,0.12451210489483897, ,0.7270050048828125
0.01237612913675619,0.03712284402071298,-0.09242199308485237, ,0.012853013181778623,0.03809244663708218,-0.09260548624641125, ,0.0010960006233601462, ,0.00900803859263539,0.019278766800014786,-0.014205633824876674,0.00320013793852226,-0.0279523541439837,0.02473679545598629, ,0.025585457607442578, ,0.028134932139897387, ,0.0012137432878664577, ,0.1439362953097964,-0.3768539187964076,0.10691799920000002,-4.512108203899995,0.11340829480531558,-1.2343456472330896, ,0.07659155896567456,-0.12197550328852286,0.021352294262734585,0.009653031650106824,0.030054954854103876,0.12451210489483897, ,0.732288122177124
0.012468567373165675,0.03731611946967336,-0.09255976509119371, ,0.012906901224536011,0.03820095801253623,-0.09268160250815358, ,0.0009949473193914815, ,0.009300779901701965,0.01936015389800025,-0.013546444339000088,-0.008620541909348134,-0.028729786457249547,-0.002941399448821493, ,0.02539342867680111, ,0.02999523156303565, ,0.0012121225769888653, ,0.1447162913300931,-0.3780895560562835,0.10712799818000002,-4.511688824013026,0.11354493130508102,-1.232986847814256, ,0.07934526886159764,-0.12437344896260916,0.020821975843137257,0.03618814240113725,0.01891342939923329,0.1408135654650564, ,0.7376270294189453
0.012468567373165675,0.03731611946967336,-0.09255976509119371, ,0.012961376649755801,0.038308903658349505,-0.09275746890242637, ,0.0011258633244557524, ,0.009300779901701965,0.01936015389800025,-0.013546444339000088,-0.008620541909348134,-0.028729786457249547,-0.002941399448821493, ,0.02539342867680111, ,0.02999523156303565, ,0.0012114883177790628, ,0.1447162913300931,-0.3780895560562835,0.10712799818000002,-4.511688824013026,0.11354493130508102,-1.232986847814256, ,0.07934526886159764,-0.12437344896260916,0.020821975843137257,0.03618814240113725,0.01891342939923329,0.1408135654650564, ,0.7429871559143066
0.012563036112913277,0.03751129137944814,-0.09269599001759155, ,0.013016437096369139,0.03841628555506896,-0.09283308683206572, ,0.0010214609372096945, ,0.009552739230322871,0.019834033693669803,-0.014046463895286212,0.008222320541849546,-0.003481978910046552,-0.03870435948409854, ,0.02611411241696255, ,0.008929176077035776, ,0.0012101012566070237, ,0.1455426237476351,-0.3793329160490337,0.10733799716,-4.510850064239088,0.11395484080437733,-1.231687526722534, ,0.08209077989487092,-0.12502890850918416,0.021467400970350405,0.08095297498750999,0.032652404178852554,0.13553031973365376, ,0.7482969760894775
0.012563036112913277,0.03751129137944814,-0.09269599001759155, ,0.01307208020123807,0.03852310567940388,-0.0929084577024693, ,0.0011524046939207853, ,0.009552739230322871,0.019834033693669803,-0.014046463895286212,0.008222320541849546,-0.003481978910046552,-0.03870435948409854, ,0.02611411241696255, ,0.008929176077035776, ,0.0012096831655730653, ,0.1455426237476351,-0.3793329160490337,0.10733799716,-4.510850064239088,0.11395484080437733,-1.231687526722534, ,0.08209077989487092,-0.12502890850918416,0.021467400970350405,0.08095297498750999,0.032652404178852554,0.13553031973365376, ,0.7550630569458008
0.012660515776100497,0.037715874525293284,-0.09284029789581945, ,0.013128303599179998,0.03862936600422773,-0.0929835829215746, ,0.001036254181228211, ,0.009643113470585725,0.020085854549379178,-0.014077968819819233,0.008514184994766732,-0.003203206030808955,0.010881445837632883, ,0.02635565207839128, ,0.009096775364541426, ,0.0012084354750382103, ,0.14639984709667403,-0.3806303351719034,0.10755966275,-4.510640374295604,0.11450138680343909,-1.2304996235345085, ,0.0849569754328297,-0.12720769645907612,0.02170137809264305,0.036565900784135345,0.05434493105048999,0.13160034933857603, ,0.7603781223297119
0.012660515776100497,0.037715874525293284,-0.09284029789581945, ,0.013185104922992187,0.03873506849857987,-0.09305846389983678, ,0.0011668532613525742, ,0.009643113470585725,0.020085854549379178,-0.014077968819819233,0.008514184994766732,-0.003203206030808955,0.010881445837632883, ,0.02635565207839128, ,0.009096775364541426, ,0.00120813845922617, ,0.14639984709667403,-0.3806303351719034,0.10755966275,-4.510640374295604,0.11450138680343909,-1.2304996235345085, ,0.0849569754328297,-0.12720769645907612,0.02170137809264305,0.036565900784135345,0.05434493105048999,0.13160034933857603, ,0.7656400203704834
0.012760021415142746,0.03791473216937495,-0.09297963647457518, ,0.013242481803476324,0.03884021512766791,-0.09313310205020603, ,0.0010549115675284727, ,0.010257595028843491,0.020207881300196757,-0.014046108953888008,-0.03607639143404007,-0.03332151443644129,0.016231759809088045, ,0.026662143559044334, ,0.04911037361394134, ,0.0012070517436822148, ,0.14725707044571296,-0.381889140630402,0.10777484689000001,-4.510220994408634,0.11477465980296998,-1.2289255270588089, ,0.0885232663791705,-0.12823911021414972,0.021790439835841315,0.020373858574584226,0.02553936319346085,0.17126331816272372, ,0.7719910144805908
0.012859973118007535,0.03811247040422197,-0.09311333774689916, ,0.013300431869462895,0.0389448078528694,-0.09320749878810647, ,0.0009463909561253049, ,0.01018095933727968,0.01982628333702009,-0.013538921578029819,-0.02966517824894109,0.0025854533091128552,-0.03226100915359296, ,0.02607749684082397, ,0.029777624392325418, ,0.0012052161043332225, ,0.14813746199337455,-0.3831479460889006,0.10798484587000001,-4.509591924578181,0.11518456930226631,-1.2272178122663844, ,0.08960995425729064,-0.1251938542987741,0.02121013517976032,0.07980426893973622,0.04159358666946059,0.17232301096377983, ,0.7776689529418945
0.012859973118007535,0.03811247040422197,-0.09311333774689916, ,0.013358952747835821,0.03904884863173367,-0.09328165553141288, ,0.0010742977857768914, ,0.01018095933727968,0.01982628333702009,-0.013538921578029819,-0.02966517824894109,0.0025854533091128552,-0.03226100915359296, ,0.02607749684082397, ,0.029777624392325418, ,0.0012043005916160452, ,0.14813746199337455,-0.3831479460889006,0.10798484587000001,-4.509591924578181,0.11518456930226631,-1.2272178122663844, ,0.08960995425729064,-0.1251938542987741,0.02121013517976032,0.07980426893973622,0.04159358666946059,0.17232301096377983, ,0.7829911708831787
0.012960931691898542,0.03831556150147493,-0.09324840462148604, ,0.013418042063556913,0.03915233941798402,-0.09335557370042911, ,0.0009594959014589127, ,0.009662432872773118,0.019550696312437343,-0.012721504569663948,0.05074302784121992,0.013203160663687019,-0.004135092288141583, ,0.02524735657129234, ,0.05243260429175363, ,0.0012026005590455096, ,0.14904874447253302,-0.3844376424788961,0.10819873372000001,-4.508753164804243,0.1158677518010935,-1.2260596482419146, ,0.08811229485466182,-0.12502890850918416,0.020343309731800766,0.059482847035371066,0.0724491108679596,0.09263639791337068, ,0.7883551120758057
0.012960931691898542,0.03831556150147493,-0.09324840462148604, ,0.01347769743969039,0.03925528216151933,-0.09342925471786612, ,0.0010875791991233714, ,0.009662432872773118,0.019550696312437343,-0.012721504569663948,0.05074302784121992,0.013203160663687019,-0.004135092288141583, ,0.02524735657129234, ,0.05243260429175363, ,0.0012018073082874258, ,0.14904874447253302,-0.3844376424788961,0.10819873372000001,-4.508753164804243,0.1158677518010935,-1.2260596482419146, ,0.08811229485466182,-0.12502890850918416,0.020343309731800766,0.059482847035371066,0.0724491108679596,0.09263639791337068, ,0.7936899662017822
0.013061172816213041,0.038507196681471206,-0.09337135426853944, ,0.013537916497427287,0.039357678808416376,-0.09350270000881927, ,0.0009837967723674164, ,0.010167165740988759,0.01904689563796967,-0.012134056956611718,0.0041637150375149505,-0.03506453142755694,0.021877265584334688, ,0.02476672830380995, ,0.03531087118866793, ,0.0012003140854386586, ,0.14994458148594308,-0.385673279738772,0.10839706609000001,-4.508543474860758,0.11627766130038981,-1.224842005890333, ,0.0906370024436206,-0.12292349942807097,0.019665199407407408,0.016059053048294015,0.034775001337449395,0.1260205756910568, ,0.7989511489868164
0.013061172816213041,0.038507196681471206,-0.09337135426853944, ,0.013598696856110077,0.039459531300931466,-0.09357591100074641, ,0.0011125272030745779, ,0.010167165740988759,0.01904689563796967,-0.012134056956611718,0.0041637150375149505,-0.03506453142755694,0.021877265584334688, ,0.02476672830380995, ,0.03531087118866793, ,0.0011997168957627127, ,0.14994458148594308,-0.385673279738772,0.10839706609000001,-4.508543474860758,0.11627766130038981,-1.224842005890333, ,0.0906370024436206,-0.12292349942807097,0.019665199407407408,0.016059053048294015,0.034775001337449395,0.1260205756910568, ,0.8042869567871094
0.013163829379716175,0.03869374976222304,-0.09348762229197377, ,0.013660036133257118,0.039560841577502476,-0.09364888912344609, ,0.0010119665751976922, ,0.010655705684868412,0.01935459192972758,-0.011938727833954473,-0.006931354608247099,-0.061416612628657996,0.020875918669367742, ,0.02511329358531159, ,0.061806502416332024, ,0.0011984483125156518, ,0.15084814123222734,-0.38688574880002524,0.10858762072000001,-4.508333784917274,0.11641429780015526,-1.2234832064714993, ,0.09358672737521774,-0.12619274143413667,0.019665199407407408,0.007836096040753209,0.010859912849539225,0.13582704916606841, ,0.8096561431884766
0.013163829379716175,0.03869374976222304,-0.09348762229197377, ,0.013721931944587174,0.03966161157275081,-0.09372163580903509, ,0.0011414890640567203, ,0.010655705684868412,0.01935459192972758,-0.011938727833954473,-0.006931354608247099,-0.061416612628657996,0.020875918669367742, ,0.02511329358531159, ,0.061806502416332024, ,0.001198066035680357, ,0.15084814123222734,-0.38688574880002524,0.10858762072000001,-4.508333784917274,0.11641429780015526,-1.2234832064714993, ,0.09358672737521774,-0.12619274143413667,0.019665199407407408,0.007836096040753209,0.010859912849539225,0.13582704916606841, ,0.8149361610412598
0.013273462012583342,0.03889551282873605,-0.09361445566852587, ,0.013784381904043866,0.039761843217483155,-0.09379415249192569, ,0.001021693900489145, ,0.01102196228581069,0.019780488632401165,-0.013018143249324727,0.03574740797142577,-0.01540696953545733,-0.0658641552237353, ,0.026119407283212305, ,0.03892623168315777, ,0.0011968902214457488, ,0.15182892830725386,-0.38817544519002073,0.10879502712000001,-4.507285335199851,0.11682420729945157,-1.2224289216001991, ,0.096734904748696,-0.12404828961891604,0.020903952125984254,0.10854842429526029,0.02747239417677938,0.10723250603142118, ,0.8202650547027588
0.013273462012583342,0.03889551282873605,-0.09361445566852587, ,0.01384738362382023,0.03986153843869362,-0.09386644060880461, ,0.001151558902126119, ,0.01102196228581069,0.019780488632401165,-0.013018143249324727,0.03574740797142577,-0.01540696953545733,-0.0658641552237353, ,0.026119407283212305, ,0.03892623168315777, ,0.001196590014033036, ,0.15182892830725386,-0.38817544519002073,0.10879502712000001,-4.507285335199851,0.11682420729945157,-1.2224289216001991, ,0.096734904748696,-0.12404828961891604,0.020903952125984254,0.10854842429526029,0.02747239417677938,0.10723250603142118, ,0.8256151676177979
0.013385961050448774,0.03909971947922649,-0.09375218625051261, ,0.013910934714383252,0.039960699159565696,-0.09393850159861042, ,0.0010254739229832222, ,0.011221013377347076,0.020211380941884894,-0.01406363379918919,0.03232972060123093,-0.01754772457770504,-0.019908668230911163, ,0.02705913628389285, ,0.036784955101919745, ,0.0011954642502761293, ,0.15283288358090305,-0.3894419733813936,0.10901410013000001,-4.506656265369397,0.11737075329851333,-1.2214860546325954, ,0.09854303380941928,-0.12356372598759216,0.022092665076282943,0.06601222018736717,0.04487382473887411,0.10677976195949435, ,0.8309769630432129
0.013385961050448774,0.03909971947922649,-0.09375218625051261, ,0.013975032784498307,0.040059327299474,-0.09401033690251122, ,0.0011552032010272507, ,0.011221013377347076,0.020211380941884894,-0.01406363379918919,0.03232972060123093,-0.01754772457770504,-0.019908668230911163, ,0.02705913628389285, ,0.036784955101919745, ,0.0011952011061633916, ,0.15283288358090305,-0.3894419733813936,0.10901410013000001,-4.506656265369397,0.11737075329851333,-1.2214860546325954, ,0.09854303380941928,-0.12356372598759216,0.022092665076282943,0.06601222018736717,0.04487382473887411,0.10677976195949435, ,0.8363301753997803
0.013503146865808457,0.03930873103259568,-0.09390127727974627, ,0.014039675441253577,0.04015742477398618,-0.09408194796388238, ,0.0010201891369009835, ,0.011243405124483472,0.01972325678454723,-0.014730113801440793,-0.014532437265172001,-0.04180563216355946,0.0210076651293529, ,0.027062839274286172, ,0.04425948395526629, ,0.0011940646648045449, ,0.15385228432030068,-0.3907085015727664,0.10924613604000001,-4.506446575425913,0.11778066279780966,-1.2201867335408734, ,0.0962443626353659,-0.1168681546286586,0.02253014359264498,0.015734909321552047,0.031665211447426435,0.1383463259675697, ,0.8429241180419922
0.013614848303515434,0.03950292643960618,-0.09404576129213486, ,0.014104860290084755,0.0402549934948652,-0.09415333622828481, ,0.0009040403583221573, ,0.011126478301391341,0.019226542906174263,-0.014102050931100122,-0.00398790071305985,-0.017239502443148414,0.005012023444703013, ,0.026312094405000035, ,0.017694723475396242, ,0.0011921935402465938, ,0.15481762592957873,-0.39185146603815163,0.10946780163000001,-4.505817505595459,0.11819057229710599,-1.2188057337090106, ,0.0974301248033581,-0.11364903180655184,0.021790439835841315,0.0409126753140146,0.05065789932168045,0.13088277877380258, ,0.8482820987701416
0.013614848303515434,0.03950292643960618,-0.09404576129213486, ,0.014170584934799453,0.04035203537007085,-0.09422450314344255, ,0.0010304260422537214, ,0.011126478301391341,0.019226542906174263,-0.014102050931100122,-0.00398790071305985,-0.017239502443148414,0.005012023444703013, ,0.026312094405000035, ,0.017694723475396242, ,0.001191156569105614, ,0.15481762592957873,-0.39185146603815163,0.10946780163000001,-4.505817505595459,0.11819057229710599,-1.2188057337090106, ,0.0974301248033581,-0.11364903180655184,0.021790439835841315,0.0409126753140146,0.05065789932168045,0.13088277877380258, ,0.853646993637085
0.013719591749381014,0.03968427888932632,-0.09417343293096432, ,0.014236846977601613,0.04044855230376197,-0.09429545015922071, ,0.0009308893742685278, ,0.011140396342578457,0.018603245306064786,-0.013288347984300324,0.005093374649968861,0.016256636195446643,-0.032756819463217, ,0.025431660558037014, ,0.017035852528648605, ,0.0011894988162722568, ,0.15575979934023412,-0.39293264864054306,0.10966872658000001,-4.504978745821521,0.11887375479593319,-1.2177292484246816, ,0.10031389171085707,-0.10970744688840552,0.0208492297382199,0.09042315425263764,0.07035527384485164,0.12786899880248148, ,0.8590240478515625
0.013719591749381014,0.03968427888932632,-0.09417343293096432, ,0.014303644019116149,0.04054454619629818,-0.09436617872760307, ,0.0010575102057896603, ,0.011140396342578457,0.018603245306064786,-0.013288347984300324,0.005093374649968861,0.016256636195446643,-0.032756819463217, ,0.025431660558037014, ,0.017035852528648605, ,0.0011886634453198352, ,0.15575979934023412,-0.39293264864054306,0.10966872658000001,-4.504978745821521,0.11887375479593319,-1.2177292484246816, ,0.10031389171085707,-0.10970744688840552,0.0208492297382199,0.09042315425263764,0.07035527384485164,0.12786899880248148, ,0.8643250465393066
0.013838718924488066,0.039877439897142784,-0.0943108263166921, ,0.014370973658413425,0.04064001894424196,-0.09443669030267036, ,0.0009384368107800233, ,0.011783177712666733,0.018628367618852986,-0.013173437435397268,-0.027424969133391004,-0.021896697942984246,0.01629247120885674, ,0.025678761866876343, ,0.03509407237758624, ,0.0011870896929013456, ,0.15683325920975133,-0.39407561310592826,0.10988520701000001,-4.504559365934552,0.11955693729476038,-1.2162443694396496, ,0.10485849895963623,-0.11086091303559671,0.021014263218997364,0.04364921238476238,0.05537807599088521,0.14986796300123645, ,0.8699159622192383
0.013838718924488066,0.039877439897142784,-0.0943108263166921, ,0.014438833493033642,0.040734972440360444,-0.09450698634057775, ,0.0010648841782225926, ,0.011783177712666733,0.018628367618852986,-0.013173437435397268,-0.027424969133391004,-0.021896697942984246,0.01629247120885674, ,0.025678761866876343, ,0.03509407237758624, ,0.0011863259084346034, ,0.15683325920975133,-0.39407561310592826,0.10988520701000001,-4.504559365934552,0.11955693729476038,-1.2162443694396496, ,0.10485849895963623,-0.11086091303559671,0.021014263218997364,0.04364921238476238,0.05537807599088521,0.14986796300123645, ,0.8754050731658936
0.01395844303679396,0.040061642515178277,-0.09444187737742099, ,0.014507221119011454,0.040829408573627594,-0.09457706829953305, ,0.0009533617830868941, ,0.011997096973339607,0.017873728002122002,-0.012940422125785798,-0.026722971643580236,-0.021565969888214666,0.010159812232213062, ,0.025116827293173022, ,0.03433959679175583, ,0.0011848789262895866, ,0.15790671907926854,-0.3951567957083197,0.11009261341000001,-4.503930296104099,0.12010348329382216,-1.214729751291062, ,0.10796011553864708,-0.10382597544690457,0.020395405275288096,0.037433373473616895,0.05675351302548372,0.14451097751512865, ,0.8807001113891602
0.01395844303679396,0.040061642515178277,-0.09444187737742099, ,0.014576134130900479,0.04092332922922571,-0.09464693763977398, ,0.0010798592464301307, ,0.011997096973339607,0.017873728002122002,-0.012940422125785798,-0.026722971643580236,-0.021565969888214666,0.010159812232213062, ,0.025116827293173022, ,0.03433959679175583, ,0.0011842306566608245, ,0.15790671907926854,-0.3951567957083197,0.11009261341000001,-4.503930296104099,0.12010348329382216,-1.214729751291062, ,0.10796011553864708,-0.10382597544690457,0.020395405275288096,0.037433373473616895,0.05675351302548372,0.14451097751512865, ,0.8861081600189209
0.014078828444990105,0.04023798451150488,-0.09456867331180152, ,0.014645570121797779,0.041016736288547906,-0.09471659582354655, ,0.0009744390837601938, ,0.011964261157579977,0.017481603467600398,-0.012461652613572263,0.014054559230336492,-0.0020424921631377532,-0.019596348527047593, ,0.024577282004048937, ,0.014202186763740958, ,0.0011829435917964034, ,0.15900334714740844,-0.39617619644771734,0.11029353836000001,-4.503301226273645,0.12078666579264935,-1.2134899085264517, ,0.10920246439409755,-0.10106170560007538,0.01983662704856787,0.07425678266907947,0.06982154080623809,0.1078989102841155, ,0.8914229869842529
