NicholasDascanio/dvrk_moveit_final/test/execution/first_exp_nosummary/yes_joints_no_ramp/400vel3.csv
Current Position (x),Current Position (y),Current Position (z), ,Planned Position (x),Planned Position (y),Planned Position (z), ,Position Error,,Cartesian linear Velocity(x),Cartesian linear Velocity(y),Cartesian linear Velocity(z),Cartesian Angular Velocity(x),Cartesian Angular Velocity(y),Cartesian Angular Velocity(z), ,Total Linear Velocity, ,Total Angular Velocity, ,MSE, ,Joint 1 Position,Joint 2 Position,Joint 3 Position,Joint 4 Position,Joint 5 Position,Joint 6 Position, ,Joint 1 Velocity,Joint 2 Velocity,Joint 3 Velocity,Joint 4 Velocity,Joint 5 Velocity,Joint 6 Velocity, ,Time Stamp
0.009274052758688648,0.01742851180927562,-0.08109311323750974, ,0.0093121893898262,0.017506209937855087,-0.08118167975398943, ,0.0001238363018691225, ,9.524227554627413e-06,8.999725064576941e-22,1.0892193590924372e-06,3.3881317890172014e-21,-0.00011744804428376495,2.710505431213761e-20, ,9.586308430493242e-06, ,0.00011744804428376495, ,6.191815093456125e-05, ,0.13631395796293683,-0.20636686786502734,0.09013363628000001,-4.5303512289831485,0.20618447814604965,-1.0006810149306506, ,0.00010942446477472526,-0.000205655300850702,0.0,0.0,0.0,0.0, ,0.003155946731567383
0.00927407104935876,0.017427881625040716,-0.08109324658221297, ,0.009352034442748748,0.017625069875161388,-0.08120865163246363, ,0.0002414121420266444, ,8.364691154814953e-06,1.678173224530271e-05,4.5632009902921656e-06,0.00020374746350173463,-0.00010915533314267907,2.7947699093164304e-05, ,1.9298119041665062e-05, ,0.00023114479366163524, ,0.00012174948129858897, ,0.13631395796293683,-0.20636686786502734,0.09013363628000001,-4.5303512289831485,0.20618447814604965,-1.0006810149306506, ,0.00010942446477472526,-0.000205655300850702,0.0,0.0,0.0,0.0, ,0.006187915802001953
0.00927407104935876,0.017427881625040716,-0.08109324658221297, ,0.009391711648588966,0.017743519655860435,-0.08123570395738672, ,0.00036573320990632835, ,8.364691154814953e-06,1.678173224530271e-05,4.5632009902921656e-06,0.00020374746350173463,-0.00010915533314267907,2.7947699093164304e-05, ,1.9298119041665062e-05, ,0.00023114479366163524, ,0.00018274541345052382, ,0.13631395796293683,-0.20636686786502734,0.09013363628000001,-4.5303512289831485,0.20618447814604965,-1.0006810149306506, ,0.00010942446477472526,-0.000205655300850702,0.0,0.0,0.0,0.0, ,0.009171009063720703
0.00927407104935876,0.017427881625040716,-0.08109324658221297, ,0.009431221749714159,0.017861560667344647,-0.08126283657972759, ,0.0004914617193768573, ,8.364691154814953e-06,1.678173224530271e-05,4.5632009902921656e-06,0.00020374746350173463,-0.00010915533314267907,2.7947699093164304e-05, ,1.9298119041665062e-05, ,0.00023114479366163524, ,0.00024448867463579054, ,0.13631395796293683,-0.20636686786502734,0.09013363628000001,-4.5303512289831485,0.20618447814604965,-1.0006810149306506, ,0.00010942446477472526,-0.000205655300850702,0.0,0.0,0.0,0.0, ,0.011966943740844727
0.009276855580047233,0.017436871184873425,-0.08109499715499179, ,0.009470565486964599,0.017979194294288608,-0.08129004935066061, ,0.0006080158238721407, ,1.4419055000751646e-05,0.0019222509526676083,0.00040673871898609995,-0.2331951369064503,0.03335299612115112,0.030168894096218125, ,0.001964864631393495, ,0.23556823688068734, ,0.00030507653284184887, ,0.1363448488944337,-0.20646726339239227,0.09013752515000001,-4.5303512289831485,0.20618447814604965,-0.9993741550884018, ,0.0008525606308811522,-0.023535947807160416,7.997269889117297e-06,0.0,0.0,0.2601847888530542, ,0.01470494270324707
0.009276855580047233,0.017436871184873425,-0.08109499715499179, ,0.009509743599654633,0.018096421918651413,-0.08131734212156555, ,0.0007339491019576409, ,1.4419055000751646e-05,0.0019222509526676083,0.00040673871898609995,-0.2331951369064503,0.03335299612115112,0.030168894096218125, ,0.001964864631393495, ,0.23556823688068734, ,0.0003663440427155335, ,0.1363448488944337,-0.20646726339239227,0.09013752515000001,-4.5303512289831485,0.20618447814604965,-0.9993741550884018, ,0.0008525606308811522,-0.023535947807160416,7.997269889117297e-06,0.0,0.0,0.2601847888530542, ,0.017441987991333008
0.009276855580047233,0.017436871184873425,-0.08109499715499179, ,0.009548756825574168,0.018213244919678892,-0.08134471474402764, ,0.0008596774614288605, ,1.4419055000751646e-05,0.0019222509526676083,0.00040673871898609995,-0.2331951369064503,0.03335299612115112,0.030168894096218125, ,0.001964864631393495, ,0.23556823688068734, ,0.00042801072005469934, ,0.1363448488944337,-0.20646726339239227,0.09013752515000001,-4.5303512289831485,0.20618447814604965,-0.9993741550884018, ,0.0008525606308811522,-0.023535947807160416,7.997269889117297e-06,0.0,0.0,0.2601847888530542, ,0.02021002769470215
0.009276855580047233,0.017436871184873425,-0.08109499715499179, ,0.009587605900989948,0.018329664673905992,-0.08137216706983785, ,0.0009851239199820101, ,1.4419055000751646e-05,0.0019222509526676083,0.00040673871898609995,-0.2331951369064503,0.03335299612115112,0.030168894096218125, ,0.001964864631393495, ,0.23556823688068734, ,0.0004899121867132895, ,0.1363448488944337,-0.20646726339239227,0.09013752515000001,-4.5303512289831485,0.20618447814604965,-0.9993741550884018, ,0.0008525606308811522,-0.023535947807160416,7.997269889117297e-06,0.0,0.0,0.2601847888530542, ,0.023373126983642578
0.009292073889004118,0.017487329124441866,-0.08110686935660993, ,0.00962629156064687,0.01844568255515884,-0.08139969895099193, ,0.0010563578567659832, ,0.0019080429964628914,0.006724877144974887,-0.002686575648646089,-0.8560604357545554,0.12696826717632534,0.016769111396655274, ,0.007488810947490585, ,0.8654249883923493, ,0.0005465567537185588, ,0.13647613535329553,-0.20700785469358798,0.09016085837000001,-4.529302779265726,0.20591120514651876,-0.9930254137704667, ,0.01829162327649784,-0.06967470011635153,0.0042318840382571735,0.09407907002022749,0.0,0.9511465124060741, ,0.02692699432373047
0.009292073889004118,0.017487329124441866,-0.08110686935660993, ,0.009664814537769288,0.018561299934557123,-0.08142731023969094, ,0.0011811144109573945, ,0.0019080429964628914,0.006724877144974887,-0.002686575648646089,-0.8560604357545554,0.12696826717632534,0.016769111396655274, ,0.007488810947490585, ,0.8654249883923493, ,0.0006042438134675439, ,0.13647613535329553,-0.20700785469358798,0.09016085837000001,-4.529302779265726,0.20591120514651876,-0.9930254137704667, ,0.01829162327649784,-0.06967470011635153,0.0042318840382571735,0.09407907002022749,0.0,0.9511465124060741, ,0.029690027236938477
0.009292073889004118,0.017487329124441866,-0.08110686935660993, ,0.009703175564062385,0.01867651818051631,-0.08145500078834036, ,0.0013055154890240174, ,0.0019080429964628914,0.006724877144974887,-0.002686575648646089,-0.8560604357545554,0.12696826717632534,0.016769111396655274, ,0.007488810947490585, ,0.8654249883923493, ,0.0006626831197639166, ,0.13647613535329553,-0.20700785469358798,0.09016085837000001,-4.529302779265726,0.20591120514651876,-0.9930254137704667, ,0.01829162327649784,-0.06967470011635153,0.0042318840382571735,0.09407907002022749,0.0,0.9511465124060741, ,0.03261613845825195
0.00931545920815293,0.017575592517216573,-0.08119131231437955, ,0.009741375369713538,0.01879133865874989,-0.08148277044955093, ,0.001320753989919867, ,0.0027649139610004393,0.010522417463837091,-0.013107179104200041,-0.8825000051576387,0.28825924649983964,0.07289852012628281, ,0.017034205662858987, ,0.9283855082394568, ,0.000713303955929759, ,0.13673098553814494,-0.20778012798101042,0.09026585786,-4.528044639604819,0.2070042971446423,-0.9823183759000783, ,0.02959056487635509,-0.08510936462643119,0.01554030392195122,0.08671260652088286,0.17075046365480853,1.0194003582783497, ,0.03543996810913086
0.00931545920815293,0.017575592517216573,-0.08119131231437955, ,0.00977941468339343,0.01890576273227169,-0.08151061907613782, ,0.0014444944763238009, ,0.0027649139610004393,0.010522417463837091,-0.013107179104200041,-0.8825000051576387,0.28825924649983964,0.07289852012628281, ,0.017034205662858987, ,0.9283855082394568, ,0.0007655318502436192, ,0.13673098553814494,-0.20778012798101042,0.09026585786,-4.528044639604819,0.2070042971446423,-0.9823183759000783, ,0.02959056487635509,-0.08510936462643119,0.01554030392195122,0.08671260652088286,0.17075046365480853,1.0194003582783497, ,0.038392066955566406
0.00931545920815293,0.017575592517216573,-0.08119131231437955, ,0.009817294232257653,0.019019791761398005,-0.08153854652112034, ,0.0015678397375507851, ,0.0027649139610004393,0.010522417463837091,-0.013107179104200041,-0.8825000051576387,0.28825924649983964,0.07289852012628281, ,0.017034205662858987, ,0.9283855082394568, ,0.0008190190427307636, ,0.13673098553814494,-0.20778012798101042,0.09026585786,-4.528044639604819,0.2070042971446423,-0.9823183759000783, ,0.02959056487635509,-0.08510936462643119,0.01554030392195122,0.08671260652088286,0.17075046365480853,1.0194003582783497, ,0.04141998291015625
0.009332463942077098,0.017697497708008724,-0.08135485635125293, ,0.009855014741947837,0.019133427103749948,-0.08156655263772235, ,0.0015426496315444557, ,0.0012484033137654513,0.013739287360528096,-0.018705574390334927,-0.6804317573348735,0.5769664121701872,0.2164478010582688, ,0.023242741690285625, ,0.8921197312425381, ,0.0008642459545316194, ,0.13708623125035926,-0.2087145786587916,0.09045900507000001,-4.52762525971785,0.21096675563784006,-0.9724808966847845, ,0.03913275940555496,-0.10405366398955129,0.022092665076282943,0.010711491747488212,0.5175676045369089,0.8776714411959394, ,0.04425811767578125
0.009332463942077098,0.017697497708008724,-0.08135485635125293, ,0.00989257693659298,0.019246670114255633,-0.08159463727937186, ,0.0016646791295597961, ,0.0012484033137654513,0.013739287360528096,-0.018705574390334927,-0.6804317573348735,0.5769664121701872,0.2164478010582688, ,0.023242741690285625, ,0.8921197312425381, ,0.0009113302589450415, ,0.13708623125035926,-0.2087145786587916,0.09045900507000001,-4.52762525971785,0.21096675563784006,-0.9724808966847845, ,0.03913275940555496,-0.10405366398955129,0.022092665076282943,0.010711491747488212,0.5175676045369089,0.8776714411959394, ,0.04704904556274414
0.009332463942077098,0.017697497708008724,-0.08135485635125293, ,0.009929981538810922,0.0193595221451526,-0.08162280029970051, ,0.0017863780304234757, ,0.0012484033137654513,0.013739287360528096,-0.018705574390334927,-0.6804317573348735,0.5769664121701872,0.2164478010582688, ,0.023242741690285625, ,0.8921197312425381, ,0.0009599440240271766, ,0.13708623125035926,-0.2087145786587916,0.09045900507000001,-4.52762525971785,0.21096675563784006,-0.9724808966847845, ,0.03913275940555496,-0.10405366398955129,0.022092665076282943,0.010711491747488212,0.5175676045369089,0.8776714411959394, ,0.049839019775390625
0.009332463942077098,0.017697497708008724,-0.08135485635125293, ,0.009967229269709431,0.019471984545989727,-0.08165104155254416, ,0.0019077358917826974, ,0.0012484033137654513,0.013739287360528096,-0.018705574390334927,-0.6804317573348735,0.5769664121701872,0.2164478010582688, ,0.023242741690285625, ,0.8921197312425381, ,0.0010098278065406251, ,0.13708623125035926,-0.2087145786587916,0.09045900507000001,-4.52762525971785,0.21096675563784006,-0.9724808966847845, ,0.03913275940555496,-0.10405366398955129,0.022092665076282943,0.010711491747488212,0.5175676045369089,0.8776714411959394, ,0.05267214775085449
0.009342297572958522,0.01786709750532051,-0.08156045751187756, ,0.010004320848887688,0.01958405866362983,-0.08167936089194172, ,0.001844008799004373, ,0.001405216899979088,0.019584733888683602,-0.021535993673799443,-0.40996141796648744,0.7080000347294554,0.059345458543245855, ,0.029143360471031277, ,0.8181273793031287, ,0.0010515368561638126, ,0.13752642702419007,-0.210035165980284,0.09070659646000001,-4.526367120056943,0.2172520346270503,-0.9651092730133138, ,0.04911849977146521,-0.15763611554563253,0.02637220450331126,0.19712452473551517,0.6485088100107116,0.7039383527234578, ,0.055570125579833984
0.009342297572958522,0.01786709750532051,-0.08156045751187756, ,0.010041256994437558,0.019695745842251658,-0.08170775817213599, ,0.0019632107623859278, ,0.001405216899979088,0.019584733888683602,-0.021535993673799443,-0.40996141796648744,0.7080000347294554,0.059345458543245855, ,0.029143360471031277, ,0.8181273793031287, ,0.0010949498993172465, ,0.13752642702419007,-0.210035165980284,0.09070659646000001,-4.526367120056943,0.2172520346270503,-0.9651092730133138, ,0.04911849977146521,-0.15763611554563253,0.02637220450331126,0.19712452473551517,0.6485088100107116,0.7039383527234578, ,0.0584111213684082
0.009342297572958522,0.01786709750532051,-0.08156045751187756, ,0.010078038422944899,0.019807047423352334,-0.08173623324757318, ,0.0020822145403559386, ,0.001405216899979088,0.019584733888683602,-0.021535993673799443,-0.40996141796648744,0.7080000347294554,0.059345458543245855, ,0.029143360471031277, ,0.8181273793031287, ,0.0011398255648190055, ,0.13752642702419007,-0.210035165980284,0.09070659646000001,-4.526367120056943,0.2172520346270503,-0.9651092730133138, ,0.04911849977146521,-0.15763611554563253,0.02637220450331126,0.19712452473551517,0.6485088100107116,0.7039383527234578, ,0.06129193305969238
0.0093736711249672,0.018086106238188248,-0.08178280971905413, ,0.010114665849490842,0.0199179647457495,-0.08176478597290238, ,0.001976133504832543, ,0.005118478658976879,0.0226132737665672,-0.021314774424913585,-0.16389594798730814,0.3890324790020938,0.06885186185831882, ,0.03149410394040555, ,0.42214706807659946, ,0.0011761867796022027, ,0.13812107745550536,-0.21188089913722366,0.09098270623000002,-4.524899290452551,0.22285413111743338,-0.9611011393501081, ,0.06692308995660845,-0.19811470053960498,0.026816181010101015,0.1049319418543972,0.3912815914979567,0.44240326439630273, ,0.06430912017822266
0.0093736711249672,0.018086106238188248,-0.08178280971905413, ,0.010151139987653185,0.020028499145583488,-0.08179341620297557, ,0.0020922381644178914, ,0.005118478658976879,0.0226132737665672,-0.021314774424913585,-0.16389594798730814,0.3890324790020938,0.06885186185831882, ,0.03149410394040555, ,0.42214706807659946, ,0.0012143555873028564, ,0.13812107745550536,-0.21188089913722366,0.09098270623000002,-4.524899290452551,0.22285413111743338,-0.9611011393501081, ,0.06692308995660845,-0.19811470053960498,0.026816181010101015,0.1049319418543972,0.3912815914979567,0.44240326439630273, ,0.06744503974914551
0.0093736711249672,0.018086106238188248,-0.08178280971905413, ,0.010187461549507618,0.0201386519563198,-0.08182212379284783, ,0.0022083352047395583, ,0.005118478658976879,0.0226132737665672,-0.021314774424913585,-0.16389594798730814,0.3890324790020938,0.06885186185831882, ,0.03149410394040555, ,0.42214706807659946, ,0.0012541147720003245, ,0.13812107745550536,-0.21188089913722366,0.09098270623000002,-4.524899290452551,0.22285413111743338,-0.9611011393501081, ,0.06692308995660845,-0.19811470053960498,0.026816181010101015,0.1049319418543972,0.3912815914979567,0.44240326439630273, ,0.07044291496276855
0.0093736711249672,0.018086106238188248,-0.08178280971905413, ,0.010223631245629096,0.020248424508751143,-0.08185090859777674, ,0.0023243687244516456, ,0.005118478658976879,0.0226132737665672,-0.021314774424913585,-0.16389594798730814,0.3890324790020938,0.06885186185831882, ,0.03149410394040555, ,0.42214706807659946, ,0.0012952783855561445, ,0.13812107745550536,-0.21188089913722366,0.09098270623000002,-4.524899290452551,0.22285413111743338,-0.9611011393501081, ,0.06692308995660845,-0.19811470053960498,0.026816181010101015,0.1049319418543972,0.3912815914979567,0.44240326439630273, ,0.07321906089782715
0.009451554917462034,0.018327323323527763,-0.08200089625016707, ,0.010259649785093142,0.020357818130999645,-0.0818797704732221, ,0.0021887434596367236, ,0.009415598488915499,0.0257484851280469,-0.018696531295474952,0.2064167748822998,-0.05264529415725366,-0.05874604424095448, ,0.03318430749279536, ,0.21302443443215602, ,0.001328369684596166, ,0.138831568879934,-0.21405870980775496,0.09125751971000001,-4.523850840735128,0.22422049611508776,-0.9587848113011688, ,0.08117787986182273,-0.24584699885614195,0.024772646220839814,0.10233096126272509,0.0,0.051735079885493196, ,0.0763390064239502
0.009451554917462034,0.018327323323527763,-0.08200089625016707, ,0.010295517875477112,0.02046683414851948,-0.08190870927484666, ,0.002301798966716474, ,0.009415598488915499,0.0257484851280469,-0.018696531295474952,0.2064167748822998,-0.05264529415725366,-0.05874604424095448, ,0.03318430749279536, ,0.21302443443215602, ,0.0013631350161004627, ,0.138831568879934,-0.21405870980775496,0.09125751971000001,-4.523850840735128,0.22422049611508776,-0.9587848113011688, ,0.08117787986182273,-0.24584699885614195,0.024772646220839814,0.10233096126272509,0.0,0.051735079885493196, ,0.07903599739074707
0.009451554917462034,0.018327323323527763,-0.08200089625016707, ,0.010331236222861577,0.020575473884098628,-0.08193772485851489, ,0.0024149556448903593, ,0.009415598488915499,0.0257484851280469,-0.018696531295474952,0.2064167748822998,-0.05264529415725366,-0.05874604424095448, ,0.03318430749279536, ,0.21302443443215602, ,0.0013994046929552866, ,0.138831568879934,-0.21405870980775496,0.09125751971000001,-4.523850840735128,0.22422049611508776,-0.9587848113011688, ,0.08117787986182273,-0.24584699885614195,0.024772646220839814,0.10233096126272509,0.0,0.051735079885493196, ,0.08186197280883789
0.009451554917462034,0.018327323323527763,-0.08200089625016707, ,0.010366805531831608,0.020683738657861335,-0.08196681708029314, ,0.00252814918563078, ,0.009415598488915499,0.0257484851280469,-0.018696531295474952,0.2064167748822998,-0.05264529415725366,-0.05874604424095448, ,0.03318430749279536, ,0.21302443443215602, ,0.0014370295093778032, ,0.13968879222897293,-0.21653770706038103,0.09147788901000001,-4.522592701074221,0.22189767561907528,-0.957952530560157, ,0.10193011982649922,-0.28931994377582554,0.021880235604395604,0.1423600615195336,-0.3530997495515735,0.13678931313115228, ,0.08484601974487305
0.0095666485208773,0.018578828602507154,-0.08216258083525602, ,0.010402226505478014,0.020791629787270442,-0.08199598579644977, ,0.002371167130042515, ,0.01380872623286718,0.028473991199097253,-0.015177168325403867,0.11565801823362276,-0.391886668495409,-0.16422345856630022, ,0.03509694478666461, ,0.4085975248589581, ,0.0014671629810121486, ,0.13968879222897293,-0.21653770706038103,0.09147788901000001,-4.522592701074221,0.22189767561907528,-0.957952530560157, ,0.10193011982649922,-0.28931994377582554,0.021880235604395604,0.1423600615195336,-0.3530997495515735,0.13678931313115228, ,0.08774399757385254
0.0095666485208773,0.018578828602507154,-0.08216258083525602, ,0.010437499845398789,0.020899148587129497,-0.0820252308634548, ,0.0024821627414842195, ,0.01380872623286718,0.028473991199097253,-0.015177168325403867,0.11565801823362276,-0.391886668495409,-0.16422345856630022, ,0.03509694478666461, ,0.4085975248589581, ,0.0014988817235269008, ,0.13968879222897293,-0.21653770706038103,0.09147788901000001,-4.522592701074221,0.22189767561907528,-0.957952530560157, ,0.10193011982649922,-0.28931994377582554,0.021880235604395604,0.1423600615195336,-0.3530997495515735,0.13678931313115228, ,0.09055900573730469
0.0095666485208773,0.018578828602507154,-0.08216258083525602, ,0.010472626251700267,0.021006296369585144,-0.0820545521379796, ,0.002593273145733973, ,0.01380872623286718,0.028473991199097253,-0.015177168325403867,0.11565801823362276,-0.391886668495409,-0.16422345856630022, ,0.03509694478666461, ,0.4085975248589581, ,0.001532045099957418, ,0.14088581582447773,-0.2200592732510274,0.09168918428,-4.52112487146983,0.21711539812728486,-0.9539712251906416, ,0.11601093100057551,-0.347607844536523,0.01971387564356436,0.11990675686967636,-0.41222423499085004,0.379827034184925, ,0.09381794929504395
0.009727983644046947,0.018913055673217567,-0.08229428432874751, ,0.010507606422998568,0.021113074444129184,-0.08208394947689675, ,0.0023435304605929053, ,0.015055368451962807,0.0328229124110957,-0.011780182825560545,-0.0784983851571541,-0.43383418346569874,-0.12235732244375938, ,0.0379839493177638, ,0.44087877584293994, ,0.0015559123164466972, ,0.14088581582447773,-0.2200592732510274,0.09168918428,-4.52112487146983,0.21711539812728486,-0.9539712251906416, ,0.11601093100057551,-0.347607844536523,0.01971387564356436,0.11990675686967636,-0.41222423499085004,0.379827034184925, ,0.09764909744262695
0.009727983644046947,0.018913055673217567,-0.08229428432874751, ,0.010542441056420836,0.02121948411760092,-0.0821134227372803, ,0.0024526850513059023, ,0.015055368451962807,0.0328229124110957,-0.011780182825560545,-0.0784983851571541,-0.43383418346569874,-0.12235732244375938, ,0.0379839493177638, ,0.44087877584293994, ,0.0015815343945855317, ,0.14088581582447773,-0.2200592732510274,0.09168918428,-4.52112487146983,0.21711539812728486,-0.9539712251906416, ,0.11601093100057551,-0.347607844536523,0.01971387564356436,0.11990675686967636,-0.41222423499085004,0.379827034184925, ,0.10054302215576172
0.009845990070088457,0.019187979556911067,-0.08237373489123527, ,0.010577130847606555,0.02132552669418943,-0.08214297177640494, ,0.0022708866585109196, ,0.013926777716658192,0.03526397426389381,-0.007840278450755613,0.11129360114280062,-0.2585621949306527,-0.04951158742520988, ,0.038716572480517374, ,0.28149720118158317, ,0.001600683068583459, ,0.14189749383100114,-0.22300163447610694,0.09183696134000001,-4.520286111695891,0.21465594113150693,-0.9508222005621381, ,0.1327229951866724,-0.3811122150942602,0.01682028671594509,0.08909437992907865,-0.18758832392249558,0.252455498547411, ,0.10449099540710449
0.009845990070088457,0.019187979556911067,-0.08237373489123527, ,0.010611676490708832,0.021431203475435874,-0.08217259645174654, ,0.002378820278037875, ,0.013926777716658192,0.03526397426389381,-0.007840278450755613,0.11129360114280062,-0.2585621949306527,-0.04951158742520988, ,0.038716572480517374, ,0.28149720118158317, ,0.001621713803974119, ,0.14189749383100114,-0.22300163447610694,0.09183696134000001,-4.520286111695891,0.21465594113150693,-0.9508222005621381, ,0.1327229951866724,-0.3811122150942602,0.01682028671594509,0.08909437992907865,-0.18758832392249558,0.252455498547411, ,0.10743093490600586
0.009845990070088457,0.019187979556911067,-0.08237373489123527, ,0.01064607867839576,0.021536515760235412,-0.08220229662098084, ,0.002486997217524796, ,0.013926777716658192,0.03526397426389381,-0.007840278450755613,0.11129360114280062,-0.2585621949306527,-0.04951158742520988, ,0.038716572480517374, ,0.28149720118158317, ,0.0016444844201201894, ,0.14189749383100114,-0.22300163447610694,0.09183696134000001,-4.520286111695891,0.21465594113150693,-0.9508222005621381, ,0.1327229951866724,-0.3811122150942602,0.01682028671594509,0.08909437992907865,-0.18758832392249558,0.252455498547411, ,0.11028695106506348
0.009845990070088457,0.019187979556911067,-0.08237373489123527, ,0.010680338101851697,0.0216414648448399,-0.08223207214198477, ,0.0025953410239726925, ,0.013926777716658192,0.03526397426389381,-0.007840278450755613,0.11129360114280062,-0.2585621949306527,-0.04951158742520988, ,0.038716572480517374, ,0.28149720118158317, ,0.0016688653586805098, ,0.14189749383100114,-0.22300163447610694,0.09183696134000001,-4.520286111695891,0.21465594113150693,-0.9508222005621381, ,0.1327229951866724,-0.3811122150942602,0.01682028671594509,0.08909437992907865,-0.18758832392249558,0.252455498547411, ,0.1130061149597168
0.00999895136967209,0.019628698014125152,-0.08243614990122455, ,0.010714455450778568,0.02174605202285987,-0.08226192287283529, ,0.00224176027839873, ,0.012465605987139774,0.038495734166590245,-0.0023420020295989424,0.4420809762675777,-0.10346579453888402,-0.10868538173872715, ,0.04053144279640245, ,0.4540272681427699, ,0.0016831877316734654, ,0.14350382226883984,-0.22765844239926433,0.09200936791000001,-4.5186085921480155,0.2141093951324452,-0.9503765289473525, ,0.14334885431793168,-0.42364706052888745,0.012631888596352102,0.17629361555439313,0.0,0.006673799149104334, ,0.11574006080627441
0.00999895136967209,0.019628698014125152,-0.08243614990122455, ,0.01074843141339715,0.021850278585266784,-0.08229184867180926, ,0.002349034570802835, ,0.012465605987139774,0.038495734166590245,-0.0023420020295989424,0.4420809762675777,-0.10346579453888402,-0.10868538173872715, ,0.04053144279640245, ,0.4540272681427699, ,0.001699427898481499, ,0.14350382226883984,-0.22765844239926433,0.09200936791000001,-4.5186085921480155,0.2141093951324452,-0.9503765289473525, ,0.14334885431793168,-0.42364706052888745,0.012631888596352102,0.17629361555439313,0.0,0.006673799149104334, ,0.1185309886932373
0.00999895136967209,0.019628698014125152,-0.08243614990122455, ,0.010782266676448424,0.021954145820395343,-0.08232184939738373, ,0.0024564924129122016, ,0.012465605987139774,0.038495734166590245,-0.0023420020295989424,0.4420809762675777,-0.10346579453888402,-0.10868538173872715, ,0.04053144279640245, ,0.4540272681427699, ,0.001717453244063182, ,0.14350382226883984,-0.22765844239926433,0.09200936791000001,-4.5186085921480155,0.2141093951324452,-0.9503765289473525, ,0.14334885431793168,-0.42364706052888745,0.012631888596352102,0.17629361555439313,0.0,0.006673799149104334, ,0.12139105796813965
0.010128947110407956,0.020032043370679382,-0.08246286794534964, ,0.010815961925194906,0.02205765501394566,-0.08235192490823535, ,0.0021418217111974554, ,0.01397687984357369,0.04202665755329413,-0.003601383901865379,0.19754276455311554,-0.13889200643616786,-0.02392463184507177, ,0.0444360560949345, ,0.24148319460895473, ,0.0017273222781825836, ,0.14499430971356517,-0.23209901380194342,0.09214288578,-4.517560142430592,0.2141093951324452,-0.949151347845244, ,0.1545552794111902,-0.4606647648469455,0.01478998284122563,0.112355624960859,-0.049286613549791566,0.27262497634411936, ,0.1245260238647461
0.010128947110407956,0.020032043370679382,-0.08246286794534964, ,0.010849517843421813,0.022160807448985728,-0.08238207506324045, ,0.0022488633066869807, ,0.01397687984357369,0.04202665755329413,-0.003601383901865379,0.19754276455311554,-0.13889200643616786,-0.02392463184507177, ,0.0444360560949345, ,0.24148319460895473, ,0.0017391754833758655, ,0.14499430971356517,-0.23209901380194342,0.09214288578,-4.517560142430592,0.2141093951324452,-0.949151347845244, ,0.1545552794111902,-0.4606647648469455,0.01478998284122563,0.112355624960859,-0.049286613549791566,0.27262497634411936, ,0.1273181438446045
0.010128947110407956,0.020032043370679382,-0.08246286794534964, ,0.010882935113438505,0.02226360440595333,-0.08241229972147444, ,0.002356038986972163, ,0.01397687984357369,0.04202665755329413,-0.003601383901865379,0.19754276455311554,-0.13889200643616786,-0.02392463184507177, ,0.0444360560949345, ,0.24148319460895473, ,0.001752883561233561, ,0.14499430971356517,-0.23209901380194342,0.09214288578,-4.517560142430592,0.2141093951324452,-0.949151347845244, ,0.1545552794111902,-0.4606647648469455,0.01478998284122563,0.112355624960859,-0.049286613549791566,0.27262497634411936, ,0.13014602661132812
0.010128947110407956,0.020032043370679382,-0.08246286794534964, ,0.010916214416079718,0.02236604716265839,-0.08244259874221244, ,0.0024632852762414424, ,0.01397687984357369,0.04202665755329413,-0.003601383901865379,0.19754276455311554,-0.13889200643616786,-0.02392463184507177, ,0.0444360560949345, ,0.24148319460895473, ,0.0017683270767772106, ,0.14499430971356517,-0.23209901380194342,0.09214288578,-4.517560142430592,0.2141093951324452,-0.949151347845244, ,0.1545552794111902,-0.4606647648469455,0.01478998284122563,0.112355624960859,-0.049286613549791566,0.27262497634411936, ,0.133073091506958
0.010266378477053301,0.020448219798484137,-0.08250576990838081, ,0.010949356430707019,0.022468136994285428,-0.08247297198492842, ,0.002132510273563427, ,0.014978410437303132,0.04506273861136853,-0.006997056684557447,0.10268661846226938,-0.13617429874900738,0.011451088304580581, ,0.047999604088281245, ,0.17055198982781733, ,0.0017760756554322365, ,0.14656202448703273,-0.2368253263209688,0.09230492203000001,-4.51651169271317,0.21369948563314886,-0.9457133020088135, ,0.16002856923856792,-0.48665098235113213,0.0192144891676719,0.09171436653329591,-0.052717855238894586,0.3892612846306884, ,0.13607192039489746
0.010266378477053301,0.020448219798484137,-0.08250576990838081, ,0.010982361835209786,0.02256987517339566,-0.08250341930929504, ,0.0022392095088142267, ,0.014978410437303132,0.04506273861136853,-0.006997056684557447,0.10268661846226938,-0.13617429874900738,0.011451088304580581, ,0.047999604088281245, ,0.17055198982781733, ,0.0017857242773776946, ,0.14656202448703273,-0.2368253263209688,0.09230492203000001,-4.51651169271317,0.21369948563314886,-0.9457133020088135, ,0.16002856923856792,-0.48665098235113213,0.0192144891676719,0.09171436653329591,-0.052717855238894586,0.3892612846306884, ,0.13894391059875488
0.010266378477053301,0.020448219798484137,-0.08250576990838081, ,0.011015231306006908,0.022671262969929124,-0.08253394057518393, ,0.002345952916835319, ,0.014978410437303132,0.04506273861136853,-0.006997056684557447,0.10268661846226938,-0.13617429874900738,0.011451088304580581, ,0.047999604088281245, ,0.17055198982781733, ,0.001797157514917646, ,0.14656202448703273,-0.2368253263209688,0.09230492203000001,-4.51651169271317,0.21369948563314886,-0.9457133020088135, ,0.16002856923856792,-0.48665098235113213,0.0192144891676719,0.09171436653329591,-0.052717855238894586,0.3892612846306884, ,0.14180207252502441
0.010419866853276956,0.020916393761026417,-0.08257538795819817, ,0.011047965518047757,0.02277230165120707,-0.082564535642665, ,0.0019593416757355247, ,0.01569547145420795,0.047665038633164354,-0.007944397238681077,0.15182799332642338,-0.12110679859188803,0.010897934018966257, ,0.05080764882925474, ,0.1942127601139009, ,0.0018004011981340036, ,0.1482455802536137,-0.2418682708878374,0.09250325440000001,-4.5154632429957475,0.21356284913338341,-0.9420896982790727, ,0.16915675857124915,-0.5101986105294127,0.021125744721485415,0.10090683249098596,-0.0271143257965318,0.3684507880928676, ,0.145064115524292
0.010419866853276956,0.020916393761026417,-0.08257538795819817, ,0.011080565144813688,0.022872992481934248,-0.08259520437200688, ,0.002065234484835548, ,0.01569547145420795,0.047665038633164354,-0.007944397238681077,0.15182799332642338,-0.12110679859188803,0.010897934018966257, ,0.05080764882925474, ,0.1942127601139009, ,0.0018055940076771712, ,0.1482455802536137,-0.2418682708878374,0.09250325440000001,-4.5154632429957475,0.21356284913338341,-0.9420896982790727, ,0.16915675857124915,-0.5101986105294127,0.021125744721485415,0.10090683249098596,-0.0271143257965318,0.3684507880928676, ,0.1478559970855713
0.010419866853276956,0.020916393761026417,-0.08257538795819817, ,0.011113030858319295,0.02297333672420089,-0.08262594662367602, ,0.0021711855909374075, ,0.01569547145420795,0.047665038633164354,-0.007944397238681077,0.15182799332642338,-0.12110679859188803,0.010897934018966257, ,0.05080764882925474, ,0.1942127601139009, ,0.0018126246150475603, ,0.1482455802536137,-0.2418682708878374,0.09250325440000001,-4.5154632429957475,0.21356284913338341,-0.9420896982790727, ,0.16915675857124915,-0.5101986105294127,0.021125744721485415,0.10090683249098596,-0.0271143257965318,0.3684507880928676, ,0.1508169174194336
0.010419866853276956,0.020916393761026417,-0.08257538795819817, ,0.011145363329113655,0.023073335637485374,-0.08265676225833678, ,0.0022771396908395415, ,0.01569547145420795,0.047665038633164354,-0.007944397238681077,0.15182799332642338,-0.12110679859188803,0.010897934018966257, ,0.05080764882925474, ,0.1942127601139009, ,0.0018213890504398618, ,0.1482455802536137,-0.2418682708878374,0.09250325440000001,-4.5154632429957475,0.21356284913338341,-0.9420896982790727, ,0.16915675857124915,-0.5101986105294127,0.021125744721485415,0.10090683249098596,-0.0271143257965318,0.3684507880928676, ,0.15386199951171875
0.010585093532849418,0.021412851004656355,-0.08265659378153158, ,0.01117756322628173,0.023172990478655963,-0.08268765113685148, ,0.0018574379841294459, ,0.016182978703659208,0.0486579240300096,-0.008957177408725325,0.2251636754838999,-0.113241071554663,0.046191748793534965, ,0.052054907528153886, ,0.2520361501582854, ,0.0018220566232859652, ,0.150044977013308,-0.24717378837242965,0.09272362370000001,-4.51462448322181,0.21342621263361797,-0.9386294520296133, ,0.17638836720905351,-0.5157442476003846,0.02272298362339515,0.06735207339024135,0.006683666057364943,0.3000417969598262, ,0.15708303451538086
0.010585093532849418,0.021412851004656355,-0.08265659378153158, ,0.011209631217445616,0.023272302501973655,-0.08271861312028071, ,0.001962512060787197, ,0.016182978703659208,0.0486579240300096,-0.008957177408725325,0.2251636754838999,-0.113241071554663,0.046191748793534965, ,0.052054907528153886, ,0.2520361501582854, ,0.0018246103585132603, ,0.150044977013308,-0.24717378837242965,0.09272362370000001,-4.51462448322181,0.21342621263361797,-0.9386294520296133, ,0.17638836720905351,-0.5157442476003846,0.02272298362339515,0.06735207339024135,0.006683666057364943,0.3000417969598262, ,0.15984702110290527
0.010585093532849418,0.021412851004656355,-0.08265659378153158, ,0.011241567968765808,0.02337127295909383,-0.08274964806988147, ,0.0020676156164081247, ,0.016182978703659208,0.0486579240300096,-0.008957177408725325,0.2251636754838999,-0.113241071554663,0.046191748793534965, ,0.052054907528153886, ,0.2520361501582854, ,0.0018289497381185258, ,0.150044977013308,-0.24717378837242965,0.09272362370000001,-4.51462448322181,0.21342621263361797,-0.9386294520296133, ,0.17638836720905351,-0.5157442476003846,0.02272298362339515,0.06735207339024135,0.006683666057364943,0.3000417969598262, ,0.16286492347717285
0.01074677351544503,0.021895144156047756,-0.08274547257465084, ,0.011273374144942578,0.02346990309906882,-0.08278075584710876, ,0.0016608488374705776, ,0.016553691449583546,0.04875912291234,-0.00943085216958995,0.22515651422808086,-0.12358660582343511,0.05611167283609447, ,0.05234899942151095, ,0.2568445151520553, ,0.001826000599510667, ,0.15181348284150542,-0.2522707920694178,0.09295047445000001,-4.513995413391356,0.21356284913338341,-0.9358004352882496, ,0.17905083312919012,-0.5129564408565989,0.02349382230088496,0.05556760822306316,0.002333832857591866,0.29470814304018256, ,0.165693998336792
0.01074677351544503,0.021895144156047756,-0.08274547257465084, ,0.011305050409217227,0.02356819416835006,-0.08281193631361433, ,0.0017649891961090524, ,0.016553691449583546,0.04875912291234,-0.00943085216958995,0.22515651422808086,-0.12358660582343511,0.05611167283609447, ,0.05234899942151095, ,0.2568445151520553, ,0.0018249486787623632, ,0.15181348284150542,-0.2522707920694178,0.09295047445000001,-4.513995413391356,0.21356284913338341,-0.9358004352882496, ,0.17905083312919012,-0.5129564408565989,0.02349382230088496,0.05556760822306316,0.002333832857591866,0.29470814304018256, ,0.16845703125
0.01074677351544503,0.021895144156047756,-0.08274547257465084, ,0.011336597423373474,0.023666147410790463,-0.0828431893312471, ,0.0018691959060496929, ,0.016553691449583546,0.04875912291234,-0.00943085216958995,0.22515651422808086,-0.12358660582343511,0.05611167283609447, ,0.05234899942151095, ,0.2568445151520553, ,0.0018256986317672333, ,0.15181348284150542,-0.2522707920694178,0.09295047445000001,-4.513995413391356,0.21356284913338341,-0.9358004352882496, ,0.17905083312919012,-0.5129564408565989,0.02349382230088496,0.05556760822306316,0.002333832857591866,0.29470814304018256, ,0.1712629795074463
0.01074677351544503,0.021895144156047756,-0.08274547257465084, ,0.011368015847738552,0.023763764067646492,-0.08287451476205254, ,0.0019734067739789938, ,0.016553691449583546,0.04875912291234,-0.00943085216958995,0.22515651422808086,-0.12358660582343511,0.05611167283609447, ,0.05234899942151095, ,0.2568445151520553, ,0.0018281604341374292, ,0.15362832506694818,-0.2575145276910163,0.09318380665,-4.512946963673933,0.21369948563314886,-0.932726382326464, ,0.17671683716661224,-0.5157442476003846,0.02298529800865801,0.1222777677376087,0.0,0.3223135065645624, ,0.17451906204223633
0.010912801986135022,0.022393776252822576,-0.08283352989934609, ,0.01139930634118476,0.023861045377580537,-0.08290591246827303, ,0.0015475155599330233, ,0.016309287977606023,0.049156619450907255,-0.008558285840589706,0.21011540721318125,-0.10263624476332842,-0.004147450845023715, ,0.05249390790088918, ,0.233843287356225, ,0.001823559698494734, ,0.15362832506694818,-0.2575145276910163,0.09318380665,-4.512946963673933,0.21369948563314886,-0.932726382326464, ,0.17671683716661224,-0.5157442476003846,0.02298529800865801,0.1222777677376087,0.0,0.3223135065645624, ,0.1777479648590088
0.010912801986135022,0.022393776252822576,-0.08283352989934609, ,0.011430469561130658,0.023957992576662954,-0.08293738231234703, ,0.0016509202735615937, ,0.016309287977606023,0.049156619450907255,-0.008558285840589706,0.21011540721318125,-0.10263624476332842,-0.004147450845023715, ,0.05249390790088918, ,0.233843287356225, ,0.0018207751916409737, ,0.15362832506694818,-0.2575145276910163,0.09318380665,-4.512946963673933,0.21369948563314886,-0.932726382326464, ,0.17671683716661224,-0.5157442476003846,0.02298529800865801,0.1222777677376087,0.0,0.3223135065645624, ,0.1804959774017334
0.010912801986135022,0.022393776252822576,-0.08283352989934609, ,0.011461506163542278,0.024054606898374582,-0.08296892415690942, ,0.0017543563812663582, ,0.016309287977606023,0.049156619450907255,-0.008558285840589706,0.21011540721318125,-0.10263624476332842,-0.004147450845023715, ,0.05249390790088918, ,0.233843287356225, ,0.0018197209248096307, ,0.15362832506694818,-0.2575145276910163,0.09318380665,-4.512946963673933,0.21369948563314886,-0.932726382326464, ,0.17671683716661224,-0.5157442476003846,0.02298529800865801,0.1222777677376087,0.0,0.3223135065645624, ,0.18331694602966309
0.011066202607775912,0.022859331179803342,-0.08291361153039736, ,0.011492416802934578,0.024150889573608763,-0.08300053786479077, ,0.0013628418148762024, ,0.01556642845756404,0.04792730596809163,-0.008571423257932302,0.14964197568194135,-0.08483094438603538,-0.010117961271879389, ,0.05111564974594526, ,0.17201456323566056, ,0.0018125821887169209, ,0.15528871263490643,-0.2623875721346519,0.09340158337000001,-4.511688824013026,0.21369948563314886,-0.929377553980701, ,0.16736673996202958,-0.4994575871498463,0.022820646876790834,0.1315975438060915,-0.0007217985901593984,0.3686544696033486, ,0.18617010116577148
0.011066202607775912,0.022859331179803342,-0.08291361153039736, ,0.011523202132372679,0.024246841830673865,-0.08303222329901806, ,0.0014656408575828327, ,0.01556642845756404,0.04792730596809163,-0.008571423257932302,0.14964197568194135,-0.08483094438603538,-0.010117961271879389, ,0.05111564974594526, ,0.17201456323566056, ,0.0018072446297763963, ,0.15528871263490643,-0.2623875721346519,0.09340158337000001,-4.511688824013026,0.21369948563314886,-0.929377553980701, ,0.16736673996202958,-0.4994575871498463,0.022820646876790834,0.1315975438060915,-0.0007217985901593984,0.3686544696033486, ,0.18897414207458496
0.011066202607775912,0.022859331179803342,-0.08291361153039736, ,0.011553862803473114,0.024342464895295162,-0.08306398032281359, ,0.001568473416487738, ,0.01556642845756404,0.04792730596809163,-0.008571423257932302,0.14964197568194135,-0.08483094438603538,-0.010117961271879389, ,0.05111564974594526, ,0.17201456323566056, ,0.0018036268841205075, ,0.15528871263490643,-0.2623875721346519,0.09340158337000001,-4.511688824013026,0.21369948563314886,-0.929377553980701, ,0.16736673996202958,-0.4994575871498463,0.022820646876790834,0.1315975438060915,-0.0007217985901593984,0.3686544696033486, ,0.19188594818115234
0.011226180783092541,0.023352542583337407,-0.08299237630601564, ,0.011584399466405233,0.024437759990617258,-0.08309580879959536, ,0.0011474823427249767, ,0.014711536449346703,0.046089250904805604,-0.007019483302082354,0.12009738998653881,-0.07850403246987486,0.0062624152888982945, ,0.0488868233729171, ,0.1434791489331037, ,0.0017938336820101264, ,0.1568873183398709,-0.2671833892495454,0.09361287864000001,-4.510430684352119,0.21356284913338341,-0.9255089140305386, ,0.16084227382791658,-0.4817103632409684,0.021266771054739654,0.11390772806878059,0.001128946729291545,0.38227199228848396, ,0.1952221393585205
0.011226180783092541,0.023352542583337407,-0.08299237630601564, ,0.011614812769892418,0.02453272833720642,-0.0831277085929764, ,0.0012498752188492336, ,0.014711536449346703,0.046089250904805604,-0.007019483302082354,0.12009738998653881,-0.07850403246987486,0.0062624152888982945, ,0.0488868233729171, ,0.1434791489331037, ,0.0017858342928459957, ,0.1568873183398709,-0.2671833892495454,0.09361287864000001,-4.510430684352119,0.21356284913338341,-0.9255089140305386, ,0.16084227382791658,-0.4817103632409684,0.021266771054739654,0.11390772806878059,0.001128946729291545,0.38227199228848396, ,0.19801998138427734
0.011226180783092541,0.023352542583337407,-0.08299237630601564, ,0.011645103361213457,0.024627371153052687,-0.0831596795667654, ,0.001352284877412776, ,0.014711536449346703,0.046089250904805604,-0.007019483302082354,0.12009738998653881,-0.07850403246987486,0.0062624152888982945, ,0.0488868233729171, ,0.1434791489331037, ,0.0017795509679846447, ,0.1568873183398709,-0.2671833892495454,0.09361287864000001,-4.510430684352119,0.21356284913338341,-0.9255089140305386, ,0.16084227382791658,-0.4817103632409684,0.021266771054739654,0.11390772806878059,0.001128946729291545,0.38227199228848396, ,0.2007911205291748
0.011226180783092541,0.023352542583337407,-0.08299237630601564, ,0.011675271886203783,0.02472168965357217,-0.08319172158496578, ,0.0014546425880833478, ,0.014711536449346703,0.046089250904805604,-0.007019483302082354,0.12009738998653881,-0.07850403246987486,0.0062624152888982945, ,0.0488868233729171, ,0.1434791489331037, ,0.0017749094197003405, ,0.1568873183398709,-0.2671833892495454,0.09361287864000001,-4.510430684352119,0.21356284913338341,-0.9255089140305386, ,0.16084227382791658,-0.4817103632409684,0.021266771054739654,0.11390772806878059,0.001128946729291545,0.38227199228848396, ,0.20363092422485352
0.011364104708919315,0.023789170110800537,-0.08305728315173311, ,0.011705318989256816,0.024815685051609332,-0.08322383451177545, ,0.0010944859361096773, ,0.013768861754703333,0.04417188606318976,-0.006463159021071861,0.1663720042505268,-0.07592000391734993,0.020004229129988258, ,0.04671733614977649, ,0.18287561560216262, ,0.0017653259903539931, ,0.15852453770920652,-0.2721027700904264,0.09382676649,-4.509382234634696,0.21369948563314886,-0.9220264673680504, ,0.15063006596582662,-0.4606647648469455,0.020036240905660377,0.09174740614324135,0.009651740045666456,0.3083695431365279, ,0.2064061164855957
0.011364104708919315,0.023789170110800537,-0.08305728315173311, ,0.011735245313325168,0.024909358557439035,-0.08325601821158732, ,0.0011966884006441984, ,0.013768861754703333,0.04417188606318976,-0.006463159021071861,0.1663720042505268,-0.07592000391734993,0.020004229129988258, ,0.04671733614977649, ,0.18287561560216262, ,0.001757428246052468, ,0.15852453770920652,-0.2721027700904264,0.09382676649,-4.509382234634696,0.21369948563314886,-0.9220264673680504, ,0.15063006596582662,-0.4606647648469455,0.020036240905660377,0.09174740614324135,0.009651740045666456,0.3083695431365279, ,0.20914411544799805
0.011364104708919315,0.023789170110800537,-0.08305728315173311, ,0.011765051499922134,0.02500271137876904,-0.08328827254898859, ,0.0012987674310370237, ,0.013768861754703333,0.04417188606318976,-0.006463159021071861,0.1663720042505268,-0.07592000391734993,0.020004229129988258, ,0.04671733614977649, ,0.18287561560216262, ,0.0017511452211892427, ,0.15852453770920652,-0.2721027700904264,0.09382676649,-4.509382234634696,0.21369948563314886,-0.9220264673680504, ,0.15063006596582662,-0.4606647648469455,0.020036240905660377,0.09174740614324135,0.009651740045666456,0.3083695431365279, ,0.2118849754333496
0.011364104708919315,0.023789170110800537,-0.08305728315173311, ,0.011794738189122864,0.025095744720742243,-0.08332059738876092, ,0.0014006844016544488, ,0.01332127567911023,0.042213558460976026,-0.0076596508869815885,0.20784936152022132,-0.07549002654017216,0.0028909412643585222, ,0.04492339207325658, ,0.22113367261688915, ,0.0017464092641685022, ,0.1599686887566865,-0.27650472782873436,0.09402769144,-4.508543474860758,0.21369948563314886,-0.9193310689434118, ,0.1427021677570989,-0.43331936784689856,0.02076768125162973,0.09831387134151491,0.009144468090160826,0.23982209486407288, ,0.2148571014404297
0.011498273693664143,0.024214242899531783,-0.08312694726729013, ,0.011824306019565616,0.02518845978593868,-0.08335299259587974, ,0.0010518992869425544, ,0.01332127567911023,0.042213558460976026,-0.0076596508869815885,0.20784936152022132,-0.07549002654017216,0.0028909412643585222, ,0.04492339207325658, ,0.22113367261688915, ,0.0017371491311388228, ,0.1599686887566865,-0.27650472782873436,0.09402769144,-4.508543474860758,0.21369948563314886,-0.9193310689434118, ,0.1427021677570989,-0.43331936784689856,0.02076768125162973,0.09831387134151491,0.009144468090160826,0.23982209486407288, ,0.21787691116333008
0.011498273693664143,0.024214242899531783,-0.08312694726729013, ,0.011853755628453191,0.025280857774377906,-0.08338545803551464, ,0.0011536301463174429, ,0.01332127567911023,0.042213558460976026,-0.0076596508869815885,0.20784936152022132,-0.07549002654017216,0.0028909412643585222, ,0.04492339207325658, ,0.22113367261688915, ,0.001729471249759594, ,0.1599686887566865,-0.27650472782873436,0.09402769144,-4.508543474860758,0.21369948563314886,-0.9193310689434118, ,0.1427021677570989,-0.43331936784689856,0.02076768125162973,0.09831387134151491,0.009144468090160826,0.23982209486407288, ,0.22086310386657715
0.011498273693664143,0.024214242899531783,-0.08312694726729013, ,0.011883087651554153,0.025372939883521375,-0.08341799357302894, ,0.0012551368192263985, ,0.01332127567911023,0.042213558460976026,-0.0076596508869815885,0.20784936152022132,-0.07549002654017216,0.0028909412643585222, ,0.04492339207325658, ,0.22113367261688915, ,0.001723311062350072, ,0.1599686887566865,-0.27650472782873436,0.09402769144,-4.508543474860758,0.21369948563314886,-0.9193310689434118, ,0.1427021677570989,-0.43331936784689856,0.02076768125162973,0.09831387134151491,0.009144468090160826,0.23982209486407288, ,0.22371602058410645
0.0116263678770597,0.02462355197811908,-0.08320562070601113, ,0.011912302723204093,0.025464707308274336,-0.08345059907397913, ,0.0009215831088189933, ,0.012204083634169756,0.03965357819119789,-0.007543148303008092,0.18701149103750125,-0.06109250580107939,-0.012030611828594249, ,0.04216924242900777, ,0.19673736813504278, ,0.0017130324988432633, ,0.16132016700967577,-0.2806827263136898,0.09423380155000001,-4.507495025143336,0.21369948563314886,-0.9167990279990543, ,0.12928738631944245,-0.40381677258923737,0.019960916691729325,0.10853556649548615,0.007788599842466255,0.2328049854796246, ,0.22655510902404785
0.0116263678770597,0.02462355197811908,-0.08320562070601113, ,0.011941401476307035,0.025556161240988525,-0.08348327440411552, ,0.0010227892167576178, ,0.012204083634169756,0.03965357819119789,-0.007543148303008092,0.18701149103750125,-0.06109250580107939,-0.012030611828594249, ,0.04216924242900777, ,0.19673736813504278, ,0.0017042952421080018, ,0.16132016700967577,-0.2806827263136898,0.09423380155000001,-4.507495025143336,0.21369948563314886,-0.9167990279990543, ,0.12928738631944245,-0.40381677258923737,0.019960916691729325,0.10853556649548615,0.007788599842466255,0.2328049854796246, ,0.22932195663452148
0.0116263678770597,0.02462355197811908,-0.08320562070601113, ,0.011970384542336655,0.025647302871464103,-0.08351601942938137, ,0.0011237262678619232, ,0.012204083634169756,0.03965357819119789,-0.007543148303008092,0.18701149103750125,-0.06109250580107939,-0.012030611828594249, ,0.04216924242900777, ,0.19673736813504278, ,0.0016970381299299259, ,0.16132016700967577,-0.2806827263136898,0.09423380155000001,-4.507495025143336,0.21369948563314886,-0.9167990279990543, ,0.12928738631944245,-0.40381677258923737,0.019960916691729325,0.10853556649548615,0.007788599842466255,0.2328049854796246, ,0.23205113410949707
0.0116263678770597,0.02462355197811908,-0.08320562070601113, ,0.01199925255133769,0.02573813338695191,-0.08354883401591319, ,0.0012243896738053245, ,0.011403515109301631,0.0372126637907207,-0.008274934636634913,0.1317716768127047,-0.05743437367413341,-0.013388639766519604, ,0.03979066531851241, ,0.14374450267948574, ,0.001691202963804931, ,0.16132016700967577,-0.2806827263136898,0.09423380155000001,-4.507495025143336,0.21369948563314886,-0.9167990279990543, ,0.12928738631944245,-0.40381677258923737,0.019960916691729325,0.10853556649548615,0.007788599842466255,0.2328049854796246, ,0.23506999015808105
0.011744579336377375,0.025013402539600323,-0.08328541572866191, ,0.012028006131926984,0.025828653972155804,-0.08358171803003969, ,0.0009125572313674648, ,0.011403515109301631,0.0372126637907207,-0.008274934636634913,0.1317716768127047,-0.05743437367413341,-0.013388639766519604, ,0.03979066531851241, ,0.14374450267948574, ,0.0016817072841410594, ,0.16256352700242593,-0.2846213200795443,0.09443602279,-4.506236885482428,0.21383612213291428,-0.9144600836985338, ,0.1170122583951551,-0.3736100061357117,0.019985961756587206,0.10422357262187792,-0.0038254573223066458,0.2560912112531071, ,0.23839592933654785
0.011744579336377375,0.025013402539600323,-0.08328541572866191, ,0.012056645911295105,0.025918865809234935,-0.08361467133828321, ,0.0010127480122445946, ,0.011403515109301631,0.0372126637907207,-0.008274934636634913,0.1317716768127047,-0.05743437367413341,-0.013388639766519604, ,0.03979066531851241, ,0.14374450267948574, ,0.0016736475338772466, ,0.16256352700242593,-0.2846213200795443,0.09443602279,-4.506236885482428,0.21383612213291428,-0.9144600836985338, ,0.1170122583951551,-0.3736100061357117,0.019985961756587206,0.10422357262187792,-0.0038254573223066458,0.2560912112531071, ,0.2411799430847168
0.011744579336377375,0.025013402539600323,-0.08328541572866191, ,0.012085172515207503,0.026008770077805925,-0.08364769380735772, ,0.0011126570252699697, ,0.011403515109301631,0.0372126637907207,-0.008274934636634913,0.1317716768127047,-0.05743437367413341,-0.013388639766519604, ,0.03979066531851241, ,0.14374450267948574, ,0.0016669690754414458, ,0.16256352700242593,-0.2846213200795443,0.09443602279,-4.506236885482428,0.21383612213291428,-0.9144600836985338, ,0.1170122583951551,-0.3736100061357117,0.019985961756587206,0.10422357262187792,-0.0038254573223066458,0.2560912112531071, ,0.24393892288208008
0.011857366457823752,0.025376903517934306,-0.08338113249340515, ,0.012113586568005673,0.02609836795494494,-0.08368078530416985, ,0.0008221626881170743, ,0.010815716578316273,0.0349960995940702,-0.010075837912123561,0.05842973864441307,-0.048381516788055794,-0.0015042880438120628, ,0.03798985682431473, ,0.07586043383027476, ,0.0016570301767670414, ,0.1636833232691885,-0.2882201135989329,0.09464602177,-4.50539812570849,0.21369948563314886,-0.9115715886300584, ,0.10603010229996734,-0.34258823667317967,0.02109776360264901,0.08983044200626962,-0.007580801755325057,0.2965586741507741, ,0.24671411514282227
0.011857366457823752,0.025376903517934306,-0.08338113249340515, ,0.012141888692608776,0.026187660615190372,-0.08371394569581814, ,0.0009214361619442429, ,0.010815716578316273,0.0349960995940702,-0.010075837912123561,0.05842973864441307,-0.048381516788055794,-0.0015042880438120628, ,0.03798985682431473, ,0.07586043383027476, ,0.001648476757990032, ,0.1636833232691885,-0.2882201135989329,0.09464602177,-4.50539812570849,0.21369948563314886,-0.9115715886300584, ,0.10603010229996734,-0.34258823667317967,0.02109776360264901,0.08983044200626962,-0.007580801755325057,0.2965586741507741, ,0.24964308738708496
0.011857366457823752,0.025376903517934306,-0.08338113249340515, ,0.012170079510514627,0.0262766492305447,-0.08374717484959346, ,0.0010204502962946917, ,0.010815716578316273,0.0349960995940702,-0.010075837912123561,0.05842973864441307,-0.048381516788055794,-0.0015042880438120628, ,0.03798985682431473, ,0.07586043383027476, ,0.0016412580630280167, ,0.1636833232691885,-0.2882201135989329,0.09464602177,-4.50539812570849,0.21369948563314886,-0.9115715886300584, ,0.10603010229996734,-0.34258823667317967,0.02109776360264901,0.08983044200626962,-0.007580801755325057,0.2965586741507741, ,0.25269508361816406
0.01195892600928113,0.02570291775062034,-0.08348321821733329, ,0.012198159641801163,0.026365334970476738,-0.08378047263297803, ,0.0007644537211050159, ,0.009652054253495695,0.03145121992644873,-0.010583543922211105,0.0094134488765601,-0.01885135872339388,0.011808366700291176, ,0.034559409545413845, ,0.02107098983632905, ,0.001631294377324346, ,0.16465638761134077,-0.2913787113444907,0.09485083559000002,-4.504559365934552,0.21356284913338341,-0.9084380573411612, ,0.09331066033281296,-0.30126013193165324,0.02052681896907217,0.0765780762011332,0.012780988249776094,0.3060651336121693, ,0.2556171417236328
0.01195892600928113,0.02570291775062034,-0.08348321821733329, ,0.01222612970512771,0.026453719001924256,-0.08381383891364574, ,0.0008627921991208157, ,0.009652054253495695,0.03145121992644873,-0.010583543922211105,0.0094134488765601,-0.01885135872339388,0.011808366700291176, ,0.034559409545413845, ,0.02107098983632905, ,0.0016226595213894748, ,0.16465638761134077,-0.2913787113444907,0.09485083559000002,-4.504559365934552,0.21356284913338341,-0.9084380573411612, ,0.09331066033281296,-0.30126013193165324,0.02052681896907217,0.0765780762011332,0.012780988249776094,0.3060651336121693, ,0.25841403007507324
0.01195892600928113,0.02570291775062034,-0.08348321821733329, ,0.01225399031773624,0.026541802489295697,-0.08384727355946171, ,0.0009608989765000071, ,0.009652054253495695,0.03145121992644873,-0.010583543922211105,0.0094134488765601,-0.01885135872339388,0.011808366700291176, ,0.034559409545413845, ,0.02107098983632905, ,0.0016153066264462585, ,0.16465638761134077,-0.2913787113444907,0.09485083559000002,-4.504559365934552,0.21356284913338341,-0.9084380573411612, ,0.09331066033281296,-0.30126013193165324,0.02052681896907217,0.0765780762011332,0.012780988249776094,0.3060651336121693, ,0.2612040042877197
0.01195892600928113,0.02570291775062034,-0.08348321821733329, ,0.012281742095452752,0.026629586594472895,-0.08388077643848296, ,0.0010587624430729917, ,0.009652054253495695,0.03145121992644873,-0.010583543922211105,0.0094134488765601,-0.01885135872339388,0.011808366700291176, ,0.034559409545413845, ,0.02107098983632905, ,0.0016091907562992994, ,0.16465638761134077,-0.2913787113444907,0.09485083559000002,-4.504559365934552,0.21356284913338341,-0.9084380573411612, ,0.09331066033281296,-0.30126013193165324,0.02052681896907217,0.0765780762011332,0.012780988249776094,0.3060651336121693, ,0.2639009952545166
0.012058443997410035,0.02602190071341893,-0.08359474152193297, ,0.012309385652688536,0.026717072476812966,-0.08391434741895655, ,0.0008052225930676167, ,0.009386027800615732,0.03066963376935603,-0.011823375992065609,-0.024634098756532642,-0.0013609111744359971,-0.01730009162270199, ,0.034183565836087206, ,0.02467165721471692, ,0.0016004519719163464, ,0.16559856102199616,-0.294413745364061,0.09506342715,-4.503720606160614,0.21356284913338341,-0.9050075502552575, ,0.08786753848006552,-0.28931994377582554,0.021238415360000002,0.09518253935524333,0.011716717456101557,0.3299818220766625, ,0.26662611961364746
0.012058443997410035,0.02602190071341893,-0.08359474152193297, ,0.012336921602441419,0.026804261293150757,-0.08394798636932124, ,0.0009024520903785981, ,0.009386027800615732,0.03066963376935603,-0.011823375992065609,-0.024634098756532642,-0.0013609111744359971,-0.01730009162270199, ,0.034183565836087206, ,0.02467165721471692, ,0.0015929465968460479, ,0.16559856102199616,-0.294413745364061,0.09506342715,-4.503720606160614,0.21356284913338341,-0.9050075502552575, ,0.08786753848006552,-0.28931994377582554,0.021238415360000002,0.09518253935524333,0.011716717456101557,0.3299818220766625, ,0.2695000171661377
0.012058443997410035,0.02602190071341893,-0.08359474152193297, ,0.012364350556297128,0.02689115419780106,-0.08398169315820596, ,0.000999455857802116, ,0.009386027800615732,0.03066963376935603,-0.011823375992065609,-0.024634098756532642,-0.0013609111744359971,-0.01730009162270199, ,0.034183565836087206, ,0.02467165721471692, ,0.001586632865579623, ,0.16559856102199616,-0.294413745364061,0.09506342715,-4.503720606160614,0.21356284913338341,-0.9050075502552575, ,0.08786753848006552,-0.28931994377582554,0.021238415360000002,0.09518253935524333,0.011716717456101557,0.3299818220766625, ,0.27235913276672363
0.01215029092496632,0.026322049330843315,-0.08372445312516272, ,0.012391673124430572,0.026977752342560824,-0.08401546765443023, ,0.0007569024124934491, ,0.009052249486024847,0.028945589023601455,-0.014323285001846809,-0.0643037158017554,0.008872738067559123,-0.035699132898582384, ,0.033540227159704866, ,0.06491296283388259, ,0.0015778988608102951, ,0.16642489343953817,-0.2971630382672849,0.09528768532000001,-4.502462466499707,0.21369948563314886,-0.9016884610730503, ,0.0774668910681394,-0.2585747726388849,0.02339032528634362,0.12176255795683118,0.005380049379301076,0.34424073418468154, ,0.2753739356994629
0.01215029092496632,0.026322049330843315,-0.08372445312516272, ,0.012418889915607153,0.027064056876711273,-0.08404930972700392, ,0.0008533770723766113, ,0.009052249486024847,0.028945589023601455,-0.014323285001846809,-0.0643037158017554,0.008872738067559123,-0.035699132898582384, ,0.033540227159704866, ,0.06491296283388259, ,0.0015703517588474443, ,0.16642489343953817,-0.2971630382672849,0.09528768532000001,-4.502462466499707,0.21369948563314886,-0.9016884610730503, ,0.0774668910681394,-0.2585747726388849,0.02339032528634362,0.12176255795683118,0.005380049379301076,0.34424073418468154, ,0.27823805809020996
0.01215029092496632,0.026322049330843315,-0.08372445312516272, ,0.012446001537184078,0.027150068947020458,-0.08408321924512728, ,0.0009496180178296809, ,0.009052249486024847,0.028945589023601455,-0.014323285001846809,-0.0643037158017554,0.008872738067559123,-0.035699132898582384, ,0.033540227159704866, ,0.06491296283388259, ,0.0015639524419297352, ,0.16642489343953817,-0.2971630382672849,0.09528768532000001,-4.502462466499707,0.21369948563314886,-0.9016884610730503, ,0.0774668910681394,-0.2585747726388849,0.02339032528634362,0.12176255795683118,0.005380049379301076,0.34424073418468154, ,0.28102707862854004
0.01215029092496632,0.026322049330843315,-0.08372445312516272, ,0.012473008595111582,0.027235789697745264,-0.08411719607819007, ,0.001045617128724822, ,0.009052249486024847,0.028945589023601455,-0.014323285001846809,-0.0643037158017554,0.008872738067559123,-0.035699132898582384, ,0.033540227159704866, ,0.06491296283388259, ,0.0015586633060807058, ,0.16642489343953817,-0.2971630382672849,0.09528768532000001,-4.502462466499707,0.21369948563314886,-0.9016884610730503, ,0.0774668910681394,-0.2585747726388849,0.02339032528634362,0.12176255795683118,0.005380049379301076,0.34424073418468154, ,0.28381991386413574
0.012241475472197911,0.026609179394860114,-0.08387683452811068, ,0.012499911693934312,0.027321220270633547,-0.08415124009577199, ,0.0008056611601914985, ,0.008733680607929166,0.027338406983233,-0.01539425315773362,-0.04315239447658648,0.003030350773303599,-0.0029989702375805847, ,0.032567602055211135, ,0.04325865590048088, ,0.0015510572237989967, ,0.16719716672696064,-0.2996883719171563,0.09553009155000002,-4.5014140167822845,0.21383612213291428,-0.8984510506309837, ,0.07232998594395638,-0.23724235389617693,0.02395310003007519,0.08105966366863182,0.012927464553427045,0.2961615479422539, ,0.28662991523742676
0.012241475472197911,0.026609179394860114,-0.08387683452811068, ,0.012526711436792619,0.027406361804926803,-0.08418535116764254, ,0.0009011336567269279, ,0.008733680607929166,0.027338406983233,-0.01539425315773362,-0.04315239447658648,0.003030350773303599,-0.0029989702375805847, ,0.032567602055211135, ,0.04325865590048088, ,0.0015445579881282758, ,0.16719716672696064,-0.2996883719171563,0.09553009155000002,-4.5014140167822845,0.21383612213291428,-0.8984510506309837, ,0.07232998594395638,-0.23724235389617693,0.02395310003007519,0.08105966366863182,0.012927464553427045,0.2961615479422539, ,0.28944993019104004
0.012241475472197911,0.026609179394860114,-0.08387683452811068, ,0.012553408425423795,0.027491215437362,-0.08421952916376016, ,0.0009963580485365404, ,0.008733680607929166,0.027338406983233,-0.01539425315773362,-0.04315239447658648,0.003030350773303599,-0.0029989702375805847, ,0.032567602055211135, ,0.04325865590048088, ,0.0015391302659541002, ,0.16719716672696064,-0.2996883719171563,0.09553009155000002,-4.5014140167822845,0.21383612213291428,-0.8984510506309837, ,0.07232998594395638,-0.23724235389617693,0.02395310003007519,0.08105966366863182,0.012927464553427045,0.2961615479422539, ,0.29233598709106445
0.012326285162062885,0.02687714837230101,-0.08403424933399022, ,0.012580003260163435,0.02757578230217391,-0.08425377395427316, ,0.000775018257968022, ,0.008733680607929166,0.027338406983233,-0.01539425315773362,-0.04315239447658648,0.003030350773303599,-0.0029989702375805847, ,0.032567602055211135, ,0.04325865590048088, ,0.0015316389717581584, ,0.1678844899527666,-0.3019897463136752,0.09577120149000001,-4.500784946951831,0.21397275863267975,-0.8956220338896199, ,0.06182211176447608,-0.21616615389173302,0.023563330650887577,0.0719298359300465,0.014175264347655156,0.2717059256748814, ,0.2958660125732422
0.012326285162062885,0.02687714837230101,-0.08403424933399022, ,0.012606496539946749,0.02766006353109767,-0.08428808540951824, ,0.0008694293044340313, ,0.007878424234058304,0.025510366733900537,-0.015632714799758224,-0.0410648805757839,0.008884873171232268,0.00025789419372746424, ,0.03093913624069806, ,0.04201505033137817, ,0.0015252097516870503, ,0.1678844899527666,-0.3019897463136752,0.09577120149000001,-4.500784946951831,0.21397275863267975,-0.8956220338896199, ,0.06182211176447608,-0.21616615389173302,0.023563330650887577,0.0719298359300465,0.014175264347655156,0.2717059256748814, ,0.29881906509399414
0.012326285162062885,0.02687714837230101,-0.08403424933399022, ,0.012632888862309741,0.027744060253370468,-0.08432246340002147, ,0.0009636438068097162, ,0.007878424234058304,0.025510366733900537,-0.015632714799758224,-0.0410648805757839,0.008884873171232268,0.00025789419372746424, ,0.03093913624069806, ,0.04201505033137817, ,0.001519810079140153, ,0.1678844899527666,-0.3019897463136752,0.09577120149000001,-4.500784946951831,0.21397275863267975,-0.8956220338896199, ,0.06182211176447608,-0.21616615389173302,0.023563330650887577,0.0719298359300465,0.014175264347655156,0.2717059256748814, ,0.30193495750427246
0.012326285162062885,0.02687714837230101,-0.08403424933399022, ,0.012659180823390691,0.02782777359573422,-0.08435690779649728, ,0.001057646595127947, ,0.007878424234058304,0.025510366733900537,-0.015632714799758224,-0.0410648805757839,0.008884873171232268,0.00025789419372746424, ,0.03093913624069806, ,0.04201505033137817, ,0.0015154085221495606, ,0.1678844899527666,-0.3019897463136752,0.09577120149000001,-4.500784946951831,0.21397275863267975,-0.8956220338896199, ,0.06182211176447608,-0.21616615389173302,0.023563330650887577,0.0719298359300465,0.014175264347655156,0.2717059256748814, ,0.30508995056152344
0.012401269960942856,0.027122388896047723,-0.08419026851188682, ,0.012685373017931326,0.027911204682437782,-0.08439141846984911, ,0.0008622100657244685, ,0.007303676105190401,0.024177955190086663,-0.015466718891714696,-0.051276304332236664,0.020173638529640655,-0.03768498317471616, ,0.02961649194450099, ,0.05510203437623302, ,0.0015092462725606443, ,0.16845597218545924,-0.3040362705253447,0.09600323740000001,-4.499736497234409,0.2141093951324452,-0.8930380533686777, ,0.054319943651099475,-0.2010528422848957,0.02295217798270894,0.10723469331249603,0.006684674454073528,0.27150812973951366, ,0.30842113494873047
0.012401269960942856,0.027122388896047723,-0.08419026851188682, ,0.012711466039278096,0.027994354635238868,-0.08442599529116789, ,0.0009550460574275693, ,0.007303676105190401,0.024177955190086663,-0.015466718891714696,-0.051276304332236664,0.020173638529640655,-0.03768498317471616, ,0.02961649194450099, ,0.05510203437623302, ,0.0015040668312977185, ,0.16845597218545924,-0.3040362705253447,0.09600323740000001,-4.499736497234409,0.2141093951324452,-0.8930380533686777, ,0.054319943651099475,-0.2010528422848957,0.02295217798270894,0.10723469331249603,0.006684674454073528,0.27150812973951366, ,0.31124210357666016
0.012401269960942856,0.027122388896047723,-0.08419026851188682, ,0.01273746047938363,0.028077224573406705,-0.08446063813173345, ,0.0010477762007141947, ,0.007303676105190401,0.024177955190086663,-0.015466718891714696,-0.051276304332236664,0.020173638529640655,-0.03768498317471616, ,0.02961649194450099, ,0.05510203437623302, ,0.0014998419180515749, ,0.16845597218545924,-0.3040362705253447,0.09600323740000001,-4.499736497234409,0.2141093951324452,-0.8930380533686777, ,0.054319943651099475,-0.2010528422848957,0.02295217798270894,0.10723469331249603,0.006684674454073528,0.27150812973951366, ,0.31394004821777344
0.012475571964645429,0.027364571936910453,-0.08434582582814659, ,0.012763356928807892,0.028159815613724094,-0.08449534686301326, ,0.0008588301525783005, ,0.006993346152254002,0.022691977637631495,-0.014194348210298977,-0.037012921769719515,0.011062818184547685,-0.021910338851741127, ,0.027664277699358635, ,0.03863083933737916, ,0.0014939610761664987, ,0.16900428621952918,-0.3060441810726431,0.09623397702000001,-4.4986880475169855,0.2141093951324452,-0.8901792974637581, ,0.053133785867004915,-0.18903773218818878,0.02129520256684492,0.085314358645997,0.006684674454073528,0.24150905013814317, ,0.3166680335998535
0.012475571964645429,0.027364571936910453,-0.08434582582814659, ,0.012789155976719525,0.028242128870489543,-0.0845301213566625, ,0.000949950496674528, ,0.006993346152254002,0.022691977637631495,-0.014194348210298977,-0.037012921769719515,0.011062818184547685,-0.021910338851741127, ,0.027664277699358635, ,0.03863083933737916, ,0.0014890155254438447, ,0.16900428621952918,-0.3060441810726431,0.09623397702000001,-4.4986880475169855,0.2141093951324452,-0.8901792974637581, ,0.053133785867004915,-0.18903773218818878,0.02129520256684492,0.085314358645997,0.006684674454073528,0.24150905013814317, ,0.3194921016693115
0.012475571964645429,0.027364571936910453,-0.08434582582814659, ,0.01281485821089715,0.028324165455519665,-0.08456496148452437, ,0.0010411317465856636, ,0.006993346152254002,0.022691977637631495,-0.014194348210298977,-0.037012921769719515,0.011062818184547685,-0.021910338851741127, ,0.027664277699358635, ,0.03863083933737916, ,0.0014849805364451222, ,0.16900428621952918,-0.3060441810726431,0.09623397702000001,-4.4986880475169855,0.2141093951324452,-0.8901792974637581, ,0.053133785867004915,-0.18903773218818878,0.02129520256684492,0.085314358645997,0.006684674454073528,0.24150905013814317, ,0.3224649429321289
0.012530583079532639,0.02754759461896613,-0.08445818063077959, ,0.01284046421773065,0.028405926478151485,-0.08459986711862899, ,0.0009234906394450256, ,0.006645735225780953,0.021414001862716147,-0.012464228941432294,-0.025696167775922377,0.005180775534733885,-0.0011675394624844004, ,0.025653114344500842, ,0.026213225148301225, ,0.0014799672337933356, ,0.16942903652761152,-0.30757328218173957,0.09640379101,-4.498058977686532,0.21424603163221062,-0.8883304256040812, ,0.05295588256611093,-0.18110103350853202,0.019260957097944377,0.06110620211029005,0.011133973442180862,0.2188925635714123, ,0.32578396797180176
0.012530583079532639,0.02754759461896613,-0.08445818063077959, ,0.012865974582222547,0.028487413045244304,-0.08463483813119407, ,0.0010133873923141498, ,0.006645735225780953,0.021414001862716147,-0.012464228941432294,-0.025696167775922377,0.005180775534733885,-0.0011675394624844004, ,0.025653114344500842, ,0.026213225148301225, ,0.0014758382086475022, ,0.16942903652761152,-0.30757328218173957,0.09640379101,-4.498058977686532,0.21424603163221062,-0.8883304256040812, ,0.05295588256611093,-0.18110103350853202,0.019260957097944377,0.06110620211029005,0.011133973442180862,0.2188925635714123, ,0.3285551071166992
0.012530583079532639,0.02754759461896613,-0.08445818063077959, ,0.012891389887989177,0.028568626261182433,-0.08466987439462396, ,0.0011034044666785212, ,0.006645735225780953,0.021414001862716147,-0.012464228941432294,-0.025696167775922377,0.005180775534733885,-0.0011675394624844004, ,0.025653114344500842, ,0.026213225148301225, ,0.0014725712459986516, ,0.16942903652761152,-0.30757328218173957,0.09640379101,-4.498058977686532,0.21424603163221062,-0.8883304256040812, ,0.05295588256611093,-0.18110103350853202,0.019260957097944377,0.06110620211029005,0.011133973442180862,0.2188925635714123, ,0.3312849998474121
0.012530583079532639,0.02754759461896613,-0.08445818063077959, ,0.012916710717262086,0.028649567227877298,-0.08470497578151062, ,0.0011934596892368681, ,0.006645735225780953,0.021414001862716147,-0.012464228941432294,-0.025696167775922377,0.005180775534733885,-0.0011675394624844004, ,0.025653114344500842, ,0.026213225148301225, ,0.0014701441889833316, ,0.16942903652761152,-0.30757328218173957,0.09640379101,-4.498058977686532,0.21424603163221062,-0.8883304256040812, ,0.05295588256611093,-0.18110103350853202,0.019260957097944377,0.06110620211029005,0.011133973442180862,0.2188925635714123, ,0.3340001106262207
0.012606907199029826,0.02778947488309033,-0.08459601877363958, ,0.012941937650889301,0.028730237044769315,-0.08474014216463215, ,0.0010089848365318853, ,0.006991463051156001,0.021272424570106203,-0.012367661259062742,-0.030516607345787965,0.010393236822711871,-0.020467656545444503, ,0.02558037622290687, ,0.032237903253629345, ,0.0014661686773242675, ,0.17004685515754947,-0.309619806393409,0.09661897515000001,-4.497220217912593,0.21438266813197607,-0.8858281238232795, ,0.057029411994273305,-0.17837770969637368,0.0192144891676719,0.08268651897977249,0.013021193034932176,0.22491442488839905, ,0.33678698539733887
0.012606907199029826,0.02778947488309033,-0.08459601877363958, ,0.012967071268336627,0.028810636808830614,-0.08477537341695329, ,0.0010975690973599004, ,0.006991463051156001,0.021272424570106203,-0.012367661259062742,-0.030516607345787965,0.010393236822711871,-0.020467656545444503, ,0.02558037622290687, ,0.032237903253629345, ,0.0014630182535638882, ,0.17004685515754947,-0.309619806393409,0.09661897515000001,-4.497220217912593,0.21438266813197607,-0.8858281238232795, ,0.057029411994273305,-0.17837770969637368,0.0192144891676719,0.08268651897977249,0.013021193034932176,0.22491442488839905, ,0.33954405784606934
0.012606907199029826,0.02778947488309033,-0.08459601877363958, ,0.012992112147688903,0.028890767614567207,-0.08481066941162516, ,0.0011862982041893411, ,0.006991463051156001,0.021272424570106203,-0.012367661259062742,-0.030516607345787965,0.010393236822711871,-0.020467656545444503, ,0.02558037622290687, ,0.032237903253629345, ,0.0014606731683996972, ,0.17004685515754947,-0.309619806393409,0.09661897515000001,-4.497220217912593,0.21438266813197607,-0.8858281238232795, ,0.057029411994273305,-0.17837770969637368,0.0192144891676719,0.08268651897977249,0.013021193034932176,0.22491442488839905, ,0.342318058013916
0.012606907199029826,0.02778947488309033,-0.08459601877363958, ,0.01301706086565142,0.028970630554020816,-0.08484603002198493, ,0.001275092299997762, ,0.007345118710107557,0.02181221484983582,-0.012651735469847169,-0.06658997821167899,-0.0004375076925279848,-0.04585928409971881, ,0.02558037622290687, ,0.06659141301293699, ,0.0014591136653038825, ,0.17064922832173898,-0.3114964304818456,0.09682249268000001,-4.496171768195171,0.21451930463174151,-0.883325822042478, ,0.05772320046135693,-0.18214384176289977,0.01968950744128554,0.10625510026054621,-0.011709952072305407,0.26515210657819765, ,0.3458521366119385
0.01268097961136734,0.028014324444517093,-0.08472697932970286, ,0.013041917997551085,0.029050226716771547,-0.08488145512155605, ,0.0011078054010301346, ,0.007345118710107557,0.02181221484983582,-0.012651735469847169,-0.06658997821167899,-0.0004375076925279848,-0.04585928409971881, ,0.026263851505823728, ,0.06659141301293699, ,0.0014561860964349346, ,0.17064922832173898,-0.3114964304818456,0.09682249268000001,-4.496171768195171,0.21451930463174151,-0.883325822042478, ,0.05772320046135693,-0.18214384176289977,0.01968950744128554,0.10625510026054621,-0.011709952072305407,0.26515210657819765, ,0.3487849235534668
0.01268097961136734,0.028014324444517093,-0.08472697932970286, ,0.013066684117337786,0.02912955718994013,-0.08491694458404725, ,0.001195240076406342, ,0.007345118710107557,0.02181221484983582,-0.012651735469847169,-0.06658997821167899,-0.0004375076925279848,-0.04585928409971881, ,0.026263851505823728, ,0.06659141301293699, ,0.0014540295177570123, ,0.17064922832173898,-0.3114964304818456,0.09682249268000001,-4.496171768195171,0.21451930463174151,-0.883325822042478, ,0.05772320046135693,-0.18214384176289977,0.01968950744128554,0.10625510026054621,-0.011709952072305407,0.26515210657819765, ,0.35158300399780273
0.01268097961136734,0.028014324444517093,-0.08472697932970286, ,0.013091359797585734,0.02920862305818994,-0.08495249828335356, ,0.0012828171632455003, ,0.007345118710107557,0.02181221484983582,-0.012651735469847169,-0.06658997821167899,-0.0004375076925279848,-0.04585928409971881, ,0.026263851505823728, ,0.06659141301293699, ,0.001452626137802, ,0.17064922832173898,-0.3114964304818456,0.09682249268000001,-4.496171768195171,0.21451930463174151,-0.883325822042478, ,0.05772320046135693,-0.18214384176289977,0.01968950744128554,0.10625510026054621,-0.011709952072305407,0.26515210657819765, ,0.3543980121612549
0.012755406911067918,0.028235680253930313,-0.08486030697205274, ,0.01311594560949465,0.029287425403729184,-0.08498811609355507, ,0.0011191475258999094, ,0.007395273991015208,0.021209319417459644,-0.013069012613176105,-0.07677768838477494,-0.003019937368554591,-0.033643778834932477, ,0.02598700441061595, ,0.07683705534549107, ,0.0014499149295751537, ,0.17123615602018005,-0.3133267181730368,0.09702730650000001,-4.495333008421233,0.21451930463174151,-0.8806304236178393, ,0.057478462482417184,-0.1738039222682615,0.019935934317897377,0.09231106236382126,-0.010406054624913097,0.2651049519119133, ,0.3574690818786621
0.012755406911067918,0.028235680253930313,-0.08486030697205274, ,0.013140442122891186,0.029365965306313684,-0.08502379788891684, ,0.0012052077388907403, ,0.007395273991015208,0.021209319417459644,-0.013069012613176105,-0.07677768838477494,-0.003019937368554591,-0.033643778834932477, ,0.02598700441061595, ,0.07683705534549107, ,0.0014479414844889892, ,0.17123615602018005,-0.3133267181730368,0.09702730650000001,-4.495333008421233,0.21451930463174151,-0.8806304236178393, ,0.057478462482417184,-0.1738039222682615,0.019935934317897377,0.09231106236382126,-0.010406054624913097,0.2651049519119133, ,0.36023497581481934
0.012755406911067918,0.028235680253930313,-0.08486030697205274, ,0.013164849906230113,0.02944424384324837,-0.08505954354388966, ,0.0012914970875964288, ,0.007395273991015208,0.021209319417459644,-0.013069012613176105,-0.07677768838477494,-0.003019937368554591,-0.033643778834932477, ,0.02598700441061595, ,0.07683705534549107, ,0.0014466899293138487, ,0.17123615602018005,-0.3133267181730368,0.09702730650000001,-4.495333008421233,0.21451930463174151,-0.8806304236178393, ,0.057478462482417184,-0.1738039222682615,0.019935934317897377,0.09231106236382126,-0.010406054624913097,0.2651049519119133, ,0.36292314529418945
0.012755406911067918,0.028235680253930313,-0.08486030697205274, ,0.013189169526595743,0.029522262089390003,-0.08509535293310877, ,0.0013779293994153389, ,0.007395273991015208,0.021209319417459644,-0.013069012613176105,-0.07677768838477494,-0.003019937368554591,-0.033643778834932477, ,0.02598700441061595, ,0.07683705534549107, ,0.0014461442108225906, ,0.17123615602018005,-0.3133267181730368,0.09702730650000001,-4.495333008421233,0.21451930463174151,-0.8806304236178393, ,0.057478462482417184,-0.1738039222682615,0.019935934317897377,0.09231106236382126,-0.010406054624913097,0.2651049519119133, ,0.36562204360961914
0.012830258303502456,0.028452221156643524,-0.08499896710217936, ,0.013213401549703073,0.02960002111714923,-0.08513122593139408, ,0.0012172657451646664, ,0.00769182481262976,0.02216966340704091,-0.01461028957136355,-0.049100830149148504,-0.01041866190402587,-0.019103797033391327, ,0.027642697152933, ,0.05019401728774135, ,0.0014443420181796149, ,0.1717921927871242,-0.315017996672492,0.09722823145000001,-4.494494248647295,0.21451930463174151,-0.8783434188939037, ,0.05786398875516511,-0.17837770969637368,0.021730984338335608,0.07544780831697077,-0.00881561022017493,0.23882372975234623, ,0.36834001541137695
0.012830258303502456,0.028452221156643524,-0.08499896710217936, ,0.013237546539899267,0.029677521996493244,-0.08516716241375051, ,0.0013021273050198164, ,0.00769182481262976,0.02216966340704091,-0.01461028957136355,-0.049100830149148504,-0.01041866190402587,-0.019103797033391327, ,0.027642697152933, ,0.05019401728774135, ,0.001443230965733054, ,0.1717921927871242,-0.315017996672492,0.09722823145000001,-4.494494248647295,0.21451930463174151,-0.8783434188939037, ,0.05786398875516511,-0.17837770969637368,0.021730984338335608,0.07544780831697077,-0.00881561022017493,0.23882372975234623, ,0.3710601329803467
0.012830258303502456,0.028452221156643524,-0.08499896710217936, ,0.013261605060164793,0.02975476579494719,-0.08520316225536684, ,0.0013872196004389512, ,0.00769182481262976,0.02216966340704091,-0.01461028957136355,-0.049100830149148504,-0.01041866190402587,-0.019103797033391327, ,0.027642697152933, ,0.05019401728774135, ,0.0014427967691028672, ,0.1717921927871242,-0.315017996672492,0.09722823145000001,-4.494494248647295,0.21451930463174151,-0.8783434188939037, ,0.05786398875516511,-0.17837770969637368,0.021730984338335608,0.07544780831697077,-0.00881561022017493,0.23882372975234623, ,0.3738260269165039
0.012906510933362612,0.028671673345518452,-0.08514853754140432, ,0.013285577672114773,0.02983175357759726,-0.08523922533161614, ,0.0012238063623718108, ,0.008148330769421702,0.023631412870110113,-0.0158605455736195,-0.057446339354057616,-0.008107719196942599,-0.01823249058620136, ,0.029603984097725283, ,0.0580156531643727, ,0.0014411122275126283, ,0.1723868432184395,-0.3168173934321863,0.09745637849000001,-4.493655488873357,0.21451930463174151,-0.8760564141699678, ,0.060482435665054665,-0.18791473575934806,0.02349382230088496,0.07892174400184727,-0.0076192470758019775,0.257899061278563, ,0.37667012214660645
0.012906510933362612,0.028671673345518452,-0.08514853754140432, ,0.01330946493600041,0.029908486407092563,-0.08527535151805561, ,0.0013069660524268637, ,0.008148330769421702,0.023631412870110113,-0.0158605455736195,-0.057446339354057616,-0.008107719196942599,-0.01823249058620136, ,0.029603984097725283, ,0.0580156531643727, ,0.0014400882109089203, ,0.1723868432184395,-0.3168173934321863,0.09745637849000001,-4.493655488873357,0.21451930463174151,-0.8760564141699678, ,0.060482435665054665,-0.18791473575934806,0.02349382230088496,0.07892174400184727,-0.0076192470758019775,0.257899061278563, ,0.379439115524292
0.012906510933362612,0.028671673345518452,-0.08514853754140432, ,0.013333267410710083,0.02998496534364713,-0.08531154069042636, ,0.0013904772525640036, ,0.008148330769421702,0.023631412870110113,-0.0158605455736195,-0.057446339354057616,-0.008107719196942599,-0.01823249058620136, ,0.029603984097725283, ,0.0580156531643727, ,0.001439712370315398, ,0.1723868432184395,-0.3168173934321863,0.09745637849000001,-4.493655488873357,0.21451930463174151,-0.8760564141699678, ,0.060482435665054665,-0.18791473575934806,0.02349382230088496,0.07892174400184727,-0.0076192470758019775,0.257899061278563, ,0.38216495513916016
0.012906510933362612,0.028671673345518452,-0.08514853754140432, ,0.013356985653770715,0.03006119144504262,-0.08534779272465283, ,0.0014742423988894787, ,0.008148330769421702,0.023631412870110113,-0.0158605455736195,-0.057446339354057616,-0.008107719196942599,-0.01823249058620136, ,0.029603984097725283, ,0.0580156531643727, ,0.0014399719945903913, ,0.1723868432184395,-0.3168173934321863,0.09745637849000001,-4.493655488873357,0.21451930463174151,-0.8760564141699678, ,0.060482435665054665,-0.18791473575934806,0.02349382230088496,0.07892174400184727,-0.0076192470758019775,0.257899061278563, ,0.3849461078643799
0.01299051496092591,0.02891558406610959,-0.08531043529484073, ,0.013380620221349187,0.030137165766630437,-0.08538410749684298, ,0.001284473261148388, ,0.008783839420485436,0.0245882124413247,-0.01604294961463191,-0.06576178293532471,-0.007351976418778296,-0.02615522004584897, ,0.030644938543945666, ,0.06617146355771154, ,0.0014388115562811226, ,0.17302010731412593,-0.31875579938361664,0.09769748843,-4.4928167290994185,0.21451930463174151,-0.8733610157453293, ,0.06715990202298003,-0.1956637970277748,0.024098050711043876,0.09127640141066426,-0.006694714581540323,0.2763031768494816, ,0.38785505294799805
0.01299051496092591,0.02891558406610959,-0.08531043529484073, ,0.013404171668253483,0.030212889361333654,-0.08542048488328824, ,0.001366098024466381, ,0.008783839420485436,0.0245882124413247,-0.01604294961463191,-0.06576178293532471,-0.007351976418778296,-0.02615522004584897, ,0.030644938543945666, ,0.06617146355771154, ,0.0014382729375269393, ,0.17302010731412593,-0.31875579938361664,0.09769748843,-4.4928167290994185,0.21451930463174151,-0.8733610157453293, ,0.06715990202298003,-0.1956637970277748,0.024098050711043876,0.09127640141066426,-0.006694714581540323,0.2763031768494816, ,0.3907489776611328
0.01299051496092591,0.02891558406610959,-0.08531043529484073, ,0.013427640547934109,0.03028836327964969,-0.08545692476046299, ,0.0014481231686163073, ,0.008783839420485436,0.0245882124413247,-0.01604294961463191,-0.06576178293532471,-0.007351976418778296,-0.02615522004584897, ,0.030644938543945666, ,0.06617146355771154, ,0.0014383453656967142, ,0.17302010731412593,-0.31875579938361664,0.09769748843,-4.4928167290994185,0.21451930463174151,-0.8733610157453293, ,0.06715990202298003,-0.1956637970277748,0.024098050711043876,0.09127640141066426,-0.006694714581540323,0.2763031768494816, ,0.393604040145874
0.01299051496092591,0.02891558406610959,-0.08531043529484073, ,0.013451027412485253,0.030363588569652322,-0.08549342700502449, ,0.001530449191027656, ,0.008783839420485436,0.0245882124413247,-0.01604294961463191,-0.06576178293532471,-0.007351976418778296,-0.02615522004584897, ,0.030644938543945666, ,0.06617146355771154, ,0.0014390176563925604, ,0.17380010333442258,-0.3209413327870222,0.09796452417000001,-4.491768279381996,0.21438266813197607,-0.8700641269761509, ,0.07092447052202598,-0.19852916644031546,0.024098050711043876,0.08223979515539591,0.0,0.2876526544244671, ,0.39655613899230957
0.01309146336451829,0.02919001962642664,-0.08548684502028639, ,0.013474332812646258,0.03043856627699394,-0.0855299914938128, ,0.0013066443169931123, ,0.009041295274105072,0.02491486494007432,-0.015832467241605072,-0.07448733426454253,-0.005918870391604729,-0.013653201582313828, ,0.030873330467770996, ,0.07472211853081911, ,0.001438058429295463, ,0.17380010333442258,-0.3209413327870222,0.09796452417000001,-4.491768279381996,0.21438266813197607,-0.8700641269761509, ,0.07092447052202598,-0.19852916644031546,0.024098050711043876,0.08223979515539591,0.0,0.2876526544244671, ,0.3996610641479492
0.01309146336451829,0.02919001962642664,-0.08548684502028639, ,0.013497557297802786,0.03051329744490774,-0.08556661810385048, ,0.0013864848403051134, ,0.009041295274105072,0.02491486494007432,-0.015832467241605072,-0.07448733426454253,-0.005918870391604729,-0.013653201582313828, ,0.030873330467770996, ,0.07472211853081911, ,0.001437687396281144, ,0.17380010333442258,-0.3209413327870222,0.09796452417000001,-4.491768279381996,0.21438266813197607,-0.8700641269761509, ,0.07092447052202598,-0.19852916644031546,0.024098050711043876,0.08223979515539591,0.0,0.2876526544244671, ,0.4023780822753906
0.01309146336451829,0.02919001962642664,-0.08548684502028639, ,0.013520701415988162,0.03058778311421027,-0.08560330671234256, ,0.001466816756901589, ,0.009041295274105072,0.02491486494007432,-0.015832467241605072,-0.07448733426454253,-0.005918870391604729,-0.013653201582313828, ,0.030873330467770996, ,0.07472211853081911, ,0.0014378954631427186, ,0.17380010333442258,-0.3209413327870222,0.09796452417000001,-4.491768279381996,0.21438266813197607,-0.8700641269761509, ,0.07092447052202598,-0.19852916644031546,0.024098050711043876,0.08223979515539591,0.0,0.2876526544244671, ,0.4052090644836426
0.013168545568726715,0.02942188298908476,-0.0856229788627946, ,0.013543765713884673,0.03066202432330325,-0.08564005719667621, ,0.0012957748090072388, ,0.008716911579185367,0.025505661260583616,-0.014060560587130561,-0.0016405331455335934,0.013403245384872085,0.013253045243356115, ,0.030401030703634722, ,0.01350325095268309, ,0.0014368875152410486, ,0.17445653562873167,-0.3228179568754587,0.09817841202000001,-4.491139209551543,0.21492921413103783,-0.8679777576465791, ,0.07460451380382924,-0.20948552220412975,0.022690614700854702,0.06394266188065346,0.03973386320297458,0.22820554876253518, ,0.4082620143890381
0.013168545568726715,0.02942188298908476,-0.0856229788627946, ,0.013566750736824926,0.03073602210817608,-0.08567686943442046, ,0.0013742027412053884, ,0.008716911579185367,0.025505661260583616,-0.014060560587130561,-0.0016405331455335934,0.013403245384872085,0.013253045243356115, ,0.030401030703634722, ,0.01350325095268309, ,0.001436446073170375, ,0.17445653562873167,-0.3228179568754587,0.09817841202000001,-4.491139209551543,0.21492921413103783,-0.8679777576465791, ,0.07460451380382924,-0.20948552220412975,0.022690614700854702,0.06394266188065346,0.03973386320297458,0.22820554876253518, ,0.41103601455688477
0.013168545568726715,0.02942188298908476,-0.0856229788627946, ,0.01358965702879299,0.03080977750240807,-0.08571374330332626, ,0.0014532116933114484, ,0.008716911579185367,0.025505661260583616,-0.014060560587130561,-0.0016405331455335934,0.013403245384872085,0.013253045243356115, ,0.030401030703634722, ,0.01350325095268309, ,0.0014365633152692635, ,0.17445653562873167,-0.3228179568754587,0.09817841202000001,-4.491139209551543,0.21492921413103783,-0.8679777576465791, ,0.07460451380382924,-0.20948552220412975,0.022690614700854702,0.06394266188065346,0.03973386320297458,0.22820554876253518, ,0.41373705863952637
0.013168545568726715,0.02942188298908476,-0.0856229788627946, ,0.01361248513242591,0.030883291537170617,-0.0857506786813265, ,0.0015326788718739912, ,0.008716911579185367,0.025505661260583616,-0.014060560587130561,-0.0016405331455335934,0.013403245384872085,0.013253045243356115, ,0.030401030703634722, ,0.01350325095268309, ,0.001437230784412352, ,0.17445653562873167,-0.3228179568754587,0.09817841202000001,-4.491139209551543,0.21492921413103783,-0.8679777576465791, ,0.07460451380382924,-0.20948552220412975,0.022690614700854702,0.06394266188065346,0.03973386320297458,0.22820554876253518, ,0.4164860248565674
0.01326749293219073,0.029729153849978446,-0.08577836740271783, ,0.013635235589014787,0.030956565241229386,-0.08578767544653489, ,0.0012813508593278746, ,0.008329041936244546,0.02568657045293915,-0.011935846276869371,0.037583277660043865,0.02702797904459788,0.014907149405433693, ,0.0295235036463253, ,0.04629270103003164, ,0.0014361557504462522, ,0.17536009537501593,-0.32537418145682706,0.09843896631000001,-4.490300449777605,0.2158856696293959,-0.8658172483273938, ,0.0760392159923644,-0.21715547267384616,0.020794793107049615,0.06807443221634643,0.058685132878544835,0.1999105051787665, ,0.419248104095459
0.01326749293219073,0.029729153849978446,-0.08577836740271783, ,0.01365790893850625,0.031029599640946766,-0.0858247334772469, ,0.0013585778321840135, ,0.008329041936244546,0.02568657045293915,-0.011935846276869371,0.037583277660043865,0.02702797904459788,0.014907149405433693, ,0.0295235036463253, ,0.04629270103003164, ,0.0014356243948417163, ,0.17536009537501593,-0.32537418145682706,0.09843896631000001,-4.490300449777605,0.2158856696293959,-0.8658172483273938, ,0.0760392159923644,-0.21715547267384616,0.020794793107049615,0.06807443221634643,0.058685132878544835,0.1999105051787665, ,0.4220449924468994
0.01326749293219073,0.029729153849978446,-0.08577836740271783, ,0.013680505719503676,0.031102395760283796,-0.08586185265193935, ,0.0014364340199050822, ,0.008329041936244546,0.02568657045293915,-0.011935846276869371,0.037583277660043865,0.02702797904459788,0.014907149405433693, ,0.0295235036463253, ,0.04629270103003164, ,0.0014356299024952087, ,0.17536009537501593,-0.32537418145682706,0.09843896631000001,-4.490300449777605,0.2158856696293959,-0.8658172483273938, ,0.0760392159923644,-0.21715547267384616,0.020794793107049615,0.06807443221634643,0.058685132878544835,0.1999105051787665, ,0.42496800422668457
0.01335340533683848,0.029990424824975336,-0.08589188599701808, ,0.01370302646926848,0.031174954620802883,-0.08589903284926932, ,0.001235069573320461, ,0.008329041936244546,0.02568657045293915,-0.011935846276869371,0.037583277660043865,0.02702797904459788,0.014907149405433693, ,0.0295235036463253, ,0.04629270103003164, ,0.0014342747651359198, ,0.1761014777309415,-0.32761377399035213,0.09864248384,-4.489461690003666,0.2158856696293959,-0.8631218499027553, ,0.07396488040410817,-0.22702617597720282,0.019960916691729325,0.09655003985742917,0.024762539518901568,0.26556434444976584, ,0.4279909133911133
0.01335340533683848,0.029990424824975336,-0.08589188599701808, ,0.013725471723721457,0.03124727724166952,-0.08593627394807493, ,0.0013115188461464034, ,0.00827974080556256,0.02635674794347363,-0.010827691572899735,-0.018178729663312288,0.015962974403150296,-0.014741435806477323, ,0.029672734534601678, ,0.024192614888457704, ,0.0014334508999078023, ,0.1761014777309415,-0.32761377399035213,0.09864248384,-4.489461690003666,0.2158856696293959,-0.8631218499027553, ,0.07396488040410817,-0.22702617597720282,0.019960916691729325,0.09655003985742917,0.024762539518901568,0.26556434444976584, ,0.4309079647064209
0.01335340533683848,0.029990424824975336,-0.08589188599701808, ,0.013747842017444058,0.031319364639654866,-0.08597357582737483, ,0.0013886448626021432, ,0.00827974080556256,0.02635674794347363,-0.010827691572899735,-0.018178729663312288,0.015962974403150296,-0.014741435806477323, ,0.029672734534601678, ,0.024192614888457704, ,0.0014331521929924313, ,0.1761014777309415,-0.32761377399035213,0.09864248384,-4.489461690003666,0.2158856696293959,-0.8631218499027553, ,0.07396488040410817,-0.22702617597720282,0.019960916691729325,0.09655003985742917,0.024762539518901568,0.26556434444976584, ,0.4336860179901123
0.01335340533683848,0.029990424824975336,-0.08589188599701808, ,0.013770137883679659,0.031391217829137744,-0.0860109383663682, ,0.0014663084678044227, ,0.00827974080556256,0.02635674794347363,-0.010827691572899735,-0.018178729663312288,0.015962974403150296,-0.014741435806477323, ,0.029672734534601678, ,0.024192614888457704, ,0.0014333717709713186, ,0.1761014777309415,-0.32761377399035213,0.09864248384,-4.489461690003666,0.2158856696293959,-0.8631218499027553, ,0.07396488040410817,-0.22702617597720282,0.019960916691729325,0.09655003985742917,0.024762539518901568,0.26556434444976584, ,0.43642497062683105
0.013443257560490083,0.03026576337955545,-0.08600345787570068, ,0.013792359854334956,0.03146283782210735,-0.08604836144443437, ,0.0012477483572674853, ,0.008644034039836547,0.026978042945849507,-0.01090805405493369,0.01607145364485442,-0.012174421049718338,-0.00774973509483809, ,0.03035654408748316, ,0.020162043441150634, ,0.0014321505643022144, ,0.1768891964841124,-0.3299923757156133,0.09884989024000002,-4.488622930229728,0.2158856696293959,-0.8604264514781168, ,0.0760392159923644,-0.23259054303546764,0.020317361632653064,0.08000664912753491,0.007204003959599133,0.2307056730132418, ,0.43919992446899414
0.013443257560490083,0.03026576337955545,-0.08600345787570068, ,0.01381450845998112,0.03153422562816481,-0.0860858449411325, ,0.0013242399084269002, ,0.008644034039836547,0.026978042945849507,-0.01090805405493369,0.01607145364485442,-0.012174421049718338,-0.00774973509483809, ,0.03035654408748316, ,0.020162043441150634, ,0.0014314452658978007, ,0.1768891964841124,-0.3299923757156133,0.09884989024000002,-4.488622930229728,0.2158856696293959,-0.8604264514781168, ,0.0760392159923644,-0.23259054303546764,0.020317361632653064,0.08000664912753491,0.007204003959599133,0.2307056730132418, ,0.44198012351989746
0.013443257560490083,0.03026576337955545,-0.08600345787570068, ,0.013836584229855292,0.03160538225452616,-0.08612338873620175, ,0.0014013093913594664, ,0.008644034039836547,0.026978042945849507,-0.01090805405493369,0.01607145364485442,-0.012174421049718338,-0.00774973509483809, ,0.03035654408748316, ,0.020162043441150634, ,0.0014312495784007985, ,0.1768891964841124,-0.3299923757156133,0.09884989024000002,-4.488622930229728,0.2158856696293959,-0.8604264514781168, ,0.0760392159923644,-0.23259054303546764,0.020317361632653064,0.08000664912753491,0.007204003959599133,0.2307056730132418, ,0.44475698471069336
0.013531671805508414,0.03054237690029072,-0.08611835470096012, ,0.013858587691861619,0.03167630870602384,-0.08616099270956112, ,0.0011808866738941244, ,0.008792160742511396,0.028188185269388866,-0.012106465994478496,0.03648383091416589,-0.034412047854145957,0.04454019329550902, ,0.03191304432640381, ,0.050152354836253396, ,0.0014296343338555942, ,0.17762285610716372,-0.332286027379258,0.09905340777,-4.488203550342759,0.2158856696293959,-0.8583028042344623, ,0.0749580896986341,-0.24024542166701462,0.021820289753424663,0.022573170867115452,0.0057157735265954196,0.20822213097070047, ,0.448375940322876
0.013531671805508414,0.03054237690029072,-0.08611835470096012, ,0.013880519372572828,0.031747005985109655,-0.0861986567413085, ,0.0012566917978257754, ,0.008792160742511396,0.028188185269388866,-0.012106465994478496,0.03648383091416589,-0.034412047854145957,0.04454019329550902, ,0.03191304432640381, ,0.050152354836253396, ,0.001428525727855403, ,0.17762285610716372,-0.332286027379258,0.09905340777,-4.488203550342759,0.2158856696293959,-0.8583028042344623, ,0.0749580896986341,-0.24024542166701462,0.021820289753424663,0.022573170867115452,0.0057157735265954196,0.20822213097070047, ,0.4518239498138428
0.013531671805508414,0.03054237690029072,-0.08611835470096012, ,0.01390237979723129,0.031817475091856534,-0.08623638071172157, ,0.001333127883017185, ,0.008792160742511396,0.028188185269388866,-0.012106465994478496,0.03648383091416589,-0.034412047854145957,0.04454019329550902, ,0.03191304432640381, ,0.050152354836253396, ,0.001427918098270446, ,0.17762285610716372,-0.332286027379258,0.09905340777,-4.488203550342759,0.2158856696293959,-0.8583028042344623, ,0.0749580896986341,-0.24024542166701462,0.021820289753424663,0.022573170867115452,0.0057157735265954196,0.20822213097070047, ,0.45468997955322266
0.013531671805508414,0.03054237690029072,-0.08611835470096012, ,0.013924169489750591,0.03188771702396094,-0.08627416450125709, ,0.001410060698821529, ,0.008792160742511396,0.028188185269388866,-0.012106465994478496,0.03648383091416589,-0.034412047854145957,0.04454019329550902, ,0.03191304432640381, ,0.050152354836253396, ,0.0014278050767549467, ,0.17839512939458618,-0.3346877973031418,0.09927766594000001,-4.48778417045579,0.2158856696293959,-0.8562608357309482, ,0.07829780656639503,-0.2348934196991851,0.022371926292134834,0.0404897023281184,0.004637084969639108,0.19014626139348004, ,0.4576230049133301
0.013619332640292314,0.030816077260095224,-0.0862393638970389, ,0.013945888972716472,0.031957732776745046,-0.0863120079905507, ,0.0011896610951298019, ,0.009188773053627641,0.02793030973407387,-0.012572977237631604,0.051272972905734085,-0.03503611045276574,0.02479295139726185, ,0.03197836000626639, ,0.06210029365519764, ,0.0014263073158642225, ,0.17839512939458618,-0.3346877973031418,0.09927766594000001,-4.48778417045579,0.2158856696293959,-0.8562608357309482, ,0.07829780656639503,-0.2348934196991851,0.022371926292134834,0.0404897023281184,0.004637084969639108,0.19014626139348004, ,0.4608011245727539
0.013619332640292314,0.030816077260095224,-0.0862393638970389, ,0.01396753876738851,0.03202752334315911,-0.08634991106041656, ,0.001265333866791293, ,0.009188773053627641,0.02793030973407387,-0.012572977237631604,0.051272972905734085,-0.03503611045276574,0.02479295139726185, ,0.03197836000626639, ,0.06210029365519764, ,0.0014253012318075167, ,0.17839512939458618,-0.3346877973031418,0.09927766594000001,-4.48778417045579,0.2158856696293959,-0.8562608357309482, ,0.07829780656639503,-0.2348934196991851,0.022371926292134834,0.0404897023281184,0.004637084969639108,0.19014626139348004, ,0.46355605125427246
0.013619332640292314,0.030816077260095224,-0.0862393638970389, ,0.013989119393701044,0.032097089713783715,-0.08638787359184753, ,0.0013415626258038535, ,0.009188773053627641,0.02793030973407387,-0.012572977237631604,0.051272972905734085,-0.03503611045276574,0.02479295139726185, ,0.03197836000626639, ,0.06210029365519764, ,0.0014247811162422764, ,0.17839512939458618,-0.3346877973031418,0.09927766594000001,-4.48778417045579,0.2158856696293959,-0.8562608357309482, ,0.07829780656639503,-0.2348934196991851,0.022371926292134834,0.0404897023281184,0.004637084969639108,0.19014626139348004, ,0.46626710891723633
0.013619332640292314,0.030816077260095224,-0.0862393638970389, ,0.014010631370264835,0.03216643287683172,-0.08642589546601526, ,0.001418227419687933, ,0.009188773053627641,0.02793030973407387,-0.012572977237631604,0.051272972905734085,-0.03503611045276574,0.02479295139726185, ,0.03197836000626639, ,0.06210029365519764, ,0.0014247406613252744, ,0.17839512939458618,-0.3346877973031418,0.09927766594000001,-4.48778417045579,0.2158856696293959,-0.8562608357309482, ,0.07829780656639503,-0.2348934196991851,0.022371926292134834,0.0404897023281184,0.004637084969639108,0.19014626139348004, ,0.46904611587524414
0.013724393012045472,0.03114972493376061,-0.08637277453056862, ,0.01403207521436805,0.03223555381815086,-0.08646397656426898, ,0.0011322590316501463, ,0.008643532855530225,0.02808103775915674,-0.010332722369005655,0.07479489226156782,-0.016500136362438127,-0.034627530969844916, ,0.03114515200493918, ,0.07659327836447517, ,0.0014229462954990467, ,0.17931413460661888,-0.3375297630008564,0.09952914620000002,-4.486526030794883,0.21602230612916135,-0.8541669276508493, ,0.07567539199240093,-0.24208403458793568,0.020317361632653064,0.1036615564333262,0.0,0.18348077963825513, ,0.4719071388244629
0.013724393012045472,0.03114972493376061,-0.08637277453056862, ,0.014053451441977829,0.032304453521225886,-0.0865021167681363, ,0.0012076452191923384, ,0.008643532855530225,0.02808103775915674,-0.010332722369005655,0.07479489226156782,-0.016500136362438127,-0.034627530969844916, ,0.03114515200493918, ,0.07659327836447517, ,0.0014216334840581521, ,0.17931413460661888,-0.3375297630008564,0.09952914620000002,-4.486526030794883,0.21602230612916135,-0.8541669276508493, ,0.07567539199240093,-0.24208403458793568,0.020317361632653064,0.1036615564333262,0.0,0.18348077963825513, ,0.47464895248413086
