NicholasDascanio/dvrk_moveit_final/test/execution/first_exp_nosummary/yes_joints_no_ramp/400vel5.csv
Current Position (x),Current Position (y),Current Position (z), ,Planned Position (x),Planned Position (y),Planned Position (z), ,Position Error,,Cartesian linear Velocity(x),Cartesian linear Velocity(y),Cartesian linear Velocity(z),Cartesian Angular Velocity(x),Cartesian Angular Velocity(y),Cartesian Angular Velocity(z), ,Total Linear Velocity, ,Total Angular Velocity, ,MSE, ,Joint 1 Position,Joint 2 Position,Joint 3 Position,Joint 4 Position,Joint 5 Position,Joint 6 Position, ,Joint 1 Velocity,Joint 2 Velocity,Joint 3 Velocity,Joint 4 Velocity,Joint 5 Velocity,Joint 6 Velocity, ,Time Stamp
0.010622839442116803,0.018496428673215472,-0.0804961944789297, ,0.010809472708982476,0.01859610603555796,-0.08063343903005123, ,0.00025219758063284395, ,-3.735712490839295e-05,9.674556254256865e-06,-1.8712714936744724e-05,0.0003070940417862585,0.000779222505562028,9.033513380403226e-05, ,4.2887265247878916e-05, ,0.0008375526632248178, ,0.00012609879031642198, ,0.14870894422606715,-0.22096283299731168,0.08987697086,-4.535593477570262,0.15931815872650357,-1.3732270581296657, ,-0.0004489217221810553,-7.05221175632688e-05,1.595079197526903e-05,0.0,0.00037006984029536676,-0.00018671875798464786, ,0.002774953842163086
0.010622839442116803,0.018496428673215472,-0.0804961944789297, ,0.01081041586099758,0.018743697193219583,-0.08070610003988939, ,0.00037468250349724524, ,-3.735712490839295e-05,9.674556254256865e-06,-1.8712714936744724e-05,0.0003070940417862585,0.000779222505562028,9.033513380403226e-05, ,4.2887265247878916e-05, ,0.0008375526632248178, ,0.00020896002804336307, ,0.14870894422606715,-0.22096283299731168,0.08987697086,-4.535593477570262,0.15931815872650357,-1.3732270581296657, ,-0.0004489217221810553,-7.05221175632688e-05,1.595079197526903e-05,0.0,0.00037006984029536676,-0.00018671875798464786, ,0.005545854568481445
0.010622839442116803,0.018496428673215472,-0.0804961944789297, ,0.010811628872154254,0.018890928999954565,-0.08077868151065486, ,0.0005206446770917851, ,-3.735712490839295e-05,9.674556254256865e-06,-1.8712714936744724e-05,0.0003070940417862585,0.000779222505562028,9.033513380403226e-05, ,4.2887265247878916e-05, ,0.0008375526632248178, ,0.00028688119030546855, ,0.14870894422606715,-0.22096283299731168,0.08987697086,-4.535593477570262,0.15931815872650357,-1.3732270581296657, ,-0.0004489217221810553,-7.05221175632688e-05,1.595079197526903e-05,0.0,0.00037006984029536676,-0.00018671875798464786, ,0.008318901062011719
0.010622839442116803,0.018496428673215472,-0.0804961944789297, ,0.010813111754015729,0.01903780155781925,-0.08085118386687079, ,0.0006747633795712172, ,0.0001511460786423482,0.0022208854132745653,-0.001358391195704249,0.08402394058680648,-0.0077733550997663645,0.00039435451548407803, ,0.0026077583853860993, ,0.08438274492594813, ,0.00036445762815861827, ,0.14870122149319293,-0.22104006032605392,0.08988474860000001,-4.535593477570262,0.159454795226269,-1.373501833513643, ,-0.0006377547947464939,-0.022423662939147163,0.0018260703336008255,0.0,0.0,-0.06248570569757961, ,0.01119089126586914
0.010621899717069186,0.018504570707513587,-0.08050231018280415, ,0.01081486451419424,0.019184314970985737,-0.08092360753379488, ,0.0008226658705723786, ,0.0001511460786423482,0.0022208854132745653,-0.001358391195704249,0.08402394058680648,-0.0077733550997663645,0.00039435451548407803, ,0.0026077583853860993, ,0.08438274492594813, ,0.00044082566856091165, ,0.14870122149319293,-0.22104006032605392,0.08988474860000001,-4.535593477570262,0.159454795226269,-1.373501833513643, ,-0.0006377547947464939,-0.022423662939147163,0.0018260703336008255,0.0,0.0,-0.06248570569757961, ,0.014587879180908203
0.010621899717069186,0.018504570707513587,-0.08050231018280415, ,0.010816887156360968,0.019330469345737396,-0.0809959529374154, ,0.0009817391869950455, ,0.0001511460786423482,0.0022208854132745653,-0.001358391195704249,0.08402394058680648,-0.0077733550997663645,0.00039435451548407803, ,0.0026077583853860993, ,0.08438274492594813, ,0.0005180990283372165, ,0.14870122149319293,-0.22104006032605392,0.08988474860000001,-4.535593477570262,0.159454795226269,-1.373501833513643, ,-0.0006377547947464939,-0.022423662939147163,0.0018260703336008255,0.0,0.0,-0.06248570569757961, ,0.01771402359008789
0.010621899717069186,0.018504570707513587,-0.08050231018280415, ,0.010819179680256256,0.019476264790463882,-0.08106822050444634, ,0.0011416493624825752, ,0.0001511460786423482,0.0022208854132745653,-0.001358391195704249,0.08402394058680648,-0.0077733550997663645,0.00039435451548407803, ,0.0026077583853860993, ,0.08438274492594813, ,0.0005960428201053863, ,0.14864716236307338,-0.22158065162724963,0.08994308165,-4.5353837876267775,0.15822506672838005,-1.3736425747423433, ,-0.006585158885538834,-0.06886570504968853,0.009320545067290815,0.0,-0.22152510227602792,0.13776171567184248, ,0.020650863647460938
0.0106356117919728,0.01856005935214608,-0.08054970562780844, ,0.010821742081699746,0.019621701415656653,-0.08114041066232218, ,0.001229089416425306, ,0.0026222122435318406,0.007370690327435904,-0.00789077463317865,-0.09972672649929704,-0.1875488688575771,-0.03665939496868377, ,0.011111588422214942, ,0.21241468442043013, ,0.0006663813308075996, ,0.14864716236307338,-0.22158065162724963,0.08994308165,-4.5353837876267775,0.15822506672838005,-1.3736425747423433, ,-0.006585158885538834,-0.06886570504968853,0.009320545067290815,0.0,-0.22152510227602792,0.13776171567184248, ,0.02390885353088379
0.0106356117919728,0.01856005935214608,-0.08054970562780844, ,0.010824574352600657,0.019766779333903958,-0.08121252383919318, ,0.0013896790798727722, ,0.0026222122435318406,0.007370690327435904,-0.00789077463317865,-0.09972672649929704,-0.1875488688575771,-0.03665939496868377, ,0.011111588422214942, ,0.21241468442043013, ,0.0007387111057141169, ,0.14864716236307338,-0.22158065162724963,0.08994308165,-4.5353837876267775,0.15822506672838005,-1.3736425747423433, ,-0.006585158885538834,-0.06886570504968853,0.009320545067290815,0.0,-0.22152510227602792,0.13776171567184248, ,0.026710033416748047
0.0106356117919728,0.01856005935214608,-0.08054970562780844, ,0.010827676480967685,0.019911498659886184,-0.08128456046392075, ,0.001550254391195653, ,0.0026222122435318406,0.007370690327435904,-0.00789077463317865,-0.09972672649929704,-0.1875488688575771,-0.03665939496868377, ,0.011111588422214942, ,0.21241468442043013, ,0.0008124877680306202, ,0.14864716236307338,-0.22158065162724963,0.08994308165,-4.5353837876267775,0.15822506672838005,-1.3736425747423433, ,-0.006585158885538834,-0.06886570504968853,0.009320545067290815,0.0,-0.22152510227602792,0.13776171567184248, ,0.029558897018432617
0.0106905242112022,0.018693199672254315,-0.08076715524619163, ,0.010831048450919391,0.020055859510371435,-0.08135652096607221, ,0.0014912883182456114, ,0.0026222122435318406,0.007370690327435904,-0.00789077463317865,-0.09972672649929704,-0.1875488688575771,-0.03665939496868377, ,0.011111588422214942, ,0.21241468442043013, ,0.000869054480548536, ,0.14864716236307338,-0.22158065162724963,0.08994308165,-4.5353837876267775,0.15822506672838005,-1.3736425747423433, ,-0.006585158885538834,-0.06886570504968853,0.009320545067290815,0.0,-0.22152510227602792,0.13776171567184248, ,0.03287506103515625
0.0106905242112022,0.018693199672254315,-0.08076715524619163, ,0.010834690242694262,0.020199862004210357,-0.08142840577591635, ,0.0016516862565973647, ,0.006277446368349822,0.01440136581572429,-0.027201967545079385,-0.22354156420521962,-0.27883386321482584,-0.05649603502118008, ,0.03141262021209585, ,0.357378146098716, ,0.0009292569248599843, ,0.14853132136996,-0.22260777509952148,0.09018548788000001,-4.534964407739808,0.1546725177344786,-1.3711541029469392, ,-0.010231986141460587,-0.10095419314730934,0.029885199849906192,0.0012184123089756884,-0.3407731498107839,0.2778776538708394, ,0.03564786911010742
0.0106905242112022,0.018693199672254315,-0.08076715524619163, ,0.0108386018326608,0.020343506262331505,-0.08150021532441837, ,0.0018118542716010102, ,0.006277446368349822,0.01440136581572429,-0.027201967545079385,-0.22354156420521962,-0.27883386321482584,-0.05649603502118008, ,0.03141262021209585, ,0.357378146098716, ,0.0009922995924843434, ,0.14853132136996,-0.22260777509952148,0.09018548788000001,-4.534964407739808,0.1546725177344786,-1.3711541029469392, ,-0.010231986141460587,-0.10095419314730934,0.029885199849906192,0.0012184123089756884,-0.3407731498107839,0.2778776538708394, ,0.03842902183532715
0.0106905242112022,0.018693199672254315,-0.08076715524619163, ,0.010842783193327744,0.02048679240773698,-0.08157195004323495, ,0.001971763769766066, ,0.006277446368349822,0.01440136581572429,-0.027201967545079385,-0.22354156420521962,-0.27883386321482584,-0.05649603502118008, ,0.03141262021209585, ,0.357378146098716, ,0.0010575972043031247, ,0.14853132136996,-0.22260777509952148,0.09018548788000001,-4.534964407739808,0.1546725177344786,-1.3711541029469392, ,-0.010231986141460587,-0.10095419314730934,0.029885199849906192,0.0012184123089756884,-0.3407731498107839,0.2778776538708394, ,0.04121088981628418
0.010767028171751885,0.018883889194705437,-0.08113320411282371, ,0.010847234293354317,0.020629720565497157,-0.08164361036470956, ,0.0018206797464538245, ,0.007332702818365473,0.02122276060935124,-0.03901090783270099,-0.22682807076768013,-0.19771745335873234,-0.10017679657541781, ,0.04501138776394022, ,0.30090376318751394, ,0.0011052898631875435, ,0.1484077576439724,-0.223897471489517,0.09058733778000001,-4.534335337909355,0.15111996874057715,-1.3675221287895671, ,-0.012863893392770878,-0.14577103157983223,0.04305084194594595,0.06890032851219892,-0.284574459172497,0.34380800259685684, ,0.045210838317871094
0.010767028171751885,0.018883889194705437,-0.08113320411282371, ,0.010851955097560066,0.020772290862746262,-0.08171519672186721, ,0.001977874829095072, ,0.007332702818365473,0.02122276060935124,-0.03901090783270099,-0.22682807076768013,-0.19771745335873234,-0.10017679657541781, ,0.04501138776394022, ,0.30090376318751394, ,0.0011566183905938688, ,0.1484077576439724,-0.223897471489517,0.09058733778000001,-4.534335337909355,0.15111996874057715,-1.3675221287895671, ,-0.012863893392770878,-0.14577103157983223,0.04305084194594595,0.06890032851219892,-0.284574459172497,0.34380800259685684, ,0.048082828521728516
0.010767028171751885,0.018883889194705437,-0.08113320411282371, ,0.010856945566935387,0.020914503428677608,-0.08178670954841022, ,0.002135075797134165, ,0.007332702818365473,0.02122276060935124,-0.03901090783270099,-0.22682807076768013,-0.19771745335873234,-0.10017679657541781, ,0.04501138776394022, ,0.30090376318751394, ,0.001210977135401663, ,0.1484077576439724,-0.223897471489517,0.09058733778000001,-4.534335337909355,0.15111996874057715,-1.3675221287895671, ,-0.012863893392770878,-0.14577103157983223,0.04305084194594595,0.06890032851219892,-0.284574459172497,0.34380800259685684, ,0.051007986068725586
0.01083253426572268,0.019124418039384524,-0.08155136351935088, ,0.010862205658651383,0.021056358394538857,-0.08185814927871353, ,0.001956372006950594, ,0.007332702818365473,0.02122276060935124,-0.03901090783270099,-0.22682807076768013,-0.19771745335873234,-0.10017679657541781, ,0.04501138776394022, ,0.30090376318751394, ,0.001250208444430554, ,0.148222412054991,-0.22559647272184638,0.09105140960000001,-4.534125647965871,0.14907042124409553,-1.3637272129904663, ,-0.018599949345055034,-0.17253989374267414,0.04590435596541788,0.037496836221421845,-0.12762825312135334,0.40655097407754004, ,0.0540468692779541
0.01083253426572268,0.019124418039384524,-0.08155136351935088, ,0.01086773532607026,0.02119785589362715,-0.0819295163478182, ,0.002107933398315442, ,0.005760116760424389,0.024349700960931055,-0.04122051721479478,-0.24456697023990961,-0.039457564720802384,-0.026253987251945665, ,0.04822051349203658, ,0.24772925410714794, ,0.0012930946921247985, ,0.148222412054991,-0.22559647272184638,0.09105140960000001,-4.534125647965871,0.14907042124409553,-1.3637272129904663, ,-0.018599949345055034,-0.17253989374267414,0.04590435596541788,0.037496836221421845,-0.12762825312135334,0.40655097407754004, ,0.05714297294616699
0.01083253426572268,0.019124418039384524,-0.08155136351935088, ,0.010873534518755222,0.021338996061284646,-0.08200081119142892, ,0.0022600973531616197, ,0.005760116760424389,0.024349700960931055,-0.04122051721479478,-0.24456697023990961,-0.039457564720802384,-0.026253987251945665, ,0.04822051349203658, ,0.24772925410714794, ,0.0013391424378884566, ,0.148222412054991,-0.22559647272184638,0.09105140960000001,-4.534125647965871,0.14907042124409553,-1.3637272129904663, ,-0.018599949345055034,-0.17253989374267414,0.04590435596541788,0.037496836221421845,-0.12762825312135334,0.40655097407754004, ,0.060534000396728516
0.01083253426572268,0.019124418039384524,-0.08155136351935088, ,0.010879603182480815,0.021479779034893513,-0.08207203424590721, ,0.0024126829272787947, ,0.005760116760424389,0.024349700960931055,-0.04122051721479478,-0.24456697023990961,-0.039457564720802384,-0.026253987251945665, ,0.04822051349203658, ,0.24772925410714794, ,0.0013879397328607447, ,0.148222412054991,-0.22559647272184638,0.09105140960000001,-4.534125647965871,0.14907042124409553,-1.3637272129904663, ,-0.018599949345055034,-0.17253989374267414,0.04590435596541788,0.037496836221421845,-0.12762825312135334,0.40655097407754004, ,0.06345295906066895
0.010886056348347476,0.01939419759896928,-0.0819597215294895, ,0.010885941259242967,0.021620204953871312,-0.08214318594826767, ,0.002233555002743622, ,0.005144495853359246,0.029715718984919936,-0.040192426331611734,0.1249505151206977,-0.026211937977158296,0.0238803234163417, ,0.050248591291677, ,0.1276698556221355, ,0.0014247056141600003, ,0.14804478919888386,-0.2276198287348932,0.09151288884000001,-4.533915958022385,0.14825060224550288,-1.3609350583246331, ,-0.016466587117555227,-0.2343134359468414,0.04617046817391306,0.0,-0.058797299641347535,0.09942151944706268, ,0.06659102439880371
0.010886056348347476,0.01939419759896928,-0.0819597215294895, ,0.010892548687269287,0.021760273959666197,-0.08221426673617274, ,0.002379737959809623, ,0.005144495853359246,0.029715718984919936,-0.040192426331611734,0.1249505151206977,-0.026211937977158296,0.0238803234163417, ,0.050248591291677, ,0.1276698556221355, ,0.0014644986285620677, ,0.14804478919888386,-0.2276198287348932,0.09151288884000001,-4.533915958022385,0.14825060224550288,-1.3609350583246331, ,-0.016466587117555227,-0.2343134359468414,0.04617046817391306,0.0,-0.058797299641347535,0.09942151944706268, ,0.06939005851745605
0.010886056348347476,0.01939419759896928,-0.0819597215294895, ,0.010899425401028966,0.021899986195752376,-0.08228527704792787, ,0.0025268837762990773, ,0.005144495853359246,0.029715718984919936,-0.040192426331611734,0.1249505151206977,-0.026211937977158296,0.0238803234163417, ,0.050248591291677, ,0.1276698556221355, ,0.001506994034471548, ,0.14804478919888386,-0.2276198287348932,0.09151288884000001,-4.533915958022385,0.14825060224550288,-1.3609350583246331, ,-0.016466587117555227,-0.2343134359468414,0.04617046817391306,0.0,-0.058797299641347535,0.09942151944706268, ,0.07219099998474121
0.010942898758549448,0.01971025635409374,-0.08233136911639527, ,0.01090657133124319,0.02203934180762524,-0.08235621732247661, ,0.0023295012696223616, ,0.005964419246259742,0.032954481979564285,-0.03391129456695853,0.07092195056663761,-0.12887347307847596,-0.11649237210857451, ,0.04766076036629726, ,0.14709945713590494, ,0.0015386289281311947, ,0.14791350274002205,-0.23024555791212953,0.09194973857000001,-4.5330771982484475,0.1468842372478485,-1.3589224131461228, ,-0.01124471394387197,-0.2858341613206951,0.040843106461538464,0.11991948803733328,-0.20398459337352473,0.2018488570113287, ,0.07502985000610352
0.010942898758549448,0.01971025635409374,-0.08233136911639527, ,0.010913986404895111,0.022178340942796415,-0.08242708799939616, ,0.0024701092214208724, ,0.005964419246259742,0.032954481979564285,-0.03391129456695853,0.07092195056663761,-0.12887347307847596,-0.11649237210857451, ,0.04766076036629726, ,0.14709945713590494, ,0.0015731281982530347, ,0.14791350274002205,-0.23024555791212953,0.09194973857000001,-4.5330771982484475,0.1468842372478485,-1.3589224131461228, ,-0.01124471394387197,-0.2858341613206951,0.040843106461538464,0.11991948803733328,-0.20398459337352473,0.2018488570113287, ,0.07954692840576172
0.010942898758549448,0.01971025635409374,-0.08233136911639527, ,0.010921670545240018,0.022316983750789467,-0.08249788951889162, ,0.0026121269881404967, ,0.005964419246259742,0.032954481979564285,-0.03391129456695853,0.07092195056663761,-0.12887347307847596,-0.11649237210857451, ,0.04766076036629726, ,0.14709945713590494, ,0.0016102352978918726, ,0.14791350274002205,-0.23024555791212953,0.09194973857000001,-4.5330771982484475,0.1468842372478485,-1.3589224131461228, ,-0.01124471394387197,-0.2858341613206951,0.040843106461538464,0.11991948803733328,-0.20398459337352473,0.2018488570113287, ,0.08266401290893555
0.01099953749606179,0.020064937191606968,-0.08262329760310809, ,0.010929623671815693,0.022455270383134888,-0.08256862232179232, ,0.0023919803711000063, ,0.004705953049501475,0.035837807093813005,-0.023921495229731853,0.035509418364428474,-0.19059205008471827,-0.06951594262777291, ,0.04334434617598413, ,0.19387171148682977, ,0.0016371920245542221, ,0.14778993901403445,-0.2335122739179265,0.09231788493000001,-4.531819058587541,0.14428814375230511,-1.3567237942357502, ,-0.01546308319349369,-0.3450797874853483,0.03173070023904383,0.06438639761777676,-0.27154929793267546,0.27880954195327845, ,0.08548784255981445
0.01099953749606179,0.020064937191606968,-0.08262329760310809, ,0.010937845700452177,0.022593200993365297,-0.08263928684954576, ,0.002529066900050029, ,0.004705953049501475,0.035837807093813005,-0.023921495229731853,0.035509418364428474,-0.19059205008471827,-0.06951594262777291, ,0.04334434617598413, ,0.19387171148682977, ,0.0016669211870707491, ,0.14778993901403445,-0.2335122739179265,0.09231788493000001,-4.531819058587541,0.14428814375230511,-1.3567237942357502, ,-0.01546308319349369,-0.3450797874853483,0.03173070023904383,0.06438639761777676,-0.27154929793267546,0.27880954195327845, ,0.08826398849487305
0.01099953749606179,0.020064937191606968,-0.08262329760310809, ,0.010946336543282288,0.02273077573701097,-0.0827098835442142, ,0.002667774843710693, ,0.004705953049501475,0.035837807093813005,-0.023921495229731853,0.035509418364428474,-0.19059205008471827,-0.06951594262777291, ,0.04334434617598413, ,0.19387171148682977, ,0.0016992067888978442, ,0.14778993901403445,-0.2335122739179265,0.09231788493000001,-4.531819058587541,0.14428814375230511,-1.3567237942357502, ,-0.01546308319349369,-0.3450797874853483,0.03173070023904383,0.06438639761777676,-0.27154929793267546,0.27880954195327845, ,0.09101605415344238
0.01099953749606179,0.020064937191606968,-0.08262329760310809, ,0.010955096108751559,0.02286799477159496,-0.08278041284846789, ,0.002807809116367897, ,0.004705953049501475,0.035837807093813005,-0.023921495229731853,0.035509418364428474,-0.19059205008471827,-0.06951594262777291, ,0.04334434617598413, ,0.19387171148682977, ,0.0017338506116312833, ,0.14778993901403445,-0.2335122739179265,0.09231788493000001,-4.531819058587541,0.14428814375230511,-1.3567237942357502, ,-0.01546308319349369,-0.3450797874853483,0.03173070023904383,0.06438639761777676,-0.27154929793267546,0.27880954195327845, ,0.09383893013000488
0.011037860371580178,0.020430205291906322,-0.08282911760057252, ,0.010964124301628438,0.023004858256628163,-0.0828508752055823, ,0.0025758005144301556, ,0.0031436344449062106,0.03997708564955529,-0.0199651183835601,-0.0470477816154537,-0.1342006246386236,-0.01730650918125396, ,0.044795711475817075, ,0.14220864332430816, ,0.0017593642450494309, ,0.1476200388908015,-0.23712651290306358,0.09260436502000001,-4.531819058587541,0.14182868675652718,-1.352757982205841, ,-0.02275160430555521,-0.40040903611169104,0.028856542608695655,0.03220541279776312,-0.23316057618632582,0.41855652879991634, ,0.09705495834350586
0.011037860371580178,0.020430205291906322,-0.08282911760057252, ,0.010973421023014514,0.023141366353605055,-0.08292127105943145, ,0.0027134920291194214, ,0.0031436344449062106,0.03997708564955529,-0.0199651183835601,-0.0470477816154537,-0.1342006246386236,-0.01730650918125396, ,0.044795711475817075, ,0.14220864332430816, ,0.0017874268269338423, ,0.1476200388908015,-0.23712651290306358,0.09260436502000001,-4.531819058587541,0.14182868675652718,-1.352757982205841, ,-0.02275160430555521,-0.40040903611169104,0.028856542608695655,0.03220541279776312,-0.23316057618632582,0.41855652879991634, ,0.10001087188720703
0.011037860371580178,0.020430205291906322,-0.08282911760057252, ,0.010982986170354527,0.023277519225998362,-0.08299160085448426, ,0.0028524741234648553, ,0.0031436344449062106,0.03997708564955529,-0.0199651183835601,-0.0470477816154537,-0.1342006246386236,-0.01730650918125396, ,0.044795711475817075, ,0.14220864332430816, ,0.0018178567496918712, ,0.1476200388908015,-0.23712651290306358,0.09260436502000001,-4.531819058587541,0.14182868675652718,-1.352757982205841, ,-0.02275160430555521,-0.40040903611169104,0.028856542608695655,0.03220541279776312,-0.23316057618632582,0.41855652879991634, ,0.10278487205505371
0.011058491899556946,0.020861659484630507,-0.08301854933564856, ,0.010992819637446636,0.023413317039254984,-0.08306186503579928, ,0.0025528700264530507, ,0.0007923502230217268,0.04462711147752325,-0.017704843137090594,-0.04820875414619313,0.04128297111755514,0.04693746727294649, ,0.04801737569059968, ,0.06346940948974437, ,0.0018382737851574593, ,0.14735746597307786,-0.24149757970987465,0.09289084511000001,-4.531819058587541,0.1401890487593419,-1.347091994134034, ,-0.028523276693258423,-0.45405235195440563,0.027847572587412592,0.020428504906549204,-0.06409295179735913,0.49619218740300847, ,0.1066899299621582
0.011058491899556946,0.020861659484630507,-0.08301854933564856, ,0.011002921314452498,0.023548759960790776,-0.08313206404901982, ,0.002690071123420597, ,0.0007923502230217268,0.04462711147752325,-0.017704843137090594,-0.04820875414619313,0.04128297111755514,0.04693746727294649, ,0.04801737569059968, ,0.06346940948974437, ,0.001861295334840247, ,0.14735746597307786,-0.24149757970987465,0.09289084511000001,-4.531819058587541,0.1401890487593419,-1.347091994134034, ,-0.028523276693258423,-0.45405235195440563,0.027847572587412592,0.020428504906549204,-0.06409295179735913,0.49619218740300847, ,0.10961699485778809
0.011058491899556946,0.020861659484630507,-0.08301854933564856, ,0.011013291087907467,0.023683848159985813,-0.08320219834036878, ,0.002828518868526819, ,0.0007923502230217268,0.04462711147752325,-0.017704843137090594,-0.04820875414619313,0.04128297111755514,0.04693746727294649, ,0.04801737569059968, ,0.06346940948974437, ,0.0018867485857267357, ,0.14735746597307786,-0.24149757970987465,0.09289084511000001,-4.531819058587541,0.1401890487593419,-1.347091994134034, ,-0.028523276693258423,-0.45405235195440563,0.027847572587412592,0.020428504906549204,-0.06409295179735913,0.49619218740300847, ,0.11248898506164551
0.0110577974668931,0.021339714021425593,-0.08319794919651714, ,0.011023928840730701,0.023818581808180143,-0.08327226835664493, ,0.0024802128790911535, ,-0.00024777896023158667,0.04898784825056382,-0.01668367230192979,0.2214741234126316,0.05926232514297482,0.04299289275052166, ,0.05175147912969813, ,0.22926580475544708, ,0.0019019656188899259, ,0.14735746597307786,-0.24149757970987465,0.09289084511000001,-4.531819058587541,0.1401890487593419,-1.347091994134034, ,-0.028523276693258423,-0.45405235195440563,0.027847572587412592,0.020428504906549204,-0.06409295179735913,0.49619218740300847, ,0.11529183387756348
0.0110577974668931,0.021339714021425593,-0.08319794919651714, ,0.011034834452235364,0.02395296107866833,-0.08334227454521645, ,0.00261733018331795, ,-0.00024777896023158667,0.04898784825056382,-0.01668367230192979,0.2214741234126316,0.05926232514297482,0.04299289275052166, ,0.05175147912969813, ,0.22926580475544708, ,0.0019198497330006263, ,0.14703311119236043,-0.24635517868776186,0.09317991778000001,-4.530980298813603,0.1401890487593419,-1.34357980830799, ,-0.034684554663183764,-0.5021002198860888,0.02804368225352113,0.035293402599701186,-0.02406120915221849,0.27966369380995204, ,0.11818194389343262
0.0110577974668931,0.021339714021425593,-0.08319794919651714, ,0.011046007798138708,0.02408698614669541,-0.08341221735401744, ,0.002755640391976509, ,-0.00024777896023158667,0.04898784825056382,-0.01668367230192979,0.2214741234126316,0.05926232514297482,0.04299289275052166, ,0.05175147912969813, ,0.22926580475544708, ,0.0019402348710244285, ,0.14703311119236043,-0.24635517868776186,0.09317991778000001,-4.530980298813603,0.1401890487593419,-1.34357980830799, ,-0.034684554663183764,-0.5021002198860888,0.02804368225352113,0.035293402599701186,-0.02406120915221849,0.27966369380995204, ,0.12100505828857422
0.0110577974668931,0.021339714021425593,-0.08319794919651714, ,0.011057448750572227,0.024220657189451638,-0.08348209723154204, ,0.002894922065411697, ,-0.00024777896023158667,0.04898784825056382,-0.01668367230192979,0.2214741234126316,0.05926232514297482,0.04299289275052166, ,0.05175147912969813, ,0.22926580475544708, ,0.0019629655185098398, ,0.14703311119236043,-0.24635517868776186,0.09317991778000001,-4.530980298813603,0.1401890487593419,-1.34357980830799, ,-0.034684554663183764,-0.5021002198860888,0.02804368225352113,0.035293402599701186,-0.02406120915221849,0.27966369380995204, ,0.12391400337219238
0.011056005761804872,0.021868914004487233,-0.0833759651850794, ,0.01106915717809193,0.024353974386068136,-0.08355191462684035, ,0.0024913161714060633, ,-0.00045972845954329444,0.05154557391348822,-0.017306570058646397,0.27993505275183067,0.08160084679012966,-0.02401995326159234, ,0.05437531524066989, ,0.29158588855336043, ,0.0019752527429957984, ,0.1466701427472719,-0.25152168698061805,0.09346899045000001,-4.529512469209211,0.1397791392600456,-1.3405501561722621, ,-0.03768742714792326,-0.5214117668047844,0.02933482784530387,0.11664336288626899,-0.019816394971781382,0.21476561162935948, ,0.1269528865814209
0.011056005761804872,0.021868914004487233,-0.0833759651850794, ,0.011081132945688337,0.024486937917611806,-0.0836216699895135, ,0.0026296485384902694, ,-0.00045972845954329444,0.05154557391348822,-0.017306570058646397,0.27993505275183067,0.08160084679012966,-0.02401995326159234, ,0.05437531524066989, ,0.29158588855336043, ,0.0019901253747115818, ,0.1466701427472719,-0.25152168698061805,0.09346899045000001,-4.529512469209211,0.1397791392600456,-1.3405501561722621, ,-0.03768742714792326,-0.5214117668047844,0.02933482784530387,0.11664336288626899,-0.019816394971781382,0.21476561162935948, ,0.12979483604431152
0.011056005761804872,0.021868914004487233,-0.0833759651850794, ,0.011093375914796649,0.02461954796708088,-0.0836913637697079, ,0.0027689095311501074, ,-0.00045972845954329444,0.05154557391348822,-0.017306570058646397,0.27993505275183067,0.08160084679012966,-0.02401995326159234, ,0.05437531524066989, ,0.29158588855336043, ,0.0020074316892991044, ,0.1466701427472719,-0.25152168698061805,0.09346899045000001,-4.529512469209211,0.1397791392600456,-1.3405501561722621, ,-0.03768742714792326,-0.5214117668047844,0.02933482784530387,0.11664336288626899,-0.019816394971781382,0.21476561162935948, ,0.13261985778808594
0.011064377325969101,0.022365995989309384,-0.0835543191074476, ,0.011105885943307046,0.02475180471940016,-0.08376099641811181, ,0.0023951037081166365, ,0.0014523152240470075,0.0554467984933302,-0.020473130481426682,0.12292760641911327,-0.06959892357443416,0.0077900808025842365, ,0.0591236480131215, ,0.14126288608764542, ,0.0020158593418820943, ,0.14629945156930912,-0.25678859080083916,0.09377880376000002,-4.529302779265726,0.13841277426239118,-1.3367405787106594, ,-0.03782261520863722,-0.5582173032851222,0.03381913273885351,0.039541787077090586,-0.18399673268150693,0.41274763657328256, ,0.13541388511657715
0.011064377325969101,0.022365995989309384,-0.0835543191074476, ,0.011118662885574638,0.02488370836141597,-0.08383056838594904, ,0.002533404068543515, ,0.0014523152240470075,0.0554467984933302,-0.020473130481426682,0.12292760641911327,-0.06959892357443416,0.0077900808025842365, ,0.0591236480131215, ,0.14126288608764542, ,0.0020268709318110607, ,0.14629945156930912,-0.25678859080083916,0.09377880376000002,-4.529302779265726,0.13841277426239118,-1.3367405787106594, ,-0.03782261520863722,-0.5582173032851222,0.03381913273885351,0.039541787077090586,-0.18399673268150693,0.41274763657328256, ,0.13817596435546875
0.011064377325969101,0.022365995989309384,-0.0835543191074476, ,0.011131706592429715,0.025015259081891936,-0.08390008012497542, ,0.0026725790624570994, ,0.0014523152240470075,0.0554467984933302,-0.020473130481426682,0.12292760641911327,-0.06959892357443416,0.0077900808025842365, ,0.0591236480131215, ,0.14126288608764542, ,0.002040323184532853, ,0.14629945156930912,-0.25678859080083916,0.09377880376000002,-4.529302779265726,0.13841277426239118,-1.3367405787106594, ,-0.03782261520863722,-0.5582173032851222,0.03381913273885351,0.039541787077090586,-0.18399673268150693,0.41274763657328256, ,0.14113187789916992
0.01108822999266997,0.022964807879071847,-0.08379175323711129, ,0.011145016911187938,0.025146457071503717,-0.08396953208747264, ,0.002189617152058597, ,0.0030929682562383645,0.05987734531463514,-0.024577848203420873,0.21118921314357122,-0.07543231525227383,0.030549101611298573, ,0.06479917867436713, ,0.2242563465412518, ,0.002043370000196644, ,0.1459828195214659,-0.26274281784686626,0.09416250560000002,-4.529302779265726,0.13663649976544046,-1.332841783758389, ,-0.023173856302434865,-0.5894219972575825,0.03942775128712872,0.02331877027851914,-0.16222041535374634,0.35570539355810943, ,0.14482593536376953
0.01108822999266997,0.022964807879071847,-0.08379175323711129, ,0.011158593685660382,0.025277302522834662,-0.08403892472624468, ,0.0023267308120544106, ,0.0030929682562383645,0.05987734531463514,-0.024577848203420873,0.21118921314357122,-0.07543231525227383,0.030549101611298573, ,0.06479917867436713, ,0.2242563465412518, ,0.0020490372164337993, ,0.1459828195214659,-0.26274281784686626,0.09416250560000002,-4.529302779265726,0.13663649976544046,-1.332841783758389, ,-0.023173856302434865,-0.5894219972575825,0.03942775128712872,0.02331877027851914,-0.16222041535374634,0.35570539355810943, ,0.1476609706878662
0.01108822999266997,0.022964807879071847,-0.08379175323711129, ,0.011172436756163738,0.025407795630370968,-0.08410825849461215, ,0.0024648439119021952, ,0.0030929682562383645,0.05987734531463514,-0.024577848203420873,0.21118921314357122,-0.07543231525227383,0.030549101611298573, ,0.06479917867436713, ,0.2242563465412518, ,0.002057190288893964, ,0.1459828195214659,-0.26274281784686626,0.09416250560000002,-4.529302779265726,0.13663649976544046,-1.332841783758389, ,-0.023173856302434865,-0.5894219972575825,0.03942775128712872,0.02331877027851914,-0.16222041535374634,0.35570539355810943, ,0.150648832321167
0.01108822999266997,0.022964807879071847,-0.08379175323711129, ,0.011186545959530494,0.02553793659049672,-0.0841775338464072, ,0.0026037442411664547, ,0.0030929682562383645,0.05987734531463514,-0.024577848203420873,0.21118921314357122,-0.07543231525227383,0.030549101611298573, ,0.06479917867436713, ,0.2242563465412518, ,0.002067700941822281, ,0.1459828195214659,-0.26274281784686626,0.09416250560000002,-4.529302779265726,0.13663649976544046,-1.332841783758389, ,-0.023173856302434865,-0.5894219972575825,0.03942775128712872,0.02331877027851914,-0.16222041535374634,0.35570539355810943, ,0.15338897705078125
0.01112027021521176,0.023552777819372813,-0.08403441507324488, ,0.011200921129119051,0.025667725601489607,-0.08424675123597, ,0.002127109620352382, ,0.00321652029217364,0.060552854692649816,-0.025188368375540674,0.24106482126573006,-0.06026936632737476,0.047747501379983875, ,0.06566161828375132, ,0.2484846764496024, ,0.0020688218602851133, ,0.14578202846673607,-0.2684962538381635,0.09455268889000001,-4.528883399378757,0.1351334982680206,-1.3294925395740738, ,-0.019828027906074127,-0.5894219972575825,0.040531327022900764,0.01111364368214023,-0.13551132313926478,0.3276893451742927, ,0.15615296363830566
0.01112027021521176,0.023552777819372813,-0.08403441507324488, ,0.011215562094823835,0.02579716286351579,-0.08431591111814168, ,0.002263975439792846, ,0.00321652029217364,0.060552854692649816,-0.025188368375540674,0.24106482126573006,-0.06026936632737476,0.047747501379983875, ,0.06566161828375132, ,0.2484846764496024, ,0.002072435815461182, ,0.14578202846673607,-0.2684962538381635,0.09455268889000001,-4.528883399378757,0.1351334982680206,-1.3294925395740738, ,-0.019828027906074127,-0.5894219972575825,0.040531327022900764,0.01111364368214023,-0.13551132313926478,0.3276893451742927, ,0.1588900089263916
0.01112027021521176,0.023552777819372813,-0.08403441507324488, ,0.011230468683085552,0.025926248578625296,-0.08438501394826234, ,0.002401754924739781, ,0.00321652029217364,0.060552854692649816,-0.025188368375540674,0.24106482126573006,-0.06026936632737476,0.047747501379983875, ,0.06566161828375132, ,0.2484846764496024, ,0.002078423435629884, ,0.14578202846673607,-0.2684962538381635,0.09455268889000001,-4.528883399378757,0.1351334982680206,-1.3294925395740738, ,-0.019828027906074127,-0.5894219972575825,0.040531327022900764,0.01111364368214023,-0.13551132313926478,0.3276893451742927, ,0.16170001029968262
0.011152021454684802,0.024151897360041398,-0.08427723937958681, ,0.011245640716901201,0.026054982950747305,-0.0844540601821632, ,0.0019135738627066765, ,0.0030360388272861662,0.06150970401824414,-0.02373836338734683,0.2477100164869727,0.0024435822332290053,-0.05101003239964625, ,0.06600129632425804, ,0.2477220535684018, ,0.0020754796932562552, ,0.14561985107637734,-0.2743037489595804,0.09494935363000001,-4.527834949661335,0.13404040626989708,-1.3261508341402857, ,-0.016141680823009145,-0.5968361104306339,0.03972272199501248,0.12617553656075522,-0.10187965375780014,0.34947021191213135, ,0.1648719310760498
0.011152021454684802,0.024151897360041398,-0.08427723937958681, ,0.011261078015834362,0.026183366185685456,-0.08452305027616397, ,0.0020491905523814724, ,0.0030360388272861662,0.06150970401824414,-0.02373836338734683,0.2477100164869727,0.0024435822332290053,-0.05101003239964625, ,0.06600129632425804, ,0.2477220535684018, ,0.0020750184802584516, ,0.14561985107637734,-0.2743037489595804,0.09494935363000001,-4.527834949661335,0.13404040626989708,-1.3261508341402857, ,-0.016141680823009145,-0.5968361104306339,0.03972272199501248,0.12617553656075522,-0.10187965375780014,0.34947021191213135, ,0.1677858829498291
0.011152021454684802,0.024151897360041398,-0.08427723937958681, ,0.011276780396025192,0.02631139849111299,-0.08459198468706669, ,0.002185880723444092, ,0.0030360388272861662,0.06150970401824414,-0.02373836338734683,0.2477100164869727,0.0024435822332290053,-0.05101003239964625, ,0.06600129632425804, ,0.2477220535684018, ,0.002076929898244411, ,0.14561985107637734,-0.2743037489595804,0.09494935363000001,-4.527834949661335,0.13404040626989708,-1.3261508341402857, ,-0.016141680823009145,-0.5968361104306339,0.03972272199501248,0.12617553656075522,-0.10187965375780014,0.34947021191213135, ,0.17068099975585938
0.011152021454684802,0.024151897360041398,-0.08427723937958681, ,0.011292747670200734,0.026439080076568193,-0.0846608638721521, ,0.0023233975978743508, ,0.0030360388272861662,0.06150970401824414,-0.02373836338734683,0.2477100164869727,0.0024435822332290053,-0.05101003239964625, ,0.06600129632425804, ,0.2477220535684018, ,0.0020811073168822067, ,0.14561985107637734,-0.2743037489595804,0.09494935363000001,-4.527834949661335,0.13404040626989708,-1.3261508341402857, ,-0.016141680823009145,-0.5968361104306339,0.03972272199501248,0.12617553656075522,-0.10187965375780014,0.34947021191213135, ,0.17357802391052246
0.011176141322253882,0.02465948741021555,-0.08446668330364199, ,0.011308979647684963,0.02656641115344936,-0.08472968828917328, ,0.0019295532658173736, ,0.002839106977251438,0.06132464119384241,-0.022789953101818243,0.22642866967674394,0.03052221934897086,-0.018536979544192166, ,0.06548399887273887, ,0.22847656811542652, ,0.002078581416031126, ,0.145504010083264,-0.27923085253333557,0.09527212984000001,-4.526996189887396,0.13335722377106987,-1.3231433824175864, ,-0.012926977463352508,-0.5931058847404423,0.03904120470588236,0.10312567238815788,-0.06576554669314455,0.3691829885186789, ,0.17652201652526855
0.011176141322253882,0.02465948741021555,-0.08446668330364199, ,0.01132547613440898,0.026693391935010566,-0.08479845839635214, ,0.0020661905077329797, ,0.002839106977251438,0.06132464119384241,-0.022789953101818243,0.22642866967674394,0.03052221934897086,-0.018536979544192166, ,0.06548399887273887, ,0.22847656811542652, ,0.0020783782863868943, ,0.145504010083264,-0.27923085253333557,0.09527212984000001,-4.526996189887396,0.13335722377106987,-1.3231433824175864, ,-0.012926977463352508,-0.5931058847404423,0.03904120470588236,0.10312567238815788,-0.06576554669314455,0.3691829885186789, ,0.17937684059143066
0.011176141322253882,0.02465948741021555,-0.08446668330364199, ,0.011342236932921083,0.026820022636356237,-0.08486717465237367, ,0.002203609206662249, ,0.002839106977251438,0.06132464119384241,-0.022789953101818243,0.22642866967674394,0.03052221934897086,-0.018536979544192166, ,0.06548399887273887, ,0.22847656811542652, ,0.0020803981399397224, ,0.145504010083264,-0.27923085253333557,0.09527212984000001,-4.526996189887396,0.13335722377106987,-1.3231433824175864, ,-0.012926977463352508,-0.5931058847404423,0.03904120470588236,0.10312567238815788,-0.06576554669314455,0.3691829885186789, ,0.18216395378112793
0.011176141322253882,0.02465948741021555,-0.08446668330364199, ,0.011359261842397037,0.026946303474437053,-0.08493583751638141, ,0.002341616217873923, ,0.0028448588408255112,0.0597177308531247,-0.021222179034339882,0.18147619146239102,0.03805410621407723,0.04632000693184121, ,0.06344037738724478, ,0.18542308044760095, ,0.002084544458637091, ,0.14537272362440218,-0.28600368926403047,0.09570897957,-4.526996189887396,0.1326740412722427,-1.3185840346322169, ,-0.006980654136370555,-0.5751329791422471,0.03747955651764706,0.04189338588264522,-0.036960659341766094,0.3921550318870099, ,0.18494200706481934
0.011207441476424428,0.02535831493818407,-0.08471587024027027, ,0.011376550658650184,0.02707223466804504,-0.0850044474479728, ,0.0017462518606218154, ,0.0028448588408255112,0.0597177308531247,-0.021222179034339882,0.18147619146239102,0.03805410621407723,0.04632000693184121, ,0.06344037738724478, ,0.18542308044760095, ,0.0020792586367931023, ,0.14537272362440218,-0.28600368926403047,0.09570897957,-4.526996189887396,0.1326740412722427,-1.3185840346322169, ,-0.006980654136370555,-0.5751329791422471,0.03747955651764706,0.04189338588264522,-0.036960659341766094,0.3921550318870099, ,0.18767189979553223
0.011207441476424428,0.02535831493818407,-0.08471587024027027, ,0.011394103174141506,0.02719781643780849,-0.08507300490719401, ,0.0018831233434997946, ,0.0028448588408255112,0.0597177308531247,-0.021222179034339882,0.18147619146239102,0.03805410621407723,0.04632000693184121, ,0.06344037738724478, ,0.18542308044760095, ,0.002076241170742436, ,0.14537272362440218,-0.28600368926403047,0.09570897957,-4.526996189887396,0.1326740412722427,-1.3185840346322169, ,-0.006980654136370555,-0.5751329791422471,0.03747955651764706,0.04189338588264522,-0.036960659341766094,0.3921550318870099, ,0.1904129981994629
0.011207441476424428,0.02535831493818407,-0.08471587024027027, ,0.011411919177989864,0.02732304900618755,-0.08514151035453534, ,0.002020683200128749, ,0.0028448588408255112,0.0597177308531247,-0.021222179034339882,0.18147619146239102,0.03805410621407723,0.04632000693184121, ,0.06344037738724478, ,0.18542308044760095, ,0.0020753993833088954, ,0.14537272362440218,-0.28600368926403047,0.09570897957,-4.526996189887396,0.1326740412722427,-1.3185840346322169, ,-0.006980654136370555,-0.5751329791422471,0.03747955651764706,0.04189338588264522,-0.036960659341766094,0.3921550318870099, ,0.19321203231811523
0.011234739477912722,0.02595634058762193,-0.08491659424111764, ,0.011429998455982124,0.027447932597469624,-0.08520996425092581, ,0.0015326574160630384, ,0.00274930796793209,0.05927311592163774,-0.019364130900320967,0.13538030687143068,0.042077824797007196,0.06346505821049311, ,0.062416588587387606, ,0.1417687134229956, ,0.002067298756932091, ,0.1453186644942826,-0.2917725707210762,0.09607453335,-4.526367120056943,0.1324007682727118,-1.3143589405579368, ,-0.004308067704902672,-0.5716683226413902,0.035875701621621625,0.02678033615034073,-0.031496809724439356,0.4339172352150624, ,0.19601798057556152
0.011234739477912722,0.02595634058762193,-0.08491659424111764, ,0.01144834079058336,0.027572467437764203,-0.08527836705772929, ,0.001669841635414726, ,0.00274930796793209,0.05927311592163774,-0.019364130900320967,0.13538030687143068,0.042077824797007196,0.06346505821049311, ,0.062416588587387606, ,0.1417687134229956, ,0.0020614537992627185, ,0.1453186644942826,-0.2917725707210762,0.09607453335,-4.526367120056943,0.1324007682727118,-1.3143589405579368, ,-0.004308067704902672,-0.5716683226413902,0.035875701621621625,0.02678033615034073,-0.031496809724439356,0.4339172352150624, ,0.19873905181884766
0.011234739477912722,0.02595634058762193,-0.08491659424111764, ,0.01146694596094682,0.027696653754998562,-0.08534671923673857, ,0.0018076551892342342, ,0.00274930796793209,0.05927311592163774,-0.019364130900320967,0.13538030687143068,0.042077824797007196,0.06346505821049311, ,0.062416588587387606, ,0.1417687134229956, ,0.002057775558537668, ,0.1453186644942826,-0.2917725707210762,0.09607453335,-4.526367120056943,0.1324007682727118,-1.3143589405579368, ,-0.004308067704902672,-0.5716683226413902,0.035875701621621625,0.02678033615034073,-0.031496809724439356,0.4339172352150624, ,0.20161199569702148
0.011234739477912722,0.02595634058762193,-0.08491659424111764, ,0.011485813742924306,0.027820491778912708,-0.08541502125017107, ,0.0019459001603103587, ,0.00274930796793209,0.05927311592163774,-0.019364130900320967,0.13538030687143068,0.042077824797007196,0.06346505821049311, ,0.062416588587387606, ,0.1417687134229956, ,0.0020561773385629916, ,0.14529549629565994,-0.2972557110617756,0.09643619826000001,-4.524899290452551,0.13199085877341546,-1.3099407498398192, ,-0.0012278128292303346,-0.5422682374769758,0.036957799350348035,0.13824755645772616,-0.03447046701843142,0.4397471200083417, ,0.20505595207214355
0.011265989816061537,0.02653264405812794,-0.08511650752374583, ,0.011504943909076193,0.02794398174105474,-0.08548327356066437, ,0.0014776638452823365, ,0.0032875369572033693,0.05756339052788945,-0.02083853130882067,0.11772903095179228,0.06974140273582811,-0.046789049506229315, ,0.06130739119730989, ,0.1368356096011742, ,0.002048029261192842, ,0.14529549629565994,-0.2972557110617756,0.09643619826000001,-4.524899290452551,0.13199085877341546,-1.3099407498398192, ,-0.0012278128292303346,-0.5422682374769758,0.036957799350348035,0.13824755645772616,-0.03447046701843142,0.4397471200083417, ,0.2080528736114502
0.011265989816061537,0.02653264405812794,-0.08511650752374583, ,0.011524336228681632,0.028067123874776334,-0.0855514766312704, ,0.0016157256268053916, ,0.0032875369572033693,0.05756339052788945,-0.02083853130882067,0.11772903095179228,0.06974140273582811,-0.046789049506229315, ,0.06130739119730989, ,0.1368356096011742, ,0.0020420250440485715, ,0.14529549629565994,-0.2972557110617756,0.09643619826000001,-4.524899290452551,0.13199085877341546,-1.3099407498398192, ,-0.0012278128292303346,-0.5422682374769758,0.036957799350348035,0.13824755645772616,-0.03447046701843142,0.4397471200083417, ,0.21117782592773438
0.011265989816061537,0.02653264405812794,-0.08511650752374583, ,0.011543990467748571,0.0281899184152276,-0.08561963092545125, ,0.0017541310710383448, ,0.0032875369572033693,0.05756339052788945,-0.02083853130882067,0.11772903095179228,0.06974140273582811,-0.046789049506229315, ,0.06130739119730989, ,0.1368356096011742, ,0.002038081290993637, ,0.14529549629565994,-0.2972557110617756,0.09643619826000001,-4.524899290452551,0.13199085877341546,-1.3099407498398192, ,-0.0012278128292303346,-0.5422682374769758,0.036957799350348035,0.13824755645772616,-0.03447046701843142,0.4397471200083417, ,0.21398496627807617
0.01130047607019117,0.027118552434042032,-0.0853385798664216, ,0.011563906389024124,0.028312365599352612,-0.08568773690707422, ,0.0012714149777262318, ,0.0035635336379985392,0.05531592644257531,-0.021515327057752293,0.12202905429869097,0.04293779385803771,0.04794372156701608, ,0.05945973249680491, ,0.1293628216452314, ,0.0020277209354089424, ,0.14530321902853416,-0.3027311286696008,0.09682508526000001,-4.524479910565582,0.13185422227365004,-1.3057453949290947, ,0.002555520883400314,-0.5129564408565989,0.03739157633802818,0.03663854521367907,-0.020591691961384592,0.391658704143208, ,0.21678686141967773
0.01130047607019117,0.027118552434042032,-0.0853385798664216, ,0.011584083752004544,0.028434465665884746,-0.08575579504040674, ,0.0014093010509914994, ,0.0035635336379985392,0.05531592644257531,-0.021515327057752293,0.12202905429869097,0.04293779385803771,0.04794372156701608, ,0.05945973249680491, ,0.1293628216452314, ,0.0020194753369500427, ,0.14530321902853416,-0.3027311286696008,0.09682508526000001,-4.524479910565582,0.13185422227365004,-1.3057453949290947, ,0.002555520883400314,-0.5129564408565989,0.03739157633802818,0.03663854521367907,-0.020591691961384592,0.391658704143208, ,0.21958589553833008
0.01130047607019117,0.027118552434042032,-0.0853385798664216, ,0.011604522312945408,0.028556218855341747,-0.08582380579011185, ,0.0015475054292915283, ,0.0035635336379985392,0.05531592644257531,-0.021515327057752293,0.12202905429869097,0.04293779385803771,0.04794372156701608, ,0.05945973249680491, ,0.1293628216452314, ,0.002013265206586115, ,0.14530321902853416,-0.3027311286696008,0.09682508526000001,-4.524479910565582,0.13185422227365004,-1.3057453949290947, ,0.002555520883400314,-0.5129564408565989,0.03739157633802818,0.03663854521367907,-0.020591691961384592,0.391658704143208, ,0.22251105308532715
0.01130047607019117,0.027118552434042032,-0.0853385798664216, ,0.01162522182487188,0.028677625410021074,-0.08589176962124308, ,0.0016858787781008273, ,0.0035635336379985392,0.05531592644257531,-0.021515327057752293,0.12202905429869097,0.04293779385803771,0.04794372156701608, ,0.05945973249680491, ,0.1293628216452314, ,0.002009013434787605, ,0.14530321902853416,-0.3027311286696008,0.09682508526000001,-4.524479910565582,0.13185422227365004,-1.3057453949290947, ,0.002555520883400314,-0.5129564408565989,0.03739157633802818,0.03663854521367907,-0.020591691961384592,0.391658704143208, ,0.22540283203125
0.011337594598861123,0.027667646971418353,-0.08554588402785714, ,0.01164618203758861,0.028798685573995064,-0.08595968699923963, ,0.0012432648257648296, ,0.003805899109000032,0.051860120217213194,-0.018790361591465125,0.12514976991095103,0.024784767726084216,0.07895384402479926, ,0.055290456913555164, ,0.127580356158466, ,0.001999196144928339, ,0.1453804463572764,-0.3078204096337147,0.09719193533,-4.524270220622098,0.13185422227365004,-1.3020698516227691, ,0.010684097966287396,-0.4817103632409684,0.03403592205128206,0.0,-0.013727836803052089,0.35311599769791735, ,0.22914385795593262
0.011337594598861123,0.027667646971418353,-0.08554588402785714, ,0.01166740269769018,0.02891939959310658,-0.08602755838992156, ,0.0013811836224871601, ,0.003805899109000032,0.051860120217213194,-0.018790361591465125,0.12514976991095103,0.024784767726084216,0.07895384402479926, ,0.055290456913555164, ,0.127580356158466, ,0.0019913732016062983, ,0.1453804463572764,-0.3078204096337147,0.09719193533,-4.524270220622098,0.13185422227365004,-1.3020698516227691, ,0.010684097966287396,-0.4817103632409684,0.03403592205128206,0.0,-0.013727836803052089,0.35311599769791735, ,0.23196983337402344
0.011337594598861123,0.027667646971418353,-0.08554588402785714, ,0.011688883548571019,0.029039767714963603,-0.08609538425948493, ,0.0015192332821573036, ,0.003805899109000032,0.051860120217213194,-0.018790361591465125,0.12514976991095103,0.024784767726084216,0.07895384402479926, ,0.055290456913555164, ,0.127580356158466, ,0.001985471452613186, ,0.1453804463572764,-0.3078204096337147,0.09719193533,-4.524270220622098,0.13185422227365004,-1.3020698516227691, ,0.010684097966287396,-0.4817103632409684,0.03403592205128206,0.0,-0.013727836803052089,0.35311599769791735, ,0.23532986640930176
0.011377361770114463,0.02815847445261366,-0.08572155256261992, ,0.011710624330435748,0.029159790188935216,-0.08616316507449714, ,0.001143992460011687, ,0.004057771534622548,0.04767125086465843,-0.017196285116647544,0.1287147569833133,0.027248840479994957,0.06777226721484042, ,0.050840199553516936, ,0.13156742176175723, ,0.0019750828230748955, ,0.14552717828188666,-0.312369099296633,0.09751341525000001,-4.524270220622098,0.1317175857738846,-1.2988546415937317, ,0.0175702539452825,-0.43933769240032766,0.031479864664031625,0.008474208424362238,0.0,0.31026929083997434, ,0.23904895782470703
0.011377361770114463,0.02815847445261366,-0.08572155256261992, ,0.011732624780309082,0.029279467266146317,-0.08623090130189148, ,0.001281511932290112, ,0.004057771534622548,0.04767125086465843,-0.017196285116647544,0.1287147569833133,0.027248840479994957,0.06777226721484042, ,0.050840199553516936, ,0.13156742176175723, ,0.0019666246414799596, ,0.14552717828188666,-0.312369099296633,0.09751341525000001,-4.524270220622098,0.1317175857738846,-1.2988546415937317, ,0.0175702539452825,-0.43933769240032766,0.031479864664031625,0.008474208424362238,0.0,0.31026929083997434, ,0.24191689491271973
0.011424265050950172,0.02862812778354298,-0.08589064886991092, ,0.011754884632046245,0.029398799199473358,-0.0862985934089633, ,0.0009325569610908141, ,0.004057771534622548,0.04767125086465843,-0.017196285116647544,0.1287147569833133,0.027248840479994957,0.06777226721484042, ,0.050840199553516936, ,0.13156742176175723, ,0.001954165994728283, ,0.14573569206949072,-0.31667838424045025,0.09782452485000001,-4.523431460848159,0.13130767627458828,-1.295416595757301, ,0.021489343650016028,-0.4108092708158908,0.030168203636363643,0.10428069450166341,-0.020008779828990637,0.31211599134208473, ,0.24483299255371094
0.011424265050950172,0.02862812778354298,-0.08589064886991092, ,0.011777403616342991,0.029517786243539065,-0.08636624186336357, ,0.0010688253913673437, ,0.004498901799821124,0.04507818785721974,-0.01644874174176816,0.10904783582400875,0.03481558052468036,-0.03279427808323803, ,0.048195894459825236, ,0.11447075583339224, ,0.0019436262256406528, ,0.14573569206949072,-0.31667838424045025,0.09782452485000001,-4.523431460848159,0.13130767627458828,-1.295416595757301, ,0.021489343650016028,-0.4108092708158908,0.030168203636363643,0.10428069450166341,-0.020008779828990637,0.31211599134208473, ,0.24825000762939453
0.011424265050950172,0.02862812778354298,-0.08589064886991092, ,0.011800181460745612,0.029636428654708162,-0.08643384713309603, ,0.0012054244675935835, ,0.004498901799821124,0.04507818785721974,-0.01644874174176816,0.10904783582400875,0.03481558052468036,-0.03279427808323803, ,0.048195894459825236, ,0.11447075583339224, ,0.0019349414990753933, ,0.14573569206949072,-0.31667838424045025,0.09782452485000001,-4.523431460848159,0.13130767627458828,-1.295416595757301, ,0.021489343650016028,-0.4108092708158908,0.030168203636363643,0.10428069450166341,-0.020008779828990637,0.31211599134208473, ,0.2509899139404297
0.011424265050950172,0.02862812778354298,-0.08589064886991092, ,0.011823217889661394,0.029754726691082523,-0.08650140968651046, ,0.001342168857140699, ,0.004498901799821124,0.04507818785721974,-0.01644874174176816,0.10904783582400875,0.03481558052468036,-0.03279427808323803, ,0.048195894459825236, ,0.11447075583339224, ,0.0019280487939366178, ,0.14573569206949072,-0.31667838424045025,0.09782452485000001,-4.523431460848159,0.13130767627458828,-1.295416595757301, ,0.021489343650016028,-0.4108092708158908,0.030168203636363643,0.10428069450166341,-0.020008779828990637,0.31211599134208473, ,0.2537088394165039
0.011480486824171809,0.029075034010175742,-0.08607436050745491, ,0.011846512624368592,0.029872680612496226,-0.08656892999229958, ,0.0010073797516044409, ,0.006040912718884129,0.04262497901384801,-0.01889094074173344,0.042476877679252865,-0.028161007520600023,0.005977872529026628, ,0.04701328646793206, ,0.050963958599258403, ,0.0019174663911511905, ,0.14599826498721435,-0.32067875986929856,0.09814470848000001,-4.52301208096119,0.13062449377576107,-1.2919190715937585, ,0.03094129167214567,-0.3750867255275525,0.031985565301204825,0.04405093519041818,-0.06002495084494481,0.32954130638945567, ,0.2564120292663574
0.011480486824171809,0.029075034010175742,-0.08607436050745491, ,0.011870065383026462,0.029990290680511133,-0.08663640851949213, ,0.0011425253581201949, ,0.006040912718884129,0.04262497901384801,-0.01889094074173344,0.042476877679252865,-0.028161007520600023,0.005977872529026628, ,0.04701328646793206, ,0.050963958599258403, ,0.0019086602430485656, ,0.14599826498721435,-0.32067875986929856,0.09814470848000001,-4.52301208096119,0.13062449377576107,-1.2919190715937585, ,0.03094129167214567,-0.3750867255275525,0.031985565301204825,0.04405093519041818,-0.06002495084494481,0.32954130638945567, ,0.25917983055114746
0.011480486824171809,0.029075034010175742,-0.08607436050745491, ,0.011893875880685686,0.030107557158411846,-0.08670384573744971, ,0.0012779852184084276, ,0.006040912718884129,0.04262497901384801,-0.01889094074173344,0.042476877679252865,-0.028161007520600023,0.005977872529026628, ,0.04701328646793206, ,0.050963958599258403, ,0.001901574006816654, ,0.14599826498721435,-0.32067875986929856,0.09814470848000001,-4.52301208096119,0.13062449377576107,-1.2919190715937585, ,0.03094129167214567,-0.3750867255275525,0.031985565301204825,0.04405093519041818,-0.06002495084494481,0.32954130638945567, ,0.26202893257141113
0.011480486824171809,0.029075034010175742,-0.08607436050745491, ,0.011917943829298325,0.030224480311201323,-0.08677124211586172, ,0.0014135909614917997, ,0.006040912718884129,0.04262497901384801,-0.01889094074173344,0.042476877679252865,-0.028161007520600023,0.005977872529026628, ,0.04701328646793206, ,0.050963958599258403, ,0.0018961519729797113, ,0.146330342500806,-0.32426983065581294,0.09848174388000001,-4.52301208096119,0.13021458427646476,-1.2888894194580307, ,0.03602769231528883,-0.347607844536523,0.03595668514672686,0.02237461311099263,-0.037829336637482655,0.29796072361197756, ,0.2649228572845459
0.011544039210248996,0.029493535181089922,-0.0862828953497907, ,0.011942268937727934,0.03034106040559574,-0.08683859812473957, ,0.0010888946212133967, ,0.0069278857089562496,0.04169164843277963,-0.023164306453509465,0.04667976746665824,-0.023725382087932182,0.028456459723453467, ,0.04819516825275078, ,0.0523630382656509, ,0.0018872810130701912, ,0.146330342500806,-0.32426983065581294,0.09848174388000001,-4.52301208096119,0.13021458427646476,-1.2888894194580307, ,0.03602769231528883,-0.347607844536523,0.03595668514672686,0.02237461311099263,-0.037829336637482655,0.29796072361197756, ,0.26840686798095703
0.011544039210248996,0.029493535181089922,-0.0862828953497907, ,0.01196685091175989,0.03045729771002008,-0.08690591423441248, ,0.0012230128689837063, ,0.0069278857089562496,0.04169164843277963,-0.023164306453509465,0.04667976746665824,-0.023725382087932182,0.028456459723453467, ,0.04819516825275078, ,0.0523630382656509, ,0.0018800607071562077, ,0.146330342500806,-0.32426983065581294,0.09848174388000001,-4.52301208096119,0.13021458427646476,-1.2888894194580307, ,0.03602769231528883,-0.347607844536523,0.03595668514672686,0.02237461311099263,-0.037829336637482655,0.29796072361197756, ,0.271190881729126
0.011544039210248996,0.029493535181089922,-0.0862828953497907, ,0.011991689454111429,0.0305731924946033,-0.08697319091552272, ,0.0013574087901300448, ,0.0069278857089562496,0.04169164843277963,-0.023164306453509465,0.04667976746665824,-0.023725382087932182,0.028456459723453467, ,0.04819516825275078, ,0.0523630382656509, ,0.001874440794069905, ,0.146330342500806,-0.32426983065581294,0.09848174388000001,-4.52301208096119,0.13021458427646476,-1.2888894194580307, ,0.03602769231528883,-0.347607844536523,0.03595668514672686,0.02237461311099263,-0.037829336637482655,0.29796072361197756, ,0.2740030288696289
0.011615669235141774,0.029886458828375973,-0.08652142862408124, ,0.012016784264441782,0.030688745031173546,-0.0870404286390208, ,0.0010362998762119741, ,0.007702743163094855,0.039699747500877194,-0.02633441251521174,0.007140247257744948,-0.027538558019464407,0.004825338844060942, ,0.04825871409798804, ,0.028448948017715678, ,0.0018655244013267356, ,0.1467010336787688,-0.32745931933286765,0.09884081621000002,-4.522592701074221,0.12980467477716842,-1.285859767322303, ,0.03838873040391213,-0.3131912262655801,0.03847539014492755,0.039393210521534903,-0.04635339379492588,0.30466522641608046, ,0.2769930362701416
0.011615669235141774,0.029886458828375973,-0.08652142862408124, ,0.012042135039362353,0.030803955593253367,-0.08710762787615979, ,0.0011693173046130115, ,0.007702743163094855,0.039699747500877194,-0.02633441251521174,0.007140247257744948,-0.027538558019464407,0.004825338844060942, ,0.04825871409798804, ,0.028448948017715678, ,0.0018581959055718543, ,0.1467010336787688,-0.32745931933286765,0.09884081621000002,-4.522592701074221,0.12980467477716842,-1.285859767322303, ,0.03838873040391213,-0.3131912262655801,0.03847539014492755,0.039393210521534903,-0.04635339379492588,0.30466522641608046, ,0.2798159122467041
0.011615669235141774,0.029886458828375973,-0.08652142862408124, ,0.012067741472446917,0.030918824456055222,-0.08717478909849163, ,0.001302700274997061, ,0.007702743163094855,0.039699747500877194,-0.02633441251521174,0.007140247257744948,-0.027538558019464407,0.004825338844060942, ,0.04825871409798804, ,0.028448948017715678, ,0.001852409492753367, ,0.1467010336787688,-0.32745931933286765,0.09884081621000002,-4.522592701074221,0.12980467477716842,-1.285859767322303, ,0.03838873040391213,-0.3131912262655801,0.03847539014492755,0.039393210521534903,-0.04635339379492588,0.30466522641608046, ,0.2826409339904785
0.011702424674338166,0.030303765917727474,-0.08681499075886123, ,0.012093603254241607,0.03103335189647645,-0.08724191277786142, ,0.0009314390973485966, ,0.008135975080559533,0.03761188228380118,-0.02741472420927339,-0.04558112570971123,-0.02378414705661695,-0.02535490132212411, ,0.047248437888596104, ,0.05141312271087044, ,0.001842914952594555, ,0.14713350671972536,-0.33067197620854505,0.09926211046000001,-4.521753941300283,0.12925812877810666,-1.282473661062457, ,0.0403988682666968,-0.2849758004758882,0.03894574943765281,0.0656347587644639,-0.053681284426130405,0.33235300290144065, ,0.2855260372161865
0.011702424674338166,0.030303765917727474,-0.08681499075886123, ,0.012119720072275325,0.0311475381930947,-0.08730899938640284, ,0.0010630764910877569, ,0.008135975080559533,0.03761188228380118,-0.02741472420927339,-0.04558112570971123,-0.02378414705661695,-0.02535490132212411, ,0.047248437888596104, ,0.05141312271087044, ,0.001834957417273057, ,0.14713350671972536,-0.33067197620854505,0.09926211046000001,-4.521753941300283,0.12925812877810666,-1.282473661062457, ,0.0403988682666968,-0.2849758004758882,0.03894574943765281,0.0656347587644639,-0.053681284426130405,0.33235300290144065, ,0.28845691680908203
0.011702424674338166,0.030303765917727474,-0.08681499075886123, ,0.012146091611069589,0.0312613836261632,-0.08737604939653325, ,0.0011952651677199985, ,0.008135975080559533,0.03761188228380118,-0.02741472420927339,-0.04558112570971123,-0.02378414705661695,-0.02535490132212411, ,0.047248437888596104, ,0.05141312271087044, ,0.0018284958793987837, ,0.14713350671972536,-0.33067197620854505,0.09926211046000001,-4.521753941300283,0.12925812877810666,-1.282473661062457, ,0.0403988682666968,-0.2849758004758882,0.03894574943765281,0.0656347587644639,-0.053681284426130405,0.33235300290144065, ,0.2912609577178955
0.011702424674338166,0.030303765917727474,-0.08681499075886123, ,0.012172717552148913,0.03137488847760606,-0.08744306328094928, ,0.0013277627883784115, ,0.008135975080559533,0.03761188228380118,-0.02741472420927339,-0.04558112570971123,-0.02378414705661695,-0.02535490132212411, ,0.047248437888596104, ,0.05141312271087044, ,0.00182348854848858, ,0.14713350671972536,-0.33067197620854505,0.09926211046000001,-4.521753941300283,0.12925812877810666,-1.282473661062457, ,0.0403988682666968,-0.2849758004758882,0.03894574943765281,0.0656347587644639,-0.053681284426130405,0.33235300290144065, ,0.2942929267883301
0.011783022139894832,0.030670760872545853,-0.08709267801045847, ,0.012199597574050904,0.03148805303101339,-0.08751004151262114, ,0.0010078163808811228, ,0.008017200242551877,0.03536758358397335,-0.02750658708252587,-0.06040598170856103,-0.004496724802394931,-0.0006961228294169111, ,0.04551652228836353, ,0.060572992444170304, ,0.0018154125864330605, ,0.14750419789768812,-0.3332282007899134,0.09962636795000002,-4.5213345614133145,0.12884821927881035,-1.2792806514464483, ,0.041768020052143834,-0.2607058834023922,0.03847539014492755,0.045978681876472846,-0.02340862355813885,0.3252477048845682, ,0.2971470355987549
0.011783022139894832,0.030670760872545853,-0.08709267801045847, ,0.012226731352336267,0.031600877571636515,-0.08757698456478864, ,0.001138660519074877, ,0.008017200242551877,0.03536758358397335,-0.02750658708252587,-0.06040598170856103,-0.004496724802394931,-0.0006961228294169111, ,0.04551652228836353, ,0.060572992444170304, ,0.0018087777622432745, ,0.14750419789768812,-0.3332282007899134,0.09962636795000002,-4.5213345614133145,0.12884821927881035,-1.2792806514464483, ,0.041768020052143834,-0.2607058834023922,0.03847539014492755,0.045978681876472846,-0.02340862355813885,0.3252477048845682, ,0.30010986328125
0.011783022139894832,0.030670760872545853,-0.08709267801045847, ,0.012254118559599193,0.031713362386383594,-0.08764389291095533, ,0.0012699557550736834, ,0.008017200242551877,0.03536758358397335,-0.02750658708252587,-0.06040598170856103,-0.004496724802394931,-0.0006961228294169111, ,0.04551652228836353, ,0.060572992444170304, ,0.0018035464806202687, ,0.14750419789768812,-0.3332282007899134,0.09962636795000002,-4.5213345614133145,0.12884821927881035,-1.2792806514464483, ,0.041768020052143834,-0.2607058834023922,0.03847539014492755,0.045978681876472846,-0.02340862355813885,0.3252477048845682, ,0.30294203758239746
0.011859333975776995,0.030996915552034446,-0.08734956506780486, ,0.012281758865477275,0.03182550776381441,-0.08771076702488469, ,0.0009977347817225787, ,0.008234704274575726,0.03335208712353914,-0.026873672481000352,-0.05946560849536135,0.02708980191367452,-0.08323563471421991, ,0.04361612480037557, ,0.06534525189400033, ,0.0017957982912077909, ,0.14795983913726737,-0.33576125717265903,0.10001006979,-4.520076421752408,0.12884821927881035,-1.2762585380612474, ,0.04555782119945788,-0.23783694626183152,0.037216849345794396,0.13377392390902862,-0.015508400959263311,0.3143112953193693, ,0.3058910369873047
0.011859333975776995,0.030996915552034446,-0.08734956506780486, ,0.012309651936661847,0.031937313994136275,-0.0877776073805946, ,0.0011271005799578977, ,0.008234704274575726,0.03335208712353914,-0.026873672481000352,-0.05946560849536135,0.02708980191367452,-0.08323563471421991, ,0.04361612480037557, ,0.06534525189400033, ,0.0017894297415768396, ,0.14795983913726737,-0.33576125717265903,0.10001006979,-4.520076421752408,0.12884821927881035,-1.2762585380612474, ,0.04555782119945788,-0.23783694626183152,0.037216849345794396,0.13377392390902862,-0.015508400959263311,0.3143112953193693, ,0.3087799549102783
0.011859333975776995,0.030996915552034446,-0.08734956506780486, ,0.012337797436908,0.03204878136919847,-0.0878444144523528, ,0.001257069963980953, ,0.008234704274575726,0.03335208712353914,-0.026873672481000352,-0.05946560849536135,0.02708980191367452,-0.08323563471421991, ,0.04361612480037557, ,0.06534525189400033, ,0.0017844074795240483, ,0.14795983913726737,-0.33576125717265903,0.10001006979,-4.520076421752408,0.12884821927881035,-1.2762585380612474, ,0.04555782119945788,-0.23783694626183152,0.037216849345794396,0.13377392390902862,-0.015508400959263311,0.3143112953193693, ,0.31162095069885254
0.011859333975776995,0.030996915552034446,-0.08734956506780486, ,0.012366195027044832,0.032159910182488205,-0.08791118871467192, ,0.001387402521432358, ,0.008234704274575726,0.03335208712353914,-0.026873672481000352,-0.05946560849536135,0.02708980191367452,-0.08323563471421991, ,0.04361612480037557, ,0.06534525189400033, ,0.001780697152812911, ,0.14795983913726737,-0.33576125717265903,0.10001006979,-4.520076421752408,0.12884821927881035,-1.2762585380612474, ,0.04555782119945788,-0.23783694626183152,0.037216849345794396,0.13377392390902862,-0.015508400959263311,0.3143112953193693, ,0.3144969940185547
0.011943060953581976,0.03133794498349996,-0.08762314321608075, ,0.012394844364985433,0.03227070072912546,-0.0879779306423043, ,0.0010954522580300151, ,0.008366237110651004,0.03135857175834342,-0.025138587451657406,-0.0965678765652809,0.002330443975891128,-0.00878659985517193, ,0.04105243628798947, ,0.09659594046403183, ,0.0017743522926760322, ,0.1484386485754693,-0.3381939180280397,0.10038988276000001,-4.519447351921953,0.12884821927881035,-1.2729097097154844, ,0.05031651196101314,-0.22276277361143376,0.03500837696703297,0.054107798756387396,-0.010712000387085153,0.32622127440409754, ,0.3172469139099121
0.011943060953581976,0.03133794498349996,-0.08762314321608075, ,0.012423745105737277,0.03238115330585873,-0.08804464071023793, ,0.0012235199203742613, ,0.008366237110651004,0.03135857175834342,-0.025138587451657406,-0.0965678765652809,0.002330443975891128,-0.00878659985517193, ,0.04105243628798947, ,0.09659594046403183, ,0.0017692987846732635, ,0.1484386485754693,-0.3381939180280397,0.10038988276000001,-4.519447351921953,0.12884821927881035,-1.2729097097154844, ,0.05031651196101314,-0.22276277361143376,0.03500837696703297,0.054107798756387396,-0.010712000387085153,0.32622127440409754, ,0.32010984420776367
0.011943060953581976,0.03133794498349996,-0.08762314321608075, ,0.01245289690141218,0.0324912682110595,-0.0881113193936908, ,0.0013521845810813805, ,0.008366237110651004,0.03135857175834342,-0.025138587451657406,-0.0965678765652809,0.002330443975891128,-0.00878659985517193, ,0.04105243628798947, ,0.09659594046403183, ,0.001765506837367883, ,0.1484386485754693,-0.3381939180280397,0.10038988276000001,-4.519447351921953,0.12884821927881035,-1.2729097097154844, ,0.05031651196101314,-0.22276277361143376,0.03500837696703297,0.054107798756387396,-0.010712000387085153,0.32622127440409754, ,0.32375192642211914
0.012002813867135824,0.031560642200552956,-0.0878003055467598, ,0.012482299401236442,0.032601045744718386,-0.08817796716810652, ,0.0012062231188142518, ,0.008535465607405493,0.030946742070965257,-0.024576137874369502,-0.11165037629408506,-0.007350140055069596,0.01899190830785942, ,0.04042946414141637, ,0.1118920109751846, ,0.001760468245308841, ,0.14880933975343208,-0.3397770782672557,0.10063747415,-4.519237661978469,0.12884821927881035,-1.2706227049915486, ,0.05319335289151949,-0.21966884620016383,0.03440348060475163,0.024944186168949598,-0.00884397592451897,0.33451354886845025, ,0.3267028331756592
0.012002813867135824,0.031560642200552956,-0.0878003055467598, ,0.012511952251561239,0.03271048620843975,-0.08824458450914956, ,0.0013336967171702129, ,0.008535465607405493,0.030946742070965257,-0.024576137874369502,-0.11165037629408506,-0.007350140055069596,0.01899190830785942, ,0.04042946414141637, ,0.1118920109751846, ,0.0017566577852361747, ,0.14880933975343208,-0.3397770782672557,0.10063747415,-4.519237661978469,0.12884821927881035,-1.2706227049915486, ,0.05319335289151949,-0.21966884620016383,0.03440348060475163,0.024944186168949598,-0.00884397592451897,0.33451354886845025, ,0.3295478820800781
0.012002813867135824,0.031560642200552956,-0.0878003055467598, ,0.01254185509587237,0.03281958990543735,-0.0883111718926992, ,0.001461676842987181, ,0.008535465607405493,0.030946742070965257,-0.024576137874369502,-0.11165037629408506,-0.007350140055069596,0.01899190830785942, ,0.04042946414141637, ,0.1118920109751846, ,0.0017540473344198118, ,0.14880933975343208,-0.3397770782672557,0.10063747415,-4.519237661978469,0.12884821927881035,-1.2706227049915486, ,0.05319335289151949,-0.21966884620016383,0.03440348060475163,0.024944186168949598,-0.00884397592451897,0.33451354886845025, ,0.33236193656921387
0.012109787636408626,0.03192951102490232,-0.08809573265839793, ,0.0125720075748008,0.032928357140529406,-0.08837772979484683, ,0.0011837218526808168, ,0.008658705390452652,0.02930981937929171,-0.023199231067517496,-0.11562113850472602,-0.00028900546873411245,-0.00793925650177437, ,0.038369819040613505, ,0.11562147064153104, ,0.0017490444793168381, ,0.14950438571211228,-0.34236419378012095,0.10105099066,-4.518398902204531,0.12884821927881035,-1.2665387679845204, ,0.05662108684872958,-0.20585019860839648,0.03264100721311476,0.0523439117421416,-0.006796678171732606,0.32889813743947044, ,0.3360428810119629
0.012109787636408626,0.03192951102490232,-0.08809573265839793, ,0.012602409326132545,0.03303678822013402,-0.088444258691889, ,0.0012610350162813304, ,0.008658705390452652,0.02930981937929171,-0.023199231067517496,-0.11562113850472602,-0.00028900546873411245,-0.00793925650177437, ,0.038369819040613505, ,0.11562147064153104, ,0.0017448009187687034, ,0.14950438571211228,-0.34236419378012095,0.10105099066,-4.518398902204531,0.12884821927881035,-1.2665387679845204, ,0.05662108684872958,-0.20585019860839648,0.03264100721311476,0.0523439117421416,-0.006796678171732606,0.32889813743947044, ,0.3393518924713135
0.012109787636408626,0.03192951102490232,-0.08809573265839793, ,0.012633059984818966,0.033144883452264226,-0.0885107590603239, ,0.0013867916217291131, ,0.008658705390452652,0.02930981937929171,-0.023199231067517496,-0.11562113850472602,-0.00028900546873411245,-0.00793925650177437, ,0.038369819040613505, ,0.11562147064153104, ,0.0017417146317252586, ,0.14950438571211228,-0.34236419378012095,0.10105099066,-4.518398902204531,0.12884821927881035,-1.2665387679845204, ,0.05662108684872958,-0.20585019860839648,0.03264100721311476,0.0523439117421416,-0.006796678171732606,0.32889813743947044, ,0.342242956161499
0.012109787636408626,0.03192951102490232,-0.08809573265839793, ,0.012663959182986849,0.03325264314652339,-0.08857723137684584, ,0.0015131509277561698, ,0.008658705390452652,0.02930981937929171,-0.023199231067517496,-0.11562113850472602,-0.00028900546873411245,-0.00793925650177437, ,0.038369819040613505, ,0.11562147064153104, ,0.001739761095793899, ,0.14950438571211228,-0.34236419378012095,0.10105099066,-4.518398902204531,0.12884821927881035,-1.2665387679845204, ,0.05662108684872958,-0.20585019860839648,0.03264100721311476,0.0523439117421416,-0.006796678171732606,0.32889813743947044, ,0.34523582458496094
0.012201287315650478,0.03222900088235199,-0.08832746372626929, ,0.012695106549948536,0.03336006761410061,-0.08864367611834086, ,0.0012740328350285353, ,0.009047078367021219,0.02871360379035329,-0.022610873411764258,-0.1078256286677162,0.01069637103870015,-0.05181548460075973, ,0.03765066089793434, ,0.10835484595068412, ,0.0017358142461263958, ,0.15012992707492448,-0.34447249985478423,0.10138024832,-4.517560142430592,0.12884821927881035,-1.2631899396387574, ,0.061581402698553396,-0.19978303485993848,0.031985565301204825,0.09879173591021354,-0.005704496428378646,0.32174505060521075, ,0.3489558696746826
0.012201287315650478,0.03222900088235199,-0.08832746372626929, ,0.012726501712212112,0.033467157167765535,-0.08871009376188109, ,0.0013983157345953574, ,0.009047078367021219,0.02871360379035329,-0.022610873411764258,-0.1078256286677162,0.01069637103870015,-0.05181548460075973, ,0.03765066089793434, ,0.10835484595068412, ,0.0017329781241807569, ,0.15012992707492448,-0.34447249985478423,0.10138024832,-4.517560142430592,0.12884821927881035,-1.2631899396387574, ,0.061581402698553396,-0.19978303485993848,0.031985565301204825,0.09879173591021354,-0.005704496428378646,0.32174505060521075, ,0.35168004035949707
0.012201287315650478,0.03222900088235199,-0.08832746372626929, ,0.012758144293491648,0.0335739121218643,-0.08877648478472104, ,0.0015233173821860206, ,0.009047078367021219,0.02871360379035329,-0.022610873411764258,-0.1078256286677162,0.01069637103870015,-0.05181548460075973, ,0.03765066089793434, ,0.10835484595068412, ,0.0017312309513308006, ,0.15012992707492448,-0.34447249985478423,0.10138024832,-4.517560142430592,0.12884821927881035,-1.2631899396387574, ,0.061581402698553396,-0.19978303485993848,0.031985565301204825,0.09879173591021354,-0.005704496428378646,0.32174505060521075, ,0.3543879985809326
0.012294627247194451,0.032507593581210505,-0.08855235361706418, ,0.01279003391471708,0.03368033279231418,-0.08884284966429173, ,0.0013058074042295756, ,0.009420528348183355,0.02839079488274203,-0.02297653734324949,-0.08376115934804429,-0.014573944029227752,0.0074750563523194105, ,0.03771876001035288, ,0.08501955808115381, ,0.0017277150542473196, ,0.1507709139034851,-0.34638773760759195,0.10169654308000001,-4.51693107260014,0.1287115827790449,-1.2601380870900005, ,0.06549133302862027,-0.1944609458165385,0.03230996251521299,0.03493534759479798,0.0,0.2838572246989022, ,0.35713887214660645
0.012294627247194451,0.032507593581210505,-0.08855235361706418, ,0.012822170194044675,0.0337864194965992,-0.08890918887819654, ,0.0014286457525322887, ,0.009420528348183355,0.02839079488274203,-0.02297653734324949,-0.08376115934804429,-0.014573944029227752,0.0074750563523194105, ,0.03771876001035288, ,0.08501955808115381, ,0.001725263666528344, ,0.1507709139034851,-0.34638773760759195,0.10169654308000001,-4.51693107260014,0.1287115827790449,-1.2601380870900005, ,0.06549133302862027,-0.1944609458165385,0.03230996251521299,0.03493534759479798,0.0,0.2838572246989022, ,0.35991501808166504
0.012294627247194451,0.032507593581210505,-0.08855235361706418, ,0.01285455274686694,0.03389217255376518,-0.08897550290420571, ,0.0015522985587935155, ,0.009420528348183355,0.02839079488274203,-0.02297653734324949,-0.08376115934804429,-0.014573944029227752,0.0074750563523194105, ,0.03771876001035288, ,0.08501955808115381, ,0.001723857446140256, ,0.1507709139034851,-0.34638773760759195,0.10169654308000001,-4.51693107260014,0.1287115827790449,-1.2601380870900005, ,0.06549133302862027,-0.1944609458165385,0.03230996251521299,0.03493534759479798,0.0,0.2838572246989022, ,0.36267900466918945
0.012386810575630324,0.03278761695041252,-0.08877630704193713, ,0.012887181185822973,0.03399759228441521,-0.08904179222025214, ,0.0013359990405477223, ,0.009939928160947683,0.029874400061169027,-0.023859330057171783,-0.04578325267116128,-0.026590563998938315,0.018765308343809035, ,0.03950379199060057, ,0.05294484476267802, ,0.001720729555772574, ,0.15141190073204575,-0.34831069809327386,0.10201283784000001,-4.516721382656655,0.1287115827790449,-1.2576060461456433, ,0.06941985483428732,-0.20451927060015251,0.03374748203389831,0.023273064995602236,0.0,0.25385180987983186, ,0.36620283126831055
0.012386810575630324,0.03278761695041252,-0.08877630704193713, ,0.012920055120808299,0.034102679010704844,-0.08910805730442584, ,0.0014573250166121775, ,0.009939928160947683,0.029874400061169027,-0.023859330057171783,-0.04578325267116128,-0.026590563998938315,0.018765308343809035, ,0.03950379199060057, ,0.05294484476267802, ,0.001718622319459291, ,0.15141190073204575,-0.34831069809327386,0.10201283784000001,-4.516721382656655,0.1287115827790449,-1.2576060461456433, ,0.06941985483428732,-0.20451927060015251,0.03374748203389831,0.023273064995602236,0.0,0.25385180987983186, ,0.36897993087768555
0.012386810575630324,0.03278761695041252,-0.08877630704193713, ,0.012953174158985434,0.034207433056337215,-0.08917429863496969, ,0.001579570445190274, ,0.009939928160947683,0.029874400061169027,-0.023859330057171783,-0.04578325267116128,-0.026590563998938315,0.018765308343809035, ,0.03950379199060057, ,0.05294484476267802, ,0.0017175187331555685, ,0.15141190073204575,-0.34831069809327386,0.10201283784000001,-4.516721382656655,0.1287115827790449,-1.2576060461456433, ,0.06941985483428732,-0.20451927060015251,0.03374748203389831,0.023273064995602236,0.0,0.25385180987983186, ,0.3719320297241211
0.012386810575630324,0.03278761695041252,-0.08877630704193713, ,0.012986537904793692,0.03431185474655866,-0.08924051669027441, ,0.0017024876875194395, ,0.009939928160947683,0.029874400061169027,-0.023859330057171783,-0.04578325267116128,-0.026590563998938315,0.018765308343809035, ,0.03950379199060057, ,0.05294484476267802, ,0.0017174003784655202, ,0.15141190073204575,-0.34831069809327386,0.10201283784000001,-4.516721382656655,0.1287115827790449,-1.2576060461456433, ,0.06941985483428732,-0.20451927060015251,0.03374748203389831,0.023273064995602236,0.0,0.25385180987983186, ,0.3748018741607666
0.012499682660597294,0.03311137852368599,-0.08904065826545862, ,0.013020145959959518,0.03441594440815342,-0.08930671194887356, ,0.0014295309564182083, ,0.010932395237014444,0.030765533587213453,-0.025282904024363183,-0.02988376109245983,-0.01452397303122635,-0.03729172754271325, ,0.04129480062222622, ,0.03322611380861969, ,0.0017151513986057756, ,0.15220734221809087,-0.35048850876380516,0.10238487307000001,-4.5158826228827165,0.1287115827790449,-1.2549923264611453, ,0.07734062066705036,-0.2054046354079454,0.03555538285714287,0.08368263641192597,0.0,0.24736449963792023, ,0.37759900093078613
0.012499682660597294,0.03311137852368599,-0.08904065826545862, ,0.013053997923506566,0.034519702369439575,-0.08937288488943876, ,0.0015495212147284693, ,0.010932395237014444,0.030765533587213453,-0.025282904024363183,-0.02988376109245983,-0.01452397303122635,-0.03729172754271325, ,0.04129480062222622, ,0.03322611380861969, ,0.001713867443691998, ,0.15220734221809087,-0.35048850876380516,0.10238487307000001,-4.5158826228827165,0.1287115827790449,-1.2549923264611453, ,0.07734062066705036,-0.2054046354079454,0.03555538285714287,0.08368263641192597,0.0,0.24736449963792023, ,0.3804140090942383
0.012499682660597294,0.03311137852368599,-0.08904065826545862, ,0.013088093391765842,0.03462312896026365,-0.0894390359907746, ,0.0016704255095858038, ,0.010932395237014444,0.030765533587213453,-0.025282904024363183,-0.02988376109245983,-0.01452397303122635,-0.03729172754271325, ,0.04129480062222622, ,0.03322611380861969, ,0.0017135332749681042, ,0.15220734221809087,-0.35048850876380516,0.10238487307000001,-4.5158826228827165,0.1287115827790449,-1.2549923264611453, ,0.07734062066705036,-0.2054046354079454,0.03555538285714287,0.08368263641192597,0.0,0.24736449963792023, ,0.38321995735168457
0.012619448574570069,0.03343844345667947,-0.08931481492228062, ,0.013122431958385916,0.03472622451199661,-0.08950516573181462, ,0.00139556646617738, ,0.012066633095950588,0.032241731225468986,-0.026781011616499636,-0.045366646905440976,-0.021335437405400084,-0.03323636355333515, ,0.043615999929965614, ,0.05013302069843603, ,0.0017111060474200835, ,0.15299506097126175,-0.35249641931110354,0.10274264911000001,-4.515043863108779,0.1287115827790449,-1.2524602855167877, ,0.08549274014276646,-0.20948552220412975,0.03765676482269504,0.08153261146299234,0.0,0.26555475046212196, ,0.38646793365478516
0.012619448574570069,0.03343844345667947,-0.08931481492228062, ,0.013157013214342967,0.03482898935752825,-0.08957127459161529, ,0.0015127343475629664, ,0.012066633095950588,0.032241731225468986,-0.026781011616499636,-0.045366646905440976,-0.021335437405400084,-0.03323636355333515, ,0.043615999929965614, ,0.05013302069843603, ,0.001709603231512075, ,0.15299506097126175,-0.35249641931110354,0.10274264911000001,-4.515043863108779,0.1287115827790449,-1.2524602855167877, ,0.08549274014276646,-0.20948552220412975,0.03765676482269504,0.08153261146299234,0.0,0.26555475046212196, ,0.38923192024230957
0.012619448574570069,0.03343844345667947,-0.08931481492228062, ,0.013191836747951026,0.034931423831263304,-0.08963736304935203, ,0.0016311517140340293, ,0.012066633095950588,0.032241731225468986,-0.026781011616499636,-0.045366646905440976,-0.021335437405400084,-0.03323636355333515, ,0.043615999929965614, ,0.05013302069843603, ,0.0017090133704784054, ,0.15299506097126175,-0.35249641931110354,0.10274264911000001,-4.515043863108779,0.1287115827790449,-1.2524602855167877, ,0.08549274014276646,-0.20948552220412975,0.03765676482269504,0.08153261146299234,0.0,0.26555475046212196, ,0.3919699192047119
0.012619448574570069,0.03343844345667947,-0.08931481492228062, ,0.013226902144872108,0.03503352826911613,-0.08970343158431361, ,0.0017505194397516596, ,0.012066633095950588,0.032241731225468986,-0.026781011616499636,-0.045366646905440976,-0.021335437405400084,-0.03323636355333515, ,0.043615999929965614, ,0.05013302069843603, ,0.0017093231172640268, ,0.15299506097126175,-0.35249641931110354,0.10274264911000001,-4.515043863108779,0.1287115827790449,-1.2524602855167877, ,0.08549274014276646,-0.20948552220412975,0.03765676482269504,0.08153261146299234,0.0,0.26555475046212196, ,0.39478302001953125
0.012730715163258648,0.03374112374248047,-0.0895665230209649, ,0.013262208988126311,0.035135303008506265,-0.08976948067589854, ,0.0015057932532007313, ,0.012007176746096068,0.032426049786689094,-0.026573800813371705,-0.05499551323751725,-0.03288121098323327,0.002684181419340948, ,0.043609493093242725, ,0.06407548096097324, ,0.0017078154886413358, ,0.1538600070531749,-0.3546278935843895,0.10312246208,-4.514414793278324,0.12884821927881035,-1.2497946262557051, ,0.08603530513007324,-0.21373185035691616,0.03756795169811321,0.043436414836734945,0.0,0.2752805651666008, ,0.3977479934692383
0.012730715163258648,0.03374112374248047,-0.0895665230209649, ,0.013297756858102002,0.0352367483883535,-0.08983551080360844, ,0.0016219691095224753, ,0.012007176746096068,0.032426049786689094,-0.026573800813371705,-0.05499551323751725,-0.03288121098323327,0.002684181419340948, ,0.043609493093242725, ,0.06407548096097324, ,0.0017071842652654618, ,0.1538600070531749,-0.3546278935843895,0.10312246208,-4.514414793278324,0.12884821927881035,-1.2497946262557051, ,0.08603530513007324,-0.21373185035691616,0.03756795169811321,0.043436414836734945,0.0,0.2752805651666008, ,0.4007730484008789
0.012730715163258648,0.03374112374248047,-0.0895665230209649, ,0.01333354533256592,0.0353378647490734,-0.08990152244704505, ,0.001739313275587941, ,0.012007176746096068,0.032426049786689094,-0.026573800813371705,-0.05499551323751725,-0.03288121098323327,0.002684181419340948, ,0.043609493093242725, ,0.06407548096097324, ,0.0017074187835889835, ,0.1538600070531749,-0.3546278935843895,0.10312246208,-4.514414793278324,0.12884821927881035,-1.2497946262557051, ,0.08603530513007324,-0.21373185035691616,0.03756795169811321,0.043436414836734945,0.0,0.2752805651666008, ,0.40354490280151367
0.012853439760131816,0.03407765027959501,-0.08983561208568042, ,0.013369573986673487,0.03543865243257231,-0.08996751608590388, ,0.0014615471478852738, ,0.0119225852884439,0.03340759976710484,-0.025131534374016565,-0.018963682403376043,-0.03111681417615958,-0.01066996536690884, ,0.04347194247042176, ,0.0364399142359597, ,0.0017056371050693914, ,0.1547403986008365,-0.3568597633850404,0.10350616392,-4.513785723447872,0.12884821927881035,-1.247017549090926, ,0.08698161462737927,-0.22648434739491832,0.03661795751724139,0.059281075290630564,0.0,0.2539206252967281, ,0.40636301040649414
0.012853439760131816,0.03407765027959501,-0.08983561208568042, ,0.013405842392978701,0.03553911178224283,-0.09003349219997, ,0.0015748571148294897, ,0.0119225852884439,0.03340759976710484,-0.025131534374016565,-0.018963682403376043,-0.03111681417615958,-0.01066996536690884, ,0.04347194247042176, ,0.0364399142359597, ,0.0017046962418302554, ,0.1547403986008365,-0.3568597633850404,0.10350616392,-4.513785723447872,0.12884821927881035,-1.247017549090926, ,0.08698161462737927,-0.22648434739491832,0.03661795751724139,0.059281075290630564,0.0,0.2539206252967281, ,0.40921688079833984
0.012853439760131816,0.03407765027959501,-0.08983561208568042, ,0.013442350121444504,0.035639243142958785,-0.09009945126911365, ,0.0016896741695619404, ,0.0119225852884439,0.03340759976710484,-0.025131534374016565,-0.018963682403376043,-0.03111681417615958,-0.01066996536690884, ,0.04347194247042176, ,0.0364399142359597, ,0.0017045889413140533, ,0.1547403986008365,-0.3568597633850404,0.10350616392,-4.513785723447872,0.12884821927881035,-1.247017549090926, ,0.08698161462737927,-0.22648434739491832,0.03661795751724139,0.059281075290630564,0.0,0.2539206252967281, ,0.41259098052978516
0.012853439760131816,0.03407765027959501,-0.08983561208568042, ,0.013479096739452736,0.03573904686107097,-0.09016539377328418, ,0.0018056691884705163, ,0.0119225852884439,0.03340759976710484,-0.025131534374016565,-0.018963682403376043,-0.03111681417615958,-0.01066996536690884, ,0.04347194247042176, ,0.0364399142359597, ,0.00170530582249956, ,0.1547403986008365,-0.3568597633850404,0.10350616392,-4.513785723447872,0.12884821927881035,-1.247017549090926, ,0.08698161462737927,-0.22648434739491832,0.03661795751724139,0.059281075290630564,0.0,0.2539206252967281, ,0.41541385650634766
0.012974621100196714,0.034414208003036975,-0.09007771687807764, ,0.013516081811814544,0.035838523284401805,-0.09023132019250622, ,0.0015314854557450116, ,0.011963282447652976,0.033521994162366606,-0.023448014683250917,-0.015793426409950066,-0.02085795585989416,-0.04059049981243375, ,0.04262221969970608, ,0.02616256012531667, ,0.0017040817354097395, ,0.15564395834712078,-0.3591688605144335,0.10386523625,-4.512946963673933,0.12884821927881035,-1.2444855081465687, ,0.08969465175658865,-0.23145595502066044,0.03516293933774835,0.09293352155017538,0.0,0.26063486144706893, ,0.41823387145996094
0.012974621100196714,0.034414208003036975,-0.09007771687807764, ,0.013553304900780255,0.035937672762241184,-0.09029723100687453, ,0.0016443862886610335, ,0.011963282447652976,0.033521994162366606,-0.023448014683250917,-0.015793426409950066,-0.02085795585989416,-0.04059049981243375, ,0.04262221969970608, ,0.02616256012531667, ,0.001703664284733175, ,0.15564395834712078,-0.3591688605144335,0.10386523625,-4.512946963673933,0.12884821927881035,-1.2444855081465687, ,0.08969465175658865,-0.23145595502066044,0.03516293933774835,0.09293352155017538,0.0,0.26063486144706893, ,0.4211258888244629
0.012974621100196714,0.034414208003036975,-0.09007771687807764, ,0.013590765566049667,0.03603649564534128,-0.09036312669654907, ,0.001758667098018946, ,0.011963282447652976,0.033521994162366606,-0.023448014683250917,-0.015793426409950066,-0.02085795585989416,-0.04059049981243375, ,0.04262221969970608, ,0.02616256012531667, ,0.0017040462487143263, ,0.15564395834712078,-0.3591688605144335,0.10386523625,-4.512946963673933,0.12884821927881035,-1.2444855081465687, ,0.08969465175658865,-0.23145595502066044,0.03516293933774835,0.09293352155017538,0.0,0.26063486144706893, ,0.423907995223999
0.013090251954261549,0.03474358272628283,-0.09029876982244757, ,0.01362846336478226,0.03613499228591227,-0.09042900774174994, ,0.00149754933163055, ,0.01213835536110117,0.03382659841946903,-0.021944702599227345,-0.027146220848972762,-0.03542273661327699,-0.006047864008470467, ,0.04210876872663143, ,0.044628270035558845, ,0.0017026221320447829, ,0.1565320726276566,-0.3614702349109524,0.10420227165000001,-4.51231789384348,0.1289848557785758,-1.2419015276256264, ,0.09377168138188813,-0.23843452652882108,0.033963350788912584,0.05749228304700493,-1.6873479928568467e-05,0.2738812149984996, ,0.42693495750427246
0.013090251954261549,0.03474358272628283,-0.09029876982244757, ,0.01366639785160716,0.036233163037617054,-0.09049487462275331, ,0.001609114878324635, ,0.01213835536110117,0.03382659841946903,-0.021944702599227345,-0.027146220848972762,-0.03542273661327699,-0.006047864008470467, ,0.04210876872663143, ,0.044628270035558845, ,0.001701981671402864, ,0.1565320726276566,-0.3614702349109524,0.10420227165000001,-4.51231789384348,0.1289848557785758,-1.2419015276256264, ,0.09377168138188813,-0.23843452652882108,0.033963350788912584,0.05749228304700493,-1.6873479928568467e-05,0.2738812149984996, ,0.42975687980651855
0.013090251954261549,0.03474358272628283,-0.09029876982244757, ,0.01370456857863342,0.03633100825556703,-0.09056072781988529, ,0.001722186609640333, ,0.01213835536110117,0.03382659841946903,-0.021944702599227345,-0.027146220848972762,-0.03542273661327699,-0.006047864008470467, ,0.04210876872663143, ,0.044628270035558845, ,0.0017021191199623029, ,0.1565320726276566,-0.3614702349109524,0.10420227165000001,-4.51231789384348,0.1289848557785758,-1.2419015276256264, ,0.09377168138188813,-0.23843452652882108,0.033963350788912584,0.05749228304700493,-1.6873479928568467e-05,0.2738812149984996, ,0.43274497985839844
0.013090251954261549,0.03474358272628283,-0.09029876982244757, ,0.013742975095460156,0.03642852829631692,-0.09062656781351859, ,0.0018364478201092123, ,0.01213835536110117,0.03382659841946903,-0.021944702599227345,-0.027146220848972762,-0.03542273661327699,-0.006047864008470467, ,0.04210876872663143, ,0.044628270035558845, ,0.0017030267463146469, ,0.1565320726276566,-0.3614702349109524,0.10420227165000001,-4.51231789384348,0.1289848557785758,-1.2419015276256264, ,0.09377168138188813,-0.23843452652882108,0.033963350788912584,0.05749228304700493,-1.6873479928568467e-05,0.2738812149984996, ,0.43566298484802246
0.013219883436429589,0.035103144006459044,-0.09052103561885595, ,0.013781616949186726,0.036525723517860584,-0.09069239508406626, ,0.0015390390092298112, ,0.012206249018724379,0.03395624262961659,-0.019879716071308978,-0.025815200162056715,-0.035901672795323775,-0.010179295426781837, ,0.04119735476586284, ,0.04421935734478928, ,0.0017019261574751513, ,0.15748969150406042,-0.363864282101962,0.10453152931000001,-4.511688824013026,0.1289848557785758,-1.2391244504608474, ,0.09813541009148995,-0.24457974628471849,0.032441571323828924,0.06359529932012055,5.017645222523362e-05,0.2822836288553875, ,0.4393630027770996
0.013219883436429589,0.035103144006459044,-0.09052103561885595, ,0.0138204936844227,0.03662259427962546,-0.09075821011197774, ,0.001650973513660176, ,0.012206249018724379,0.03395624262961659,-0.019879716071308978,-0.025815200162056715,-0.035901672795323775,-0.010179295426781837, ,0.04119735476586284, ,0.04421935734478928, ,0.0017015864731830513, ,0.15748969150406042,-0.363864282101962,0.10453152931000001,-4.511688824013026,0.1289848557785758,-1.2391244504608474, ,0.09813541009148995,-0.24457974628471849,0.032441571323828924,0.06359529932012055,5.017645222523362e-05,0.2822836288553875, ,0.44220399856567383
0.013219883436429589,0.035103144006459044,-0.09052103561885595, ,0.013859604843298247,0.03671914094246875,-0.09082401337773356, ,0.0017642236530477876, ,0.012206249018724379,0.03395624262961659,-0.019879716071308978,-0.025815200162056715,-0.035901672795323775,-0.010179295426781837, ,0.04119735476586284, ,0.04421935734478928, ,0.001702001288943745, ,0.15748969150406042,-0.363864282101962,0.10453152931000001,-4.511688824013026,0.1289848557785758,-1.2391244504608474, ,0.09813541009148995,-0.24457974628471849,0.032441571323828924,0.06359529932012055,5.017645222523362e-05,0.2822836288553875, ,0.4449608325958252
0.01333987524268832,0.035445937391510376,-0.09072050667839016, ,0.01389894996547414,0.03681536386867222,-0.09088980536184087, ,0.0014888100840026865, ,0.01235892096948122,0.03479433631858422,-0.019510018286496695,0.01827143749202674,-0.026303740387249416,-0.014275496257676922, ,0.04176158020142517, ,0.03202700984526136, ,0.0017005987152270276, ,0.15853998317495496,-0.36649773401207253,0.10487763874000001,-4.510850064239088,0.1293947652778721,-1.236599948267017, ,0.10073985303447004,-0.25238548286827334,0.03224455773279353,0.07434165337227959,0.01476260374658547,0.24656203552266348, ,0.4489288330078125
0.01333987524268832,0.035445937391510376,-0.09072050667839016, ,0.013938528588151939,0.036911263421937186,-0.09095558654482838, ,0.0016002589625075652, ,0.01235892096948122,0.03479433631858422,-0.019510018286496695,0.01827143749202674,-0.026303740387249416,-0.014275496257676922, ,0.04176158020142517, ,0.03202700984526136, ,0.0016999428998497761, ,0.15853998317495496,-0.36649773401207253,0.10487763874000001,-4.510850064239088,0.1293947652778721,-1.236599948267017, ,0.10073985303447004,-0.25238548286827334,0.03224455773279353,0.07434165337227959,0.01476260374658547,0.24656203552266348, ,0.4517519474029541
0.01333987524268832,0.035445937391510376,-0.09072050667839016, ,0.01397834024608417,0.037006839967380356,-0.09102135740724082, ,0.001713057375854287, ,0.01235892096948122,0.03479433631858422,-0.019510018286496695,0.01827143749202674,-0.026303740387249416,-0.014275496257676922, ,0.04176158020142517, ,0.03202700984526136, ,0.0017000280587848705, ,0.15853998317495496,-0.36649773401207253,0.10487763874000001,-4.510850064239088,0.1293947652778721,-1.236599948267017, ,0.10073985303447004,-0.25238548286827334,0.03224455773279353,0.07434165337227959,0.01476260374658547,0.24656203552266348, ,0.4544699192047119
0.013463407867373378,0.035793640482424983,-0.09091412861035614, ,0.014018384471584409,0.037102093871528866,-0.0910871184296359, ,0.0014317732991830407, ,0.012571468820056107,0.034873505046825334,-0.0194795074851889,0.052640848829760015,-0.01300000637983164,0.0034596582237169018, ,0.04187665691540008, ,0.05422228625455639, ,0.0016982973829164716, ,0.15948215658561035,-0.36882999934008837,0.10517708173000001,-4.510220994408634,0.12966803827740297,-1.234535779350474, ,0.10439707542186004,-0.25305851082258873,0.03257425668711657,0.06548433782047645,0.04274348784428346,0.21045502031219832, ,0.4572439193725586
0.013463407867373378,0.035793640482424983,-0.09091412861035614, ,0.014058660794537438,0.03719702550231534,-0.09115287009257725, ,0.0015429883527373633, ,0.012571468820056107,0.034873505046825334,-0.0194795074851889,0.052640848829760015,-0.01300000637983164,0.0034596582237169018, ,0.04187665691540008, ,0.05422228625455639, ,0.0016973018122101952, ,0.15948215658561035,-0.36882999934008837,0.10517708173000001,-4.510220994408634,0.12966803827740297,-1.234535779350474, ,0.10439707542186004,-0.25305851082258873,0.03257425668711657,0.06548433782047645,0.04274348784428346,0.21045502031219832, ,0.46007585525512695
0.013463407867373378,0.035793640482424983,-0.09091412861035614, ,0.014099168742409489,0.03729163522907345,-0.09121861287663131, ,0.0016555635957649648, ,0.012571468820056107,0.034873505046825334,-0.0194795074851889,0.052640848829760015,-0.01300000637983164,0.0034596582237169018, ,0.04187665691540008, ,0.05422228625455639, ,0.001697035963697805, ,0.15948215658561035,-0.36882999934008837,0.10517708173000001,-4.510220994408634,0.12966803827740297,-1.234535779350474, ,0.10439707542186004,-0.25305851082258873,0.03257425668711657,0.06548433782047645,0.04274348784428346,0.21045502031219832, ,0.46382594108581543
0.013557374812794417,0.036046881968733714,-0.09105591490075267, ,0.014139907840258292,0.037385923422532955,-0.09128434726236137, ,0.0014780250630179242, ,0.012958729430344778,0.035450657118820346,-0.02002205735642583,0.05095519743764814,-0.015512142092382226,-0.008772001787387036, ,0.042726578840214406, ,0.053264016751641156, ,0.0016956498187567933, ,0.1603471026675235,-0.3708301871545125,0.10543504344000001,-4.509591924578181,0.12994131127693384,-1.2327983253944934, ,0.10759290426130474,-0.25305851082258873,0.033185024,0.07725286118807743,0.03698180145521584,0.2178698821237875, ,0.46674203872680664
0.013557374812794417,0.036046881968733714,-0.09105591490075267, ,0.014180877610743286,0.037479890454815167,-0.0913500737303233, ,0.0015902196317634525, ,0.012958729430344778,0.035450657118820346,-0.02002205735642583,0.05095519743764814,-0.015512142092382226,-0.008772001787387036, ,0.042726578840214406, ,0.053264016751641156, ,0.0016949867358197284, ,0.1603471026675235,-0.3708301871545125,0.10543504344000001,-4.509591924578181,0.12994131127693384,-1.2327983253944934, ,0.10759290426130474,-0.25305851082258873,0.033185024,0.07725286118807743,0.03698180145521584,0.2178698821237875, ,0.4695408344268799
0.013557374812794417,0.036046881968733714,-0.09105591490075267, ,0.01422207757413568,0.03757353669942813,-0.09141579276106057, ,0.0017035305990871243, ,0.012958729430344778,0.035450657118820346,-0.02002205735642583,0.05095519743764814,-0.015512142092382226,-0.008772001787387036, ,0.042726578840214406, ,0.053264016751641156, ,0.0016950401349651496, ,0.1603471026675235,-0.3708301871545125,0.10543504344000001,-4.509591924578181,0.12994131127693384,-1.2327983253944934, ,0.10759290426130474,-0.25305851082258873,0.033185024,0.07725286118807743,0.03698180145521584,0.2178698821237875, ,0.47238588333129883
0.013557374812794417,0.036046881968733714,-0.09105591490075267, ,0.014263507248328694,0.0376668625312618,-0.09148150483509948, ,0.0018177147278106403, ,0.012958729430344778,0.035450657118820346,-0.02002205735642583,0.05095519743764814,-0.015512142092382226,-0.008772001787387036, ,0.042726578840214406, ,0.053264016751641156, ,0.0016958020889579785, ,0.1603471026675235,-0.3708301871545125,0.10543504344000001,-4.509591924578181,0.12994131127693384,-1.2327983253944934, ,0.10759290426130474,-0.25305851082258873,0.033185024,0.07725286118807743,0.03698180145521584,0.2178698821237875, ,0.4753708839416504
0.013720816267105107,0.03648859169528609,-0.09130331942632026, ,0.014305166148847687,0.037759868326583325,-0.09154721043294352, ,0.0014202435990655644, ,0.013177888315479717,0.035395932320718394,-0.020079263977891823,0.047999649079677284,-0.03114591404438681,-0.009158338868459192, ,0.042775058237271846, ,0.05721914897581661, ,0.0016941011106253092, ,0.16169085818763856,-0.3739810621671961,0.10584726366000001,-4.508753164804243,0.13021458427646476,-1.2299173690765448, ,0.10783743358917133,-0.2503877085975482,0.033323873472803356,0.07157825605393504,0.02256277478035394,0.21528456744275531, ,0.4782528877258301
0.013720816267105107,0.03648859169528609,-0.09130331942632026, ,0.014347053788860286,0.037852554463032574,-0.09161291003506998, ,0.0015324536568779913, ,0.013177888315479717,0.035395932320718394,-0.020079263977891823,0.047999649079677284,-0.03114591404438681,-0.009158338868459192, ,0.042775058237271846, ,0.05721914897581661, ,0.0016931094084550802, ,0.16169085818763856,-0.3739810621671961,0.10584726366000001,-4.508753164804243,0.13021458427646476,-1.2299173690765448, ,0.10783743358917133,-0.2503877085975482,0.033323873472803356,0.07157825605393504,0.02256277478035394,0.21528456744275531, ,0.48120903968811035
0.013720816267105107,0.03648859169528609,-0.09130331942632026, ,0.014389169679186539,0.03794492131961707,-0.09167860412192384, ,0.0016457311022457955, ,0.013177888315479717,0.035395932320718394,-0.020079263977891823,0.047999649079677284,-0.03114591404438681,-0.009158338868459192, ,0.042775058237271846, ,0.05721914897581661, ,0.001692820516344048, ,0.16169085818763856,-0.3739810621671961,0.10584726366000001,-4.508753164804243,0.13021458427646476,-1.2299173690765448, ,0.10783743358917133,-0.2503877085975482,0.033323873472803356,0.07157825605393504,0.02256277478035394,0.21528456744275531, ,0.48418188095092773
