NicholasDascanio/dvrk_moveit_final/test/execution/first_exp_nosummary/yes_joints_no_ramp/500vel5.csv
Current Position (x),Current Position (y),Current Position (z), ,Planned Position (x),Planned Position (y),Planned Position (z), ,Position Error,,Cartesian linear Velocity(x),Cartesian linear Velocity(y),Cartesian linear Velocity(z),Cartesian Angular Velocity(x),Cartesian Angular Velocity(y),Cartesian Angular Velocity(z), ,Total Linear Velocity, ,Total Angular Velocity, ,MSE, ,Joint 1 Position,Joint 2 Position,Joint 3 Position,Joint 4 Position,Joint 5 Position,Joint 6 Position, ,Joint 1 Velocity,Joint 2 Velocity,Joint 3 Velocity,Joint 4 Velocity,Joint 5 Velocity,Joint 6 Velocity, ,Time Stamp
0.008453945916167245,0.018010960254966252,-0.08156877196928891, ,0.008729246283531783,0.018087828984498965,-0.08167399553619784, ,0.0003045834744106439, ,3.499157662741721e-05,2.391917616810105e-07,2.518447718606938e-06,-3.3881317890172014e-20,-0.0004273899481535014,-2.0328790734103208e-20, ,3.508290504622762e-05, ,0.0004273899481535014, ,0.00015229173720532194, ,0.11811147657838965,-0.2136648504311695,0.09053548618000001,-4.538109756892076,0.13622659026614414,-1.3833117064147296, ,0.0004273899481535012,0.0,1.1280160413315093e-06,0.0,0.0,0.0, ,0.0023031234741210938
0.008453945916167245,0.018010960254966252,-0.08156877196928891, ,0.008807132816796756,0.018225065478007473,-0.08169605610964643, ,0.0004321843191236393, ,3.499157662741721e-05,2.391917616810105e-07,2.518447718606938e-06,-3.3881317890172014e-20,-0.0004273899481535014,-2.0328790734103208e-20, ,3.508290504622762e-05, ,0.0004273899481535014, ,0.00024558926451142773, ,0.11811147657838965,-0.2136648504311695,0.09053548618000001,-4.538109756892076,0.13622659026614414,-1.3833117064147296, ,0.0004273899481535012,0.0,1.1280160413315093e-06,0.0,0.0,0.0, ,0.004667043685913086
0.008453945916167245,0.018010960254966252,-0.08156877196928891, ,0.008884439590606226,0.01836189034406154,-0.08171843591089982, ,0.0005752182425679093, ,3.499157662741721e-05,2.391917616810105e-07,2.518447718606938e-06,-3.3881317890172014e-20,-0.0004273899481535014,-2.0328790734103208e-20, ,3.508290504622762e-05, ,0.0004273899481535014, ,0.0003279965090255481, ,0.11811147657838965,-0.2136648504311695,0.09053548618000001,-4.538109756892076,0.13622659026614414,-1.3833117064147296, ,0.0004273899481535012,0.0,1.1280160413315093e-06,0.0,0.0,0.0, ,0.007071971893310547
0.008455990504852144,0.01801275102269178,-0.08156949876304273, ,0.008961170139507462,0.018498304784683412,-0.0817411337206722, ,0.0007214065966812168, ,7.179642536569319e-05,3.3977535481198056e-05,1.3343741068558555e-05,0.03758124921280713,-0.006124943891432131,-0.0019444437690142634, ,8.054349780318931e-05, ,0.03807709587229977, ,0.00040667852655668183, ,0.11813464477701233,-0.21368029589691795,0.09053678247000001,-4.537900066948591,0.13622659026614414,-1.38339338515487, ,0.0008886691196511701,-0.0004103461759864798,1.5567915027934405e-06,0.0,0.0,-0.037593596972640475, ,0.010311126708984375
0.008455990504852144,0.01801275102269178,-0.08156949876304273, ,0.009037327988010688,0.018634309999315195,-0.08176414832260444, ,0.0008730276523592047, ,7.179642536569319e-05,3.3977535481198056e-05,1.3343741068558555e-05,0.03758124921280713,-0.006124943891432131,-0.0019444437690142634, ,8.054349780318931e-05, ,0.03807709587229977, ,0.0004844033808571023, ,0.11813464477701233,-0.21368029589691795,0.09053678247000001,-4.537900066948591,0.13622659026614414,-1.38339338515487, ,0.0008886691196511701,-0.0004103461759864798,1.5567915027934405e-06,0.0,0.0,-0.037593596972640475, ,0.016048192977905273
0.008478843052556152,0.018052989121241415,-0.08158522679383245, ,0.00911291665060113,0.01876990718482171,-0.08178747850326026, ,0.0009782262476502534, ,0.003256233944009387,0.006332644406810622,-0.002254503054043972,0.1429017676253295,-0.04692878534027835,0.003874430368616403, ,0.007469151806056855, ,0.15041019275268333, ,0.0005549495046846953, ,0.11835860403036484,-0.21410504620500032,0.09056270827000001,-4.537690377005107,0.13595331726661325,-1.383905658008742, ,0.036178780617030414,-0.06715990202298003,0.003880343853836785,0.0,0.0,-0.07707300292405872, ,0.018481016159057617
0.008478843052556152,0.018052989121241415,-0.08158522679383245, ,0.009187939631750701,0.018905097535492882,-0.08181112305212329, ,0.0011313424891576211, ,0.003256233944009387,0.006332644406810622,-0.002254503054043972,0.1429017676253295,-0.04692878534027835,0.003874430368616403, ,0.007469151806056855, ,0.15041019275268333, ,0.0006269986277438111, ,0.11835860403036484,-0.21410504620500032,0.09056270827000001,-4.537690377005107,0.13595331726661325,-1.383905658008742, ,0.036178780617030414,-0.06715990202298003,0.003880343853836785,0.0,0.0,-0.07707300292405872, ,0.02090311050415039
0.008478843052556152,0.018052989121241415,-0.08158522679383245, ,0.00926240042593005,0.019039882243046567,-0.08183508076159354, ,0.0012846583967891542, ,0.003256233944009387,0.006332644406810622,-0.002254503054043972,0.1429017676253295,-0.04692878534027835,0.003874430368616403, ,0.007469151806056855, ,0.15041019275268333, ,0.0007000719354155159, ,0.11835860403036484,-0.21410504620500032,0.09056270827000001,-4.537690377005107,0.13595331726661325,-1.383905658008742, ,0.036178780617030414,-0.06715990202298003,0.003880343853836785,0.0,0.0,-0.07707300292405872, ,0.023251056671142578
0.008478843052556152,0.018052989121241415,-0.08158522679383245, ,0.009336302517620276,0.019174262496630897,-0.08185935042698511, ,0.0014379271479592383, ,0.003256233944009387,0.006332644406810622,-0.002254503054043972,0.1429017676253295,-0.04692878534027835,0.003874430368616403, ,0.007469151806056855, ,0.15041019275268333, ,0.0007738574566698881, ,0.11835860403036484,-0.21410504620500032,0.09056270827000001,-4.537690377005107,0.13595331726661325,-1.383905658008742, ,0.036178780617030414,-0.06715990202298003,0.003880343853836785,0.0,0.0,-0.07707300292405872, ,0.02556014060974121
0.008478843052556152,0.018052989121241415,-0.08158522679383245, ,0.009409649381324877,0.0193082394828272,-0.081883930846522, ,0.0015909990581487827, ,0.003256233944009387,0.006332644406810622,-0.002254503054043972,0.1429017676253295,-0.04692878534027835,0.003874430368616403, ,0.007469151806056855, ,0.15041019275268333, ,0.000848143056804333, ,0.11876790887269874,-0.21475375576643516,0.09062622648,-4.536641927287684,0.13417704276966252,-1.3825389040008296, ,0.049893239515494625,-0.07162033325167605,0.01126507179632249,0.12677156155922847,-0.2163905984277796,0.19283684056047834, ,0.027894973754882812
0.008534372819603765,0.018118697796935843,-0.08163226495963091, ,0.009482444481581576,0.01944181438565242,-0.08190882082133583, ,0.0016510483118993553, ,0.007193224584335484,0.00814970048722816,-0.009279151089818798,-0.13706021381748432,-0.20389161338757822,-0.1542674189799474, ,0.014292051738637833, ,0.24567721130111286, ,0.0009150518280622516, ,0.11876790887269874,-0.21475375576643516,0.09062622648,-4.536641927287684,0.13417704276966252,-1.3825389040008296, ,0.049893239515494625,-0.07162033325167605,0.01126507179632249,0.12677156155922847,-0.2163905984277796,0.19283684056047834, ,0.030265092849731445
0.008534372819603765,0.018118697796935843,-0.08163226495963091, ,0.009554691272974099,0.019574988386561663,-0.08193401915546218, ,0.001803576342277344, ,0.007193224584335484,0.00814970048722816,-0.009279151089818798,-0.13706021381748432,-0.20389161338757822,-0.1542674189799474, ,0.014292051738637833, ,0.24567721130111286, ,0.0009833998676172587, ,0.11876790887269874,-0.21475375576643516,0.09062622648,-4.536641927287684,0.13417704276966252,-1.3825389040008296, ,0.049893239515494625,-0.07162033325167605,0.01126507179632249,0.12677156155922847,-0.2163905984277796,0.19283684056047834, ,0.032701969146728516
0.008534372819603765,0.018118697796935843,-0.08163226495963091, ,0.009626393200144065,0.01970776266445112,-0.08195952465583731, ,0.0019556928627593403, ,0.007193224584335484,0.00814970048722816,-0.009279151089818798,-0.13706021381748432,-0.20389161338757822,-0.1542674189799474, ,0.014292051738637833, ,0.24567721130111286, ,0.0010528493672702646, ,0.11876790887269874,-0.21475375576643516,0.09062622648,-4.536641927287684,0.13417704276966252,-1.3825389040008296, ,0.049893239515494625,-0.07162033325167605,0.01126507179632249,0.12677156155922847,-0.2163905984277796,0.19283684056047834, ,0.035079002380371094
0.008534372819603765,0.018118697796935843,-0.08163226495963091, ,0.00969755369780278,0.01984013839566014,-0.08198533613229526, ,0.002107369626646137, ,0.007193224584335484,0.00814970048722816,-0.009279151089818798,-0.13706021381748432,-0.20389161338757822,-0.1542674189799474, ,0.014292051738637833, ,0.24567721130111286, ,0.0011231507178953227, ,0.11950156849575007,-0.21576543377295856,0.09078437386,-4.5358031675137465,0.1328106777720081,-1.3803629013420378, ,0.09124705919083728,-0.12652925541129437,0.020214227817258887,0.03443244337559876,-0.06635730909327399,0.2533753365191136, ,0.03744316101074219
0.008622932867622614,0.018234796087855845,-0.08176150267979693, ,0.009768176190742989,0.019972116753974496,-0.08201145239756444, ,0.002095791074388573, ,0.01014271765882831,0.014683666747905316,-0.016547173957925283,-0.1307783378688631,-0.11177366709103291,-0.02114354404613862, ,0.024337086034775992, ,0.17203582496141784, ,0.001183940740176151, ,0.11950156849575007,-0.21576543377295856,0.09078437386,-4.5358031675137465,0.1328106777720081,-1.3803629013420378, ,0.09124705919083728,-0.12652925541129437,0.020214227817258887,0.03443244337559876,-0.06635730909327399,0.2533753365191136, ,0.04005718231201172
0.008622932867622614,0.018234796087855845,-0.08176150267979693, ,0.009838264093850777,0.02010369891062834,-0.08203787226726457, ,0.0022463766156389014, ,0.01014271765882831,0.014683666747905316,-0.016547173957925283,-0.1307783378688631,-0.11177366709103291,-0.02114354404613862, ,0.024337086034775992, ,0.17203582496141784, ,0.0012464369681445481, ,0.11950156849575007,-0.21576543377295856,0.09078437386,-4.5358031675137465,0.1328106777720081,-1.3803629013420378, ,0.09124705919083728,-0.12652925541129437,0.020214227817258887,0.03443244337559876,-0.06635730909327399,0.2533753365191136, ,0.04239201545715332
0.008622932867622614,0.018234796087855845,-0.08176150267979693, ,0.009907820812117215,0.02023488603430712,-0.08206459455990302, ,0.002396489414036555, ,0.01014271765882831,0.014683666747905316,-0.016547173957925283,-0.1307783378688631,-0.11177366709103291,-0.02114354404613862, ,0.024337086034775992, ,0.17203582496141784, ,0.0013103287706941042, ,0.11950156849575007,-0.21576543377295856,0.09078437386,-4.5358031675137465,0.1328106777720081,-1.3803629013420378, ,0.09124705919083728,-0.12652925541129437,0.020214227817258887,0.03443244337559876,-0.06635730909327399,0.2533753365191136, ,0.04485201835632324
0.008622932867622614,0.018234796087855845,-0.08176150267979693, ,0.009976849740650292,0.020365679291150268,-0.0820916180968721, ,0.0025461206400604944, ,0.01014271765882831,0.014683666747905316,-0.016547173957925283,-0.1307783378688631,-0.11177366709103291,-0.02114354404613862, ,0.024337086034775992, ,0.17203582496141784, ,0.0013753704480291772, ,0.11950156849575007,-0.21576543377295856,0.09078437386,-4.5358031675137465,0.1328106777720081,-1.3803629013420378, ,0.09124705919083728,-0.12652925541129437,0.020214227817258887,0.03443244337559876,-0.06635730909327399,0.2533753365191136, ,0.04739999771118164
0.008717989925645464,0.01838125459228631,-0.0819287621559221, ,0.010045354264686588,0.020496079844753465,-0.08211894170244546, ,0.0025041066664474743, ,0.012140859950948617,0.019420285897068255,-0.021255965560950697,-0.29239859976010074,-0.0513303703516668,-0.10895690508643416, ,0.031246824744295833, ,0.2968699104371502, ,0.001431807258950092, ,0.12035879184478898,-0.21700879376570872,0.09098789139,-4.534964407739808,0.1324007682727118,-1.3769248555056073, ,0.11047373871766097,-0.1661942934474094,0.026070067954173493,0.1466207762131921,-0.04150937957967386,0.47375216042338186, ,0.05002403259277344
0.008717989925645464,0.01838125459228631,-0.0819287621559221, ,0.010113337759603144,0.020626088856171523,-0.08214656420377481, ,0.002652115039377495, ,0.012140859950948617,0.019420285897068255,-0.021255965560950697,-0.29239859976010074,-0.0513303703516668,-0.10895690508643416, ,0.031246824744295833, ,0.2968699104371502, ,0.0014899171532561592, ,0.12035879184478898,-0.21700879376570872,0.09098789139,-4.534964407739808,0.1324007682727118,-1.3769248555056073, ,0.11047373871766097,-0.1661942934474094,0.026070067954173493,0.1466207762131921,-0.04150937957967386,0.47375216042338186, ,0.05230212211608887
0.008717989925645464,0.01838125459228631,-0.0819287621559221, ,0.01018080359092907,0.020755707483920853,-0.082174484430887, ,0.0027996838732874878, ,0.012140859950948617,0.019420285897068255,-0.021255965560950697,-0.29239859976010074,-0.0513303703516668,-0.10895690508643416, ,0.031246824744295833, ,0.2968699104371502, ,0.001549452004166674, ,0.12035879184478898,-0.21700879376570872,0.09098789139,-4.534964407739808,0.1324007682727118,-1.3769248555056073, ,0.11047373871766097,-0.1661942934474094,0.026070067954173493,0.1466207762131921,-0.04150937957967386,0.47375216042338186, ,0.05466508865356445
0.008717989925645464,0.01838125459228631,-0.0819287621559221, ,0.010247755114357496,0.020884936883981978,-0.08220270121668045, ,0.002946803210150756, ,0.012140859950948617,0.019420285897068255,-0.021255965560950697,-0.29239859976010074,-0.0513303703516668,-0.10895690508643416, ,0.031246824744295833, ,0.2968699104371502, ,0.0016102064044268515, ,0.12035879184478898,-0.21700879376570872,0.09098789139,-4.534964407739808,0.1324007682727118,-1.3769248555056073, ,0.11047373871766097,-0.1661942934474094,0.026070067954173493,0.1466207762131921,-0.04150937957967386,0.47375216042338186, ,0.05696415901184082
0.008877572775599066,0.018648452837658678,-0.0822426769652836, ,0.010314195675757188,0.02101377820980232,-0.0822312133969217, ,0.0027674502500975133, ,0.01552362973923753,0.02685680034448024,-0.030038137471207708,-0.39504653408376794,0.03283921018909386,-0.16755716139343307, ,0.043180557057122204, ,0.39640907325967095, ,0.0016584248979964623, ,0.12182611109089164,-0.21920977263486272,0.09136770436000001,-4.53223843847451,0.13253740477247725,-1.3698485442769344, ,0.14488082680682562,-0.2243426514384652,0.03670233069124424,0.24117538571021108,0.031244407252094902,0.6587670965437555, ,0.05926918983459473
0.008877572775599066,0.018648452837658678,-0.0822426769652836, ,0.01038012861118437,0.021142232612298528,-0.08226001981024254, ,0.002911513760524841, ,0.01552362973923753,0.02685680034448024,-0.030038137471207708,-0.39504653408376794,0.03283921018909386,-0.16755716139343307, ,0.043180557057122204, ,0.39640907325967095, ,0.0017085484524975974, ,0.12182611109089164,-0.21920977263486272,0.09136770436000001,-4.53223843847451,0.13253740477247725,-1.3698485442769344, ,0.14488082680682562,-0.2243426514384652,0.03670233069124424,0.24117538571021108,0.031244407252094902,0.6587670965437555, ,0.061750173568725586
0.008877572775599066,0.018648452837658678,-0.0822426769652836, ,0.010445557246894357,0.021270301239859325,-0.08228911929813645, ,0.003055293968937535, ,0.01552362973923753,0.02685680034448024,-0.030038137471207708,-0.39504653408376794,0.03283921018909386,-0.16755716139343307, ,0.043180557057122204, ,0.39640907325967095, ,0.0017603463569760567, ,0.12182611109089164,-0.21920977263486272,0.09136770436000001,-4.53223843847451,0.13253740477247725,-1.3698485442769344, ,0.14488082680682562,-0.2243426514384652,0.03670233069124424,0.24117538571021108,0.031244407252094902,0.6587670965437555, ,0.06441998481750488
0.008877572775599066,0.018648452837658678,-0.0822426769652836, ,0.010510484899353547,0.021397985238347794,-0.08231851070495544, ,0.003198762445449215, ,0.01552362973923753,0.02685680034448024,-0.030038137471207708,-0.39504653408376794,0.03283921018909386,-0.16755716139343307, ,0.043180557057122204, ,0.39640907325967095, ,0.0018136210269195068, ,0.12182611109089164,-0.21920977263486272,0.09136770436000001,-4.53223843847451,0.13253740477247725,-1.3698485442769344, ,0.14488082680682562,-0.2243426514384652,0.03670233069124424,0.24117538571021108,0.031244407252094902,0.6587670965437555, ,0.0666651725769043
0.009043339300272976,0.01894146768369378,-0.08254444855423956, ,0.010574914875250852,0.02152528575110433,-0.0823481928779066, ,0.003010042497679878, ,0.017303293929381496,0.031228226645227935,-0.02859621617454041,-0.12711215905302278,0.0161494193023559,-0.024806903583037047, ,0.045742209169577074, ,0.1281338581347805, ,0.0018563503651609487, ,0.12346333046022724,-0.22171193808611145,0.09174362846,-4.5303512289831485,0.1334938602708353,-1.3648292790528291, ,0.17573507696013105,-0.2758632022048569,0.03661795751724139,0.10893979122101893,0.10882580338944871,0.4357772620553011, ,0.06897401809692383
0.009043339300272976,0.01894146768369378,-0.08254444855423956, ,0.010638850471509628,0.02165220391894876,-0.08237816466704868, ,0.0031498249420887836, ,0.017303293929381496,0.031228226645227935,-0.02859621617454041,-0.12711215905302278,0.0161494193023559,-0.024806903583037047, ,0.045742209169577074, ,0.1281338581347805, ,0.00190095293677915, ,0.12346333046022724,-0.22171193808611145,0.09174362846,-4.5303512289831485,0.1334938602708353,-1.3648292790528291, ,0.17573507696013105,-0.2758632022048569,0.03661795751724139,0.10893979122101893,0.10882580338944871,0.4357772620553011, ,0.07129406929016113
0.009043339300272976,0.01894146768369378,-0.08254444855423956, ,0.010702294975299374,0.021778740880183403,-0.08240842492528952, ,0.0032894916857857353, ,0.017303293929381496,0.031228226645227935,-0.02859621617454041,-0.12711215905302278,0.0161494193023559,-0.024806903583037047, ,0.045742209169577074, ,0.1281338581347805, ,0.001947237561746036, ,0.12346333046022724,-0.22171193808611145,0.09174362846,-4.5303512289831485,0.1334938602708353,-1.3648292790528291, ,0.17573507696013105,-0.2758632022048569,0.03661795751724139,0.10893979122101893,0.10882580338944871,0.4357772620553011, ,0.07362508773803711
0.009043339300272976,0.01894146768369378,-0.08254444855423956, ,0.010765251664047407,0.021904897770595306,-0.08243897250838177, ,0.0034289977055580304, ,0.017303293929381496,0.031228226645227935,-0.02859621617454041,-0.12711215905302278,0.0161494193023559,-0.024806903583037047, ,0.045742209169577074, ,0.1281338581347805, ,0.001995036276062552, ,0.12346333046022724,-0.22171193808611145,0.09174362846,-4.5303512289831485,0.1334938602708353,-1.3648292790528291, ,0.17573507696013105,-0.2758632022048569,0.03661795751724139,0.10893979122101893,0.10882580338944871,0.4357772620553011, ,0.07597017288208008
0.009244806441192948,0.019299706556723594,-0.08281275193119672, ,0.010827723805450629,0.022030675723458886,-0.08246980627491968, ,0.0035683057387406623, ,0.020845314160722172,0.03760110987075226,-0.022183321208975072,0.1624025733295123,-0.06744349357377208,-0.10293292809024741, ,0.045742209169577074, ,0.14389621410098166, ,0.002044200946771243, ,0.12557935926776476,-0.22501726775627953,0.09210658966000002,-4.529093089322242,0.13458695226895884,-1.361146612834529, ,0.22328692131404887,-0.3608248728458964,0.03230996251521299,0.18552745070867105,0.08375273739221922,0.23385640023415422, ,0.07969403266906738
0.009244806441192948,0.019299706556723594,-0.08281275193119672, ,0.010889714657487259,0.02215607586953865,-0.08250092508633675, ,0.0033108616208472703, ,0.020845314160722172,0.03760110987075226,-0.022183321208975072,0.1624025733295123,-0.06744349357377208,-0.10293292809024741, ,0.04837840764051821, ,0.1758499794640938, ,0.002082584603561426, ,0.12557935926776476,-0.22501726775627953,0.09210658966000002,-4.529093089322242,0.13458695226895884,-1.361146612834529, ,0.22328692131404887,-0.3608248728458964,0.03230996251521299,0.18552745070867105,0.08375273739221922,0.23385640023415422, ,0.08198904991149902
0.009244806441192948,0.019299706556723594,-0.08281275193119672, ,0.010951227468428495,0.022281099337091596,-0.08253232780690131, ,0.0034466234668888494, ,0.020845314160722172,0.03760110987075226,-0.022183321208975072,0.1624025733295123,-0.06744349357377208,-0.10293292809024741, ,0.04837840764051821, ,0.1758499794640938, ,0.002122703393659291, ,0.12557935926776476,-0.22501726775627953,0.09210658966000002,-4.529093089322242,0.13458695226895884,-1.361146612834529, ,0.22328692131404887,-0.3608248728458964,0.03230996251521299,0.18552745070867105,0.08375273739221922,0.23385640023415422, ,0.08442115783691406
0.009244806441192948,0.019299706556723594,-0.08281275193119672, ,0.011012265476850299,0.02240574725187002,-0.0825640133037139, ,0.0035823555305740593, ,0.020845314160722172,0.03760110987075226,-0.022183321208975072,0.1624025733295123,-0.06744349357377208,-0.10293292809024741, ,0.04837840764051821, ,0.1758499794640938, ,0.0021644077404282844, ,0.12557935926776476,-0.22501726775627953,0.09210658966000002,-4.529093089322242,0.13458695226895884,-1.361146612834529, ,0.22328692131404887,-0.3608248728458964,0.03230996251521299,0.18552745070867105,0.08375273739221922,0.23385640023415422, ,0.08672618865966797
0.009244806441192948,0.019299706556723594,-0.08281275193119672, ,0.011072831911645056,0.022530020737123728,-0.08259598044670304, ,0.003718009776910953, ,0.0244135361143034,0.04142380424843415,-0.017917275413897735,-0.048655093048540224,-0.12815193165545347,-0.09946890329954013, ,0.0513125819100389, ,0.13707747378778662, ,0.002207563352552803, ,0.1280274655888939,-0.22887091146051758,0.09241640297,-4.5272058798308805,0.13472358876872428,-1.3569290575107757, ,0.26433688456398546,-0.41259539808030776,0.02955252601113173,0.18680458999498928,0.022557396971744748,0.49045971451415926, ,0.08902311325073242
0.009475588258079032,0.019693322632505953,-0.08301413582268564, ,0.0111329299920333,0.02265392091360294,-0.08262822810862328, ,0.003414798466807935, ,0.0244135361143034,0.04142380424843415,-0.017917275413897735,-0.048655093048540224,-0.12815193165545347,-0.09946890329954013, ,0.0513125819100389, ,0.13707747378778662, ,0.0022401913286137524, ,0.1280274655888939,-0.22887091146051758,0.09241640297,-4.5272058798308805,0.13472358876872428,-1.3569290575107757, ,0.26433688456398546,-0.41259539808030776,0.02955252601113173,0.18680458999498928,0.022557396971744748,0.49045971451415926, ,0.09165501594543457
0.009475588258079032,0.019693322632505953,-0.08301413582268564, ,0.01119256292757544,0.022777448899560727,-0.0826607551650504, ,0.0035474941488352345, ,0.0244135361143034,0.04142380424843415,-0.017917275413897735,-0.048655093048540224,-0.12815193165545347,-0.09946890329954013, ,0.0513125819100389, ,0.13707747378778662, ,0.0022745940344090546, ,0.1280274655888939,-0.22887091146051758,0.09241640297,-4.5272058798308805,0.13472358876872428,-1.3569290575107757, ,0.26433688456398546,-0.41259539808030776,0.02955252601113173,0.18680458999498928,0.022557396971744748,0.49045971451415926, ,0.09400415420532227
0.009475588258079032,0.019693322632505953,-0.08301413582268564, ,0.011251733918183479,0.02290060581075567,-0.08269356049437923, ,0.0036802346844338907, ,0.0244135361143034,0.04142380424843415,-0.017917275413897735,-0.048655093048540224,-0.12815193165545347,-0.09946890329954013, ,0.0513125819100389, ,0.13707747378778662, ,0.002310636102358409, ,0.1280274655888939,-0.22887091146051758,0.09241640297,-4.5272058798308805,0.13472358876872428,-1.3569290575107757, ,0.26433688456398546,-0.41259539808030776,0.02955252601113173,0.18680458999498928,0.022557396971744748,0.49045971451415926, ,0.09645509719848633
0.009475588258079032,0.019693322632505953,-0.08301413582268564, ,0.011310446154132644,0.02302339276045439,-0.08272664297781952, ,0.0038129677013599298, ,0.02744716148820431,0.04654741960315488,-0.011933398431459094,-0.3352296094156914,-0.16429918035585703,0.023265755562987493, ,0.05533909055627571, ,0.3733270837383761, ,0.0023481943923334475, ,0.1310470541427157,-0.23362811491103988,0.09271454967000001,-4.525947740169974,0.13486022526848973,-1.3496077100616812, ,0.3061191663176477,-0.48416806917587135,0.02552694153846154,0.08009704218190476,0.0,0.8354140703293385, ,0.09874105453491211
0.009750756853350145,0.020161214987007472,-0.0831784465159044, ,0.011368702816073214,0.023145810859433843,-0.082760001499393, ,0.00342062244216453, ,0.02744716148820431,0.04654741960315488,-0.011933398431459094,-0.3352296094156914,-0.16429918035585703,0.023265755562987493, ,0.05533909055627571, ,0.3733270837383761, ,0.0023743511740366443, ,0.1310470541427157,-0.23362811491103988,0.09271454967000001,-4.525947740169974,0.13486022526848973,-1.3496077100616812, ,0.3061191663176477,-0.48416806917587135,0.02552694153846154,0.08009704218190476,0.0,0.8354140703293385, ,0.10135912895202637
0.009750756853350145,0.020161214987007472,-0.0831784465159044, ,0.011426507075042062,0.02326786121598449,-0.08279363494593026, ,0.0035506998664916203, ,0.02744716148820431,0.04654741960315488,-0.011933398431459094,-0.3352296094156914,-0.16429918035585703,0.023265755562987493, ,0.05533909055627571, ,0.3733270837383761, ,0.0024023594762379533, ,0.1310470541427157,-0.23362811491103988,0.09271454967000001,-4.525947740169974,0.13486022526848973,-1.3496077100616812, ,0.3061191663176477,-0.48416806917587135,0.02552694153846154,0.08009704218190476,0.0,0.8354140703293385, ,0.10359501838684082
0.009750756853350145,0.020161214987007472,-0.0831784465159044, ,0.011483862092474487,0.023389544935912374,-0.08282754220706641, ,0.003680883299269027, ,0.02744716148820431,0.04654741960315488,-0.011933398431459094,-0.3352296094156914,-0.16429918035585703,0.023265755562987493, ,0.05533909055627571, ,0.3733270837383761, ,0.0024320925884014663, ,0.1310470541427157,-0.23362811491103988,0.09271454967000001,-4.525947740169974,0.13486022526848973,-1.3496077100616812, ,0.3061191663176477,-0.48416806917587135,0.02552694153846154,0.08009704218190476,0.0,0.8354140703293385, ,0.10583901405334473
0.009750756853350145,0.020161214987007472,-0.0831784465159044, ,0.011540771020215881,0.023510863122541924,-0.08286172217523892, ,0.003811116326936171, ,0.02744716148820431,0.04654741960315488,-0.011933398431459094,-0.3352296094156914,-0.16429918035585703,0.023265755562987493, ,0.05533909055627571, ,0.3733270837383761, ,0.002463434037004528, ,0.1310470541427157,-0.23362811491103988,0.09271454967000001,-4.525947740169974,0.13486022526848973,-1.3496077100616812, ,0.3061191663176477,-0.48416806917587135,0.02552694153846154,0.08009704218190476,0.0,0.8354140703293385, ,0.1082150936126709
0.010025217700644733,0.020658788575223054,-0.0832715035332757, ,0.011597237000533375,0.023631816876718358,-0.0828961737456834, ,0.003383934752646468, ,0.027323786775575273,0.05148915629777882,-0.007767004303118434,0.29890852779891536,-0.018287982347486728,0.007844666034402887, ,0.058805177457931866, ,0.2994674577662667, ,0.0024838896084632377, ,0.13434466108000956,-0.2388409596011414,0.09295565961,-4.524479910565582,0.13677313626520587,-1.3443882252817643, ,0.33651397715769776,-0.5422682374769758,0.023253739445255477,0.14751209989311223,0.25048326258656306,0.29982239392863025, ,0.11063909530639648
0.010025217700644733,0.020658788575223054,-0.0832715035332757, ,0.011653263166127623,0.023752407296810548,-0.08293089581643102, ,0.0035124097780598125, ,0.027323786775575273,0.05148915629777882,-0.007767004303118434,0.29890852779891536,-0.018287982347486728,0.007844666034402887, ,0.058805177457931866, ,0.2994674577662667, ,0.0025062487425849024, ,0.13434466108000956,-0.2388409596011414,0.09295565961,-4.524479910565582,0.13677313626520587,-1.3443882252817643, ,0.33651397715769776,-0.5422682374769758,0.023253739445255477,0.14751209989311223,0.25048326258656306,0.29982239392863025, ,0.1131429672241211
0.010025217700644733,0.020658788575223054,-0.0832715035332757, ,0.011708852640144379,0.02387263547871316,-0.08296588728830417, ,0.0036409943446491936, ,0.027323786775575273,0.05148915629777882,-0.007767004303118434,0.29890852779891536,-0.018287982347486728,0.007844666034402887, ,0.058805177457931866, ,0.2994674577662667, ,0.002530392266033079, ,0.13434466108000956,-0.2388409596011414,0.09295565961,-4.524479910565582,0.13677313626520587,-1.3443882252817643, ,0.33651397715769776,-0.5422682374769758,0.023253739445255477,0.14751209989311223,0.25048326258656306,0.29982239392863025, ,0.11549806594848633
0.010025217700644733,0.020658788575223054,-0.0832715035332757, ,0.011764008536186312,0.02399250251584975,-0.08300114706491424, ,0.003769633248431078, ,0.027323786775575273,0.05148915629777882,-0.007767004303118434,0.29890852779891536,-0.018287982347486728,0.007844666034402887, ,0.058805177457931866, ,0.2994674577662667, ,0.0025562097864997037, ,0.13434466108000956,-0.2388409596011414,0.09295565961,-4.524479910565582,0.13677313626520587,-1.3443882252817643, ,0.33651397715769776,-0.5422682374769758,0.023253739445255477,0.14751209989311223,0.25048326258656306,0.29982239392863025, ,0.11777114868164062
0.01030176927413831,0.021167670702793732,-0.08333806397576672, ,0.01181873395832458,0.024112009499174844,-0.08303667405265712, ,0.003325830525852954, ,0.03096918365788638,0.055607235478671614,-0.007393716498136753,0.23355061131136215,-0.20192192005204446,0.07583632161571378, ,0.0640774688769083, ,0.3087366998257887, ,0.002571916332200791, ,0.13768860441454878,-0.24423914988022435,0.09317732520000001,-4.524060530678613,0.13854941076215663,-1.3414260060622274, ,0.3635898144002712,-0.5894219972575825,0.024505863876923082,0.04929985299547861,0.09923491162320679,0.3764508318492099, ,0.12009000778198242
0.01030176927413831,0.021167670702793732,-0.08333806397576672, ,0.011873032001110598,0.024231157517176825,-0.08307246716071068, ,0.003453166617358534, ,0.03096918365788638,0.055607235478671614,-0.007393716498136753,0.23355061131136215,-0.20192192005204446,0.07583632161571378, ,0.0640774688769083, ,0.3087366998257887, ,0.0025895413379039456, ,0.13768860441454878,-0.24423914988022435,0.09317732520000001,-4.524060530678613,0.13854941076215663,-1.3414260060622274, ,0.3635898144002712,-0.5894219972575825,0.024505863876923082,0.04929985299547861,0.09923491162320679,0.3764508318492099, ,0.1223611831665039
0.01030176927413831,0.021167670702793732,-0.08333806397576672, ,0.011926905749587786,0.024349947655880493,-0.08310852530103131, ,0.0035805925729106326, ,0.03096918365788638,0.055607235478671614,-0.007393716498136753,0.23355061131136215,-0.20192192005204446,0.07583632161571378, ,0.0640774688769083, ,0.3087366998257887, ,0.0026089737150609394, ,0.13768860441454878,-0.24423914988022435,0.09317732520000001,-4.524060530678613,0.13854941076215663,-1.3414260060622274, ,0.3635898144002712,-0.5894219972575825,0.024505863876923082,0.04929985299547861,0.09923491162320679,0.3764508318492099, ,0.12458014488220215
0.01030176927413831,0.021167670702793732,-0.08333806397576672, ,0.011980358279303062,0.024468380998849383,-0.08314484738834985, ,0.0037080563852779796, ,0.03096918365788638,0.055607235478671614,-0.007393716498136753,0.23355061131136215,-0.20192192005204446,0.07583632161571378, ,0.0640774688769083, ,0.3087366998257887, ,0.0026301099202574213, ,0.13768860441454878,-0.24423914988022435,0.09317732520000001,-4.524060530678613,0.13854941076215663,-1.3414260060622274, ,0.3635898144002712,-0.5894219972575825,0.024505863876923082,0.04929985299547861,0.09923491162320679,0.3764508318492099, ,0.12705016136169434
0.010608496593684938,0.021706434895633907,-0.08341167185219978, ,0.012033392656318765,0.024586458627188574,-0.08318143234016927, ,0.0032214710485316323, ,0.03096918365788638,0.055607235478671614,-0.007393716498136753,0.23355061131136215,-0.20192192005204446,0.07583632161571378, ,0.0640774688769083, ,0.3087366998257887, ,0.0026412676773946704, ,0.1411947251394467,-0.24993852674140205,0.09341843514,-4.523431460848159,0.13868604726192205,-1.3369634145180522, ,0.3905223932447357,-0.6455574255678285,0.025942689771986976,0.049266927956962143,0.02496385849017415,0.4990548570111652, ,0.1297910213470459
0.010608496593684938,0.021706434895633907,-0.08341167185219978, ,0.012086011937224113,0.024704181619547325,-0.08321827907676022, ,0.0033476764743205893, ,0.03392444394481524,0.06078394695822866,-0.006844335708308365,0.15636643686109863,-0.28168769896157864,0.07084784559449825, ,0.06994570062608345, ,0.3221776253992281, ,0.002654349321782187, ,0.1411947251394467,-0.24993852674140205,0.09341843514,-4.523431460848159,0.13868604726192205,-1.3369634145180522, ,0.3905223932447357,-0.6455574255678285,0.025942689771986976,0.049266927956962143,0.02496385849017415,0.4990548570111652, ,0.13245296478271484
0.010608496593684938,0.021706434895633907,-0.08341167185219978, ,0.012138219169147117,0.024821551052121398,-0.08325538652115905, ,0.00347396386437547, ,0.03392444394481524,0.06078394695822866,-0.006844335708308365,0.15636643686109863,-0.28168769896157864,0.07084784559449825, ,0.06994570062608345, ,0.3221776253992281, ,0.002669251404374792, ,0.1411947251394467,-0.24993852674140205,0.09341843514,-4.523431460848159,0.13868604726192205,-1.3369634145180522, ,0.3905223932447357,-0.6455574255678285,0.025942689771986976,0.049266927956962143,0.02496385849017415,0.4990548570111652, ,0.13510608673095703
0.010608496593684938,0.021706434895633907,-0.08341167185219978, ,0.012190017389766055,0.02493856799865575,-0.0832927535991627, ,0.003600282485443614, ,0.03392444394481524,0.06078394695822866,-0.006844335708308365,0.15636643686109863,-0.28168769896157864,0.07084784559449825, ,0.06994570062608345, ,0.3221776253992281, ,0.002685876959393878, ,0.1411947251394467,-0.24993852674140205,0.09341843514,-4.523431460848159,0.13868604726192205,-1.3369634145180522, ,0.3905223932447357,-0.6455574255678285,0.025942689771986976,0.049266927956962143,0.02496385849017415,0.4990548570111652, ,0.13744711875915527
0.010987681289774204,0.022378564158102583,-0.0834998838902163, ,0.01224140962732132,0.025055233530447227,-0.08333037923932698, ,0.0029605954637352324, ,0.03549302831164952,0.06378383890128936,-0.009130703589430335,0.1588283087310268,-0.23956112636141424,-0.18308273136116696, ,0.07356291804812548, ,0.2874299303385866, ,0.0026906965822770597, ,0.14549628735038977,-0.25698165912269477,0.09372047071,-4.520286111695891,0.13868604726192205,-1.3310825452279318, ,0.40040903611169104,-0.663614975933362,0.02960745635687733,0.3141440786936797,0.0,0.5482619135905521, ,0.139815092086792
0.010987681289774204,0.022378564158102583,-0.0834998838902163, ,0.012292398900626987,0.025171548716347008,-0.08336826237296195, ,0.003085510494304879, ,0.03549302831164952,0.06378383890128936,-0.009130703589430335,0.1588283087310268,-0.23956112636141424,-0.18308273136116696, ,0.07356291804812548, ,0.2874299303385866, ,0.0026975037186913325, ,0.14549628735038977,-0.25698165912269477,0.09372047071,-4.520286111695891,0.13868604726192205,-1.3310825452279318, ,0.40040903611169104,-0.663614975933362,0.02960745635687733,0.3141440786936797,0.0,0.5482619135905521, ,0.14216399192810059
0.010987681289774204,0.022378564158102583,-0.0834998838902163, ,0.012342988219082567,0.025287514622762994,-0.08340640193412967, ,0.0032105433425812942, ,0.03549302831164952,0.06378383890128936,-0.009130703589430335,0.1588283087310268,-0.23956112636141424,-0.18308273136116696, ,0.07356291804812548, ,0.2874299303385866, ,0.0027061993055369255, ,0.14549628735038977,-0.25698165912269477,0.09372047071,-4.520286111695891,0.13868604726192205,-1.3310825452279318, ,0.40040903611169104,-0.663614975933362,0.02960745635687733,0.3141440786936797,0.0,0.5482619135905521, ,0.1446981430053711
0.010987681289774204,0.022378564158102583,-0.0834998838902163, ,0.012393180582684729,0.0254031323136629,-0.08344479685963942, ,0.0033356371761538, ,0.03549302831164952,0.06378383890128936,-0.009130703589430335,0.1588283087310268,-0.23956112636141424,-0.18308273136116696, ,0.07356291804812548, ,0.2874299303385866, ,0.002716689936713873, ,0.14549628735038977,-0.25698165912269477,0.09372047071,-4.520286111695891,0.13868604726192205,-1.3310825452279318, ,0.40040903611169104,-0.663614975933362,0.02960745635687733,0.3141440786936797,0.0,0.5482619135905521, ,0.14711618423461914
0.011358340850199345,0.023050511696381885,-0.0835918621857546, ,0.012442978982038794,0.025518402850576213,-0.0834834460890458, ,0.0026979030145682314, ,0.03631236012721563,0.06679959365088227,-0.01074919084367713,0.2532426713635087,-0.22919916412828364,0.03948925636022597, ,0.07678748800244335, ,0.3415612789719014, ,0.0027163819543836168, ,0.14549628735038977,-0.25698165912269477,0.09372047071,-4.520286111695891,0.13868604726192205,-1.3310825452279318, ,0.40040903611169104,-0.663614975933362,0.02960745635687733,0.3141440786936797,0.0,0.5482619135905521, ,0.1493830680847168
0.011358340850199345,0.023050511696381885,-0.0835918621857546, ,0.012492386398370721,0.02563332729259729,-0.08352234856464462, ,0.0028216711099808708, ,0.03631236012721563,0.06679959365088227,-0.01074919084367713,0.2532426713635087,-0.22919916412828364,0.03948925636022597, ,0.07678748800244335, ,0.3415612789719014, ,0.0027180801665706695, ,0.14975151316408747,-0.26396300964099373,0.09403158031000002,-4.5181892122610465,0.13936922976074928,-1.326003801676715, ,0.41621465595820517,-0.6876589968005129,0.03270803186858317,0.11184149682897152,0.09422352415522385,0.46264026666679, ,0.15170502662658691
0.011358340850199345,0.023050511696381885,-0.0835918621857546, ,0.012541405803538396,0.025747906696387587,-0.08356150323146934, ,0.0029455906260001893, ,0.03631236012721563,0.06679959365088227,-0.01074919084367713,0.2532426713635087,-0.22919916412828364,0.03948925636022597, ,0.07678748800244335, ,0.3415612789719014, ,0.002721691443704471, ,0.14975151316408747,-0.26396300964099373,0.09403158031000002,-4.5181892122610465,0.13936922976074928,-1.326003801676715, ,0.41621465595820517,-0.6876589968005129,0.03270803186858317,0.11184149682897152,0.09422352415522385,0.46264026666679, ,0.15393996238708496
0.011358340850199345,0.023050511696381885,-0.0835918621857546, ,0.012590040160043703,0.025862142116178367,-0.0836009090372882, ,0.0030695977998621703, ,0.03631236012721563,0.06679959365088227,-0.01074919084367713,0.2532426713635087,-0.22919916412828364,0.03948925636022597, ,0.07678748800244335, ,0.3415612789719014, ,0.0027271274805194356, ,0.14975151316408747,-0.26396300964099373,0.09403158031000002,-4.5181892122610465,0.13936922976074928,-1.326003801676715, ,0.41621465595820517,-0.6876589968005129,0.03270803186858317,0.11184149682897152,0.09422352415522385,0.46264026666679, ,0.15619397163391113
0.011358340850199345,0.023050511696381885,-0.0835918621857546, ,0.012638292421043957,0.02597603460377339,-0.08364056493260066, ,0.00319363934453006, ,0.03631236012721563,0.06679959365088227,-0.01074919084367713,0.2532426713635087,-0.22919916412828364,0.03948925636022597, ,0.07678748800244335, ,0.3415612789719014, ,0.0027343045861195994, ,0.14975151316408747,-0.26396300964099373,0.09403158031000002,-4.5181892122610465,0.13936922976074928,-1.326003801676715, ,0.41621465595820517,-0.6876589968005129,0.03270803186858317,0.11184149682897152,0.09422352415522385,0.46264026666679, ,0.15843510627746582
0.011718417174017125,0.02372276740751039,-0.08370594060861065, ,0.012686165530363686,0.02608958520855114,-0.08368046987063377, ,0.002557149221892992, ,0.036793206079413034,0.06877638356075474,-0.01312202817084176,0.21864103428558296,-0.25122880564156036,0.1389392162163459, ,0.0790956292889473, ,0.333046264456614, ,0.0027316204139343474, ,0.15387545251892334,-0.2708439646319278,0.09436861571,-4.517560142430592,0.14046232175887277,-1.3215043480570092, ,0.41621465595820517,-0.6977716291064029,0.03611975401360545,0.01311780824182433,0.09406959116255537,0.49271244000468406, ,0.16150617599487305
0.011718417174017125,0.02372276740751039,-0.08370594060861065, ,0.012733662422506294,0.02620279497746771,-0.0837206228073392, ,0.002679827462596752, ,0.036793206079413034,0.06877638356075474,-0.01312202817084176,0.21864103428558296,-0.25122880564156036,0.1389392162163459, ,0.0790956292889473, ,0.333046264456614, ,0.002730847384809906, ,0.15387545251892334,-0.2708439646319278,0.09436861571,-4.517560142430592,0.14046232175887277,-1.3215043480570092, ,0.41621465595820517,-0.6977716291064029,0.03611975401360545,0.01311780824182433,0.09406959116255537,0.49271244000468406, ,0.1638951301574707
0.011718417174017125,0.02372276740751039,-0.08370594060861065, ,0.012780786022665622,0.026315664955059208,-0.08376102270138942, ,0.002802637918035132, ,0.036793206079413034,0.06877638356075474,-0.01312202817084176,0.21864103428558296,-0.25122880564156036,0.1389392162163459, ,0.0790956292889473, ,0.333046264456614, ,0.002731903127945571, ,0.15387545251892334,-0.2708439646319278,0.09436861571,-4.517560142430592,0.14046232175887277,-1.3215043480570092, ,0.41621465595820517,-0.6977716291064029,0.03611975401360545,0.01311780824182433,0.09406959116255537,0.49271244000468406, ,0.16615009307861328
0.011718417174017125,0.02372276740751039,-0.08370594060861065, ,0.012831806524551922,0.02641915815180135,-0.08380180615860777, ,0.002918792403624916, ,0.036793206079413034,0.06877638356075474,-0.01312202817084176,0.21864103428558296,-0.25122880564156036,0.1389392162163459, ,0.0790956292889473, ,0.333046264456614, ,0.002734611668172808, ,0.15387545251892334,-0.2708439646319278,0.09436861571,-4.517560142430592,0.14046232175887277,-1.3215043480570092, ,0.41621465595820517,-0.6977716291064029,0.03611975401360545,0.01311780824182433,0.09406959116255537,0.49271244000468406, ,0.16844797134399414
0.012074319769579418,0.024398352037597923,-0.08383210365750128, ,0.01287812718053867,0.02653133762465739,-0.08384272198119333, ,0.002279439978879564, ,0.03590953048426135,0.06881811069108282,-0.012602332471820517,0.18741017824321612,-0.21611131401145098,0.0010313223608571006, ,0.07863997407438868, ,0.28605362195755585, ,0.002728109215468619, ,0.15786810541489743,-0.27767086049274226,0.09472250288,-4.51651169271317,0.14114550425769998,-1.3161805682853709, ,0.4021056845697914,-0.692678405536283,0.03603803511312218,0.15379274400268794,0.06904014803702639,0.5363620557279514, ,0.17226600646972656
0.012074319769579418,0.024398352037597923,-0.08383210365750128, ,0.012924084427202009,0.02664317998215389,-0.08388388129570455, ,0.002400840144162395, ,0.03590953048426135,0.06881811069108282,-0.012602332471820517,0.18741017824321612,-0.21611131401145098,0.0010313223608571006, ,0.07863997407438868, ,0.28605362195755585, ,0.0027234997919290942, ,0.15786810541489743,-0.27767086049274226,0.09472250288,-4.51651169271317,0.14114550425769998,-1.3161805682853709, ,0.4021056845697914,-0.692678405536283,0.03603803511312218,0.15379274400268794,0.06904014803702639,0.5363620557279514, ,0.17455816268920898
0.012074319769579418,0.024398352037597923,-0.08383210365750128, ,0.012969681125481048,0.02675468626117854,-0.0839252830823487, ,0.0025224324244812134, ,0.03590953048426135,0.06881811069108282,-0.012602332471820517,0.18741017824321612,-0.21611131401145098,0.0010313223608571006, ,0.07863997407438868, ,0.28605362195755585, ,0.0027207071896034295, ,0.15786810541489743,-0.27767086049274226,0.09472250288,-4.51651169271317,0.14114550425769998,-1.3161805682853709, ,0.4021056845697914,-0.692678405536283,0.03603803511312218,0.15379274400268794,0.06904014803702639,0.5363620557279514, ,0.17692804336547852
0.012424867998059034,0.025077945003050574,-0.0839462426954795, ,0.01301492012782839,0.026865857496393843,-0.08396692632369887, ,0.0018828755700190632, ,0.03428089397248026,0.06711294848579784,-0.009497001184220017,0.2427484930586007,-0.17163741206520566,0.011928634075244502, ,0.07595736025891674, ,0.297298220689944, ,0.0027092300441296712, ,0.16184531284512305,-0.2845054790864309,0.09507120489000001,-4.514834173165294,0.1422385962558235,-1.3112727209649626, ,0.39213612214244126,-0.6778352968462199,0.03297890583850932,0.15513782130446305,0.11435131983640784,0.472654647531405, ,0.1801290512084961
0.012424867998059034,0.025077945003050574,-0.0839462426954795, ,0.013059804278220562,0.026976694720230728,-0.08400881000469655, ,0.002003074945312765, ,0.03428089397248026,0.06711294848579784,-0.009497001184220017,0.2427484930586007,-0.17163741206520566,0.011928634075244502, ,0.07595736025891674, ,0.297298220689944, ,0.002699687407659172, ,0.16184531284512305,-0.2845054790864309,0.09507120489000001,-4.514834173165294,0.1422385962558235,-1.3112727209649626, ,0.39213612214244126,-0.6778352968462199,0.03297890583850932,0.15513782130446305,0.11435131983640784,0.472654647531405, ,0.18242716789245605
0.012424867998059034,0.025077945003050574,-0.0839462426954795, ,0.013104336412122802,0.02708719896288483,-0.08405093311266068, ,0.002123614579971974, ,0.03428089397248026,0.06711294848579784,-0.009497001184220017,0.2427484930586007,-0.17163741206520566,0.011928634075244502, ,0.07595736025891674, ,0.297298220689944, ,0.002692006436623343, ,0.16184531284512305,-0.2845054790864309,0.09507120489000001,-4.514834173165294,0.1422385962558235,-1.3112727209649626, ,0.39213612214244126,-0.6778352968462199,0.03297890583850932,0.15513782130446305,0.11435131983640784,0.472654647531405, ,0.1846311092376709
0.012424867998059034,0.025077945003050574,-0.0839462426954795, ,0.013148519356502771,0.027197371252310452,-0.08409329463729096, ,0.0022443848128651596, ,0.03428089397248026,0.06711294848579784,-0.009497001184220017,0.2427484930586007,-0.17163741206520566,0.011928634075244502, ,0.07595736025891674, ,0.297298220689944, ,0.0026861166784159984, ,0.16184531284512305,-0.2845054790864309,0.09507120489000001,-4.514834173165294,0.1422385962558235,-1.3112727209649626, ,0.39213612214244126,-0.6778352968462199,0.03297890583850932,0.15513782130446305,0.11435131983640784,0.472654647531405, ,0.18688106536865234
0.012763865133673566,0.0257678578679966,-0.08403958773248218, ,0.01319235592980052,0.02730721261421738,-0.08413589357067518, ,0.0016007786266526694, ,0.03155746726587229,0.06591633159889909,-0.008875261914680377,0.23694325982838743,-0.16536162494318396,0.056664741585228995, ,0.0736179786855548, ,0.2889404356037488, ,0.002672021379042449, ,0.16184531284512305,-0.2845054790864309,0.09507120489000001,-4.514834173165294,0.1422385962558235,-1.3112727209649626, ,0.39213612214244126,-0.6778352968462199,0.03297890583850932,0.15513782130446305,0.11435131983640784,0.472654647531405, ,0.18933415412902832
0.012763865133673566,0.0257678578679966,-0.08403958773248218, ,0.013235848941936766,0.027416724072066176,-0.08417872890729258, ,0.001720723319047273, ,0.03155746726587229,0.06591633159889909,-0.008875261914680377,0.23694325982838743,-0.16536162494318396,0.056664741585228995, ,0.0736179786855548, ,0.2889404356037488, ,0.0026598252500681517, ,0.16571440201510954,-0.29147138413898144,0.09540694400000001,-4.513576033504387,0.14333168825394704,-1.306528231124835, ,0.3594581119639045,-0.663614975933362,0.03217941721212122,0.10461998820354045,0.10391575581114958,0.4546193254262418, ,0.19172215461730957
0.012763865133673566,0.0257678578679966,-0.08403958773248218, ,0.013279001194296189,0.027525906647064544,-0.08422179964401975, ,0.001841005663012001, ,0.03155746726587229,0.06591633159889909,-0.008875261914680377,0.23694325982838743,-0.16536162494318396,0.056664741585228995, ,0.0736179786855548, ,0.2889404356037488, ,0.0026494604451687068, ,0.16571440201510954,-0.29147138413898144,0.09540694400000001,-4.513576033504387,0.14333168825394704,-1.306528231124835, ,0.3594581119639045,-0.663614975933362,0.03217941721212122,0.10461998820354045,0.10391575581114958,0.4546193254262418, ,0.19398999214172363
0.012763865133673566,0.0257678578679966,-0.08403958773248218, ,0.01332181547971723,0.02763476135816434,-0.08426510478013571, ,0.0019615032931486745, ,0.03155746726587229,0.06591633159889909,-0.008875261914680377,0.23694325982838743,-0.16536162494318396,0.056664741585228995, ,0.0736179786855548, ,0.2889404356037488, ,0.0026408609807684565, ,0.16571440201510954,-0.29147138413898144,0.09540694400000001,-4.513576033504387,0.14333168825394704,-1.306528231124835, ,0.3594581119639045,-0.663614975933362,0.03217941721212122,0.10461998820354045,0.10391575581114958,0.4546193254262418, ,0.19637298583984375
0.012763865133673566,0.0257678578679966,-0.08403958773248218, ,0.013364294582496114,0.027743289222057658,-0.08430864331732493, ,0.00208212282667376, ,0.03155746726587229,0.06591633159889909,-0.008875261914680377,0.23694325982838743,-0.16536162494318396,0.056664741585228995, ,0.0736179786855548, ,0.2889404356037488, ,0.0026339629788660526, ,0.16571440201510954,-0.29147138413898144,0.09540694400000001,-4.513576033504387,0.14333168825394704,-1.306528231124835, ,0.3594581119639045,-0.663614975933362,0.03217941721212122,0.10461998820354045,0.10391575581114958,0.4546193254262418, ,0.19869399070739746
0.01307424287818664,0.026422960173982567,-0.08413598921786214, ,0.013406441278367579,0.027851491253174748,-0.08435241425968316, ,0.0014825304786168765, ,0.029927763347756056,0.06423302745567311,-0.010395209909808021,0.19657314913748664,-0.1673927489574832,0.04194212919300489, ,0.07162131822432143, ,0.2581885652851152, ,0.0026199211191069165, ,0.169205077274259,-0.29802026161632383,0.09573620166,-4.512527583786964,0.1441515072525397,-1.3018059416977366, ,0.33297172476656417,-0.6368922252246362,0.033323873472803356,0.10741041555284449,0.07092742927138017,0.4641006449255085, ,0.20179319381713867
0.01307424287818664,0.026422960173982567,-0.08413598921786214, ,0.013448258334508049,0.027959368463680637,-0.0843964166137202, ,0.0016025793031028681, ,0.029927763347756056,0.06423302745567311,-0.010395209909808021,0.19657314913748664,-0.1673927489574832,0.04194212919300489, ,0.07162131822432143, ,0.2581885652851152, ,0.0026076639887936148, ,0.169205077274259,-0.29802026161632383,0.09573620166,-4.512527583786964,0.1441515072525397,-1.3018059416977366, ,0.33297172476656417,-0.6368922252246362,0.033323873472803356,0.10741041555284449,0.07092742927138017,0.4641006449255085, ,0.20416617393493652
0.01307424287818664,0.026422960173982567,-0.08413598921786214, ,0.013489748509529487,0.028066921863473003,-0.08444064938836415, ,0.001722809561640573, ,0.029927763347756056,0.06423302745567311,-0.010395209909808021,0.19657314913748664,-0.1673927489574832,0.04194212919300489, ,0.07162131822432143, ,0.2581885652851152, ,0.002597130007517983, ,0.169205077274259,-0.29802026161632383,0.09573620166,-4.512527583786964,0.1441515072525397,-1.3018059416977366, ,0.33297172476656417,-0.6368922252246362,0.033323873472803356,0.10741041555284449,0.07092742927138017,0.4641006449255085, ,0.20653796195983887
0.01307424287818664,0.026422960173982567,-0.08413598921786214, ,0.013530914553462317,0.028174152460180825,-0.08448511159496634, ,0.00184312503006016, ,0.029927763347756056,0.06423302745567311,-0.010395209909808021,0.19657314913748664,-0.1673927489574832,0.04194212919300489, ,0.07162131822432143, ,0.2581885652851152, ,0.0025882593607243617, ,0.169205077274259,-0.29802026161632383,0.09573620166,-4.512527583786964,0.1441515072525397,-1.3018059416977366, ,0.33297172476656417,-0.6368922252246362,0.033323873472803356,0.10741041555284449,0.07092742927138017,0.4641006449255085, ,0.20881319046020508
0.013356858500903224,0.02704579505572742,-0.0842369235983525, ,0.013571759207774182,0.02828106125916053,-0.08452980224730144, ,0.0012875724485122558, ,0.02707507457937522,0.06121567771601599,-0.010652050292900981,0.18856378940258003,-0.14679710864080797,0.018846435315373552, ,0.06777820473538937, ,0.23896797618513896, ,0.002573135094303291, ,0.1723250613554457,-0.30417527971708075,0.09606027416000001,-4.511269444126056,0.14469805325160143,-1.2972692101639478, ,0.2965529423702212,-0.6006135541675365,0.03264100721311476,0.12079549418716211,0.05373471953615339,0.4355853777424727, ,0.21206998825073242
0.013356858500903224,0.02704579505572742,-0.0842369235983525, ,0.013612285205341376,0.02838764926349627,-0.0845747203615747, ,0.0014070970718079495, ,0.02707507457937522,0.06121567771601599,-0.010652050292900981,0.18856378940258003,-0.14679710864080797,0.018846435315373552, ,0.06777820473538937, ,0.23896797618513896, ,0.00255973235841254, ,0.1723250613554457,-0.30417527971708075,0.09606027416000001,-4.511269444126056,0.14469805325160143,-1.2972692101639478, ,0.2965529423702212,-0.6006135541675365,0.03264100721311476,0.12079549418716211,0.05373471953615339,0.4355853777424727, ,0.2144770622253418
0.013356858500903224,0.02704579505572742,-0.0842369235983525, ,0.01365249527047059,0.02849391747399642,-0.08461986495642072, ,0.0015267952454512746, ,0.02707507457937522,0.06121567771601599,-0.010652050292900981,0.18856378940258003,-0.14679710864080797,0.018846435315373552, ,0.06777820473538937, ,0.23896797618513896, ,0.0025479944366743434, ,0.1723250613554457,-0.30417527971708075,0.09606027416000001,-4.511269444126056,0.14469805325160143,-1.2972692101639478, ,0.2965529423702212,-0.6006135541675365,0.03264100721311476,0.12079549418716211,0.05373471953615339,0.4355853777424727, ,0.21674108505249023
0.013356858500903224,0.02704579505572742,-0.0842369235983525, ,0.013692392118863812,0.028599866889194452,-0.08466523505291133, ,0.0016465639296618915, ,0.02707507457937522,0.06121567771601599,-0.010652050292900981,0.18856378940258003,-0.14679710864080797,0.018846435315373552, ,0.06777820473538937, ,0.23896797618513896, ,0.0025378660040112824, ,0.1723250613554457,-0.30417527971708075,0.09606027416000001,-4.511269444126056,0.14469805325160143,-1.2972692101639478, ,0.2965529423702212,-0.6006135541675365,0.03264100721311476,0.12079549418716211,0.05373471953615339,0.4355853777424727, ,0.2190690040588379
0.01360116680335701,0.027617898794087766,-0.08433537103843111, ,0.013731978457650595,0.028705498505345328,-0.08471082967455319, ,0.0011579956857714145, ,0.02382891842137521,0.05717962004379461,-0.01065260988455242,0.19647819577496486,-0.10211067208561769,0.020429570857124532, ,0.06285542457765866, ,0.22142780004232834, ,0.002522534111586395, ,0.17501257239567583,-0.3097742610508935,0.09636490231000001,-4.510220994408634,0.14538123575042863,-1.2934156477148395, ,0.25999162070813914,-0.5549528746109402,0.03129432518664047,0.11718280230446025,0.0712267269596829,0.38400995601393956, ,0.22198915481567383
0.01360116680335701,0.027617898794087766,-0.08433537103843111, ,0.013771256985364128,0.028810813316425786,-0.08475664784729302, ,0.0012764990706244292, ,0.02382891842137521,0.05717962004379461,-0.01065260988455242,0.19647819577496486,-0.10211067208561769,0.020429570857124532, ,0.06285542457765866, ,0.22142780004232834, ,0.002508841418828571, ,0.17501257239567583,-0.3097742610508935,0.09636490231000001,-4.510220994408634,0.14538123575042863,-1.2934156477148395, ,0.25999162070813914,-0.5549528746109402,0.03129432518664047,0.11718280230446025,0.0712267269596829,0.38400995601393956, ,0.2242891788482666
0.01360116680335701,0.027617898794087766,-0.08433537103843111, ,0.01381023039194041,0.028915812314134096,-0.08480268859952078, ,0.0013952321643702246, ,0.02382891842137521,0.05717962004379461,-0.01065260988455242,0.19647819577496486,-0.10211067208561769,0.020429570857124532, ,0.06285542457765866, ,0.22142780004232834, ,0.0024967369704105456, ,0.17501257239567583,-0.3097742610508935,0.09636490231000001,-4.510220994408634,0.14538123575042863,-1.2934156477148395, ,0.25999162070813914,-0.5549528746109402,0.03129432518664047,0.11718280230446025,0.0712267269596829,0.38400995601393956, ,0.22670698165893555
0.01360116680335701,0.027617898794087766,-0.08433537103843111, ,0.013848901358732797,0.029020496487886807,-0.08484895096206842, ,0.0015140729964374002, ,0.02382891842137521,0.05717962004379461,-0.01065260988455242,0.19647819577496486,-0.10211067208561769,0.020429570857124532, ,0.06285542457765866, ,0.22142780004232834, ,0.002486170691120512, ,0.1774297877853081,-0.31519561952859915,0.09667341933000001,-4.508962854747727,0.14606441824925584,-1.2898888002262936, ,0.21421431503040805,-0.5185625221774359,0.030514964597701155,0.10767656889730765,0.057715109304472656,0.33759628109325235, ,0.22931909561157227
0.013824197405836465,0.028178646067164522,-0.08444163447734872, ,0.013887272558489237,0.029124866824821273,-0.08489543396821585, ,0.0010513068890737624, ,0.020131363811852775,0.05403481070799006,-0.011150387367265294,0.20295795341316133,-0.07817287652743707,0.018902976602546348, ,0.05873128396019928, ,0.21749236608641603, ,0.0024709061825880997, ,0.1774297877853081,-0.31519561952859915,0.09667341933000001,-4.508962854747727,0.14606441824925584,-1.2898888002262936, ,0.21421431503040805,-0.5185625221774359,0.030514964597701155,0.10767656889730765,0.057715109304472656,0.33759628109325235, ,0.23166418075561523
0.013824197405836465,0.028178646067164522,-0.08444163447734872, ,0.013925346655366837,0.02922892430979313,-0.08494213665369045, ,0.0011678261797640958, ,0.020131363811852775,0.05403481070799006,-0.011150387367265294,0.20295795341316133,-0.07817287652743707,0.018902976602546348, ,0.05873128396019928, ,0.21749236608641603, ,0.002457189550979426, ,0.1774297877853081,-0.31519561952859915,0.09667341933000001,-4.508962854747727,0.14606441824925584,-1.2898888002262936, ,0.21421431503040805,-0.5185625221774359,0.030514964597701155,0.10767656889730765,0.057715109304472656,0.33759628109325235, ,0.23393917083740234
0.013824197405836465,0.028178646067164522,-0.08444163447734872, ,0.013960275998659712,0.02934223424219425,-0.08498834156611983, ,0.0012928044962044133, ,0.020131363811852775,0.05403481070799006,-0.011150387367265294,0.20295795341316133,-0.07817287652743707,0.018902976602546348, ,0.05873128396019928, ,0.21749236608641603, ,0.0024450605399921866, ,0.1774297877853081,-0.31519561952859915,0.09667341933000001,-4.508962854747727,0.14606441824925584,-1.2898888002262936, ,0.21421431503040805,-0.5185625221774359,0.030514964597701155,0.10767656889730765,0.057715109304472656,0.33759628109325235, ,0.23631501197814941
0.013824197405836465,0.028178646067164522,-0.08444163447734872, ,0.013997805164550705,0.029445693859627593,-0.08503546235552742, ,0.0014100288334546718, ,0.020131363811852775,0.05403481070799006,-0.011150387367265294,0.20295795341316133,-0.07817287652743707,0.018902976602546348, ,0.05873128396019928, ,0.21749236608641603, ,0.002434390110027882, ,0.1774297877853081,-0.31519561952859915,0.09667341933000001,-4.508962854747727,0.14606441824925584,-1.2898888002262936, ,0.21421431503040805,-0.5185625221774359,0.030514964597701155,0.10767656889730765,0.057715109304472656,0.33759628109325235, ,0.23862504959106445
0.014022380955096394,0.028719792125544655,-0.08456575501669823, ,0.014035044523294245,0.029548843909326085,-0.08508280011100319, ,0.00097715037517032, ,0.01736614736439515,0.0502451513738702,-0.012644462915660732,0.12514428226886248,-0.06468543115953995,-0.004018435382927266, ,0.054644677264034956, ,0.14087333340863895, ,0.00241952031681505, ,0.17946086653122917,-0.32033895962283265,0.09699101038,-4.507914405030304,0.14620105474902126,-1.2859979598631024, ,0.17508660804145898,-0.4721240873555759,0.030514964597701155,0.11302569732921511,0.023486137269851142,0.36592111884321626, ,0.24081206321716309
0.014022380955096394,0.028719792125544655,-0.08456575501669823, ,0.014071996717282442,0.029651685362085067,-0.08513035387389725, ,0.0010907147187589914, ,0.01736614736439515,0.0502451513738702,-0.012644462915660732,0.12514428226886248,-0.06468543115953995,-0.004018435382927266, ,0.054644677264034956, ,0.14087333340863895, ,0.0024060980380468068, ,0.17946086653122917,-0.32033895962283265,0.09699101038,-4.507914405030304,0.14620105474902126,-1.2859979598631024, ,0.17508660804145898,-0.4721240873555759,0.030514964597701155,0.11302569732921511,0.023486137269851142,0.36592111884321626, ,0.24305415153503418
0.014022380955096394,0.028719792125544655,-0.08456575501669823, ,0.014108664379971552,0.02975421918636239,-0.085178122688173, ,0.0012051880926343534, ,0.01736614736439515,0.0502451513738702,-0.012644462915660732,0.12514428226886248,-0.06468543115953995,-0.004018435382927266, ,0.054644677264034956, ,0.14087333340863895, ,0.0023940889385926823, ,0.17946086653122917,-0.32033895962283265,0.09699101038,-4.507914405030304,0.14620105474902126,-1.2859979598631024, ,0.17508660804145898,-0.4721240873555759,0.030514964597701155,0.11302569732921511,0.023486137269851142,0.36592111884321626, ,0.2454521656036377
0.014022380955096394,0.028719792125544655,-0.08456575501669823, ,0.014145050135893626,0.029856446348280902,-0.08522610560040304, ,0.0013202626418182444, ,0.01736614736439515,0.0502451513738702,-0.012644462915660732,0.12514428226886248,-0.06468543115953995,-0.004018435382927266, ,0.054644677264034956, ,0.14087333340863895, ,0.002383456995060262, ,0.17946086653122917,-0.32033895962283265,0.09699101038,-4.507914405030304,0.14620105474902126,-1.2859979598631024, ,0.17508660804145898,-0.4721240873555759,0.030514964597701155,0.11302569732921511,0.023486137269851142,0.36592111884321626, ,0.24796009063720703
0.014186021737246627,0.029209471842203936,-0.08470791708145943, ,0.014181156600668179,0.029958367811630984,-0.08527430165976618, ,0.0009389676954622688, ,0.015273910544854944,0.048238399705974044,-0.0166239368475433,0.04890589354254638,-0.02831860666830413,-0.02356503280984932, ,0.05325965476640509, ,0.056513083770236124, ,0.0023692953352602818, ,0.18103630403757096,-0.32486448108712823,0.09730600885000001,-4.506656265369397,0.14620105474902126,-1.281995701596215, ,0.14121568684296246,-0.43530707136913194,0.03346388974789917,0.12568237564562162,0.014775682444073955,0.4073046765287976, ,0.25025200843811035
0.014186021737246627,0.029209471842203936,-0.08470791708145943, ,0.014216986381013957,0.030059984537873195,-0.08532270991804433, ,0.0010499051798016513, ,0.015273910544854944,0.048238399705974044,-0.0166239368475433,0.04890589354254638,-0.02831860666830413,-0.02356503280984932, ,0.05325965476640509, ,0.056513083770236124, ,0.0023564857221004894, ,0.18103630403757096,-0.32486448108712823,0.09730600885000001,-4.506656265369397,0.14620105474902126,-1.281995701596215, ,0.14121568684296246,-0.43530707136913194,0.03346388974789917,0.12568237564562162,0.014775682444073955,0.4073046765287976, ,0.2524731159210205
0.014186021737246627,0.029209471842203936,-0.08470791708145943, ,0.014252542074760573,0.030161297486141027,-0.0853713294296186, ,0.0011621157237768067, ,0.015273910544854944,0.048238399705974044,-0.0166239368475433,0.04890589354254638,-0.02831860666830413,-0.02356503280984932, ,0.05325965476640509, ,0.056513083770236124, ,0.002345001395193531, ,0.18103630403757096,-0.32486448108712823,0.09730600885000001,-4.506656265369397,0.14620105474902126,-1.281995701596215, ,0.14121568684296246,-0.43530707136913194,0.03346388974789917,0.12568237564562162,0.014775682444073955,0.4073046765287976, ,0.2549130916595459
0.014186021737246627,0.029209471842203936,-0.08470791708145943, ,0.014287826270860103,0.030262307613243014,-0.08542015925146608, ,0.001275192625676407, ,0.015273910544854944,0.048238399705974044,-0.0166239368475433,0.04890589354254638,-0.02831860666830413,-0.02356503280984932, ,0.05325965476640509, ,0.056513083770236124, ,0.0023348127402457487, ,0.18103630403757096,-0.32486448108712823,0.09730600885000001,-4.506656265369397,0.14620105474902126,-1.281995701596215, ,0.14121568684296246,-0.43530707136913194,0.03346388974789917,0.12568237564562162,0.014775682444073955,0.4073046765287976, ,0.25719714164733887
0.014324094237459398,0.029659712124234426,-0.0848906582421525, ,0.014322841549398814,0.030363015873665817,-0.0854691984431566, ,0.0009106846311262201, ,0.015273910544854944,0.048238399705974044,-0.0166239368475433,0.04890589354254638,-0.02831860666830413,-0.02356503280984932, ,0.05325965476640509, ,0.056513083770236124, ,0.0023213775694049983, ,0.18225649583169842,-0.32881852031873116,0.09764434054000001,-4.505607815651975,0.14647432774855218,-1.2780529216564391, ,0.10603010229996734,-0.3750867255275525,0.03595668514672686,0.09471447015298114,0.00800255370550051,0.4222586920458762, ,0.2594900131225586
0.014324094237459398,0.029659712124234426,-0.0848906582421525, ,0.014357590481608855,0.030463423219576347,-0.08551844606684929, ,0.0010203877086604651, ,0.013098773865819561,0.04402631030176861,-0.020961517140362106,-0.03137927097447703,-0.006762063597229754,-0.00689042727531733, ,0.050490385979918874, ,0.03209953432942079, ,0.0023092187856597226, ,0.18225649583169842,-0.32881852031873116,0.09764434054000001,-4.505607815651975,0.14647432774855218,-1.2780529216564391, ,0.10603010229996734,-0.3750867255275525,0.03595668514672686,0.09471447015298114,0.00800255370550051,0.4222586920458762, ,0.2621500492095947
0.014324094237459398,0.029659712124234426,-0.0848906582421525, ,0.014392075629879882,0.030563530600824697,-0.08556790118728907, ,0.001131444790998946, ,0.013098773865819561,0.04402631030176861,-0.020961517140362106,-0.03137927097447703,-0.006762063597229754,-0.00689042727531733, ,0.050490385979918874, ,0.03209953432942079, ,0.002298313470894345, ,0.18225649583169842,-0.32881852031873116,0.09764434054000001,-4.505607815651975,0.14647432774855218,-1.2780529216564391, ,0.10603010229996734,-0.3750867255275525,0.03595668514672686,0.09471447015298114,0.00800255370550051,0.4222586920458762, ,0.26442813873291016
0.014324094237459398,0.029659712124234426,-0.0848906582421525, ,0.01442629954777082,0.03066333896494667,-0.08561756287180321, ,0.0012434239427731493, ,0.013098773865819561,0.04402631030176861,-0.020961517140362106,-0.03137927097447703,-0.006762063597229754,-0.00689042727531733, ,0.050490385979918874, ,0.03209953432942079, ,0.0022886355853152514, ,0.18225649583169842,-0.32881852031873116,0.09764434054000001,-4.505607815651975,0.14647432774855218,-1.2780529216564391, ,0.10603010229996734,-0.3750867255275525,0.03595668514672686,0.09471447015298114,0.00800255370550051,0.4222586920458762, ,0.2667100429534912
0.014324094237459398,0.029659712124234426,-0.0848906582421525, ,0.014460264780021399,0.03076284925716598,-0.08566743019029863, ,0.0013560341478520406, ,0.013098773865819561,0.04402631030176861,-0.020961517140362106,-0.03137927097447703,-0.006762063597229754,-0.00689042727531733, ,0.050490385979918874, ,0.03209953432942079, ,0.002280157390429222, ,0.18326817383822183,-0.3326103821599754,0.09802804238000001,-4.504559365934552,0.14715751024737936,-1.27411768046719, ,0.08549274014276646,-0.35277673441810703,0.03942775128712872,0.1003003034473379,0.0922374167783688,0.36493104347060845, ,0.2699251174926758
0.01444950727033791,0.030113379669373996,-0.08512088571961107, ,0.014493973862563946,0.03086206242039728,-0.08571750221525756, ,0.0009583602570961951, ,0.0113220792807494,0.043574031770134414,-0.024893572846522733,0.01653595737770386,0.08549435397651624,0.012788771340012654, ,0.0514448801437946, ,0.08707877404245735, ,0.0022682493081469424, ,0.18326817383822183,-0.3326103821599754,0.09802804238000001,-4.504559365934552,0.14715751024737936,-1.27411768046719, ,0.08549274014276646,-0.35277673441810703,0.03942775128712872,0.1003003034473379,0.0922374167783688,0.36493104347060845, ,0.2724120616912842
0.01444950727033791,0.030113379669373996,-0.08512088571961107, ,0.014527429322535063,0.030960979395248597,-0.08576777802173474, ,0.0010690962501422288, ,0.0113220792807494,0.043574031770134414,-0.024893572846522733,0.01653595737770386,0.08549435397651624,0.012788771340012654, ,0.0514448801437946, ,0.08707877404245735, ,0.0022575425844147574, ,0.18326817383822183,-0.3326103821599754,0.09802804238000001,-4.504559365934552,0.14715751024737936,-1.27411768046719, ,0.08549274014276646,-0.35277673441810703,0.03942775128712872,0.1003003034473379,0.0922374167783688,0.36493104347060845, ,0.2747070789337158
0.01444950727033791,0.030113379669373996,-0.08512088571961107, ,0.014560633678287123,0.031059601120023844,-0.08581825668735366, ,0.0011806821667425253, ,0.0113220792807494,0.043574031770134414,-0.024893572846522733,0.01653595737770386,0.08549435397651624,0.012788771340012654, ,0.0514448801437946, ,0.08707877404245735, ,0.002248012846205269, ,0.18326817383822183,-0.3326103821599754,0.09802804238000001,-4.504559365934552,0.14715751024737936,-1.27411768046719, ,0.08549274014276646,-0.35277673441810703,0.03942775128712872,0.1003003034473379,0.0922374167783688,0.36493104347060845, ,0.2771151065826416
0.01444950727033791,0.030113379669373996,-0.08512088571961107, ,0.014593589439400178,0.03115792853072537,-0.08586893729230374, ,0.001292835314570313, ,0.0113220792807494,0.043574031770134414,-0.024893572846522733,0.01653595737770386,0.08549435397651624,0.012788771340012654, ,0.0514448801437946, ,0.08707877404245735, ,0.002239634095927769, ,0.18394777433115359,-0.3357998708370301,0.09842341083000002,-4.503510916217129,0.14811396574573746,-1.2704869538254748, ,0.055625405368388496,-0.2956291014282579,0.04032610511392406,0.10245531356852443,0.08397876041873453,0.38059138929873315, ,0.2798290252685547
0.01454957668131018,0.030521411291119117,-0.08538245384671618, ,0.014626299106693504,0.03125596256105642,-0.08591981891933646, ,0.0009133526810577659, ,0.00932734252930998,0.03912892141769901,-0.02768222598996392,-0.05593047190874452,0.11089035720659096,-0.0011626900102169723, ,0.04883008750484657, ,0.12419691120822475, ,0.002228101214059334, ,0.18394777433115359,-0.3357998708370301,0.09842341083000002,-4.503510916217129,0.14811396574573746,-1.2704869538254748, ,0.055625405368388496,-0.2956291014282579,0.04032610511392406,0.10245531356852443,0.08397876041873453,0.38059138929873315, ,0.2824900150299072
0.01454957668131018,0.030521411291119117,-0.08538245384671618, ,0.014658765172237279,0.03135370414242429,-0.085970900653762, ,0.0010251356796088314, ,0.00932734252930998,0.03912892141769901,-0.02768222598996392,-0.05593047190874452,0.11089035720659096,-0.0011626900102169723, ,0.04883008750484657, ,0.12419691120822475, ,0.002217730821520968, ,0.18394777433115359,-0.3357998708370301,0.09842341083000002,-4.503510916217129,0.14811396574573746,-1.2704869538254748, ,0.055625405368388496,-0.2956291014282579,0.04032610511392406,0.10245531356852443,0.08397876041873453,0.38059138929873315, ,0.2846860885620117
0.01454957668131018,0.030521411291119117,-0.08538245384671618, ,0.014690990119364256,0.03145115420394224,-0.08602218158344627, ,0.001137396686098961, ,0.00932734252930998,0.03912892141769901,-0.02768222598996392,-0.05593047190874452,0.11089035720659096,-0.0011626900102169723, ,0.04883008750484657, ,0.12419691120822475, ,0.002208497196431891, ,0.18394777433115359,-0.3357998708370301,0.09842341083000002,-4.503510916217129,0.14811396574573746,-1.2704869538254748, ,0.055625405368388496,-0.2956291014282579,0.04032610511392406,0.10245531356852443,0.08397876041873453,0.38059138929873315, ,0.28693604469299316
0.01454957668131018,0.030521411291119117,-0.08538245384671618, ,0.01472297642268148,0.03154831367243217,-0.08607366079880677, ,0.0012499452074680737, ,0.00932734252930998,0.03912892141769901,-0.02768222598996392,-0.05593047190874452,0.11089035720659096,-0.0011626900102169723, ,0.04883008750484657, ,0.12419691120822475, ,0.0022003738744915194, ,0.18394777433115359,-0.3357998708370301,0.09842341083000002,-4.503510916217129,0.14811396574573746,-1.2704869538254748, ,0.055625405368388496,-0.2956291014282579,0.04032610511392406,0.10245531356852443,0.08397876041873453,0.38059138929873315, ,0.28916406631469727
0.014630506458803946,0.030884465341948227,-0.08563631230674919, ,0.014754726548081938,0.03164518347242765,-0.08612533739281046, ,0.0009128352750729903, ,0.0073661132219753605,0.036731981498553966,-0.025470997200364068,-0.1078225045569778,0.10966338277188442,0.010549287092538946, ,0.0453019843626085, ,0.1537912198048038, ,0.0021895542223955653, ,0.18439569283785862,-0.33854916374025407,0.09879414977,-4.502672156443191,0.14879714824456466,-1.266715070116507, ,0.036968033330140544,-0.2807601821256532,0.03756795169811321,0.08057973268413221,0.06443625783676171,0.41246483957293834, ,0.29242515563964844
0.014630506458803946,0.030884465341948227,-0.08563631230674919, ,0.014786242952756209,0.031741764526175914,-0.0861772104609688, ,0.0010255664581411484, ,0.0073661132219753605,0.036731981498553966,-0.025470997200364068,-0.1078225045569778,0.10966338277188442,0.010549287092538946, ,0.0453019843626085, ,0.1537912198048038, ,0.002179854324360112, ,0.18439569283785862,-0.33854916374025407,0.09879414977,-4.502672156443191,0.14879714824456466,-1.266715070116507, ,0.036968033330140544,-0.2807601821256532,0.03756795169811321,0.08057973268413221,0.06443625783676171,0.41246483957293834, ,0.2947380542755127
0.014630506458803946,0.030884465341948227,-0.08563631230674919, ,0.014817528085204115,0.031838057753640896,-0.0862292791013356, ,0.0011383871028175293, ,0.0073661132219753605,0.036731981498553966,-0.025470997200364068,-0.1078225045569778,0.10966338277188442,0.010549287092538946, ,0.0453019843626085, ,0.1537912198048038, ,0.0021712471572399254, ,0.18439569283785862,-0.33854916374025407,0.09879414977,-4.502672156443191,0.14879714824456466,-1.266715070116507, ,0.036968033330140544,-0.2807601821256532,0.03756795169811321,0.08057973268413221,0.06443625783676171,0.41246483957293834, ,0.29694700241088867
0.014630506458803946,0.030884465341948227,-0.08563631230674919, ,0.014848584385246538,0.031934064072505534,-0.08628154241450312, ,0.0012512143577905256, ,0.0073661132219753605,0.036731981498553966,-0.025470997200364068,-0.1078225045569778,0.10966338277188442,0.010549287092538946, ,0.0453019843626085, ,0.1537912198048038, ,0.002163705904785422, ,0.18439569283785862,-0.33854916374025407,0.09879414977,-4.502672156443191,0.14879714824456466,-1.266715070116507, ,0.036968033330140544,-0.2807601821256532,0.03756795169811321,0.08057973268413221,0.06443625783676171,0.41246483957293834, ,0.29924511909484863
0.014697758255586214,0.031245170141599398,-0.08589259414449874, ,0.014879414284036862,0.03202978439817438,-0.08633399950359885, ,0.0009183992243765665, ,0.005680589527679006,0.033188170936162914,-0.024420803443742548,-0.06948316334460833,0.12818546591800728,-0.00529063030643022, ,0.04159446391417797, ,0.14580608689417535, ,0.0021535814602292526, ,0.18468143395420492,-0.34125212024623264,0.09916488871000001,-4.501833396669253,0.14948033074339184,-1.2628615076673988, ,0.019704514443204067,-0.24457974628471849,0.034855167439824954,0.0930598329766917,0.07316175855271956,0.3403726583267601, ,0.30284810066223145
0.014697758255586214,0.031245170141599398,-0.08589259414449874, ,0.01491002020407286,0.032125219643776286,-0.08638664947428154, ,0.001031325811731643, ,0.005680589527679006,0.033188170936162914,-0.024420803443742548,-0.06948316334460833,0.12818546591800728,-0.00529063030643022, ,0.04159446391417797, ,0.14580608689417535, ,0.002144531011451046, ,0.18468143395420492,-0.34125212024623264,0.09916488871000001,-4.501833396669253,0.14948033074339184,-1.2628615076673988, ,0.019704514443204067,-0.24457974628471849,0.034855167439824954,0.0930598329766917,0.07316175855271956,0.3403726583267601, ,0.3053131103515625
0.014697758255586214,0.031245170141599398,-0.08589259414449874, ,0.014940404559208186,0.032220370720166806,-0.08643949143473936, ,0.0011441110274672452, ,0.005680589527679006,0.033188170936162914,-0.024420803443742548,-0.06948316334460833,0.12818546591800728,-0.00529063030643022, ,0.04159446391417797, ,0.14580608689417535, ,0.002136527651579176, ,0.18468143395420492,-0.34125212024623264,0.09916488871000001,-4.501833396669253,0.14948033074339184,-1.2628615076673988, ,0.019704514443204067,-0.24457974628471849,0.034855167439824954,0.0930598329766917,0.07316175855271956,0.3403726583267601, ,0.3076341152191162
0.014697758255586214,0.031245170141599398,-0.08589259414449874, ,0.014970569754664249,0.03231523853593101,-0.08649252449568445, ,0.001256737406481744, ,0.005680589527679006,0.033188170936162914,-0.024420803443742548,-0.06948316334460833,0.12818546591800728,-0.00529063030643022, ,0.04159446391417797, ,0.14580608689417535, ,0.002129545189316498, ,0.18483588861168943,-0.3436616129029907,0.09951359072,-4.500784946951831,0.15016351324221905,-1.2595796963992745, ,0.012890381287172951,-0.22381354141148768,0.033323873472803356,0.09515924432099797,0.05020656658289958,0.31887506100741125, ,0.3101370334625244
0.01475153988944004,0.03157472344933362,-0.08613809466649176, ,0.015000518187041706,0.0324098239973859,-0.0865457477703511, ,0.0009620624569745944, ,0.0051450326057773926,0.030970971694028043,-0.023643760037405797,-0.07156572962887761,0.11166323217704464,-0.019312513431127748, ,0.03930266958990478, ,0.1326285176294616, ,0.0021203524118964833, ,0.18483588861168943,-0.3436616129029907,0.09951359072,-4.500784946951831,0.15016351324221905,-1.2595796963992745, ,0.012890381287172951,-0.22381354141148768,0.033323873472803356,0.09515924432099797,0.05020656658289958,0.31887506100741125, ,0.3126859664916992
0.01475153988944004,0.03157472344933362,-0.08613809466649176, ,0.015030252244332177,0.0325041280085829,-0.08659916037449164, ,0.0010742695186108085, ,0.0051450326057773926,0.030970971694028043,-0.023643760037405797,-0.07156572962887761,0.11166323217704464,-0.019312513431127748, ,0.03930266958990478, ,0.1326285176294616, ,0.0021121798892926886, ,0.18483588861168943,-0.3436616129029907,0.09951359072,-4.500784946951831,0.15016351324221905,-1.2595796963992745, ,0.012890381287172951,-0.22381354141148768,0.033323873472803356,0.09515924432099797,0.05020656658289958,0.31887506100741125, ,0.31491708755493164
0.01475153988944004,0.03157472344933362,-0.08613809466649176, ,0.015059774305930003,0.03259815147131061,-0.08665276142637342, ,0.0011862947548580505, ,0.0051450326057773926,0.030970971694028043,-0.023643760037405797,-0.07156572962887761,0.11166323217704464,-0.019312513431127748, ,0.03930266958990478, ,0.1326285176294616, ,0.0021050024851497844, ,0.18483588861168943,-0.3436616129029907,0.09951359072,-4.500784946951831,0.15016351324221905,-1.2595796963992745, ,0.012890381287172951,-0.22381354141148768,0.033323873472803356,0.09515924432099797,0.05020656658289958,0.31887506100741125, ,0.31717801094055176
0.01475153988944004,0.03157472344933362,-0.08613809466649176, ,0.01508908674264383,0.03269189528509723,-0.08670655004677516, ,0.0012981341641388074, ,0.0051450326057773926,0.030970971694028043,-0.023643760037405797,-0.07156572962887761,0.11166323217704464,-0.019312513431127748, ,0.03930266958990478, ,0.1326285176294616, ,0.0020987958057573923, ,0.18483588861168943,-0.3436616129029907,0.09951359072,-4.500784946951831,0.15016351324221905,-1.2595796963992745, ,0.012890381287172951,-0.22381354141148768,0.033323873472803356,0.09515924432099797,0.05020656658289958,0.31887506100741125, ,0.31946516036987305
0.014801420179985527,0.031871684300935024,-0.0863724597448983, ,0.015118191916708306,0.03278536034721345,-0.08676052535898379, ,0.0010419900055014442, ,0.0051450326057773926,0.030970971694028043,-0.023643760037405797,-0.07156572962887761,0.11166323217704464,-0.019312513431127748, ,0.03930266958990478, ,0.1326285176294616, ,0.0020907285859081103, ,0.1849285614061801,-0.3457776417105282,0.09984025580000001,-4.499946187177892,0.15043678624174994,-1.2564537038609043, ,0.009137903525222724,-0.20765195089380914,0.03277533234567902,0.07330114604772248,0.021639461980107796,0.3068715525046838, ,0.32192516326904297
0.014801420179985527,0.031871684300935024,-0.0863724597448983, ,0.01514709218179572,0.03287854755267442,-0.08681468648879054, ,0.0011527476885911476, ,0.005062206713488944,0.029423909585425376,-0.023626582186307803,-0.08351216148870154,0.08020591478172329,-0.012410933759320758, ,0.0380737150526152, ,0.11578973408873801, ,0.0020836226700193454, ,0.1849285614061801,-0.3457776417105282,0.09984025580000001,-4.499946187177892,0.15043678624174994,-1.2564537038609043, ,0.009137903525222724,-0.20765195089380914,0.03277533234567902,0.07330114604772248,0.021639461980107796,0.3068715525046838, ,0.3243529796600342
0.014801420179985527,0.031871684300935024,-0.0863724597448983, ,0.015175789883027823,0.03297145779424302,-0.0868690325644885, ,0.001263423514224195, ,0.005062206713488944,0.029423909585425376,-0.023626582186307803,-0.08351216148870154,0.08020591478172329,-0.012410933759320758, ,0.0380737150526152, ,0.11578973408873801, ,0.002077455759073517, ,0.1849285614061801,-0.3457776417105282,0.09984025580000001,-4.499946187177892,0.15043678624174994,-1.2564537038609043, ,0.009137903525222724,-0.20765195089380914,0.03277533234567902,0.07330114604772248,0.021639461980107796,0.3068715525046838, ,0.3268270492553711
0.014801420179985527,0.031871684300935024,-0.0863724597448983, ,0.015204287356987268,0.033064091962431874,-0.08692356271686835, ,0.0013739914407360652, ,0.005062206713488944,0.029423909585425376,-0.023626582186307803,-0.08351216148870154,0.08020591478172329,-0.012410933759320758, ,0.0380737150526152, ,0.11578973408873801, ,0.002072206025354581, ,0.1849285614061801,-0.3457776417105282,0.09984025580000001,-4.499946187177892,0.15043678624174994,-1.2564537038609043, ,0.009137903525222724,-0.20765195089380914,0.03277533234567902,0.07330114604772248,0.021639461980107796,0.3068715525046838, ,0.32933712005615234
0.014853037421182958,0.03216663740896542,-0.08661418644420261, ,0.015232586931729504,0.03315645094550633,-0.08697827607921563, ,0.0011208701666114817, ,0.0048052554073048205,0.028229838150034516,-0.023864661669389678,-0.08204209490457673,0.07444493805121387,-0.017844474644044254, ,0.03727648478734299, ,0.11078333086321636, ,0.0020651590930675953, ,0.18499806600204813,-0.34783961138794617,0.10017340233000001,-4.499317117347439,0.15043678624174994,-1.2532682329954223, ,0.00489477422055827,-0.19366722767034852,0.03257425668711657,0.07283583744948424,0.01338510518427288,0.2901877841418657, ,0.3321690559387207
0.014853037421182958,0.03216663740896542,-0.08661418644420261, ,0.015260690926794232,0.03324853562948666,-0.08703317178730671, ,0.0012297291807305544, ,0.0048052554073048205,0.028229838150034516,-0.023864661669389678,-0.08204209490457673,0.07444493805121387,-0.017844474644044254, ,0.03727648478734299, ,0.11078333086321636, ,0.002059016226065117, ,0.18499806600204813,-0.34783961138794617,0.10017340233000001,-4.499317117347439,0.15043678624174994,-1.2532682329954223, ,0.00489477422055827,-0.19366722767034852,0.03257425668711657,0.07283583744948424,0.01338510518427288,0.2901877841418657, ,0.334503173828125
0.014853037421182958,0.03216663740896542,-0.08661418644420261, ,0.015288601653217257,0.033340346898151074,-0.08708824897940579, ,0.0013386730192677116, ,0.0048052554073048205,0.028229838150034516,-0.023864661669389678,-0.08204209490457673,0.07444493805121387,-0.017844474644044254, ,0.03727648478734299, ,0.11078333086321636, ,0.002053758246453457, ,0.18499806600204813,-0.34783961138794617,0.10017340233000001,-4.499317117347439,0.15043678624174994,-1.2532682329954223, ,0.00489477422055827,-0.19366722767034852,0.03257425668711657,0.07283583744948424,0.01338510518427288,0.2901877841418657, ,0.3367490768432617
0.014853037421182958,0.03216663740896542,-0.08661418644420261, ,0.015316321413542104,0.033431885633037874,-0.08714350679626176, ,0.0014476412405008156, ,0.0048052554073048205,0.028229838150034516,-0.023864661669389678,-0.08204209490457673,0.07444493805121387,-0.017844474644044254, ,0.03727648478734299, ,0.11078333086321636, ,0.002049366094236409, ,0.18499806600204813,-0.34783961138794617,0.10017340233000001,-4.499317117347439,0.15043678624174994,-1.2532682329954223, ,0.00489477422055827,-0.19366722767034852,0.03257425668711657,0.07283583744948424,0.01338510518427288,0.2901877841418657, ,0.33902406692504883
0.014907592712785614,0.032449216975368574,-0.08685259810572381, ,0.015343852501831682,0.033523152713448176,-0.08719894438110432, ,0.0012098001138754492, ,0.005691241006681178,0.028506583240518964,-0.02476758710980829,-0.07247554017597455,0.06303651351515736,-0.02295408392457877, ,0.03818964366797245, ,0.09605361336196822, ,0.0020433260512122296, ,0.18510618426228728,-0.3497702946065023,0.10050006741,-4.498478357573501,0.15043678624174994,-1.2504094770905028, ,0.012456936408305431,-0.1913244789485298,0.03367613429175476,0.0762323609749333,0.009583237273015731,0.278233109389062, ,0.3412799835205078
0.014907592712785614,0.032449216975368574,-0.08685259810572381, ,0.015371197203679902,0.03361414901644885,-0.087254560879641, ,0.001316651000048234, ,0.005691241006681178,0.028506583240518964,-0.02476758710980829,-0.07247554017597455,0.06303651351515736,-0.02295408392457877, ,0.03818964366797245, ,0.09605361336196822, ,0.0020381355151324865, ,0.18510618426228728,-0.3497702946065023,0.10050006741,-4.498478357573501,0.15043678624174994,-1.2504094770905028, ,0.012456936408305431,-0.1913244789485298,0.03367613429175476,0.0762323609749333,0.009583237273015731,0.278233109389062, ,0.3435661792755127
0.014907592712785614,0.032449216975368574,-0.08685259810572381, ,0.015398357796223457,0.0337048754168742,-0.08731035544005303, ,0.0014237521785684043, ,0.005691241006681178,0.028506583240518964,-0.02476758710980829,-0.07247554017597455,0.06303651351515736,-0.02295408392457877, ,0.03818964366797245, ,0.09605361336196822, ,0.0020337781865043727, ,0.18510618426228728,-0.3497702946065023,0.10050006741,-4.498478357573501,0.15043678624174994,-1.2504094770905028, ,0.012456936408305431,-0.1913244789485298,0.03367613429175476,0.0762323609749333,0.009583237273015731,0.278233109389062, ,0.345797061920166
0.014907592712785614,0.032449216975368574,-0.08685259810572381, ,0.015425336548153494,0.03379533278732972,-0.08736632721299316, ,0.0015310140606568648, ,0.005691241006681178,0.028506583240518964,-0.02476758710980829,-0.07247554017597455,0.06303651351515736,-0.02295408392457877, ,0.03818964366797245, ,0.09605361336196822, ,0.0020302375940688265, ,0.18510618426228728,-0.3497702946065023,0.10050006741,-4.498478357573501,0.15043678624174994,-1.2504094770905028, ,0.012456936408305431,-0.1913244789485298,0.03367613429175476,0.0762323609749333,0.009583237273015731,0.278233109389062, ,0.34801411628723145
0.014907592712785614,0.032449216975368574,-0.08685259810572381, ,0.015452135719727063,0.033885521998193564,-0.08742247535158154, ,0.0016383709226995965, ,0.006816360794649041,0.02879639839767921,-0.02654854322883021,-0.09296599113543148,0.06421414995790975,-0.046934085404792276, ,0.03975576037172169, ,0.11298725314771071, ,0.0020274972676956153, ,0.1852992525841429,-0.35175503695517796,0.10086173232000001,-4.497429907856079,0.15043678624174994,-1.2473056849651614, ,0.020861055519558316,-0.18534558898138823,0.03563492510067114,0.10105806340974616,0.00739411686006283,0.29705907649601404, ,0.3502390384674072
0.014975227904397887,0.0327499567758653,-0.08711942490321334, ,0.015478757562779095,0.03397544391761982,-0.08747879901140196, ,0.0013727747816417411, ,0.006816360794649041,0.02879639839767921,-0.02654854322883021,-0.09296599113543148,0.06421414995790975,-0.046934085404792276, ,0.03975576037172169, ,0.11298725314771071, ,0.0020229505837646854, ,0.1852992525841429,-0.35175503695517796,0.10086173232000001,-4.497429907856079,0.15043678624174994,-1.2473056849651614, ,0.020861055519558316,-0.18534558898138823,0.03563492510067114,0.10105806340974616,0.00739411686006283,0.29705907649601404, ,0.3528411388397217
0.014975227904397887,0.0327499567758653,-0.08711942490321334, ,0.01550520432073392,0.03406509941154077,-0.08753529735049954, ,0.0014776417178922708, ,0.006816360794649041,0.02879639839767921,-0.02654854322883021,-0.09296599113543148,0.06421414995790975,-0.046934085404792276, ,0.03975576037172169, ,0.11298725314771071, ,0.0020191898329655652, ,0.1852992525841429,-0.35175503695517796,0.10086173232000001,-4.497429907856079,0.15043678624174994,-1.2473056849651614, ,0.020861055519558316,-0.18534558898138823,0.03563492510067114,0.10105806340974616,0.00739411686006283,0.29705907649601404, ,0.35515618324279785
0.014975227904397887,0.0327499567758653,-0.08711942490321334, ,0.015531478228616889,0.03415448934366973,-0.08759196952937634, ,0.0015828533036679607, ,0.006816360794649041,0.02879639839767921,-0.02654854322883021,-0.09296599113543148,0.06421414995790975,-0.046934085404792276, ,0.03975576037172169, ,0.11298725314771071, ,0.002016201226600513, ,0.1852992525841429,-0.35175503695517796,0.10086173232000001,-4.497429907856079,0.15043678624174994,-1.2473056849651614, ,0.020861055519558316,-0.18534558898138823,0.03563492510067114,0.10105806340974616,0.00739411686006283,0.29705907649601404, ,0.35749197006225586
0.014975227904397887,0.0327499567758653,-0.08711942490321334, ,0.015557581513066247,0.03424361457550337,-0.08764881471098843, ,0.0016883136309717032, ,0.006816360794649041,0.02879639839767921,-0.02654854322883021,-0.09296599113543148,0.06421414995790975,-0.046934085404792276, ,0.03975576037172169, ,0.11298725314771071, ,0.002013970698739093, ,0.18556954823474076,-0.35357760191349497,0.10122080465000001,-4.496591148082141,0.15043678624174994,-1.24420189283982, ,0.03165341613024376,-0.18791473575934806,0.03713009678321679,0.07305125954254132,0.0060798190372081335,0.3128389095942352, ,0.3599720001220703
0.015050057910684034,0.033036374119948364,-0.08738721621716287, ,0.0155835163923445,0.03433247596632432,-0.08770583206074276, ,0.00143734964556811, ,0.008007780413299482,0.029617290373963944,-0.02761847100958737,-0.11105779099353798,0.04511221230261485,-0.020400639041082046, ,0.04128060533895716, ,0.11987046579477423, ,0.0020100746105419917, ,0.18556954823474076,-0.35357760191349497,0.10122080465000001,-4.496591148082141,0.15043678624174994,-1.24420189283982, ,0.03165341613024376,-0.18791473575934806,0.03713009678321679,0.07305125954254132,0.0060798190372081335,0.3128389095942352, ,0.3632190227508545
0.015050057910684034,0.033036374119948364,-0.08738721621716287, ,0.015609285076350399,0.034421074373203825,-0.08776302074649271, ,0.0015399217052986147, ,0.008007780413299482,0.029617290373963944,-0.02761847100958737,-0.11105779099353798,0.04511221230261485,-0.020400639041082046, ,0.04128060533895716, ,0.11987046579477423, ,0.002006919221916197, ,0.18556954823474076,-0.35357760191349497,0.10122080465000001,-4.496591148082141,0.15043678624174994,-1.24420189283982, ,0.03165341613024376,-0.18791473575934806,0.03713009678321679,0.07305125954254132,0.0060798190372081335,0.3128389095942352, ,0.36548614501953125
0.015050057910684034,0.033036374119948364,-0.08738721621716287, ,0.015634889766630376,0.03450941065100436,-0.0878203799385365, ,0.0016430142212011957, ,0.008007780413299482,0.029617290373963944,-0.02761847100958737,-0.11105779099353798,0.04511221230261485,-0.020400639041082046, ,0.04128060533895716, ,0.11987046579477423, ,0.0020044931885780976, ,0.18556954823474076,-0.35357760191349497,0.10122080465000001,-4.496591148082141,0.15043678624174994,-1.24420189283982, ,0.03165341613024376,-0.18791473575934806,0.03713009678321679,0.07305125954254132,0.0060798190372081335,0.3128389095942352, ,0.36785316467285156
0.01513204777343604,0.03331881733369441,-0.08765914925093027, ,0.015660332656390427,0.03459748565238208,-0.08787790880961206, ,0.001746506141480488, ,0.008007780413299482,0.029617290373963944,-0.02761847100958737,-0.11105779099353798,0.04511221230261485,-0.020400639041082046, ,0.04128060533895716, ,0.11987046579477423, ,0.0020027846650873845, ,0.18556954823474076,-0.35357760191349497,0.10122080465000001,-4.496591148082141,0.15043678624174994,-1.24420189283982, ,0.03165341613024376,-0.18791473575934806,0.03713009678321679,0.07305125954254132,0.0060798190372081335,0.3128389095942352, ,0.3711371421813965
0.01513204777343604,0.03331881733369441,-0.08765914925093027, ,0.015685615930507567,0.03468530022778952,-0.08793560653489449, ,0.0015000472773332768, ,0.009145744782820629,0.03028352919296097,-0.029624659506329833,-0.11882933257251807,0.03188496889064599,-0.00811650443093983, ,0.043340018907233865, ,0.12303267331628524, ,0.001999477182273213, ,0.18590934848120663,-0.3553306622759439,0.10158376585000001,-4.4959620782516865,0.15043678624174994,-1.2411797794546193, ,0.03980576407653976,-0.18534558898138823,0.03942775128712872,0.05912290883152059,0.005195904263021235,0.31558663684374466, ,0.37393712997436523
0.01513204777343604,0.03331881733369441,-0.08765914925093027, ,0.01571074176554161,0.034772855225477996,-0.08799347229199282, ,0.0016002764833074443, ,0.009145744782820629,0.03028352919296097,-0.029624659506329833,-0.11882933257251807,0.03188496889064599,-0.00811650443093983, ,0.043340018907233865, ,0.12303267331628524, ,0.001996868027378012, ,0.18590934848120663,-0.3553306622759439,0.10158376585000001,-4.4959620782516865,0.15043678624174994,-1.2411797794546193, ,0.03980576407653976,-0.18534558898138823,0.03942775128712872,0.05912290883152059,0.005195904263021235,0.31558663684374466, ,0.37648916244506836
0.01513204777343604,0.03331881733369441,-0.08765914925093027, ,0.01573571232974693,0.03486015149150037,-0.08805150526094592, ,0.0017011952037202598, ,0.009145744782820629,0.03028352919296097,-0.029624659506329833,-0.11882933257251807,0.03188496889064599,-0.00811650443093983, ,0.043340018907233865, ,0.12303267331628524, ,0.001994948073977637, ,0.18590934848120663,-0.3553306622759439,0.10158376585000001,-4.4959620782516865,0.15043678624174994,-1.2411797794546193, ,0.03980576407653976,-0.18534558898138823,0.03942775128712872,0.05912290883152059,0.005195904263021235,0.31558663684374466, ,0.3788721561431885
0.015232898201940355,0.03364471528326242,-0.08797236177041923, ,0.015760529783083867,0.03494718986971351,-0.08810970462421998, ,0.0014119837793902187, ,0.010245415577090895,0.03092101709140423,-0.028729800346261054,-0.09413535867018612,0.016354819344101327,-0.006261880909820704, ,0.04343361907843084, ,0.09554541482713039, ,0.001991187014012557, ,0.18639588065228277,-0.3573308500903681,0.10200376381000001,-4.495333008421233,0.1507100592412808,-1.238053786916249, ,0.05355357875760201,-0.1924887252707318,0.03904120470588236,0.05857985748035723,0.006187871041856542,0.2977694070924439, ,0.3811609745025635
0.015232898201940355,0.03364471528326242,-0.08797236177041923, ,0.015785196277230813,0.035033971201780964,-0.08816806956670421, ,0.0015077687861986915, ,0.010245415577090895,0.03092101709140423,-0.028729800346261054,-0.09413535867018612,0.016354819344101327,-0.006261880909820704, ,0.04343361907843084, ,0.09554541482713039, ,0.001988088179218878, ,0.18639588065228277,-0.3573308500903681,0.10200376381000001,-4.495333008421233,0.1507100592412808,-1.238053786916249, ,0.05355357875760201,-0.1924887252707318,0.03904120470588236,0.05857985748035723,0.006187871041856542,0.2977694070924439, ,0.3833889961242676
0.015232898201940355,0.03364471528326242,-0.08797236177041923, ,0.015809713955595394,0.035120496327175316,-0.08822659927570851, ,0.0016047687722326196, ,0.010245415577090895,0.03092101709140423,-0.028729800346261054,-0.09413535867018612,0.016354819344101327,-0.006261880909820704, ,0.04343361907843084, ,0.09554541482713039, ,0.0019856466543336153, ,0.18639588065228277,-0.3573308500903681,0.10200376381000001,-4.495333008421233,0.1507100592412808,-1.238053786916249, ,0.05355357875760201,-0.1924887252707318,0.03904120470588236,0.05857985748035723,0.006187871041856542,0.2977694070924439, ,0.3856630325317383
0.015232898201940355,0.03364471528326242,-0.08797236177041923, ,0.01583408495332656,0.035206766083181136,-0.08828529294095919, ,0.0017027489917966505, ,0.010245415577090895,0.03092101709140423,-0.028729800346261054,-0.09413535867018612,0.016354819344101327,-0.006261880909820704, ,0.04343361907843084, ,0.09554541482713039, ,0.0019838561627985715, ,0.18639588065228277,-0.3573308500903681,0.10200376381000001,-4.495333008421233,0.1507100592412808,-1.238053786916249, ,0.05355357875760201,-0.1924887252707318,0.03904120470588236,0.05857985748035723,0.006187871041856542,0.2977694070924439, ,0.3879849910736084
0.015332451251489873,0.0339531600613561,-0.08824087761978525, ,0.015858311397326047,0.035292781304897124,-0.08834414975459585, ,0.0014428371713237742, ,0.010245415577090895,0.03092101709140423,-0.028729800346261054,-0.09413535867018612,0.016354819344101327,-0.006261880909820704, ,0.04343361907843084, ,0.09554541482713039, ,0.001980453527632063, ,0.18639588065228277,-0.3573308500903681,0.10200376381000001,-4.495333008421233,0.1507100592412808,-1.238053786916249, ,0.05355357875760201,-0.1924887252707318,0.03904120470588236,0.05857985748035723,0.006187871041856542,0.2977694070924439, ,0.39044904708862305
0.015332451251489873,0.0339531600613561,-0.08824087761978525, ,0.015882395406260092,0.03537854282523896,-0.08840316891116837, ,0.0015363896186186238, ,0.010115595576530006,0.031265911356217695,-0.026034808539832373,0.05145210405925053,0.05063251234662877,0.022020236416192787, ,0.04192485828847254, ,0.07218696805887391, ,0.001977678128200729, ,0.18699825381647228,-0.3593001469732953,0.10237709533000001,-4.494913628534264,0.15139324174010801,-1.236160514230514, ,0.06433690953116662,-0.20277124264630508,0.036787093579676675,0.05487321097908432,0.07727727123929941,0.170724047179359, ,0.39401817321777344
0.015332451251489873,0.0339531600613561,-0.08824087761978525, ,0.015906339090570987,0.03546405147494189,-0.08846234960763281, ,0.0016313154069319685, ,0.010115595576530006,0.031265911356217695,-0.026034808539832373,0.05145210405925053,0.05063251234662877,0.022020236416192787, ,0.04192485828847254, ,0.07218696805887391, ,0.0019755268069506127, ,0.18699825381647228,-0.3593001469732953,0.10237709533000001,-4.494913628534264,0.15139324174010801,-1.236160514230514, ,0.06433690953116662,-0.20277124264630508,0.036787093579676675,0.05487321097908432,0.07727727123929941,0.170724047179359, ,0.3963661193847656
0.015332451251489873,0.0339531600613561,-0.08824087761978525, ,0.015930144552489086,0.03554930808256308,-0.08852169104334869, ,0.0017273627200202432, ,0.010115595576530006,0.031265911356217695,-0.026034808539832373,0.05145210405925053,0.05063251234662877,0.022020236416192787, ,0.04192485828847254, ,0.07218696805887391, ,0.0019739949298707956, ,0.18699825381647228,-0.3593001469732953,0.10237709533000001,-4.494913628534264,0.15139324174010801,-1.236160514230514, ,0.06433690953116662,-0.20277124264630508,0.036787093579676675,0.05487321097908432,0.07727727123929941,0.170724047179359, ,0.39864110946655273
0.015443434662919754,0.03427537953433285,-0.08849673504427193, ,0.015953813886044083,0.03563431347448455,-0.08858119242007557, ,0.0014540706493911682, ,0.010115595576530006,0.031265911356217695,-0.026034808539832373,0.05145210405925053,0.05063251234662877,0.022020236416192787, ,0.04192485828847254, ,0.07218696805887391, ,0.0019708052103586506, ,0.18764696337790715,-0.361284889321971,0.10272061218,-4.494284558703811,0.15152987823987346,-1.2339032486701345, ,0.07013816818807891,-0.20902410034905458,0.035476194922048995,0.06311711097776536,0.034167570526184056,0.22267997143700813, ,0.40084314346313477
0.015443434662919754,0.03427537953433285,-0.08849673504427193, ,0.015977349177076897,0.035719068474915155,-0.08864085294196898, ,0.0015459859100340901, ,0.010922794380994243,0.03135549758967064,-0.024532250288445967,0.0005233140262834838,0.015500932639728687,-0.0051382573651110605, ,0.041283240793332565, ,0.015509477253212571, ,0.0019682148487713057, ,0.18764696337790715,-0.361284889321971,0.10272061218,-4.494284558703811,0.15152987823987346,-1.2339032486701345, ,0.07013816818807891,-0.20902410034905458,0.035476194922048995,0.06311711097776536,0.034167570526184056,0.22267997143700813, ,0.4033491611480713
0.015443434662919754,0.03427537953433285,-0.08849673504427193, ,0.016000752503251385,0.035803573905893914,-0.08870067181557768, ,0.001639381413556175, ,0.010922794380994243,0.03135549758967064,-0.024532250288445967,0.0005233140262834838,0.015500932639728687,-0.0051382573651110605, ,0.041283240793332565, ,0.015509477253212571, ,0.0019662219188609107, ,0.18764696337790715,-0.361284889321971,0.10272061218,-4.494284558703811,0.15152987823987346,-1.2339032486701345, ,0.07013816818807891,-0.20902410034905458,0.035476194922048995,0.06311711097776536,0.034167570526184056,0.22267997143700813, ,0.4059631824493408
