NicholasDascanio/dvrk_moveit_final/test/execution/first_exp_nosummary/yes_joints_no_ramp/600vel5.csv
Current Position (x),Current Position (y),Current Position (z), ,Planned Position (x),Planned Position (y),Planned Position (z), ,Position Error,,Cartesian linear Velocity(x),Cartesian linear Velocity(y),Cartesian linear Velocity(z),Cartesian Angular Velocity(x),Cartesian Angular Velocity(y),Cartesian Angular Velocity(z), ,Total Linear Velocity, ,Total Angular Velocity, ,MSE, ,Joint 1 Position,Joint 2 Position,Joint 3 Position,Joint 4 Position,Joint 5 Position,Joint 6 Position, ,Joint 1 Velocity,Joint 2 Velocity,Joint 3 Velocity,Joint 4 Velocity,Joint 5 Velocity,Joint 6 Velocity, ,Time Stamp
0.012160546996599726,0.017901744187883775,-0.07694284015504141, ,0.01221540599854001,0.01791072692063617,-0.07700661232867352, ,8.459958458142268e-05, ,3.60635270331813e-05,2.0285832269069752e-06,3.5924627189468926e-06,-0.002302633963699064,-0.0016623412057290305,-0.00034333515824628246, ,3.629874543794193e-05, ,0.0028399826504831166, ,4.229979229071134e-05, ,0.17688147375123817,-0.22233747944892363,0.0865532833,-4.531399678700571,0.17612444819765274,-1.3964878728807713, ,0.000265443807313863,-5.355742772906465e-05,0.0,0.0,-0.0017542074496874286,0.0021321862609818562, ,0.0019299983978271484
0.012160546996599726,0.017901744187883775,-0.07694284015504141, ,0.012176706652094698,0.01802545812618299,-0.0771510895996893, ,0.00024276347375866645, ,3.60635270331813e-05,2.0285832269069752e-06,3.5924627189468926e-06,-0.002302633963699064,-0.0016623412057290305,-0.00034333515824628246, ,3.629874543794193e-05, ,0.0028399826504831166, ,0.00010912101944669637, ,0.17688147375123817,-0.22233747944892363,0.0865532833,-4.531399678700571,0.17612444819765274,-1.3964878728807713, ,0.000265443807313863,-5.355742772906465e-05,0.0,0.0,-0.0017542074496874286,0.0021321862609818562, ,0.004038095474243164
0.012160546996599726,0.017901744187883775,-0.07694284015504141, ,0.012138416829390146,0.018139895958454184,-0.07729489536159653, ,0.00042561588150480894, ,3.60635270331813e-05,2.0285832269069752e-06,3.5924627189468926e-06,-0.002302633963699064,-0.0016623412057290305,-0.00034333515824628246, ,3.629874543794193e-05, ,0.0028399826504831166, ,0.0001882447349612245, ,0.17688147375123817,-0.22233747944892363,0.0865532833,-4.531399678700571,0.17612444819765274,-1.3964878728807713, ,0.000265443807313863,-5.355742772906465e-05,0.0,0.0,-0.0017542074496874286,0.0021321862609818562, ,0.00609898567199707
0.012160546996599726,0.017901744187883775,-0.07694284015504141, ,0.012100535602012479,0.018254041083183757,-0.07743803143976351, ,0.0006106790305741926, ,-7.209863123162142e-07,2.325029059596247e-05,-1.879720042024157e-05,-0.033505802683247925,0.0031107525291622995,0.0008452237613539534, ,2.9907032244908187e-05, ,0.03364989739577869, ,0.0002727315940838181, ,0.1768891964841124,-0.2223529249146721,0.08655457959000001,-4.531399678700571,0.17612444819765274,-1.3964061941406305, ,-0.0002500819456618402,-0.00026738446122602153,2.071427955175031e-05,0.0,-0.0017542074496874286,0.03385394544091197, ,0.008289098739624023
0.012161315041757373,0.01790323298017577,-0.0769437186905229, ,0.012063062042563393,0.018367894165113852,-0.07758049965705305, ,0.0007943888644572943, ,-7.209863123162142e-07,2.325029059596247e-05,-1.879720042024157e-05,-0.033505802683247925,0.0031107525291622995,0.0008452237613539534, ,2.9907032244908187e-05, ,0.03364989739577869, ,0.0003596744724793975, ,0.1768891964841124,-0.2223529249146721,0.08655457959000001,-4.531399678700571,0.17612444819765274,-1.3964061941406305, ,-0.0002500819456618402,-0.00026738446122602153,2.071427955175031e-05,0.0,-0.0017542074496874286,0.03385394544091197, ,0.010209083557128906
0.012161315041757373,0.01790323298017577,-0.0769437186905229, ,0.012025995224659067,0.018481455867982256,-0.07772230183382527, ,0.0009792062458529312, ,-7.209863123162142e-07,2.325029059596247e-05,-1.879720042024157e-05,-0.033505802683247925,0.0031107525291622995,0.0008452237613539534, ,2.9907032244908187e-05, ,0.03364989739577869, ,0.00044817901153275944, ,0.1768891964841124,-0.2223529249146721,0.08655457959000001,-4.531399678700571,0.17612444819765274,-1.3964061941406305, ,-0.0002500819456618402,-0.00026738446122602153,2.071427955175031e-05,0.0,-0.0017542074496874286,0.03385394544091197, ,0.01212620735168457
0.012161315041757373,0.01790323298017577,-0.0769437186905229, ,0.01198933422293702,0.018594726854517993,-0.07786343978793994, ,0.001163455232198022, ,-7.209863123162142e-07,2.325029059596247e-05,-1.879720042024157e-05,-0.033505802683247925,0.0031107525291622995,0.0008452237613539534, ,2.9907032244908187e-05, ,0.03364989739577869, ,0.0005375885391159172, ,0.1768891964841124,-0.2223529249146721,0.08655457959000001,-4.531399678700571,0.17612444819765274,-1.3964061941406305, ,-0.0002500819456618402,-0.00026738446122602153,2.071427955175031e-05,0.0,-0.0017542074496874286,0.03385394544091197, ,0.014105081558227539
0.012161315041757373,0.01790323298017577,-0.0769437186905229, ,0.011953078113054771,0.018707707786435983,-0.07800391533475937, ,0.0013470557734678887, ,-7.209863123162142e-07,2.325029059596247e-05,-1.879720042024157e-05,-0.033505802683247925,0.0031107525291622995,0.0008452237613539534, ,2.9907032244908187e-05, ,0.03364989739577869, ,0.000627529342932803, ,0.1768891964841124,-0.2223529249146721,0.08655457959000001,-4.531399678700571,0.17612444819765274,-1.3964061941406305, ,-0.0002500819456618402,-0.00026738446122602153,2.071427955175031e-05,0.0,-0.0017542074496874286,0.03385394544091197, ,0.01609206199645996
0.012159376859686927,0.017945359173263266,-0.0770081219657711, ,0.011917225971695228,0.018820399324428794,-0.07814373028715055, ,0.001453938987128829, ,4.7261169769389566e-05,0.0074878276265225325,-0.012636850318682346,-0.5807822478153378,-0.025058250192826953,-0.006802048458777518, ,0.014688763806374726, ,0.5813225739276876, ,0.0007101703073524056, ,0.17662662356638875,-0.22270817062688641,0.08662457925000001,-4.531399678700571,0.1753046291990601,-1.3932873245142354, ,-0.04615609997980096,-0.05998542449966548,0.013626014987168523,0.0,-0.16153207052713472,0.6234321656475617, ,0.018050193786621094
0.012159376859686927,0.017945359173263266,-0.0770081219657711, ,0.011881776876566595,0.01893280212815753,-0.07828288645548827, ,0.0016361937061493029, ,4.7261169769389566e-05,0.0074878276265225325,-0.012636850318682346,-0.5807822478153378,-0.025058250192826953,-0.006802048458777518, ,0.014688763806374726, ,0.5813225739276876, ,0.0007943542526975781, ,0.17662662356638875,-0.22270817062688641,0.08662457925000001,-4.531399678700571,0.1753046291990601,-1.3932873245142354, ,-0.04615609997980096,-0.05998542449966548,0.013626014987168523,0.0,-0.16153207052713472,0.6234321656475617, ,0.020174026489257812
0.012159376859686927,0.017945359173263266,-0.0770081219657711, ,0.011846729906406443,0.019044916856255072,-0.07842138564765684, ,0.0018177154480718697, ,4.7261169769389566e-05,0.0074878276265225325,-0.012636850318682346,-0.5807822478153378,-0.025058250192826953,-0.006802048458777518, ,0.014688763806374726, ,0.5813225739276876, ,0.0008796343523121024, ,0.17662662356638875,-0.22270817062688641,0.08662457925000001,-4.531399678700571,0.1753046291990601,-1.3932873245142354, ,-0.04615609997980096,-0.05998542449966548,0.013626014987168523,0.0,-0.16153207052713472,0.6234321656475617, ,0.0222170352935791
0.012159376859686927,0.017945359173263266,-0.0770081219657711, ,0.011812084140982214,0.019156744166305202,-0.07855922966905324, ,0.001998499672507781, ,4.7261169769389566e-05,0.0074878276265225325,-0.012636850318682346,-0.5807822478153378,-0.025058250192826953,-0.006802048458777518, ,0.014688763806374726, ,0.5813225739276876, ,0.0009657009154040776, ,0.17662662356638875,-0.22270817062688641,0.08662457925000001,-4.531399678700571,0.1753046291990601,-1.3932873245142354, ,-0.04615609997980096,-0.05998542449966548,0.013626014987168523,0.0,-0.16153207052713472,0.6234321656475617, ,0.024293184280395508
0.012159376859686927,0.017945359173263266,-0.0770081219657711, ,0.01177783866109542,0.019268284714853038,-0.0786964203225892, ,0.002178544176097818, ,4.7261169769389566e-05,0.0074878276265225325,-0.012636850318682346,-0.5807822478153378,-0.025058250192826953,-0.006802048458777518, ,0.014688763806374726, ,0.5813225739276876, ,0.001052332576882202, ,0.17662662356638875,-0.22270817062688641,0.08662457925000001,-4.531399678700571,0.1753046291990601,-1.3932873245142354, ,-0.04615609997980096,-0.05998542449966548,0.013626014987168523,0.0,-0.16153207052713472,0.6234321656475617, ,0.026396989822387695
0.012159376859686927,0.017945359173263266,-0.0770081219657711, ,0.011743992548581066,0.019379539157388322,-0.07883295940869404, ,0.002357848181260063, ,0.003815949513730712,0.016551876996800143,-0.04416270116557604,-0.9367317029551363,-0.045837260589895845,-0.01845235542390123, ,0.04731670188261767, ,0.9378524243140072, ,0.0011393669505073928, ,0.175947023073457,-0.22348044391430885,0.08692791111,-4.531399678700571,0.1727085357035167,-1.384309370172196, ,-0.08145660219611225,-0.08427792323132396,0.04643968373177843,0.0,-0.2720773471265164,0.9915066647420252, ,0.028716087341308594
0.012179780279651864,0.018069599183079436,-0.07729475589157943, ,0.011710544886311309,0.0194905081483439,-0.07896884872531695, ,0.002245384367520121, ,0.003815949513730712,0.016551876996800143,-0.04416270116557604,-0.9367317029551363,-0.045837260589895845,-0.01845235542390123, ,0.04731670188261767, ,0.9378524243140072, ,0.0012084930390706882, ,0.175947023073457,-0.22348044391430885,0.08692791111,-4.531399678700571,0.1727085357035167,-1.384309370172196, ,-0.08145660219611225,-0.08427792323132396,0.04643968373177843,0.0,-0.2720773471265164,0.9915066647420252, ,0.030717134475708008
0.012179780279651864,0.018069599183079436,-0.07729475589157943, ,0.011677494758196651,0.019601192341092713,-0.07910409006792915, ,0.0024231711677972206, ,0.003815949513730712,0.016551876996800143,-0.04416270116557604,-0.9367317029551363,-0.045837260589895845,-0.01845235542390123, ,0.04731670188261767, ,0.9378524243140072, ,0.0012799446937016609, ,0.175947023073457,-0.22348044391430885,0.08692791111,-4.531399678700571,0.1727085357035167,-1.384309370172196, ,-0.08145660219611225,-0.08427792323132396,0.04643968373177843,0.0,-0.2720773471265164,0.9915066647420252, ,0.03265213966369629
0.012179780279651864,0.018069599183079436,-0.07729475589157943, ,0.011644841249187441,0.019711592387938966,-0.07923868522952639, ,0.0026002235907802216, ,0.003815949513730712,0.016551876996800143,-0.04416270116557604,-0.9367317029551363,-0.045837260589895845,-0.01845235542390123, ,0.04731670188261767, ,0.9378524243140072, ,0.0013532935213171364, ,0.175947023073457,-0.22348044391430885,0.08692791111,-4.531399678700571,0.1727085357035167,-1.384309370172196, ,-0.08145660219611225,-0.08427792323132396,0.04643968373177843,0.0,-0.2720773471265164,0.9915066647420252, ,0.0345461368560791
0.012179780279651864,0.018069599183079436,-0.07729475589157943, ,0.011612583445274974,0.01982170894011751,-0.07937263600063219, ,0.002776542201593968, ,0.003815949513730712,0.016551876996800143,-0.04416270116557604,-0.9367317029551363,-0.045837260589895845,-0.01845235542390123, ,0.04731670188261767, ,0.9378524243140072, ,0.0014282013465948644, ,0.175947023073457,-0.22348044391430885,0.08692791111,-4.531399678700571,0.1727085357035167,-1.384309370172196, ,-0.08145660219611225,-0.08427792323132396,0.04643968373177843,0.0,-0.2720773471265164,0.9915066647420252, ,0.03652215003967285
0.012225894710159928,0.018271734890430994,-0.07785121471403982, ,0.011580720433494847,0.019931542647785308,-0.07950594416929878, ,0.002430913657196712, ,0.004520930073778484,0.024257520026258028,-0.06715539908644653,-0.6069735816241055,-0.013484332751092162,-0.015853093550280438, ,0.07154518651185562, ,0.6071222201205465, ,0.0014783369621249568, ,0.1749971269299274,-0.22444578552358693,0.0875125379,-4.531609368644055,0.17011244220797336,-1.376638275672406, ,-0.1181780094127905,-0.11243713454795115,0.07048146690265487,0.0,-0.23472519350171012,0.69179340089853, ,0.03853011131286621
0.012225894710159928,0.018271734890430994,-0.07785121471403982, ,0.011549251301926737,0.02004109416002199,-0.07963861152111061, ,0.00260447036318709, ,0.004520930073778484,0.024257520026258028,-0.06715539908644653,-0.6069735816241055,-0.013484332751092162,-0.015853093550280438, ,0.07154518651185562, ,0.6071222201205465, ,0.0015319623621755343, ,0.1749971269299274,-0.22444578552358693,0.0875125379,-4.531609368644055,0.17011244220797336,-1.376638275672406, ,-0.1181780094127905,-0.11243713454795115,0.07048146690265487,0.0,-0.23472519350171012,0.69179340089853, ,0.040624141693115234
0.012225894710159928,0.018271734890430994,-0.07785121471403982, ,0.011518175139695169,0.020150364124821,-0.0797706398391862, ,0.002777464239511791, ,0.004520930073778484,0.024257520026258028,-0.06715539908644653,-0.6069735816241055,-0.013484332751092162,-0.015853093550280438, ,0.07154518651185562, ,0.6071222201205465, ,0.001588576083872637, ,0.1749971269299274,-0.22444578552358693,0.0875125379,-4.531609368644055,0.17011244220797336,-1.376638275672406, ,-0.1181780094127905,-0.11243713454795115,0.07048146690265487,0.0,-0.23472519350171012,0.69179340089853, ,0.042777061462402344
0.012225894710159928,0.018271734890430994,-0.07785121471403982, ,0.011487491036973363,0.020259353189087944,-0.07990203090418033, ,0.0029498666972379963, ,0.004520930073778484,0.024257520026258028,-0.06715539908644653,-0.6069735816241055,-0.013484332751092162,-0.015853093550280438, ,0.07154518651185562, ,0.6071222201205465, ,0.0016477626322798267, ,0.1749971269299274,-0.22444578552358693,0.0875125379,-4.531609368644055,0.17011244220797336,-1.376638275672406, ,-0.1181780094127905,-0.11243713454795115,0.07048146690265487,0.0,-0.23472519350171012,0.69179340089853, ,0.0447230339050293
0.012225894710159928,0.018271734890430994,-0.07785121471403982, ,0.011457198084981796,0.02036806199863907,-0.08003278649428672, ,0.003121656175580188, ,0.004520930073778484,0.024257520026258028,-0.06715539908644653,-0.6069735816241055,-0.013484332751092162,-0.015853093550280438, ,0.07154518651185562, ,0.6071222201205465, ,0.001709174863250675, ,0.1749971269299274,-0.22444578552358693,0.0875125379,-4.531609368644055,0.17011244220797336,-1.376638275672406, ,-0.1181780094127905,-0.11243713454795115,0.07048146690265487,0.0,-0.23472519350171012,0.69179340089853, ,0.04672813415527344
0.012273511589355444,0.018561084344522097,-0.07865651123977604, ,0.011427295375989905,0.020476491198193628,-0.08016290838524019, ,0.0025795537704644024, ,0.005076529164893158,0.032352061979503334,-0.0880721223633203,-0.25235348767921617,0.015695157047189892,-0.009924064504702592, ,0.09396342799338102, ,0.25283061863277595, ,0.0017439900195392244, ,0.1736147577454412,-0.22575865011220508,0.08835771898000001,-4.53223843847451,0.1681995312112572,-1.3711578454939088, ,-0.1496797185464839,-0.14897479051565274,0.09260936930232559,0.0,-0.19255996787583793,0.3760529383905512, ,0.04876399040222168
0.012273511589355444,0.018561084344522097,-0.07865651123977604, ,0.01139778200331866,0.02058464143137372,-0.08029239835031872, ,0.0027455076452356205, ,0.005076529164893158,0.032352061979503334,-0.0880721223633203,-0.25235348767921617,0.015695157047189892,-0.009924064504702592, ,0.09396342799338102, ,0.25283061863277595, ,0.0017825099282198552, ,0.1736147577454412,-0.22575865011220508,0.08835771898000001,-4.53223843847451,0.1681995312112572,-1.3711578454939088, ,-0.1496797185464839,-0.14897479051565274,0.09260936930232559,0.0,-0.19255996787583793,0.3760529383905512, ,0.05079317092895508
0.012273511589355444,0.018561084344522097,-0.07865651123977604, ,0.011368657061338964,0.020692513340700363,-0.08042125816034622, ,0.002911371322295273, ,0.005076529164893158,0.032352061979503334,-0.0880721223633203,-0.25235348767921617,0.015695157047189892,-0.009924064504702592, ,0.09396342799338102, ,0.25283061863277595, ,0.0018243196094819075, ,0.1736147577454412,-0.22575865011220508,0.08835771898000001,-4.53223843847451,0.1681995312112572,-1.3711578454939088, ,-0.1496797185464839,-0.14897479051565274,0.09260936930232559,0.0,-0.19255996787583793,0.3760529383905512, ,0.05289912223815918
0.012273511589355444,0.018561084344522097,-0.07865651123977604, ,0.011333160576330529,0.02080753523659418,-0.08055057898525944, ,0.0030851732954031933, ,0.005076529164893158,0.032352061979503334,-0.0880721223633203,-0.25235348767921617,0.015695157047189892,-0.009924064504702592, ,0.09396342799338102, ,0.25283061863277595, ,0.0018693500982648104, ,0.1736147577454412,-0.22575865011220508,0.08835771898000001,-4.53223843847451,0.1681995312112572,-1.3711578454939088, ,-0.1496797185464839,-0.14897479051565274,0.09260936930232559,0.0,-0.19255996787583793,0.3760529383905512, ,0.05488109588623047
0.012273511589355444,0.018561084344522097,-0.07865651123977604, ,0.01130476112944622,0.020914947894551218,-0.08067818031866883, ,0.003250584090633748, ,0.005076529164893158,0.032352061979503334,-0.0880721223633203,-0.25235348767921617,0.015695157047189892,-0.009924064504702592, ,0.09396342799338102, ,0.25283061863277595, ,0.00191697885662236, ,0.1736147577454412,-0.22575865011220508,0.08835771898000001,-4.53223843847451,0.1681995312112572,-1.3711578454939088, ,-0.1496797185464839,-0.14897479051565274,0.09260936930232559,0.0,-0.19255996787583793,0.3760529383905512, ,0.057041168212890625
0.01232224735172003,0.018907516518708756,-0.0795617822584121, ,0.011276747777886897,0.02102208416482728,-0.0808051566517525, ,0.002666541874959237, ,0.004908959991427927,0.0376050377228517,-0.09482043533238212,-0.042764433340295185,-0.09948116037380697,0.05252632593706668, ,0.10212321825597252, ,0.10824801647701109, ,0.0019419642905669225, ,0.17200070657472827,-0.2274576513445345,0.08931178842000001,-4.532867508304963,0.16574007421547926,-1.367927142125265, ,-0.1728541740591453,-0.1924887252707318,0.1001812045283019,-0.08935368136183679,-0.2882385080030442,0.17946822574011545, ,0.05914115905761719
0.01232224735172003,0.018907516518708756,-0.0795617822584121, ,0.01124911962842626,0.021128944671777776,-0.08093150974627494, ,0.0028217901305299755, ,0.004908959991427927,0.0376050377228517,-0.09482043533238212,-0.042764433340295185,-0.09948116037380697,0.05252632593706668, ,0.10212321825597252, ,0.10824801647701109, ,0.001970345769275408, ,0.17200070657472827,-0.2274576513445345,0.08931178842000001,-4.532867508304963,0.16574007421547926,-1.367927142125265, ,-0.1728541740591453,-0.1924887252707318,0.1001812045283019,-0.08935368136183679,-0.2882385080030442,0.17946822574011545, ,0.06119799613952637
0.01232224735172003,0.018907516518708756,-0.0795617822584121, ,0.011221875788752032,0.021235530038767703,-0.08105724136157948, ,0.0029777277335935326, ,0.004908959991427927,0.0376050377228517,-0.09482043533238212,-0.042764433340295185,-0.09948116037380697,0.05252632593706668, ,0.10212321825597252, ,0.10824801647701109, ,0.0020018264556603497, ,0.17200070657472827,-0.2274576513445345,0.08931178842000001,-4.532867508304963,0.16574007421547926,-1.367927142125265, ,-0.1728541740591453,-0.1924887252707318,0.1001812045283019,-0.08935368136183679,-0.2882385080030442,0.17946822574011545, ,0.0632331371307373
0.01232224735172003,0.018907516518708756,-0.0795617822584121, ,0.011195015367465776,0.021341840888172606,-0.08118235325458854, ,0.0031341406215643353, ,0.004908959991427927,0.0376050377228517,-0.09482043533238212,-0.042764433340295185,-0.09948116037380697,0.05252632593706668, ,0.10212321825597252, ,0.10824801647701109, ,0.0020361390061422887, ,0.17200070657472827,-0.2274576513445345,0.08931178842000001,-4.532867508304963,0.16574007421547926,-1.367927142125265, ,-0.1728541740591453,-0.1924887252707318,0.1001812045283019,-0.08935368136183679,-0.2882385080030442,0.17946822574011545, ,0.06523513793945312
0.01232224735172003,0.018907516518708756,-0.0795617822584121, ,0.011168537474082613,0.02144787784137911,-0.08130684717980499, ,0.0032908560757580405, ,0.004908959991427927,0.0376050377228517,-0.09482043533238212,-0.042764433340295185,-0.09948116037380697,0.05252632593706668, ,0.10212321825597252, ,0.10824801647701109, ,0.0020730424493662814, ,0.17200070657472827,-0.2274576513445345,0.08931178842000001,-4.532867508304963,0.16574007421547926,-1.367927142125265, ,-0.1728541740591453,-0.1924887252707318,0.1001812045283019,-0.08935368136183679,-0.2882385080030442,0.17946822574011545, ,0.06721806526184082
0.012367476660761026,0.019327725793904234,-0.08055923256856118, ,0.011142441219030946,0.02155364151878586,-0.08143072488931404, ,0.0026860587322136693, ,0.0026834318831143273,0.040827704208310646,-0.09011039105720646,0.3436395213722192,-0.20849856543735096,-0.10019375290129598, ,0.09896456342588136, ,0.4019375961957634, ,0.0020905572003047782, ,0.17003913242467525,-0.22975130300817917,0.09036956106,-4.533286888191932,0.16191425222204694,-1.3680745904273877, ,-0.19936332260182937,-0.23843452652882108,0.09595669590361447,0.033908278697514956,-0.4111139346517464,-0.16118466512259477, ,0.06926417350769043
0.012367476660761026,0.019327725793904234,-0.08055923256856118, ,0.011116725713652144,0.02165913253980406,-0.08155398813278414, ,0.0028265480677097145, ,0.0026834318831143273,0.040827704208310646,-0.09011039105720646,0.3436395213722192,-0.20849856543735096,-0.10019375290129598, ,0.09896456342588136, ,0.4019375961957634, ,0.0021110013910660263, ,0.17003913242467525,-0.22975130300817917,0.09036956106,-4.533286888191932,0.16191425222204694,-1.3680745904273877, ,-0.19936332260182937,-0.23843452652882108,0.09595669590361447,0.033908278697514956,-0.4111139346517464,-0.16118466512259477, ,0.07134819030761719
0.012367476660761026,0.019327725793904234,-0.08055923256856118, ,0.011091390070200515,0.02176435152285852,-0.08167663865746846, ,0.0029688614479523017, ,0.0026834318831143273,0.040827704208310646,-0.09011039105720646,0.3436395213722192,-0.20849856543735096,-0.10019375290129598, ,0.09896456342588136, ,0.4019375961957634, ,0.0021341867980088987, ,0.17003913242467525,-0.22975130300817917,0.09036956106,-4.533286888191932,0.16191425222204694,-1.3680745904273877, ,-0.19936332260182937,-0.23843452652882108,0.09595669590361447,0.033908278697514956,-0.4111139346517464,-0.16118466512259477, ,0.07360601425170898
0.012367476660761026,0.019327725793904234,-0.08055923256856118, ,0.011066433401842777,0.021869299085388146,-0.08179867820820665, ,0.003112640976919302, ,0.0026834318831143273,0.040827704208310646,-0.09011039105720646,0.3436395213722192,-0.20849856543735096,-0.10019375290129598, ,0.09896456342588136, ,0.4019375961957634, ,0.0021599355921907513, ,0.17003913242467525,-0.22975130300817917,0.09036956106,-4.533286888191932,0.16191425222204694,-1.3680745904273877, ,-0.19936332260182937,-0.23843452652882108,0.09595669590361447,0.033908278697514956,-0.4111139346517464,-0.16118466512259477, ,0.0757150650024414
0.012367476660761026,0.019327725793904234,-0.08055923256856118, ,0.011041854822658001,0.021973975843846583,-0.08192010852742522, ,0.0032575905144584466, ,0.0026834318831143273,0.040827704208310646,-0.09011039105720646,0.3436395213722192,-0.20849856543735096,-0.10019375290129598, ,0.09896456342588136, ,0.4019375961957634, ,0.0021880805901976154, ,0.1679385490828862,-0.23232297305529592,0.09123029762000001,-4.533286888191932,0.1564487922314293,-1.3690903498689484, ,-0.2343134359468414,-0.29379858067638015,0.08085691126903555,0.021718077005798617,-0.6589439988688118,-0.00411715597696366, ,0.07785916328430176
0.012379145312557073,0.019728707569667072,-0.08136306226457088, ,0.011017653447637193,0.022078382413703423,-0.08204093135514023, ,0.0027989531033744716, ,-0.0009376614656884871,0.04201041158177674,-0.07491729638845247,0.20649319271745536,-0.3922266030620791,-0.13865011622883633, ,0.08589735262771346, ,0.4432592771691719, ,0.0022033524030270367, ,0.1679385490828862,-0.23232297305529592,0.09123029762000001,-4.533286888191932,0.1564487922314293,-1.3690903498689484, ,-0.2343134359468414,-0.29379858067638015,0.08085691126903555,0.021718077005798617,-0.6589439988688118,-0.00411715597696366, ,0.07984614372253418
0.012379145312557073,0.019728707569667072,-0.08136306226457088, ,0.010993828392683277,0.022182519409444646,-0.08216114842895729, ,0.0029286920355862337, ,-0.0009376614656884871,0.04201041158177674,-0.07491729638845247,0.20649319271745536,-0.3922266030620791,-0.13865011622883633, ,0.08589735262771346, ,0.4432592771691719, ,0.0022210436135772613, ,0.1679385490828862,-0.23232297305529592,0.09123029762000001,-4.533286888191932,0.1564487922314293,-1.3690903498689484, ,-0.2343134359468414,-0.29379858067638015,0.08085691126903555,0.021718077005798617,-0.6589439988688118,-0.00411715597696366, ,0.08182406425476074
0.012379145312557073,0.019728707569667072,-0.08136306226457088, ,0.010970378774610573,0.02228638744457322,-0.08228076148407386, ,0.0030608040378982244, ,-0.0009376614656884871,0.04201041158177674,-0.07491729638845247,0.20649319271745536,-0.3922266030620791,-0.13865011622883633, ,0.08589735262771346, ,0.4432592771691719, ,0.002241037909394427, ,0.1679385490828862,-0.23232297305529592,0.09123029762000001,-4.533286888191932,0.1564487922314293,-1.3690903498689484, ,-0.2343134359468414,-0.29379858067638015,0.08085691126903555,0.021718077005798617,-0.6589439988688118,-0.00411715597696366, ,0.08380818367004395
0.012379145312557073,0.019728707569667072,-0.08136306226457088, ,0.010947303711144683,0.022389987131610223,-0.08239977225328063, ,0.0031948938760218773, ,-0.0009376614656884871,0.04201041158177674,-0.07491729638845247,0.20649319271745536,-0.3922266030620791,-0.13865011622883633, ,0.08589735262771346, ,0.4432592771691719, ,0.0022632206062927402, ,0.1679385490828862,-0.23232297305529592,0.09123029762000001,-4.533286888191932,0.1564487922314293,-1.3690903498689484, ,-0.2343134359468414,-0.29379858067638015,0.08085691126903555,0.021718077005798617,-0.6589439988688118,-0.00411715597696366, ,0.08576416969299316
0.01235401529717278,0.020113137855859158,-0.08197302012817122, ,0.010924602320922265,0.02249331908209529,-0.08251818246696195, ,0.0028294321165272863, ,-0.006683342156824768,0.0430740442356337,-0.059826503489329164,0.08398319209434729,-0.3841795747936077,-0.13796582246906464, ,0.07402196207178809, ,0.39325100867092083, ,0.0022760890497071614, ,0.16562172922061882,-0.23522672061600433,0.09189399810000001,-4.533286888191932,0.14907042124409553,-1.3691180098397433, ,-0.2750635987202052,-0.3450797874853483,0.06582153520661158,0.016176516906307288,-0.7159869122037238,0.16179557572709857, ,0.08889317512512207
0.01235401529717278,0.020113137855859158,-0.08197302012817122, ,0.010902273723490757,0.02259638390658765,-0.08263599385309851, ,0.0029518805370745247, ,-0.006683342156824768,0.0430740442356337,-0.059826503489329164,0.08398319209434729,-0.3841795747936077,-0.13796582246906464, ,0.07402196207178809, ,0.39325100867092083, ,0.0022911066383153253, ,0.16562172922061882,-0.23522672061600433,0.09189399810000001,-4.533286888191932,0.14907042124409553,-1.3691180098397433, ,-0.2750635987202052,-0.3450797874853483,0.06582153520661158,0.016176516906307288,-0.7159869122037238,0.16179557572709857, ,0.09152507781982422
0.01235401529717278,0.020113137855859158,-0.08197302012817122, ,0.010880317039307998,0.022699182214666495,-0.08275320813726732, ,0.003077028649605051, ,-0.006683342156824768,0.0430740442356337,-0.059826503489329164,0.08398319209434729,-0.3841795747936077,-0.13796582246906464, ,0.07402196207178809, ,0.39325100867092083, ,0.002308191899430319, ,0.16562172922061882,-0.23522672061600433,0.09189399810000001,-4.533286888191932,0.14907042124409553,-1.3691180098397433, ,-0.2750635987202052,-0.3450797874853483,0.06582153520661158,0.016176516906307288,-0.7159869122037238,0.16179557572709857, ,0.09357905387878418
0.01235401529717278,0.020113137855859158,-0.08197302012817122, ,0.010858731389742159,0.022801714614931964,-0.08286982704264433, ,0.003204462762319793, ,-0.006683342156824768,0.0430740442356337,-0.059826503489329164,0.08398319209434729,-0.3841795747936077,-0.13796582246906464, ,0.07402196207178809, ,0.39325100867092083, ,0.0023272614922577547, ,0.16562172922061882,-0.23522672061600433,0.09189399810000001,-4.533286888191932,0.14907042124409553,-1.3691180098397433, ,-0.2750635987202052,-0.3450797874853483,0.06582153520661158,0.016176516906307288,-0.7159869122037238,0.16179557572709857, ,0.09562206268310547
0.01235401529717278,0.020113137855859158,-0.08197302012817122, ,0.010837515897071404,0.022903981715006006,-0.08298585229000455, ,0.0033338279596718074, ,-0.006683342156824768,0.0430740442356337,-0.059826503489329164,0.08398319209434729,-0.3841795747936077,-0.13796582246906464, ,0.07402196207178809, ,0.39325100867092083, ,0.0023482316269955476, ,0.16562172922061882,-0.23522672061600433,0.09189399810000001,-4.533286888191932,0.14907042124409553,-1.3691180098397433, ,-0.2750635987202052,-0.3450797874853483,0.06582153520661158,0.016176516906307288,-0.7159869122037238,0.16179557572709857, ,0.09766602516174316
0.012229722574099936,0.020589998310582627,-0.08255158009793645, ,0.010816669684483613,0.02300598412153294,-0.08310128559772503, ,0.002852346760838187, ,-0.015015282812212122,0.04379171387531113,-0.044569094894984965,0.12428179809013655,-0.14601574034208456,-0.06612309650080937, ,0.06426178601490941, ,0.19174562812057291, ,0.00235851969095152, ,0.16237045868057032,-0.23922709624485264,0.09253825423,-4.5330771982484475,0.14305841525441615,-1.3673194142024423, ,-0.3184461126123181,-0.388921891633077,0.05056765561904762,0.0,-0.5132954170338527,0.1903829747395533, ,0.09969019889831543
0.012229722574099936,0.020589998310582627,-0.08255158009793645, ,0.010796191876076172,0.0231077224401801,-0.0832161286817845, ,0.0029724686499992417, ,-0.015015282812212122,0.04379171387531113,-0.044569094894984965,0.12428179809013655,-0.14601574034208456,-0.06612309650080937, ,0.06426178601490941, ,0.19174562812057291, ,0.002370798670132474, ,0.16237045868057032,-0.23922709624485264,0.09253825423,-4.5330771982484475,0.14305841525441615,-1.3673194142024423, ,-0.3184461126123181,-0.388921891633077,0.05056765561904762,0.0,-0.5132954170338527,0.1903829747395533, ,0.10167217254638672
0.012229722574099936,0.020589998310582627,-0.08255158009793645, ,0.010776081596855695,0.02320919727563905,-0.08333038325576567, ,0.0030951267612039724, ,-0.015015282812212122,0.04379171387531113,-0.044569094894984965,0.12428179809013655,-0.14601574034208456,-0.06612309650080937, ,0.06426178601490941, ,0.19174562812057291, ,0.0023850011817221116, ,0.16237045868057032,-0.23922709624485264,0.09253825423,-4.5330771982484475,0.14305841525441615,-1.3673194142024423, ,-0.3184461126123181,-0.388921891633077,0.05056765561904762,0.0,-0.5132954170338527,0.1903829747395533, ,0.1036841869354248
0.012229722574099936,0.020589998310582627,-0.08255158009793645, ,0.01075633797273779,0.0233104092316257,-0.08344405103085668, ,0.0032199382181913073, ,-0.015015282812212122,0.04379171387531113,-0.044569094894984965,0.12428179809013655,-0.14601574034208456,-0.06612309650080937, ,0.06426178601490941, ,0.19174562812057291, ,0.002401057663192673, ,0.16237045868057032,-0.23922709624485264,0.09253825423,-4.5330771982484475,0.14305841525441615,-1.3673194142024423, ,-0.3184461126123181,-0.388921891633077,0.05056765561904762,0.0,-0.5132954170338527,0.1903829747395533, ,0.10577702522277832
0.012229722574099936,0.020589998310582627,-0.08255158009793645, ,0.010736960130546796,0.02341135891088151,-0.08355713371585174, ,0.003346573386062847, ,-0.015015282812212122,0.04379171387531113,-0.044569094894984965,0.12428179809013655,-0.14601574034208456,-0.06612309650080937, ,0.06426178601490941, ,0.19174562812057291, ,0.0024188975824921102, ,0.16237045868057032,-0.23922709624485264,0.09253825423,-4.5330771982484475,0.14305841525441615,-1.3673194142024423, ,-0.3184461126123181,-0.388921891633077,0.05056765561904762,0.0,-0.5132954170338527,0.1903829747395533, ,0.10778617858886719
0.012035936099249314,0.021054668751949408,-0.08297405376909942, ,0.010717947198015504,0.023512046915174143,-0.08366963301715355, ,0.0028739576669103593, ,-0.02199347938879941,0.04738117687736397,-0.038300540080180016,0.040978710024961416,0.09296004987904448,0.0073824260566653045, ,0.06477360904213282, ,0.10159105831895489, ,0.002427324621092448, ,0.15885661522279818,-0.24345915385992767,0.09302436298000001,-4.533496578135416,0.13909595676121836,-1.364986761136792, ,-0.36639745775471344,-0.44138112352777104,0.0448698916056338,-0.018234615054476926,-0.3320785817084122,0.34956118812956116, ,0.1097559928894043
0.012035936099249314,0.021054668751949408,-0.08297405376909942, ,0.010699298303784934,0.02361247384529815,-0.08378155063877336, ,0.0029968347779545457, ,-0.02199347938879941,0.04738117687736397,-0.038300540080180016,0.040978710024961416,0.09296004987904448,0.0073824260566653045, ,0.06477360904213282, ,0.10159105831895489, ,0.0024376793512172136, ,0.15885661522279818,-0.24345915385992767,0.09302436298000001,-4.533496578135416,0.13909595676121836,-1.364986761136792, ,-0.36639745775471344,-0.44138112352777104,0.0448698916056338,-0.018234615054476926,-0.3320785817084122,0.34956118812956116, ,0.11174917221069336
0.012035936099249314,0.021054668751949408,-0.08297405376909942, ,0.010681012577404102,0.02371264030107565,-0.0838928882823337, ,0.003121680215641005, ,-0.02199347938879941,0.04738117687736397,-0.038300540080180016,0.040978710024961416,0.09296004987904448,0.0073824260566653045, ,0.06477360904213282, ,0.10159105831895489, ,0.002449893652367638, ,0.15885661522279818,-0.24345915385992767,0.09302436298000001,-4.533496578135416,0.13909595676121836,-1.364986761136792, ,-0.36639745775471344,-0.44138112352777104,0.0448698916056338,-0.018234615054476926,-0.3320785817084122,0.34956118812956116, ,0.11386513710021973
0.012035936099249314,0.021054668751949408,-0.08297405376909942, ,0.010663089149329716,0.023812546881357408,-0.08400364764706877, ,0.0032481785785455973, ,-0.02199347938879941,0.04738117687736397,-0.038300540080180016,0.040978710024961416,0.09296004987904448,0.0073824260566653045, ,0.06477360904213282, ,0.10159105831895489, ,0.0024638986510725144, ,0.15885661522279818,-0.24345915385992767,0.09302436298000001,-4.533496578135416,0.13909595676121836,-1.364986761136792, ,-0.36639745775471344,-0.44138112352777104,0.0448698916056338,-0.018234615054476926,-0.3320785817084122,0.34956118812956116, ,0.11596512794494629
0.012035936099249314,0.021054668751949408,-0.08297405376909942, ,0.010645527150925933,0.023912194184023045,-0.08411383042982574, ,0.0033760597558191736, ,-0.02199347938879941,0.04738117687736397,-0.038300540080180016,0.040978710024961416,0.09296004987904448,0.0073824260566653045, ,0.06477360904213282, ,0.10159105831895489, ,0.0024796255666715947, ,0.1549566351213148,-0.24809279358446237,0.09350399028,-4.534125647965871,0.13636322676590956,-1.360471398338928, ,-0.4021056845697914,-0.4721240873555759,0.04962246579439253,-0.08130637745284629,-0.19556074767818854,0.4633979237442794, ,0.11846017837524414
0.011793329652592482,0.0215565184877573,-0.08338325310694344, ,0.010628325714464152,0.024011582805982385,-0.08422343832506743, ,0.0028443779958420724, ,-0.025926859308347303,0.051600529759872255,-0.042279990941592537,-0.03158225709184322,0.2590175082661719,0.10904297983485965, ,0.07157104399906043, ,0.2609355733615034, ,0.0024858078112338067, ,0.1549566351213148,-0.24809279358446237,0.09350399028,-4.534125647965871,0.13636322676590956,-1.360471398338928, ,-0.4021056845697914,-0.4721240873555759,0.04962246579439253,-0.08130637745284629,-0.19556074767818854,0.4633979237442794, ,0.12090921401977539
0.011793329652592482,0.0215565184877573,-0.08338325310694344, ,0.010611483973122669,0.02411071334317565,-0.08433247302487154, ,0.002970132829036178, ,-0.025926859308347303,0.051600529759872255,-0.042279990941592537,-0.03158225709184322,0.2590175082661719,0.10904297983485965, ,0.07157104399906043, ,0.2609355733615034, ,0.0024938798948638463, ,0.1549566351213148,-0.24809279358446237,0.09350399028,-4.534125647965871,0.13636322676590956,-1.360471398338928, ,-0.4021056845697914,-0.4721240873555759,0.04962246579439253,-0.08130637745284629,-0.19556074767818854,0.4633979237442794, ,0.12299919128417969
0.011793329652592482,0.0215565184877573,-0.08338325310694344, ,0.01059500106098658,0.024209586390574685,-0.08444093621893428, ,0.0030973301851450457, ,-0.025926859308347303,0.051600529759872255,-0.042279990941592537,-0.03158225709184322,0.2590175082661719,0.10904297983485965, ,0.07157104399906043, ,0.2609355733615034, ,0.002503772522573374, ,0.1549566351213148,-0.24809279358446237,0.09350399028,-4.534125647965871,0.13636322676590956,-1.360471398338928, ,-0.4021056845697914,-0.4721240873555759,0.04962246579439253,-0.08130637745284629,-0.19556074767818854,0.4633979237442794, ,0.125244140625
0.011793329652592482,0.0215565184877573,-0.08338325310694344, ,0.010578876113047312,0.02430820254218345,-0.08454882959456986, ,0.0032257140424415244, ,-0.025926859308347303,0.051600529759872255,-0.042279990941592537,-0.03158225709184322,0.2590175082661719,0.10904297983485965, ,0.07157104399906043, ,0.2609355733615034, ,0.0025154167406357636, ,0.1549566351213148,-0.24809279358446237,0.09350399028,-4.534125647965871,0.13636322676590956,-1.360471398338928, ,-0.4021056845697914,-0.4721240873555759,0.04962246579439253,-0.08130637745284629,-0.19556074767818854,0.4633979237442794, ,0.1272580623626709
0.011522373602706002,0.022083504131658757,-0.08381748843163404, ,0.010563108265202549,0.024406562391038625,-0.08465615483671292, ,0.0026495567559908124, ,-0.028509322685490723,0.055443316301404214,-0.046495304088898924,0.07658239786594655,0.4146921147498335,0.04114610521746593, ,0.07777246366679, ,0.4217039203110687, ,0.002517545947228701, ,0.15087130943085003,-0.2528577197678589,0.09401472854000001,-4.534335337909355,0.1351334982680206,-1.3562014876000377, ,-0.42364706052888745,-0.49425490395036864,0.05473818391752577,0.024663244746686058,-0.07438586005519729,0.4093271318811659, ,0.12924909591674805
0.011522373602706002,0.022083504131658757,-0.08381748843163404, ,0.010547696654255912,0.024504666529210833,-0.08476291362791977, ,0.002775941517923602, ,-0.028509322685490723,0.055443316301404214,-0.046495304088898924,0.07658239786594655,0.4146921147498335,0.04114610521746593, ,0.07777246366679, ,0.4217039203110687, ,0.0025215833780208087, ,0.15087130943085003,-0.2528577197678589,0.09401472854000001,-4.534335337909355,0.1351334982680206,-1.3562014876000377, ,-0.42364706052888745,-0.49425490395036864,0.05473818391752577,0.024663244746686058,-0.07438586005519729,0.4093271318811659, ,0.13118815422058105
0.011522373602706002,0.022083504131658757,-0.08381748843163404, ,0.010532640417916708,0.02460251554780487,-0.0848691076483694, ,0.0029036000531675646, ,-0.028509322685490723,0.055443316301404214,-0.046495304088898924,0.07658239786594655,0.4146921147498335,0.04114610521746593, ,0.07777246366679, ,0.4217039203110687, ,0.002527460557638451, ,0.15087130943085003,-0.2528577197678589,0.09401472854000001,-4.534335337909355,0.1351334982680206,-1.3562014876000377, ,-0.42364706052888745,-0.49425490395036864,0.05473818391752577,0.024663244746686058,-0.07438586005519729,0.4093271318811659, ,0.13313698768615723
0.011522373602706002,0.022083504131658757,-0.08381748843163404, ,0.010517938694799651,0.02470011003696087,-0.08497473857586486, ,0.0030322836022056016, ,-0.028509322685490723,0.055443316301404214,-0.046495304088898924,0.07658239786594655,0.4146921147498335,0.04114610521746593, ,0.07777246366679, ,0.4217039203110687, ,0.002535109391647044, ,0.15087130943085003,-0.2528577197678589,0.09401472854000001,-4.534335337909355,0.1351334982680206,-1.3562014876000377, ,-0.42364706052888745,-0.49425490395036864,0.05473818391752577,0.024663244746686058,-0.07438586005519729,0.4093271318811659, ,0.13506007194519043
0.011522373602706002,0.022083504131658757,-0.08381748843163404, ,0.010503590624424677,0.024797450585854728,-0.0850798080858348, ,0.003161783519227744, ,-0.028509322685490723,0.055443316301404214,-0.046495304088898924,0.07658239786594655,0.4146921147498335,0.04114610521746593, ,0.07777246366679, ,0.4217039203110687, ,0.0025444627368348158, ,0.15087130943085003,-0.2528577197678589,0.09401472854000001,-4.534335337909355,0.1351334982680206,-1.3562014876000377, ,-0.42364706052888745,-0.49425490395036864,0.05473818391752577,0.024663244746686058,-0.07438586005519729,0.4093271318811659, ,0.1370840072631836
0.01123352186824456,0.022666165176660008,-0.08431491148775543, ,0.010489595347216569,0.024894537782699053,-0.08518431785133541, ,0.0025049827474590385, ,-0.028225016314063493,0.05983128841543475,-0.0521705777932837,0.09361604212929557,0.44823234391696315,0.06192730355285753, ,0.08425083861104976, ,0.4579037136737082, ,0.00254388214875576, ,0.1465774699527812,-0.257985614396344,0.09460194791000001,-4.534335337909355,0.13458695226895884,-1.3517535577183644, ,-0.4217641847043146,-0.5185625221774359,0.06173957953488373,0.017200257655802274,-0.03670235523812432,0.42080277587285725, ,0.13910508155822754
0.01123352186824456,0.022666165176660008,-0.08431491148775543, ,0.010475952004504872,0.024991372214743825,-0.08528826954305044, ,0.002632095319742196, ,-0.028225016314063493,0.05983128841543475,-0.0521705777932837,0.09361604212929557,0.44823234391696315,0.06192730355285753, ,0.08425083861104976, ,0.4579037136737082, ,0.0025451606005091865, ,0.1465774699527812,-0.257985614396344,0.09460194791000001,-4.534335337909355,0.13458695226895884,-1.3517535577183644, ,-0.4217641847043146,-0.5185625221774359,0.06173957953488373,0.017200257655802274,-0.03670235523812432,0.42080277587285725, ,0.14121103286743164
0.01123352186824456,0.022666165176660008,-0.08431491148775543, ,0.010462659738523512,0.025087954468277347,-0.08539166482929365, ,0.002760197376012125, ,-0.028225016314063493,0.05983128841543475,-0.0521705777932837,0.09361604212929557,0.44823234391696315,0.06192730355285753, ,0.08425083861104976, ,0.4579037136737082, ,0.002548232554444943, ,0.1465774699527812,-0.257985614396344,0.09460194791000001,-4.534335337909355,0.13458695226895884,-1.3517535577183644, ,-0.4217641847043146,-0.5185625221774359,0.06173957953488373,0.017200257655802274,-0.03670235523812432,0.42080277587285725, ,0.1431741714477539
0.01123352186824456,0.022666165176660008,-0.08431491148775543, ,0.01044971769241056,0.025184285128626503,-0.08549450537600982, ,0.0028890688499503907, ,-0.028225016314063493,0.05983128841543475,-0.0521705777932837,0.09361604212929557,0.44823234391696315,0.06192730355285753, ,0.08425083861104976, ,0.4579037136737082, ,0.002553033065649245, ,0.1465774699527812,-0.257985614396344,0.09460194791000001,-4.534335337909355,0.13458695226895884,-1.3517535577183644, ,-0.4217641847043146,-0.5185625221774359,0.06173957953488373,0.017200257655802274,-0.03670235523812432,0.42080277587285725, ,0.14516615867614746
0.01123352186824456,0.022666165176660008,-0.08431491148775543, ,0.010437125010208048,0.02528036478015811,-0.08559679284677618, ,0.0030185273464099953, ,-0.028225016314063493,0.05983128841543475,-0.0521705777932837,0.09361604212929557,0.44823234391696315,0.06192730355285753, ,0.08425083861104976, ,0.4579037136737082, ,0.0025594982639931445, ,0.1465774699527812,-0.257985614396344,0.09460194791000001,-4.534335337909355,0.13458695226895884,-1.3517535577183644, ,-0.4217641847043146,-0.5185625221774359,0.06173957953488373,0.017200257655802274,-0.03670235523812432,0.42080277587285725, ,0.14718914031982422
0.01096784213475672,0.023281480012557674,-0.08486323307222729, ,0.010424880836861623,0.02537619400627925,-0.08569852890280345, ,0.00231955875353112, ,-0.025323489351359356,0.06283774906843605,-0.05579803333427134,0.028160881961573993,0.36180257046978326,0.04914009074813994, ,0.08776834477696728, ,0.3628961206729072, ,0.0025562114213840757, ,0.1424844215294422,-0.26324479548369084,0.09525268549,-4.534335337909355,0.1337671332703662,-1.3470827920292985, ,-0.3970583328806309,-0.5331288851599482,0.06664774694560671,0.013177580392846324,-0.11032139392011207,0.49081034961239234, ,0.14918017387390137
0.01096784213475672,0.023281480012557674,-0.08486323307222729, ,0.010412984318220329,0.02547177338943814,-0.08579971520293778, ,0.0024458640711450064, ,-0.025323489351359356,0.06283774906843605,-0.05579803333427134,0.028160881961573993,0.36180257046978326,0.04914009074813994, ,0.08776834477696728, ,0.3628961206729072, ,0.0025547202409754396, ,0.1424844215294422,-0.26324479548369084,0.09525268549,-4.534335337909355,0.1337671332703662,-1.3470827920292985, ,-0.3970583328806309,-0.5331288851599482,0.06664774694560671,0.013177580392846324,-0.11032139392011207,0.49081034961239234, ,0.15128421783447266
0.01096784213475672,0.023281480012557674,-0.08486323307222729, ,0.010401434601036385,0.025567103511125115,-0.08590035340366149, ,0.002573035338531714, ,-0.025323489351359356,0.06283774906843605,-0.05579803333427134,0.028160881961573993,0.36180257046978326,0.04914009074813994, ,0.08776834477696728, ,0.3628961206729072, ,0.0025549644422761895, ,0.1424844215294422,-0.26324479548369084,0.09525268549,-4.534335337909355,0.1337671332703662,-1.3470827920292985, ,-0.3970583328806309,-0.5331288851599482,0.06664774694560671,0.013177580392846324,-0.11032139392011207,0.49081034961239234, ,0.15401816368103027
0.01096784213475672,0.023281480012557674,-0.08486323307222729, ,0.010390230832964916,0.025662184951872783,-0.0860004451590952, ,0.002700859521440435, ,-0.025323489351359356,0.06283774906843605,-0.05579803333427134,0.028160881961573993,0.36180257046978326,0.04914009074813994, ,0.08776834477696728, ,0.3628961206729072, ,0.0025568841143704564, ,0.1424844215294422,-0.26324479548369084,0.09525268549,-4.534335337909355,0.1337671332703662,-1.3470827920292985, ,-0.3970583328806309,-0.5331288851599482,0.06664774694560671,0.013177580392846324,-0.11032139392011207,0.49081034961239234, ,0.15607118606567383
0.01096784213475672,0.023281480012557674,-0.08486323307222729, ,0.010379372162563658,0.025757018291257407,-0.08609999212099806, ,0.0028291623534532117, ,-0.025323489351359356,0.06283774906843605,-0.05579803333427134,0.028160881961573993,0.36180257046978326,0.04914009074813994, ,0.08776834477696728, ,0.3628961206729072, ,0.002560420195397505, ,0.1424844215294422,-0.26324479548369084,0.09525268549,-4.534335337909355,0.1337671332703662,-1.3470827920292985, ,-0.3970583328806309,-0.5331288851599482,0.06664774694560671,0.013177580392846324,-0.11032139392011207,0.49081034961239234, ,0.15844011306762695
0.010759114385446448,0.02383322081716837,-0.08536579246067486, ,0.010368857739292792,0.025851604107899363,-0.08619899593877037, ,0.002218197329833311, ,-0.023428482942515726,0.06463111782743336,-0.05876524558623651,0.09697980731659223,0.31222257272644577,0.04219426681612618, ,0.0904401973318392, ,0.3269362585169635, ,0.0025560327227620665, ,0.139140478194903,-0.2678552670096029,0.09585286776000002,-4.534335337909355,0.1326740412722427,-1.343169335414526, ,-0.37807546437637757,-0.536140912759722,0.07048146690265487,0.010957606713555841,-0.13203081249682688,0.42116275161220895, ,0.16043901443481445
0.010759114385446448,0.02383322081716837,-0.08536579246067486, ,0.010358686713514555,0.02594594297946389,-0.08629745825945397, ,0.0023434885141852472, ,-0.023428482942515726,0.06463111782743336,-0.05876524558623651,0.09697980731659223,0.31222257272644577,0.04219426681612618, ,0.0904401973318392, ,0.3269362585169635, ,0.0025533422897421067, ,0.139140478194903,-0.2678552670096029,0.09585286776000002,-4.534335337909355,0.1326740412722427,-1.343169335414526, ,-0.37807546437637757,-0.536140912759722,0.07048146690265487,0.010957606713555841,-0.13203081249682688,0.42116275161220895, ,0.16240620613098145
0.010759114385446448,0.02383322081716837,-0.08536579246067486, ,0.010348858236493145,0.026040035482661893,-0.08639538072773417, ,0.0024694924732133706, ,-0.023428482942515726,0.06463111782743336,-0.05876524558623651,0.09697980731659223,0.31222257272644577,0.04219426681612618, ,0.0904401973318392, ,0.3269362585169635, ,0.0025522941670354975, ,0.139140478194903,-0.2678552670096029,0.09585286776000002,-4.534335337909355,0.1326740412722427,-1.343169335414526, ,-0.37807546437637757,-0.536140912759722,0.07048146690265487,0.010957606713555841,-0.13203081249682688,0.42116275161220895, ,0.16431498527526855
0.010759114385446448,0.02383322081716837,-0.08536579246067486, ,0.010339371460394329,0.0261338821932506,-0.08649276498594102, ,0.0025960150159875218, ,-0.023428482942515726,0.06463111782743336,-0.05876524558623651,0.09697980731659223,0.31222257272644577,0.04219426681612618, ,0.0904401973318392, ,0.3269362585169635, ,0.0025528339306028066, ,0.139140478194903,-0.2678552670096029,0.09585286776000002,-4.534335337909355,0.1326740412722427,-1.343169335414526, ,-0.37807546437637757,-0.536140912759722,0.07048146690265487,0.010957606713555841,-0.13203081249682688,0.42116275161220895, ,0.16626214981079102
0.010759114385446448,0.02383322081716837,-0.08536579246067486, ,0.0103302255382853,0.026227483686034468,-0.08658961267405052, ,0.0027228985003332376, ,-0.023428482942515726,0.06463111782743336,-0.05876524558623651,0.09697980731659223,0.31222257272644577,0.04219426681612618, ,0.0904401973318392, ,0.3269362585169635, ,0.002554907888770251, ,0.139140478194903,-0.2678552670096029,0.09585286776000002,-4.534335337909355,0.1326740412722427,-1.343169335414526, ,-0.37807546437637757,-0.536140912759722,0.07048146690265487,0.010957606713555841,-0.13203081249682688,0.42116275161220895, ,0.16813421249389648
0.010500063008221984,0.02456598813734005,-0.0860122765223077, ,0.010321419624134315,0.02632084053486576,-0.08668592542968558, ,0.001888179876545517, ,-0.021756018405214364,0.06220605732108545,-0.051801444970511236,0.2822215713131458,0.2090826146483329,0.018775682804104743, ,0.0838230732275732, ,0.3512323761588341, ,0.0025468750211530855, ,0.13496247970994754,-0.27394078051449183,0.09663582692000001,-4.534335337909355,0.13089776677529194,-1.3396789341629587, ,-0.347607844536523,-0.5214117668047844,0.06371524608000001,0.008936585920239886,-0.1787798533159169,0.21271984617197554, ,0.17106413841247559
0.010500063008221984,0.02456598813734005,-0.0860122765223077, ,0.01031295287281059,0.026413953312645472,-0.0867817048881186, ,0.0020104739496023573, ,-0.021756018405214364,0.06220605732108545,-0.051801444970511236,0.2822215713131458,0.2090826146483329,0.018775682804104743, ,0.0838230732275732, ,0.3512323761588341, ,0.002540489294110815, ,0.13496247970994754,-0.27394078051449183,0.09663582692000001,-4.534335337909355,0.13089776677529194,-1.3396789341629587, ,-0.347607844536523,-0.5214117668047844,0.06371524608000001,0.008936585920239886,-0.1787798533159169,0.21271984617197554, ,0.17311501502990723
0.010500063008221984,0.02456598813734005,-0.0860122765223077, ,0.010304824440083848,0.026506822591323975,-0.08687695268227145, ,0.0021336872633704747, ,-0.021756018405214364,0.06220605732108545,-0.051801444970511236,0.2822215713131458,0.2090826146483329,0.018775682804104743, ,0.0838230732275732, ,0.3512323761588341, ,0.002535703387866811, ,0.13496247970994754,-0.27394078051449183,0.09663582692000001,-4.534335337909355,0.13089776677529194,-1.3396789341629587, ,-0.347607844536523,-0.5214117668047844,0.06371524608000001,0.008936585920239886,-0.1787798533159169,0.21271984617197554, ,0.17516613006591797
0.010500063008221984,0.02456598813734005,-0.0860122765223077, ,0.01029703348262426,0.026599448941901693,-0.0869716704427179, ,0.002257569606119155, ,-0.021756018405214364,0.06220605732108545,-0.051801444970511236,0.2822215713131458,0.2090826146483329,0.018775682804104743, ,0.0838230732275732, ,0.3512323761588341, ,0.0025324692741255594, ,0.13496247970994754,-0.27394078051449183,0.09663582692000001,-4.534335337909355,0.13089776677529194,-1.3396789341629587, ,-0.347607844536523,-0.5214117668047844,0.06371524608000001,0.008936585920239886,-0.1787798533159169,0.21271984617197554, ,0.17710018157958984
0.010295577213346889,0.025154105132712143,-0.08648092651157484, ,0.010289579158002053,0.026691832934429987,-0.08706585979768411, ,0.0016452324206757242, ,-0.020402324294918533,0.06099102287485385,-0.047533050241995736,0.25066822216819207,0.09335167500878917,-0.005999525579847002, ,0.07997218624787032, ,0.26748616820866805, ,0.002522271149373262, ,0.13168804097127634,-0.27890649775261817,0.09721915742000001,-4.534125647965871,0.1287115827790449,-1.337651211483394, ,-0.33297172476656417,-0.5157442476003846,0.05965847011235956,0.0,-0.28476752189920834,0.22288555812180105, ,0.17911410331726074
0.010295577213346889,0.025154105132712143,-0.08648092651157484, ,0.010282460624687344,0.02678397513801185,-0.08715952237305105, ,0.001765542585803689, ,-0.020402324294918533,0.06099102287485385,-0.047533050241995736,0.25066822216819207,0.09335167500878917,-0.005999525579847002, ,0.07997218624787032, ,0.26748616820866805, ,0.0025136719611508805, ,0.13168804097127634,-0.27890649775261817,0.09721915742000001,-4.534125647965871,0.1287115827790449,-1.337651211483394, ,-0.33297172476656417,-0.5157442476003846,0.05965847011235956,0.0,-0.28476752189920834,0.22288555812180105, ,0.1814260482788086
0.010295577213346889,0.025154105132712143,-0.08648092651157484, ,0.010275677042049819,0.026875876120802736,-0.08725265979235433, ,0.0018869190785274258, ,-0.020402324294918533,0.06099102287485385,-0.047533050241995736,0.25066822216819207,0.09335167500878917,-0.005999525579847002, ,0.07997218624787032, ,0.26748616820866805, ,0.002506629793930392, ,0.13168804097127634,-0.27890649775261817,0.09721915742000001,-4.534125647965871,0.1287115827790449,-1.337651211483394, ,-0.33297172476656417,-0.5157442476003846,0.05965847011235956,0.0,-0.28476752189920834,0.22288555812180105, ,0.18342113494873047
0.010295577213346889,0.025154105132712143,-0.08648092651157484, ,0.010269227570358565,0.026967536450011122,-0.0873452736767872, ,0.0020090603446031594, ,-0.020402324294918533,0.06099102287485385,-0.047533050241995736,0.25066822216819207,0.09335167500878917,-0.005999525579847002, ,0.07997218624787032, ,0.26748616820866805, ,0.0025011012444934233, ,0.13168804097127634,-0.27890649775261817,0.09721915742000001,-4.534125647965871,0.1287115827790449,-1.337651211483394, ,-0.33297172476656417,-0.5157442476003846,0.05965847011235956,0.0,-0.28476752189920834,0.22288555812180105, ,0.18589019775390625
0.010093061156014207,0.025804077492811064,-0.08697308819566058, ,0.010263111370781675,0.0270589566918994,-0.08743736564520074, ,0.001348774417758051, ,-0.01762480946326949,0.059138718975943416,-0.04334256825242545,0.17688732603673676,-0.010535208144405854,-0.03316266196682676, ,0.07540954988228164, ,0.17720034922289574, ,0.0024884383123314957, ,0.12828231577374333,-0.28441280629194027,0.0978439692,-4.534125647965871,0.125022397285378,-1.334806285563872, ,-0.30030677708376824,-0.5021002198860888,0.055695145174825184,0.0,-0.3676350578317784,0.2721222387225658, ,0.19009900093078613
0.010093061156014207,0.025804077492811064,-0.08697308819566058, ,0.010257327605386191,0.02715013741178462,-0.08752893731410614, ,0.0014655473429176877, ,-0.01762480946326949,0.059138718975943416,-0.04334256825242545,0.17688732603673676,-0.010535208144405854,-0.03316266196682676, ,0.07540954988228164, ,0.17720034922289574, ,0.002477319932229172, ,0.12828231577374333,-0.28441280629194027,0.0978439692,-4.534125647965871,0.125022397285378,-1.334806285563872, ,-0.30030677708376824,-0.5021002198860888,0.055695145174825184,0.0,-0.3676350578317784,0.2721222387225658, ,0.19221019744873047
0.010093061156014207,0.025804077492811064,-0.08697308819566058, ,0.010251875437137608,0.027241079174039215,-0.08761999029767503, ,0.0015838807206769066, ,-0.01762480946326949,0.059138718975943416,-0.04334256825242545,0.17688732603673676,-0.010535208144405854,-0.03316266196682676, ,0.07540954988228164, ,0.17720034922289574, ,0.0024677130589866743, ,0.12828231577374333,-0.28441280629194027,0.0978439692,-4.534125647965871,0.125022397285378,-1.334806285563872, ,-0.30030677708376824,-0.5021002198860888,0.055695145174825184,0.0,-0.3676350578317784,0.2721222387225658, ,0.1942131519317627
0.010093061156014207,0.025804077492811064,-0.08697308819566058, ,0.010246754029899949,0.02733178254209163,-0.08771052620774189, ,0.001703325875674716, ,-0.01762480946326949,0.059138718975943416,-0.04334256825242545,0.17688732603673676,-0.010535208144405854,-0.03316266196682676, ,0.07540954988228164, ,0.17720034922289574, ,0.0024595812804408023, ,0.12828231577374333,-0.28441280629194027,0.0978439692,-4.534125647965871,0.125022397285378,-1.334806285563872, ,-0.30030677708376824,-0.5021002198860888,0.055695145174825184,0.0,-0.3676350578317784,0.2721222387225658, ,0.19620108604431152
0.010093061156014207,0.025804077492811064,-0.08697308819566058, ,0.010241962548435093,0.027422248078427452,-0.08780054665380428, ,0.0018235501552665123, ,-0.01762480946326949,0.059138718975943416,-0.04334256825242545,0.17688732603673676,-0.010535208144405854,-0.03316266196682676, ,0.07540954988228164, ,0.17720034922289574, ,0.0024528862159652835, ,0.12828231577374333,-0.28441280629194027,0.0978439692,-4.534125647965871,0.125022397285378,-1.334806285563872, ,-0.30030677708376824,-0.5021002198860888,0.055695145174825184,0.0,-0.3676350578317784,0.2721222387225658, ,0.19815707206726074
0.009930494391479142,0.026341749142749657,-0.08734832892518893, ,0.01023750015840293,0.027512476344589566,-0.0878900532430255, ,0.001326016575532849, ,-0.01678800339774443,0.055437503430428026,-0.037083841636078675,0.2768987645783082,0.06855162933447975,-0.003268737429915883, ,0.06877765011376269, ,0.28525809642535294, ,0.0024411479905441123, ,0.1256256956650101,-0.2890001096192296,0.09833396682000001,-4.534125647965871,0.12228966729006921,-1.3329046424505058, ,-0.26581776346910585,-0.47448470779235385,0.049162998518518526,0.0,-0.23222535395819258,0.162775148035355, ,0.20030617713928223
0.009930494391479142,0.026341749142749657,-0.08734832892518893, ,0.010233366026360796,0.027602467901179532,-0.08797904758023507, ,0.0014418561082493876, ,-0.01678800339774443,0.055437503430428026,-0.037083841636078675,0.2768987645783082,0.06855162933447975,-0.003268737429915883, ,0.06877765011376269, ,0.28525809642535294, ,0.0024308460123761257, ,0.1256256956650101,-0.2890001096192296,0.09833396682000001,-4.534125647965871,0.12228966729006921,-1.3329046424505058, ,-0.26581776346910585,-0.47448470779235385,0.049162998518518526,0.0,-0.23222535395819258,0.162775148035355, ,0.20234298706054688
0.009930494391479142,0.026341749142749657,-0.08734832892518893, ,0.01022955931976344,0.027692223307857852,-0.08806753126793006, ,0.0015589972135185805, ,-0.01678800339774443,0.055437503430428026,-0.037083841636078675,0.2768987645783082,0.06855162933447975,-0.003268737429915883, ,0.06877765011376269, ,0.28525809642535294, ,0.0024219495960612525, ,0.1256256956650101,-0.2890001096192296,0.09833396682000001,-4.534125647965871,0.12228966729006921,-1.3329046424505058, ,-0.26581776346910585,-0.47448470779235385,0.049162998518518526,0.0,-0.23222535395819258,0.162775148035355, ,0.2043910026550293
0.009930494391479142,0.026341749142749657,-0.08734832892518893, ,0.010226079206962606,0.02778174312334488,-0.08815550590627674, ,0.0016770473237487692, ,-0.01678800339774443,0.055437503430428026,-0.037083841636078675,0.2768987645783082,0.06855162933447975,-0.003268737429915883, ,0.06877765011376269, ,0.28525809642535294, ,0.002414425330684359, ,0.1256256956650101,-0.2890001096192296,0.09833396682000001,-4.534125647965871,0.12228966729006921,-1.3329046424505058, ,-0.26581776346910585,-0.47448470779235385,0.049162998518518526,0.0,-0.23222535395819258,0.162775148035355, ,0.20650100708007812
0.009774037890584182,0.026896459752049205,-0.08771432439590336, ,0.010222924857206925,0.027871027905421845,-0.08824297309311246, ,0.0011961404764628631, ,-0.01353271815244715,0.053168651609269355,-0.035095646267569426,0.31165209460041604,0.07306260076699872,0.008495576837722039, ,0.06512867541628489, ,0.32010173141707715, ,0.0024022424821421437, ,0.12315442114525825,-0.293726422138255,0.09882396444000001,-4.534125647965871,0.12037675629335302,-1.3314264705388963, ,-0.21815388864016272,-0.4497485381918046,0.04726650302670624,0.0,-0.16990379570104555,0.11185501877283739, ,0.20959901809692383
0.009774037890584182,0.026896459752049205,-0.08771432439590336, ,0.010220095440641475,0.027960078210931053,-0.08832993442394566, ,0.00130737418922952, ,-0.01353271815244715,0.053168651609269355,-0.035095646267569426,0.31165209460041604,0.07306260076699872,0.008495576837722039, ,0.06512867541628489, ,0.32010173141707715, ,0.002391402202014296, ,0.12315442114525825,-0.293726422138255,0.09882396444000001,-4.534125647965871,0.12037675629335302,-1.3314264705388963, ,-0.21815388864016272,-0.4497485381918046,0.04726650302670624,0.0,-0.16990379570104555,0.11185501877283739, ,0.21169519424438477
0.009774037890584182,0.026896459752049205,-0.08771432439590336, ,0.010217590128307768,0.028048894595777033,-0.08841639149195858, ,0.0014204727607353097, ,-0.01353271815244715,0.053168651609269355,-0.035095646267569426,0.31165209460041604,0.07306260076699872,0.008495576837722039, ,0.06512867541628489, ,0.32010173141707715, ,0.0023818832859233254, ,0.12315442114525825,-0.293726422138255,0.09882396444000001,-4.534125647965871,0.12037675629335302,-1.3314264705388963, ,-0.21815388864016272,-0.4497485381918046,0.04726650302670624,0.0,-0.16990379570104555,0.11185501877283739, ,0.21367120742797852
0.009774037890584182,0.026896459752049205,-0.08771432439590336, ,0.010215408092143287,0.028137477614927294,-0.0885023458880079, ,0.001534897671776684, ,-0.01353271815244715,0.053168651609269355,-0.035095646267569426,0.31165209460041604,0.07306260076699872,0.008495576837722039, ,0.06512867541628489, ,0.32010173141707715, ,0.0023736601246209313, ,0.12315442114525825,-0.293726422138255,0.09882396444000001,-4.534125647965871,0.12037675629335302,-1.3314264705388963, ,-0.21815388864016272,-0.4497485381918046,0.04726650302670624,0.0,-0.16990379570104555,0.11185501877283739, ,0.21570110321044922
0.009774037890584182,0.026896459752049205,-0.08771432439590336, ,0.010213548504981332,0.028225827822412765,-0.088587799200626, ,0.0016502567318920835, ,-0.01353271815244715,0.053168651609269355,-0.035095646267569426,0.31165209460041604,0.07306260076699872,0.008495576837722039, ,0.06512867541628489, ,0.32010173141707715, ,0.002366704322767769, ,0.12315442114525825,-0.293726422138255,0.09882396444000001,-4.534125647965871,0.12037675629335302,-1.3314264705388963, ,-0.21815388864016272,-0.4497485381918046,0.04726650302670624,0.0,-0.16990379570104555,0.11185501877283739, ,0.21799802780151367
0.009656193097314601,0.02741252787734955,-0.08806494180913774, ,0.01021201054055078,0.028313945771328973,-0.08867275301602337, ,0.001221033051562353, ,-0.00966351140989335,0.04963813018517997,-0.03359451458453284,0.19685014849068083,0.014360911514114186,-0.0020617984246413834, ,0.060711768473833826, ,0.19737318447641816, ,0.002355793167803908, ,0.12116967879658255,-0.2980357070820723,0.09929451771000002,-4.534125647965871,0.1186004817964023,-1.3298963590507022, ,-0.1738039222682615,-0.41259539808030776,0.045381229401709404,0.0,-0.19602274075109372,0.186933585448303, ,0.21994400024414062
0.009656193097314601,0.02741252787734955,-0.08806494180913774, ,0.010210793373475717,0.02840183201383632,-0.08875720891808815, ,0.001328735448056679, ,-0.00966351140989335,0.04963813018517997,-0.03359451458453284,0.19685014849068083,0.014360911514114186,-0.0020617984246413834, ,0.060711768473833826, ,0.19737318447641816, ,0.0023461039440327075, ,0.12116967879658255,-0.2980357070820723,0.09929451771000002,-4.534125647965871,0.1186004817964023,-1.3298963590507022, ,-0.1738039222682615,-0.41259539808030776,0.045381229401709404,0.0,-0.19602274075109372,0.186933585448303, ,0.22192120552062988
0.009656193097314601,0.02741252787734955,-0.08806494180913774, ,0.010209896179275379,0.02848948710116129,-0.08884116848838951, ,0.0014383866414522481, ,-0.00966351140989335,0.04963813018517997,-0.03359451458453284,0.19685014849068083,0.014360911514114186,-0.0020617984246413834, ,0.060711768473833826, ,0.19737318447641816, ,0.0023376206047562545, ,0.12116967879658255,-0.2980357070820723,0.09929451771000002,-4.534125647965871,0.1186004817964023,-1.3298963590507022, ,-0.1738039222682615,-0.41259539808030776,0.045381229401709404,0.0,-0.19602274075109372,0.186933585448303, ,0.22394609451293945
0.009656193097314601,0.02741252787734955,-0.08806494180913774, ,0.01020931813436372,0.02857691158359687,-0.08892463330617742, ,0.0015494535140065232, ,-0.00966351140989335,0.04963813018517997,-0.03359451458453284,0.19685014849068083,0.014360911514114186,-0.0020617984246413834, ,0.060711768473833826, ,0.19737318447641816, ,0.002330322761323387, ,0.12116967879658255,-0.2980357070820723,0.09929451771000002,-4.534125647965871,0.1186004817964023,-1.3298963590507022, ,-0.1738039222682615,-0.41259539808030776,0.045381229401709404,0.0,-0.19602274075109372,0.186933585448303, ,0.22597599029541016
0.009656193097314601,0.02741252787734955,-0.08806494180913774, ,0.010209058416049206,0.02866410601050336,-0.08900760494838472, ,0.0016615419579845928, ,-0.00966351140989335,0.04963813018517997,-0.03359451458453284,0.19685014849068083,0.014360911514114186,-0.0020617984246413834, ,0.060711768473833826, ,0.19737318447641816, ,0.0023241871576230306, ,0.12116967879658255,-0.2980357070820723,0.09929451771000002,-4.534125647965871,0.1186004817964023,-1.3298963590507022, ,-0.1738039222682615,-0.41259539808030776,0.045381229401709404,0.0,-0.19602274075109372,0.186933585448303, ,0.22790908813476562
0.009575547739923864,0.02790204155590794,-0.08839353948982448, ,0.010209116202534643,0.028751070930309354,-0.08909008498962878, ,0.0012678468001730597, ,-0.005861589903731195,0.04682416507331248,-0.03181148579449596,0.09155414563465882,-0.026523390055689607,-0.00524262613215489, ,0.056910730969350225, ,0.09531851459862016, ,0.0023145840634643945, ,0.11961740948886343,-0.30209014184104016,0.09974173776,-4.534125647965871,0.11655093429992071,-1.3274083030938506, ,-0.1284126408098387,-0.38419814396142016,0.0434027561852861,0.0,-0.20241777078602619,0.2639766559426355, ,0.22988605499267578
0.009575547739923864,0.02790204155590794,-0.08839353948982448, ,0.010209490672916818,0.028837806890512144,-0.0891720750022121, ,0.0013724641881620347, ,-0.005861589903731195,0.04682416507331248,-0.03181148579449596,0.09155414563465882,-0.026523390055689607,-0.00524262613215489, ,0.056910730969350225, ,0.09531851459862016, ,0.0023060964970202293, ,0.11961740948886343,-0.30209014184104016,0.09974173776,-4.534125647965871,0.11655093429992071,-1.3274083030938506, ,-0.1284126408098387,-0.38419814396142016,0.0434027561852861,0.0,-0.20241777078602619,0.2639766559426355, ,0.23183798789978027
0.009575547739923864,0.02790204155590794,-0.08839353948982448, ,0.010210181007186285,0.02892431443767864,-0.0892535765561238, ,0.0014790081082024834, ,-0.005861589903731195,0.04682416507331248,-0.03181148579449596,0.09155414563465882,-0.026523390055689607,-0.00524262613215489, ,0.056910730969350225, ,0.09531851459862016, ,0.002298711779262928, ,0.11961740948886343,-0.30209014184104016,0.09974173776,-4.534125647965871,0.11655093429992071,-1.3274083030938506, ,-0.1284126408098387,-0.38419814396142016,0.0434027561852861,0.0,-0.20241777078602619,0.2639766559426355, ,0.23374104499816895
0.009575547739923864,0.02790204155590794,-0.08839353948982448, ,0.010211186386227141,0.029010594117446286,-0.08933459121904215, ,0.0015869794035938396, ,-0.005861589903731195,0.04682416507331248,-0.03181148579449596,0.09155414563465882,-0.026523390055689607,-0.00524262613215489, ,0.056910730969350225, ,0.09531851459862016, ,0.0022924132626640868, ,0.11961740948886343,-0.30209014184104016,0.09974173776,-4.534125647965871,0.11655093429992071,-1.3274083030938506, ,-0.1284126408098387,-0.38419814396142016,0.0434027561852861,0.0,-0.20241777078602619,0.2639766559426355, ,0.2356581687927246
0.009575547739923864,0.02790204155590794,-0.08839353948982448, ,0.010212505991816745,0.029096646474523324,-0.08941512055633422, ,0.001696002535872418, ,-0.005861589903731195,0.04682416507331248,-0.03181148579449596,0.09155414563465882,-0.026523390055689607,-0.00524262613215489, ,0.056910730969350225, ,0.09531851459862016, ,0.0022871815896220544, ,0.11961740948886343,-0.30209014184104016,0.09974173776,-4.534125647965871,0.11655093429992071,-1.3274083030938506, ,-0.1284126408098387,-0.38419814396142016,0.0434027561852861,0.0,-0.20241777078602619,0.2639766559426355, ,0.23765921592712402
0.009534367371829942,0.02837130973284569,-0.0887224947500094, ,0.010214139006625442,0.029182472052690134,-0.08949516613105805, ,0.0013103796578471444, ,-0.0018953698227516073,0.044640442531009086,-0.03253201545352894,0.04529782067859429,-0.039266073499621405,0.001604952386570946, ,0.055269282296751134, ,0.05994731560529681, ,0.0022786876597805338, ,0.11852850415359778,-0.30588200368228435,0.10018895781,-4.534125647965871,0.11463802330320454,-1.324459913859711, ,-0.08103923275702031,-0.354093065516682,0.04400224176795581,0.0,-0.16879655734504112,0.28535740806490395, ,0.24001407623291016
0.009534367371829942,0.02837130973284569,-0.0887224947500094, ,0.010216084614216338,0.029268071394799627,-0.08957472950396474, ,0.0014125239653777944, ,-0.0018953698227516073,0.044640442531009086,-0.03253201545352894,0.04529782067859429,-0.039266073499621405,0.001604952386570946, ,0.055269282296751134, ,0.05994731560529681, ,0.00227122073138051, ,0.11852850415359778,-0.30588200368228435,0.10018895781,-4.534125647965871,0.11463802330320454,-1.324459913859711, ,-0.08103923275702031,-0.354093065516682,0.04400224176795581,0.0,-0.16879655734504112,0.28535740806490395, ,0.24198102951049805
0.009534367371829942,0.02837130973284569,-0.0887224947500094, ,0.010218341999045083,0.02935344504277804,-0.08965381223349805, ,0.0015164970533244173, ,-0.0018953698227516073,0.044640442531009086,-0.03253201545352894,0.04529782067859429,-0.039266073499621405,0.001604952386570946, ,0.055269282296751134, ,0.05994731560529681, ,0.0022647701016535347, ,0.11852850415359778,-0.30588200368228435,0.10018895781,-4.534125647965871,0.11463802330320454,-1.324459913859711, ,-0.08103923275702031,-0.354093065516682,0.04400224176795581,0.0,-0.16879655734504112,0.28535740806490395, ,0.24397921562194824
0.009534367371829942,0.02837130973284569,-0.0887224947500094, ,0.010220910346459524,0.0294385935376257,-0.08973241587579751, ,0.0016218435979686995, ,-0.0018953698227516073,0.044640442531009086,-0.03253201545352894,0.04529782067859429,-0.039266073499621405,0.001604952386570946, ,0.055269282296751134, ,0.05994731560529681, ,0.0022593215719612903, ,0.11852850415359778,-0.30588200368228435,0.10018895781,-4.534125647965871,0.11463802330320454,-1.324459913859711, ,-0.08103923275702031,-0.354093065516682,0.04400224176795581,0.0,-0.16879655734504112,0.28535740806490395, ,0.24593305587768555
0.009534367371829942,0.02837130973284569,-0.0887224947500094, ,0.010223788842699527,0.029523517419417777,-0.08981054198469912, ,0.00172821621980808, ,-0.0018953698227516073,0.044640442531009086,-0.03253201545352894,0.04529782067859429,-0.039266073499621405,0.001604952386570946, ,0.055269282296751134, ,0.05994731560529681, ,0.0022548585017751286, ,0.11852850415359778,-0.30588200368228435,0.10018895781,-4.534125647965871,0.11463802330320454,-1.324459913859711, ,-0.08103923275702031,-0.354093065516682,0.04400224176795581,0.0,-0.16879655734504112,0.28535740806490395, ,0.24799799919128418
0.009534367371829942,0.02837130973284569,-0.0887224947500094, ,0.010226976674896691,0.02960821722730511,-0.089888192111736, ,0.001835346870670731, ,-0.0018953698227516073,0.044640442531009086,-0.03253201545352894,0.04529782067859429,-0.039266073499621405,0.001604952386570946, ,0.055269282296751134, ,0.05994731560529681, ,0.002251362571515925, ,0.11790296279078559,-0.3091332742223329,0.10063747415,-4.534125647965871,0.11327165830555012,-1.3219571962403571, ,-0.05023660220141386,-0.31527223109126506,0.047548691104477625,0.0,-0.12023511674555894,0.23827562293537008, ,0.250028133392334
0.00953052910903115,0.028796060375433932,-0.08906122878201816, ,0.010230473031074142,0.029692693499514883,-0.0899653678061411, ,0.0014530450193115392, ,0.0008693293612024181,0.042557083833542356,-0.036492823826467145,0.06024638633129052,-0.030686979390922166,0.009579946709272983, ,0.05606770290267802, ,0.0676110423694996, ,0.0022447649057952277, ,0.11790296279078559,-0.3091332742223329,0.10063747415,-4.534125647965871,0.11327165830555012,-1.3219571962403571, ,-0.05023660220141386,-0.31527223109126506,0.047548691104477625,0.0,-0.12023511674555894,0.23827562293537008, ,0.25281405448913574
0.00953052910903115,0.028796060375433932,-0.08906122878201816, ,0.010234277100146178,0.029776946773351277,-0.09004207061484723, ,0.0015554581516855999, ,0.0008693293612024181,0.042557083833542356,-0.036492823826467145,0.06024638633129052,-0.030686979390922166,0.009579946709272983, ,0.05606770290267802, ,0.0676110423694996, ,0.0022391148504336735, ,0.11790296279078559,-0.3091332742223329,0.10063747415,-4.534125647965871,0.11327165830555012,-1.3219571962403571, ,-0.05023660220141386,-0.31527223109126506,0.047548691104477625,0.0,-0.12023511674555894,0.23827562293537008, ,0.2552189826965332
0.00953052910903115,0.028796060375433932,-0.08906122878201816, ,0.01023838807191813,0.029860977585196433,-0.09011830208248992, ,0.001659071106842025, ,0.0008693293612024181,0.042557083833542356,-0.036492823826467145,0.06024638633129052,-0.030686979390922166,0.009579946709272983, ,0.05606770290267802, ,0.0676110423694996, ,0.0022343990476402457, ,0.11790296279078559,-0.3091332742223329,0.10063747415,-4.534125647965871,0.11327165830555012,-1.3219571962403571, ,-0.05023660220141386,-0.31527223109126506,0.047548691104477625,0.0,-0.12023511674555894,0.23827562293537008, ,0.25725817680358887
0.009560305613198752,0.02919189944800165,-0.0894250587963873, ,0.010242805137086029,0.029944786470511058,-0.0901940637514069, ,0.0012743677215051122, ,0.004980405187851195,0.040626778392991086,-0.03993490212331966,0.03755103870722701,-0.05372693459106127,0.011933785414941875, ,0.057185102658188026, ,0.06554816884619219, ,0.0022266568595262527, ,0.11764811260593618,-0.3119675171871733,0.10110543484000001,-4.534335337909355,0.1121785663074266,-1.3195956356882559, ,-0.006737646478510994,-0.2799319809984389,0.05072869910828026,0.0,-0.09711464653965322,0.22907799599868778, ,0.26001501083374023
0.009560305613198752,0.02919189944800165,-0.0894250587963873, ,0.010247527487236395,0.030028373963835186,-0.09026935716164121, ,0.0013728813675497136, ,0.004980405187851195,0.040626778392991086,-0.03993490212331966,0.03755103870722701,-0.05372693459106127,0.011933785414941875, ,0.057185102658188026, ,0.06554816884619219, ,0.0022198266555904403, ,0.11764811260593618,-0.3119675171871733,0.10110543484000001,-4.534335337909355,0.1121785663074266,-1.3195956356882559, ,-0.006737646478510994,-0.2799319809984389,0.05072869910828026,0.0,-0.09711464653965322,0.22907799599868778, ,0.2619740962982178
0.009560305613198752,0.02919189944800165,-0.0894250587963873, ,0.010252554314845974,0.030111740598788947,-0.09034418385094159, ,0.0014731282610565112, ,0.004980405187851195,0.040626778392991086,-0.03993490212331966,0.03755103870722701,-0.05372693459106127,0.011933785414941875, ,0.057185102658188026, ,0.06554816884619219, ,0.002213900477856044, ,0.11764811260593618,-0.3119675171871733,0.10110543484000001,-4.534335337909355,0.1121785663074266,-1.3195956356882559, ,-0.006737646478510994,-0.2799319809984389,0.05072869910828026,0.0,-0.09711464653965322,0.22907799599868778, ,0.2640681266784668
0.009560305613198752,0.02919189944800165,-0.0894250587963873, ,0.010257884813281467,0.03019488690807329,-0.09041854535476421, ,0.001574679690325808, ,0.004980405187851195,0.040626778392991086,-0.03993490212331966,0.03755103870722701,-0.05372693459106127,0.011933785414941875, ,0.057185102658188026, ,0.06554816884619219, ,0.002208867243308562, ,0.11764811260593618,-0.3119675171871733,0.10110543484000001,-4.534335337909355,0.1121785663074266,-1.3195956356882559, ,-0.006737646478510994,-0.2799319809984389,0.05072869910828026,0.0,-0.09711464653965322,0.22907799599868778, ,0.2662169933319092
0.009560305613198752,0.02919189944800165,-0.0894250587963873, ,0.010263518176799265,0.030277813423470887,-0.09049244320627381, ,0.0016772079627147525, ,0.004980405187851195,0.040626778392991086,-0.03993490212331966,0.03755103870722701,-0.05372693459106127,0.011933785414941875, ,0.057185102658188026, ,0.06554816884619219, ,0.002204713655178923, ,0.11764811260593618,-0.3119675171871733,0.10110543484000001,-4.534335337909355,0.1121785663074266,-1.3195956356882559, ,-0.006737646478510994,-0.2799319809984389,0.05072869910828026,0.0,-0.09711464653965322,0.22907799599868778, ,0.2682170867919922
0.009626127662699657,0.029595657270578432,-0.08983624186930327, ,0.01026945360054529,0.03036052067584657,-0.09056587893634521, ,0.0012374387017646214, ,0.006802700505817187,0.03664669418710379,-0.03788868249625796,0.029780501169200405,-0.058348385028405274,0.01215259910455161, ,0.05314893404685739, ,0.06550827584301716, ,0.0021972153997260988, ,0.11775623086617533,-0.31467819642602607,0.10162524713000001,-4.534125647965871,0.11135874730883397,-1.3174569109435472, ,0.01837307677801951,-0.2427031753413575,0.04783426882882884,0.0020740022268259193,-0.07233855948781906,0.20333566959221572, ,0.2704050540924072
0.009626127662699657,0.029595657270578432,-0.08983624186930327, ,0.010275690280554597,0.03044300919514844,-0.09063885407356448, ,0.0013357107579922015, ,0.006802700505817187,0.03664669418710379,-0.03788868249625796,0.029780501169200405,-0.058348385028405274,0.01215259910455161, ,0.05314893404685739, ,0.06550827584301716, ,0.0021905884409435306, ,0.11775623086617533,-0.31467819642602607,0.10162524713000001,-4.534125647965871,0.11135874730883397,-1.3174569109435472, ,0.01837307677801951,-0.2427031753413575,0.04783426882882884,0.0020740022268259193,-0.07233855948781906,0.20333566959221572, ,0.2724161148071289
0.009626127662699657,0.029595657270578432,-0.08983624186930327, ,0.010282227413751255,0.030525279510408183,-0.09071137014423078, ,0.0014354490202350132, ,0.006802700505817187,0.03664669418710379,-0.03788868249625796,0.029780501169200405,-0.058348385028405274,0.01215259910455161, ,0.05314893404685739, ,0.06550827584301716, ,0.002184824017884687, ,0.11775623086617533,-0.31467819642602607,0.10162524713000001,-4.534125647965871,0.11135874730883397,-1.3174569109435472, ,0.01837307677801951,-0.2427031753413575,0.04783426882882884,0.0020740022268259193,-0.07233855948781906,0.20333566959221572, ,0.27448415756225586
0.009626127662699657,0.029595657270578432,-0.08983624186930327, ,0.010289064197947981,0.030607332149742407,-0.09078342867235714, ,0.0015362726811272529, ,0.006802700505817187,0.03664669418710379,-0.03788868249625796,0.029780501169200405,-0.058348385028405274,0.01215259910455161, ,0.05314893404685739, ,0.06550827584301716, ,0.0021799107501819792, ,0.11775623086617533,-0.31467819642602607,0.10162524713000001,-4.534125647965871,0.11135874730883397,-1.3174569109435472, ,0.01837307677801951,-0.2427031753413575,0.04783426882882884,0.0020740022268259193,-0.07233855948781906,0.20333566959221572, ,0.27649807929992676
0.009626127662699657,0.029595657270578432,-0.08983624186930327, ,0.010296199831845943,0.0306891676403528,-0.09085503117967222, ,0.0016378929450945625, ,0.006802700505817187,0.03664669418710379,-0.03788868249625796,0.029780501169200405,-0.058348385028405274,0.01215259910455161, ,0.05314893404685739, ,0.06550827584301716, ,0.002175835428339217, ,0.11775623086617533,-0.31467819642602607,0.10162524713000001,-4.534125647965871,0.11135874730883397,-1.3174569109435472, ,0.01837307677801951,-0.2427031753413575,0.04783426882882884,0.0020740022268259193,-0.07233855948781906,0.20333566959221572, ,0.27843809127807617
0.009716751387908125,0.029964809723866632,-0.09022244244383146, ,0.01030363351503456,0.030770786508527142,-0.09092617918562135, ,0.0012203583942011432, ,0.009919935020799384,0.03551008222866318,-0.03638538106793261,0.0437950294285316,-0.08983918381126228,0.012651634714277604, ,0.0518002606765832, ,0.09994508381028101, ,0.0021687050027113207, ,0.11818098117425767,-0.3170876890827841,0.10211394846,-4.534125647965871,0.11067556481000676,-1.3155112828426754, ,0.05504462967428699,-0.23259054303546764,0.04643968373177843,0.00203218180572909,-0.06353238721306367,0.1802861190204918, ,0.28040099143981934
0.009716751387908125,0.029964809723866632,-0.09022244244383146, ,0.010311364447991139,0.03085218927964031,-0.09099687420736836, ,0.0013193755051543357, ,0.009919935020799384,0.03551008222866318,-0.03638538106793261,0.0437950294285316,-0.08983918381126228,0.012651634714277604, ,0.0518002606765832, ,0.09994508381028101, ,0.0021624136730997875, ,0.11818098117425767,-0.3170876890827841,0.10211394846,-4.534125647965871,0.11067556481000676,-1.3155112828426754, ,0.05504462967428699,-0.23259054303546764,0.04643968373177843,0.00203218180572909,-0.06353238721306367,0.1802861190204918, ,0.28296709060668945
0.009716751387908125,0.029964809723866632,-0.09022244244383146, ,0.010319391832080664,0.030933376478154383,-0.0910671177597962, ,0.0014194271562373755, ,0.009919935020799384,0.03551008222866318,-0.03638538106793261,0.0437950294285316,-0.08983918381126228,0.012651634714277604, ,0.0518002606765832, ,0.09994508381028101, ,0.0021569505369463875, ,0.11818098117425767,-0.3170876890827841,0.10211394846,-4.534125647965871,0.11067556481000676,-1.3155112828426754, ,0.05504462967428699,-0.23259054303546764,0.04643968373177843,0.00203218180572909,-0.06353238721306367,0.1802861190204918, ,0.2850360870361328
0.009716751387908125,0.029964809723866632,-0.09022244244383146, ,0.01032771486955558,0.031014348627620075,-0.09113691135550929, ,0.0015202176412685117, ,0.009919935020799384,0.03551008222866318,-0.03638538106793261,0.0437950294285316,-0.08983918381126228,0.012651634714277604, ,0.0518002606765832, ,0.09994508381028101, ,0.002152302851576476, ,0.11818098117425767,-0.3170876890827841,0.10211394846,-4.534125647965871,0.11067556481000676,-1.3155112828426754, ,0.05504462967428699,-0.23259054303546764,0.04643968373177843,0.00203218180572909,-0.06353238721306367,0.1802861190204918, ,0.28700709342956543
0.009716751387908125,0.029964809723866632,-0.09022244244383146, ,0.010336332763555485,0.03109510625067707,-0.09120625650483422, ,0.001621524414307584, ,0.009919935020799384,0.03551008222866318,-0.03638538106793261,0.0437950294285316,-0.08983918381126228,0.012651634714277604, ,0.0518002606765832, ,0.09994508381028101, ,0.0021484566310165567, ,0.11818098117425767,-0.3170876890827841,0.10211394846,-4.534125647965871,0.11067556481000676,-1.3155112828426754, ,0.05504462967428699,-0.23259054303546764,0.04643968373177843,0.00203218180572909,-0.06353238721306367,0.1802861190204918, ,0.2890450954437256
0.009833908291286839,0.030335550067787875,-0.09062177706347016, ,0.01034524471810696,0.03117564986905485,-0.09127515471582093, ,0.0011807349296405931, ,0.012161625776237622,0.03490071642560205,-0.04109016232440822,-0.10654910934361637,-0.16385573423902428,-0.023653821631194345, ,0.05526632418017099, ,0.19545152137864183, ,0.0021414946043879527, ,0.11880652253706986,-0.3194431226094226,0.10261820527000001,-4.533706268078901,0.10930919981235236,-1.3127635290029, ,0.06407626033657716,-0.20948552220412975,0.05089077162939297,0.011411326703890048,-0.15311351548110116,0.2973544259231409, ,0.29146909713745117
0.009833908291286839,0.030335550067787875,-0.09062177706347016, ,0.010354449938123173,0.03125598000357357,-0.09134360749424483, ,0.0012803101356991147, ,0.012161625776237622,0.03490071642560205,-0.04109016232440822,-0.10654910934361637,-0.16385573423902428,-0.023653821631194345, ,0.05526632418017099, ,0.19545152137864183, ,0.002135343286754461, ,0.11880652253706986,-0.3194431226094226,0.10261820527000001,-4.533706268078901,0.10930919981235236,-1.3127635290029, ,0.06407626033657716,-0.20948552220412975,0.05089077162939297,0.011411326703890048,-0.15311351548110116,0.2973544259231409, ,0.2937910556793213
0.009833908291286839,0.030335550067787875,-0.09062177706347016, ,0.010363947629403774,0.03133609717414456,-0.09141161634360727, ,0.0013805369609096597, ,0.012161625776237622,0.03490071642560205,-0.04109016232440822,-0.10654910934361637,-0.16385573423902428,-0.023653821631194345, ,0.05526632418017099, ,0.19545152137864183, ,0.0021299900504009516, ,0.11880652253706986,-0.3194431226094226,0.10261820527000001,-4.533706268078901,0.10930919981235236,-1.3127635290029, ,0.06407626033657716,-0.20948552220412975,0.05089077162939297,0.011411326703890048,-0.15311351548110116,0.2973544259231409, ,0.2957620620727539
0.009833908291286839,0.030335550067787875,-0.09062177706347016, ,0.01037373699863454,0.03141600189977138,-0.0914791827651377, ,0.001481194022322937, ,0.012161625776237622,0.03490071642560205,-0.04109016232440822,-0.10654910934361637,-0.16385573423902428,-0.023653821631194345, ,0.05526632418017099, ,0.19545152137864183, ,0.0021254210642877264, ,0.11880652253706986,-0.3194431226094226,0.10261820527000001,-4.533706268078901,0.10930919981235236,-1.3127635290029, ,0.06407626033657716,-0.20948552220412975,0.05089077162939297,0.011411326703890048,-0.15311351548110116,0.2973544259231409, ,0.297713041305542
0.009833908291286839,0.030335550067787875,-0.09062177706347016, ,0.010383817253387164,0.03149569469855032,-0.09154630825779472, ,0.0015821167340510582, ,0.012161625776237622,0.03490071642560205,-0.04109016232440822,-0.10654910934361637,-0.16385573423902428,-0.023653821631194345, ,0.05526632418017099, ,0.19545152137864183, ,0.0021216217333070502, ,0.11880652253706986,-0.3194431226094226,0.10261820527000001,-4.533706268078901,0.10930919981235236,-1.3127635290029, ,0.06407626033657716,-0.20948552220412975,0.05089077162939297,0.011411326703890048,-0.15311351548110116,0.2973544259231409, ,0.29973411560058594
0.00996347364036876,0.03068153932214272,-0.09103710657063886, ,0.010394187602119036,0.03157517608767134,-0.09161299431826717, ,0.001147060540433447, ,0.01306921894441153,0.03275191140555696,-0.039474418191688135,-0.08880202838967016,-0.1367158521992107,-0.041793613558047074, ,0.05293129392057874, ,0.16302431917244709, ,0.0021148539472454282, ,0.11954018216012119,-0.32147420135534366,0.10313153611,-4.533286888191932,0.10794283481469795,-1.3098524176828432, ,0.07914674024893309,-0.19017423158010174,0.04886138503067485,0.04009893656976104,-0.11382846254956987,0.2688896663267266, ,0.3028581142425537
0.00996347364036876,0.03068153932214272,-0.09103710657063886, ,0.01040484725417291,0.031654446583418566,-0.09167924244097586, ,0.001246474100003389, ,0.01306921894441153,0.03275191140555696,-0.039474418191688135,-0.08880202838967016,-0.1367158521992107,-0.041793613558047074, ,0.05293129392057874, ,0.16302431917244709, ,0.0021088651207127247, ,0.11954018216012119,-0.32147420135534366,0.10313153611,-4.533286888191932,0.10794283481469795,-1.3098524176828432, ,0.07914674024893309,-0.19017423158010174,0.04886138503067485,0.04009893656976104,-0.11382846254956987,0.2688896663267266, ,0.3048992156982422
0.00996347364036876,0.03068153932214272,-0.09103710657063886, ,0.010415795419776662,0.0317335067011714,-0.09174505411807471, ,0.001346261523103009, ,0.01306921894441153,0.03275191140555696,-0.039474418191688135,-0.08880202838967016,-0.1367158521992107,-0.041793613558047074, ,0.05293129392057874, ,0.16302431917244709, ,0.002103641808400329, ,0.11954018216012119,-0.32147420135534366,0.10313153611,-4.533286888191932,0.10794283481469795,-1.3098524176828432, ,0.07914674024893309,-0.19017423158010174,0.04886138503067485,0.04009893656976104,-0.11382846254956987,0.2688896663267266, ,0.3070662021636963
0.00996347364036876,0.03068153932214272,-0.09103710657063886, ,0.010427031310043125,0.03181235695540482,-0.09181043083945249, ,0.001446258848735784, ,0.01306921894441153,0.03275191140555696,-0.039474418191688135,-0.08880202838967016,-0.1367158521992107,-0.041793613558047074, ,0.05293129392057874, ,0.16302431917244709, ,0.0020991698154774413, ,0.11954018216012119,-0.32147420135534366,0.10313153611,-4.533286888191932,0.10794283481469795,-1.3098524176828432, ,0.07914674024893309,-0.19017423158010174,0.04886138503067485,0.04009893656976104,-0.11382846254956987,0.2688896663267266, ,0.3091270923614502
0.010095499215093319,0.03100762410632906,-0.09143175877536368, ,0.010438554136969756,0.031890997859690566,-0.09187537409273355, ,0.0010463414439640703, ,0.012036857159054223,0.030166832803284187,-0.03652817990313253,-0.033351068762055375,-0.08378745456035097,-0.023602925323080684, ,0.04887976737551431, ,0.09018074237507331, ,0.0020920561102645134, ,0.12037423731053744,-0.32335082544378024,0.10362023744000001,-4.533286888191932,0.10712301581610531,-1.3073869779775724, ,0.07740370437069395,-0.17191474920012823,0.04525230545454546,0.038151366467028776,-0.04905953028645308,0.20352254258892655, ,0.311298131942749
0.010095499215093319,0.03100762410632906,-0.09143175877536368, ,0.010450363113438384,0.03196942992669758,-0.09193988536327989, ,0.0011441990437816275, ,0.012036857159054223,0.030166832803284187,-0.03652817990313253,-0.033351068762055375,-0.08378745456035097,-0.023602925323080684, ,0.04887976737551431, ,0.09018074237507331, ,0.00208569465344248, ,0.12037423731053744,-0.32335082544378024,0.10362023744000001,-4.533286888191932,0.10712301581610531,-1.3073869779775724, ,0.07740370437069395,-0.17191474920012823,0.04525230545454546,0.038151366467028776,-0.04905953028645308,0.20352254258892655, ,0.31362104415893555
0.010095499215093319,0.03100762410632906,-0.09143175877536368, ,0.010462457453214988,0.03204765366819304,-0.09200396613419178, ,0.0012424737822478839, ,0.012036857159054223,0.030166832803284187,-0.03652817990313253,-0.033351068762055375,-0.08378745456035097,-0.023602925323080684, ,0.04887976737551431, ,0.09018074237507331, ,0.0020800731809678496, ,0.12037423731053744,-0.32335082544378024,0.10362023744000001,-4.533286888191932,0.10712301581610531,-1.3073869779775724, ,0.07740370437069395,-0.17191474920012823,0.04525230545454546,0.038151366467028776,-0.04905953028645308,0.20352254258892655, ,0.31567907333374023
0.010095499215093319,0.03100762410632906,-0.09143175877536368, ,0.010474836370949413,0.0321256695950428,-0.09206761788630985, ,0.001340984415129197, ,0.012036857159054223,0.030166832803284187,-0.03652817990313253,-0.033351068762055375,-0.08378745456035097,-0.023602925323080684, ,0.04887976737551431, ,0.09018074237507331, ,0.002075178553379514, ,0.12037423731053744,-0.32335082544378024,0.10362023744000001,-4.533286888191932,0.10712301581610531,-1.3073869779775724, ,0.07740370437069395,-0.17191474920012823,0.04525230545454546,0.038151366467028776,-0.04905953028645308,0.20352254258892655, ,0.31774306297302246
0.010095499215093319,0.03100762410632906,-0.09143175877536368, ,0.010487499082175143,0.03220347821721212,-0.09213084209821595, ,0.0014396000981516538, ,0.012036857159054223,0.030166832803284187,-0.03652817990313253,-0.033351068762055375,-0.08378745456035097,-0.023602925323080684, ,0.04887976737551431, ,0.09018074237507331, ,0.0020709971161740675, ,0.12037423731053744,-0.32335082544378024,0.10362023744000001,-4.533286888191932,0.10712301581610531,-1.3073869779775724, ,0.07740370437069395,-0.17191474920012823,0.04525230545454546,0.038151366467028776,-0.04905953028645308,0.20352254258892655, ,0.3197751045227051
0.010207035165209368,0.031290524936678686,-0.09176948298948152, ,0.010500444803309035,0.03228108004376702,-0.09219364024623475, ,0.0011167801996655301, ,0.010723563630747572,0.026965907042848746,-0.031093160281604696,-0.010139538774273413,-0.04813544343569875,-0.004110010340305327, ,0.04253163029891767, ,0.04919148401283164, ,0.002064760404301463, ,0.12110789693358875,-0.3249725993473674,0.10404023540000001,-4.533286888191932,0.10684974281657443,-1.3055305673673685, ,0.07390727535706447,-0.1568544488569765,0.03904120470588236,0.02905220920998069,-0.0066892784634255366,0.16989559286811493, ,0.3217811584472656
0.010207035165209368,0.031290524936678686,-0.09176948298948152, ,0.010513672751651108,0.032358475582874115,-0.09225601380443503, ,0.0012129540082078014, ,0.010723563630747572,0.026965907042848746,-0.031093160281604696,-0.010139538774273413,-0.04813544343569875,-0.004110010340305327, ,0.04253163029891767, ,0.04919148401283164, ,0.0020592291939372184, ,0.12110789693358875,-0.3249725993473674,0.10404023540000001,-4.533286888191932,0.10684974281657443,-1.3055305673673685, ,0.07390727535706447,-0.1568544488569765,0.03904120470588236,0.02905220920998069,-0.0066892784634255366,0.16989559286811493, ,0.32370615005493164
0.010207035165209368,0.031290524936678686,-0.09176948298948152, ,0.010527182145384133,0.03243566534180209,-0.09231796424463097, ,0.0013094549719679272, ,0.010723563630747572,0.026965907042848746,-0.031093160281604696,-0.010139538774273413,-0.04813544343569875,-0.004110010340305327, ,0.04253163029891767, ,0.04919148401283164, ,0.002054391940892255, ,0.12110789693358875,-0.3249725993473674,0.10404023540000001,-4.533286888191932,0.10684974281657443,-1.3055305673673685, ,0.07390727535706447,-0.1568544488569765,0.03904120470588236,0.02905220920998069,-0.0066892784634255366,0.16989559286811493, ,0.32562899589538574
0.010207035165209368,0.031290524936678686,-0.09176948298948152, ,0.010540972203573617,0.03251264982692217,-0.09237949303638371, ,0.0014061349331645706, ,0.010723563630747572,0.026965907042848746,-0.031093160281604696,-0.010139538774273413,-0.04813544343569875,-0.004110010340305327, ,0.04253163029891767, ,0.04919148401283164, ,0.002050236447252975, ,0.12110789693358875,-0.3249725993473674,0.10404023540000001,-4.533286888191932,0.10684974281657443,-1.3055305673673685, ,0.07390727535706447,-0.1568544488569765,0.03904120470588236,0.02905220920998069,-0.0066892784634255366,0.16989559286811493, ,0.32758307456970215
0.010207035165209368,0.031290524936678686,-0.09176948298948152, ,0.010555042146167403,0.03258942954370871,-0.09244060164700243, ,0.001502884656063806, ,0.010723563630747572,0.026965907042848746,-0.031093160281604696,-0.010139538774273413,-0.04813544343569875,-0.004110010340305327, ,0.04253163029891767, ,0.04919148401283164, ,0.0020467501301116428, ,0.12110789693358875,-0.3249725993473674,0.10404023540000001,-4.533286888191932,0.10684974281657443,-1.3055305673673685, ,0.07390727535706447,-0.1568544488569765,0.03904120470588236,0.02905220920998069,-0.0066892784634255366,0.16989559286811493, ,0.3294839859008789
0.010207035165209368,0.031290524936678686,-0.09176948298948152, ,0.010569391193995348,0.03266600499674043,-0.09250129154154602, ,0.001599622156666923, ,0.010316143885290204,0.02708285858557489,-0.02771650280005697,-0.0540934388410512,-0.056956409875702475,0.005056922826914931, ,0.04010122917435105, ,0.07855008844687957, ,0.0020439202062290814, ,0.12183383382376586,-0.32657120505233184,0.10440319660000001,-4.532867508304963,0.10657646981704355,-1.3035107992768833, ,0.07205538463057766,-0.16825698857884888,0.035875701621621625,0.017504460086921716,-0.021790641976609904,0.2222564592275871, ,0.3315269947052002
0.010311858043343948,0.03155456919530292,-0.09205346829431722, ,0.010584018568769296,0.03274237668970055,-0.0925615641828243, ,0.0013202724822038731, ,0.010316143885290204,0.02708285858557489,-0.02771650280005697,-0.0540934388410512,-0.056956409875702475,0.005056922826914931, ,0.04010122917435105, ,0.07855008844687957, ,0.002039368962681753, ,0.12183383382376586,-0.32657120505233184,0.10440319660000001,-4.532867508304963,0.10657646981704355,-1.3035107992768833, ,0.07205538463057766,-0.16825698857884888,0.035875701621621625,0.017504460086921716,-0.021790641976609904,0.2222564592275871, ,0.3337080478668213
0.010311858043343948,0.03155456919530292,-0.09205346829431722, ,0.010598923493082573,0.03281854512537812,-0.09262142103139923, ,0.0014151367551590401, ,0.010316143885290204,0.02708285858557489,-0.02771650280005697,-0.0540934388410512,-0.056956409875702475,0.005056922826914931, ,0.04010122917435105, ,0.07855008844687957, ,0.002035467511384736, ,0.12183383382376586,-0.32657120505233184,0.10440319660000001,-4.532867508304963,0.10657646981704355,-1.3035107992768833, ,0.07205538463057766,-0.16825698857884888,0.035875701621621625,0.017504460086921716,-0.021790641976609904,0.2222564592275871, ,0.3358120918273926
0.010311858043343948,0.03155456919530292,-0.09205346829431722, ,0.01061410519040995,0.03289451080566816,-0.09268086354558662, ,0.001510106505652209, ,0.010316143885290204,0.02708285858557489,-0.02771650280005697,-0.0540934388410512,-0.056956409875702475,0.005056922826914931, ,0.04010122917435105, ,0.07855008844687957, ,0.002032204399547888, ,0.12183383382376586,-0.32657120505233184,0.10440319660000001,-4.532867508304963,0.10657646981704355,-1.3035107992768833, ,0.07205538463057766,-0.16825698857884888,0.035875701621621625,0.017504460086921716,-0.021790641976609904,0.2222564592275871, ,0.33783912658691406
0.010311858043343948,0.03155456919530292,-0.09205346829431722, ,0.0106295628851072,0.03297027423157305,-0.09273989318145714, ,0.0016050969571603747, ,0.010316143885290204,0.02708285858557489,-0.02771650280005697,-0.0540934388410512,-0.056956409875702475,0.005056922826914931, ,0.04010122917435105, ,0.07855008844687957, ,0.002029567933854138, ,0.12183383382376586,-0.32657120505233184,0.10440319660000001,-4.532867508304963,0.10657646981704355,-1.3035107992768833, ,0.07205538463057766,-0.16825698857884888,0.035875701621621625,0.017504460086921716,-0.021790641976609904,0.2222564592275871, ,0.3398702144622803
0.01041954155502367,0.03182179083416265,-0.09232644620452138, ,0.010645295802410984,0.033045835903202835,-0.0927985113928378, ,0.001331201282028838, ,0.01086077917504021,0.026840216662171373,-0.02810588966527385,-0.13679990353974877,-0.0716077785715837,-0.09522080563017131, ,0.040352134870881816, ,0.15440812809620555, ,0.0020252834758674797, ,0.12255977071394297,-0.32822386988741586,0.10475708377000001,-4.531819058587541,0.10589328731821636,-1.3006667050344654, ,0.07108385135465976,-0.16333380646896864,0.03620184436363637,0.1054640617492672,-0.08096188007475656,0.30280044592034, ,0.3418409824371338
0.01041954155502367,0.03182179083416265,-0.09232644620452138, ,0.010661303168438552,0.0331211963197761,-0.09285671963131378, ,0.0014241113723741723, ,0.01086077917504021,0.026840216662171373,-0.02810588966527385,-0.13679990353974877,-0.0716077785715837,-0.09522080563017131, ,0.040352134870881816, ,0.15440812809620555, ,0.002021617792309594, ,0.12255977071394297,-0.32822386988741586,0.10475708377000001,-4.531819058587541,0.10589328731821636,-1.3006667050344654, ,0.07108385135465976,-0.16333380646896864,0.03620184436363637,0.1054640617492672,-0.08096188007475656,0.30280044592034, ,0.34385013580322266
0.01041954155502367,0.03182179083416265,-0.09232644620452138, ,0.010677584210187479,0.033196355979620784,-0.09291451934622878, ,0.0015171833676223658, ,0.01086077917504021,0.026840216662171373,-0.02810588966527385,-0.13679990353974877,-0.0716077785715837,-0.09522080563017131, ,0.040352134870881816, ,0.15440812809620555, ,0.002018560613978156, ,0.12255977071394297,-0.32822386988741586,0.10475708377000001,-4.531819058587541,0.10589328731821636,-1.3006667050344654, ,0.07108385135465976,-0.16333380646896864,0.03620184436363637,0.1054640617492672,-0.08096188007475656,0.30280044592034, ,0.3460071086883545
