NicholasDascanio/dvrk_moveit_final/test/execution/first_exp_nosummary/yes_joints_no_ramp/600vel3.csv
Current Position (x),Current Position (y),Current Position (z), ,Planned Position (x),Planned Position (y),Planned Position (z), ,Position Error,,Cartesian linear Velocity(x),Cartesian linear Velocity(y),Cartesian linear Velocity(z),Cartesian Angular Velocity(x),Cartesian Angular Velocity(y),Cartesian Angular Velocity(z), ,Total Linear Velocity, ,Total Angular Velocity, ,MSE, ,Joint 1 Position,Joint 2 Position,Joint 3 Position,Joint 4 Position,Joint 5 Position,Joint 6 Position, ,Joint 1 Velocity,Joint 2 Velocity,Joint 3 Velocity,Joint 4 Velocity,Joint 5 Velocity,Joint 6 Velocity, ,Time Stamp
0.009479310395156038,0.018489337561828946,-0.08108638045966762, ,0.009700826609788542,0.018502626474116702,-0.0811950037274983, ,0.0002470729504602238, ,6.841759947266334e-06,-6.726655019234917e-06,-7.338418293117679e-06,-9.851712586395116e-05,-7.073781183151023e-05,-1.3603356424820585e-05, ,1.2079319102026418e-05, ,0.00012128257134149054, ,0.0001235364752301119, ,0.13720979497634686,-0.21907076344312668,0.09035400558000001,-4.5326578183614785,0.1911544631718512,-1.1895181037501086, ,7.073781183151022e-05,9.945187476621192e-05,6.399100014379686e-06,0.0,0.0,0.0, ,0.0019791126251220703
0.009479310395156038,0.018489337561828946,-0.08108638045966762, ,0.009711979460208022,0.0185647039077773,-0.08121283414763482, ,0.0002753280137114207, ,6.841759947266334e-06,-6.726655019234917e-06,-7.338418293117679e-06,-9.851712586395116e-05,-7.073781183151023e-05,-1.3603356424820585e-05, ,1.2079319102026418e-05, ,0.00012128257134149054, ,0.0001741336547238815, ,0.13720979497634686,-0.21907076344312668,0.09035400558000001,-4.5326578183614785,0.1911544631718512,-1.1895181037501086, ,7.073781183151022e-05,9.945187476621192e-05,6.399100014379686e-06,0.0,0.0,0.0, ,0.005912065505981445
0.009479310395156038,0.018489337561828946,-0.08108638045966762, ,0.009733147998526284,0.018621372534618184,-0.08123430552366866, ,0.00032210027551046115, ,6.841759947266334e-06,-6.726655019234917e-06,-7.338418293117679e-06,-9.851712586395116e-05,-7.073781183151023e-05,-1.3603356424820585e-05, ,1.2079319102026418e-05, ,0.00012128257134149054, ,0.0002111253099205264, ,0.13720979497634686,-0.21907076344312668,0.09035400558000001,-4.5326578183614785,0.1911544631718512,-1.1895181037501086, ,7.073781183151022e-05,9.945187476621192e-05,6.399100014379686e-06,0.0,0.0,0.0, ,0.008077144622802734
0.009479310395156038,0.018489337561828946,-0.08108638045966762, ,0.009753551163116157,0.018678475824521732,-0.08125370924677221, ,0.000372800488491757, ,6.841759947266334e-06,-6.726655019234917e-06,-7.338418293117679e-06,-9.851712586395116e-05,-7.073781183151023e-05,-1.3603356424820585e-05, ,1.2079319102026418e-05, ,0.00012128257134149054, ,0.00024346034563477252, ,0.13720979497634686,-0.21907076344312668,0.09035400558000001,-4.5326578183614785,0.1911544631718512,-1.1895181037501086, ,7.073781183151022e-05,9.945187476621192e-05,6.399100014379686e-06,0.0,0.0,0.0, ,0.010087966918945312
0.009480243701755445,0.018491161706667297,-0.08108853116765714, ,0.00977391199899371,0.01873552063076677,-0.08127314140400753, ,0.0004243033018434102, ,2.0308705232930338e-07,7.520295196521783e-05,1.074233750853868e-05,0.05404485222608816,-0.007018553468872334,-0.0046855455478026515, ,7.596659162935403e-05, ,0.05449868021278246, ,0.0002736008383362122, ,0.13721751770922108,-0.21908620890887512,0.09035659816000001,-4.5326578183614785,0.1911544631718512,-1.1895997824902493, ,2.046764397950728e-05,-0.0009047537312810684,6.230488418811556e-06,0.0,0.0,-0.05382264088329303, ,0.012050151824951172
0.009480243701755445,0.018491161706667297,-0.08108853116765714, ,0.009794219483760185,0.018792515191470283,-0.08129260313746757, ,0.00048066629104889336, ,2.0308705232930338e-07,7.520295196521783e-05,1.074233750853868e-05,0.05404485222608816,-0.007018553468872334,-0.0046855455478026515, ,7.596659162935403e-05, ,0.05449868021278246, ,0.00030318161729516656, ,0.13721751770922108,-0.21908620890887512,0.09035659816000001,-4.5326578183614785,0.1911544631718512,-1.1895997824902493, ,2.046764397950728e-05,-0.0009047537312810684,6.230488418811556e-06,0.0,0.0,-0.05382264088329303, ,0.014081001281738281
0.009480243701755445,0.018491161706667297,-0.08108853116765714, ,0.00981449054135516,0.018849448100676396,-0.08131209522082757, ,0.0005385823760432835, ,2.0308705232930338e-07,7.520295196521783e-05,1.074233750853868e-05,0.05404485222608816,-0.007018553468872334,-0.0046855455478026515, ,7.596659162935403e-05, ,0.05449868021278246, ,0.0003326067121386812, ,0.13721751770922108,-0.21908620890887512,0.09035659816000001,-4.5326578183614785,0.1911544631718512,-1.1895997824902493, ,2.046764397950728e-05,-0.0009047537312810684,6.230488418811556e-06,0.0,0.0,-0.05382264088329303, ,0.01622605323791504
0.009480243701755445,0.018491161706667297,-0.08108853116765714, ,0.009834714892928502,0.018906326190613627,-0.08133161546002157, ,0.000597579574028751, ,2.0308705232930338e-07,7.520295196521783e-05,1.074233750853868e-05,0.05404485222608816,-0.007018553468872334,-0.0046855455478026515, ,7.596659162935403e-05, ,0.05449868021278246, ,0.0003620481412375778, ,0.13721751770922108,-0.21908620890887512,0.09035659816000001,-4.5326578183614785,0.1911544631718512,-1.1895997824902493, ,2.046764397950728e-05,-0.0009047537312810684,6.230488418811556e-06,0.0,0.0,-0.05382264088329303, ,0.018268108367919922
0.009480243701755445,0.018491161706667297,-0.08108853116765714, ,0.009854896014856672,0.01896314739104524,-0.08135116528404733, ,0.0006573519004778722, ,2.0308705232930338e-07,7.520295196521783e-05,1.074233750853868e-05,0.05404485222608816,-0.007018553468872334,-0.0046855455478026515, ,7.596659162935403e-05, ,0.05449868021278246, ,0.0003915785171616073, ,0.13721751770922108,-0.21908620890887512,0.09035659816000001,-4.5326578183614785,0.1911544631718512,-1.1895997824902493, ,2.046764397950728e-05,-0.0009047537312810684,6.230488418811556e-06,0.0,0.0,-0.05382264088329303, ,0.02032613754272461
0.009480243701755445,0.018491161706667297,-0.08108853116765714, ,0.00987503158484298,0.019019913638079183,-0.08137074509661715, ,0.0007176912841212321, ,2.0308705232930338e-07,7.520295196521783e-05,1.074233750853868e-05,0.05404485222608816,-0.007018553468872334,-0.0046855455478026515, ,7.596659162935403e-05, ,0.05449868021278246, ,0.000421225132339755, ,0.13721751770922108,-0.21908620890887512,0.09035659816000001,-4.5326578183614785,0.1911544631718512,-1.1895997824902493, ,2.046764397950728e-05,-0.0009047537312810684,6.230488418811556e-06,0.0,0.0,-0.05382264088329303, ,0.022497177124023438
0.00948868631788707,0.01851158921168492,-0.08109937369927618, ,0.009895124145774937,0.01907662317877918,-0.08139035353978159, ,0.0007544033135459027, ,0.0007998396120586217,0.002976394940769493,-0.0012358297597324128,0.10548203713799086,-0.017793830629255904,-0.004802217759384176, ,0.003320533909403214, ,0.10697233552297643, ,0.00044898998077360063, ,0.13721751770922108,-0.21908620890887512,0.09035659816000001,-4.5326578183614785,0.1911544631718512,-1.1895997824902493, ,2.046764397950728e-05,-0.0009047537312810684,6.230488418811556e-06,0.0,0.0,-0.05382264088329303, ,0.02457714080810547
0.00948868631788707,0.01851158921168492,-0.08109937369927618, ,0.009915172533395678,0.019133277115428893,-0.08140999059762816, ,0.0008153951184684819, ,0.0007998396120586217,0.002976394940769493,-0.0012358297597324128,0.10548203713799086,-0.017793830629255904,-0.004802217759384176, ,0.003320533909403214, ,0.10697233552297643, ,0.00047717499136551455, ,0.13727157683934066,-0.21929472269647918,0.09037215364000001,-4.532448128417994,0.1908811901723203,-1.1901120553441213, ,0.0075197730445513145,-0.03124693498797194,0.0019447069601553613,0.0022065338514063704,-0.0009829802251297474,-0.07532363709054612, ,0.027386188507080078
0.00948868631788707,0.01851158921168492,-0.08109937369927618, ,0.00993517852523202,0.01918987419175729,-0.08142965794752935, ,0.0008766490118945547, ,0.0007998396120586217,0.002976394940769493,-0.0012358297597324128,0.10548203713799086,-0.017793830629255904,-0.004802217759384176, ,0.003320533909403214, ,0.10697233552297643, ,0.0005057088499747317, ,0.13727157683934066,-0.21929472269647918,0.09037215364000001,-4.532448128417994,0.1908811901723203,-1.1901120553441213, ,0.0075197730445513145,-0.03124693498797194,0.0019447069601553613,0.0022065338514063704,-0.0009829802251297474,-0.07532363709054612, ,0.029478073120117188
0.00952145460508718,0.01855356001161025,-0.08114362058540261, ,0.009955142388518263,0.01924641479172183,-0.08144935331028189, ,0.0008727000280067224, ,0.004008100362074085,0.005403448778473059,-0.008249789866501529,-0.01992119651393393,-0.18255166577026996,-0.035103210183017416, ,0.010645241192921451, ,0.18363541245586004, ,0.0005301749285101977, ,0.13740286329820248,-0.21968858207306463,0.09042530153000002,-4.53223843847451,0.18910491567536958,-1.1892353737770518, ,0.015435416649068116,-0.04373130947394967,0.009369889129411765,0.0018765548650029335,-0.17956328649149275,0.037359045476684116, ,0.03191018104553223
0.00952145460508718,0.01855356001161025,-0.08114362058540261, ,0.009975059620554937,0.019302901544999074,-0.08146907882285391, ,0.0009344481302051604, ,0.004008100362074085,0.005403448778473059,-0.008249789866501529,-0.01992119651393393,-0.18255166577026996,-0.035103210183017416, ,0.010645241192921451, ,0.18363541245586004, ,0.0005554420036161329, ,0.13740286329820248,-0.21968858207306463,0.09042530153000002,-4.53223843847451,0.18910491567536958,-1.1892353737770518, ,0.015435416649068116,-0.04373130947394967,0.009369889129411765,0.0018765548650029335,-0.17956328649149275,0.037359045476684116, ,0.03385305404663086
0.00952145460508718,0.01855356001161025,-0.08114362058540261, ,0.009994935575454129,0.019359331510751848,-0.08148883285066043, ,0.000996304896210469, ,0.004008100362074085,0.005403448778473059,-0.008249789866501529,-0.01992119651393393,-0.18255166577026996,-0.035103210183017416, ,0.010645241192921451, ,0.18363541245586004, ,0.0005813751149452114, ,0.13740286329820248,-0.21968858207306463,0.09042530153000002,-4.53223843847451,0.18910491567536958,-1.1892353737770518, ,0.015435416649068116,-0.04373130947394967,0.009369889129411765,0.0018765548650029335,-0.17956328649149275,0.037359045476684116, ,0.03593707084655762
0.00952145460508718,0.01855356001161025,-0.08114362058540261, ,0.010014768675404294,0.019415705755262722,-0.08150861589321604, ,0.001058241763491086, ,0.004008100362074085,0.005403448778473059,-0.008249789866501529,-0.01992119651393393,-0.18255166577026996,-0.035103210183017416, ,0.010645241192921451, ,0.18363541245586004, ,0.0006078677065310934, ,0.13740286329820248,-0.21968858207306463,0.09042530153000002,-4.53223843847451,0.18910491567536958,-1.1892353737770518, ,0.015435416649068116,-0.04373130947394967,0.009369889129411765,0.0018765548650029335,-0.17956328649149275,0.037359045476684116, ,0.03800702095031738
0.00952145460508718,0.01855356001161025,-0.08114362058540261, ,0.010034557652631696,0.0194720250360359,-0.0815284272528929, ,0.0011202360955788109, ,0.004008100362074085,0.005403448778473059,-0.008249789866501529,-0.01992119651393393,-0.18255166577026996,-0.035103210183017416, ,0.010645241192921451, ,0.18363541245586004, ,0.0006348344638493943, ,0.13740286329820248,-0.21968858207306463,0.09042530153000002,-4.53223843847451,0.18910491567536958,-1.1892353737770518, ,0.015435416649068116,-0.04373130947394967,0.009369889129411765,0.0018765548650029335,-0.17956328649149275,0.037359045476684116, ,0.0401921272277832
0.00957086711843996,0.01862949021603821,-0.08127021213689757, ,0.010054306929753813,0.019528287338127323,-0.08154826888680575, ,0.0010577645645456005, ,0.005778771236077282,0.008971760548437471,-0.016625331345867758,0.015492432647223393,-0.18046481078514812,-0.03419330411230858, ,0.019755716304333443, ,0.1811285790009633, ,0.0006559809688842045, ,0.13761137708580654,-0.220252341572883,0.09056789343,-4.531819058587541,0.1874652776781843,-1.1888785038143816, ,0.02409775052271985,-0.06259692714938705,0.018500361811846694,0.005189225664794064,-0.16717318484128013,0.02267853652247309, ,0.04222416877746582
0.00957086711843996,0.01862949021603821,-0.08127021213689757, ,0.010079879664887144,0.01958016067641109,-0.08156212995111438, ,0.0011171768467540615, ,0.005778771236077282,0.008971760548437471,-0.016625331345867758,0.015492432647223393,-0.18046481078514812,-0.03419330411230858, ,0.019755716304333443, ,0.1811285790009633, ,0.0006779426773541978, ,0.13761137708580654,-0.220252341572883,0.09056789343,-4.531819058587541,0.1874652776781843,-1.1888785038143816, ,0.02409775052271985,-0.06259692714938705,0.018500361811846694,0.005189225664794064,-0.16717318484128013,0.02267853652247309, ,0.044203996658325195
0.00957086711843996,0.01862949021603821,-0.08127021213689757, ,0.010093675619894877,0.01964064680799359,-0.08158803753254128, ,0.001181854206221915, ,0.005778771236077282,0.008971760548437471,-0.016625331345867758,0.015492432647223393,-0.18046481078514812,-0.03419330411230858, ,0.019755716304333443, ,0.1811285790009633, ,0.000700847746848185, ,0.13761137708580654,-0.220252341572883,0.09056789343,-4.531819058587541,0.1874652776781843,-1.1888785038143816, ,0.02409775052271985,-0.06259692714938705,0.018500361811846694,0.005189225664794064,-0.16717318484128013,0.02267853652247309, ,0.04626202583312988
0.00957086711843996,0.01862949021603821,-0.08127021213689757, ,0.010113296763722503,0.01969674341098072,-0.08160796514044937, ,0.001243919769761941, ,0.005778771236077282,0.008971760548437471,-0.016625331345867758,0.015492432647223393,-0.18046481078514812,-0.03419330411230858, ,0.019755716304333443, ,0.1811285790009633, ,0.0007244595739313918, ,0.13761137708580654,-0.220252341572883,0.09056789343,-4.531819058587541,0.1874652776781843,-1.1888785038143816, ,0.02409775052271985,-0.06259692714938705,0.018500361811846694,0.005189225664794064,-0.16717318484128013,0.02267853652247309, ,0.048284053802490234
0.00957086711843996,0.01862949021603821,-0.08127021213689757, ,0.010132876301627434,0.019752784333084347,-0.0816279211225617, ,0.0013059861078136992, ,0.005778771236077282,0.008971760548437471,-0.016625331345867758,0.015492432647223393,-0.18046481078514812,-0.03419330411230858, ,0.019755716304333443, ,0.1811285790009633, ,0.000748689846176488, ,0.13761137708580654,-0.220252341572883,0.09056789343,-4.531819058587541,0.1874652776781843,-1.1888785038143816, ,0.02409775052271985,-0.06259692714938705,0.018500361811846694,0.005189225664794064,-0.16717318484128013,0.02267853652247309, ,0.05024600028991699
0.009631139476995525,0.018732494642604593,-0.08144101754382226, ,0.010159163350257296,0.019803513651090753,-0.08164653540904114, ,0.0012116635342359551, ,0.006093828665988413,0.011477728525197815,-0.017617534802201105,-0.027453909697552105,-0.11552593054763824,-0.07004777206798586, ,0.021891791439152, ,0.11874323597328706, ,0.0007672087936988667, ,0.13790484093502706,-0.22100144666168278,0.09076104064000001,-4.531189988757087,0.1860989126805299,-1.188417754698542, ,0.03125722712729604,-0.08658480069203538,0.020137561972187107,0.065116723908857,-0.11725882441563916,0.10580567103719563, ,0.05236196517944336
0.009631139476995525,0.018732494642604593,-0.08144101754382226, ,0.01017190923964732,0.019864701272275454,-0.08166792070868364, ,0.001275072089998539, ,0.006093828665988413,0.011477728525197815,-0.017617534802201105,-0.027453909697552105,-0.11552593054763824,-0.07004777206798586, ,0.021891791439152, ,0.11874323597328706, ,0.0007867419974027002, ,0.13790484093502706,-0.22100144666168278,0.09076104064000001,-4.531189988757087,0.1860989126805299,-1.188417754698542, ,0.03125722712729604,-0.08658480069203538,0.020137561972187107,0.065116723908857,-0.11725882441563916,0.10580567103719563, ,0.05448603630065918
0.009631139476995525,0.018732494642604593,-0.08144101754382226, ,0.010191363137293115,0.019920577431753215,-0.08168796293339119, ,0.001336552763215036, ,0.006093828665988413,0.011477728525197815,-0.017617534802201105,-0.027453909697552105,-0.11552593054763824,-0.07004777206798586, ,0.021891791439152, ,0.11874323597328706, ,0.0008071053590994534, ,0.13790484093502706,-0.22100144666168278,0.09076104064000001,-4.531189988757087,0.1860989126805299,-1.188417754698542, ,0.03125722712729604,-0.08658480069203538,0.020137561972187107,0.065116723908857,-0.11725882441563916,0.10580567103719563, ,0.05649399757385254
0.009631139476995525,0.018732494642604593,-0.08144101754382226, ,0.010210778055111287,0.019976396574434552,-0.08170803437653057, ,0.0013980596862079766, ,0.006093828665988413,0.011477728525197815,-0.017617534802201105,-0.027453909697552105,-0.11552593054763824,-0.07004777206798586, ,0.021891791439152, ,0.11874323597328706, ,0.0008282108707819007, ,0.13790484093502706,-0.22100144666168278,0.09076104064000001,-4.531189988757087,0.1860989126805299,-1.188417754698542, ,0.03125722712729604,-0.08658480069203538,0.020137561972187107,0.065116723908857,-0.11725882441563916,0.10580567103719563, ,0.05864715576171875
0.009631139476995525,0.018732494642604593,-0.08144101754382226, ,0.010230148479968393,0.020032163211728907,-0.08172813465656029, ,0.0014595843283754502, ,0.006093828665988413,0.011477728525197815,-0.017617534802201105,-0.027453909697552105,-0.11552593054763824,-0.07004777206798586, ,0.021891791439152, ,0.11874323597328706, ,0.0008499823693196094, ,0.13790484093502706,-0.22100144666168278,0.09076104064000001,-4.531189988757087,0.1860989126805299,-1.188417754698542, ,0.03125722712729604,-0.08658480069203538,0.020137561972187107,0.065116723908857,-0.11725882441563916,0.10580567103719563, ,0.06093597412109375
0.0096927449026839,0.01885965707003957,-0.08162010232094581, ,0.010249478759699036,0.020087874208838362,-0.08174826280725928, ,0.0013545829756194873, ,0.0064663086151254545,0.014111260464882397,-0.01858655933539818,-0.07577406806020846,-0.07101370511781728,-0.02577304489024694, ,0.024215718179357717, ,0.10384918625960661, ,0.0008668023895296053, ,0.13824464118149296,-0.22200540193533197,0.09096844704000001,-4.530980298813603,0.18514245718217182,-1.1866576844909802, ,0.03929479981717217,-0.11351308798860141,0.021790439835841315,0.0419624907289453,-0.06836039408311516,0.1859599485741057, ,0.06308603286743164
0.0096927449026839,0.01885965707003957,-0.08162010232094581, ,0.010268769331767163,0.020143529507286317,-0.08176842040177629, ,0.0014149667243874816, ,0.0064663086151254545,0.014111260464882397,-0.01858655933539818,-0.07577406806020846,-0.07101370511781728,-0.02577304489024694, ,0.024215718179357717, ,0.10384918625960661, ,0.0008844851100088916, ,0.13824464118149296,-0.22200540193533197,0.09096844704000001,-4.530980298813603,0.18514245718217182,-1.1866576844909802, ,0.03929479981717217,-0.11351308798860141,0.021790439835841315,0.0419624907289453,-0.06836039408311516,0.1859599485741057, ,0.06548118591308594
0.0096927449026839,0.01885965707003957,-0.08162010232094581, ,0.010287906173626599,0.020199105730492876,-0.0817884730627738, ,0.001475360416686036, ,0.0064663086151254545,0.014111260464882397,-0.01858655933539818,-0.07577406806020846,-0.07101370511781728,-0.02577304489024694, ,0.024215718179357717, ,0.10384918625960661, ,0.0009029499633425523, ,0.13824464118149296,-0.22200540193533197,0.09096844704000001,-4.530980298813603,0.18514245718217182,-1.1866576844909802, ,0.03929479981717217,-0.11351308798860141,0.021790439835841315,0.0419624907289453,-0.06836039408311516,0.1859599485741057, ,0.06746196746826172
0.0096927449026839,0.01885965707003957,-0.08162010232094581, ,0.010307229646024586,0.02025467430581912,-0.08180882011921776, ,0.0015359944646075718, ,0.0064663086151254545,0.014111260464882397,-0.01858655933539818,-0.07577406806020846,-0.07101370511781728,-0.02577304489024694, ,0.024215718179357717, ,0.10384918625960661, ,0.0009221331300475529, ,0.13824464118149296,-0.22200540193533197,0.09096844704000001,-4.530980298813603,0.18514245718217182,-1.1866576844909802, ,0.03929479981717217,-0.11351308798860141,0.021790439835841315,0.0419624907289453,-0.06836039408311516,0.1859599485741057, ,0.06949710845947266
0.0096927449026839,0.01885965707003957,-0.08162010232094581, ,0.010326394777591542,0.02031016876891734,-0.08182906215909826, ,0.0015966090838124532, ,0.006994030472477635,0.016495158760403646,-0.017830895862987504,0.08929566633948482,-0.03612133172504901,-0.0517013410861213, ,0.0252774122895832, ,0.09632478824343647, ,0.0009419706580994618, ,0.1387080051539464,-0.2233028210582017,0.09119270521,-4.530141539039664,0.18486918418264095,-1.1856997400223221, ,0.05298545033973801,-0.1403800910628266,0.021760671475409835,0.07665549611790108,-0.008377294343625595,0.05955672499473774, ,0.0716249942779541
0.0097600738758836,0.01901693931599892,-0.08180775774519544, ,0.010345523757140266,0.020365604690780435,-0.08184933414829913, ,0.0014708427699428128, ,0.006994030472477635,0.016495158760403646,-0.017830895862987504,0.08929566633948482,-0.03612133172504901,-0.0517013410861213, ,0.0252774122895832, ,0.09632478824343647, ,0.0009570812898664147, ,0.1387080051539464,-0.2233028210582017,0.09119270521,-4.530141539039664,0.18486918418264095,-1.1856997400223221, ,0.05298545033973801,-0.1403800910628266,0.021760671475409835,0.07665549611790108,-0.008377294343625595,0.05955672499473774, ,0.0738060474395752
0.0097600738758836,0.01901693931599892,-0.08180775774519544, ,0.010364612872698277,0.0204209861115761,-0.08186963323111339, ,0.001529916134498171, ,0.006994030472477635,0.016495158760403646,-0.017830895862987504,0.08929566633948482,-0.03612133172504901,-0.0517013410861213, ,0.0252774122895832, ,0.09632478824343647, ,0.0009729933688839634, ,0.1387080051539464,-0.2233028210582017,0.09119270521,-4.530141539039664,0.18486918418264095,-1.1856997400223221, ,0.05298545033973801,-0.1403800910628266,0.021760671475409835,0.07665549611790108,-0.008377294343625595,0.05955672499473774, ,0.07568216323852539
0.0097600738758836,0.01901693931599892,-0.08180775774519544, ,0.010383659751994252,0.020476314591094207,-0.08188996161756701, ,0.001589148518885825, ,0.006994030472477635,0.016495158760403646,-0.017830895862987504,0.08929566633948482,-0.03612133172504901,-0.0517013410861213, ,0.0252774122895832, ,0.09632478824343647, ,0.0009896462107759055, ,0.1387080051539464,-0.2233028210582017,0.09119270521,-4.530141539039664,0.18486918418264095,-1.1856997400223221, ,0.05298545033973801,-0.1403800910628266,0.021760671475409835,0.07665549611790108,-0.008377294343625595,0.05955672499473774, ,0.07761406898498535
0.0097600738758836,0.01901693931599892,-0.08180775774519544, ,0.010402668541422742,0.020531587295984078,-0.08191031732274852, ,0.0016485159612209834, ,0.006994030472477635,0.016495158760403646,-0.017830895862987504,0.08929566633948482,-0.03612133172504901,-0.0517013410861213, ,0.0252774122895832, ,0.09632478824343647, ,0.001006984888419197, ,0.1387080051539464,-0.2233028210582017,0.09119270521,-4.530141539039664,0.18486918418264095,-1.1856997400223221, ,0.05298545033973801,-0.1403800910628266,0.021760671475409835,0.07665549611790108,-0.008377294343625595,0.05955672499473774, ,0.07959508895874023
0.009839851573833411,0.0191934206128866,-0.0819682363397787, ,0.010421635770670644,0.020586807404692927,-0.08193070191903382, ,0.0015104331948188015, ,0.007852423620806494,0.01854321078791056,-0.01330807623543575,0.2025575645625361,-0.0961239410463905,-0.11110329616300699, ,0.024137442203631523, ,0.22420833745954433, ,0.00101989381935252, ,0.1393335465167586,-0.2248782585645435,0.09139622274,-4.528883399378757,0.18432263818357916,-1.185907498328661, ,0.06517647085059805,-0.17476416493272703,0.01789754103370787,0.12379857454272734,-0.058055031811247576,-0.02171961362330671, ,0.08166003227233887
0.009839851573833411,0.0191934206128866,-0.0819682363397787, ,0.010440568895069962,0.020641968945192567,-0.08195111469644518, ,0.0015682623255471194, ,0.007852423620806494,0.01854321078791056,-0.01330807623543575,0.2025575645625361,-0.0961239410463905,-0.11110329616300699, ,0.024137442203631523, ,0.22420833745954433, ,0.0010336030320073851, ,0.1393335465167586,-0.2248782585645435,0.09139622274,-4.528883399378757,0.18432263818357916,-1.185907498328661, ,0.06517647085059805,-0.17476416493272703,0.01789754103370787,0.12379857454272734,-0.058055031811247576,-0.02171961362330671, ,0.08357715606689453
0.009839851573833411,0.0191934206128866,-0.0819682363397787, ,0.010459455331895372,0.020697081531038213,-0.08197155642340222, ,0.0016263197707512278, ,0.007852423620806494,0.01854321078791056,-0.01330807623543575,0.2025575645625361,-0.0961239410463905,-0.11110329616300699, ,0.024137442203631523, ,0.22420833745954433, ,0.0010480595378304057, ,0.1393335465167586,-0.2248782585645435,0.09139622274,-4.528883399378757,0.18432263818357916,-1.185907498328661, ,0.06517647085059805,-0.17476416493272703,0.01789754103370787,0.12379857454272734,-0.058055031811247576,-0.02171961362330671, ,0.08550500869750977
0.009839851573833411,0.0191934206128866,-0.0819682363397787, ,0.01047830702455114,0.02075213629926327,-0.08199202540031832, ,0.0016845729051926596, ,0.007852423620806494,0.01854321078791056,-0.01330807623543575,0.2025575645625361,-0.0961239410463905,-0.11110329616300699, ,0.024137442203631523, ,0.22420833745954433, ,0.0010632146180056974, ,0.1393335465167586,-0.2248782585645435,0.09139622274,-4.528883399378757,0.18432263818357916,-1.185907498328661, ,0.06517647085059805,-0.17476416493272703,0.01789754103370787,0.12379857454272734,-0.058055031811247576,-0.02171961362330671, ,0.08750796318054199
0.009839851573833411,0.0191934206128866,-0.0819682363397787, ,0.010504258177985573,0.02080036628569562,-0.08201422847989151, ,0.001739490099987006, ,0.007852423620806494,0.01854321078791056,-0.01330807623543575,0.2025575645625361,-0.0961239410463905,-0.11110329616300699, ,0.024137442203631523, ,0.22420833745954433, ,0.0010789419547959603, ,0.1393335465167586,-0.2248782585645435,0.09139622274,-4.528883399378757,0.18432263818357916,-1.185907498328661, ,0.06517647085059805,-0.17476416493272703,0.01789754103370787,0.12379857454272734,-0.058055031811247576,-0.02171961362330671, ,0.0894770622253418
0.009839851573833411,0.0191934206128866,-0.0819682363397787, ,0.010515889880319335,0.020862087461602927,-0.08203304887303868, ,0.001801576395357359, ,0.007852423620806494,0.01854321078791056,-0.01330807623543575,0.2025575645625361,-0.0961239410463905,-0.11110329616300699, ,0.024137442203631523, ,0.22420833745954433, ,0.0010953654648087193, ,0.14005176067406147,-0.2268630009132192,0.09157122189000001,-4.528254329548303,0.18295627318592475,-1.1845482830712752, ,0.07804024799216347,-0.21325155406397928,0.015960732985971945,0.040503127611579134,-0.16505537737708587,0.36193228972799574, ,0.09151196479797363
0.009929619937350967,0.019395900807421873,-0.08209286641718956, ,0.010534623316801566,0.02091698184472813,-0.08205360202644327, ,0.0016374548248974683, ,0.00949363573464932,0.021082796611948746,-0.010633656367244653,-0.16560974447089713,-0.17835549772714138,-0.020464960486159443, ,0.025449716701363315, ,0.24338708038277537, ,0.0011074118950329139, ,0.14005176067406147,-0.2268630009132192,0.09157122189000001,-4.528254329548303,0.18295627318592475,-1.1845482830712752, ,0.07804024799216347,-0.21325155406397928,0.015960732985971945,0.040503127611579134,-0.16505537737708587,0.36193228972799574, ,0.09458613395690918
0.009929619937350967,0.019395900807421873,-0.08209286641718956, ,0.010553319422248754,0.020971820755601285,-0.08207418422603038, ,0.001694955384309001, ,0.00949363573464932,0.021082796611948746,-0.010633656367244653,-0.16560974447089713,-0.17835549772714138,-0.020464960486159443, ,0.025449716701363315, ,0.24338708038277537, ,0.001120184579582394, ,0.14005176067406147,-0.2268630009132192,0.09157122189000001,-4.528254329548303,0.18295627318592475,-1.1845482830712752, ,0.07804024799216347,-0.21325155406397928,0.015960732985971945,0.040503127611579134,-0.16505537737708587,0.36193228972799574, ,0.09674715995788574
0.009929619937350967,0.019395900807421873,-0.08209286641718956, ,0.010571975645680918,0.02102660732082307,-0.08209479434773606, ,0.0017526632037528913, ,0.00949363573464932,0.021082796611948746,-0.010633656367244653,-0.16560974447089713,-0.17835549772714138,-0.020464960486159443, ,0.025449716701363315, ,0.24338708038277537, ,0.0011336415715860215, ,0.14005176067406147,-0.2268630009132192,0.09157122189000001,-4.528254329548303,0.18295627318592475,-1.1845482830712752, ,0.07804024799216347,-0.21325155406397928,0.015960732985971945,0.040503127611579134,-0.16505537737708587,0.36193228972799574, ,0.09877896308898926
0.009929619937350967,0.019395900807421873,-0.08209286641718956, ,0.010590594086934477,0.021081339549198965,-0.08211543224775364, ,0.001810552345393482, ,0.00949363573464932,0.021082796611948746,-0.010633656367244653,-0.16560974447089713,-0.17835549772714138,-0.020464960486159443, ,0.025449716701363315, ,0.24338708038277537, ,0.001147743879373677, ,0.14005176067406147,-0.2268630009132192,0.09157122189000001,-4.528254329548303,0.18295627318592475,-1.1845482830712752, ,0.07804024799216347,-0.21325155406397928,0.015960732985971945,0.040503127611579134,-0.16505537737708587,0.36193228972799574, ,0.10081911087036133
0.010021637587078734,0.019626947336496472,-0.08220244649598757, ,0.010615889202983404,0.021129206850195426,-0.08213493087446255, ,0.001616934441668628, ,0.008906983010781116,0.023410416184614827,-0.009055652283156617,-0.3072421070355824,-0.04393133543303621,0.010805064569144159, ,0.026634315657900035, ,0.3103669997079213, ,0.001157319196971533, ,0.1408780930916035,-0.22919526624123499,0.09173973959000001,-4.52762525971785,0.1821364541873321,-1.1799591961223497, ,0.08587958512078804,-0.2408551816204842,0.015127076467236471,0.057296117576570056,-0.04767533015199716,0.5531870677845532, ,0.10298013687133789
0.010021637587078734,0.019626947336496472,-0.08220244649598757, ,0.01063439455360364,0.02118382274052254,-0.0821556404687035, ,0.0016737750529495466, ,0.008906983010781116,0.023410416184614827,-0.009055652283156617,-0.3072421070355824,-0.04393133543303621,0.010805064569144159, ,0.026634315657900035, ,0.3103669997079213, ,0.0011676483140910935, ,0.1408780930916035,-0.22919526624123499,0.09173973959000001,-4.52762525971785,0.1821364541873321,-1.1799591961223497, ,0.08587958512078804,-0.2408551816204842,0.015127076467236471,0.057296117576570056,-0.04767533015199716,0.5531870677845532, ,0.10495710372924805
0.010021637587078734,0.019626947336496472,-0.08220244649598757, ,0.010652862313971913,0.021238385006749336,-0.08217637786682518, ,0.0017308540072397073, ,0.008906983010781116,0.023410416184614827,-0.009055652283156617,-0.3072421070355824,-0.04393133543303621,0.010805064569144159, ,0.026634315657900035, ,0.3103669997079213, ,0.0011786915629763603, ,0.1408780930916035,-0.22919526624123499,0.09173973959000001,-4.52762525971785,0.1821364541873321,-1.1799591961223497, ,0.08587958512078804,-0.2408551816204842,0.015127076467236471,0.057296117576570056,-0.04767533015199716,0.5531870677845532, ,0.10695600509643555
0.010021637587078734,0.019626947336496472,-0.08220244649598757, ,0.010671292628675796,0.02129289370990109,-0.08219714303759426, ,0.001788143483841106, ,0.008906983010781116,0.023410416184614827,-0.009055652283156617,-0.3072421070355824,-0.04393133543303621,0.010805064569144159, ,0.026634315657900035, ,0.3103669997079213, ,0.0011904117922237592, ,0.1408780930916035,-0.22919526624123499,0.09173973959000001,-4.52762525971785,0.1821364541873321,-1.1799591961223497, ,0.08587958512078804,-0.2408551816204842,0.015127076467236471,0.057296117576570056,-0.04767533015199716,0.5531870677845532, ,0.1089010238647461
0.010021637587078734,0.019626947336496472,-0.08220244649598757, ,0.010689685642111585,0.021347348910948753,-0.08221793594980688, ,0.0018456190572246163, ,0.008906983010781116,0.023410416184614827,-0.009055652283156617,-0.3072421070355824,-0.04393133543303621,0.010805064569144159, ,0.026634315657900035, ,0.3103669997079213, ,0.0012027741934501905, ,0.1408780930916035,-0.22919526624123499,0.09173973959000001,-4.52762525971785,0.1821364541873321,-1.1799591961223497, ,0.08587958512078804,-0.2408551816204842,0.015127076467236471,0.057296117576570056,-0.04767533015199716,0.5531870677845532, ,0.1108860969543457
0.010109284423474137,0.019878719822308048,-0.08228767482113412, ,0.010708041498478366,0.02140175067081141,-0.08223875657229103, ,0.0016372311979162772, ,0.008289207575940621,0.026069025243902137,-0.007105333230933698,-0.017359989425403788,0.07332532858982958,-0.006269192897542621, ,0.02826288732112926, ,0.07535232595976353, ,0.001210819693532896, ,0.1418202665022589,-0.23179010448697443,0.09189140552000001,-4.526576810000427,0.18254636368662844,-1.1749843317243023, ,0.09813541009148995,-0.2719110073308618,0.01408382981432361,0.10131100114534816,0.10958267056410394,0.32099452546938867, ,0.11363816261291504
0.010109284423474137,0.019878719822308048,-0.08228767482113412, ,0.010726360341780617,0.021456099050354727,-0.08225960487390535, ,0.001694017662235063, ,0.008289207575940621,0.026069025243902137,-0.007105333230933698,-0.017359989425403788,0.07332532858982958,-0.006269192897542621, ,0.02826288732112926, ,0.07535232595976353, ,0.0012196051111456627, ,0.1418202665022589,-0.23179010448697443,0.09189140552000001,-4.526576810000427,0.18254636368662844,-1.1749843317243023, ,0.09813541009148995,-0.2719110073308618,0.01408382981432361,0.10131100114534816,0.10958267056410394,0.32099452546938867, ,0.11560916900634766
0.010109284423474137,0.019878719822308048,-0.08228767482113412, ,0.010744642315828853,0.021510394110390088,-0.08228048082353921, ,0.001751026095569925, ,0.008289207575940621,0.026069025243902137,-0.007105333230933698,-0.017359989425403788,0.07332532858982958,-0.006269192897542621, ,0.02826288732112926, ,0.07535232595976353, ,0.0012290947715818104, ,0.1418202665022589,-0.23179010448697443,0.09189140552000001,-4.526576810000427,0.18254636368662844,-1.1749843317243023, ,0.09813541009148995,-0.2719110073308618,0.01408382981432361,0.10131100114534816,0.10958267056410394,0.32099452546938867, ,0.11754512786865234
0.010109284423474137,0.019878719822308048,-0.08228767482113412, ,0.010762887564236613,0.02156463591167603,-0.08230138439011342, ,0.0018082306485307663, ,0.008289207575940621,0.026069025243902137,-0.007105333230933698,-0.017359989425403788,0.07332532858982958,-0.006269192897542621, ,0.02826288732112926, ,0.07535232595976353, ,0.0012392550501247744, ,0.1418202665022589,-0.23179010448697443,0.09189140552000001,-4.526576810000427,0.18254636368662844,-1.1749843317243023, ,0.09813541009148995,-0.2719110073308618,0.01408382981432361,0.10131100114534816,0.10958267056410394,0.32099452546938867, ,0.11949706077575684
0.010109284423474137,0.019878719822308048,-0.08228767482113412, ,0.010781096230423432,0.021618824514916105,-0.08232231554257982, ,0.0018656085936699948, ,0.008289207575940621,0.026069025243902137,-0.007105333230933698,-0.017359989425403788,0.07332532858982958,-0.006269192897542621, ,0.02826288732112926, ,0.07535232595976353, ,0.001250054249151416, ,0.14283966724165653,-0.2345780110545695,0.09202233081000001,-4.526157430113458,0.1835028191849865,-1.1733138948459605, ,0.10555833321298196,-0.2928917949335518,0.013197026942833473,0.03649311191857567,0.07013558791679879,0.1415148527160989, ,0.12184000015258789
0.01019847335854443,0.020151534474867658,-0.08234992360337552, ,0.010799268457610218,0.021672959980761058,-0.08234327424992213, ,0.0016357672618516994, ,0.009041188898551794,0.027593360524608392,-0.0057358222423457,0.1635250562071854,-0.010529075050520715,0.03676061969910179, ,0.02959791037448591, ,0.16386367938861335, ,0.0012565917578412516, ,0.14283966724165653,-0.2345780110545695,0.09202233081000001,-4.526157430113458,0.1835028191849865,-1.1733138948459605, ,0.10555833321298196,-0.2928917949335518,0.013197026942833473,0.03649311191857567,0.07013558791679879,0.1415148527160989, ,0.12468218803405762
0.01019847335854443,0.020151534474867658,-0.08234992360337552, ,0.010817404388826892,0.02172704236980463,-0.08236426048115436, ,0.0016927806394567738, ,0.009041188898551794,0.027593360524608392,-0.0057358222423457,0.1635250562071854,-0.010529075050520715,0.03676061969910179, ,0.02959791037448591, ,0.16386367938861335, ,0.0012638615725348436, ,0.14283966724165653,-0.2345780110545695,0.09202233081000001,-4.526157430113458,0.1835028191849865,-1.1733138948459605, ,0.10555833321298196,-0.2928917949335518,0.013197026942833473,0.03649311191857567,0.07013558791679879,0.1415148527160989, ,0.12676405906677246
0.01019847335854443,0.020151534474867658,-0.08234992360337552, ,0.010835504166902227,0.02178107174258839,-0.08238527420532335, ,0.00174998560643961, ,0.009041188898551794,0.027593360524608392,-0.0057358222423457,0.1635250562071854,-0.010529075050520715,0.03676061969910179, ,0.02959791037448591, ,0.16386367938861335, ,0.0012718308189922987, ,0.14283966724165653,-0.2345780110545695,0.09202233081000001,-4.526157430113458,0.1835028191849865,-1.1733138948459605, ,0.10555833321298196,-0.2928917949335518,0.013197026942833473,0.03649311191857567,0.07013558791679879,0.1415148527160989, ,0.1287369728088379
0.01019847335854443,0.020151534474867658,-0.08234992360337552, ,0.010853567934471555,0.02183504815959728,-0.08240631539150639, ,0.0018073591961338632, ,0.009041188898551794,0.027593360524608392,-0.0057358222423457,0.1635250562071854,-0.010529075050520715,0.03676061969910179, ,0.02959791037448591, ,0.16386367938861335, ,0.001280468373462324, ,0.14283966724165653,-0.2345780110545695,0.09202233081000001,-4.526157430113458,0.1835028191849865,-1.1733138948459605, ,0.10555833321298196,-0.2928917949335518,0.013197026942833473,0.03649311191857567,0.07013558791679879,0.1415148527160989, ,0.13076496124267578
0.01019847335854443,0.020151534474867658,-0.08234992360337552, ,0.010871595833972113,0.02188897168126217,-0.08242738400881366, ,0.0018648812368353366, ,0.010486200240755522,0.029091378947347795,-0.0064520796005761915,0.08528606437889548,-0.10741882387001535,0.04696952322002232, ,0.03158952446175129, ,0.13715872734783238, ,0.0012897447681190386, ,0.14283966724165653,-0.2345780110545695,0.09202233081000001,-4.526157430113458,0.1835028191849865,-1.1733138948459605, ,0.10555833321298196,-0.2928917949335518,0.013197026942833473,0.03649311191857567,0.07013558791679879,0.1415148527160989, ,0.13288211822509766
0.010267923926890302,0.020354970168043336,-0.0823943672285994, ,0.010889588007646035,0.02194284236795741,-0.08244848002638569, ,0.0017060869108712182, ,0.010486200240755522,0.029091378947347795,-0.0064520796005761915,0.08528606437889548,-0.10741882387001535,0.04696952322002232, ,0.03158952446175129, ,0.13715872734783238, ,0.0012962501140995415, ,0.14365827692632432,-0.23684077178671725,0.0921273303,-4.525947740169974,0.1837760921845174,-1.1723932282913854, ,0.11073155374383986,-0.31012072404729013,0.014363220486925161,0.00784472581219709,-0.02952507443192804,0.22100269671274314, ,0.1353931427001953
0.010267923926890302,0.020354970168043336,-0.0823943672285994, ,0.010907544597537837,0.02199666028000229,-0.082469603413396, ,0.0017634969547822169, ,0.010486200240755522,0.029091378947347795,-0.0064520796005761915,0.08528606437889548,-0.10741882387001535,0.04696952322002232, ,0.03158952446175129, ,0.13715872734783238, ,0.0013034385270331212, ,0.14365827692632432,-0.23684077178671725,0.0921273303,-4.525947740169974,0.1837760921845174,-1.1723932282913854, ,0.11073155374383986,-0.31012072404729013,0.014363220486925161,0.00784472581219709,-0.02952507443192804,0.22100269671274314, ,0.1374530792236328
0.010267923926890302,0.020354970168043336,-0.0823943672285994, ,0.010925465745494148,0.022050425477660725,-0.08249075413904977, ,0.0018210492543115956, ,0.010486200240755522,0.029091378947347795,-0.0064520796005761915,0.08528606437889548,-0.10741882387001535,0.04696952322002232, ,0.03158952446175129, ,0.13715872734783238, ,0.0013112811138100676, ,0.14365827692632432,-0.23684077178671725,0.0921273303,-4.525947740169974,0.1837760921845174,-1.1723932282913854, ,0.11073155374383986,-0.31012072404729013,0.014363220486925161,0.00784472581219709,-0.02952507443192804,0.22100269671274314, ,0.1395859718322754
0.010401766339370936,0.020740336798900083,-0.08247415532345942, ,0.010943351593166095,0.022104138021139624,-0.0825119321725838, ,0.0014678880922060094, ,0.010486200240755522,0.029091378947347795,-0.0064520796005761915,0.08528606437889548,-0.10741882387001535,0.04696952322002232, ,0.03158952446175129, ,0.13715872734783238, ,0.0013136185313980667, ,0.1450947052409301,-0.24092609747718202,0.09231269977,-4.524479910565582,0.18363945568475198,-1.170566556844737, ,0.11643796510241813,-0.33297172476656417,0.015301451988472626,0.1397307584316223,-0.004413082814435033,0.11767057499337917, ,0.1420149803161621
0.010401766339370936,0.020740336798900083,-0.08247415532345942, ,0.010961202282005367,0.022157797970590812,-0.0825331374832679, ,0.0015250061122296537, ,0.01082783906780845,0.03154088888141277,-0.0066018615265041585,0.23220273856192894,-0.07144692589417265,-0.07795091777123943, ,0.0339949164717774, ,0.24294603310786106, ,0.0013167271722926489, ,0.1450947052409301,-0.24092609747718202,0.09231269977,-4.524479910565582,0.18363945568475198,-1.170566556844737, ,0.11643796510241813,-0.33297172476656417,0.015301451988472626,0.1397307584316223,-0.004413082814435033,0.11767057499337917, ,0.1444239616394043
0.010401766339370936,0.020740336798900083,-0.08247415532345942, ,0.010979017953269539,0.02221140538610794,-0.08255437004040296, ,0.0015823073705296946, ,0.01082783906780845,0.03154088888141277,-0.0066018615265041585,0.23220273856192894,-0.07144692589417265,-0.07795091777123943, ,0.0339949164717774, ,0.24294603310786106, ,0.001320576160672896, ,0.1450947052409301,-0.24092609747718202,0.09231269977,-4.524479910565582,0.18363945568475198,-1.170566556844737, ,0.11643796510241813,-0.33297172476656417,0.015301451988472626,0.1397307584316223,-0.004413082814435033,0.11767057499337917, ,0.14647603034973145
0.010401766339370936,0.020740336798900083,-0.08247415532345942, ,0.010996798748013908,0.022264960327730354,-0.08257562981332313, ,0.00163976752745364, ,0.01082783906780845,0.03154088888141277,-0.0066018615265041585,0.23220273856192894,-0.07144692589417265,-0.07795091777123943, ,0.0339949164717774, ,0.24294603310786106, ,0.0013251360373411922, ,0.1450947052409301,-0.24092609747718202,0.09231269977,-4.524479910565582,0.18363945568475198,-1.170566556844737, ,0.11643796510241813,-0.33297172476656417,0.015301451988472626,0.1397307584316223,-0.004413082814435033,0.11767057499337917, ,0.148406982421875
0.010401766339370936,0.020740336798900083,-0.08247415532345942, ,0.011014544807100166,0.02231846285543855,-0.08259691677139414, ,0.0016973655098231686, ,0.01082783906780845,0.03154088888141277,-0.0066018615265041585,0.23220273856192894,-0.07144692589417265,-0.07795091777123943, ,0.0339949164717774, ,0.24294603310786106, ,0.001330378705967699, ,0.1450947052409301,-0.24092609747718202,0.09231269977,-4.524479910565582,0.18363945568475198,-1.170566556844737, ,0.11643796510241813,-0.33297172476656417,0.015301451988472626,0.1397307584316223,-0.004413082814435033,0.11767057499337917, ,0.15033602714538574
0.010515360330872012,0.021056161154999933,-0.08253508961121894, ,0.011032256271189948,0.022371913029156906,-0.08261823088401474, ,0.0014160850534861438, ,0.011804946293685278,0.032405281540425546,-0.006538140284443441,0.2631345901696936,-0.1096085274246214,-0.03178974650935458, ,0.03510279628591005, ,0.2850505951862217, ,0.001331569071905455, ,0.14630717430218335,-0.24427776354459546,0.09246177312000001,-4.523431460848159,0.18336618268522106,-1.1693635761556576, ,0.12686756892843687,-0.34258823667317967,0.015662548200589974,0.08773745625002276,-0.016458455268863005,0.08678176933022393, ,0.15238308906555176
0.010515360330872012,0.021056161154999933,-0.08253508961121894, ,0.011049933280746823,0.022425310908752757,-0.08263957212061603, ,0.0014735181986352214, ,0.011804946293685278,0.032405281540425546,-0.006538140284443441,0.2631345901696936,-0.1096085274246214,-0.03178974650935458, ,0.03510279628591005, ,0.2850505951862217, ,0.0013335135804907943, ,0.14630717430218335,-0.24427776354459546,0.09246177312000001,-4.523431460848159,0.18336618268522106,-1.1693635761556576, ,0.12686756892843687,-0.34258823667317967,0.015662548200589974,0.08773745625002276,-0.016458455268863005,0.08678176933022393, ,0.1544489860534668
0.010515360330872012,0.021056161154999933,-0.08253508961121894, ,0.011067575976036139,0.02247865655403612,-0.08266094045066165, ,0.0015311021235801298, ,0.011804946293685278,0.032405281540425546,-0.006538140284443441,0.2631345901696936,-0.1096085274246214,-0.03178974650935458, ,0.03510279628591005, ,0.2850505951862217, ,0.0013361836959379474, ,0.14630717430218335,-0.24427776354459546,0.09246177312000001,-4.523431460848159,0.18336618268522106,-1.1693635761556576, ,0.12686756892843687,-0.34258823667317967,0.015662548200589974,0.08773745625002276,-0.016458455268863005,0.08678176933022393, ,0.15689396858215332
0.010515360330872012,0.021056161154999933,-0.08253508961121894, ,0.011085184497126565,0.022531950024758343,-0.08268233584364754, ,0.0015888152257310846, ,0.011804946293685278,0.032405281540425546,-0.006538140284443441,0.2631345901696936,-0.1096085274246214,-0.03178974650935458, ,0.03510279628591005, ,0.2850505951862217, ,0.0013395521163351892, ,0.14630717430218335,-0.24427776354459546,0.09246177312000001,-4.523431460848159,0.18336618268522106,-1.1693635761556576, ,0.12686756892843687,-0.34258823667317967,0.015662548200589974,0.08773745625002276,-0.016458455268863005,0.08678176933022393, ,0.15900897979736328
0.010515360330872012,0.021056161154999933,-0.08253508961121894, ,0.011102758983886619,0.022585191380614097,-0.08270375826910302, ,0.001646638917479327, ,0.011804946293685278,0.032405281540425546,-0.006538140284443441,0.2631345901696936,-0.1096085274246214,-0.03178974650935458, ,0.03510279628591005, ,0.2850505951862217, ,0.0013435927321397173, ,0.14630717430218335,-0.24427776354459546,0.09246177312000001,-4.523431460848159,0.18336618268522106,-1.1693635761556576, ,0.12686756892843687,-0.34258823667317967,0.015662548200589974,0.08773745625002276,-0.016458455268863005,0.08678176933022393, ,0.1609821319580078
0.010636997832334731,0.021391122105607775,-0.08261027103239388, ,0.011120299575984274,0.022638380681241223,-0.08272520769658992, ,0.0013425516625748077, ,0.011953907615747154,0.033534466139273224,-0.00809041703963402,0.13613808452768802,-0.09484460149443669,0.02182471061887587, ,0.036509056060203486, ,0.1659188851723768, ,0.0013435792117557574, ,0.14760459342505305,-0.24779932973524185,0.09263158711000001,-4.52301208096119,0.18322954618545564,-1.1674552259688689, ,0.12652925541129437,-0.35017321608291796,0.017581469668874174,0.045976756919763266,-0.00942123697713423,0.21801399823278214, ,0.16295719146728516
0.010636997832334731,0.021391122105607775,-0.08261027103239388, ,0.01113780641289472,0.022691517986216256,-0.08274668409570282, ,0.0014001597067861038, ,0.011953907615747154,0.033534466139273224,-0.00809041703963402,0.13613808452768802,-0.09484460149443669,0.02182471061887587, ,0.036509056060203486, ,0.1659188851723768, ,0.001344304602717685, ,0.14760459342505305,-0.24779932973524185,0.09263158711000001,-4.52301208096119,0.18322954618545564,-1.1674552259688689, ,0.12652925541129437,-0.35017321608291796,0.017581469668874174,0.045976756919763266,-0.00942123697713423,0.21801399823278214, ,0.16488409042358398
0.010636997832334731,0.021391122105607775,-0.08261027103239388, ,0.01115527963388924,0.02274460335506015,-0.08276818743606908, ,0.0014578974960508914, ,0.011953907615747154,0.033534466139273224,-0.00809041703963402,0.13613808452768802,-0.09484460149443669,0.02182471061887587, ,0.036509056060203486, ,0.1659188851723768, ,0.0013457424874434218, ,0.14760459342505305,-0.24779932973524185,0.09263158711000001,-4.52301208096119,0.18322954618545564,-1.1674552259688689, ,0.12652925541129437,-0.35017321608291796,0.017581469668874174,0.045976756919763266,-0.00942123697713423,0.21801399823278214, ,0.16684603691101074
0.010636997832334731,0.021391122105607775,-0.08261027103239388, ,0.011172719378039651,0.022797636847235774,-0.08278971768735006, ,0.0015157448317326737, ,0.011953907615747154,0.033534466139273224,-0.00809041703963402,0.13613808452768802,-0.09484460149443669,0.02182471061887587, ,0.036509056060203486, ,0.1659188851723768, ,0.0013478675167470373, ,0.14760459342505305,-0.24779932973524185,0.09263158711000001,-4.52301208096119,0.18322954618545564,-1.1674552259688689, ,0.12652925541129437,-0.35017321608291796,0.017581469668874174,0.045976756919763266,-0.00942123697713423,0.21801399823278214, ,0.16875696182250977
0.010636997832334731,0.021391122105607775,-0.08261027103239388, ,0.011190125784221901,0.022850618522145868,-0.08281127481923907, ,0.0015736844802477206, ,0.011953907615747154,0.033534466139273224,-0.00809041703963402,0.13613808452768802,-0.09484460149443669,0.02182471061887587, ,0.036509056060203486, ,0.1659188851723768, ,0.0013506553804939593, ,0.14760459342505305,-0.24779932973524185,0.09263158711000001,-4.52301208096119,0.18322954618545564,-1.1674552259688689, ,0.12652925541129437,-0.35017321608291796,0.017581469668874174,0.045976756919763266,-0.00942123697713423,0.21801399823278214, ,0.17082619667053223
0.010756248053785639,0.02173036934491125,-0.08270207911817268, ,0.0112074989911117,0.02290354843913471,-0.08283285880146282, ,0.0012637562744145306, ,0.011992269724742537,0.034017156082334694,-0.009630874283925664,0.06074409580839645,-0.08838835795845026,0.055718759344805566, ,0.03733276283043725, ,0.10724899493847906, ,0.0013495956352978687, ,0.14885567615067744,-0.25130545046013975,0.09281954916000001,-4.522592701074221,0.18322954618545564,-1.1649231850245112, ,0.124210656490145,-0.35017321608291796,0.019307650327272732,0.017163805071506145,-0.00784074916348911,0.29034460838218507, ,0.17288804054260254
0.010756248053785639,0.02173036934491125,-0.08270207911817268, ,0.011224839137184578,0.02295642665748853,-0.0828544696037816, ,0.0013213693644357483, ,0.011992269724742537,0.034017156082334694,-0.009630874283925664,0.06074409580839645,-0.08838835795845026,0.055718759344805566, ,0.03733276283043725, ,0.10724899493847906, ,0.001349255559745313, ,0.14885567615067744,-0.25130545046013975,0.09281954916000001,-4.522592701074221,0.18322954618545564,-1.1649231850245112, ,0.124210656490145,-0.35017321608291796,0.019307650327272732,0.017163805071506145,-0.00784074916348911,0.29034460838218507, ,0.1750340461730957
0.010756248053785639,0.02173036934491125,-0.08270207911817268, ,0.011242146360716162,0.0230092532364345,-0.08287610719598872, ,0.0013791036743276204, ,0.011992269724742537,0.034017156082334694,-0.009630874283925664,0.06074409580839645,-0.08838835795845026,0.055718759344805566, ,0.03733276283043725, ,0.10724899493847906, ,0.0013496108944427213, ,0.14885567615067744,-0.25130545046013975,0.09281954916000001,-4.522592701074221,0.18322954618545564,-1.1649231850245112, ,0.124210656490145,-0.35017321608291796,0.019307650327272732,0.017163805071506145,-0.00784074916348911,0.29034460838218507, ,0.17703700065612793
0.010756248053785639,0.02173036934491125,-0.08270207911817268, ,0.01125942079978429,0.023062028235140013,-0.08289777154791092, ,0.0014369390172508983, ,0.011992269724742537,0.034017156082334694,-0.009630874283925664,0.06074409580839645,-0.08838835795845026,0.055718759344805566, ,0.03733276283043725, ,0.10724899493847906, ,0.0013506382841228174, ,0.14885567615067744,-0.25130545046013975,0.09281954916000001,-4.522592701074221,0.18322954618545564,-1.1649231850245112, ,0.124210656490145,-0.35017321608291796,0.019307650327272732,0.017163805071506145,-0.00784074916348911,0.29034460838218507, ,0.1789531707763672
0.010756248053785639,0.02173036934491125,-0.08270207911817268, ,0.011276662592266711,0.023114751712713225,-0.08291946262940815, ,0.001494858328772505, ,0.011992269724742537,0.034017156082334694,-0.009630874283925664,0.06074409580839645,-0.08838835795845026,0.055718759344805566, ,0.03733276283043725, ,0.10724899493847906, ,0.0013523152613861861, ,0.14885567615067744,-0.25130545046013975,0.09281954916000001,-4.522592701074221,0.18322954618545564,-1.1649231850245112, ,0.124210656490145,-0.35017321608291796,0.019307650327272732,0.017163805071506145,-0.00784074916348911,0.29034460838218507, ,0.18085718154907227
0.010874794764681684,0.0220713152724942,-0.08279905021969222, ,0.011293871875839129,0.023167423728204073,-0.08294118041037406, ,0.001182066141498863, ,0.011945781409318346,0.034110207898956565,-0.009634240602505749,0.01018563716876917,-0.05057655789170312,-0.03967561525640309, ,0.03740356357857129, ,0.05159200838991271, ,0.0013503583749506997, ,0.15008359067767912,-0.25478840298641503,0.09301399266,-4.521544251356799,0.18322954618545564,-1.1615743566787482, ,0.12308293327946923,-0.347607844536523,0.01944909831501832,0.12230774891922638,-0.0063454148204688384,0.35452893830154025, ,0.1828620433807373
0.010874794764681684,0.0220713152724942,-0.08279905021969222, ,0.011311048787980591,0.023220044340601344,-0.08296292486073555, ,0.0012396575909241524, ,0.011945781409318346,0.034110207898956565,-0.009634240602505749,0.01018563716876917,-0.05057655789170312,-0.03967561525640309, ,0.03740356357857129, ,0.05159200838991271, ,0.0013491004114958524, ,0.15008359067767912,-0.25478840298641503,0.09301399266,-4.521544251356799,0.18322954618545564,-1.1615743566787482, ,0.12308293327946923,-0.347607844536523,0.01944909831501832,0.12230774891922638,-0.0063454148204688384,0.35452893830154025, ,0.18484902381896973
0.010874794764681684,0.0220713152724942,-0.08279905021969222, ,0.011328193465968812,0.023272613608834824,-0.08298469595045344, ,0.0012973636392983555, ,0.011945781409318346,0.034110207898956565,-0.009634240602505749,0.01018563716876917,-0.05057655789170312,-0.03967561525640309, ,0.03740356357857129, ,0.05159200838991271, ,0.0013485190994486896, ,0.15008359067767912,-0.25478840298641503,0.09301399266,-4.521544251356799,0.18322954618545564,-1.1615743566787482, ,0.12308293327946923,-0.347607844536523,0.01944909831501832,0.12230774891922638,-0.0063454148204688384,0.35452893830154025, ,0.18689417839050293
0.010874794764681684,0.0220713152724942,-0.08279905021969222, ,0.01134530604688051,0.02332513159177504,-0.08300649364952178, ,0.0013551638298563002, ,0.011945781409318346,0.034110207898956565,-0.009634240602505749,0.01018563716876917,-0.05057655789170312,-0.03967561525640309, ,0.03740356357857129, ,0.05159200838991271, ,0.001348592929786552, ,0.15008359067767912,-0.25478840298641503,0.09301399266,-4.521544251356799,0.18322954618545564,-1.1615743566787482, ,0.12308293327946923,-0.347607844536523,0.01944909831501832,0.12230774891922638,-0.0063454148204688384,0.35452893830154025, ,0.18912816047668457
0.010874794764681684,0.0220713152724942,-0.08279905021969222, ,0.011362386667593193,0.023377598348231974,-0.08302831792796865, ,0.0014130410538275718, ,0.011945781409318346,0.034110207898956565,-0.009634240602505749,0.01018563716876917,-0.05057655789170312,-0.03967561525640309, ,0.03740356357857129, ,0.05159200838991271, ,0.0013493011509298598, ,0.15008359067767912,-0.25478840298641503,0.09301399266,-4.521544251356799,0.18322954618545564,-1.1615743566787482, ,0.12308293327946923,-0.347607844536523,0.01944909831501832,0.12230774891922638,-0.0063454148204688384,0.35452893830154025, ,0.19131708145141602
0.010992346160563743,0.022404409873481627,-0.08289725851934697, ,0.011379435464785611,0.023430013936954912,-0.08305016875585552, ,0.0011068348408344339, ,0.011950237683324722,0.033846618961990774,-0.010783795164264798,0.02427766287100824,-0.05310082014186271,-0.013684904051204172, ,0.03747922136318961, ,0.058387514661809324, ,0.0013466656475592572, ,0.15128061427318393,-0.25817095998532535,0.09320843616,-4.52070549158286,0.1830929096856902,-1.1581141104292887, ,0.12150696742441842,-0.3401324070196085,0.020606483208279434,0.09410000862132775,0.0,0.3296405825991462, ,0.19333100318908691
0.010992346160563743,0.022404409873481627,-0.08289725851934697, ,0.01139645257493327,0.023482378416634347,-0.08307204610327797, ,0.0011644178260649515, ,0.011950237683324722,0.033846618961990774,-0.010783795164264798,0.02427766287100824,-0.05310082014186271,-0.013684904051204172, ,0.03747922136318961, ,0.058387514661809324, ,0.0013447059935646948, ,0.15128061427318393,-0.25817095998532535,0.09320843616,-4.52070549158286,0.1830929096856902,-1.1581141104292887, ,0.12150696742441842,-0.3401324070196085,0.020606483208279434,0.09410000862132775,0.0,0.3296405825991462, ,0.1953110694885254
0.010992346160563743,0.022404409873481627,-0.08289725851934697, ,0.011413438134312776,0.023534691845899798,-0.0830939499403655, ,0.0012221060930343375, ,0.011950237683324722,0.033846618961990774,-0.010783795164264798,0.02427766287100824,-0.05310082014186271,-0.013684904051204172, ,0.03747922136318961, ,0.058387514661809324, ,0.0013434017393037334, ,0.15128061427318393,-0.25817095998532535,0.09320843616,-4.52070549158286,0.1830929096856902,-1.1581141104292887, ,0.12150696742441842,-0.3401324070196085,0.020606483208279434,0.09410000862132775,0.0,0.3296405825991462, ,0.19741201400756836
0.010992346160563743,0.022404409873481627,-0.08289725851934697, ,0.011430392279000718,0.02358695428331994,-0.08311588023728095, ,0.0012798793453564084, ,0.011950237683324722,0.033846618961990774,-0.010783795164264798,0.02427766287100824,-0.05310082014186271,-0.013684904051204172, ,0.03747922136318961, ,0.058387514661809324, ,0.0013427330825253408, ,0.15128061427318393,-0.25817095998532535,0.09320843616,-4.52070549158286,0.1830929096856902,-1.1581141104292887, ,0.12150696742441842,-0.3401324070196085,0.020606483208279434,0.09410000862132775,0.0,0.3296405825991462, ,0.19961118698120117
0.010992346160563743,0.022404409873481627,-0.08289725851934697, ,0.011447315144871713,0.02363916578740397,-0.08313783696422174, ,0.0013377207973963713, ,0.011950237683324722,0.033846618961990774,-0.010783795164264798,0.02427766287100824,-0.05310082014186271,-0.013684904051204172, ,0.03747922136318961, ,0.058387514661809324, ,0.0013426808712219138, ,0.15128061427318393,-0.25817095998532535,0.09320843616,-4.52070549158286,0.1830929096856902,-1.1581141104292887, ,0.12150696742441842,-0.3401324070196085,0.020606483208279434,0.09410000862132775,0.0,0.3296405825991462, ,0.20182299613952637
0.011110043201133823,0.02274381995667546,-0.08300703411160008, ,0.011464206867601573,0.023691326416599077,-0.08315982009141898, ,0.0010230073068517572, ,0.011256762108689759,0.03278142733058697,-0.010253020986026356,0.05838048976247186,-0.06025537794311146,0.049568551917363174, ,0.036145001180551715, ,0.08389870107853657, ,0.0013393852674655204, ,0.15248536060156295,-0.26157668518285837,0.09341713885000001,-4.520286111695891,0.18322954618545564,-1.1552034149477843, ,0.11544640092271385,-0.3295032693002457,0.01986136099750624,0.025835309103121713,0.01206320094892904,0.27619269016281667, ,0.20457911491394043
0.011110043201133823,0.02274381995667546,-0.08300703411160008, ,0.01148106758266459,0.023743436229292418,-0.08318182958913771, ,0.0010804838004979604, ,0.011256762108689759,0.03278142733058697,-0.010253020986026356,0.05838048976247186,-0.06025537794311146,0.049568551917363174, ,0.036145001180551715, ,0.08389870107853657, ,0.00133674341576177, ,0.15248536060156295,-0.26157668518285837,0.09341713885000001,-4.520286111695891,0.18322954618545564,-1.1552034149477843, ,0.11544640092271385,-0.3295032693002457,0.01986136099750624,0.025835309103121713,0.01206320094892904,0.27619269016281667, ,0.2071549892425537
0.011110043201133823,0.02274381995667546,-0.08300703411160008, ,0.011497897425334181,0.023795495283810156,-0.08320386542767724, ,0.001138066105251623, ,0.011256762108689759,0.03278142733058697,-0.010253020986026356,0.05838048976247186,-0.06025537794311146,0.049568551917363174, ,0.036145001180551715, ,0.08389870107853657, ,0.0013347365742414656, ,0.15248536060156295,-0.26157668518285837,0.09341713885000001,-4.520286111695891,0.18322954618545564,-1.1552034149477843, ,0.11544640092271385,-0.3295032693002457,0.01986136099750624,0.025835309103121713,0.01206320094892904,0.27619269016281667, ,0.20917296409606934
0.011110043201133823,0.02274381995667546,-0.08300703411160008, ,0.011514696530681545,0.023847503638418234,-0.08322592757737123, ,0.0011957325519599462, ,0.011256762108689759,0.03278142733058697,-0.010253020986026356,0.05838048976247186,-0.06025537794311146,0.049568551917363174, ,0.036145001180551715, ,0.08389870107853657, ,0.0013333465340186505, ,0.15248536060156295,-0.26157668518285837,0.09341713885000001,-4.520286111695891,0.18322954618545564,-1.1552034149477843, ,0.11544640092271385,-0.3295032693002457,0.01986136099750624,0.025835309103121713,0.01206320094892904,0.27619269016281667, ,0.21115708351135254
0.011221240470032841,0.023076708031301577,-0.08310204652753266, ,0.011531465033579835,0.023899461351320123,-0.08324801600858714, ,0.0008913301267368767, ,0.010078281143864772,0.03103765645190554,-0.008110881311602647,0.0759345159904775,-0.05529756205799139,0.024900088608693534, ,0.033625797603807094, ,0.0939354621703796, ,0.0013289701339465536, ,0.15359743413545127,-0.26482023299003266,0.09360380461000001,-4.519657041865438,0.18336618268522106,-1.1526194344268423, ,0.10485849895963623,-0.31527223109126506,0.017389532227074237,0.045125340191464205,0.004453343307106737,0.24831410751687538, ,0.21304702758789062
0.011221240470032841,0.023076708031301577,-0.08310204652753266, ,0.011548203068698774,0.02395136848065913,-0.08327013069172692, ,0.0009487822346827663, ,0.010078281143864772,0.03103765645190554,-0.008110881311602647,0.0759345159904775,-0.05529756205799139,0.024900088608693534, ,0.033625797603807094, ,0.0939354621703796, ,0.00132524280160083, ,0.15359743413545127,-0.26482023299003266,0.09360380461000001,-4.519657041865438,0.18336618268522106,-1.1526194344268423, ,0.10485849895963623,-0.31527223109126506,0.017389532227074237,0.045125340191464205,0.004453343307106737,0.24831410751687538, ,0.21499419212341309
0.011221240470032841,0.023076708031301577,-0.08310204652753266, ,0.011564910770509088,0.024003225084516557,-0.08329227159722669, ,0.0010063442266280962, ,0.010078281143864772,0.03103765645190554,-0.008110881311602647,0.0759345159904775,-0.05529756205799139,0.024900088608693534, ,0.033625797603807094, ,0.0939354621703796, ,0.0013221466989311917, ,0.15359743413545127,-0.26482023299003266,0.09360380461000001,-4.519657041865438,0.18336618268522106,-1.1526194344268423, ,0.10485849895963623,-0.31527223109126506,0.017389532227074237,0.045125340191464205,0.004453343307106737,0.24831410751687538, ,0.21692514419555664
0.011221240470032841,0.023076708031301577,-0.08310204652753266, ,0.011581588273277934,0.02405503122091334,-0.08331443869555696, ,0.001063991182140982, ,0.010078281143864772,0.03103765645190554,-0.008110881311602647,0.0759345159904775,-0.05529756205799139,0.024900088608693534, ,0.033625797603807094, ,0.0939354621703796, ,0.0013196644343466705, ,0.15359743413545127,-0.26482023299003266,0.09360380461000001,-4.519657041865438,0.18336618268522106,-1.1526194344268423, ,0.10485849895963623,-0.31527223109126506,0.017389532227074237,0.045125340191464205,0.004453343307106737,0.24831410751687538, ,0.21896004676818848
0.011221240470032841,0.023076708031301577,-0.08310204652753266, ,0.011598235711073275,0.024106786947808042,-0.08333663195722248, ,0.0011217033073950638, ,0.010078281143864772,0.03103765645190554,-0.008110881311602647,0.0759345159904775,-0.05529756205799139,0.024900088608693534, ,0.033625797603807094, ,0.0939354621703796, ,0.0013177790902804648, ,0.15359743413545127,-0.26482023299003266,0.09360380461000001,-4.519657041865438,0.18336618268522106,-1.1526194344268423, ,0.10485849895963623,-0.31527223109126506,0.017389532227074237,0.045125340191464205,0.004453343307106737,0.24831410751687538, ,0.2209479808807373
0.01131530959847204,0.023369080042160567,-0.08317455042298416, ,0.01161485321776286,0.024158492323097042,-0.08335885135276236, ,0.0008642134932227568, ,0.009320514813003895,0.029422685406374334,-0.007092812782533628,0.08818664858055003,-0.04850019150176869,0.009091726414267531, ,0.031668192339790575, ,0.1006436960053957, ,0.0013135001695535051, ,0.15460911214197468,-0.26790932613972246,0.09376972973000001,-4.519027972034984,0.18336618268522106,-1.150250750962766, ,0.09693252457453604,-0.2993594370929678,0.015881168015952143,0.05724305355755005,0.004128126387212352,0.2193130458567097, ,0.22291111946105957
0.01131530959847204,0.023369080042160567,-0.08317455042298416, ,0.011631440927009271,0.024210147404617306,-0.08338109685275066, ,0.0009219515999888167, ,0.009320514813003895,0.029422685406374334,-0.007092812782533628,0.08818664858055003,-0.04850019150176869,0.009091726414267531, ,0.031668192339790575, ,0.1006436960053957, ,0.001309840837127667, ,0.15460911214197468,-0.26790932613972246,0.09376972973000001,-4.519027972034984,0.18336618268522106,-1.150250750962766, ,0.09693252457453604,-0.2993594370929678,0.015881168015952143,0.05724305355755005,0.004128126387212352,0.2193130458567097, ,0.225006103515625
0.01131530959847204,0.023369080042160567,-0.08317455042298416, ,0.011647998972278202,0.024261752250141502,-0.08340336842779507, ,0.0009797466864811223, ,0.009320514813003895,0.029422685406374334,-0.007092812782533628,0.08818664858055003,-0.04850019150176869,0.009091726414267531, ,0.031668192339790575, ,0.1006436960053957, ,0.0013067844098068656, ,0.15460911214197468,-0.26790932613972246,0.09376972973000001,-4.519027972034984,0.18336618268522106,-1.150250750962766, ,0.09693252457453604,-0.2993594370929678,0.015881168015952143,0.05724305355755005,0.004128126387212352,0.2193130458567097, ,0.2269880771636963
0.01131530959847204,0.023369080042160567,-0.08317455042298416, ,0.011664527486830027,0.024313306917382652,-0.08342566604853872, ,0.0010375820848677632, ,0.009320514813003895,0.029422685406374334,-0.007092812782533628,0.08818664858055003,-0.04850019150176869,0.009091726414267531, ,0.031668192339790575, ,0.1006436960053957, ,0.0013043146637065068, ,0.15460911214197468,-0.26790932613972246,0.09376972973000001,-4.519027972034984,0.18336618268522106,-1.150250750962766, ,0.09693252457453604,-0.2993594370929678,0.015881168015952143,0.05724305355755005,0.004128126387212352,0.2193130458567097, ,0.22896814346313477
0.01131530959847204,0.023369080042160567,-0.08317455042298416, ,0.01168102660372728,0.024364811463990086,-0.0834479896856588, ,0.0010954446689466078, ,0.009320514813003895,0.029422685406374334,-0.007092812782533628,0.08818664858055003,-0.04850019150176869,0.009091726414267531, ,0.031668192339790575, ,0.1006436960053957, ,0.001302415845572326, ,0.15460911214197468,-0.26790932613972246,0.09376972973000001,-4.519027972034984,0.18336618268522106,-1.150250750962766, ,0.09693252457453604,-0.2993594370929678,0.015881168015952143,0.05724305355755005,0.004128126387212352,0.2193130458567097, ,0.2309260368347168
0.011411190678453077,0.023669393631440806,-0.08325045280114192, ,0.011697496455828982,0.02441626594755188,-0.0834703393098671, ,0.0008295416393715799, ,0.008894044361436803,0.02825964604154839,-0.007407632263288257,0.0753262672583999,-0.04911398197764315,0.025587227881069874, ,0.030538248725899726, ,0.0899234660279474, ,0.0012981557175885355, ,0.1555281173540074,-0.2707590145703113,0.09392528453000001,-4.519027972034984,0.18336618268522106,-1.1481271037191114, ,0.09177653922482666,-0.2858341613206951,0.015897017485029943,0.038613452428395006,0.00366164827107805,0.2181574677340526, ,0.23286104202270508
0.011411190678453077,0.023669393631440806,-0.08325045280114192, ,0.011713937175793191,0.02446767042559421,-0.08349271489191006, ,0.0008874639160883623, ,0.008894044361436803,0.02825964604154839,-0.007407632263288257,0.0753262672583999,-0.04911398197764315,0.025587227881069874, ,0.030538248725899726, ,0.0899234660279474, ,0.0012944888265037124, ,0.1555281173540074,-0.2707590145703113,0.09392528453000001,-4.519027972034984,0.18336618268522106,-1.1481271037191114, ,0.09177653922482666,-0.2858341613206951,0.015897017485029943,0.038613452428395006,0.00366164827107805,0.2181574677340526, ,0.23479604721069336
0.011411190678453077,0.023669393631440806,-0.08325045280114192, ,0.011730348896075472,0.024519024955581222,-0.08351511640256903, ,0.0009454005377388314, ,0.008894044361436803,0.02825964604154839,-0.007407632263288257,0.0753262672583999,-0.04911398197764315,0.025587227881069874, ,0.030538248725899726, ,0.0899234660279474, ,0.0012913995496119878, ,0.1555281173540074,-0.2707590145703113,0.09392528453000001,-4.519027972034984,0.18336618268522106,-1.1481271037191114, ,0.09177653922482666,-0.2858341613206951,0.015897017485029943,0.038613452428395006,0.00366164827107805,0.2181574677340526, ,0.2367250919342041
0.011411190678453077,0.023669393631440806,-0.08325045280114192, ,0.011746731748932366,0.024570329594913686,-0.08353754381265985, ,0.0010033417509261642, ,0.008894044361436803,0.02825964604154839,-0.007407632263288257,0.0753262672583999,-0.04911398197764315,0.025587227881069874, ,0.030538248725899726, ,0.0899234660279474, ,0.0012888727268164982, ,0.1555281173540074,-0.2707590145703113,0.09392528453000001,-4.519027972034984,0.18336618268522106,-1.1481271037191114, ,0.09177653922482666,-0.2858341613206951,0.015897017485029943,0.038613452428395006,0.00366164827107805,0.2181574677340526, ,0.2386760711669922
0.011411190678453077,0.023669393631440806,-0.08325045280114192, ,0.011763085866416178,0.02462158440093132,-0.08355999709303318, ,0.0010612799599808642, ,0.008894044361436803,0.02825964604154839,-0.007407632263288257,0.0753262672583999,-0.04911398197764315,0.025587227881069874, ,0.030538248725899726, ,0.0899234660279474, ,0.001286893659278797, ,0.1555281173540074,-0.2707590145703113,0.09392528453000001,-4.519027972034984,0.18336618268522106,-1.1481271037191114, ,0.09177653922482666,-0.2858341613206951,0.015897017485029943,0.038613452428395006,0.00366164827107805,0.2181574677340526, ,0.24068999290466309
0.011493493598801717,0.023932243846203585,-0.08332582305210141, ,0.01177941138037925,0.024672789430910697,-0.08358247621457446, ,0.0008342826779088911, ,0.008488527269967657,0.027316194298980096,-0.008572983309389425,0.046178918380700845,-0.042874184032311254,0.032711865883598916, ,0.029861775047972064, ,0.06301339629745022, ,0.001282991840473884, ,0.15642395436741743,-0.2735855348022775,0.09408991336000001,-4.5186085921480155,0.18336618268522106,-1.1458400989951758, ,0.08405397835116987,-0.2703616568617401,0.016767170021052633,0.02857134600894337,0.003267712903151386,0.22830853170397325, ,0.24279499053955078
0.011493493598801717,0.023932243846203585,-0.08332582305210141, ,0.011795708422470689,0.024723944742066604,-0.08360498114820408, ,0.0008922182192576214, ,0.008488527269967657,0.027316194298980096,-0.008572983309389425,0.046178918380700845,-0.042874184032311254,0.032711865883598916, ,0.029861775047972064, ,0.06301339629745022, ,0.001279651894993403, ,0.15642395436741743,-0.2735855348022775,0.09408991336000001,-4.5186085921480155,0.18336618268522106,-1.1458400989951758, ,0.08405397835116987,-0.2703616568617401,0.016767170021052633,0.02857134600894337,0.003267712903151386,0.22830853170397325, ,0.24472713470458984
0.011493493598801717,0.023932243846203585,-0.08332582305210141, ,0.011811977124139932,0.024775050391550382,-0.08362751186487671, ,0.0009501424990731812, ,0.008488527269967657,0.027316194298980096,-0.008572983309389425,0.046178918380700845,-0.042874184032311254,0.032711865883598916, ,0.029861775047972064, ,0.06301339629745022, ,0.0012768594424856046, ,0.15642395436741743,-0.2735855348022775,0.09408991336000001,-4.5186085921480155,0.18336618268522106,-1.1458400989951758, ,0.08405397835116987,-0.2703616568617401,0.016767170021052633,0.02857134600894337,0.003267712903151386,0.22830853170397325, ,0.24680614471435547
0.011493493598801717,0.023932243846203585,-0.08332582305210141, ,0.011828217616632681,0.024826106436451646,-0.08365006833558289, ,0.0010080503470649958, ,0.008488527269967657,0.027316194298980096,-0.008572983309389425,0.046178918380700845,-0.042874184032311254,0.032711865883598916, ,0.029861775047972064, ,0.06301339629745022, ,0.001274600542524087, ,0.15642395436741743,-0.2735855348022775,0.09408991336000001,-4.5186085921480155,0.18336618268522106,-1.1458400989951758, ,0.08405397835116987,-0.2703616568617401,0.016767170021052633,0.02857134600894337,0.003267712903151386,0.22830853170397325, ,0.24877619743347168
0.011493493598801717,0.023932243846203585,-0.08332582305210141, ,0.011844430030994982,0.02487711293379649,-0.08367265053134698, ,0.001065937743251933, ,0.008488527269967657,0.027316194298980096,-0.008572983309389425,0.046178918380700845,-0.042874184032311254,0.032711865883598916, ,0.029861775047972064, ,0.06301339629745022, ,0.0012728616858634855, ,0.15642395436741743,-0.2735855348022775,0.09408991336000001,-4.5186085921480155,0.18336618268522106,-1.1458400989951758, ,0.08405397835116987,-0.2703616568617401,0.016767170021052633,0.02857134600894337,0.003267712903151386,0.22830853170397325, ,0.2507801055908203
0.011578150358350931,0.024205335924628705,-0.0834217086175435, ,0.011860614498068451,0.02492806994054939,-0.0836952584232292, ,0.0008227757557110447, ,0.008302171997716719,0.026179497411021373,-0.01045418900188539,0.01917652285405388,-0.004030087005118652,-0.07195510593740476, ,0.029386769340308365, ,0.019595420515332397, ,0.0012691419674324736, ,0.157234841319211,-0.2762344321781365,0.09426750509000001,-4.517350452487108,0.18336618268522106,-1.1433080580508181, ,0.07772067285706043,-0.24907333742380783,0.018287958117106776,0.13710036110508295,0.002949321500199236,0.25085422553066383, ,0.25310397148132324
0.011578150358350931,0.024205335924628705,-0.0834217086175435, ,0.011876771148495554,0.024978977513610858,-0.08371789198232432, ,0.0008805795080981156, ,0.008302171997716719,0.026179497411021373,-0.01045418900188539,0.01917652285405388,-0.004030087005118652,-0.07195510593740476, ,0.029386769340308365, ,0.019595420515332397, ,0.0012659570292412085, ,0.157234841319211,-0.2762344321781365,0.09426750509000001,-4.517350452487108,0.18336618268522106,-1.1433080580508181, ,0.07772067285706043,-0.24907333742380783,0.018287958117106776,0.13710036110508295,0.002949321500199236,0.25085422553066383, ,0.2551100254058838
0.011578150358350931,0.024205335924628705,-0.0834217086175435, ,0.011892900112716468,0.02502983570981859,-0.08374055117976172, ,0.0009383644724376604, ,0.008302171997716719,0.026179497411021373,-0.01045418900188539,0.01917652285405388,-0.004030087005118652,-0.07195510593740476, ,0.029386769340308365, ,0.019595420515332397, ,0.0012632936751208544, ,0.157234841319211,-0.2762344321781365,0.09426750509000001,-4.517350452487108,0.18336618268522106,-1.1433080580508181, ,0.07772067285706043,-0.24907333742380783,0.018287958117106776,0.13710036110508295,0.002949321500199236,0.25085422553066383, ,0.25710010528564453
0.011578150358350931,0.024205335924628705,-0.0834217086175435, ,0.01190900152096736,0.025080644585948678,-0.08376323598670656, ,0.0009961268434661539, ,0.008302171997716719,0.026179497411021373,-0.01045418900188539,0.01917652285405388,-0.004030087005118652,-0.07195510593740476, ,0.029386769340308365, ,0.019595420515332397, ,0.0012611391038978325, ,0.157234841319211,-0.2762344321781365,0.09426750509000001,-4.517350452487108,0.18336618268522106,-1.1433080580508181, ,0.07772067285706043,-0.24907333742380783,0.018287958117106776,0.13710036110508295,0.002949321500199236,0.25085422553066383, ,0.2592151165008545
0.011578150358350931,0.024205335924628705,-0.0834217086175435, ,0.011925075503284796,0.02513140419871295,-0.08378594637435859, ,0.0010538636761661532, ,0.008302171997716719,0.026179497411021373,-0.01045418900188539,0.01917652285405388,-0.004030087005118652,-0.07195510593740476, ,0.029386769340308365, ,0.019595420515332397, ,0.0012594809004759793, ,0.157234841319211,-0.2762344321781365,0.09426750509000001,-4.517350452487108,0.18336618268522106,-1.1433080580508181, ,0.07772067285706043,-0.24907333742380783,0.018287958117106776,0.13710036110508295,0.002949321500199236,0.25085422553066383, ,0.26118898391723633
0.011664955878917575,0.02447101689416835,-0.08354736928029363, ,0.011941122189503335,0.02518211460476035,-0.08380868231395276, ,0.0008063574186871946, ,0.008364138386954347,0.02536198829880152,-0.013459240693195249,-0.017135432113783773,-0.01607741928817554,-0.011213136132375609, ,0.029905524932059484, ,0.023496936034702706, ,0.0012558846823665446, ,0.1580148373395077,-0.27870570669788836,0.09447231891,-4.51651169271317,0.18336618268522106,-1.1406126596261796, ,0.07282957909322392,-0.2308928018454277,0.020986576442687747,0.070951499452203,0.002683338834962708,0.25932464917709497, ,0.2631571292877197
0.011664955878917575,0.02447101689416835,-0.08354736928029363, ,0.01195714170925468,0.025232775860677133,-0.08383144377675922, ,0.0008639141172874133, ,0.008364138386954347,0.02536198829880152,-0.013459240693195249,-0.017135432113783773,-0.01607741928817554,-0.011213136132375609, ,0.029905524932059484, ,0.023496936034702706, ,0.0012527982999643468, ,0.1580148373395077,-0.27870570669788836,0.09447231891,-4.51651169271317,0.18336618268522106,-1.1406126596261796, ,0.07282957909322392,-0.2308928018454277,0.020986576442687747,0.070951499452203,0.002683338834962708,0.25932464917709497, ,0.2650620937347412
0.011664955878917575,0.02447101689416835,-0.08354736928029363, ,0.011973134191968129,0.025283388022986675,-0.08385423073408307, ,0.0009214579075541201, ,0.008364138386954347,0.02536198829880152,-0.013459240693195249,-0.017135432113783773,-0.01607741928817554,-0.011213136132375609, ,0.029905524932059484, ,0.023496936034702706, ,0.001250209703148642, ,0.1580148373395077,-0.27870570669788836,0.09447231891,-4.51651169271317,0.18336618268522106,-1.1406126596261796, ,0.07282957909322392,-0.2308928018454277,0.020986576442687747,0.070951499452203,0.002683338834962708,0.25932464917709497, ,0.26697802543640137
0.011664955878917575,0.02447101689416835,-0.08354736928029363, ,0.011989099766874229,0.025333951148147623,-0.08387704315726438, ,0.0009789839896276887, ,0.008364138386954347,0.02536198829880152,-0.013459240693195249,-0.017135432113783773,-0.01607741928817554,-0.011213136132375609, ,0.029905524932059484, ,0.023496936034702706, ,0.001248107178237627, ,0.1580148373395077,-0.27870570669788836,0.09447231891,-4.51651169271317,0.18336618268522106,-1.1406126596261796, ,0.07282957909322392,-0.2308928018454277,0.020986576442687747,0.070951499452203,0.002683338834962708,0.25932464917709497, ,0.2689189910888672
0.011664955878917575,0.02447101689416835,-0.08354736928029363, ,0.01200503856299904,0.02538446529255654,-0.0838998810176785, ,0.0010364886557623768, ,0.008364138386954347,0.02536198829880152,-0.013459240693195249,-0.017135432113783773,-0.01607741928817554,-0.011213136132375609, ,0.029905524932059484, ,0.023496936034702706, ,0.0012464793434493555, ,0.1580148373395077,-0.27870570669788836,0.09447231891,-4.51651169271317,0.18336618268522106,-1.1406126596261796, ,0.07282957909322392,-0.2308928018454277,0.020986576442687747,0.070951499452203,0.002683338834962708,0.25932464917709497, ,0.2708430290222168
0.011744172686046194,0.024713868339391567,-0.08368703809771105, ,0.012020950709164514,0.02543493051254805,-0.08392274428673714, ,0.0008075234604540219, ,0.007898970985611908,0.024862058112135193,-0.015012823498019618,-0.04137618564251995,-0.02157778587458739,0.03786045036224852, ,0.03009818176543919, ,0.04666464206385081, ,0.0012431285351822156, ,0.158678992366691,-0.28088351736841966,0.09468361418000001,-4.516092312826201,0.18336618268522106,-1.138162297421963, ,0.06442426446603583,-0.22069056176388552,0.022309259831932778,0.01808825496050596,0.002473829818660773,0.2655112864525475, ,0.27279019355773926
0.011744172686046194,0.024713868339391567,-0.08368703809771105, ,0.012036836333996027,0.025485346864390423,-0.08394563293588515, ,0.0008646978753853877, ,0.007898970985611908,0.024862058112135193,-0.015012823498019618,-0.04137618564251995,-0.02157778587458739,0.03786045036224852, ,0.03009818176543919, ,0.04666464206385081, ,0.001240261636244361, ,0.158678992366691,-0.28088351736841966,0.09468361418000001,-4.516092312826201,0.18336618268522106,-1.138162297421963, ,0.06442426446603583,-0.22069056176388552,0.022309259831932778,0.01808825496050596,0.002473829818660773,0.2655112864525475, ,0.27490806579589844
0.011744172686046194,0.024713868339391567,-0.08368703809771105, ,0.012052695565913867,0.025535714404290172,-0.08396854693660413, ,0.0009218809837316821, ,0.007898970985611908,0.024862058112135193,-0.015012823498019618,-0.04137618564251995,-0.02157778587458739,0.03786045036224852, ,0.03009818176543919, ,0.04666464206385081, ,0.0012378677967517845, ,0.158678992366691,-0.28088351736841966,0.09468361418000001,-4.516092312826201,0.18336618268522106,-1.138162297421963, ,0.06442426446603583,-0.22069056176388552,0.022309259831932778,0.01808825496050596,0.002473829818660773,0.2655112864525475, ,0.2767651081085205
0.011744172686046194,0.024713868339391567,-0.08368703809771105, ,0.01206852853313587,0.025586033188390808,-0.08399148626041056, ,0.000979064310013512, ,0.007898970985611908,0.024862058112135193,-0.015012823498019618,-0.04137618564251995,-0.02157778587458739,0.03786045036224852, ,0.03009818176543919, ,0.04666464206385081, ,0.0012359364274477675, ,0.158678992366691,-0.28088351736841966,0.09468361418000001,-4.516092312826201,0.18336618268522106,-1.138162297421963, ,0.06442426446603583,-0.22069056176388552,0.022309259831932778,0.01808825496050596,0.002473829818660773,0.2655112864525475, ,0.2786870002746582
0.011744172686046194,0.024713868339391567,-0.08368703809771105, ,0.012084335363679507,0.025636303272771378,-0.08401445087885617, ,0.0010362412763595468, ,0.007898970985611908,0.024862058112135193,-0.015012823498019618,-0.04137618564251995,-0.02157778587458739,0.03786045036224852, ,0.03009818176543919, ,0.04666464206385081, ,0.0012344572041063733, ,0.158678992366691,-0.28088351736841966,0.09468361418000001,-4.516092312826201,0.18336618268522106,-1.138162297421963, ,0.06442426446603583,-0.22069056176388552,0.022309259831932778,0.01808825496050596,0.002473829818660773,0.2655112864525475, ,0.280623197555542
0.011744172686046194,0.024713868339391567,-0.08368703809771105, ,0.012100116185359845,0.02568652471344768,-0.08403744076352757, ,0.0010934067060828529, ,0.007629313283895648,0.023734893394543585,-0.014892187865388071,-0.05529195322185416,-0.009045936386991141,5.8779721503264375e-05, ,0.029040124742366155, ,0.056027032080333, ,0.0012334200680914945, ,0.15928908826375474,-0.2829763779773345,0.09490009461000001,-4.5154632429957475,0.1835028191849865,-1.1355783169010207, ,0.06087039227611981,-0.20719856235473968,0.021880235604395604,0.055533660920420384,0.0,0.27149854471439494, ,0.28318214416503906
0.01181889354783152,0.024952237465561015,-0.08383344037321822, ,0.012115871125791149,0.02573669756637127,-0.08406045588604734, ,0.0008689702956022546, ,0.007629313283895648,0.023734893394543585,-0.014892187865388071,-0.05529195322185416,-0.009045936386991141,5.8779721503264375e-05, ,0.029040124742366155, ,0.056027032080333, ,0.0012307598507740548, ,0.15928908826375474,-0.2829763779773345,0.09490009461000001,-4.5154632429957475,0.1835028191849865,-1.1355783169010207, ,0.06087039227611981,-0.20719856235473968,0.021880235604395604,0.055533660920420384,0.0,0.27149854471439494, ,0.2851850986480713
0.01181889354783152,0.024952237465561015,-0.08383344037321822, ,0.012131600312381936,0.025786821887432355,-0.08408349621807354, ,0.0009256590103122295, ,0.007629313283895648,0.023734893394543585,-0.014892187865388071,-0.05529195322185416,-0.009045936386991141,5.8779721503264375e-05, ,0.029040124742366155, ,0.056027032080333, ,0.0012285489751185342, ,0.15928908826375474,-0.2829763779773345,0.09490009461000001,-4.5154632429957475,0.1835028191849865,-1.1355783169010207, ,0.06087039227611981,-0.20719856235473968,0.021880235604395604,0.055533660920420384,0.0,0.27149854471439494, ,0.28723597526550293
0.01181889354783152,0.024952237465561015,-0.08383344037321822, ,0.012147303872343085,0.02583689773245484,-0.08410656173129859, ,0.0009823809878586375, ,0.007629313283895648,0.023734893394543585,-0.014892187865388071,-0.05529195322185416,-0.009045936386991141,5.8779721503264375e-05, ,0.029040124742366155, ,0.056027032080333, ,0.0012267779824044341, ,0.15928908826375474,-0.2829763779773345,0.09490009461000001,-4.5154632429957475,0.1835028191849865,-1.1355783169010207, ,0.06087039227611981,-0.20719856235473968,0.021880235604395604,0.055533660920420384,0.0,0.27149854471439494, ,0.2892739772796631
0.01181889354783152,0.024952237465561015,-0.08383344037321822, ,0.012162981932682627,0.025886925157199633,-0.08412965239745128, ,0.001039124372147252, ,0.007629313283895648,0.023734893394543585,-0.014892187865388071,-0.05529195322185416,-0.009045936386991141,5.8779721503264375e-05, ,0.029040124742366155, ,0.056027032080333, ,0.0012254375994740258, ,0.15928908826375474,-0.2829763779773345,0.09490009461000001,-4.5154632429957475,0.1835028191849865,-1.1355783169010207, ,0.06087039227611981,-0.20719856235473968,0.021880235604395604,0.055533660920420384,0.0,0.27149854471439494, ,0.2914769649505615
0.01189303995817864,0.0251930039356858,-0.08397876326779453, ,0.012178634620205008,0.02593690421736484,-0.08415276818829522, ,0.0008156161182925204, ,0.0068138009006022664,0.02195778657781238,-0.012652939014245145,-0.05160695502002426,0.008579188752181327,-0.025916168185479996, ,0.02624250635530099, ,0.05231519819112608, ,0.0012225310641464976, ,0.15989146142794425,-0.28508468405199777,0.09511657504000001,-4.51462448322181,0.18363945568475198,-1.1329126576399378, ,0.055986396199687774,-0.19366722767034852,0.019191339180722893,0.0822071751214423,0.00708980472588347,0.2594702609487308, ,0.2935781478881836
0.01189303995817864,0.0251930039356858,-0.08397876326779453, ,0.012194262061513363,0.025986834968584352,-0.08417590907563008, ,0.0008716472531232478, ,0.0068138009006022664,0.02195778657781238,-0.012652939014245145,-0.05160695502002426,0.008579188752181327,-0.025916168185479996, ,0.02624250635530099, ,0.05231519819112608, ,0.0012200600513928126, ,0.15989146142794425,-0.28508468405199777,0.09511657504000001,-4.51462448322181,0.18363945568475198,-1.1329126576399378, ,0.055986396199687774,-0.19366722767034852,0.019191339180722893,0.0822071751214423,0.00708980472588347,0.2594702609487308, ,0.29559803009033203
0.01189303995817864,0.0251930039356858,-0.08397876326779453, ,0.012209864383009392,0.026036717466428064,-0.08419907503129012, ,0.0009277755716020154, ,0.0068138009006022664,0.02195778657781238,-0.012652939014245145,-0.05160695502002426,0.008579188752181327,-0.025916168185479996, ,0.02624250635530099, ,0.05231519819112608, ,0.0012180161039816882, ,0.15989146142794425,-0.28508468405199777,0.09511657504000001,-4.51462448322181,0.18363945568475198,-1.1329126576399378, ,0.055986396199687774,-0.19366722767034852,0.019191339180722893,0.0822071751214423,0.00708980472588347,0.2594702609487308, ,0.29755616188049316
0.01189303995817864,0.0251930039356858,-0.08397876326779453, ,0.012225441710895362,0.026086551766400665,-0.08422226602714539, ,0.0009839777664133807, ,0.0068138009006022664,0.02195778657781238,-0.012652939014245145,-0.05160695502002426,0.008579188752181327,-0.025916168185479996, ,0.02624250635530099, ,0.05231519819112608, ,0.0012163908377485749, ,0.15989146142794425,-0.28508468405199777,0.09511657504000001,-4.51462448322181,0.18363945568475198,-1.1329126576399378, ,0.055986396199687774,-0.19366722767034852,0.019191339180722893,0.0822071751214423,0.00708980472588347,0.2594702609487308, ,0.29943418502807617
0.01189303995817864,0.0251930039356858,-0.08397876326779453, ,0.012240994171166551,0.02613633792394583,-0.08424548203510189, ,0.0010402355735969428, ,0.0068138009006022664,0.02195778657781238,-0.012652939014245145,-0.05160695502002426,0.008579188752181327,-0.025916168185479996, ,0.02624250635530099, ,0.05231519819112608, ,0.0012151759738578739, ,0.15989146142794425,-0.28508468405199777,0.09511657504000001,-4.51462448322181,0.18363945568475198,-1.1329126576399378, ,0.055986396199687774,-0.19366722767034852,0.019191339180722893,0.0822071751214423,0.00708980472588347,0.2594702609487308, ,0.3014230728149414
0.011957631205607226,0.025414487898707587,-0.0841005461593942, ,0.01225652188962035,0.026186075994441105,-0.0842687230271002, ,0.0008443739037292137, ,0.0063770252476456945,0.021207906964777347,-0.011347784955184962,-0.03913949370801029,-0.002520132230217456,0.013221330485689292, ,0.024884010774488995, ,0.039220541123306134, ,0.0012126362336515133, ,0.16043977546201418,-0.287053980934925,0.09530453709000002,-4.513995413391356,0.18391272868428285,-1.1305217737628328, ,0.053523373693440936,-0.18979388311694156,0.01771836654060067,0.03919192405339173,0.008708998130282962,0.23658725301417194, ,0.303361177444458
0.011957631205607226,0.025414487898707587,-0.0841005461593942, ,0.012272024991851267,0.026235766033200655,-0.08429198897511705, ,0.0008999953214973791, ,0.0063770252476456945,0.021207906964777347,-0.011347784955184962,-0.03913949370801029,-0.002520132230217456,0.013221330485689292, ,0.024884010774488995, ,0.039220541123306134, ,0.0012105094247252947, ,0.16043977546201418,-0.287053980934925,0.09530453709000002,-4.513995413391356,0.18391272868428285,-1.1305217737628328, ,0.053523373693440936,-0.18979388311694156,0.01771836654060067,0.03919192405339173,0.008708998130282962,0.23658725301417194, ,0.3053011894226074
0.011957631205607226,0.025414487898707587,-0.0841005461593942, ,0.012287503603251947,0.02628540809547471,-0.08431527985116433, ,0.0009557344538343217, ,0.0063770252476456945,0.021207906964777347,-0.011347784955184962,-0.03913949370801029,-0.002520132230217456,0.013221330485689292, ,0.024884010774488995, ,0.039220541123306134, ,0.0012087879722192745, ,0.16043977546201418,-0.287053980934925,0.09530453709000002,-4.513995413391356,0.18391272868428285,-1.1305217737628328, ,0.053523373693440936,-0.18979388311694156,0.01771836654060067,0.03919192405339173,0.008708998130282962,0.23658725301417194, ,0.3072700500488281
0.011957631205607226,0.025414487898707587,-0.0841005461593942, ,0.01230295784901168,0.026335002236450477,-0.08433859562729022, ,0.0010115654629339595, ,0.0063770252476456945,0.021207906964777347,-0.011347784955184962,-0.03913949370801029,-0.002520132230217456,0.013221330485689292, ,0.024884010774488995, ,0.039220541123306134, ,0.0012074643312173596, ,0.16043977546201418,-0.287053980934925,0.09530453709000002,-4.513995413391356,0.18391272868428285,-1.1305217737628328, ,0.053523373693440936,-0.18979388311694156,0.01771836654060067,0.03919192405339173,0.008708998130282962,0.23658725301417194, ,0.3092160224914551
0.011957631205607226,0.025414487898707587,-0.0841005461593942, ,0.012318387854122412,0.0263845485112485,-0.08436193627557673, ,0.0010674679125337078, ,0.0063770252476456945,0.021207906964777347,-0.011347784955184962,-0.03913949370801029,-0.002520132230217456,0.013221330485689292, ,0.024884010774488995, ,0.039220541123306134, ,0.0012065310217594686, ,0.16043977546201418,-0.287053980934925,0.09530453709000002,-4.513995413391356,0.18391272868428285,-1.1305217737628328, ,0.053523373693440936,-0.18979388311694156,0.01771836654060067,0.03919192405339173,0.008708998130282962,0.23658725301417194, ,0.3111121654510498
0.01201799261978856,0.025615767966190427,-0.08420839566812681, ,0.012333793743368794,0.026434046974928394,-0.08438530176814318, ,0.0008947662566384202, ,0.006160623743007083,0.020769163011905893,-0.011705187197111971,-0.024861576368007152,0.020021642658804926,-0.0092897944067272, ,0.024623623300348316, ,0.03192121449017695, ,0.0012044663544407861, ,0.160949475831713,-0.28884565496174514,0.09547305479000001,-4.513366343560902,0.1840493651840483,-1.128264508202453, ,0.051743152431009146,-0.18249411838167456,0.01795807386696731,0.06594106679655268,0.02475851271267434,0.22145591320752156, ,0.31336116790771484
0.01201799261978856,0.025615767966190427,-0.08420839566812681, ,0.012349175641338285,0.026483497682483308,-0.08440869207714348, ,0.0009501345724503982, ,0.006160623743007083,0.020769163011905893,-0.011705187197111971,-0.024861576368007152,0.020021642658804926,-0.0092897944067272, ,0.024623623300348316, ,0.03192121449017695, ,0.001202793119032955, ,0.160949475831713,-0.28884565496174514,0.09547305479000001,-4.513366343560902,0.1840493651840483,-1.128264508202453, ,0.051743152431009146,-0.18249411838167456,0.01795807386696731,0.06594106679655268,0.02475851271267434,0.22145591320752156, ,0.3155081272125244
0.01201799261978856,0.025615767966190427,-0.08420839566812681, ,0.012364533672413818,0.026532900688843675,-0.08443210717476755, ,0.0010056191974696243, ,0.006160623743007083,0.020769163011905893,-0.011705187197111971,-0.024861576368007152,0.020021642658804926,-0.0092897944067272, ,0.024623623300348316, ,0.03192121449017695, ,0.0012015044005913645, ,0.160949475831713,-0.28884565496174514,0.09547305479000001,-4.513366343560902,0.1840493651840483,-1.128264508202453, ,0.051743152431009146,-0.18249411838167456,0.01795807386696731,0.06594106679655268,0.02475851271267434,0.22145591320752156, ,0.3174741268157959
0.01201799261978856,0.025615767966190427,-0.08420839566812681, ,0.012379867960778383,0.026582256048874858,-0.08445554703324046, ,0.0010611959167208787, ,0.006160623743007083,0.020769163011905893,-0.011705187197111971,-0.024861576368007152,0.020021642658804926,-0.0092897944067272, ,0.024623623300348316, ,0.03192121449017695, ,0.0012005933065402574, ,0.160949475831713,-0.28884565496174514,0.09547305479000001,-4.513366343560902,0.1840493651840483,-1.128264508202453, ,0.051743152431009146,-0.18249411838167456,0.01795807386696731,0.06594106679655268,0.02475851271267434,0.22145591320752156, ,0.31940197944641113
0.01201799261978856,0.025615767966190427,-0.08420839566812681, ,0.012395178630412835,0.02663156381737844,-0.08447901162482307, ,0.0011168453312433502, ,0.006160623743007083,0.020769163011905893,-0.011705187197111971,-0.024861576368007152,0.020021642658804926,-0.0092897944067272, ,0.024623623300348316, ,0.03192121449017695, ,0.001200052997022213, ,0.160949475831713,-0.28884565496174514,0.09547305479000001,-4.513366343560902,0.1840493651840483,-1.128264508202453, ,0.051743152431009146,-0.18249411838167456,0.01795807386696731,0.06594106679655268,0.02475851271267434,0.22145591320752156, ,0.3213989734649658
0.012082394871776885,0.02582755360670311,-0.08433286130377833, ,0.012410465805096362,0.026680824049091785,-0.0845025009218118, ,0.0009297734052713156, ,0.006077006848567722,0.02041724917409022,-0.012736873605691515,-0.05341548097427347,0.028868576323496445,-0.024833195520952867, ,0.024819791000767675, ,0.06071744371637074, ,0.00119832043553663, ,0.1614591762014118,-0.2906913881186848,0.09566101684000002,-4.5127372737304485,0.1840493651840483,-1.125650788517955, ,0.048342812816337635,-0.17444290727660072,0.01885066452071006,0.08212306382311364,0.022184738394925633,0.24445826456967368, ,0.3234059810638428
0.012082394871776885,0.02582755360670311,-0.08433286130377833, ,0.012425729608405468,0.026730036798688624,-0.08452601489653884, ,0.0009847146610000646, ,0.006077006848567722,0.02041724917409022,-0.012736873605691515,-0.05341548097427347,0.028868576323496445,-0.024833195520952867, ,0.024819791000767675, ,0.06071744371637074, ,0.0011969598892020022, ,0.1614591762014118,-0.2906913881186848,0.09566101684000002,-4.5127372737304485,0.1840493651840483,-1.125650788517955, ,0.048342812816337635,-0.17444290727660072,0.01885066452071006,0.08212306382311364,0.022184738394925633,0.24445826456967368, ,0.325314998626709
0.012082394871776885,0.02582755360670311,-0.08433286130377833, ,0.012440970163717478,0.026779202120777217,-0.08454955352137156, ,0.0010397916385003316, ,0.006077006848567722,0.02041724917409022,-0.012736873605691515,-0.05341548097427347,0.028868576323496445,-0.024833195520952867, ,0.024819791000767675, ,0.06071744371637074, ,0.0011959651534380676, ,0.1614591762014118,-0.2906913881186848,0.09566101684000002,-4.5127372737304485,0.1840493651840483,-1.125650788517955, ,0.048342812816337635,-0.17444290727660072,0.01885066452071006,0.08212306382311364,0.022184738394925633,0.24445826456967368, ,0.32721996307373047
0.012082394871776885,0.02582755360670311,-0.08433286130377833, ,0.012456187594206419,0.026828320069902514,-0.08457311676871367, ,0.0010949781740460483, ,0.006077006848567722,0.02041724917409022,-0.012736873605691515,-0.05341548097427347,0.028868576323496445,-0.024833195520952867, ,0.024819791000767675, ,0.06071744371637074, ,0.0011953300152028976, ,0.1614591762014118,-0.2906913881186848,0.09566101684000002,-4.5127372737304485,0.1840493651840483,-1.125650788517955, ,0.048342812816337635,-0.17444290727660072,0.01885066452071006,0.08212306382311364,0.022184738394925633,0.24445826456967368, ,0.3292081356048584
0.012082394871776885,0.02582755360670311,-0.08433286130377833, ,0.012471382022844873,0.026877390700545224,-0.08459670461100352, ,0.001150253110437163, ,0.006077006848567722,0.02041724917409022,-0.012736873605691515,-0.05341548097427347,0.028868576323496445,-0.024833195520952867, ,0.024819791000767675, ,0.06071744371637074, ,0.0011950482845481118, ,0.1614591762014118,-0.2906913881186848,0.09566101684000002,-4.5127372737304485,0.1840493651840483,-1.125650788517955, ,0.048342812816337635,-0.17444290727660072,0.01885066452071006,0.08212306382311364,0.022184738394925633,0.24445826456967368, ,0.33113813400268555
0.012082394871776885,0.02582755360670311,-0.08433286130377833, ,0.012486553572405221,0.02692641406712098,-0.08462031702071596, ,0.001205599168863136, ,0.006135487439084394,0.02104383026875515,-0.013737317458076697,-0.06792469960575312,0.021410971360761505,-0.002175227328159844, ,0.025868917438488154, ,0.07121933741559933, ,0.0011951138179910623, ,0.1618916492423684,-0.2923054392893977,0.09584120115000001,-4.512108203899995,0.1840493651840483,-1.1231187475735975, ,0.04633639724534706,-0.17737746085695474,0.01988615670411985,0.060902838733695834,0.017797824410713665,0.25689938347168956, ,0.33328819274902344
0.012145241698638244,0.02603293323442529,-0.08446739397176439, ,0.01250170236545833,0.026975390223981356,-0.08464395397036086, ,0.00102296765210699, ,0.006135487439084394,0.02104383026875515,-0.013737317458076697,-0.06792469960575312,0.021410971360761505,-0.002175227328159844, ,0.025868917438488154, ,0.07121933741559933, ,0.001194051187337457, ,0.1618916492423684,-0.2923054392893977,0.09584120115000001,-4.512108203899995,0.1840493651840483,-1.1231187475735975, ,0.04633639724534706,-0.17737746085695474,0.01988615670411985,0.060902838733695834,0.017797824410713665,0.25689938347168956, ,0.33533406257629395
0.012145241698638244,0.02603293323442529,-0.08446739397176439, ,0.01251682852437147,0.02702431922541457,-0.08466761543248416, ,0.001077502475876994, ,0.006135487439084394,0.02104383026875515,-0.013737317458076697,-0.06792469960575312,0.021410971360761505,-0.002175227328159844, ,0.025868917438488154, ,0.07121933741559933, ,0.0011933361645677608, ,0.1618916492423684,-0.2923054392893977,0.09584120115000001,-4.512108203899995,0.1840493651840483,-1.1231187475735975, ,0.04633639724534706,-0.17737746085695474,0.01988615670411985,0.060902838733695834,0.017797824410713665,0.25689938347168956, ,0.33734607696533203
