NicholasDascanio/dvrk_moveit_final/test/execution/first_exp_nosummary/yes_joints_no_ramp/700vel3.csv
Current Position (x),Current Position (y),Current Position (z), ,Planned Position (x),Planned Position (y),Planned Position (z), ,Position Error,,Cartesian linear Velocity(x),Cartesian linear Velocity(y),Cartesian linear Velocity(z),Cartesian Angular Velocity(x),Cartesian Angular Velocity(y),Cartesian Angular Velocity(z), ,Total Linear Velocity, ,Total Angular Velocity, ,MSE, ,Joint 1 Position,Joint 2 Position,Joint 3 Position,Joint 4 Position,Joint 5 Position,Joint 6 Position, ,Joint 1 Velocity,Joint 2 Velocity,Joint 3 Velocity,Joint 4 Velocity,Joint 5 Velocity,Joint 6 Velocity, ,Time Stamp
0.010023283932285626,0.018505647200660016,-0.0813725368598183, ,0.010164525752070329,0.018513655451604914,-0.08148223935097301, ,0.00017901960871603303, ,-4.906353481488588e-06,-5.77324122816949e-07,-1.1179714284122087e-05,-0.0004895571683072585,6.659388655565977e-05,0.00033001473246081363, ,1.2222586432613393e-05, ,0.0004940657514618975, ,8.950980435801651e-05, ,0.14379728611806036,-0.2182367082927104,0.09070530017,-4.530980298813603,0.19580010416387617,-1.1890590179884777, ,-7.758714123497276e-05,2.738803483184416e-05,1.0113599333375183e-05,-0.0003070944378077991,0.0,0.000424776461567427, ,0.001703023910522461
0.010023283932285626,0.018505647200660016,-0.0813725368598183, ,0.010177211270025908,0.018561289039903617,-0.08149167366737874, ,0.0002024431240964113, ,-4.906353481488588e-06,-5.77324122816949e-07,-1.1179714284122087e-05,-0.0004895571683072585,6.659388655565977e-05,0.00033001473246081363, ,1.2222586432613393e-05, ,0.0004940657514618975, ,0.0001271542442708148, ,0.14379728611806036,-0.2182367082927104,0.09070530017,-4.530980298813603,0.19580010416387617,-1.1890590179884777, ,-7.758714123497276e-05,2.738803483184416e-05,1.0113599333375183e-05,-0.0003070944378077991,0.0,0.000424776461567427, ,0.0034439563751220703
0.010023283932285626,0.018505647200660016,-0.0813725368598183, ,0.010189862325632156,0.018608900544680583,-0.0815011703239778, ,0.00023442734969072052, ,-4.618055058719242e-06,-5.516376797041212e-07,-1.1028201999276833e-05,-1.591733562617278e-05,2.655030501931609e-07,0.0002881229915033314, ,1.1968791751546406e-05, ,1.591954978339183e-05, ,0.00015397252062579123, ,0.14379728611806036,-0.2182367082927104,0.09070530017,-4.530980298813603,0.19580010416387617,-1.1889773392483372, ,-7.384139369500594e-05,2.6792901964238744e-05,1.0006926174041505e-05,-0.0003070944378077991,0.0,-5.4238941856917394e-05, ,0.005220890045166016
0.010023283932285626,0.018505647200660016,-0.0813725368598183, ,0.010202479082594038,0.01865648990655093,-0.08151072917743062, ,0.00027195871095004725, ,-4.618055058719242e-06,-5.516376797041212e-07,-1.1028201999276833e-05,-1.591733562617278e-05,2.655030501931609e-07,0.0002881229915033314, ,1.1968791751546406e-05, ,1.591954978339183e-05, ,0.0001775697586906424, ,0.14379728611806036,-0.2182367082927104,0.09070530017,-4.530980298813603,0.19580010416387617,-1.1889773392483372, ,-7.384139369500594e-05,2.6792901964238744e-05,1.0006926174041505e-05,-0.0003070944378077991,0.0,-5.4238941856917394e-05, ,0.006974935531616211
0.010023283932285626,0.018505647200660016,-0.0813725368598183, ,0.010215061704360175,0.01870405706624854,-0.08152035008459123, ,0.0003130398345937904, ,-4.618055058719242e-06,-5.516376797041212e-07,-1.1028201999276833e-05,-1.591733562617278e-05,2.655030501931609e-07,0.0002881229915033314, ,1.1968791751546406e-05, ,1.591954978339183e-05, ,0.0002001481046745004, ,0.14379728611806036,-0.2182367082927104,0.09070530017,-4.530980298813603,0.19580010416387617,-1.1889773392483372, ,-7.384139369500594e-05,2.6792901964238744e-05,1.0006926174041505e-05,-0.0003070944378077991,0.0,-5.4238941856917394e-05, ,0.008673906326293945
0.010023283932285626,0.018505647200660016,-0.0813725368598183, ,0.010227610354123114,0.018751601964625903,-0.08153003290250671, ,0.000356437983443035, ,-4.618055058719242e-06,-5.516376797041212e-07,-1.1028201999276833e-05,-1.591733562617278e-05,2.655030501931609e-07,0.0002881229915033314, ,1.1968791751546406e-05, ,1.591954978339183e-05, ,0.00022247523021286247, ,0.14379728611806036,-0.2182367082927104,0.09070530017,-4.530980298813603,0.19580010416387617,-1.1889773392483372, ,-7.384139369500594e-05,2.6792901964238744e-05,1.0006926174041505e-05,-0.0003070944378077991,0.0,-5.4238941856917394e-05, ,0.010443925857543945
0.010023283932285626,0.018505647200660016,-0.0813725368598183, ,0.010240125194819427,0.018799124542654134,-0.08153977748841841, ,0.00040139570408232654, ,-4.618055058719242e-06,-5.516376797041212e-07,-1.1028201999276833e-05,-1.591733562617278e-05,2.655030501931609e-07,0.0002881229915033314, ,1.1968791751546406e-05, ,1.591954978339183e-05, ,0.0002448402894465455, ,0.14379728611806036,-0.2182367082927104,0.09070530017,-4.530980298813603,0.19580010416387617,-1.1889773392483372, ,-7.384139369500594e-05,2.6792901964238744e-05,1.0006926174041505e-05,-0.0003070944378077991,0.0,-5.4238941856917394e-05, ,0.01225590705871582
0.010023283932285626,0.018505647200660016,-0.0813725368598183, ,0.01025260638912982,0.018846624741422898,-0.0815495836997602, ,0.0004474372090597462, ,-6.756961354085464e-06,0.0016530594655354426,0.0003507173270230134,0.09821910442532802,-0.010967209467545709,-0.00376361631856793, ,0.0016898680115906184, ,0.09882951056045214, ,0.00026735105829245667, ,0.1438127315838088,-0.21831393562145265,0.09071048533,-4.530980298813603,0.19566346766411072,-1.189192636305203, ,0.0005328101985744903,-0.0201095447252534,2.3742401570378713e-05,-0.0003070944378077991,0.0,-0.07934734606705507, ,0.014917850494384766
0.010026289327626453,0.01851293798993639,-0.0813760860996333, ,0.010265054099479387,0.018894102502140214,-0.08155945139415943, ,0.0004857137355255849, ,-6.756961354085464e-06,0.0016530594655354426,0.0003507173270230134,0.09821910442532802,-0.010967209467545709,-0.00376361631856793, ,0.0016898680115906184, ,0.09882951056045214, ,0.0002891873260157695, ,0.1438127315838088,-0.21831393562145265,0.09071048533,-4.530980298813603,0.19566346766411072,-1.189192636305203, ,0.0005328101985744903,-0.0201095447252534,2.3742401570378713e-05,-0.0003070944378077991,0.0,-0.07934734606705507, ,0.017282962799072266
0.010026289327626453,0.01851293798993639,-0.0813760860996333, ,0.010277468488037666,0.01894155776613255,-0.08156938042943677, ,0.0005330746487177032, ,-6.756961354085464e-06,0.0016530594655354426,0.0003507173270230134,0.09821910442532802,-0.010967209467545709,-0.00376361631856793, ,0.0016898680115906184, ,0.09882951056045214, ,0.00031135890080685437, ,0.1438127315838088,-0.21831393562145265,0.09071048533,-4.530980298813603,0.19566346766411072,-1.189192636305203, ,0.0005328101985744903,-0.0201095447252534,2.3742401570378713e-05,-0.0003070944378077991,0.0,-0.07934734606705507, ,0.01901388168334961
0.010026289327626453,0.01851293798993639,-0.0813760860996333, ,0.010289849716718836,0.018988990474844765,-0.08157937066360553, ,0.0005808740492011549, ,-6.756961354085464e-06,0.0016530594655354426,0.0003507173270230134,0.09821910442532802,-0.010967209467545709,-0.00376361631856793, ,0.0016898680115906184, ,0.09882951056045214, ,0.0003338184965063794, ,0.1438127315838088,-0.21831393562145265,0.09071048533,-4.530980298813603,0.19566346766411072,-1.189192636305203, ,0.0005328101985744903,-0.0201095447252534,2.3742401570378713e-05,-0.0003070944378077991,0.0,-0.07934734606705507, ,0.02070903778076172
0.010026289327626453,0.01851293798993639,-0.0813760860996333, ,0.010302197947181893,0.01903640056983965,-0.08158942195487212, ,0.000629007810789694, ,-6.756961354085464e-06,0.0016530594655354426,0.0003507173270230134,0.09821910442532802,-0.010967209467545709,-0.00376361631856793, ,0.0016898680115906184, ,0.09882951056045214, ,0.00035652536683586513, ,0.1438127315838088,-0.21831393562145265,0.09071048533,-4.530980298813603,0.19566346766411072,-1.189192636305203, ,0.0005328101985744903,-0.0201095447252534,2.3742401570378713e-05,-0.0003070944378077991,0.0,-0.07934734606705507, ,0.022621870040893555
0.010026289327626453,0.01851293798993639,-0.0813760860996333, ,0.010314513340830752,0.0190837879927985,-0.08159953416163533, ,0.0006774008000938048, ,0.001723273646537071,0.00332022210049318,-0.0017040952996948953,0.03041872120475736,-0.12206162017511976,-0.02543620616410872, ,0.004110655379364068, ,0.1257948238978599, ,0.00037944504064000363, ,0.14385906798105416,-0.21866145860079278,0.09072863339000001,-4.531189988757087,0.19484364866551807,-1.1893409162844302, ,0.004912888018779577,-0.03587786070263546,0.002398556169251619,0.0009522572684632864,-0.12048643664441984,-0.012738284208085648, ,0.025116920471191406
0.010038989932338366,0.018544031456552597,-0.0813875195644366, ,0.010326796058814388,0.01913115268552046,-0.08160970714248711, ,0.000690587448323393, ,0.001723273646537071,0.00332022210049318,-0.0017040952996948953,0.03041872120475736,-0.12206162017511976,-0.02543620616410872, ,0.004110655379364068, ,0.1257948238978599, ,0.00040018786781889626, ,0.14385906798105416,-0.21866145860079278,0.09072863339000001,-4.531189988757087,0.19484364866551807,-1.1893409162844302, ,0.004912888018779577,-0.03587786070263546,0.002398556169251619,0.0009522572684632864,-0.12048643664441984,-0.012738284208085648, ,0.027205944061279297
0.010038989932338366,0.018544031456552597,-0.0813875195644366, ,0.010339046262027092,0.0191784945899228,-0.08161994075621154, ,0.0007393219048413807, ,0.001723273646537071,0.00332022210049318,-0.0017040952996948953,0.03041872120475736,-0.12206162017511976,-0.02543620616410872, ,0.004110655379364068, ,0.1257948238978599, ,0.00042138374513280154, ,0.14385906798105416,-0.21866145860079278,0.09072863339000001,-4.531189988757087,0.19484364866551807,-1.1893409162844302, ,0.004912888018779577,-0.03587786070263546,0.002398556169251619,0.0009522572684632864,-0.12048643664441984,-0.012738284208085648, ,0.030217885971069336
0.010038989932338366,0.018544031456552597,-0.0813875195644366, ,0.01035126411110852,0.019225813648040654,-0.08163023486178539, ,0.0007881959368862179, ,0.001723273646537071,0.00332022210049318,-0.0017040952996948953,0.03041872120475736,-0.12206162017511976,-0.02543620616410872, ,0.004110655379364068, ,0.1257948238978599, ,0.0004429609328830025, ,0.14385906798105416,-0.21866145860079278,0.09072863339000001,-4.531189988757087,0.19484364866551807,-1.1893409162844302, ,0.004912888018779577,-0.03587786070263546,0.002398556169251619,0.0009522572684632864,-0.12048643664441984,-0.012738284208085648, ,0.03215193748474121
0.010038989932338366,0.018544031456552597,-0.0813875195644366, ,0.01036344976644383,0.01927310980202715,-0.08164058931837744, ,0.0008371820101670434, ,0.001723273646537071,0.00332022210049318,-0.0017040952996948953,0.03041872120475736,-0.12206162017511976,-0.02543620616410872, ,0.004110655379364068, ,0.1257948238978599, ,0.00046486210384322706, ,0.14385906798105416,-0.21866145860079278,0.09072863339000001,-4.531189988757087,0.19484364866551807,-1.1893409162844302, ,0.004912888018779577,-0.03587786070263546,0.002398556169251619,0.0009522572684632864,-0.12048643664441984,-0.012738284208085648, ,0.033937931060791016
0.010066896707766509,0.018590822621564185,-0.08143854444710455, ,0.01037560338816398,0.019320382994153056,-0.08165100398534915, ,0.0008201812038599435, ,0.003306635715052416,0.005718550003176695,-0.007209186704391303,-0.018248293759323794,-0.14085822698727463,-0.023157893502301137, ,0.009777935714130295, ,0.142035348824341, ,0.0004835631091072648, ,0.1439594635084191,-0.21908620890887512,0.09078955902000001,-4.530980298813603,0.19347728366786368,-1.1890435246488713, ,0.012222686960132763,-0.04942549039503686,0.00841903357293869,0.0009082272732524945,-0.14061464308469676,0.04707471795568985, ,0.0357508659362793
0.010066896707766509,0.018590822621564185,-0.08143854444710455, ,0.010387725136145677,0.019367633166806914,-0.08166147872225313, ,0.0008695200944731377, ,0.003306635715052416,0.005718550003176695,-0.007209186704391303,-0.018248293759323794,-0.14085822698727463,-0.023157893502301137, ,0.009777935714130295, ,0.142035348824341, ,0.0005028609583755584, ,0.1439594635084191,-0.21908620890887512,0.09078955902000001,-4.530980298813603,0.19347728366786368,-1.1890435246488713, ,0.012222686960132763,-0.04942549039503686,0.00841903357293869,0.0009082272732524945,-0.14061464308469676,0.04707471795568985, ,0.03749799728393555
0.010066896707766509,0.018590822621564185,-0.08143854444710455, ,0.010399815170011702,0.019414860262494997,-0.08167201338883512, ,0.0009189017808924483, ,0.003306635715052416,0.005718550003176695,-0.007209186704391303,-0.018248293759323794,-0.14085822698727463,-0.023157893502301137, ,0.009777935714130295, ,0.142035348824341, ,0.0005226724261144579, ,0.1439594635084191,-0.21908620890887512,0.09078955902000001,-4.530980298813603,0.19347728366786368,-1.1890435246488713, ,0.012222686960132763,-0.04942549039503686,0.00841903357293869,0.0009082272732524945,-0.14061464308469676,0.04707471795568985, ,0.039288997650146484
0.010066896707766509,0.018590822621564185,-0.08143854444710455, ,0.010411873649130954,0.019462064223841034,-0.08168260784503187, ,0.000968317077107972, ,0.003306635715052416,0.005718550003176695,-0.007209186704391303,-0.018248293759323794,-0.14085822698727463,-0.023157893502301137, ,0.009777935714130295, ,0.142035348824341, ,0.0005429290011596177, ,0.1439594635084191,-0.21908620890887512,0.09078955902000001,-4.530980298813603,0.19347728366786368,-1.1890435246488713, ,0.012222686960132763,-0.04942549039503686,0.00841903357293869,0.0009082272732524945,-0.14061464308469676,0.04707471795568985, ,0.04106903076171875
0.010066896707766509,0.018590822621564185,-0.08143854444710455, ,0.010423900732618703,0.019509244993586375,-0.08169326195097222, ,0.001017758583342881, ,0.003306635715052416,0.005718550003176695,-0.007209186704391303,-0.018248293759323794,-0.14085822698727463,-0.023157893502301137, ,0.009777935714130295, ,0.142035348824341, ,0.0005635737656023683, ,0.1439594635084191,-0.21908620890887512,0.09078955902000001,-4.530980298813603,0.19347728366786368,-1.1890435246488713, ,0.012222686960132763,-0.04942549039503686,0.00841903357293869,0.0009082272732524945,-0.14061464308469676,0.04707471795568985, ,0.042874813079833984
0.010066896707766509,0.018590822621564185,-0.08143854444710455, ,0.010435896579336605,0.01955640251458971,-0.08170397556697653, ,0.0010672202745593007, ,0.003306635715052416,0.005718550003176695,-0.007209186704391303,-0.018248293759323794,-0.14085822698727463,-0.023157893502301137, ,0.009777935714130295, ,0.142035348824341, ,0.0005845590368089072, ,0.1440907499672809,-0.21964224567581928,0.09089585480000001,-4.5303512289831485,0.19197428217044385,-1.1888797513300382, ,0.01457262616069883,-0.06768683420718315,0.012187307972456008,0.047979584645535686,-0.1667167649149546,0.04253864728170775, ,0.04468393325805664
0.010104670778216687,0.018658852809772586,-0.08153054277306712, ,0.010447861347892978,0.019603536729827155,-0.08171474855355704, ,0.0010218313194898182, ,0.0042255944184352206,0.008094883855811594,-0.01048167228752929,0.0069552254732884455,-0.15853198174491676,-0.07273847117870294, ,0.013901375715063224, ,0.15868448024566464, ,0.0006020499281161436, ,0.1440907499672809,-0.21964224567581928,0.09089585480000001,-4.5303512289831485,0.19197428217044385,-1.1888797513300382, ,0.01457262616069883,-0.06768683420718315,0.012187307972456008,0.047979584645535686,-0.1667167649149546,0.04253864728170775, ,0.046814918518066406
0.010104670778216687,0.018658852809772586,-0.08153054277306712, ,0.010459795196642896,0.019650647582392062,-0.08172558077141659, ,0.0010713589708207228, ,0.0042255944184352206,0.008094883855811594,-0.01048167228752929,0.0069552254732884455,-0.15853198174491676,-0.07273847117870294, ,0.013901375715063224, ,0.15868448024566464, ,0.0006201002759124736, ,0.1440907499672809,-0.21964224567581928,0.09089585480000001,-4.5303512289831485,0.19197428217044385,-1.1888797513300382, ,0.01457262616069883,-0.06768683420718315,0.012187307972456008,0.047979584645535686,-0.1667167649149546,0.04253864728170775, ,0.048635005950927734
0.010104670778216687,0.018658852809772586,-0.08153054277306712, ,0.010471698283688354,0.019697735015495026,-0.0817364720814502, ,0.0011208890699755305, ,0.0042255944184352206,0.008094883855811594,-0.01048167228752929,0.0069552254732884455,-0.15853198174491676,-0.07273847117870294, ,0.013901375715063224, ,0.15868448024566464, ,0.0006386480090259201, ,0.1440907499672809,-0.21964224567581928,0.09089585480000001,-4.5303512289831485,0.19197428217044385,-1.1888797513300382, ,0.01457262616069883,-0.06768683420718315,0.012187307972456008,0.047979584645535686,-0.1667167649149546,0.04253864728170775, ,0.05052304267883301
0.010104670778216687,0.018658852809772586,-0.08153054277306712, ,0.010483570766878423,0.01974479897246374,-0.08174742234474353, ,0.0011704191634974387, ,0.0042255944184352206,0.008094883855811594,-0.01048167228752929,0.0069552254732884455,-0.15853198174491676,-0.07273847117870294, ,0.013901375715063224, ,0.15868448024566464, ,0.0006576398359713316, ,0.1440907499672809,-0.21964224567581928,0.09089585480000001,-4.5303512289831485,0.19197428217044385,-1.1888797513300382, ,0.01457262616069883,-0.06768683420718315,0.012187307972456008,0.047979584645535686,-0.1667167649149546,0.04253864728170775, ,0.05230093002319336
0.010104670778216687,0.018658852809772586,-0.08153054277306712, ,0.010495412803809357,0.01979183939674311,-0.08175843142257357, ,0.0012199472010678367, ,0.0042255944184352206,0.008094883855811594,-0.01048167228752929,0.0069552254732884455,-0.15853198174491676,-0.07273847117870294, ,0.013901375715063224, ,0.15868448024566464, ,0.0006770297451125903, ,0.1440907499672809,-0.21964224567581928,0.09089585480000001,-4.5303512289831485,0.19197428217044385,-1.1888797513300382, ,0.01457262616069883,-0.06768683420718315,0.012187307972456008,0.047979584645535686,-0.1667167649149546,0.04253864728170775, ,0.05400896072387695
0.010148149030767356,0.018756923229340156,-0.08164837066055258, ,0.010507224551824845,0.019838856231894814,-0.0817694991764082, ,0.0011463796793353546, ,0.0043328965605936645,0.010664072672162184,-0.012341971483694113,-0.08861822146364175,-0.11070733464207341,-0.02895680913844729, ,0.016876631733443715, ,0.14180727355310185, ,0.0006926747429200159, ,0.1442452046247654,-0.22047630082623554,0.09103455783000002,-4.529722159152695,0.19047128067302396,-1.1879808693499396, ,0.016909647462307692,-0.09204359026039842,0.014640451764705886,0.02655871861895775,-0.1268341343369002,0.1665986117515959, ,0.05643296241760254
0.010148149030767356,0.018756923229340156,-0.08164837066055258, ,0.010519006168016092,0.0198858494215977,-0.08178062546790617, ,0.0011956172873798597, ,0.0043328965605936645,0.010664072672162184,-0.012341971483694113,-0.08861822146364175,-0.11070733464207341,-0.02895680913844729, ,0.016876631733443715, ,0.14180727355310185, ,0.0007088986959671075, ,0.1442452046247654,-0.22047630082623554,0.09103455783000002,-4.529722159152695,0.19047128067302396,-1.1879808693499396, ,0.016909647462307692,-0.09204359026039842,0.014640451764705886,0.02655871861895775,-0.1268341343369002,0.1665986117515959, ,0.058281898498535156
0.010148149030767356,0.018756923229340156,-0.08164837066055258, ,0.010530757809221919,0.01993281890964727,-0.08179181015891682, ,0.0012448674700571152, ,0.0043328965605936645,0.010664072672162184,-0.012341971483694113,-0.08861822146364175,-0.11070733464207341,-0.02895680913844729, ,0.016876631733443715, ,0.14180727355310185, ,0.0007256477201574203, ,0.1442452046247654,-0.22047630082623554,0.09103455783000002,-4.529722159152695,0.19047128067302396,-1.1879808693499396, ,0.016909647462307692,-0.09204359026039842,0.014640451764705886,0.02655871861895775,-0.1268341343369002,0.1665986117515959, ,0.06030392646789551
0.010148149030767356,0.018756923229340156,-0.08164837066055258, ,0.010542479632029072,0.019979764639955946,-0.08180305311148027, ,0.0012941268868365413, ,0.0043328965605936645,0.010664072672162184,-0.012341971483694113,-0.08861822146364175,-0.11070733464207341,-0.02895680913844729, ,0.016876631733443715, ,0.14180727355310185, ,0.0007428743615719391, ,0.1442452046247654,-0.22047630082623554,0.09103455783000002,-4.529722159152695,0.19047128067302396,-1.1879808693499396, ,0.016909647462307692,-0.09204359026039842,0.014640451764705886,0.02655871861895775,-0.1268341343369002,0.1665986117515959, ,0.0622248649597168
0.010148149030767356,0.018756923229340156,-0.08164837066055258, ,0.010554171792772238,0.02002668655655274,-0.08181435418782708, ,0.0013433926908117844, ,0.0043328965605936645,0.010664072672162184,-0.012341971483694113,-0.08861822146364175,-0.11070733464207341,-0.02895680913844729, ,0.016876631733443715, ,0.14180727355310185, ,0.000760536665373111, ,0.1442452046247654,-0.22047630082623554,0.09103455783000002,-4.529722159152695,0.19047128067302396,-1.1879808693499396, ,0.016909647462307692,-0.09204359026039842,0.014640451764705886,0.02655871861895775,-0.1268341343369002,0.1665986117515959, ,0.06392383575439453
0.01019480068670952,0.018882212944376968,-0.08178268989854119, ,0.010565834447534204,0.02007358460358341,-0.08182571325037837, ,0.0012485525582991398, ,0.004281807384337422,0.013267925751675187,-0.012136667074171164,0.09890743017925441,-0.0766352428538662,-0.014653569014498867, ,0.0184843289274402, ,0.12512249968973224, ,0.000774479976599569, ,0.1444691638781179,-0.22158065162724963,0.09119659408000001,-4.529722159152695,0.18951482517466592,-1.1865475141029402, ,0.023559320148577652,-0.12119660480009038,0.015127076467236471,0.01914550485960743,-0.061747501127430736,0.0147166260988989, ,0.06567883491516113
0.01019480068670952,0.018882212944376968,-0.08178268989854119, ,0.01057746775214611,0.020120458725310222,-0.08183713016174536, ,0.0012971701658713076, ,0.004281807384337422,0.013267925751675187,-0.012136667074171164,0.09890743017925441,-0.0766352428538662,-0.014653569014498867, ,0.0184843289274402, ,0.12512249968973224, ,0.000788999148523784, ,0.1444691638781179,-0.22158065162724963,0.09119659408000001,-4.529722159152695,0.18951482517466592,-1.1865475141029402, ,0.023559320148577652,-0.12119660480009038,0.015127076467236471,0.01914550485960743,-0.061747501127430736,0.0147166260988989, ,0.06735396385192871
0.01019480068670952,0.018882212944376968,-0.08178268989854119, ,0.010589071862187504,0.020167308866111927,-0.0818486047847297, ,0.0013458328499831845, ,0.004281807384337422,0.013267925751675187,-0.012136667074171164,0.09890743017925441,-0.0766352428538662,-0.014653569014498867, ,0.0184843289274402, ,0.12512249968973224, ,0.0008040487080226866, ,0.1444691638781179,-0.22158065162724963,0.09119659408000001,-4.529722159152695,0.18951482517466592,-1.1865475141029402, ,0.023559320148577652,-0.12119660480009038,0.015127076467236471,0.01914550485960743,-0.061747501127430736,0.0147166260988989, ,0.06900501251220703
0.01019480068670952,0.018882212944376968,-0.08178268989854119, ,0.010600646932986546,0.020214134970483705,-0.08186013698232272, ,0.0013945341552044157, ,0.004281807384337422,0.013267925751675187,-0.012136667074171164,0.09890743017925441,-0.0766352428538662,-0.014653569014498867, ,0.0184843289274402, ,0.12512249968973224, ,0.0008195877987379952, ,0.1444691638781179,-0.22158065162724963,0.09119659408000001,-4.529722159152695,0.18951482517466592,-1.1865475141029402, ,0.023559320148577652,-0.12119660480009038,0.015127076467236471,0.01914550485960743,-0.061747501127430736,0.0147166260988989, ,0.07068204879760742
0.01019480068670952,0.018882212944376968,-0.08178268989854119, ,0.0106121931196201,0.02026093698303713,-0.08187172661770593, ,0.0014432684972623857, ,0.004281807384337422,0.013267925751675187,-0.012136667074171164,0.09890743017925441,-0.0766352428538662,-0.014653569014498867, ,0.0184843289274402, ,0.12512249968973224, ,0.000835579611520672, ,0.1444691638781179,-0.22158065162724963,0.09119659408000001,-4.529722159152695,0.18951482517466592,-1.1865475141029402, ,0.023559320148577652,-0.12119660480009038,0.015127076467236471,0.01914550485960743,-0.061747501127430736,0.0147166260988989, ,0.07359600067138672
0.010222008296421644,0.01896904486825652,-0.08185478539908315, ,0.010623710576913959,0.020307714848500007,-0.08188337355425088, ,0.001397933947214145, ,0.004786964999165295,0.0152298633944441,-0.012680449076908528,0.14606618189243728,-0.05870255630786804,-0.01860813996436838, ,0.020387681616817845, ,0.15742083496749887, ,0.0008496384699130088, ,0.14463906400135085,-0.22238381584616898,0.09128863067000001,-4.529302779265726,0.18924155217513502,-1.1863246782955474, ,0.031474939157038404,-0.14121568684296246,0.016204284354018314,0.03113968529497309,-0.034555614895455,-0.007180461476826938, ,0.07572293281555176
0.010222008296421644,0.01896904486825652,-0.08185478539908315, ,0.010635199459442982,0.020354468511716278,-0.08189507765551846, ,0.0014462880332025444, ,0.004786964999165295,0.0152298633944441,-0.012680449076908528,0.14606618189243728,-0.05870255630786804,-0.01860813996436838, ,0.020387681616817845, ,0.15742083496749887, ,0.0008641908982859243, ,0.14463906400135085,-0.22238381584616898,0.09128863067000001,-4.529302779265726,0.18924155217513502,-1.1863246782955474, ,0.031474939157038404,-0.14121568684296246,0.016204284354018314,0.03113968529497309,-0.034555614895455,-0.007180461476826938, ,0.07756686210632324
0.010222008296421644,0.01896904486825652,-0.08185478539908315, ,0.01064665992153119,0.020401197917646094,-0.08190683878525945, ,0.0014946909093844294, ,0.004786964999165295,0.0152298633944441,-0.012680449076908528,0.14606618189243728,-0.05870255630786804,-0.01860813996436838, ,0.020387681616817845, ,0.15742083496749887, ,0.0008792028033120791, ,0.14463906400135085,-0.22238381584616898,0.09128863067000001,-4.529302779265726,0.18924155217513502,-1.1863246782955474, ,0.031474939157038404,-0.14121568684296246,0.016204284354018314,0.03113968529497309,-0.034555614895455,-0.007180461476826938, ,0.07929491996765137
0.010222008296421644,0.01896904486825652,-0.08185478539908315, ,0.01065809211725198,0.020447903011365745,-0.08191865680741406, ,0.0015431364369467217, ,0.004786964999165295,0.0152298633944441,-0.012680449076908528,0.14606618189243728,-0.05870255630786804,-0.01860813996436838, ,0.020387681616817845, ,0.15742083496749887, ,0.0008946431203733499, ,0.14463906400135085,-0.22238381584616898,0.09128863067000001,-4.529302779265726,0.18924155217513502,-1.1863246782955474, ,0.031474939157038404,-0.14121568684296246,0.016204284354018314,0.03113968529497309,-0.034555614895455,-0.007180461476826938, ,0.0810399055480957
0.010222008296421644,0.01896904486825652,-0.08185478539908315, ,0.01066949620042826,0.020494583738067285,-0.081930531586112, ,0.001591619223427874, ,0.004786964999165295,0.0152298633944441,-0.012680449076908528,0.14606618189243728,-0.05870255630786804,-0.01860813996436838, ,0.020387681616817845, ,0.15742083496749887, ,0.0009104834863518618, ,0.14463906400135085,-0.22238381584616898,0.09128863067000001,-4.529302779265726,0.18924155217513502,-1.1863246782955474, ,0.031474939157038404,-0.14121568684296246,0.016204284354018314,0.03113968529497309,-0.034555614895455,-0.007180461476826938, ,0.08285284042358398
0.010222008296421644,0.01896904486825652,-0.08185478539908315, ,0.010680872324632542,0.020541240043058923,-0.08194246298567197, ,0.0016401345137664568, ,0.004786964999165295,0.0152298633944441,-0.012680449076908528,0.14606618189243728,-0.05870255630786804,-0.01860813996436838, ,0.020387681616817845, ,0.15742083496749887, ,0.0009266979536277416, ,0.14511787343955276,-0.22460796291394564,0.09148437046,-4.5272058798308805,0.18773855067771517,-1.186569298677417, ,0.03771738535710285,-0.177046532758341,0.013839106446568205,0.12431090803321294,-0.14990368924608286,0.0713818052949654, ,0.08491992950439453
0.0102967088734479,0.01919762680566453,-0.08199698531212556, ,0.010692220643187271,0.02058787187176443,-0.08195445087060221, ,0.0014460359893630524, ,0.005931247845042445,0.017729111444345743,-0.009656273823079618,0.0996473671989871,-0.14404875592595634,-0.1250457690263195, ,0.021041499893107538, ,0.17515604982286584, ,0.0009379879109263355, ,0.14511787343955276,-0.22460796291394564,0.09148437046,-4.5272058798308805,0.18773855067771517,-1.186569298677417, ,0.03771738535710285,-0.177046532758341,0.013839106446568205,0.12431090803321294,-0.14990368924608286,0.0713818052949654, ,0.08703303337097168
0.0102967088734479,0.01919762680566453,-0.08199698531212556, ,0.010703541309164734,0.020634479169723767,-0.08196649510559985, ,0.0014936488876398926, ,0.005931247845042445,0.017729111444345743,-0.009656273823079618,0.0996473671989871,-0.14404875592595634,-0.1250457690263195, ,0.021041499893107538, ,0.17515604982286584, ,0.0009498104848989643, ,0.14511787343955276,-0.22460796291394564,0.09148437046,-4.5272058798308805,0.18773855067771517,-1.186569298677417, ,0.03771738535710285,-0.177046532758341,0.013839106446568205,0.12431090803321294,-0.14990368924608286,0.0713818052949654, ,0.0889430046081543
0.0102967088734479,0.01919762680566453,-0.08199698531212556, ,0.010714834475387361,0.02068106188259205,-0.08197859555555097, ,0.0015413457852159781, ,0.005931247845042445,0.017729111444345743,-0.009656273823079618,0.0996473671989871,-0.14404875592595634,-0.1250457690263195, ,0.021041499893107538, ,0.17515604982286584, ,0.000962134136988902, ,0.14511787343955276,-0.22460796291394564,0.09148437046,-4.5272058798308805,0.18773855067771517,-1.186569298677417, ,0.03771738535710285,-0.177046532758341,0.013839106446568205,0.12431090803321294,-0.14990368924608286,0.0713818052949654, ,0.09085202217102051
0.0102967088734479,0.01919762680566453,-0.08199698531212556, ,0.010726100294427894,0.020727619956140454,-0.08199075208553035, ,0.001589117643860343, ,0.005931247845042445,0.017729111444345743,-0.009656273823079618,0.0996473671989871,-0.14404875592595634,-0.1250457690263195, ,0.021041499893107538, ,0.17515604982286584, ,0.0009749297187617885, ,0.14511787343955276,-0.22460796291394564,0.09148437046,-4.5272058798308805,0.18773855067771517,-1.186569298677417, ,0.03771738535710285,-0.177046532758341,0.013839106446568205,0.12431090803321294,-0.14990368924608286,0.0713818052949654, ,0.09269404411315918
0.0102967088734479,0.01919762680566453,-0.08199698531212556, ,0.010737338918609486,0.020774153336255558,-0.08200296456080197, ,0.001636956471556656, ,0.005931247845042445,0.017729111444345743,-0.009656273823079618,0.0996473671989871,-0.14404875592595634,-0.1250457690263195, ,0.021041499893107538, ,0.17515604982286584, ,0.0009881702538176859, ,0.14511787343955276,-0.22460796291394564,0.09148437046,-4.5272058798308805,0.18773855067771517,-1.186569298677417, ,0.03771738535710285,-0.177046532758341,0.013839106446568205,0.12431090803321294,-0.14990368924608286,0.0713818052949654, ,0.09466695785522461
0.010356719143341743,0.01939140517731231,-0.08208168790342683, ,0.010748550500005762,0.020820661968939298,-0.08201523284681769, ,0.001483483421891177, ,0.006019843841981488,0.021016974563658634,-0.008024467080404829,-0.13964725346651252,-0.11206621930332694,-0.011335938932054975, ,0.023288276269741764, ,0.17905360336058473, ,0.0009978822767210877, ,0.14552717828188666,-0.226615873461244,0.09161529575,-4.526996189887396,0.18623554918029533,-1.1836284481938044, ,0.044035703739429596,-0.21966884620016383,0.013088587937551356,0.04025006023083673,-0.12942440810780953,0.3474866937055363, ,0.09671688079833984
0.010356719143341743,0.01939140517731231,-0.08208168790342683, ,0.010759735190441214,0.020867145800309236,-0.08202755680921862, ,0.0015307391991920807, ,0.006019843841981488,0.021016974563658634,-0.008024467080404829,-0.13964725346651252,-0.11206621930332694,-0.011335938932054975, ,0.023288276269741764, ,0.17905360336058473, ,0.0010081295252301454, ,0.14552717828188666,-0.226615873461244,0.09161529575,-4.526996189887396,0.18623554918029533,-1.1836284481938044, ,0.044035703739429596,-0.21966884620016383,0.013088587937551356,0.04025006023083673,-0.12942440810780953,0.3474866937055363, ,0.09898495674133301
0.010356719143341743,0.01939140517731231,-0.08208168790342683, ,0.010770893141491114,0.02091360477659809,-0.08203993631383388, ,0.0015780921760284979, ,0.006019843841981488,0.021016974563658634,-0.008024467080404829,-0.13964725346651252,-0.11206621930332694,-0.011335938932054975, ,0.023288276269741764, ,0.17905360336058473, ,0.0010188835375093594, ,0.14552717828188666,-0.226615873461244,0.09161529575,-4.526996189887396,0.18623554918029533,-1.1836284481938044, ,0.044035703739429596,-0.21966884620016383,0.013088587937551356,0.04025006023083673,-0.12942440810780953,0.3474866937055363, ,0.10071802139282227
0.010356719143341743,0.01939140517731231,-0.08208168790342683, ,0.010782024504481805,0.02096003884415393,-0.0820523712266807, ,0.0016255324353881412, ,0.006019843841981488,0.021016974563658634,-0.008024467080404829,-0.13964725346651252,-0.11206621930332694,-0.011335938932054975, ,0.023288276269741764, ,0.17905360336058473, ,0.0010301177763589666, ,0.14552717828188666,-0.226615873461244,0.09161529575,-4.526996189887396,0.18623554918029533,-1.1836284481938044, ,0.044035703739429596,-0.21966884620016383,0.013088587937551356,0.04025006023083673,-0.12942440810780953,0.3474866937055363, ,0.10247683525085449
0.010356719143341743,0.01939140517731231,-0.08208168790342683, ,0.01079312943049079,0.021006447949439996,-0.08206486141396499, ,0.0016730511723432138, ,0.006019843841981488,0.021016974563658634,-0.008024467080404829,-0.13964725346651252,-0.11206621930332694,-0.011335938932054975, ,0.023288276269741764, ,0.17905360336058473, ,0.0010418074744677711, ,0.14552717828188666,-0.226615873461244,0.09161529575,-4.526996189887396,0.18623554918029533,-1.1836284481938044, ,0.044035703739429596,-0.21966884620016383,0.013088587937551356,0.04025006023083673,-0.12942440810780953,0.3474866937055363, ,0.10428881645202637
0.010409765604784122,0.019610371317846428,-0.08214596429393277, ,0.010804208070346908,0.021052832039034634,-0.08207740674208013, ,0.0014969896221170263, ,0.0049021110861194594,0.022070493300953446,-0.005249175838870902,-0.25998742317987816,0.023842902676013154,0.050961987189777874, ,0.023209722416165868, ,0.2610784254122612, ,0.0010499357271043649, ,0.14599054225434013,-0.22894813878925982,0.09173325814000001,-4.526996189887396,0.18568900318123358,-1.1787721246114287, ,0.04927151690470964,-0.23665072707848075,0.0107554432950709,0.02362879180676738,0.0,0.5035967681120065, ,0.10607194900512695
0.010409765604784122,0.019610371317846428,-0.08214596429393277, ,0.01081526057463046,0.021099191059631206,-0.08209000707760822, ,0.0015440665802217107, ,0.0049021110861194594,0.022070493300953446,-0.005249175838870902,-0.25998742317987816,0.023842902676013154,0.050961987189777874, ,0.023209722416165868, ,0.2610784254122612, ,0.001058604689439757, ,0.14599054225434013,-0.22894813878925982,0.09173325814000001,-4.526996189887396,0.18568900318123358,-1.1787721246114287, ,0.04927151690470964,-0.23665072707848075,0.0107554432950709,0.02362879180676738,0.0,0.5035967681120065, ,0.10808086395263672
0.010409765604784122,0.019610371317846428,-0.08214596429393277, ,0.010826287093673444,0.021145524958038134,-0.08210266228731812, ,0.0015912453970011286, ,0.0049021110861194594,0.022070493300953446,-0.005249175838870902,-0.25998742317987816,0.023842902676013154,0.050961987189777874, ,0.023209722416165868, ,0.2610784254122612, ,0.001067788149914953, ,0.14599054225434013,-0.22894813878925982,0.09173325814000001,-4.526996189887396,0.18568900318123358,-1.1787721246114287, ,0.04927151690470964,-0.23665072707848075,0.0107554432950709,0.02362879180676738,0.0,0.5035967681120065, ,0.11007499694824219
0.010409765604784122,0.019610371317846428,-0.08214596429393277, ,0.0108372877775596,0.021191833681178607,-0.08211537223816728, ,0.0016385158799129245, ,0.0049021110861194594,0.022070493300953446,-0.005249175838870902,-0.25998742317987816,0.023842902676013154,0.050961987189777874, ,0.023209722416165868, ,0.2610784254122612, ,0.0010774615012708508, ,0.14599054225434013,-0.22894813878925982,0.09173325814000001,-4.526996189887396,0.18568900318123358,-1.1787721246114287, ,0.04927151690470964,-0.23665072707848075,0.0107554432950709,0.02362879180676738,0.0,0.5035967681120065, ,0.11191892623901367
0.010409765604784122,0.019610371317846428,-0.08214596429393277, ,0.01084826277612459,0.021238117176090764,-0.08212813679730069, ,0.0016858689652346505, ,0.0049021110861194594,0.022070493300953446,-0.005249175838870902,-0.25998742317987816,0.023842902676013154,0.050961987189777874, ,0.023209722416165868, ,0.2610784254122612, ,0.0010876016256702475, ,0.14599054225434013,-0.22894813878925982,0.09173325814000001,-4.526996189887396,0.18568900318123358,-1.1787721246114287, ,0.04927151690470964,-0.23665072707848075,0.0107554432950709,0.02362879180676738,0.0,0.5035967681120065, ,0.11367297172546387
0.010409765604784122,0.019610371317846428,-0.08214596429393277, ,0.010859212238956233,0.021284375389927467,-0.08214095583205032, ,0.0017332965686814728, ,0.004846530093328433,0.025222209296946112,-0.004534945037233471,0.1351169539029738,0.0338374425212844,0.049982451651331625, ,0.02608092065582083, ,0.13928949618144765, ,0.0010981867886704314, ,0.14656974721990698,-0.2316202043637415,0.09184733166,-4.526367120056943,0.18623554918029533,-1.1758689678804513, ,0.057166832264139024,-0.2726923608002034,0.010955166107290235,0.01968643737272435,0.06938651453735444,0.14968332927056993, ,0.11548495292663574
0.010461107685180574,0.019859378120067703,-0.08219697361568527, ,0.010870136315394529,0.021330608269956204,-0.08215382920993602, ,0.0015276400145397809, ,0.004846530093328433,0.025222209296946112,-0.004534945037233471,0.1351169539029738,0.0338374425212844,0.049982451651331625, ,0.02608092065582083, ,0.13928949618144765, ,0.001105113453603808, ,0.14656974721990698,-0.2316202043637415,0.09184733166,-4.526367120056943,0.18623554918029533,-1.1758689678804513, ,0.057166832264139024,-0.2726923608002034,0.010955166107290235,0.01968643737272435,0.06938651453735444,0.14968332927056993, ,0.11748099327087402
0.010461107685180574,0.019859378120067703,-0.08219697361568527, ,0.010881035154531907,0.021376815763559095,-0.08216675679866456, ,0.0015747600253471596, ,0.004846530093328433,0.025222209296946112,-0.004534945037233471,0.1351169539029738,0.0338374425212844,0.049982451651331625, ,0.02608092065582083, ,0.13928949618144765, ,0.0011125681610917979, ,0.14656974721990698,-0.2316202043637415,0.09184733166,-4.526367120056943,0.18623554918029533,-1.1758689678804513, ,0.057166832264139024,-0.2726923608002034,0.010955166107290235,0.01968643737272435,0.06938651453735444,0.14968332927056993, ,0.1192779541015625
0.010461107685180574,0.019859378120067703,-0.08219697361568527, ,0.010891908905213346,0.02142299781823282,-0.08217973846613022, ,0.0016219720410820542, ,0.004846530093328433,0.025222209296946112,-0.004534945037233471,0.1351169539029738,0.0338374425212844,0.049982451651331625, ,0.02608092065582083, ,0.13928949618144765, ,0.0011205275967166456, ,0.14656974721990698,-0.2316202043637415,0.09184733166,-4.526367120056943,0.18623554918029533,-1.1758689678804513, ,0.057166832264139024,-0.2726923608002034,0.010955166107290235,0.01968643737272435,0.06938651453735444,0.14968332927056993, ,0.1210489273071289
0.010461107685180574,0.019859378120067703,-0.08219697361568527, ,0.010902757716036535,0.02146915438158856,-0.08219277408041402, ,0.001669266904364797, ,0.004846530093328433,0.025222209296946112,-0.004534945037233471,0.1351169539029738,0.0338374425212844,0.049982451651331625, ,0.02608092065582083, ,0.13928949618144765, ,0.0011289697399112324, ,0.14656974721990698,-0.2316202043637415,0.09184733166,-4.526367120056943,0.18623554918029533,-1.1758689678804513, ,0.057166832264139024,-0.2726923608002034,0.010955166107290235,0.01968643737272435,0.06938651453735444,0.14968332927056993, ,0.12287282943725586
0.010461107685180574,0.019859378120067703,-0.08219697361568527, ,0.010913581735351941,0.021515285401351735,-0.08220586350978427, ,0.0017166364555446932, ,0.004846530093328433,0.025222209296946112,-0.004534945037233471,0.1351169539029738,0.0338374425212844,0.049982451651331625, ,0.02608092065582083, ,0.13928949618144765, ,0.001137873781057194, ,0.14656974721990698,-0.2316202043637415,0.09184733166,-4.526367120056943,0.18623554918029533,-1.1758689678804513, ,0.057166832264139024,-0.2726923608002034,0.010955166107290235,0.01968643737272435,0.06938651453735444,0.14968332927056993, ,0.1248018741607666
0.01051092687445974,0.020100539508793334,-0.08223797345422756, ,0.010924381111263159,0.02156139082536232,-0.08221900662269557, ,0.0015183513149961043, ,0.005549037859207822,0.026915868135090885,-0.004669187304107933,0.15958340414772412,0.016160729474630896,-0.06918344974061459, ,0.027875743733743952, ,0.16039960116630217, ,0.0011435525502204611, ,0.14710261578822845,-0.23422276534235514,0.09194973857000001,-4.52531867033952,0.18637218568006078,-1.1742651322411959, ,0.06017561290962003,-0.28931994377582554,0.011567764357298475,0.13512732916797562,0.02568094888089237,0.15160129426520402, ,0.12766695022583008
0.01051092687445974,0.020100539508793334,-0.08223797345422756, ,0.010935155991626866,0.021607470601574297,-0.0822322032877898, ,0.0015655174726150925, ,0.005549037859207822,0.026915868135090885,-0.004669187304107933,0.15958340414772412,0.016160729474630896,-0.06918344974061459, ,0.027875743733743952, ,0.16039960116630217, ,0.0011497579167262645, ,0.14710261578822845,-0.23422276534235514,0.09194973857000001,-4.52531867033952,0.18637218568006078,-1.1742651322411959, ,0.06017561290962003,-0.28931994377582554,0.011567764357298475,0.13512732916797562,0.02568094888089237,0.15160129426520402, ,0.12945294380187988
0.01051092687445974,0.020100539508793334,-0.08223797345422756, ,0.010945906524053028,0.021653524678055976,-0.08224545337389519, ,0.0016127697233976868, ,0.005549037859207822,0.026915868135090885,-0.004669187304107933,0.15958340414772412,0.016160729474630896,-0.06918344974061459, ,0.027875743733743952, ,0.16039960116630217, ,0.0011564682327649808, ,0.14710261578822845,-0.23422276534235514,0.09194973857000001,-4.52531867033952,0.18637218568006078,-1.1742651322411959, ,0.06017561290962003,-0.28931994377582554,0.011567764357298475,0.13512732916797562,0.02568094888089237,0.15160129426520402, ,0.13114595413208008
0.01051092687445974,0.020100539508793334,-0.08223797345422756, ,0.010956632855905172,0.021699553002989723,-0.0822587567500265, ,0.0016600993710927808, ,0.005549037859207822,0.026915868135090885,-0.004669187304107933,0.15958340414772412,0.016160729474630896,-0.06918344974061459, ,0.027875743733743952, ,0.16039960116630217, ,0.0011636629633125209, ,0.14710261578822845,-0.23422276534235514,0.09194973857000001,-4.52531867033952,0.18637218568006078,-1.1742651322411959, ,0.06017561290962003,-0.28931994377582554,0.011567764357298475,0.13512732916797562,0.02568094888089237,0.15160129426520402, ,0.13296890258789062
0.01051092687445974,0.020100539508793334,-0.08223797345422756, ,0.010967335134300297,0.021745555524671892,-0.08227211328538465, ,0.0017074986735629062, ,0.005549037859207822,0.026915868135090885,-0.004669187304107933,0.15958340414772412,0.016160729474630896,-0.06918344974061459, ,0.027875743733743952, ,0.16039960116630217, ,0.0011713226212033713, ,0.14710261578822845,-0.23422276534235514,0.09194973857000001,-4.52531867033952,0.18637218568006078,-1.1742651322411959, ,0.06017561290962003,-0.28931994377582554,0.011567764357298475,0.13512732916797562,0.02568094888089237,0.15160129426520402, ,0.13467001914978027
0.010569898837076742,0.02039020269843565,-0.08228399902055546, ,0.010978013506109285,0.02179153219151291,-0.08228552284935708, ,0.0014595493322604506, ,0.005819596959213309,0.028654758984573064,-0.0037061687241048144,0.17786451321176094,-0.03516264228123301,0.0211542863183488, ,0.029473693488315782, ,0.18130691236562219, ,0.001175325769968053, ,0.14773587988391487,-0.2373581948892903,0.09207029354000001,-4.524479910565582,0.1865088221798262,-1.17266129660194, ,0.06267961793822377,-0.3131912262655801,0.011131244947589101,0.03734868952980995,0.0,0.1389639797988533, ,0.1363818645477295
0.010569898837076742,0.02039020269843565,-0.08228399902055546, ,0.010988668117956886,0.021837482952036965,-0.0822989853115175, ,0.0015067224137146032, ,0.005819596959213309,0.028654758984573064,-0.0037061687241048144,0.17786451321176094,-0.03516264228123301,0.0211542863183488, ,0.029473693488315782, ,0.18130691236562219, ,0.0011798654500193755, ,0.14773587988391487,-0.2373581948892903,0.09207029354000001,-4.524479910565582,0.1865088221798262,-1.17266129660194, ,0.06267961793822377,-0.3131912262655801,0.011131244947589101,0.03734868952980995,0.0,0.1389639797988533, ,0.1381359100341797
0.010569898837076742,0.02039020269843565,-0.08228399902055546, ,0.010999299116221942,0.02188340775488214,-0.08231250054162528, ,0.0015539814275050514, ,0.005819596959213309,0.028654758984573064,-0.0037061687241048144,0.17786451321176094,-0.03516264228123301,0.0211542863183488, ,0.029473693488315782, ,0.18130691236562219, ,0.0011849210713367497, ,0.14773587988391487,-0.2373581948892903,0.09207029354000001,-4.524479910565582,0.1865088221798262,-1.17266129660194, ,0.06267961793822377,-0.3131912262655801,0.011131244947589101,0.03734868952980995,0.0,0.1389639797988533, ,0.1399829387664795
0.010569898837076742,0.02039020269843565,-0.08228399902055546, ,0.011009906647037479,0.021929306548800206,-0.08232606840962611, ,0.0016013173853206696, ,0.005819596959213309,0.028654758984573064,-0.0037061687241048144,0.17786451321176094,-0.03516264228123301,0.0211542863183488, ,0.029473693488315782, ,0.18130691236562219, ,0.0011904730221898685, ,0.14773587988391487,-0.2373581948892903,0.09207029354000001,-4.524479910565582,0.1865088221798262,-1.17266129660194, ,0.06267961793822377,-0.3131912262655801,0.011131244947589101,0.03734868952980995,0.0,0.1389639797988533, ,0.14203381538391113
0.010569898837076742,0.02039020269843565,-0.08228399902055546, ,0.011020490856290959,0.021975179282656576,-0.08233968878565116, ,0.0016487223205393312, ,0.005819596959213309,0.028654758984573064,-0.0037061687241048144,0.17786451321176094,-0.03516264228123301,0.0211542863183488, ,0.029473693488315782, ,0.18130691236562219, ,0.0011965026182207826, ,0.14773587988391487,-0.2373581948892903,0.09207029354000001,-4.524479910565582,0.1865088221798262,-1.17266129660194, ,0.06267961793822377,-0.3131912262655801,0.011131244947589101,0.03734868952980995,0.0,0.1389639797988533, ,0.14414691925048828
0.01063259561787231,0.020683061508317124,-0.08232712593093772, ,0.011031051889624293,0.022021025905430355,-0.08235336154001754, ,0.001396282362427046, ,0.005819596959213309,0.028654758984573064,-0.0037061687241048144,0.17786451321176094,-0.03516264228123301,0.0211542863183488, ,0.029473693488315782, ,0.18130691236562219, ,0.0011990971603533314, ,0.1483768667124755,-0.24054768356634504,0.09218955222000001,-4.524270220622098,0.18623554918029533,-1.1712949584325796, ,0.0659923098459463,-0.3272308329602441,0.011985561715575624,0.0,-0.009218127584429015,0.08110495932124026, ,0.14611291885375977
0.01063259561787231,0.020683061508317124,-0.08232712593093772, ,0.01104158989243417,0.02206684636621412,-0.08236708654322784, ,0.001443514357429115, ,0.006236128580653219,0.030002467928558353,-0.004123695027010338,0.24213190730895703,-0.0638886354940231,0.05234961840300686, ,0.030919932764390066, ,0.25041888563199277, ,0.0012022307141619955, ,0.1483768667124755,-0.24054768356634504,0.09218955222000001,-4.524270220622098,0.18623554918029533,-1.1712949584325796, ,0.0659923098459463,-0.3272308329602441,0.011985561715575624,0.0,-0.009218127584429015,0.08110495932124026, ,0.14805388450622559
0.01063259561787231,0.020683061508317124,-0.08232712593093772, ,0.011052105009872009,0.022112640614213887,-0.08238086366597043, ,0.0014908293980730972, ,0.006236128580653219,0.030002467928558353,-0.004123695027010338,0.24213190730895703,-0.0638886354940231,0.05234961840300686, ,0.030919932764390066, ,0.25041888563199277, ,0.0012058838620596043, ,0.1483768667124755,-0.24054768356634504,0.09218955222000001,-4.524270220622098,0.18623554918029533,-1.1712949584325796, ,0.0659923098459463,-0.3272308329602441,0.011985561715575624,0.0,-0.009218127584429015,0.08110495932124026, ,0.14987587928771973
0.01063259561787231,0.020683061508317124,-0.08232712593093772, ,0.011062597386844255,0.022158408598749055,-0.08239469277911846, ,0.001538218397217393, ,0.006236128580653219,0.030002467928558353,-0.004123695027010338,0.24213190730895703,-0.0638886354940231,0.05234961840300686, ,0.030919932764390066, ,0.25041888563199277, ,0.0012100380437490767, ,0.1483768667124755,-0.24054768356634504,0.09218955222000001,-4.524270220622098,0.18623554918029533,-1.1712949584325796, ,0.0659923098459463,-0.3272308329602441,0.011985561715575624,0.0,-0.009218127584429015,0.08110495932124026, ,0.1517019271850586
0.01063259561787231,0.020683061508317124,-0.08232712593093772, ,0.01107306716801252,0.02220415026925231,-0.08240857375373091, ,0.001585673343713645, ,0.006236128580653219,0.030002467928558353,-0.004123695027010338,0.24213190730895703,-0.0638886354940231,0.05234961840300686, ,0.030919932764390066, ,0.25041888563199277, ,0.0012146755165881454, ,0.1483768667124755,-0.24054768356634504,0.09218955222000001,-4.524270220622098,0.18623554918029533,-1.1712949584325796, ,0.0659923098459463,-0.3272308329602441,0.011985561715575624,0.0,-0.009218127584429015,0.08110495932124026, ,0.15346503257751465
0.01063259561787231,0.020683061508317124,-0.08232712593093772, ,0.011083514497793651,0.02224986557526961,-0.08242250646105172, ,0.0016331871497208138, ,0.0071513926316787765,0.03105925578269479,-0.005525454242768851,0.17497150926122745,-0.05002529080384133,0.009318889160457972, ,0.03234734039973335, ,0.18198230344736904, ,0.0012197793169922025, ,0.1483768667124755,-0.24054768356634504,0.09218955222000001,-4.524270220622098,0.18623554918029533,-1.1712949584325796, ,0.0659923098459463,-0.3272308329602441,0.011985561715575624,0.0,-0.009218127584429015,0.08110495932124026, ,0.15552902221679688
0.010702877894775283,0.020998034426198058,-0.08238000507777814, ,0.011093939520359966,0.022295554466460053,-0.08243649077250953, ,0.0013563473314736577, ,0.0071513926316787765,0.03105925578269479,-0.005525454242768851,0.17497150926122745,-0.05002529080384133,0.009318889160457972, ,0.03234734039973335, ,0.18198230344736904, ,0.0012214247147570392, ,0.1491028036026526,-0.24393796329812958,0.09232566267,-4.523641150791644,0.1860989126805299,-1.1697950019464938, ,0.07390727535706447,-0.33297172476656417,0.013803129566724439,0.052046324860493993,-0.010966881922606399,0.16212856919860447, ,0.15792298316955566
0.010702877894775283,0.020998034426198058,-0.08238000507777814, ,0.011104342379639346,0.022341216892595828,-0.08245052655971849, ,0.0014036688177987804, ,0.0071513926316787765,0.03105925578269479,-0.005525454242768851,0.17497150926122745,-0.05002529080384133,0.009318889160457972, ,0.03234734039973335, ,0.18198230344736904, ,0.0012235942874122981, ,0.1491028036026526,-0.24393796329812958,0.09232566267,-4.523641150791644,0.1860989126805299,-1.1697950019464938, ,0.07390727535706447,-0.33297172476656417,0.013803129566724439,0.052046324860493993,-0.010966881922606399,0.16212856919860447, ,0.15966391563415527
0.010702877894775283,0.020998034426198058,-0.08238000507777814, ,0.011114723219315472,0.022386852803562188,-0.08246461369447741, ,0.0014510657030850505, ,0.0071513926316787765,0.03105925578269479,-0.005525454242768851,0.17497150926122745,-0.05002529080384133,0.009318889160457972, ,0.03234734039973335, ,0.18198230344736904, ,0.0012262704217143306, ,0.1491028036026526,-0.24393796329812958,0.09232566267,-4.523641150791644,0.1860989126805299,-1.1697950019464938, ,0.07390727535706447,-0.33297172476656417,0.013803129566724439,0.052046324860493993,-0.010966881922606399,0.16212856919860447, ,0.16143584251403809
0.010702877894775283,0.020998034426198058,-0.08238000507777814, ,0.011125082182827862,0.022432462149357155,-0.08247875204876931, ,0.001498529385129737, ,0.0071513926316787765,0.03105925578269479,-0.005525454242768851,0.17497150926122745,-0.05002529080384133,0.009318889160457972, ,0.03234734039973335, ,0.18198230344736904, ,0.0012294362236145095, ,0.1491028036026526,-0.24393796329812958,0.09232566267,-4.523641150791644,0.1860989126805299,-1.1697950019464938, ,0.07390727535706447,-0.33297172476656417,0.013803129566724439,0.052046324860493993,-0.010966881922606399,0.16212856919860447, ,0.16314101219177246
0.010702877894775283,0.020998034426198058,-0.08238000507777814, ,0.011135419413372111,0.022478044880091894,-0.08249294149476233, ,0.001546052309343483, ,0.0071513926316787765,0.03105925578269479,-0.005525454242768851,0.17497150926122745,-0.05002529080384133,0.009318889160457972, ,0.03234734039973335, ,0.18198230344736904, ,0.0012330754889677163, ,0.1491028036026526,-0.24393796329812958,0.09232566267,-4.523641150791644,0.1860989126805299,-1.1697950019464938, ,0.07390727535706447,-0.33297172476656417,0.013803129566724439,0.052046324860493993,-0.010966881922606399,0.16212856919860447, ,0.1647658348083496
0.010778043599999535,0.021321686048770414,-0.08243475536053058, ,0.011145735053899994,0.02252360094599006,-0.08250718190480893, ,0.0012589845232353122, ,0.007452250175895175,0.032084023392956976,-0.005645646677501143,0.08884334109964534,-0.051268385274754455,-0.03489392505377962, ,0.033418466693897246, ,0.10257478530659048, ,0.0012333699098116661, ,0.14985190869145237,-0.2474054703586564,0.09246695828000001,-4.522592701074221,0.18568900318123358,-1.1674187797318902, ,0.07402257531861994,-0.34258823667317967,0.014273128602150539,0.10020643275036839,-0.03886439083274943,0.26173653582015965, ,0.16646599769592285
0.010778043599999535,0.021321686048770414,-0.08243475536053058, ,0.011156029247119647,0.022569130297388374,-0.08252147315144603, ,0.0013063346730834689, ,0.007452250175895175,0.032084023392956976,-0.005645646677501143,0.08884334109964534,-0.051268385274754455,-0.03489392505377962, ,0.033418466693897246, ,0.10257478530659048, ,0.001234189738612473, ,0.14985190869145237,-0.2474054703586564,0.09246695828000001,-4.522592701074221,0.18568900318123358,-1.1674187797318902, ,0.07402257531861994,-0.34258823667317967,0.014273128602150539,0.10020643275036839,-0.03886439083274943,0.26173653582015965, ,0.1681690216064453
0.010778043599999535,0.021321686048770414,-0.08243475536053058, ,0.011166302135495722,0.022614632884735867,-0.08253581510739473, ,0.0013537611618948764, ,0.007452250175895175,0.032084023392956976,-0.005645646677501143,0.08884334109964534,-0.051268385274754455,-0.03489392505377962, ,0.033418466693897246, ,0.10257478530659048, ,0.0012355183099822774, ,0.14985190869145237,-0.2474054703586564,0.09246695828000001,-4.522592701074221,0.18568900318123358,-1.1674187797318902, ,0.07402257531861994,-0.34258823667317967,0.014273128602150539,0.10020643275036839,-0.03886439083274943,0.26173653582015965, ,0.169874906539917
0.010778043599999535,0.021321686048770414,-0.08243475536053058, ,0.011176553861249546,0.02266010865859448,-0.08255020764556004, ,0.0014012547023751025, ,0.007452250175895175,0.032084023392956976,-0.005645646677501143,0.08884334109964534,-0.051268385274754455,-0.03489392505377962, ,0.033418466693897246, ,0.10257478530659048, ,0.0012373395890195613, ,0.14985190869145237,-0.2474054703586564,0.09246695828000001,-4.522592701074221,0.18568900318123358,-1.1674187797318902, ,0.07402257531861994,-0.34258823667317967,0.014273128602150539,0.10020643275036839,-0.03886439083274943,0.26173653582015965, ,0.17161083221435547
0.010778043599999535,0.021321686048770414,-0.08243475536053058, ,0.011186784566359197,0.02270555756963837,-0.0825646506390315, ,0.0014488072153419336, ,0.007452250175895175,0.032084023392956976,-0.005645646677501143,0.08884334109964534,-0.051268385274754455,-0.03489392505377962, ,0.033418466693897246, ,0.10257478530659048, ,0.0012396381501752394, ,0.14985190869145237,-0.2474054703586564,0.09246695828000001,-4.522592701074221,0.18568900318123358,-1.1674187797318902, ,0.07402257531861994,-0.34258823667317967,0.014273128602150539,0.10020643275036839,-0.03886439083274943,0.26173653582015965, ,0.17346692085266113
0.010850330711549625,0.02164647842365831,-0.08249634368638319, ,0.011196994392559733,0.022750979568654257,-0.0825791439610819, ,0.0011605836344352862, ,0.007474313944616464,0.032596170477327206,-0.007358569603980644,0.02291091950951077,-0.061260536944822884,0.047436551984842, ,0.034242141366250645, ,0.06540461450053418, ,0.0012387881016188958, ,0.15057012284875526,-0.250865254686309,0.09261603163000001,-4.522173321187252,0.18541573018170268,-1.164500545499859, ,0.07135108387854945,-0.34382949840025645,0.016154981257606494,0.01897667232339607,-0.03918662955531082,0.31773136986998096, ,0.17716598510742188
0.010850330711549625,0.02164647842365831,-0.08249634368638319, ,0.01120718348134337,0.02279637460654129,-0.08259368748516849, ,0.0012079242301900688, ,0.007474313944616464,0.032596170477327206,-0.007358569603980644,0.02291091950951077,-0.061260536944822884,0.047436551984842, ,0.034242141366250645, ,0.06540461450053418, ,0.0012384597625611424, ,0.15057012284875526,-0.250865254686309,0.09261603163000001,-4.522173321187252,0.18541573018170268,-1.164500545499859, ,0.07135108387854945,-0.34382949840025645,0.016154981257606494,0.01897667232339607,-0.03918662955531082,0.31773136986998096, ,0.17890596389770508
0.010850330711549625,0.02164647842365831,-0.08249634368638319, ,0.011217351973959564,0.022841742634310817,-0.08260828108493207, ,0.0012553450209092471, ,0.007474313944616464,0.032596170477327206,-0.007358569603980644,0.02291091950951077,-0.061260536944822884,0.047436551984842, ,0.034242141366250645, ,0.06540461450053418, ,0.0012386375021227014, ,0.15057012284875526,-0.250865254686309,0.09261603163000001,-4.522173321187252,0.18541573018170268,-1.164500545499859, ,0.07135108387854945,-0.34382949840025645,0.016154981257606494,0.01897667232339607,-0.03918662955531082,0.31773136986998096, ,0.18070197105407715
0.010850330711549625,0.02164647842365831,-0.08249634368638319, ,0.011227500011415115,0.022887083603086427,-0.08262292463419653, ,0.0013028356106332905, ,0.007474313944616464,0.032596170477327206,-0.007358569603980644,0.02291091950951077,-0.061260536944822884,0.047436551984842, ,0.034242141366250645, ,0.06540461450053418, ,0.0012393062324196867, ,0.15057012284875526,-0.250865254686309,0.09261603163000001,-4.522173321187252,0.18541573018170268,-1.164500545499859, ,0.07135108387854945,-0.34382949840025645,0.016154981257606494,0.01897667232339607,-0.03918662955531082,0.31773136986998096, ,0.18249297142028809
0.010850330711549625,0.02164647842365831,-0.08249634368638319, ,0.011237627734474537,0.022932397464103912,-0.08263761800696971, ,0.001350387054219723, ,0.007474313944616464,0.032596170477327206,-0.007358569603980644,0.02291091950951077,-0.061260536944822884,0.047436551984842, ,0.034242141366250645, ,0.06540461450053418, ,0.0012404513955310273, ,0.15057012284875526,-0.250865254686309,0.09261603163000001,-4.522173321187252,0.18541573018170268,-1.164500545499859, ,0.07135108387854945,-0.34382949840025645,0.016154981257606494,0.01897667232339607,-0.03918662955531082,0.31773136986998096, ,0.18435382843017578
0.010921577342260402,0.021963068791918797,-0.08256546724513125, ,0.011247735283659941,0.022977684168710998,-0.08265236107744312, ,0.001069286633066648, ,0.0074215648405536894,0.03192667588883059,-0.007013058728175618,0.0488595490292394,-0.029457311268965218,-0.03361553176669207, ,0.033519774025458755, ,0.05705250828467578, ,0.001238704816322207, ,0.15128833700605815,-0.2541860298222255,0.09277158643000001,-4.5213345614133145,0.18541573018170268,-1.16172346833508, ,0.07244041340341281,-0.33414416041715067,0.015771100514851488,0.10478969335391562,-0.02441942264225957,0.2966620583320293, ,0.18620800971984863
0.010921577342260402,0.021963068791918797,-0.08256546724513125, ,0.011257822799251343,0.02302294366836751,-0.0826671537199906, ,0.0011165732847617058, ,0.0074215648405536894,0.03192667588883059,-0.007013058728175618,0.0488595490292394,-0.029457311268965218,-0.03361553176669207, ,0.033519774025458755, ,0.05705250828467578, ,0.0012374711644882626, ,0.15128833700605815,-0.2541860298222255,0.09277158643000001,-4.5213345614133145,0.18541573018170268,-1.16172346833508, ,0.07244041340341281,-0.33414416041715067,0.015771100514851488,0.10478969335391562,-0.02441942264225957,0.2966620583320293, ,0.18813085556030273
0.010921577342260402,0.021963068791918797,-0.08256546724513125, ,0.011267890421286841,0.023068175914645238,-0.08268199580916978, ,0.0011639473388613281, ,0.0074215648405536894,0.03192667588883059,-0.007013058728175618,0.0488595490292394,-0.029457311268965218,-0.03361553176669207, ,0.033519774025458755, ,0.05705250828467578, ,0.0012367359262319933, ,0.15128833700605815,-0.2541860298222255,0.09277158643000001,-4.5213345614133145,0.18541573018170268,-1.16172346833508, ,0.07244041340341281,-0.33414416041715067,0.015771100514851488,0.10478969335391562,-0.02441942264225957,0.2966620583320293, ,0.1900169849395752
0.010921577342260402,0.021963068791918797,-0.08256546724513125, ,0.011277938289562625,0.023113380859227758,-0.08269688721972125, ,0.0012113967915922468, ,0.0074215648405536894,0.03192667588883059,-0.007013058728175618,0.0488595490292394,-0.029457311268965218,-0.03361553176669207, ,0.033519774025458755, ,0.05705250828467578, ,0.0012364850437108076, ,0.15128833700605815,-0.2541860298222255,0.09277158643000001,-4.5213345614133145,0.18541573018170268,-1.16172346833508, ,0.07244041340341281,-0.33414416041715067,0.015771100514851488,0.10478969335391562,-0.02441942264225957,0.2966620583320293, ,0.19195199012756348
0.010921577342260402,0.021963068791918797,-0.08256546724513125, ,0.011287966543633282,0.023158558453910495,-0.08271182782656841, ,0.001258911433981877, ,0.0074215648405536894,0.03192667588883059,-0.007013058728175618,0.0488595490292394,-0.029457311268965218,-0.03361553176669207, ,0.033519774025458755, ,0.05705250828467578, ,0.0012367049102820927, ,0.15128833700605815,-0.2541860298222255,0.09277158643000001,-4.5213345614133145,0.18541573018170268,-1.16172346833508, ,0.07244041340341281,-0.33414416041715067,0.015771100514851488,0.10478969335391562,-0.02441942264225957,0.2966620583320293, ,0.19377398490905762
0.010921577342260402,0.021963068791918797,-0.08256546724513125, ,0.011297975322811836,0.023203708650600525,-0.08272681750481735, ,0.0013064825314613995, ,0.0074215648405536894,0.03192667588883059,-0.007013058728175618,0.0488595490292394,-0.029457311268965218,-0.03361553176669207, ,0.033519774025458755, ,0.05705250828467578, ,0.0012373823629149015, ,0.15128833700605815,-0.2541860298222255,0.09277158643000001,-4.5213345614133145,0.18541573018170268,-1.16172346833508, ,0.07244041340341281,-0.33414416041715067,0.015771100514851488,0.10478969335391562,-0.02441942264225957,0.2966620583320293, ,0.19553399085998535
0.010992929759037238,0.02228006379412404,-0.08263072155942816, ,0.011307964766169982,0.023248831401316592,-0.08274185612975728, ,0.001024748078889123, ,0.007222330712758777,0.031595547060937985,-0.00600307713548425,0.05346408031437593,-0.0357624024745094,0.009885471548138309, ,0.03296175951157613, ,0.064322292456153, ,0.0012353378024915764, ,0.15199110569761257,-0.2573986866979029,0.09291936349,-4.52070549158286,0.18541573018170268,-1.1590280699104412, ,0.07271796288005423,-0.33297172476656417,0.014831295642458102,0.06230681765422936,-0.017811459518632142,0.2864858520685724, ,0.19788193702697754
0.010992929759037238,0.02228006379412404,-0.08263072155942816, ,0.011317935012538149,0.023293926658188916,-0.08275694357685912, ,0.0010721372671525624, ,0.007222330712758777,0.031595547060937985,-0.00600307713548425,0.05346408031437593,-0.0357624024745094,0.009885471548138309, ,0.03296175951157613, ,0.064322292456153, ,0.001233783511678824, ,0.15199110569761257,-0.2573986866979029,0.09291936349,-4.52070549158286,0.18541573018170268,-1.1590280699104412, ,0.07271796288005423,-0.33297172476656417,0.014831295642458102,0.06230681765422936,-0.017811459518632142,0.2864858520685724, ,0.19954991340637207
0.010992929759037238,0.02228006379412404,-0.08263072155942816, ,0.011327886200505772,0.023338994373459442,-0.0827720797217774, ,0.0011196034653374507, ,0.007222330712758777,0.031595547060937985,-0.00600307713548425,0.05346408031437593,-0.0357624024745094,0.009885471548138309, ,0.03296175951157613, ,0.064322292456153, ,0.0012327063414303205, ,0.15199110569761257,-0.2573986866979029,0.09291936349,-4.52070549158286,0.18541573018170268,-1.1590280699104412, ,0.07271796288005423,-0.33297172476656417,0.014831295642458102,0.06230681765422936,-0.017811459518632142,0.2864858520685724, ,0.20121002197265625
0.010992929759037238,0.02228006379412404,-0.08263072155942816, ,0.01133781846842133,0.02338403449948126,-0.08278726444034812, ,0.0011671354735909036, ,0.007222330712758777,0.031595547060937985,-0.00600307713548425,0.05346408031437593,-0.0357624024745094,0.009885471548138309, ,0.03296175951157613, ,0.064322292456153, ,0.0012320935295813539, ,0.15199110569761257,-0.2573986866979029,0.09291936349,-4.52070549158286,0.18541573018170268,-1.1590280699104412, ,0.07271796288005423,-0.33297172476656417,0.014831295642458102,0.06230681765422936,-0.017811459518632142,0.2864858520685724, ,0.20284485816955566
0.010992929759037238,0.02228006379412404,-0.08263072155942816, ,0.011347731954392587,0.023429046988719008,-0.08280249760858999, ,0.001214723832958043, ,0.007222330712758777,0.031595547060937985,-0.00600307713548425,0.05346408031437593,-0.0357624024745094,0.009885471548138309, ,0.03296175951157613, ,0.064322292456153, ,0.001231932699057064, ,0.15199110569761257,-0.2573986866979029,0.09291936349,-4.52070549158286,0.18541573018170268,-1.1590280699104412, ,0.07271796288005423,-0.33297172476656417,0.014831295642458102,0.06230681765422936,-0.017811459518632142,0.2864858520685724, ,0.20447492599487305
0.011065262905921677,0.022602808296250654,-0.08269886169068294, ,0.011357626796286609,0.023474031793748504,-0.08281777910270352, ,0.0012623605022345737, ,0.00653231965138738,0.030626618379203052,-0.006808190062192566,0.07312651239804442,-0.03034763913136813,0.061406427370520836, ,0.03204703426678009, ,0.07917364461562942, ,0.0012322118532146558, ,0.15273248805353812,-0.2608970846899266,0.09308269603000001,-4.520495801639376,0.18527909368193726,-1.1561395748419656, ,0.06495341653557206,-0.3195183217456929,0.015360473982642238,0.006460344189246806,0.0,0.246568772887292, ,0.20664501190185547
0.011065262905921677,0.022602808296250654,-0.08269886169068294, ,0.011367503131730107,0.023518988867256847,-0.08283310879907142, ,0.0009740422367108282, ,0.00653231965138738,0.030626618379203052,-0.006808190062192566,0.07312651239804442,-0.03034763913136813,0.061406427370520836, ,0.03204703426678009, ,0.07917364461562942, ,0.0012298648567009847, ,0.15273248805353812,-0.2608970846899266,0.09308269603000001,-4.520495801639376,0.18527909368193726,-1.1561395748419656, ,0.06495341653557206,-0.3195183217456929,0.015360473982642238,0.006460344189246806,0.0,0.246568772887292, ,0.20846986770629883
0.011065262905921677,0.022602808296250654,-0.08269886169068294, ,0.01137736109810945,0.02356391816204217,-0.0828484865742586, ,0.0010215307442625954, ,0.00653231965138738,0.030626618379203052,-0.006808190062192566,0.07312651239804442,-0.03034763913136813,0.061406427370520836, ,0.03204703426678009, ,0.07917364461562942, ,0.0012279879728051431, ,0.15273248805353812,-0.2608970846899266,0.09308269603000001,-4.520495801639376,0.18527909368193726,-1.1561395748419656, ,0.06495341653557206,-0.3195183217456929,0.015360473982642238,0.006460344189246806,0.0,0.246568772887292, ,0.2101888656616211
0.011065262905921677,0.022602808296250654,-0.08269886169068294, ,0.011387200832570863,0.023608819631013703,-0.08286391230501093, ,0.0010690858429410399, ,0.00653231965138738,0.030626618379203052,-0.006808190062192566,0.07312651239804442,-0.03034763913136813,0.061406427370520836, ,0.03204703426678009, ,0.07917364461562942, ,0.0012265692037884996, ,0.15273248805353812,-0.2608970846899266,0.09308269603000001,-4.520495801639376,0.18527909368193726,-1.1561395748419656, ,0.06495341653557206,-0.3195183217456929,0.015360473982642238,0.006460344189246806,0.0,0.246568772887292, ,0.21190094947814941
0.011065262905921677,0.022602808296250654,-0.08269886169068294, ,0.011397022472020553,0.023653693227191727,-0.08287938586825684, ,0.0011166971507377773, ,0.00653231965138738,0.030626618379203052,-0.006808190062192566,0.07312651239804442,-0.03034763913136813,0.061406427370520836, ,0.03204703426678009, ,0.07917364461562942, ,0.0012255968847349533, ,0.15273248805353812,-0.2608970846899266,0.09308269603000001,-4.520495801639376,0.18527909368193726,-1.1561395748419656, ,0.06495341653557206,-0.3195183217456929,0.015360473982642238,0.006460344189246806,0.0,0.246568772887292, ,0.21363401412963867
0.011127043389871534,0.02289251955130771,-0.0827640706786332, ,0.011406826153124919,0.023698538903707416,-0.08289490714110606, ,0.0008631707658215444, ,0.006401667283948623,0.029835511737992416,-0.0067402849378298945,0.08348988607267896,-0.020250683489217002,0.02077621527531639, ,0.03125012873134122, ,0.08591071670226773, ,0.0012224177082532568, ,0.15334258395060185,-0.26390122777799996,0.09322917680000001,-4.519866731808922,0.18527909368193726,-1.15385257011803, ,0.06326462770564718,-0.3091105588223804,0.015155862530922933,0.0463739503271235,0.0,0.23159610651896845, ,0.21607589721679688
0.011127043389871534,0.02289251955130771,-0.0827640706786332, ,0.01141661201231067,0.02374335661380266,-0.08291047600084944, ,0.0009106087043234192, ,0.006401667283948623,0.029835511737992416,-0.0067402849378298945,0.08348988607267896,-0.020250683489217002,0.02077621527531639, ,0.03125012873134122, ,0.08591071670226773, ,0.0012197063256103886, ,0.15334258395060185,-0.26390122777799996,0.09322917680000001,-4.519866731808922,0.18527909368193726,-1.15385257011803, ,0.06326462770564718,-0.3091105588223804,0.015155862530922933,0.0463739503271235,0.0,0.23159610651896845, ,0.2180039882659912
0.011127043389871534,0.02289251955130771,-0.0827640706786332, ,0.011426380185764935,0.02378814631083025,-0.08292609232495951, ,0.0009581235951728037, ,0.006401667283948623,0.029835511737992416,-0.0067402849378298945,0.08348988607267896,-0.020250683489217002,0.02077621527531639, ,0.03125012873134122, ,0.08591071670226773, ,0.0012174513020721334, ,0.15334258395060185,-0.26390122777799996,0.09322917680000001,-4.519866731808922,0.18527909368193726,-1.15385257011803, ,0.06326462770564718,-0.3091105588223804,0.015155862530922933,0.0463739503271235,0.0,0.23159610651896845, ,0.21969199180603027
0.011127043389871534,0.02289251955130771,-0.0827640706786332, ,0.011436130809435448,0.023832907948253705,-0.08294175599109, ,0.0010057024611216797, ,0.006401667283948623,0.029835511737992416,-0.0067402849378298945,0.08348988607267896,-0.020250683489217002,0.02077621527531639, ,0.03125012873134122, ,0.08591071670226773, ,0.0012156414829187106, ,0.15334258395060185,-0.26390122777799996,0.09322917680000001,-4.519866731808922,0.18527909368193726,-1.15385257011803, ,0.06326462770564718,-0.3091105588223804,0.015155862530922933,0.0463739503271235,0.0,0.23159610651896845, ,0.22135591506958008
0.011127043389871534,0.02289251955130771,-0.0827640706786332, ,0.01144586401903076,0.02387764147964701,-0.08295746687707556, ,0.0010533346556742453, ,0.006401667283948623,0.029835511737992416,-0.0067402849378298945,0.08348988607267896,-0.020250683489217002,0.02077621527531639, ,0.03125012873134122, ,0.08591071670226773, ,0.0012142660013318932, ,0.15334258395060185,-0.26390122777799996,0.09322917680000001,-4.519866731808922,0.18527909368193726,-1.15385257011803, ,0.06326462770564718,-0.3091105588223804,0.015155862530922933,0.0463739503271235,0.0,0.23159610651896845, ,0.22317886352539062
0.011127043389871534,0.02289251955130771,-0.0827640706786332, ,0.011455579950020287,0.023922346858694873,-0.08297322486093248, ,0.0011010113652310518, ,0.006401667283948623,0.029835511737992416,-0.0067402849378298945,0.08348988607267896,-0.020250683489217002,0.02077621527531639, ,0.03125012873134122, ,0.08591071670226773, ,0.0012133142817007938, ,0.15334258395060185,-0.26390122777799996,0.09322917680000001,-4.519866731808922,0.18527909368193726,-1.15385257011803, ,0.06326462770564718,-0.3091105588223804,0.015155862530922933,0.0463739503271235,0.0,0.23159610651896845, ,0.22507786750793457
0.011190582179939011,0.02319599488095349,-0.08282547895143355, ,0.01146527873763456,0.0239670240391924,-0.082989029820857, ,0.0008346814054197887, ,0.005977201265414751,0.02798133256335231,-0.005371117263285747,0.07673797169418435,-0.009642375327047634,-0.01280621151262486, ,0.02911238237664795, ,0.07734139704721485, ,0.0012101590077317854, ,0.15399129351203672,-0.26704438005780934,0.09337695386000001,-4.5186085921480155,0.18541573018170268,-1.1515953045576501, ,0.06052100864698392,-0.2910949127560453,0.013385555899159665,0.07850769794831085,0.0,0.2252331388672319, ,0.22681689262390137
0.011190582179939011,0.02319599488095349,-0.08282547895143355, ,0.011474960516865284,0.024011672975045126,-0.08300488163522683, ,0.0008822624975856966, ,0.005977201265414751,0.02798133256335231,-0.005371117263285747,0.07673797169418435,-0.009642375327047634,-0.01280621151262486, ,0.02911238237664795, ,0.07734139704721485, ,0.0012074491192181813, ,0.15399129351203672,-0.26704438005780934,0.09337695386000001,-4.5186085921480155,0.18541573018170268,-1.1515953045576501, ,0.06052100864698392,-0.2910949127560453,0.013385555899159665,0.07850769794831085,0.0,0.2252331388672319, ,0.22852182388305664
0.011190582179939011,0.02319599488095349,-0.08282547895143355, ,0.0114846254224656,0.02405629362026883,-0.08302078018260016, ,0.0009299021025023593, ,0.005977201265414751,0.02798133256335231,-0.005371117263285747,0.07673797169418435,-0.009642375327047634,-0.01280621151262486, ,0.02911238237664795, ,0.07734139704721485, ,0.00120517414367133, ,0.15399129351203672,-0.26704438005780934,0.09337695386000001,-4.5186085921480155,0.18541573018170268,-1.1515953045576501, ,0.06052100864698392,-0.2910949127560453,0.013385555899159665,0.07850769794831085,0.0,0.2252331388672319, ,0.23024487495422363
0.011190582179939011,0.02319599488095349,-0.08282547895143355, ,0.011494273588950037,0.024100885928989742,-0.08303672534171565, ,0.0009775895448144215, ,0.005977201265414751,0.02798133256335231,-0.005371117263285747,0.07673797169418435,-0.009642375327047634,-0.01280621151262486, ,0.02911238237664795, ,0.07734139704721485, ,0.0012033238623798106, ,0.15399129351203672,-0.26704438005780934,0.09337695386000001,-4.5186085921480155,0.18541573018170268,-1.1515953045576501, ,0.06052100864698392,-0.2910949127560453,0.013385555899159665,0.07850769794831085,0.0,0.2252331388672319, ,0.2319648265838623
0.011190582179939011,0.02319599488095349,-0.08282547895143355, ,0.01150390515059493,0.024145449855444086,-0.08305271699149257, ,0.0010253161265558325, ,0.005977201265414751,0.02798133256335231,-0.005371117263285747,0.07673797169418435,-0.009642375327047634,-0.01280621151262486, ,0.02911238237664795, ,0.07734139704721485, ,0.0012018883161231655, ,0.15399129351203672,-0.26704438005780934,0.09337695386000001,-4.5186085921480155,0.18541573018170268,-1.1515953045576501, ,0.06052100864698392,-0.2910949127560453,0.013385555899159665,0.07850769794831085,0.0,0.2252331388672319, ,0.23369884490966797
0.011190582179939011,0.02319599488095349,-0.08282547895143355, ,0.011513520241438473,0.02418998535397835,-0.08306875501103052, ,0.0010730746913436395, ,0.005977201265414751,0.02798133256335231,-0.005371117263285747,0.07673797169418435,-0.009642375327047634,-0.01280621151262486, ,0.02911238237664795, ,0.07734139704721485, ,0.0012008578071249292, ,0.15399129351203672,-0.26704438005780934,0.09337695386000001,-4.5186085921480155,0.18541573018170268,-1.1515953045576501, ,0.06052100864698392,-0.2910949127560453,0.013385555899159665,0.07850769794831085,0.0,0.2252331388672319, ,0.23541903495788574
0.011245113477682405,0.02345789802653692,-0.08287742333939908, ,0.0115231189952807,0.024234492379049004,-0.08308483927960907, ,0.0008505334963550523, ,0.00567043329322863,0.0269957861818736,-0.005966855986592925,0.05016367265041588,-0.025538329760896875,0.06054742951628524, ,0.028222856972233215, ,0.05629032184302028, ,0.0011980774554521524, ,0.15453960754610666,-0.26977050476241055,0.09350399028,-4.518398902204531,0.18541573018170268,-1.149389978573855, ,0.05601944602034875,-0.2791086516425611,0.013719906563307495,0.0,0.0,0.22834632175844258, ,0.23743391036987305
0.011245113477682405,0.02345789802653692,-0.08287742333939908, ,0.011532701545683838,0.024278970885222424,-0.08310096967668841, ,0.000898243007789237, ,0.00567043329322863,0.0269957861818736,-0.005966855986592925,0.05016367265041588,-0.025538329760896875,0.06054742951628524, ,0.028222856972233215, ,0.05629032184302028, ,0.0011957165542894523, ,0.15453960754610666,-0.26977050476241055,0.09350399028,-4.518398902204531,0.18541573018170268,-1.149389978573855, ,0.05601944602034875,-0.2791086516425611,0.013719906563307495,0.0,0.0,0.22834632175844258, ,0.2391338348388672
0.011245113477682405,0.02345789802653692,-0.08287742333939908, ,0.011542268025972448,0.024323420827175077,-0.08311714608190818, ,0.0009459902416357472, ,0.00567043329322863,0.0269957861818736,-0.005966855986592925,0.05016367265041588,-0.025538329760896875,0.06054742951628524, ,0.028222856972233215, ,0.05629032184302028, ,0.0011937655674718452, ,0.15453960754610666,-0.26977050476241055,0.09350399028,-4.518398902204531,0.18541573018170268,-1.149389978573855, ,0.05601944602034875,-0.2791086516425611,0.013719906563307495,0.0,0.0,0.22834632175844258, ,0.24084901809692383
0.011245113477682405,0.02345789802653692,-0.08287742333939908, ,0.011551818569233468,0.02436784215969305,-0.08313336837508827, ,0.0009937676790591175, ,0.00567043329322863,0.0269957861818736,-0.005966855986592925,0.05016367265041588,-0.025538329760896875,0.06054742951628524, ,0.028222856972233215, ,0.05629032184302028, ,0.0011922151962438395, ,0.15453960754610666,-0.26977050476241055,0.09350399028,-4.518398902204531,0.18541573018170268,-1.149389978573855, ,0.05601944602034875,-0.2791086516425611,0.013719906563307495,0.0,0.0,0.22834632175844258, ,0.24288702011108398
0.011245113477682405,0.02345789802653692,-0.08287742333939908, ,0.011561353308316449,0.0244122348376723,-0.08314963643622836, ,0.001041569176604646, ,0.00567043329322863,0.0269957861818736,-0.005966855986592925,0.05016367265041588,-0.025538329760896875,0.06054742951628524, ,0.028222856972233215, ,0.05629032184302028, ,0.0011910563807081534, ,0.15453960754610666,-0.26977050476241055,0.09350399028,-4.518398902204531,0.18541573018170268,-1.149389978573855, ,0.05601944602034875,-0.2791086516425611,0.013719906563307495,0.0,0.0,0.22834632175844258, ,0.24465394020080566
0.011301181215505166,0.02372171159833155,-0.08294444107873758, ,0.011570872375833695,0.0244565988161185,-0.08316595014550754, ,0.0008135470554843697, ,0.005346630572856179,0.02569047627497654,-0.006920479296418992,0.021071594028861745,-0.014376839737770646,0.04511813983075048, ,0.027138166176252525, ,0.025508931374891117, ,0.0011881746301339261, ,0.15506475338155393,-0.27247346126838917,0.09364658218000001,-4.5186085921480155,0.18527909368193726,-1.1468281984659416, ,0.0502898471428038,-0.2607058834023922,0.014298753608617595,0.014354461183174924,0.0,0.24149440986603732, ,0.24654698371887207
0.011301181215505166,0.02372171159833155,-0.08294444107873758, ,0.01158037590416032,0.024500934050146826,-0.08318230938328465, ,0.0008612308830356443, ,0.005346630572856179,0.02569047627497654,-0.006920479296418992,0.021071594028861745,-0.014376839737770646,0.04511813983075048, ,0.027138166176252525, ,0.025508931374891117, ,0.0011856977835649997, ,0.15506475338155393,-0.27247346126838917,0.09364658218000001,-4.5186085921480155,0.18527909368193726,-1.1468281984659416, ,0.0502898471428038,-0.2607058834023922,0.014298753608617595,0.014354461183174924,0.0,0.24149440986603732, ,0.24836492538452148
0.011301181215505166,0.02372171159833155,-0.08294444107873758, ,0.011589864025434613,0.024545240494982024,-0.08319871403009788, ,0.0009089512320034458, ,0.005346630572856179,0.02569047627497654,-0.006920479296418992,0.021071594028861745,-0.014376839737770646,0.04511813983075048, ,0.027138166176252525, ,0.025508931374891117, ,0.001183616982425439, ,0.15506475338155393,-0.27247346126838917,0.09364658218000001,-4.5186085921480155,0.18527909368193726,-1.1468281984659416, ,0.0502898471428038,-0.2607058834023922,0.014298753608617595,0.014354461183174924,0.0,0.24149440986603732, ,0.2503468990325928
0.011301181215505166,0.02372171159833155,-0.08294444107873758, ,0.011599336871557986,0.02458951810595841,-0.08321516396666474, ,0.0009567004818455131, ,0.005346630572856179,0.02569047627497654,-0.006920479296418992,0.021071594028861745,-0.014376839737770646,0.04511813983075048, ,0.027138166176252525, ,0.025508931374891117, ,0.0011819235757046932, ,0.15506475338155393,-0.27247346126838917,0.09364658218000001,-4.5186085921480155,0.18527909368193726,-1.1468281984659416, ,0.0502898471428038,-0.2607058834023922,0.014298753608617595,0.014354461183174924,0.0,0.24149440986603732, ,0.25203490257263184
0.011301181215505166,0.02372171159833155,-0.08294444107873758, ,0.01160879457419519,0.024633766838519533,-0.08323165907388236, ,0.0010044724567323396, ,0.005346630572856179,0.02569047627497654,-0.006920479296418992,0.021071594028861745,-0.014376839737770646,0.04511813983075048, ,0.027138166176252525, ,0.025508931374891117, ,0.0011806091229715648, ,0.15506475338155393,-0.27247346126838917,0.09364658218000001,-4.5186085921480155,0.18527909368193726,-1.1468281984659416, ,0.0502898471428038,-0.2607058834023922,0.014298753608617595,0.014354461183174924,0.0,0.24149440986603732, ,0.2536599636077881
0.011301181215505166,0.02372171159833155,-0.08294444107873758, ,0.011618237264774504,0.02467798664821842,-0.08324819923282609, ,0.0010522620992840478, ,0.005346630572856179,0.02569047627497654,-0.006920479296418992,0.021071594028861745,-0.014376839737770646,0.04511813983075048, ,0.027138166176252525, ,0.025508931374891117, ,0.0011796653948562153, ,0.15506475338155393,-0.27247346126838917,0.09364658218000001,-4.5186085921480155,0.18527909368193726,-1.1468281984659416, ,0.0502898471428038,-0.2607058834023922,0.014298753608617595,0.014354461183174924,0.0,0.24149440986603732, ,0.2553749084472656
0.01135634166034557,0.023983232149872413,-0.08301950889669174, ,0.01162766507448786,0.024722177490717232,-0.08326478432475154, ,0.000824509943801778, ,0.0053446020455305675,0.02478287777382527,-0.007912625050918387,0.00696643521398171,0.0013360544457405184,-0.0011565640602359188, ,0.026558716779503357, ,0.007093393409036532, ,0.0011770730193010736, ,0.15557445375125276,-0.2750991904456255,0.09379695182000002,-4.517979522317562,0.18527909368193726,-1.1443778362617247, ,0.048146596427433165,-0.24584699885614195,0.015055587448015127,0.06125988166899198,-6.691099206259053e-05,0.2479660483027078, ,0.2578139305114746
0.01135634166034557,0.023983232149872413,-0.08301950889669174, ,0.011637078134291007,0.024766339321787265,-0.0832814142310919, ,0.0008721606587636538, ,0.0053446020455305675,0.02478287777382527,-0.007912625050918387,0.00696643521398171,0.0013360544457405184,-0.0011565640602359188, ,0.026558716779503357, ,0.007093393409036532, ,0.001174863509442107, ,0.15557445375125276,-0.2750991904456255,0.09379695182000002,-4.517979522317562,0.18527909368193726,-1.1443778362617247, ,0.048146596427433165,-0.24584699885614195,0.015055587448015127,0.06125988166899198,-6.691099206259053e-05,0.2479660483027078, ,0.25950002670288086
0.01135634166034557,0.023983232149872413,-0.08301950889669174, ,0.011646476574903567,0.024810472097309112,-0.08329808883345999, ,0.0009198429107464215, ,0.0053446020455305675,0.02478287777382527,-0.007912625050918387,0.00696643521398171,0.0013360544457405184,-0.0011565640602359188, ,0.026558716779503357, ,0.007093393409036532, ,0.001173028828875951, ,0.15557445375125276,-0.2750991904456255,0.09379695182000002,-4.517979522317562,0.18527909368193726,-1.1443778362617247, ,0.048146596427433165,-0.24584699885614195,0.015055587448015127,0.06125988166899198,-6.691099206259053e-05,0.2479660483027078, ,0.261685848236084
0.01135634166034557,0.023983232149872413,-0.08301950889669174, ,0.011655860526809367,0.02485457577327228,-0.08331480801364717, ,0.0009675499107963491, ,0.0053446020455305675,0.02478287777382527,-0.007912625050918387,0.00696643521398171,0.0013360544457405184,-0.0011565640602359188, ,0.026558716779503357, ,0.007093393409036532, ,0.0011715611223182393, ,0.15557445375125276,-0.2750991904456255,0.09379695182000002,-4.517979522317562,0.18527909368193726,-1.1443778362617247, ,0.048146596427433165,-0.24584699885614195,0.015055587448015127,0.06125988166899198,-6.691099206259053e-05,0.2479660483027078, ,0.26348400115966797
0.01135634166034557,0.023983232149872413,-0.08301950889669174, ,0.011665230120256498,0.024898650305775198,-0.0833315716536229, ,0.001015276142281535, ,0.0053446020455305675,0.02478287777382527,-0.007912625050918387,0.00696643521398171,0.0013360544457405184,-0.0011565640602359188, ,0.026558716779503357, ,0.007093393409036532, ,0.001170452718204504, ,0.15557445375125276,-0.2750991904456255,0.09379695182000002,-4.517979522317562,0.18527909368193726,-1.1443778362617247, ,0.048146596427433165,-0.24584699885614195,0.015055587448015127,0.06125988166899198,-6.691099206259053e-05,0.2479660483027078, ,0.2651479244232178
0.011413439892145565,0.024226191669265946,-0.0831117553170359, ,0.01167458548525741,0.024942695651025262,-0.08334837963553561, ,0.0007984773289105592, ,0.005538740614803575,0.023773847399360958,-0.010435359031194599,-0.018624270194820797,-0.0013777428071256334,-0.017131005135654707, ,0.02654750809164791, ,0.018675157075232904, ,0.0011678331732094761, ,0.15604554045658045,-0.2774623467051382,0.09395898807000001,-4.517350452487108,0.18500582068240637,-1.1416229595099745, ,0.04446904477903973,-0.22594509894873996,0.017238973506493508,0.07200775853126391,-0.01098309466056357,0.2539427995201851, ,0.26680898666381836
0.011413439892145565,0.024226191669265946,-0.0831117553170359, ,0.011683926751589116,0.024986711765338603,-0.08336523184171182, ,0.0008460521888298499, ,0.005538740614803575,0.023773847399360958,-0.010435359031194599,-0.018624270194820797,-0.0013777428071256334,-0.017131005135654707, ,0.02654750809164791, ,0.018675157075232904, ,0.0011655829565354926, ,0.15604554045658045,-0.2774623467051382,0.09395898807000001,-4.517350452487108,0.18500582068240637,-1.1416229595099745, ,0.04446904477903973,-0.22594509894873996,0.017238973506493508,0.07200775853126391,-0.01098309466056357,0.2539427995201851, ,0.2684938907623291
0.011413439892145565,0.024226191669265946,-0.0831117553170359, ,0.011693254048793407,0.025030698605140088,-0.08338212815465612, ,0.0008936603624716443, ,0.005538740614803575,0.023773847399360958,-0.010435359031194599,-0.018624270194820797,-0.0013777428071256334,-0.017131005135654707, ,0.02654750809164791, ,0.018675157075232904, ,0.0011636946051878272, ,0.15604554045658045,-0.2774623467051382,0.09395898807000001,-4.517350452487108,0.18500582068240637,-1.1416229595099745, ,0.04446904477903973,-0.22594509894873996,0.017238973506493508,0.07200775853126391,-0.01098309466056357,0.2539427995201851, ,0.2701530456542969
0.011413439892145565,0.024226191669265946,-0.0831117553170359, ,0.011702567506176913,0.025074656126963437,-0.08339906845705164, ,0.0009412946157272218, ,0.005538740614803575,0.023773847399360958,-0.010435359031194599,-0.018624270194820797,-0.0013777428071256334,-0.017131005135654707, ,0.02654750809164791, ,0.018675157075232904, ,0.0011621608121570644, ,0.15604554045658045,-0.2774623467051382,0.09395898807000001,-4.517350452487108,0.18500582068240637,-1.1416229595099745, ,0.04446904477903973,-0.22594509894873996,0.017238973506493508,0.07200775853126391,-0.01098309466056357,0.2539427995201851, ,0.2718470096588135
0.011413439892145565,0.024226191669265946,-0.0831117553170359, ,0.011711867252811233,0.025118584287450757,-0.08341605263175919, ,0.0009889491040151765, ,0.005538740614803575,0.023773847399360958,-0.010435359031194599,-0.018624270194820797,-0.0013777428071256334,-0.017131005135654707, ,0.02654750809164791, ,0.018675157075232904, ,0.0011609744305944487, ,0.15604554045658045,-0.2774623467051382,0.09395898807000001,-4.517350452487108,0.18500582068240637,-1.1416229595099745, ,0.04446904477903973,-0.22594509894873996,0.017238973506493508,0.07200775853126391,-0.01098309466056357,0.2539427995201851, ,0.27356386184692383
0.011413439892145565,0.024226191669265946,-0.0831117553170359, ,0.011721153417533235,0.025162483043352724,-0.08343308056181717, ,0.001036619054344243, ,0.005538740614803575,0.023773847399360958,-0.010435359031194599,-0.018624270194820797,-0.0013777428071256334,-0.017131005135654707, ,0.02654750809164791, ,0.018675157075232904, ,0.0011601284756539711, ,0.15604554045658045,-0.2774623467051382,0.09395898807000001,-4.517350452487108,0.18500582068240637,-1.1416229595099745, ,0.04446904477903973,-0.22594509894873996,0.017238973506493508,0.07200775853126391,-0.01098309466056357,0.2539427995201851, ,0.2752408981323242
0.011467764236696869,0.024466093125595903,-0.08322748307702484, ,0.011730426128945027,0.02520635235152857,-0.0834501521304427, ,0.0008164291142333321, ,0.00525181807483289,0.023385330629501072,-0.011980170538320569,-0.022213448975212973,-0.005538683908290114,0.011730046862997208, ,0.026795144483086234, ,0.022893538128202842, ,0.0011578061826713992, ,0.1564702907646628,-0.27971738470441176,0.09414306125,-4.517350452487108,0.18500582068240637,-1.139090918565617, ,0.03823406186884399,-0.21665968392344928,0.018608424672897198,0.03932392290248322,-0.01098309466056357,0.24333227307564603, ,0.27704286575317383
0.011467764236696869,0.024466093125595903,-0.08322748307702484, ,0.011739685515414287,0.02525019216894573,-0.08346726722102929, ,0.0008638570062906122, ,0.00525181807483289,0.023385330629501072,-0.011980170538320569,-0.022213448975212973,-0.005538683908290114,0.011730046862997208, ,0.026795144483086234, ,0.022893538128202842, ,0.0011558333694070984, ,0.1564702907646628,-0.27971738470441176,0.09414306125,-4.517350452487108,0.18500582068240637,-1.139090918565617, ,0.03823406186884399,-0.21665968392344928,0.018608424672897198,0.03932392290248322,-0.01098309466056357,0.24333227307564603, ,0.27904200553894043
0.011467764236696869,0.024466093125595903,-0.08322748307702484, ,0.01174893170507422,0.025294002452680125,-0.083484425717149, ,0.0009113224014917836, ,0.00525181807483289,0.023385330629501072,-0.011980170538320569,-0.022213448975212973,-0.005538683908290114,0.011730046862997208, ,0.026795144483086234, ,0.022893538128202842, ,0.0011542032962876632, ,0.1564702907646628,-0.27971738470441176,0.09414306125,-4.517350452487108,0.18500582068240637,-1.139090918565617, ,0.03823406186884399,-0.21665968392344928,0.018608424672897198,0.03932392290248322,-0.01098309466056357,0.24333227307564603, ,0.28092384338378906
0.011467764236696869,0.024466093125595903,-0.08322748307702484, ,0.011758164825823907,0.02533778315991579,-0.08350162750255087, ,0.0009588175969103504, ,0.00525181807483289,0.023385330629501072,-0.011980170538320569,-0.022213448975212973,-0.005538683908290114,0.011730046862997208, ,0.026795144483086234, ,0.022893538128202842, ,0.0011529093512586742, ,0.1564702907646628,-0.27971738470441176,0.09414306125,-4.517350452487108,0.18500582068240637,-1.139090918565617, ,0.03823406186884399,-0.21665968392344928,0.018608424672897198,0.03932392290248322,-0.01098309466056357,0.24333227307564603, ,0.2827279567718506
0.011467764236696869,0.024466093125595903,-0.08322748307702484, ,0.011767385005328309,0.025381534247945075,-0.0835188724611614, ,0.0010063363387410242, ,0.00525181807483289,0.023385330629501072,-0.011980170538320569,-0.022213448975212973,-0.005538683908290114,0.011730046862997208, ,0.026795144483086234, ,0.022893538128202842, ,0.0011519450551236898, ,0.1564702907646628,-0.27971738470441176,0.09414306125,-4.517350452487108,0.18500582068240637,-1.139090918565617, ,0.03823406186884399,-0.21665968392344928,0.018608424672897198,0.03932392290248322,-0.01098309466056357,0.24333227307564603, ,0.28447484970092773
0.011514455013712033,0.024681460985298498,-0.08334287342464552, ,0.011776592371018458,0.025425255674168194,-0.08353616047708427, ,0.0008119768579995517, ,0.00525181807483289,0.023385330629501072,-0.011980170538320569,-0.022213448975212973,-0.005538683908290114,0.011730046862997208, ,0.026795144483086234, ,0.022893538128202842, ,0.0011497230407634012, ,0.15680236827825444,-0.281686681587339,0.09431935669000001,-4.516721382656655,0.18500582068240637,-1.1369672713219625, ,0.03526456393848784,-0.20856470672191377,0.019168244909747296,0.03307371464820134,-0.01098309466056357,0.24240440764091015, ,0.28618884086608887
0.011514455013712033,0.024681460985298498,-0.08334287342464552, ,0.01178578705009167,0.025468947396093553,-0.08355349143460002, ,0.0008591366988262043, ,0.005117626815402167,0.022911463251172066,-0.012687330773980028,-0.03022800192821105,-0.0043161300880012205,0.016425777966773983, ,0.026685082250199492, ,0.03053458286548905, ,0.0011478361164651077, ,0.15680236827825444,-0.281686681587339,0.09431935669000001,-4.516721382656655,0.18500582068240637,-1.1369672713219625, ,0.03526456393848784,-0.20856470672191377,0.019168244909747296,0.03307371464820134,-0.01098309466056357,0.24240440764091015, ,0.28787899017333984
0.011514455013712033,0.024681460985298498,-0.08334287342464552, ,0.011794969169511648,0.025512609371337393,-0.0835708652181667, ,0.0009063531812334717, ,0.005117626815402167,0.022911463251172066,-0.012687330773980028,-0.03022800192821105,-0.0043161300880012205,0.016425777966773983, ,0.026685082250199492, ,0.03053458286548905, ,0.0011462781620442586, ,0.15680236827825444,-0.281686681587339,0.09431935669000001,-4.516721382656655,0.18500582068240637,-1.1369672713219625, ,0.03526456393848784,-0.20856470672191377,0.019168244909747296,0.03307371464820134,-0.01098309466056357,0.24240440764091015, ,0.289564847946167
0.011514455013712033,0.024681460985298498,-0.08334287342464552, ,0.011804138856008626,0.025556241557623968,-0.08358828171241878, ,0.0009536157538094649, ,0.005117626815402167,0.022911463251172066,-0.012687330773980028,-0.03022800192821105,-0.0043161300880012205,0.016425777966773983, ,0.026685082250199492, ,0.03053458286548905, ,0.001145043146606856, ,0.15680236827825444,-0.281686681587339,0.09431935669000001,-4.516721382656655,0.18500582068240637,-1.1369672713219625, ,0.03526456393848784,-0.20856470672191377,0.019168244909747296,0.03307371464820134,-0.01098309466056357,0.24240440764091015, ,0.2913029193878174
0.011514455013712033,0.024681460985298498,-0.08334287342464552, ,0.011813296236079506,0.025599843912785174,-0.08360574080216757, ,0.001000915848535929, ,0.005117626815402167,0.022911463251172066,-0.012687330773980028,-0.03022800192821105,-0.0043161300880012205,0.016425777966773983, ,0.026685082250199492, ,0.03053458286548905, ,0.0011441251383388885, ,0.15680236827825444,-0.281686681587339,0.09431935669000001,-4.516721382656655,0.18500582068240637,-1.1369672713219625, ,0.03526456393848784,-0.20856470672191377,0.019168244909747296,0.03307371464820134,-0.01098309466056357,0.24240440764091015, ,0.2929799556732178
0.011514455013712033,0.024681460985298498,-0.08334287342464552, ,0.011822441435988103,0.025643416394760744,-0.08362324237240126, ,0.0010482464371347753, ,0.005117626815402167,0.022911463251172066,-0.012687330773980028,-0.03022800192821105,-0.0043161300880012205,0.016425777966773983, ,0.026685082250199492, ,0.03053458286548905, ,0.0011435183111160776, ,0.15680236827825444,-0.281686681587339,0.09431935669000001,-4.516721382656655,0.18500582068240637,-1.1369672713219625, ,0.03526456393848784,-0.20856470672191377,0.019168244909747296,0.03307371464820134,-0.01098309466056357,0.24240440764091015, ,0.2947249412536621
0.011514455013712033,0.024681460985298498,-0.08334287342464552, ,0.011831574581765158,0.025686958961598096,-0.08364078630828434, ,0.0010956017009035625, ,0.005024463023090337,0.022113111063762028,-0.012821580924417377,-0.02647795495299001,0.0351247533496681,-0.10702486062941628, ,0.026050486501984185, ,0.04398670310291371, ,0.001143216948787697, ,0.15716533672334299,-0.28384904679212186,0.09452676309000001,-4.5154632429957475,0.18500582068240637,-1.134435230377605, ,0.03339090132247389,-0.19606806107122063,0.019099294388489212,0.16190958469731095,-0.010146548907627728,0.2458520831940162, ,0.2968008518218994
0.011567800524615524,0.02492336644559131,-0.08348179882067067, ,0.01184069579920861,0.025730471571451995,-0.08365837249515772, ,0.0008700969932183924, ,0.005024463023090337,0.022113111063762028,-0.012821580924417377,-0.02647795495299001,0.0351247533496681,-0.10702486062941628, ,0.026050486501984185, ,0.04398670310291371, ,0.0011415099490653887, ,0.15716533672334299,-0.28384904679212186,0.09452676309000001,-4.5154632429957475,0.18500582068240637,-1.134435230377605, ,0.03339090132247389,-0.19606806107122063,0.019099294388489212,0.16190958469731095,-0.010146548907627728,0.2458520831940162, ,0.2986760139465332
0.011567800524615524,0.02492336644559131,-0.08348179882067067, ,0.011849805213883678,0.025773954182585036,-0.08367600081853876, ,0.0009169190580794454, ,0.005024463023090337,0.022113111063762028,-0.012821580924417377,-0.02647795495299001,0.0351247533496681,-0.10702486062941628, ,0.026050486501984185, ,0.04398670310291371, ,0.0011401149745872152, ,0.15716533672334299,-0.28384904679212186,0.09452676309000001,-4.5154632429957475,0.18500582068240637,-1.134435230377605, ,0.03339090132247389,-0.19606806107122063,0.019099294388489212,0.16190958469731095,-0.010146548907627728,0.2458520831940162, ,0.3003418445587158
0.011567800524615524,0.02492336644559131,-0.08348179882067067, ,0.011858902951123046,0.025817406753367043,-0.08369367116412106, ,0.0009638146007222855, ,0.005024463023090337,0.022113111063762028,-0.012821580924417377,-0.02647795495299001,0.0351247533496681,-0.10702486062941628, ,0.026050486501984185, ,0.04398670310291371, ,0.0011390267006744688, ,0.15716533672334299,-0.28384904679212186,0.09452676309000001,-4.5154632429957475,0.18500582068240637,-1.134435230377605, ,0.03339090132247389,-0.19606806107122063,0.019099294388489212,0.16190958469731095,-0.010146548907627728,0.2458520831940162, ,0.3020179271697998
0.011567800524615524,0.02492336644559131,-0.08348179882067067, ,0.011867989136027024,0.02586082924227524,-0.0837113834177739, ,0.0010107713810821291, ,0.005024463023090337,0.022113111063762028,-0.012821580924417377,-0.02647795495299001,0.0351247533496681,-0.10702486062941628, ,0.026050486501984185, ,0.04398670310291371, ,0.001138239858222982, ,0.15716533672334299,-0.28384904679212186,0.09452676309000001,-4.5154632429957475,0.18500582068240637,-1.134435230377605, ,0.03339090132247389,-0.19606806107122063,0.019099294388489212,0.16190958469731095,-0.010146548907627728,0.2458520831940162, ,0.3037149906158447
0.011567800524615524,0.02492336644559131,-0.08348179882067067, ,0.011877063893463685,0.02590422160789423,-0.08372913746554332, ,0.001057779318182693, ,0.005024463023090337,0.022113111063762028,-0.012821580924417377,-0.02647795495299001,0.0351247533496681,-0.10702486062941628, ,0.026050486501984185, ,0.04398670310291371, ,0.0011377492451739558, ,0.15716533672334299,-0.28384904679212186,0.09452676309000001,-4.5154632429957475,0.18500582068240637,-1.134435230377605, ,0.03339090132247389,-0.19606806107122063,0.019099294388489212,0.16190958469731095,-0.010146548907627728,0.2458520831940162, ,0.3053548336029053
