NicholasDascanio/dvrk_moveit_final/test/execution/first_exp_nosummary/yes_joints_no_ramp/700vel5.csv
Current Position (x),Current Position (y),Current Position (z), ,Planned Position (x),Planned Position (y),Planned Position (z), ,Position Error,,Cartesian linear Velocity(x),Cartesian linear Velocity(y),Cartesian linear Velocity(z),Cartesian Angular Velocity(x),Cartesian Angular Velocity(y),Cartesian Angular Velocity(z), ,Total Linear Velocity, ,Total Angular Velocity, ,MSE, ,Joint 1 Position,Joint 2 Position,Joint 3 Position,Joint 4 Position,Joint 5 Position,Joint 6 Position, ,Joint 1 Velocity,Joint 2 Velocity,Joint 3 Velocity,Joint 4 Velocity,Joint 5 Velocity,Joint 6 Velocity, ,Time Stamp
0.011377476663976848,0.016415899746872128,-0.07822054149241146, ,0.011497474784421228,0.01647569610006653,-0.07827816546410808, ,0.0001459303768227377, ,4.575440485965841e-05,-4.3258553845983335e-05,1.037687133791141e-05,-0.0005090608553973341,-0.0005926213035476346,-8.414756549343194e-05, ,6.38157308480514e-05, ,0.0007812444968870906, ,7.296518841136885e-05, ,0.1638146097280503,-0.20145520975702055,0.08734920536000002,-4.537690377005107,0.17175208020515864,-1.3898187078371445, ,0.0005926213035476345,0.0005159687657953114,-1.2404620201491602e-05,0.0,0.0,0.0, ,0.0016970634460449219
0.011377476663976848,0.016415899746872128,-0.07822054149241146, ,0.011476906813298033,0.016618638736439744,-0.07838272010814538, ,0.0002780132296965416, ,4.575440485965841e-05,-4.3258553845983335e-05,1.037687133791141e-05,-0.0005090608553973341,-0.0005926213035476346,-8.414756549343194e-05, ,6.38157308480514e-05, ,0.0007812444968870906, ,0.00014131453550642644, ,0.1638146097280503,-0.20145520975702055,0.08734920536000002,-4.537690377005107,0.17175208020515864,-1.3898187078371445, ,0.0005926213035476345,0.0005159687657953114,-1.2404620201491602e-05,0.0,0.0,0.0, ,0.003610849380493164
0.011377476663976848,0.016415899746872128,-0.07822054149241146, ,0.011456587744097997,0.01676107740898706,-0.07848684526456956, ,0.0004430845071616653, ,4.575440485965841e-05,-4.3258553845983335e-05,1.037687133791141e-05,-0.0005090608553973341,-0.0005926213035476346,-8.414756549343194e-05, ,6.38157308480514e-05, ,0.0007812444968870906, ,0.00021675702842023615, ,0.1638146097280503,-0.20145520975702055,0.08734920536000002,-4.537690377005107,0.17175208020515864,-1.3898187078371445, ,0.0005926213035476345,0.0005159687657953114,-1.2404620201491602e-05,0.0,0.0,0.0, ,0.005496025085449219
0.011377476663976848,0.016415899746872128,-0.07822054149241146, ,0.011436517032529871,0.016903013265242805,-0.07859054211566899, ,0.0006145452026574556, ,4.575440485965841e-05,-4.3258553845983335e-05,1.037687133791141e-05,-0.0005090608553973341,-0.0005926213035476346,-8.414756549343194e-05, ,6.38157308480514e-05, ,0.0007812444968870906, ,0.00029631466326768003, ,0.16382233246092454,-0.20145520975702055,0.08734920536000002,-4.537690377005107,0.17175208020515864,-1.3896553503568634, ,-2.5371924083298446e-05,-0.0008027739834303878,1.7525931370742315e-05,0.0,0.0,-0.008968076167178929, ,0.007382869720458984
0.011378080739984784,0.016415899746872128,-0.07822045362486582, ,0.011416694135121776,0.0170444474517647,-0.07869381184199187, ,0.0007878015063012218, ,-1.3333317914334075e-06,6.694920060994962e-05,-4.228440989421785e-06,0.009672191657857472,-0.0011726973217701811,-0.00023467412108013234, ,6.709584897129141e-05, ,0.00974302368234906, ,0.0003782291371066037, ,0.16382233246092454,-0.20145520975702055,0.08734920536000002,-4.537690377005107,0.17175208020515864,-1.3896553503568634, ,-2.5371924083298446e-05,-0.0008027739834303878,1.7525931370742315e-05,0.0,0.0,-0.008968076167178929, ,0.009184837341308594
0.011378080739984784,0.016415899746872128,-0.07822045362486582, ,0.011397118509198712,0.0171853811140888,-0.07879665562235406, ,0.0009614950613808291, ,-1.3333317914334075e-06,6.694920060994962e-05,-4.228440989421785e-06,0.009672191657857472,-0.0011726973217701811,-0.00023467412108013234, ,6.709584897129141e-05, ,0.00974302368234906, ,0.00046155284057435014, ,0.16382233246092454,-0.20145520975702055,0.08734920536000002,-4.537690377005107,0.17175208020515864,-1.3896553503568634, ,-2.5371924083298446e-05,-0.0008027739834303878,1.7525931370742315e-05,0.0,0.0,-0.008968076167178929, ,0.01087498664855957
0.011378080739984784,0.016415899746872128,-0.07822045362486582, ,0.011377789612886503,0.017325815396724693,-0.07889907463384299, ,0.0011351092671751013, ,-1.3333317914334075e-06,6.694920060994962e-05,-4.228440989421785e-06,0.009672191657857472,-0.0011726973217701811,-0.00023467412108013234, ,6.709584897129141e-05, ,0.00974302368234906, ,0.0005457473938994441, ,0.16382233246092454,-0.20145520975702055,0.08734920536000002,-4.537690377005107,0.17175208020515864,-1.3896553503568634, ,-2.5371924083298446e-05,-0.0008027739834303878,1.7525931370742315e-05,0.0,0.0,-0.008968076167178929, ,0.012542009353637695
0.011378080739984784,0.016415899746872128,-0.07822045362486582, ,0.011358706905101537,0.017465751443132494,-0.07900107005182322, ,0.001308405875733744, ,-1.3333317914334075e-06,6.694920060994962e-05,-4.228440989421785e-06,0.009672191657857472,-0.0011726973217701811,-0.00023467412108013234, ,6.709584897129141e-05, ,0.00974302368234906, ,0.0006304872252143662, ,0.16382233246092454,-0.20145520975702055,0.08734920536000002,-4.537690377005107,0.17175208020515864,-1.3896553503568634, ,-2.5371924083298446e-05,-0.0008027739834303878,1.7525931370742315e-05,0.0,0.0,-0.008968076167178929, ,0.01425790786743164
0.011378080739984784,0.016415899746872128,-0.07822045362486582, ,0.011339869845547891,0.017605190395708847,-0.07910264304994107, ,0.0014812597684331816, ,-1.3333317914334075e-06,6.694920060994962e-05,-4.228440989421785e-06,0.009672191657857472,-0.0011726973217701811,-0.00023467412108013234, ,6.709584897129141e-05, ,0.00974302368234906, ,0.0007155644795362479, ,0.16382233246092454,-0.20145520975702055,0.08734920536000002,-4.537690377005107,0.17175208020515864,-1.3896553503568634, ,-2.5371924083298446e-05,-0.0008027739834303878,1.7525931370742315e-05,0.0,0.0,-0.008968076167178929, ,0.01593804359436035
0.011382247162068494,0.016469812126511735,-0.07827294521363812, ,0.01132127789470482,0.01774413339575883,-0.07920379480013044, ,0.0015792697367743491, ,0.0010196170943525223,0.009955247212623882,-0.010256897089865744,-0.4028267199069564,-0.09501068552630731,-0.008585800283351548, ,0.014330055966242695, ,0.41387968846230466, ,0.0007940831392851661, ,0.16364470960481736,-0.2020035237910905,0.08741013099000002,-4.537900066948591,0.17065898820703512,-1.3871304323244806, ,-0.030299151200022596,-0.09885098079007372,0.011842982542750931,0.0,-0.1960062233385165,0.477756069424764, ,0.017611980438232422
0.011382247162068494,0.016469812126511735,-0.07827294521363812, ,0.01130293051382861,0.01788258158349171,-0.07930452647261682, ,0.0017511049549183485, ,0.0010196170943525223,0.009955247212623882,-0.010256897089865744,-0.4028267199069564,-0.09501068552630731,-0.008585800283351548, ,0.014330055966242695, ,0.41387968846230466, ,0.000873834957254598, ,0.16364470960481736,-0.2020035237910905,0.08741013099000002,-4.537900066948591,0.17065898820703512,-1.3871304323244806, ,-0.030299151200022596,-0.09885098079007372,0.011842982542750931,0.0,-0.1960062233385165,0.477756069424764, ,0.019314050674438477
0.011382247162068494,0.016469812126511735,-0.07827294521363812, ,0.011284827164942578,0.018020536097998557,-0.07940483923592256, ,0.001922347411179139, ,0.0010196170943525223,0.009955247212623882,-0.010256897089865744,-0.4028267199069564,-0.09501068552630731,-0.008585800283351548, ,0.014330055966242695, ,0.41387968846230466, ,0.0009544897614026397, ,0.16364470960481736,-0.2020035237910905,0.08741013099000002,-4.537900066948591,0.17065898820703512,-1.3871304323244806, ,-0.030299151200022596,-0.09885098079007372,0.011842982542750931,0.0,-0.1960062233385165,0.477756069424764, ,0.021113872528076172
0.011382247162068494,0.016469812126511735,-0.07827294521363812, ,0.011266967310827995,0.018157998077230137,-0.07950473425687155, ,0.0020929800513466313, ,0.0010196170943525223,0.009955247212623882,-0.010256897089865744,-0.4028267199069564,-0.09501068552630731,-0.008585800283351548, ,0.014330055966242695, ,0.41387968846230466, ,0.001035810496398639, ,0.16364470960481736,-0.2020035237910905,0.08741013099000002,-4.537900066948591,0.17065898820703512,-1.3871304323244806, ,-0.030299151200022596,-0.09885098079007372,0.011842982542750931,0.0,-0.1960062233385165,0.477756069424764, ,0.0230710506439209
0.011382247162068494,0.016469812126511735,-0.07827294521363812, ,0.01124935041503107,0.01829496865800116,-0.0796042127005929, ,0.0022629916110393613, ,0.0010196170943525223,0.009955247212623882,-0.010256897089865744,-0.4028267199069564,-0.09501068552630731,-0.008585800283351548, ,0.014330055966242695, ,0.41387968846230466, ,0.0011176225707080205, ,0.16364470960481736,-0.2020035237910905,0.08741013099000002,-4.537900066948591,0.17065898820703512,-1.3871304323244806, ,-0.030299151200022596,-0.09885098079007372,0.011842982542750931,0.0,-0.1960062233385165,0.477756069424764, ,0.024914026260375977
0.011382247162068494,0.016469812126511735,-0.07827294521363812, ,0.011231975941842933,0.01843144897595445,-0.07970327573052655, ,0.0024323745509813926, ,0.0010196170943525223,0.009955247212623882,-0.010256897089865744,-0.4028267199069564,-0.09501068552630731,-0.008585800283351548, ,0.014330055966242695, ,0.41387968846230466, ,0.0011997945694751063, ,0.1632508502282319,-0.2031387655236015,0.08763309287000001,-4.537270997118139,0.1665598932140719,-1.3799489944269818, ,-0.05143465667125787,-0.13556705936924396,0.03847539014492755,0.0015074383604406323,-0.551935999052509,0.9538452477401309, ,0.027035951614379883
0.011420934390031993,0.016600485886325927,-0.07847561814139274, ,0.011214843356302311,0.018567440165557583,-0.07980192450842684, ,0.0023812751269029525, ,0.006696368848620837,0.017836214474441104,-0.035733321792618906,-0.8875466820658052,-0.35197031247638816,-0.06834057616537327, ,0.0404949649817097, ,0.9547890633282407, ,0.0012692934257943914, ,0.1632508502282319,-0.2031387655236015,0.08763309287000001,-4.537270997118139,0.1665598932140719,-1.3799489944269818, ,-0.05143465667125787,-0.13556705936924396,0.03847539014492755,0.0015074383604406323,-0.551935999052509,0.9538452477401309, ,0.028796911239624023
0.011420934390031993,0.016600485886325927,-0.07847561814139274, ,0.01119038154197221,0.018709324465624837,-0.07990180978864586, ,0.002556242825707778, ,0.006696368848620837,0.017836214474441104,-0.035733321792618906,-0.8875466820658052,-0.35197031247638816,-0.06834057616537327, ,0.0404949649817097, ,0.9547890633282407, ,0.0013407906146784684, ,0.1632508502282319,-0.2031387655236015,0.08763309287000001,-4.537270997118139,0.1665598932140719,-1.3799489944269818, ,-0.05143465667125787,-0.13556705936924396,0.03847539014492755,0.0015074383604406323,-0.551935999052509,0.9538452477401309, ,0.030627012252807617
0.011420934390031993,0.016600485886325927,-0.07847561814139274, ,0.011173722367887357,0.018844434279785348,-0.07999961454446883, ,0.002723781050853905, ,0.006696368848620837,0.017836214474441104,-0.035733321792618906,-0.8875466820658052,-0.35197031247638816,-0.06834057616537327, ,0.0404949649817097, ,0.9547890633282407, ,0.0014135795850034913, ,0.1632508502282319,-0.2031387655236015,0.08763309287000001,-4.537270997118139,0.1665598932140719,-1.3799489944269818, ,-0.05143465667125787,-0.13556705936924396,0.03847539014492755,0.0015074383604406323,-0.551935999052509,0.9538452477401309, ,0.03243684768676758
0.011420934390031993,0.016600485886325927,-0.07847561814139274, ,0.011157303454958273,0.01897905857152372,-0.08009700852059318, ,0.0028906774379824215, ,0.006696368848620837,0.017836214474441104,-0.035733321792618906,-0.8875466820658052,-0.35197031247638816,-0.06834057616537327, ,0.0404949649817097, ,0.9547890633282407, ,0.001487434477652438, ,0.1632508502282319,-0.2031387655236015,0.08763309287000001,-4.537270997118139,0.1665598932140719,-1.3799489944269818, ,-0.05143465667125787,-0.13556705936924396,0.03847539014492755,0.0015074383604406323,-0.551935999052509,0.9538452477401309, ,0.034193992614746094
0.011420934390031993,0.016600485886325927,-0.07847561814139274, ,0.011141124279609534,0.019113198466579058,-0.08019399287047155, ,0.0030569314546442863, ,0.006696368848620837,0.017836214474441104,-0.035733321792618906,-0.8875466820658052,-0.35197031247638816,-0.06834057616537327, ,0.0404949649817097, ,0.9547890633282407, ,0.0015621724289377641, ,0.1632508502282319,-0.2031387655236015,0.08763309287000001,-4.537270997118139,0.1665598932140719,-1.3799489944269818, ,-0.05143465667125787,-0.13556705936924396,0.03847539014492755,0.0015074383604406323,-0.551935999052509,0.9538452477401309, ,0.0359349250793457
0.01150936257379126,0.016842400156470223,-0.07902144487664665, ,0.0111251843187877,0.019246855089158472,-0.0802905687459929, ,0.00274584629043412, ,0.008402415621169007,0.02753044293549059,-0.06377115469073366,-0.5858375453016199,-0.22373592233631429,-0.11927982189083275, ,0.06996632080568944, ,0.6271063209273412, ,0.0016159757862785075, ,0.16259441793392282,-0.20476826216006289,0.08821642337,-4.5364322373442,0.1608211602239234,-1.370777111764001, ,-0.07288551578991612,-0.17671683716661224,0.06807184410256412,0.07733678138060116,-0.4260312887890719,0.7198186354378482, ,0.038923025131225586
0.01150936257379126,0.016842400156470223,-0.07902144487664665, ,0.01110948304996133,0.019380029561938232,-0.08038673729748616, ,0.0029092078006694834, ,0.008402415621169007,0.02753044293549059,-0.06377115469073366,-0.5858375453016199,-0.22373592233631429,-0.11927982189083275, ,0.06996632080568944, ,0.6271063209273412, ,0.0016722032651650717, ,0.16259441793392282,-0.20476826216006289,0.08821642337,-4.5364322373442,0.1608211602239234,-1.370777111764001, ,-0.07288551578991612,-0.17671683716661224,0.06807184410256412,0.07733678138060116,-0.4260312887890719,0.7198186354378482, ,0.040921926498413086
0.01150936257379126,0.016842400156470223,-0.07902144487664665, ,0.011094019951120734,0.019512723006064447,-0.08048249967371941, ,0.0030721026570284344, ,0.008402415621169007,0.02753044293549059,-0.06377115469073366,-0.5858375453016199,-0.22373592233631429,-0.11927982189083275, ,0.06996632080568944, ,0.6271063209273412, ,0.0017305324064927118, ,0.16259441793392282,-0.20476826216006289,0.08821642337,-4.5364322373442,0.1608211602239234,-1.370777111764001, ,-0.07288551578991612,-0.17671683716661224,0.06807184410256412,0.07733678138060116,-0.4260312887890719,0.7198186354378482, ,0.04268789291381836
0.01150936257379126,0.016842400156470223,-0.07902144487664665, ,0.011078794500777854,0.01964493654115432,-0.08057785702190186, ,0.0032345042616875, ,0.008402415621169007,0.02753044293549059,-0.06377115469073366,-0.5858375453016199,-0.22373592233631429,-0.11927982189083275, ,0.06996632080568944, ,0.6271063209273412, ,0.0017906912807005033, ,0.16259441793392282,-0.20476826216006289,0.08821642337,-4.5364322373442,0.1608211602239234,-1.370777111764001, ,-0.07288551578991612,-0.17671683716661224,0.06807184410256412,0.07733678138060116,-0.4260312887890719,0.7198186354378482, ,0.044432878494262695
0.01150936257379126,0.016842400156470223,-0.07902144487664665, ,0.011063806177966139,0.01977667128529679,-0.08067281048768343, ,0.003396391605901869, ,0.008402415621169007,0.02753044293549059,-0.06377115469073366,-0.5858375453016199,-0.22373592233631429,-0.11927982189083275, ,0.06996632080568944, ,0.6271063209273412, ,0.0018524489855159404, ,0.16259441793392282,-0.20476826216006289,0.08821642337,-4.5364322373442,0.1608211602239234,-1.370777111764001, ,-0.07288551578991612,-0.17671683716661224,0.06807184410256412,0.07733678138060116,-0.4260312887890719,0.7198186354378482, ,0.046133995056152344
0.011574650844894159,0.017155235357298043,-0.0797153609678336, ,0.011049054462240384,0.0199079283550538,-0.08076736121515667, ,0.0029933718141453955, ,0.005935664007725196,0.03546733655139807,-0.07783677114573694,-0.22441353934721628,0.03302378320406982,-0.018403098554503592, ,0.08574221254234443, ,0.2268240503309519, ,0.0018947053865762907, ,0.16172947185200967,-0.20681478637173237,0.08895919754,-4.5364322373442,0.1583617032281455,-1.3650960461911401, ,-0.09823699954293041,-0.22921966560017099,0.0833969189528796,0.038666500367709446,-0.13861871580431073,0.44166319236229024, ,0.04784393310546875
0.011574650844894159,0.017155235357298043,-0.0797153609678336, ,0.011034538833676659,0.02003870886546094,-0.08086151034685739, ,0.0031495712177969986, ,0.005935664007725196,0.03546733655139807,-0.07783677114573694,-0.22441353934721628,0.03302378320406982,-0.018403098554503592, ,0.08574221254234443, ,0.2268240503309519, ,0.0019395220234056016, ,0.16172947185200967,-0.20681478637173237,0.08895919754,-4.5364322373442,0.1583617032281455,-1.3650960461911401, ,-0.09823699954293041,-0.22921966560017099,0.0833969189528796,0.038666500367709446,-0.13861871580431073,0.44166319236229024, ,0.04964184761047363
0.011574650844894159,0.017155235357298043,-0.0797153609678336, ,0.011020258772872042,0.020169013930028606,-0.08095525902376524, ,0.0033056858659095086, ,0.005935664007725196,0.03546733655139807,-0.07783677114573694,-0.22441353934721628,0.03302378320406982,-0.018403098554503592, ,0.08574221254234443, ,0.2268240503309519, ,0.0019866311214229776, ,0.16172947185200967,-0.20681478637173237,0.08895919754,-4.5364322373442,0.1583617032281455,-1.3650960461911401, ,-0.09823699954293041,-0.22921966560017099,0.0833969189528796,0.038666500367709446,-0.13861871580431073,0.44166319236229024, ,0.05169105529785156
0.011574650844894159,0.017155235357298043,-0.0797153609678336, ,0.011006213760944645,0.020298844660742818,-0.0810486083853046, ,0.0034616396183465795, ,0.005935664007725196,0.03546733655139807,-0.07783677114573694,-0.22441353934721628,0.03302378320406982,-0.018403098554503592, ,0.08574221254234443, ,0.2268240503309519, ,0.002035798071320431, ,0.16172947185200967,-0.20681478637173237,0.08895919754,-4.5364322373442,0.1583617032281455,-1.3650960461911401, ,-0.09823699954293041,-0.22921966560017099,0.0833969189528796,0.038666500367709446,-0.13861871580431073,0.44166319236229024, ,0.05349302291870117
0.011574650844894159,0.017155235357298043,-0.0797153609678336, ,0.010992403279533238,0.020428202168066272,-0.08114155956934588, ,0.003617370097559087, ,0.005935664007725196,0.03546733655139807,-0.07783677114573694,-0.22441353934721628,0.03302378320406982,-0.018403098554503592, ,0.08574221254234443, ,0.2268240503309519, ,0.0020868165237797427, ,0.16172947185200967,-0.20681478637173237,0.08895919754,-4.5364322373442,0.1583617032281455,-1.3650960461911401, ,-0.09823699954293041,-0.22921966560017099,0.0833969189528796,0.038666500367709446,-0.13861871580431073,0.44166319236229024, ,0.055233001708984375
0.011574650844894159,0.017155235357298043,-0.0797153609678336, ,0.010978826810797414,0.020557087560939272,-0.08123411371220582, ,0.0037728258101274886, ,0.005638941591355034,0.04259759277235762,-0.08160887018443966,-0.17439865064466542,-0.011852003900339664,0.017255942403230074, ,0.09222993150301616, ,0.17479055902527768, ,0.0021395043139781095, ,0.16074868477698318,-0.20932467455585532,0.08977586024,-4.536222547400715,0.15685870173072564,-1.3606849783849975, ,-0.1111205404665934,-0.30126013193165324,0.08849339733333335,0.0,-0.18061031876078215,0.4628305652109922, ,0.05773305892944336
0.011635143944545345,0.017555173511520184,-0.08053022303529164, ,0.010965483837417179,0.020685501946780524,-0.0813262719486486, ,0.0032986504276954144, ,0.005638941591355034,0.04259759277235762,-0.08160887018443966,-0.17439865064466542,-0.011852003900339664,0.017255942403230074, ,0.09222993150301616, ,0.17479055902527768, ,0.002174629953787725, ,0.16074868477698318,-0.20932467455585532,0.08977586024,-4.536222547400715,0.15685870173072564,-1.3606849783849975, ,-0.1111205404665934,-0.30126013193165324,0.08849339733333335,0.0,-0.18061031876078215,0.4628305652109922, ,0.05960988998413086
0.011635143944545345,0.017555173511520184,-0.08053022303529164, ,0.010952373842592974,0.020813446431488324,-0.08141803541188677, ,0.003445392321514816, ,0.005638941591355034,0.04259759277235762,-0.08160887018443966,-0.17439865064466542,-0.011852003900339664,0.017255942403230074, ,0.09222993150301616, ,0.17479055902527768, ,0.0022120053175444044, ,0.16074868477698318,-0.20932467455585532,0.08977586024,-4.536222547400715,0.15685870173072564,-1.3606849783849975, ,-0.1111205404665934,-0.30126013193165324,0.08849339733333335,0.0,-0.18061031876078215,0.4628305652109922, ,0.061328887939453125
0.011635143944545345,0.017555173511520184,-0.08053022303529164, ,0.010939496310045434,0.02094092211944138,-0.08150940523358217, ,0.0035924945434718096, ,0.005638941591355034,0.04259759277235762,-0.08160887018443966,-0.17439865064466542,-0.011852003900339664,0.017255942403230074, ,0.09222993150301616, ,0.17479055902527768, ,0.0022514478668566157, ,0.16074868477698318,-0.20932467455585532,0.08977586024,-4.536222547400715,0.15685870173072564,-1.3606849783849975, ,-0.1111205404665934,-0.30126013193165324,0.08849339733333335,0.0,-0.18061031876078215,0.4628305652109922, ,0.06314706802368164
0.011635143944545345,0.017555173511520184,-0.08053022303529164, ,0.010926850724015353,0.02106793011349976,-0.08160038254384647, ,0.0037398368419959377, ,0.005638941591355034,0.04259759277235762,-0.08160887018443966,-0.17439865064466542,-0.011852003900339664,0.017255942403230074, ,0.09222993150301616, ,0.17479055902527768, ,0.0022927920050549305, ,0.16074868477698318,-0.20932467455585532,0.08977586024,-4.536222547400715,0.15685870173072564,-1.3606849783849975, ,-0.1111205404665934,-0.30126013193165324,0.08849339733333335,0.0,-0.18061031876078215,0.4628305652109922, ,0.06482505798339844
0.011635143944545345,0.017555173511520184,-0.08053022303529164, ,0.010914436569263448,0.021194471515005826,-0.08169096847124219, ,0.0038873177186898827, ,0.005638941591355034,0.04259759277235762,-0.08160887018443966,-0.17439865064466542,-0.011852003900339664,0.017255942403230074, ,0.09222993150301616, ,0.17479055902527768, ,0.002335887294612632, ,0.16074868477698318,-0.20932467455585532,0.08977586024,-4.536222547400715,0.15685870173072564,-1.3606849783849975, ,-0.1111205404665934,-0.30126013193165324,0.08849339733333335,0.0,-0.18061031876078215,0.4628305652109922, ,0.06644797325134277
0.011688376374086573,0.017992499889970943,-0.08130074548966529, ,0.0109022533310702,0.021320547423785318,-0.08178116414278373, ,0.0034532147208584363, ,0.005422050420979288,0.048341915300409564,-0.07846250475936868,0.015605282571239235,-0.14431660928334833,-0.025259284122538583, ,0.09231849250715464, ,0.14514763093295968, ,0.00236529064793489, ,0.15954393844860415,-0.21275356795201103,0.09068067066,-4.5358031675137465,0.15426260823518226,-1.3569344634119545, ,-0.12166274558778303,-0.37069117796277645,0.08656962782608697,0.01837655277177064,-0.3247561526339907,0.3107112462194759, ,0.06811785697937012
0.011688376374086573,0.017992499889970943,-0.08130074548966529, ,0.01089030049523592,0.021446158938147924,-0.08187097068393806, ,0.0035902427079017086, ,0.005422050420979288,0.048341915300409564,-0.07846250475936868,0.015605282571239235,-0.14431660928334833,-0.025259284122538583, ,0.09231849250715464, ,0.14514763093295968, ,0.0023966996751135262, ,0.15954393844860415,-0.21275356795201103,0.09068067066,-4.5358031675137465,0.15426260823518226,-1.3569344634119545, ,-0.12166274558778303,-0.37069117796277645,0.08656962782608697,0.01837655277177064,-0.3247561526339907,0.3107112462194759, ,0.06979203224182129
0.011688376374086573,0.017992499889970943,-0.08130074548966529, ,0.01087857754808038,0.02157130715488881,-0.08196038921862542, ,0.003728104803675233, ,0.005422050420979288,0.048341915300409564,-0.07846250475936868,0.015605282571239235,-0.14431660928334833,-0.025259284122538583, ,0.09231849250715464, ,0.14514763093295968, ,0.002429984803327569, ,0.15954393844860415,-0.21275356795201103,0.09068067066,-4.5358031675137465,0.15426260823518226,-1.3569344634119545, ,-0.12166274558778303,-0.37069117796277645,0.08656962782608697,0.01837655277177064,-0.3247561526339907,0.3107112462194759, ,0.07163286209106445
0.011688376374086573,0.017992499889970943,-0.08130074548966529, ,0.010867083976442692,0.021695993169289097,-0.0820494208692208, ,0.0038666391732789037, ,0.005422050420979288,0.048341915300409564,-0.07846250475936868,0.015605282571239235,-0.14431660928334833,-0.025259284122538583, ,0.09231849250715464, ,0.14514763093295968, ,0.002465025153814187, ,0.15954393844860415,-0.21275356795201103,0.09068067066,-4.5358031675137465,0.15426260823518226,-1.3569344634119545, ,-0.12166274558778303,-0.37069117796277645,0.08656962782608697,0.01837655277177064,-0.3247561526339907,0.3107112462194759, ,0.07346105575561523
0.011688376374086573,0.017992499889970943,-0.08130074548966529, ,0.010855819267681324,0.021820218075117016,-0.08213806675655379, ,0.004005706522488584, ,0.005422050420979288,0.048341915300409564,-0.07846250475936868,0.015605282571239235,-0.14431660928334833,-0.025259284122538583, ,0.09231849250715464, ,0.14514763093295968, ,0.0025017080435445296, ,0.15954393844860415,-0.21275356795201103,0.09068067066,-4.5358031675137465,0.15426260823518226,-1.3569344634119545, ,-0.12166274558778303,-0.37069117796277645,0.08656962782608697,0.01837655277177064,-0.3247561526339907,0.3107112462194759, ,0.07521700859069824
0.0117345270692238,0.018516410265834463,-0.08202779384672089, ,0.010844782909673814,0.02194398296462871,-0.08222632799991031, ,0.003546733015742183, ,0.005422050420979288,0.048341915300409564,-0.07846250475936868,0.015605282571239235,-0.14431660928334833,-0.025259284122538583, ,0.09231849250715464, ,0.14514763093295968, ,0.0025260109498747075, ,0.15820018292848909,-0.21704740743007986,0.09149733336,-4.534754717796323,0.1496169672431573,-1.3536363271271195, ,-0.14017273494604252,-0.45843933120034197,0.07111076571428573,0.08845448526230663,-0.47189131790830025,0.28025630610515784, ,0.07724404335021973
0.0117345270692238,0.018516410265834463,-0.08202779384672089, ,0.01083397439081669,0.02206728892856949,-0.08231420571703335, ,0.0036744749507254767, ,0.002372953113244235,0.052816888932635225,-0.06192720423410204,0.1222916700214272,-0.2555229764905876,-0.11726105414246206, ,0.08142624446241008, ,0.2832778376507166, ,0.002552112404439498, ,0.15820018292848909,-0.21704740743007986,0.09149733336,-4.534754717796323,0.1496169672431573,-1.3536363271271195, ,-0.14017273494604252,-0.45843933120034197,0.07111076571428573,0.08845448526230663,-0.47189131790830025,0.28025630610515784, ,0.07943606376647949
0.0117345270692238,0.018516410265834463,-0.08202779384672089, ,0.01082339320002534,0.022190137056174352,-0.08240170102412325, ,0.0038034510690916723, ,0.002372953113244235,0.052816888932635225,-0.06192720423410204,0.1222916700214272,-0.2555229764905876,-0.11726105414246206, ,0.08142624446241008, ,0.2832778376507166, ,0.0025799199303206577, ,0.15820018292848909,-0.21704740743007986,0.09149733336,-4.534754717796323,0.1496169672431573,-1.3536363271271195, ,-0.14017273494604252,-0.45843933120034197,0.07111076571428573,0.08845448526230663,-0.47189131790830025,0.28025630610515784, ,0.08115792274475098
0.0117345270692238,0.018516410265834463,-0.08202779384672089, ,0.01081303882673383,0.02231252843516925,-0.0824888150358392, ,0.003933471021047061, ,0.002372953113244235,0.052816888932635225,-0.06192720423410204,0.1222916700214272,-0.2555229764905876,-0.11726105414246206, ,0.08142624446241008, ,0.2832778376507166, ,0.002609344954032101, ,0.15820018292848909,-0.21704740743007986,0.09149733336,-4.534754717796323,0.1496169672431573,-1.3536363271271195, ,-0.14017273494604252,-0.45843933120034197,0.07111076571428573,0.08845448526230663,-0.47189131790830025,0.28025630610515784, ,0.0828409194946289
0.0117345270692238,0.018516410265834463,-0.08202779384672089, ,0.010802910760894796,0.022434464151772,-0.08257554886530005, ,0.004064368433032794, ,0.002372953113244235,0.052816888932635225,-0.06192720423410204,0.1222916700214272,-0.2555229764905876,-0.11726105414246206, ,0.08142624446241008, ,0.2832778376507166, ,0.002640302900393818, ,0.15820018292848909,-0.21704740743007986,0.09149733336,-4.534754717796323,0.1496169672431573,-1.3536363271271195, ,-0.14017273494604252,-0.45843933120034197,0.07111076571428573,0.08845448526230663,-0.47189131790830025,0.28025630610515784, ,0.08454585075378418
0.0117345270692238,0.018516410265834463,-0.08202779384672089, ,0.01079300849297929,0.02255594529069306,-0.08266190362408454, ,0.0041959975758121, ,0.002372953113244235,0.052816888932635225,-0.06192720423410204,0.1222916700214272,-0.2555229764905876,-0.11726105414246206, ,0.08142624446241008, ,0.2832778376507166, ,0.0026727132061316987, ,0.15820018292848909,-0.21704740743007986,0.09149733336,-4.534754717796323,0.1496169672431573,-1.3536363271271195, ,-0.14017273494604252,-0.45843933120034197,0.07111076571428573,0.08845448526230663,-0.47189131790830025,0.28025630610515784, ,0.08627796173095703
0.011736161909287527,0.01907288326540567,-0.08257921449126933, ,0.010783331513976662,0.022676972935136704,-0.08274788042223305, ,0.0037317283269228062, ,-0.0021598581941509962,0.05861735230588778,-0.04698404621583985,0.009873983333709195,-0.27761499175852317,-0.06658294282788803, ,0.07515423858694587, ,0.2777901190466194, ,0.0026943257596172315, ,0.15664019088789574,-0.22211352019557112,0.09214677465000001,-4.534545027852839,0.144561416751836,-1.3505756883121791, ,-0.16795918859906334,-0.5517264044097138,0.05834729494505495,0.03626267653495297,-0.5405632031930884,0.4477271836420089, ,0.08800792694091797
0.011736161909287527,0.01907288326540567,-0.08257921449126933, ,0.010773879315394369,0.022797548166801615,-0.08283348036824739, ,0.003855355697519497, ,-0.0021598581941509962,0.05861735230588778,-0.04698404621583985,0.009873983333709195,-0.27761499175852317,-0.06658294282788803, ,0.07515423858694587, ,0.2777901190466194, ,0.002717546358375277, ,0.15664019088789574,-0.22211352019557112,0.09214677465000001,-4.534545027852839,0.144561416751836,-1.3505756883121791, ,-0.16795918859906334,-0.5517264044097138,0.05834729494505495,0.03626267653495297,-0.5405632031930884,0.4477271836420089, ,0.0897209644317627
0.011736161909287527,0.01907288326540567,-0.08257921449126933, ,0.010764651389257886,0.02291767206588247,-0.08291870456909303, ,0.003980136570991107, ,-0.0021598581941509962,0.05861735230588778,-0.04698404621583985,0.009873983333709195,-0.27761499175852317,-0.06658294282788803, ,0.07515423858694587, ,0.2777901190466194, ,0.0027423030292108813, ,0.15664019088789574,-0.22211352019557112,0.09214677465000001,-4.534545027852839,0.144561416751836,-1.3505756883121791, ,-0.16795918859906334,-0.5517264044097138,0.05834729494505495,0.03626267653495297,-0.5405632031930884,0.4477271836420089, ,0.09148192405700684
0.011736161909287527,0.01907288326540567,-0.08257921449126933, ,0.01075564722811055,0.023037345711070113,-0.08300355413019868, ,0.00410590253808514, ,-0.0021598581941509962,0.05861735230588778,-0.04698404621583985,0.009873983333709195,-0.27761499175852317,-0.06658294282788803, ,0.07515423858694587, ,0.2777901190466194, ,0.0027685260966892325, ,0.15664019088789574,-0.22211352019557112,0.09214677465000001,-4.534545027852839,0.144561416751836,-1.3505756883121791, ,-0.16795918859906334,-0.5517264044097138,0.05834729494505495,0.03626267653495297,-0.5405632031930884,0.4477271836420089, ,0.09314894676208496
0.011736161909287527,0.01907288326540567,-0.08257921449126933, ,0.010746866325013408,0.02315657017955311,-0.08308803015545785, ,0.004232504925687262, ,-0.0021598581941509962,0.05861735230588778,-0.04698404621583985,0.009873983333709195,-0.27761499175852317,-0.06658294282788803, ,0.07515423858694587, ,0.2777901190466194, ,0.0027961483387457992, ,0.15664019088789574,-0.22211352019557112,0.09214677465000001,-4.534545027852839,0.144561416751836,-1.3505756883121791, ,-0.16795918859906334,-0.5517264044097138,0.05834729494505495,0.03626267653495297,-0.5405632031930884,0.4477271836420089, ,0.09493303298950195
0.011736161909287527,0.01907288326540567,-0.08257921449126933, ,0.01073830817354512,0.02327534654701835,-0.0831721337472295, ,0.004359812261477122, ,-0.0021598581941509962,0.05861735230588778,-0.04698404621583985,0.009873983333709195,-0.27761499175852317,-0.06658294282788803, ,0.07515423858694587, ,0.2777901190466194, ,0.002825105078055639, ,0.15510336704592506,-0.22694795097483567,0.09261343905000001,-4.534335337909355,0.1401890487593419,-1.3457034555516447, ,-0.19647399908586083,-0.6122383326352954,0.05381355243243244,-0.011505267316246605,-0.49571576885672636,0.6251326334890831, ,0.09803199768066406
0.01170451651150329,0.019575586067742148,-0.08295525981482979, ,0.010729972267801738,0.023393675887652312,-0.08325586600633901, ,0.003951950206949366, ,-0.0055861184700432606,0.06275116926144504,-0.042369830416266574,-0.0854880121653477,-0.19431420020825288,-0.0020211412213045218, ,0.07592177877752254, ,0.21228771061720633, ,0.002845593171308252, ,0.15510336704592506,-0.22694795097483567,0.09261343905000001,-4.534335337909355,0.1401890487593419,-1.3457034555516447, ,-0.19647399908586083,-0.6122383326352954,0.05381355243243244,-0.011505267316246605,-0.49571576885672636,0.6251326334890831, ,0.09994196891784668
0.01170451651150329,0.019575586067742148,-0.08295525981482979, ,0.01072185810239665,0.023511559274141516,-0.08333922803207892, ,0.004074915241123329, ,-0.0055861184700432606,0.06275116926144504,-0.042369830416266574,-0.0854880121653477,-0.19431420020825288,-0.0020211412213045218, ,0.07592177877752254, ,0.21228771061720633, ,0.002867545351126378, ,0.15510336704592506,-0.22694795097483567,0.09261343905000001,-4.534335337909355,0.1401890487593419,-1.3457034555516447, ,-0.19647399908586083,-0.6122383326352954,0.05381355243243244,-0.011505267316246605,-0.49571576885672636,0.6251326334890831, ,0.10174298286437988
0.01170451651150329,0.019575586067742148,-0.08295525981482979, ,0.010713965172460338,0.02362899777767393,-0.08342222092220969, ,0.004198736848302993, ,-0.0055861184700432606,0.06275116926144504,-0.042369830416266574,-0.0854880121653477,-0.19431420020825288,-0.0020211412213045218, ,0.07592177877752254, ,0.21228771061720633, ,0.0028908995879189502, ,0.15510336704592506,-0.22694795097483567,0.09261343905000001,-4.534335337909355,0.1401890487593419,-1.3457034555516447, ,-0.19647399908586083,-0.6122383326352954,0.05381355243243244,-0.011505267316246605,-0.49571576885672636,0.6251326334890831, ,0.1035468578338623
0.01170451651150329,0.019575586067742148,-0.08295525981482979, ,0.010706292973640433,0.023745992467939882,-0.08350484577296101, ,0.004323283994804027, ,-0.0055861184700432606,0.06275116926144504,-0.042369830416266574,-0.0854880121653477,-0.19431420020825288,-0.0020211412213045218, ,0.07592177877752254, ,0.21228771061720633, ,0.0029155958707962793, ,0.15510336704592506,-0.22694795097483567,0.09261343905000001,-4.534335337909355,0.1401890487593419,-1.3457034555516447, ,-0.19647399908586083,-0.6122383326352954,0.05381355243243244,-0.011505267316246605,-0.49571576885672636,0.6251326334890831, ,0.10523486137390137
0.01158835701422248,0.020377181199292257,-0.08342552007247697, ,0.010698841002101295,0.023862544413132642,-0.083587103679032, ,0.0036007089204931684, ,-0.013095192682474128,0.06933324360146292,-0.03504957685937955,0.15297326101396028,0.15217317624345855,0.07621322605893939, ,0.07878486896424007, ,0.21577173415059778, ,0.002927207956384362, ,0.15260892432755055,-0.23438494273271387,0.09319806584000001,-4.534545027852839,0.1360899537663787,-1.3380319452133023, ,-0.23316201857118127,-0.6876589968005129,0.04871196183486239,0.0,-0.17248349363208768,0.504798538507489, ,0.10744190216064453
0.01158835701422248,0.020377181199292257,-0.08342552007247697, ,0.010691608754524112,0.02397865467994984,-0.08366899573359281, ,0.003719415151701635, ,-0.013095192682474128,0.06933324360146292,-0.03504957685937955,0.15297326101396028,0.15217317624345855,0.07621322605893939, ,0.07878486896424007, ,0.21577173415059778, ,0.00294041140963965, ,0.15260892432755055,-0.23438494273271387,0.09319806584000001,-4.534545027852839,0.1360899537663787,-1.3380319452133023, ,-0.23316201857118127,-0.6876589968005129,0.04871196183486239,0.0,-0.17248349363208768,0.504798538507489, ,0.10946798324584961
0.01158835701422248,0.020377181199292257,-0.08342552007247697, ,0.010684595728106653,0.024094324333593993,-0.08375052302828437, ,0.003839214042542016, ,-0.013095192682474128,0.06933324360146292,-0.03504957685937955,0.15297326101396028,0.15217317624345855,0.07621322605893939, ,0.07878486896424007, ,0.21577173415059778, ,0.0029551458790314914, ,0.15260892432755055,-0.23438494273271387,0.09319806584000001,-4.534545027852839,0.1360899537663787,-1.3380319452133023, ,-0.23316201857118127,-0.6876589968005129,0.04871196183486239,0.0,-0.17248349363208768,0.504798538507489, ,0.11116194725036621
0.01158835701422248,0.020377181199292257,-0.08342552007247697, ,0.010677801420563128,0.02420955443777366,-0.08383168665322102, ,0.003959945380871568, ,-0.013095192682474128,0.06933324360146292,-0.03504957685937955,0.15297326101396028,0.15217317624345855,0.07621322605893939, ,0.07878486896424007, ,0.21577173415059778, ,0.0029713523226095576, ,0.15260892432755055,-0.23438494273271387,0.09319806584000001,-4.534545027852839,0.1360899537663787,-1.3380319452133023, ,-0.23316201857118127,-0.6876589968005129,0.04871196183486239,0.0,-0.17248349363208768,0.504798538507489, ,0.11285090446472168
0.01158835701422248,0.020377181199292257,-0.08342552007247697, ,0.010671225330124075,0.02432434605470463,-0.08391248769698963, ,0.00408146767586162, ,-0.013095192682474128,0.06933324360146292,-0.03504957685937955,0.15297326101396028,0.15217317624345855,0.07621322605893939, ,0.07878486896424007, ,0.21577173415059778, ,0.0029889732012326063, ,0.15260892432755055,-0.23438494273271387,0.09319806584000001,-4.534545027852839,0.1360899537663787,-1.3380319452133023, ,-0.23316201857118127,-0.6876589968005129,0.04871196183486239,0.0,-0.17248349363208768,0.504798538507489, ,0.11458587646484375
0.01158835701422248,0.020377181199292257,-0.08342552007247697, ,0.010664866955536242,0.024438700245110277,-0.08399292724665082, ,0.004203655760090111, ,-0.013095192682474128,0.06933324360146292,-0.03504957685937955,0.15297326101396028,0.15217317624345855,0.07621322605893939, ,0.07878486896424007, ,0.21577173415059778, ,0.0030079526162147545, ,0.15260892432755055,-0.23438494273271387,0.09319806584000001,-4.534545027852839,0.1360899537663787,-1.3380319452133023, ,-0.23316201857118127,-0.6876589968005129,0.04871196183486239,0.0,-0.17248349363208768,0.504798538507489, ,0.1164548397064209
0.011433972508722983,0.02108596656970538,-0.0837515728653439, ,0.010658725796062337,0.02455261806822317,-0.08407300638774129, ,0.003566791217184929, ,-0.01742751807222203,0.07432126674076377,-0.03214911480784799,0.398363925941477,0.28980496315432275,0.07275100720669167, ,0.08283075913594885, ,0.49262632878972457, ,0.0030165501331527573, ,0.14996774968456575,-0.2419841118809508,0.09369324862,-4.533915958022385,0.13527013476778604,-1.3343413244059228, ,-0.26433688456398546,-0.7472200122714234,0.04657547228070176,0.04058645574232468,-0.033534494651879805,0.3450881520625337, ,0.11815404891967773
0.011433972508722983,0.02108596656970538,-0.0837515728653439, ,0.010652801351481037,0.02466610058178542,-0.08415272620427207, ,0.00368625988268492, ,-0.01742751807222203,0.07432126674076377,-0.03214911480784799,0.398363925941477,0.28980496315432275,0.07275100720669167, ,0.08283075913594885, ,0.49262632878972457, ,0.0030266972505699112, ,0.14996774968456575,-0.2419841118809508,0.09369324862,-4.533915958022385,0.13527013476778604,-1.3343413244059228, ,-0.26433688456398546,-0.7472200122714234,0.04657547228070176,0.04058645574232468,-0.033534494651879805,0.3450881520625337, ,0.1198129653930664
0.011433972508722983,0.02108596656970538,-0.0837515728653439, ,0.010647093122086743,0.02477914884205015,-0.08423208777873219, ,0.0038065297907494745, ,-0.01742751807222203,0.07432126674076377,-0.03214911480784799,0.398363925941477,0.28980496315432275,0.07275100720669167, ,0.08283075913594885, ,0.49262632878972457, ,0.0030383365422143823, ,0.14996774968456575,-0.2419841118809508,0.09369324862,-4.533915958022385,0.13527013476778604,-1.3343413244059228, ,-0.26433688456398546,-0.7472200122714234,0.04657547228070176,0.04058645574232468,-0.033534494651879805,0.3450881520625337, ,0.12148594856262207
0.011433972508722983,0.02108596656970538,-0.0837515728653439, ,0.010641600608689487,0.02489176390378203,-0.08431109219208738, ,0.003927468453473189, ,-0.01742751807222203,0.07432126674076377,-0.03214911480784799,0.398363925941477,0.28980496315432275,0.07275100720669167, ,0.08283075913594885, ,0.49262632878972457, ,0.0030514120114976, ,0.14996774968456575,-0.2419841118809508,0.09369324862,-4.533915958022385,0.13527013476778604,-1.3343413244059228, ,-0.26433688456398546,-0.7472200122714234,0.04657547228070176,0.04058645574232468,-0.033534494651879805,0.3450881520625337, ,0.1231389045715332
0.011433972508722983,0.02108596656970538,-0.0837515728653439, ,0.01063632331261474,0.025003946820258426,-0.08438974052378181, ,0.004048959303827584, ,-0.01742751807222203,0.07432126674076377,-0.03214911480784799,0.398363925941477,0.28980496315432275,0.07275100720669167, ,0.08283075913594885, ,0.49262632878972457, ,0.0030658692186328173, ,0.14996774968456575,-0.2419841118809508,0.09369324862,-4.533915958022385,0.13527013476778604,-1.3343413244059228, ,-0.26433688456398546,-0.7472200122714234,0.04657547228070176,0.04058645574232468,-0.033534494651879805,0.3450881520625337, ,0.12498188018798828
0.011433972508722983,0.02108596656970538,-0.0837515728653439, ,0.010631260735703366,0.025115698643270463,-0.08446803385173918, ,0.00417089955768416, ,-0.01742751807222203,0.07432126674076377,-0.03214911480784799,0.398363925941477,0.28980496315432275,0.07275100720669167, ,0.08283075913594885, ,0.49262632878972457, ,0.0030816553663335507, ,0.14996774968456575,-0.2419841118809508,0.09369324862,-4.533915958022385,0.13527013476778604,-1.3343413244059228, ,-0.26433688456398546,-0.7472200122714234,0.04657547228070176,0.04058645574232468,-0.033534494651879805,0.3450881520625337, ,0.1268448829650879
0.011267735049240378,0.021840958164013154,-0.08407786980239228, ,0.010626412380311383,0.0252270204231236,-0.0845459732523632, ,0.0034779064432685696, ,-0.016727345739500913,0.07973138410411218,-0.03580093796679936,0.30383537470955246,0.1751766605875163,0.007693476919427288, ,0.08898654317338597, ,0.35071746253453806, ,0.0030872363674171424, ,0.14729568411008406,-0.2495446673648166,0.09416898705000001,-4.5330771982484475,0.1337671332703662,-1.330011935339921, ,-0.2774764373054701,-0.7908078463205898,0.05188537954397395,0.07274026201241557,-0.1937667985132986,0.46614594804555143, ,0.12887096405029297
0.011267735049240378,0.021840958164013154,-0.08407786980239228, ,0.010621777749309882,0.025337913208639044,-0.08462355980053819, ,0.0035977399838710467, ,-0.016727345739500913,0.07973138410411218,-0.03580093796679936,0.30383537470955246,0.1751766605875163,0.007693476919427288, ,0.08898654317338597, ,0.35071746253453806, ,0.003094326695423447, ,0.14729568411008406,-0.2495446673648166,0.09416898705000001,-4.5330771982484475,0.1337671332703662,-1.330011935339921, ,-0.2774764373054701,-0.7908078463205898,0.05188537954397395,0.07274026201241557,-0.1937667985132986,0.46614594804555143, ,0.13068199157714844
0.011267735049240378,0.021840958164013154,-0.08407786980239228, ,0.010617356346084862,0.02544837804715431,-0.08470079456963074, ,0.0037181320493548217, ,-0.016727345739500913,0.07973138410411218,-0.03580093796679936,0.30383537470955246,0.1751766605875163,0.007693476919427288, ,0.08898654317338597, ,0.35071746253453806, ,0.0031028719742444244, ,0.14729568411008406,-0.2495446673648166,0.09416898705000001,-4.5330771982484475,0.1337671332703662,-1.330011935339921, ,-0.2774764373054701,-0.7908078463205898,0.05188537954397395,0.07274026201241557,-0.1937667985132986,0.46614594804555143, ,0.13258600234985352
0.011267735049240378,0.021840958164013154,-0.08407786980239228, ,0.010613147674537094,0.02555841598452441,-0.08477767863148954, ,0.00383897247654678, ,-0.016727345739500913,0.07973138410411218,-0.03580093796679936,0.30383537470955246,0.1751766605875163,0.007693476919427288, ,0.08898654317338597, ,0.35071746253453806, ,0.0031128192783295913, ,0.14729568411008406,-0.2495446673648166,0.09416898705000001,-4.5330771982484475,0.1337671332703662,-1.330011935339921, ,-0.2774764373054701,-0.7908078463205898,0.05188537954397395,0.07274026201241557,-0.1937667985132986,0.46614594804555143, ,0.13429594039916992
0.011267735049240378,0.021840958164013154,-0.08407786980239228, ,0.010609151239082003,0.02566802806512266,-0.0848542130564475, ,0.00396016483382928, ,-0.016727345739500913,0.07973138410411218,-0.03580093796679936,0.30383537470955246,0.1751766605875163,0.007693476919427288, ,0.08898654317338597, ,0.35071746253453806, ,0.0031241172190695867, ,0.14729568411008406,-0.2495446673648166,0.09416898705000001,-4.5330771982484475,0.1337671332703662,-1.330011935339921, ,-0.2774764373054701,-0.7908078463205898,0.05188537954397395,0.07274026201241557,-0.1937667985132986,0.46614594804555143, ,0.13599586486816406
0.011109731818573896,0.022647817022106803,-0.08445493730258119, ,0.010605366544649457,0.025777215331841616,-0.08493039891332134, ,0.0032052428697057563, ,-0.015341190098768052,0.08378012680840796,-0.03900336566602705,0.24713591931923956,0.09203706674406839,0.060670075545774645, ,0.09367883589668093, ,0.2637174510901406, ,0.0031251846618411154, ,0.14455411393973439,-0.2574681912937709,0.09471213256000001,-4.532867508304963,0.13130767627458828,-1.3245759059874818, ,-0.2719110073308618,-0.8180770824006101,0.05668616199288257,0.0,-0.2658732080946528,0.5303193064151435, ,0.13794898986816406
0.011109731818573896,0.022647817022106803,-0.08445493730258119, ,0.010601793096683758,0.02588597882609436,-0.08500623726941323, ,0.0033237968150036396, ,-0.015341190098768052,0.08378012680840796,-0.03900336566602705,0.24713591931923956,0.09203706674406839,0.060670075545774645, ,0.09367883589668093, ,0.2637174510901406, ,0.0031277640404536156, ,0.14455411393973439,-0.2574681912937709,0.09471213256000001,-4.532867508304963,0.13130767627458828,-1.3245759059874818, ,-0.2719110073308618,-0.8180770824006101,0.05668616199288257,0.0,-0.2658732080946528,0.5303193064151435, ,0.13969683647155762
0.011109731818573896,0.022647817022106803,-0.08445493730258119, ,0.010598430401143364,0.025994319587814823,-0.08508172919051153, ,0.0034428733105550243, ,-0.015341190098768052,0.08378012680840796,-0.03900336566602705,0.24713591931923956,0.09203706674406839,0.060670075545774645, ,0.09367883589668093, ,0.2637174510901406, ,0.003131803902890813, ,0.14455411393973439,-0.2574681912937709,0.09471213256000001,-4.532867508304963,0.13130767627458828,-1.3245759059874818, ,-0.2719110073308618,-0.8180770824006101,0.05668616199288257,0.0,-0.2658732080946528,0.5303193064151435, ,0.14140987396240234
0.011109731818573896,0.022647817022106803,-0.08445493730258119, ,0.01059527796450081,0.026102238655459385,-0.08515687574089115, ,0.0035623600548122573, ,-0.015341190098768052,0.08378012680840796,-0.03900336566602705,0.24713591931923956,0.09203706674406839,0.060670075545774645, ,0.09367883589668093, ,0.2637174510901406, ,0.0031372539807632363, ,0.14455411393973439,-0.2574681912937709,0.09471213256000001,-4.532867508304963,0.13130767627458828,-1.3245759059874818, ,-0.2719110073308618,-0.8180770824006101,0.05668616199288257,0.0,-0.2658732080946528,0.5303193064151435, ,0.14315199851989746
0.011109731818573896,0.022647817022106803,-0.08445493730258119, ,0.010592335293742587,0.026209737066007297,-0.08523167798331566, ,0.003682159644577548, ,-0.015341190098768052,0.08378012680840796,-0.03900336566602705,0.24713591931923956,0.09203706674406839,0.060670075545774645, ,0.09367883589668093, ,0.2637174510901406, ,0.0031440653015609153, ,0.14455411393973439,-0.2574681912937709,0.09471213256000001,-4.532867508304963,0.13130767627458828,-1.3245759059874818, ,-0.2719110073308618,-0.8180770824006101,0.05668616199288257,0.0,-0.2658732080946528,0.5303193064151435, ,0.14499592781066895
0.011109731818573896,0.022647817022106803,-0.08445493730258119, ,0.010589601896368945,0.02631681585496207,-0.08530613697903616, ,0.0038021873258248717, ,-0.015341190098768052,0.08378012680840796,-0.03900336566602705,0.24713591931923956,0.09203706674406839,0.060670075545774645, ,0.09367883589668093, ,0.2637174510901406, ,0.003152190264823433, ,0.14455411393973439,-0.2574681912937709,0.09471213256000001,-4.532867508304963,0.13130767627458828,-1.3245759059874818, ,-0.2719110073308618,-0.8180770824006101,0.05668616199288257,0.0,-0.2658732080946528,0.5303193064151435, ,0.14681696891784668
0.010954492551066432,0.02356071364668409,-0.08488192849017322, ,0.010587077280393833,0.02642347605635207,-0.08538025378779411, ,0.002928947028810934, ,-0.014094853244137272,0.08823014710558322,-0.04144949865094194,0.35321349176696937,0.061223359294116556,0.05528916024635296, ,0.09849509980024924, ,0.3584800526411509, ,0.003149467786335476, ,0.14192838476249803,-0.2657006245376943,0.09529287048000001,-4.5330771982484475,0.1287115827790449,-1.3197635673926111, ,-0.2607058834023922,-0.8472941210577749,0.06102992919540231,0.0008790570711125061,-0.2738524399148152,0.46795220143796146, ,0.14855194091796875
0.010954492551066432,0.02356071364668409,-0.08488192849017322, ,0.01058476095434468,0.026529718702731606,-0.08545402946782119, ,0.0030461437925803666, ,-0.014094853244137272,0.08823014710558322,-0.04144949865094194,0.35321349176696937,0.061223359294116556,0.05528916024635296, ,0.09849509980024924, ,0.3584800526411509, ,0.003148222918940836, ,0.14192838476249803,-0.2657006245376943,0.09529287048000001,-4.5330771982484475,0.1287115827790449,-1.3197635673926111, ,-0.2607058834023922,-0.8472941210577749,0.06102992919540231,0.0008790570711125061,-0.2738524399148152,0.46795220143796146, ,0.15022802352905273
0.010954492551066432,0.02356071364668409,-0.08488192849017322, ,0.010582652427262283,0.026635544825181958,-0.08552746507584008, ,0.003163790343459521, ,-0.014094853244137272,0.08823014710558322,-0.04144949865094194,0.35321349176696937,0.061223359294116556,0.05528916024635296, ,0.09849509980024924, ,0.3584800526411509, ,0.003148408245423202, ,0.14192838476249803,-0.2657006245376943,0.09529287048000001,-4.5330771982484475,0.1287115827790449,-1.3197635673926111, ,-0.2607058834023922,-0.8472941210577749,0.06102992919540231,0.0008790570711125061,-0.2738524399148152,0.46795220143796146, ,0.1519010066986084
0.010954492551066432,0.02356071364668409,-0.08488192849017322, ,0.010580751208700698,0.02674095545331238,-0.08560056166706585, ,0.0032817760713599164, ,-0.014094853244137272,0.08823014710558322,-0.04144949865094194,0.35321349176696937,0.061223359294116556,0.05528916024635296, ,0.09849509980024924, ,0.3584800526411509, ,0.0031499772786695163, ,0.14192838476249803,-0.2657006245376943,0.09529287048000001,-4.5330771982484475,0.1287115827790449,-1.3197635673926111, ,-0.2607058834023922,-0.8472941210577749,0.06102992919540231,0.0008790570711125061,-0.2738524399148152,0.46795220143796146, ,0.15364503860473633
0.010954492551066432,0.02356071364668409,-0.08488192849017322, ,0.010579056808727038,0.026845951615260436,-0.08567332029520662, ,0.003400006102329172, ,-0.014094853244137272,0.08823014710558322,-0.04144949865094194,0.35321349176696937,0.061223359294116556,0.05528916024635296, ,0.09849509980024924, ,0.3584800526411509, ,0.003152884590572535, ,0.14192838476249803,-0.2657006245376943,0.09529287048000001,-4.5330771982484475,0.1287115827790449,-1.3197635673926111, ,-0.2607058834023922,-0.8472941210577749,0.06102992919540231,0.0008790570711125061,-0.2738524399148152,0.46795220143796146, ,0.15547990798950195
0.010827664714775748,0.024415698355847913,-0.08529647571690964, ,0.010577568737921404,0.026950534337693993,-0.08574574201246345, ,0.0025864612227560935, ,-0.012371582757473493,0.0885864350786108,-0.04353878158426968,0.3608690940089557,0.04569713919050471,0.02470482168617028, ,0.09947983736267708, ,0.363750704588947, ,0.0031463739771493576, ,0.13931810105101017,-0.2744195899526937,0.09594490435000001,-4.5326578183614785,0.1257055797842052,-1.3151070475274946, ,-0.24146804467804267,-0.8324293119164103,0.06397113060240965,0.02586139765538374,-0.276558937426739,0.43251159021614927, ,0.15805387496948242
0.010827664714775748,0.024415698355847913,-0.08529647571690964, ,0.010576286507376667,0.02705470464581127,-0.08581782786953362, ,0.0027017315315676733, ,-0.012371582757473493,0.0885864350786108,-0.04353878158426968,0.3608690940089557,0.04569713919050471,0.02470482168617028, ,0.09947983736267708, ,0.363750704588947, ,0.003141321222085929, ,0.13931810105101017,-0.2744195899526937,0.09594490435000001,-4.5326578183614785,0.1257055797842052,-1.3151070475274946, ,-0.24146804467804267,-0.8324293119164103,0.06397113060240965,0.02586139765538374,-0.276558937426739,0.43251159021614927, ,0.1599569320678711
0.010827664714775748,0.024415698355847913,-0.08529647571690964, ,0.010575209628698406,0.02715846356334227,-0.08588957891560842, ,0.0028174928497220002, ,-0.012371582757473493,0.0885864350786108,-0.04353878158426968,0.3608690940089557,0.04569713919050471,0.02470482168617028, ,0.09947983736267708, ,0.363750704588947, ,0.003137682701048132, ,0.13931810105101017,-0.2744195899526937,0.09594490435000001,-4.5326578183614785,0.1257055797842052,-1.3151070475274946, ,-0.24146804467804267,-0.8324293119164103,0.06397113060240965,0.02586139765538374,-0.276558937426739,0.43251159021614927, ,0.16170907020568848
0.010827664714775748,0.024415698355847913,-0.08529647571690964, ,0.010574337614004727,0.027261812112549483,-0.08596099619837651, ,0.0029336198810275224, ,-0.012371582757473493,0.0885864350786108,-0.04353878158426968,0.3608690940089557,0.04569713919050471,0.02470482168617028, ,0.09947983736267708, ,0.363750704588947, ,0.0031354153363812366, ,0.13931810105101017,-0.2744195899526937,0.09594490435000001,-4.5326578183614785,0.1257055797842052,-1.3151070475274946, ,-0.24146804467804267,-0.8324293119164103,0.06397113060240965,0.02586139765538374,-0.276558937426739,0.43251159021614927, ,0.16336798667907715
0.010827664714775748,0.024415698355847913,-0.08529647571690964, ,0.01057366997592607,0.027364751314229014,-0.08603208076402347, ,0.0030500067973758638, ,-0.012371582757473493,0.0885864350786108,-0.04353878158426968,0.3608690940089557,0.04569713919050471,0.02470482168617028, ,0.09947983736267708, ,0.363750704588947, ,0.0031344767810075514, ,0.13931810105101017,-0.2744195899526937,0.09594490435000001,-4.5326578183614785,0.1257055797842052,-1.3151070475274946, ,-0.24146804467804267,-0.8324293119164103,0.06397113060240965,0.02586139765538374,-0.276558937426739,0.43251159021614927, ,0.1649918556213379
0.010827664714775748,0.024415698355847913,-0.08529647571690964, ,0.010573206227605209,0.02746728218771136,-0.08610283365723304, ,0.003166563773636353, ,-0.012371582757473493,0.0885864350786108,-0.04353878158426968,0.3608690940089557,0.04569713919050471,0.02470482168617028, ,0.09947983736267708, ,0.363750704588947, ,0.0031348255526665596, ,0.13931810105101017,-0.2744195899526937,0.09594490435000001,-4.5326578183614785,0.1257055797842052,-1.3151070475274946, ,-0.24146804467804267,-0.8324293119164103,0.06397113060240965,0.02586139765538374,-0.276558937426739,0.43251159021614927, ,0.16660499572753906
0.01070514999836353,0.025319405742309127,-0.08573036732394906, ,0.01057294588269697,0.027569405750862645,-0.08617325592118798, ,0.002296982428372986, ,-0.012421609458588986,0.08749545753496021,-0.03976667585341986,0.42385488282403583,0.1135445747634376,-0.03292224433697972, ,0.09690789430807327, ,0.43879976379197955, ,0.0031258164868139407, ,0.13694722205862322,-0.28286825971709534,0.09659175306000001,-4.531819058587541,0.12310948628866183,-1.3107847813734677, ,-0.22648434739491832,-0.8180770824006101,0.06079699053435115,0.1014047289369707,-0.20385012255030202,0.3749638835156858, ,0.16826987266540527
0.01070514999836353,0.025319405742309127,-0.08573036732394906, ,0.010572888455368171,0.02767112302008501,-0.0862433485975707, ,0.0024106466056706844, ,-0.012421609458588986,0.08749545753496021,-0.03976667585341986,0.42385488282403583,0.1135445747634376,-0.03292224433697972, ,0.09690789430807327, ,0.43879976379197955, ,0.003118208296589013, ,0.13694722205862322,-0.28286825971709534,0.09659175306000001,-4.531819058587541,0.12310948628866183,-1.3107847813734677, ,-0.22648434739491832,-0.8180770824006101,0.06079699053435115,0.1014047289369707,-0.20385012255030202,0.3749638835156858, ,0.16991901397705078
0.01070514999836353,0.025319405742309127,-0.08573036732394906, ,0.01057303346029742,0.027772435010318314,-0.08631311272656446, ,0.002524757329647671, ,-0.012421609458588986,0.08749545753496021,-0.03976667585341986,0.42385488282403583,0.1135445747634376,-0.03292224433697972, ,0.09690789430807327, ,0.43879976379197955, ,0.00311196144430542, ,0.13694722205862322,-0.28286825971709534,0.09659175306000001,-4.531819058587541,0.12310948628866183,-1.3107847813734677, ,-0.22648434739491832,-0.8180770824006101,0.06079699053435115,0.1014047289369707,-0.20385012255030202,0.3749638835156858, ,0.17164301872253418
0.01070514999836353,0.025319405742309127,-0.08573036732394906, ,0.010573380412675071,0.027873342735040486,-0.08638254934685408, ,0.0026391852488134816, ,-0.012421609458588986,0.08749545753496021,-0.03976667585341986,0.42385488282403583,0.1135445747634376,-0.03292224433697972, ,0.09690789430807327, ,0.43879976379197955, ,0.003107036692269045, ,0.13694722205862322,-0.28286825971709534,0.09659175306000001,-4.531819058587541,0.12310948628866183,-1.3107847813734677, ,-0.22648434739491832,-0.8180770824006101,0.06079699053435115,0.1014047289369707,-0.20385012255030202,0.3749638835156858, ,0.17363286018371582
0.01070514999836353,0.025319405742309127,-0.08573036732394906, ,0.010573928828203006,0.027973847206268696,-0.08645165949562662, ,0.0027538229569108916, ,-0.012421609458588986,0.08749545753496021,-0.03976667585341986,0.42385488282403583,0.1135445747634376,-0.03292224433697972, ,0.09690789430807327, ,0.43879976379197955, ,0.0031033953135540127, ,0.13694722205862322,-0.28286825971709534,0.09659175306000001,-4.531819058587541,0.12310948628866183,-1.3107847813734677, ,-0.22648434739491832,-0.8180770824006101,0.06079699053435115,0.1014047289369707,-0.20385012255030202,0.3749638835156858, ,0.1754288673400879
0.01070514999836353,0.025319405742309127,-0.08573036732394906, ,0.010574678223094484,0.028073949434560336,-0.08652044420857267, ,0.0028685807153153863, ,-0.012421609458588986,0.08749545753496021,-0.03976667585341986,0.42385488282403583,0.1135445747634376,-0.03292224433697972, ,0.09690789430807327, ,0.43879976379197955, ,0.003100999246225047, ,0.13694722205862322,-0.28286825971709534,0.09659175306000001,-4.531819058587541,0.12310948628866183,-1.3107847813734677, ,-0.22648434739491832,-0.8180770824006101,0.06079699053435115,0.1014047289369707,-0.20385012255030202,0.3749638835156858, ,0.17714786529541016
0.010580199677401252,0.0261815338988633,-0.08611220610316679, ,0.010575628114074065,0.028173650429013798,-0.08658890451988681, ,0.0020483628949464713, ,-0.012247925493127611,0.086520080208711,-0.037466061387239784,0.36863229985098894,0.11951401930270858,0.022463917107085507, ,0.09507597863855734, ,0.38752199870532583, ,0.003090366555808092, ,0.13472307499084657,-0.2909153473720373,0.09718415759000001,-4.531609368644055,0.12119657529194568,-1.3067745685175007, ,-0.21616615389173302,-0.8042113691395828,0.05899559822222222,0.048410583867487686,-0.17714570805308885,0.41378067599687124, ,0.1798720359802246
0.010580199677401252,0.0261815338988633,-0.08611220610316679, ,0.010576778018377446,0.028272951197269778,-0.0866570414622686, ,0.002161222707717075, ,-0.012247925493127611,0.086520080208711,-0.037466061387239784,0.36863229985098894,0.11951401930270858,0.022463917107085507, ,0.09507597863855734, ,0.38752199870532583, ,0.003081075117327182, ,0.13472307499084657,-0.2909153473720373,0.09718415759000001,-4.531609368644055,0.12119657529194568,-1.3067745685175007, ,-0.21616615389173302,-0.8042113691395828,0.05899559822222222,0.048410583867487686,-0.17714570805308885,0.41378067599687124, ,0.18159985542297363
0.010580199677401252,0.0261815338988633,-0.08611220610316679, ,0.010578127453751238,0.028371852745511714,-0.08672485606692333, ,0.0022743880324572995, ,-0.012247925493127611,0.086520080208711,-0.037466061387239784,0.36863229985098894,0.11951401930270858,0.022463917107085507, ,0.09507597863855734, ,0.38752199870532583, ,0.0030730881164868855, ,0.13472307499084657,-0.2909153473720373,0.09718415759000001,-4.531609368644055,0.12119657529194568,-1.3067745685175007, ,-0.21616615389173302,-0.8042113691395828,0.05899559822222222,0.048410583867487686,-0.17714570805308885,0.41378067599687124, ,0.18328094482421875
0.010580199677401252,0.0261815338988633,-0.08611220610316679, ,0.010579675938453001,0.0284703560784672,-0.08679234936356298, ,0.0023877399562790727, ,-0.012247925493127611,0.086520080208711,-0.037466061387239784,0.36863229985098894,0.11951401930270858,0.022463917107085507, ,0.09507597863855734, ,0.38752199870532583, ,0.0030663690168770048, ,0.13472307499084657,-0.2909153473720373,0.09718415759000001,-4.531609368644055,0.12119657529194568,-1.3067745685175007, ,-0.21616615389173302,-0.8042113691395828,0.05899559822222222,0.048410583867487686,-0.17714570805308885,0.41378067599687124, ,0.18497705459594727
0.010580199677401252,0.0261815338988633,-0.08611220610316679, ,0.010581422991250916,0.028568462199408777,-0.08685952238040773, ,0.0025011816860578016, ,-0.012247925493127611,0.086520080208711,-0.037466061387239784,0.36863229985098894,0.11951401930270858,0.022463917107085507, ,0.09507597863855734, ,0.38752199870532583, ,0.0030608817612379833, ,0.13472307499084657,-0.2909153473720373,0.09718415759000001,-4.531609368644055,0.12119657529194568,-1.3067745685175007, ,-0.21616615389173302,-0.8042113691395828,0.05899559822222222,0.048410583867487686,-0.17714570805308885,0.41378067599687124, ,0.18676090240478516
0.010463304398216595,0.02703407234817784,-0.08647844611397422, ,0.010583368131423809,0.02866617211015461,-0.08692637614418526, ,0.0016967045249663098, ,-0.010893082655122526,0.08324544307657102,-0.0354497445619678,0.3007837196636601,0.11697884951568646,0.040931533072509636, ,0.09113258161741454, ,0.3227302918297434, ,0.0030477646724276783, ,0.13266110531342862,-0.2988002576366205,0.09776619180000001,-4.531609368644055,0.11955693729476038,-1.3023337615478021, ,-0.19366722767034852,-0.7652979157941192,0.05688861257142858,0.02965961294807538,-0.15488825265172512,0.444253610283564, ,0.18886804580688477
0.010463304398216595,0.02703407234817784,-0.08647844611397422, ,0.010585510878760815,0.02876348681106983,-0.08699291168013311, ,0.0018084478502600465, ,-0.010893082655122526,0.08324544307657102,-0.0354497445619678,0.3007837196636601,0.11697884951568646,0.040931533072509636, ,0.09113258161741454, ,0.3227302918297434, ,0.003035961655073701, ,0.13266110531342862,-0.2988002576366205,0.09776619180000001,-4.531609368644055,0.11955693729476038,-1.3023337615478021, ,-0.19366722767034852,-0.7652979157941192,0.05688861257142858,0.02965961294807538,-0.15488825265172512,0.444253610283564, ,0.19069886207580566
0.010463304398216595,0.02703407234817784,-0.08647844611397422, ,0.010587850753561483,0.028860407301067485,-0.08705913001199864, ,0.0019204699800311764, ,-0.010893082655122526,0.08324544307657102,-0.0354497445619678,0.3007837196636601,0.11697884951568646,0.040931533072509636, ,0.09113258161741454, ,0.3227302918297434, ,0.0030254381487053754, ,0.13266110531342862,-0.2988002576366205,0.09776619180000001,-4.531609368644055,0.11955693729476038,-1.3023337615478021, ,-0.19366722767034852,-0.7652979157941192,0.05688861257142858,0.02965961294807538,-0.15488825265172512,0.444253610283564, ,0.1924879550933838
0.010463304398216595,0.02703407234817784,-0.08647844611397422, ,0.010590387276635428,0.02895693457760897,-0.08712503216204033, ,0.0020326393504293445, ,-0.010893082655122526,0.08324544307657102,-0.0354497445619678,0.3007837196636601,0.11697884951568646,0.040931533072509636, ,0.09113258161741454, ,0.3227302918297434, ,0.0030161596552635435, ,0.13266110531342862,-0.2988002576366205,0.09776619180000001,-4.531609368644055,0.11955693729476038,-1.3023337615478021, ,-0.19366722767034852,-0.7652979157941192,0.05688861257142858,0.02965961294807538,-0.15488825265172512,0.444253610283564, ,0.19432306289672852
0.010463304398216595,0.02703407234817784,-0.08647844611397422, ,0.010593119969302284,0.029053069636705644,-0.08719061915102877, ,0.0021448525749539126, ,-0.010893082655122526,0.08324544307657102,-0.0354497445619678,0.3007837196636601,0.11697884951568646,0.040931533072509636, ,0.09113258161741454, ,0.3227302918297434, ,0.003008091997112528, ,0.13266110531342862,-0.2988002576366205,0.09776619180000001,-4.531609368644055,0.11955693729476038,-1.3023337615478021, ,-0.19366722767034852,-0.7652979157941192,0.05688861257142858,0.02965961294807538,-0.15488825265172512,0.444253610283564, ,0.1961350440979004
0.010463304398216595,0.02703407234817784,-0.08647844611397422, ,0.010596048353391549,0.029148813472919363,-0.08725589199824668, ,0.0022570274888181405, ,-0.010893082655122526,0.08324544307657102,-0.0354497445619678,0.3007837196636601,0.11697884951568646,0.040931533072509636, ,0.09113258161741454, ,0.3227302918297434, ,0.0030012014970364326, ,0.13081537215648897,-0.3062295266616245,0.09830933731000001,-4.531399678700571,0.11819057229710599,-1.2981157903854967, ,-0.17037152883028864,-0.7299764735266983,0.053096038400000004,0.0,-0.11668727674447486,0.40431440791365825, ,0.19777989387512207
0.010357056269273341,0.027842709660187426,-0.08680995542544555, ,0.010599171951242478,0.029244167079363496,-0.08732085172149108, ,0.001511197514070241, ,-0.009785860557776563,0.07967758059684234,-0.03184669434934009,0.3070954216594589,0.1154659499823119,0.07332566994845448, ,0.08636256050860722, ,0.328085279845325, ,0.002987656006282195, ,0.13081537215648897,-0.3062295266616245,0.09830933731000001,-4.531399678700571,0.11819057229710599,-1.2981157903854967, ,-0.17037152883028864,-0.7299764735266983,0.053096038400000004,0.0,-0.11668727674447486,0.40431440791365825, ,0.2001349925994873
0.010357056269273341,0.027842709660187426,-0.08680995542544555, ,0.010602490285703831,0.029339131447703972,-0.08738549933707268, ,0.001621963876535627, ,-0.009785860557776563,0.07967758059684234,-0.03184669434934009,0.3070954216594589,0.1154659499823119,0.07332566994845448, ,0.08636256050860722, ,0.328085279845325, ,0.002975352473581775, ,0.13081537215648897,-0.3062295266616245,0.09830933731000001,-4.531399678700571,0.11819057229710599,-1.2981157903854967, ,-0.17037152883028864,-0.7299764735266983,0.053096038400000004,0.0,-0.11668727674447486,0.40431440791365825, ,0.20180797576904297
0.010357056269273341,0.027842709660187426,-0.08680995542544555, ,0.010606002880133896,0.029433707568160043,-0.08744983585981797, ,0.0017328288226264132, ,-0.009785860557776563,0.07967758059684234,-0.03184669434934009,0.3070954216594589,0.1154659499823119,0.07332566994845448, ,0.08636256050860722, ,0.328085279845325, ,0.002964258512412531, ,0.13081537215648897,-0.3062295266616245,0.09830933731000001,-4.531399678700571,0.11819057229710599,-1.2981157903854967, ,-0.17037152883028864,-0.7299764735266983,0.053096038400000004,0.0,-0.11668727674447486,0.40431440791365825, ,0.2035830020904541
0.010357056269273341,0.027842709660187426,-0.08680995542544555, ,0.01060970925840022,0.02952789642950572,-0.08751386230306953, ,0.0018436845914544375, ,-0.009785860557776563,0.07967758059684234,-0.03184669434934009,0.3070954216594589,0.1154659499823119,0.07332566994845448, ,0.08636256050860722, ,0.328085279845325, ,0.0029543419290412203, ,0.13081537215648897,-0.3062295266616245,0.09830933731000001,-4.531399678700571,0.11819057229710599,-1.2981157903854967, ,-0.17037152883028864,-0.7299764735266983,0.053096038400000004,0.0,-0.11668727674447486,0.40431440791365825, ,0.2052769660949707
0.010357056269273341,0.027842709660187426,-0.08680995542544555, ,0.010613608944879518,0.02962169901906985,-0.08757757967868676, ,0.00195444862008233, ,-0.009785860557776563,0.07967758059684234,-0.03184669434934009,0.3070954216594589,0.1154659499823119,0.07332566994845448, ,0.08636256050860722, ,0.328085279845325, ,0.0029455709351029844, ,0.13081537215648897,-0.3062295266616245,0.09830933731000001,-4.531399678700571,0.11819057229710599,-1.2981157903854967, ,-0.17037152883028864,-0.7299764735266983,0.053096038400000004,0.0,-0.11668727674447486,0.40431440791365825, ,0.20686984062194824
0.010264647921848979,0.028637028467044214,-0.08713326636762149, ,0.01061770146445752,0.029715116322738027,-0.08764098899704725, ,0.0012428606104362366, ,-0.007457215538975258,0.07474365706769251,-0.030657704267461866,0.26547539689501376,0.1099374338732883,0.04695858814733677, ,0.08113026048521417, ,0.28733847399908435, ,0.0029307647583667515, ,0.12917815278715336,-0.31343483643327597,0.09884729766000001,-4.530770608870118,0.11709748029898247,-1.2940389762904434, ,-0.13914507559893075,-0.6730279543153955,0.051218043472668826,0.025428334850694515,-0.09649658619774805,0.3954534382436342, ,0.2085249423980713
0.010264647921848979,0.028637028467044214,-0.08713326636762149, ,0.010621986342528849,0.02980814932495273,-0.08770409126704667, ,0.001350946289282492, ,-0.007457215538975258,0.07474365706769251,-0.030657704267461866,0.26547539689501376,0.1099374338732883,0.04695858814733677, ,0.08113026048521417, ,0.28733847399908435, ,0.002917145633633267, ,0.12917815278715336,-0.31343483643327597,0.09884729766000001,-4.530770608870118,0.11709748029898247,-1.2940389762904434, ,-0.13914507559893075,-0.6730279543153955,0.051218043472668826,0.025428334850694515,-0.09649658619774805,0.3954534382436342, ,0.21027088165283203
0.010264647921848979,0.028637028467044214,-0.08713326636762149, ,0.010626463104996877,0.029900799008714923,-0.08776688749610102, ,0.0014592813105110001, ,-0.007457215538975258,0.07474365706769251,-0.030657704267461866,0.26547539689501376,0.1099374338732883,0.04695858814733677, ,0.08113026048521417, ,0.28733847399908435, ,0.002904685254803162, ,0.12917815278715336,-0.31343483643327597,0.09884729766000001,-4.530770608870118,0.11709748029898247,-1.2940389762904434, ,-0.13914507559893075,-0.6730279543153955,0.051218043472668826,0.025428334850694515,-0.09649658619774805,0.3954534382436342, ,0.2120368480682373
0.010264647921848979,0.028637028467044214,-0.08713326636762149, ,0.01063113127827354,0.02999306635558455,-0.08782937869014638, ,0.001567712081749754, ,-0.007457215538975258,0.07474365706769251,-0.030657704267461866,0.26547539689501376,0.1099374338732883,0.04695858814733677, ,0.08113026048521417, ,0.28733847399908435, ,0.0028933549736755906, ,0.12917815278715336,-0.31343483643327597,0.09884729766000001,-4.530770608870118,0.11709748029898247,-1.2940389762904434, ,-0.13914507559893075,-0.6730279543153955,0.051218043472668826,0.025428334850694515,-0.09649658619774805,0.3954534382436342, ,0.21375203132629395
0.010264647921848979,0.028637028467044214,-0.08713326636762149, ,0.010635990389279277,0.03008495234568156,-0.08789156585364016, ,0.0016761255612100262, ,-0.007457215538975258,0.07474365706769251,-0.030657704267461866,0.26547539689501376,0.1099374338732883,0.04695858814733677, ,0.08113026048521417, ,0.28733847399908435, ,0.0028831261550834432, ,0.12917815278715336,-0.31343483643327597,0.09884729766000001,-4.530770608870118,0.11709748029898247,-1.2940389762904434, ,-0.13914507559893075,-0.6730279543153955,0.051218043472668826,0.025428334850694515,-0.09649658619774805,0.3954534382436342, ,0.21547293663024902
0.010264647921848979,0.028637028467044214,-0.08713326636762149, ,0.010641039965442821,0.0301764579576872,-0.08795344998956192, ,0.001784436970263001, ,-0.007457215538975258,0.07474365706769251,-0.030657704267461866,0.26547539689501376,0.1099374338732883,0.04695858814733677, ,0.08113026048521417, ,0.28733847399908435, ,0.002873970411876606, ,0.12917815278715336,-0.31343483643327597,0.09884729766000001,-4.530770608870118,0.11709748029898247,-1.2940389762904434, ,-0.13914507559893075,-0.6730279543153955,0.051218043472668826,0.025428334850694515,-0.09649658619774805,0.3954534382436342, ,0.21714401245117188
0.010204464198562852,0.029346992387235156,-0.08742081230016818, ,0.010646279534701063,0.030267584168844452,-0.08801503209941433, ,0.0011814343779616503, ,-0.005057122301027478,0.06930802639405402,-0.02729952432066328,0.19045424073430017,0.0887755691528587,-0.02174527105615859, ,0.07466217942667441, ,0.21012830444619468, ,0.002859982510769871, ,0.12798112919164858,-0.31979836832163694,0.09933340641,-4.530141539039664,0.11614102480062438,-1.2899102226188053, ,-0.10796011553864708,-0.6202414480945803,0.04698764460176992,0.08663566787721884,-0.11077396031413125,0.4238715483683867, ,0.21876788139343262
0.010204464198562852,0.029346992387235156,-0.08742081230016818, ,0.010651708625499037,0.030358331954959475,-0.08807631318322373, ,0.001285502511221543, ,-0.005057122301027478,0.06930802639405402,-0.02729952432066328,0.19045424073430017,0.0887755691528587,-0.02174527105615859, ,0.07466217942667441, ,0.21012830444619468, ,0.0028470769370030815, ,0.12798112919164858,-0.31979836832163694,0.09933340641,-4.530141539039664,0.11614102480062438,-1.2899102226188053, ,-0.10796011553864708,-0.6202414480945803,0.04698764460176992,0.08663566787721884,-0.11077396031413125,0.4238715483683867, ,0.22040891647338867
0.010204464198562852,0.029346992387235156,-0.08742081230016818, ,0.010657326766789524,0.030448702290401967,-0.08813729423954138, ,0.0013900343829864991, ,-0.005057122301027478,0.06930802639405402,-0.02729952432066328,0.19045424073430017,0.0887755691528587,-0.02174527105615859, ,0.07466217942667441, ,0.21012830444619468, ,0.0028352310625801825, ,0.12798112919164858,-0.31979836832163694,0.09933340641,-4.530141539039664,0.11614102480062438,-1.2899102226188053, ,-0.10796011553864708,-0.6202414480945803,0.04698764460176992,0.08663566787721884,-0.11077396031413125,0.4238715483683867, ,0.22210693359375
0.010204464198562852,0.029346992387235156,-0.08742081230016818, ,0.010663133488033171,0.03053869614810685,-0.08819797626544404, ,0.0014948308264490136, ,-0.005057122301027478,0.06930802639405402,-0.02729952432066328,0.19045424073430017,0.0887755691528587,-0.02174527105615859, ,0.07466217942667441, ,0.21012830444619468, ,0.0028244213832565443, ,0.12798112919164858,-0.31979836832163694,0.09933340641,-4.530141539039664,0.11614102480062438,-1.2899102226188053, ,-0.10796011553864708,-0.6202414480945803,0.04698764460176992,0.08663566787721884,-0.11077396031413125,0.4238715483683867, ,0.2240619659423828
0.010204464198562852,0.029346992387235156,-0.08742081230016818, ,0.010669128319198216,0.03062831449957458,-0.0882583602565352, ,0.0015997455046945354, ,-0.005057122301027478,0.06930802639405402,-0.02729952432066328,0.19045424073430017,0.0887755691528587,-0.02174527105615859, ,0.07466217942667441, ,0.21012830444619468, ,0.002814623976228048, ,0.12798112919164858,-0.31979836832163694,0.09933340641,-4.530141539039664,0.11614102480062438,-1.2899102226188053, ,-0.10796011553864708,-0.6202414480945803,0.04698764460176992,0.08663566787721884,-0.11077396031413125,0.4238715483683867, ,0.22588205337524414
0.010171272119344167,0.03000271445228351,-0.08768007624957852, ,0.010675310790760366,0.030717558314872273,-0.08831844720694523, ,0.0010828546575478743, ,-0.005057122301027478,0.06930802639405402,-0.02729952432066328,0.19045424073430017,0.0887755691528587,-0.02174527105615859, ,0.07466217942667441, ,0.21012830444619468, ,0.002800879775286142, ,0.12710846037686122,-0.3256367543745507,0.09978192275000002,-4.529722159152695,0.11491129630273542,-1.2855586331397744, ,-0.07460451380382924,-0.5682451590327592,0.044493886927374306,-0.03792119712652292,-0.12536253723625243,0.4482192432232415, ,0.22833991050720215
0.010171272119344167,0.03000271445228351,-0.08768007624957852, ,0.010681680433702642,0.030806428562635005,-0.08837823810933286, ,0.001180636693043205, ,-0.00223461763449034,0.06419873741362919,-0.02572315922676093,0.09774128812307446,0.0058666793575097645,0.08412507435225042, ,0.06919647622590173, ,0.0979171387882934, ,0.002788121955740922, ,0.12710846037686122,-0.3256367543745507,0.09978192275000002,-4.529722159152695,0.11491129630273542,-1.2855586331397744, ,-0.07460451380382924,-0.5682451590327592,0.044493886927374306,-0.03792119712652292,-0.12536253723625243,0.4482192432232415, ,0.23001599311828613
0.010171272119344167,0.03000271445228351,-0.08768007624957852, ,0.010688236779515343,0.030894926210066242,-0.08843773395488587, ,0.0012795856669263108, ,-0.00223461763449034,0.06419873741362919,-0.02572315922676093,0.09774128812307446,0.0058666793575097645,0.08412507435225042, ,0.06919647622590173, ,0.0979171387882934, ,0.002776336515984558, ,0.12710846037686122,-0.3256367543745507,0.09978192275000002,-4.529722159152695,0.11491129630273542,-1.2855586331397744, ,-0.07460451380382924,-0.5682451590327592,0.044493886927374306,-0.03792119712652292,-0.12536253723625243,0.4482192432232415, ,0.23672890663146973
0.010161659398721904,0.03057874447747363,-0.08791667287096848, ,0.010694979360195717,0.03098305222293909,-0.08849693573332225, ,0.000885776452484927, ,0.00014531171278507355,0.05764021558447186,-0.02442449579429192,0.09181405067971411,0.018456264832720535,0.0516914909901634, ,0.06260168977690338, ,0.09365065361024529, ,0.002761681011616344, ,0.12655242360991703,-0.3306874216742935,0.10018895781,-4.5299318490961795,0.11381820430461188,-1.2814818190447212, ,-0.041403552163381666,-0.4994575871498463,0.0416984594764398,0.0,-0.08158544978114882,0.3961461837266601, ,0.2388319969177246
0.010161659398721904,0.03057874447747363,-0.08791667287096848, ,0.010701907708247997,0.031070807565597214,-0.08855584443289, ,0.000970842213858003, ,0.00014531171278507355,0.05764021558447186,-0.02442449579429192,0.09181405067971411,0.018456264832720535,0.0516914909901634, ,0.06260168977690338, ,0.09365065361024529, ,0.0027479053285566642, ,0.12655242360991703,-0.3306874216742935,0.10018895781,-4.5299318490961795,0.11381820430461188,-1.2814818190447212, ,-0.041403552163381666,-0.4994575871498463,0.0416984594764398,0.0,-0.08158544978114882,0.3961461837266601, ,0.2406299114227295
0.010161659398721904,0.03057874447747363,-0.08791667287096848, ,0.010709021356683203,0.03115819320095567,-0.08861446104036914, ,0.001059374468978614, ,0.00014531171278507355,0.05764021558447186,-0.02442449579429192,0.09181405067971411,0.018456264832720535,0.0516914909901634, ,0.06260168977690338, ,0.09365065361024529, ,0.0027350157800102672, ,0.12655242360991703,-0.3306874216742935,0.10018895781,-4.5299318490961795,0.11381820430461188,-1.2814818190447212, ,-0.041403552163381666,-0.4994575871498463,0.0416984594764398,0.0,-0.08158544978114882,0.3961461837266601, ,0.24303984642028809
0.010161659398721904,0.03057874447747363,-0.08791667287096848, ,0.010716319839018912,0.031245210090501976,-0.08867278654107254, ,0.0011504488252408042, ,0.00014531171278507355,0.05764021558447186,-0.02442449579429192,0.09181405067971411,0.018456264832720535,0.0516914909901634, ,0.06260168977690338, ,0.09365065361024529, ,0.002723011484898377, ,0.12655242360991703,-0.3306874216742935,0.10018895781,-4.5299318490961795,0.11381820430461188,-1.2814818190447212, ,-0.041403552163381666,-0.4994575871498463,0.0416984594764398,0.0,-0.08158544978114882,0.3961461837266601, ,0.24491190910339355
0.010161659398721904,0.03057874447747363,-0.08791667287096848, ,0.010723802689279305,0.0313318591942971,-0.08873082191884565, ,0.0012433927488827129, ,0.00014531171278507355,0.05764021558447186,-0.02442449579429192,0.09181405067971411,0.018456264832720535,0.0516914909901634, ,0.06260168977690338, ,0.09365065361024529, ,0.002711886531996004, ,0.12655242360991703,-0.3306874216742935,0.10018895781,-4.5299318490961795,0.11381820430461188,-1.2814818190447212, ,-0.041403552163381666,-0.4994575871498463,0.0416984594764398,0.0,-0.08158544978114882,0.3961461837266601, ,0.24671101570129395
0.010161659398721904,0.03057874447747363,-0.08791667287096848, ,0.01073146944199482,0.031418141470976095,-0.08878856815606863, ,0.0013377115482403248, ,0.0018663509342367332,0.049374104739810735,-0.020553768911532246,0.1613806711827546,0.03212578196772266,0.024971504664339988, ,0.053513950528214574, ,0.16454720669217499, ,0.002701631494803797, ,0.12627440522644495,-0.33552185245355803,0.10059080771000001,-4.529512469209211,0.11354493130508102,-1.2783185485922681, ,-0.011012750245121078,-0.42364706052888745,0.03579508206741574,0.03239508274987298,-0.02631380095322491,0.2616405338756613, ,0.24867701530456543
0.010168778889340617,0.031138600298790592,-0.08814819182532331, ,0.010739319632202144,0.03150405787774958,-0.08884602623365655, ,0.0009726504216507331, ,0.0018663509342367332,0.049374104739810735,-0.020553768911532246,0.1613806711827546,0.03212578196772266,0.024971504664339988, ,0.053513950528214574, ,0.16454720669217499, ,0.002688824227595256, ,0.12627440522644495,-0.33552185245355803,0.10059080771000001,-4.529512469209211,0.11354493130508102,-1.2783185485922681, ,-0.011012750245121078,-0.42364706052888745,0.03579508206741574,0.03239508274987298,-0.02631380095322491,0.2616405338756613, ,0.25056886672973633
0.010168778889340617,0.031138600298790592,-0.08814819182532331, ,0.010747352795444047,0.03158960937040406,-0.08890319713106037, ,0.0010527060174581222, ,0.0018663509342367332,0.049374104739810735,-0.020553768911532246,0.1613806711827546,0.03212578196772266,0.024971504664339988, ,0.053513950528214574, ,0.16454720669217499, ,0.002676793946638365, ,0.12627440522644495,-0.33552185245355803,0.10059080771000001,-4.529512469209211,0.11354493130508102,-1.2783185485922681, ,-0.011012750245121078,-0.42364706052888745,0.03579508206741574,0.03239508274987298,-0.02631380095322491,0.2616405338756613, ,0.25240397453308105
0.010168778889340617,0.031138600298790592,-0.08814819182532331, ,0.010755568467769277,0.03167479690330347,-0.08896008182626765, ,0.0011362192489467085, ,0.0018663509342367332,0.049374104739810735,-0.020553768911532246,0.1613806711827546,0.03212578196772266,0.024971504664339988, ,0.053513950528214574, ,0.16454720669217499, ,0.002665548875852294, ,0.12627440522644495,-0.33552185245355803,0.10059080771000001,-4.529512469209211,0.11354493130508102,-1.2783185485922681, ,-0.011012750245121078,-0.42364706052888745,0.03579508206741574,0.03239508274987298,-0.02631380095322491,0.2616405338756613, ,0.2546248435974121
0.010168778889340617,0.031138600298790592,-0.08814819182532331, ,0.010763966185732263,0.03175962142938975,-0.08901668129580388, ,0.001222370288730986, ,0.0018663509342367332,0.049374104739810735,-0.020553768911532246,0.1613806711827546,0.03212578196772266,0.024971504664339988, ,0.053513950528214574, ,0.16454720669217499, ,0.0026550910600035894, ,0.12627440522644495,-0.33552185245355803,0.10059080771000001,-4.529512469209211,0.11354493130508102,-1.2783185485922681, ,-0.011012750245121078,-0.42364706052888745,0.03579508206741574,0.03239508274987298,-0.02631380095322491,0.2616405338756613, ,0.2563669681549072
0.01019317297680343,0.03160809728307817,-0.08834516924637179, ,0.010772545486393168,0.031844083900183826,-0.08907299651473272, ,0.0009597367977164464, ,0.003287931397405289,0.044327065128880724,-0.019665442365285512,0.16644972731159194,0.03179998000722329,0.006842127021140301, ,0.04860482300385882, ,0.1694601649633431, ,0.002642894266749725, ,0.12626668249357073,-0.33952222808240634,0.10093432456000001,-4.529093089322242,0.11354493130508102,-1.2760315438683323, ,0.008210788242803534,-0.3721448688567482,0.03360508759493671,0.05049106307988567,-0.00512362278732609,0.2100738601454275, ,0.26026296615600586
0.01019317297680343,0.03160809728307817,-0.08834516924637179, ,0.010781305907317651,0.03192818526578676,-0.08912902845665752, ,0.0010309179997359012, ,0.003287931397405289,0.044327065128880724,-0.019665442365285512,0.16644972731159194,0.03179998000722329,0.006842127021140301, ,0.04860482300385882, ,0.1694601649633431, ,0.0026313801505567693, ,0.12626668249357073,-0.33952222808240634,0.10093432456000001,-4.529093089322242,0.11354493130508102,-1.2760315438683323, ,0.008210788242803534,-0.3721448688567482,0.03360508759493671,0.05049106307988567,-0.00512362278732609,0.2100738601454275, ,0.26196789741516113
0.01019317297680343,0.03160809728307817,-0.08834516924637179, ,0.01079024698657674,0.032011926474880416,-0.08918477809372144, ,0.0011065795976097931, ,0.003287931397405289,0.044327065128880724,-0.019665442365285512,0.16644972731159194,0.03179998000722329,0.006842127021140301, ,0.04860482300385882, ,0.1694601649633431, ,0.0026205659622379964, ,0.12626668249357073,-0.33952222808240634,0.10093432456000001,-4.529093089322242,0.11354493130508102,-1.2760315438683323, ,0.008210788242803534,-0.3721448688567482,0.03360508759493671,0.05049106307988567,-0.00512362278732609,0.2100738601454275, ,0.26361989974975586
0.01019317297680343,0.03160809728307817,-0.08834516924637179, ,0.010799368262746684,0.03209530847472878,-0.0892402463966089, ,0.0011857531677571084, ,0.003287931397405289,0.044327065128880724,-0.019665442365285512,0.16644972731159194,0.03179998000722329,0.006842127021140301, ,0.04860482300385882, ,0.1694601649633431, ,0.0026104616467839056, ,0.12626668249357073,-0.33952222808240634,0.10093432456000001,-4.529093089322242,0.11354493130508102,-1.2760315438683323, ,0.008210788242803534,-0.3721448688567482,0.03360508759493671,0.05049106307988567,-0.00512362278732609,0.2100738601454275, ,0.2652590274810791
0.01019317297680343,0.03160809728307817,-0.08834516924637179, ,0.010808669274908866,0.032178332211178405,-0.08929543433454641, ,0.0012676779180890191, ,0.003287931397405289,0.044327065128880724,-0.019665442365285512,0.16644972731159194,0.03179998000722329,0.006842127021140301, ,0.04860482300385882, ,0.1694601649633431, ,0.002601071550779046, ,0.12626668249357073,-0.33952222808240634,0.10093432456000001,-4.529093089322242,0.11354493130508102,-1.2760315438683323, ,0.008210788242803534,-0.3721448688567482,0.03360508759493671,0.05049106307988567,-0.00512362278732609,0.2100738601454275, ,0.26697397232055664
0.010249754559252273,0.03203972943037236,-0.08857187665255517, ,0.010818149562649555,0.032260998628659915,-0.08935034287530286, ,0.0009889603621767989, ,0.006941683564168151,0.03948356216451746,-0.023619321374063806,0.025404963593360412,-0.051450657800594976,-0.01376504592984834, ,0.046529678637141525, ,0.05738096385084587, ,0.0025898763341915304, ,0.12652153267842015,-0.3430129033415558,0.10129728576000001,-4.529093089322242,0.11299838530601926,-1.2734622250098921, ,0.03663974577547135,-0.30710984323129703,0.03611975401360545,0.042139723599807256,-0.07099054526835116,0.2770844427480994, ,0.26882004737854004
0.010249754559252273,0.03203972943037236,-0.08857187665255517, ,0.010827808666059853,0.03234330867018849,-0.08940497298519101, ,0.001058468896423384, ,0.006941683564168151,0.03948356216451746,-0.023619321374063806,0.025404963593360412,-0.051450657800594976,-0.01376504592984834, ,0.046529678637141525, ,0.05738096385084587, ,0.002579314903586233, ,0.12652153267842015,-0.3430129033415558,0.10129728576000001,-4.529093089322242,0.11299838530601926,-1.2734622250098921, ,0.03663974577547135,-0.30710984323129703,0.03611975401360545,0.042139723599807256,-0.07099054526835116,0.2770844427480994, ,0.2704629898071289
0.010249754559252273,0.03203972943037236,-0.08857187665255517, ,0.010837646125735562,0.03242526327736502,-0.08945932562906818, ,0.0011321742476461494, ,0.006941683564168151,0.03948356216451746,-0.023619321374063806,0.025404963593360412,-0.051450657800594976,-0.01376504592984834, ,0.046529678637141525, ,0.05738096385084587, ,0.0025694029812852732, ,0.12652153267842015,-0.3430129033415558,0.10129728576000001,-4.529093089322242,0.11299838530601926,-1.2734622250098921, ,0.03663974577547135,-0.30710984323129703,0.03611975401360545,0.042139723599807256,-0.07099054526835116,0.2770844427480994, ,0.2720808982849121
0.010249754559252273,0.03203972943037236,-0.08857187665255517, ,0.010847661482777,0.0325068633903772,-0.08951340177033695, ,0.0012092048516287922, ,0.006941683564168151,0.03948356216451746,-0.023619321374063806,0.025404963593360412,-0.051450657800594976,-0.01376504592984834, ,0.046529678637141525, ,0.05738096385084587, ,0.0025601499327842087, ,0.12652153267842015,-0.3430129033415558,0.10129728576000001,-4.529093089322242,0.11299838530601926,-1.2734622250098921, ,0.03663974577547135,-0.30710984323129703,0.03611975401360545,0.042139723599807256,-0.07099054526835116,0.2770844427480994, ,0.27375006675720215
0.010249754559252273,0.03203972943037236,-0.08857187665255517, ,0.010857854278788827,0.03258810994800008,-0.08956720237094613, ,0.0012888676218698989, ,0.006941683564168151,0.03948356216451746,-0.023619321374063806,0.025404963593360412,-0.051450657800594976,-0.01376504592984834, ,0.046529678637141525, ,0.05738096385084587, ,0.002551560187440193, ,0.12652153267842015,-0.3430129033415558,0.10129728576000001,-4.529093089322242,0.11299838530601926,-1.2734622250098921, ,0.03663974577547135,-0.30710984323129703,0.03611975401360545,0.042139723599807256,-0.07099054526835116,0.2770844427480994, ,0.2754249572753906
0.010249754559252273,0.03203972943037236,-0.08857187665255517, ,0.01086822405588004,0.03266900388759744,-0.0896207283913915, ,0.0013706133046322427, ,0.006941683564168151,0.03948356216451746,-0.023619321374063806,0.025404963593360412,-0.051450657800594976,-0.01376504592984834, ,0.046529678637141525, ,0.05738096385084587, ,0.002543634369434771, ,0.12652153267842015,-0.3430129033415558,0.10129728576000001,-4.529093089322242,0.11299838530601926,-1.2734622250098921, ,0.03663974577547135,-0.30710984323129703,0.03611975401360545,0.042139723599807256,-0.07099054526835116,0.2770844427480994, ,0.27712106704711914
0.010341669451856111,0.03243375758438867,-0.08884653334070024, ,0.010878770356663644,0.032749546145122474,-0.08967398079071688, ,0.001035793936830316, ,0.009919639718129907,0.03777621792758574,-0.030084354869342494,-0.10886882019644561,-0.12877410745707085,-0.03140258800225214, ,0.04930020589160335, ,0.16862729944693816, ,0.0025335820998840745, ,0.12703123304811895,-0.3459320963680127,0.10169654308000001,-4.529093089322242,0.11176865680813029,-1.2700091016724073, ,0.05295588256611093,-0.26507525574991836,0.04191792505263159,0.030648536819930863,-0.14464294460166768,0.3588948688959938, ,0.27881789207458496
0.010341669451856111,0.03243375758438867,-0.08884653334070024, ,0.010889492724256688,0.032829737655118756,-0.08972696052651499, ,0.0011099831456922087, ,0.009919639718129907,0.03777621792758574,-0.030084354869342494,-0.10886882019644561,-0.12877410745707085,-0.03140258800225214, ,0.04930020589160335, ,0.16862729944693816, ,0.0025241542922404196, ,0.12703123304811895,-0.3459320963680127,0.10169654308000001,-4.529093089322242,0.11176865680813029,-1.2700091016724073, ,0.05295588256611093,-0.26507525574991836,0.04191792505263159,0.030648536819930863,-0.14464294460166768,0.3588948688959938, ,0.2806379795074463
0.010341669451856111,0.03243375758438867,-0.08884653334070024, ,0.010900390702280032,0.03290957935072131,-0.08977966855492782, ,0.0011871466282741723, ,0.009919639718129907,0.03777621792758574,-0.030084354869342494,-0.10886882019644561,-0.12877410745707085,-0.03140258800225214, ,0.04930020589160335, ,0.16862729944693816, ,0.0025153581891880104, ,0.12703123304811895,-0.3459320963680127,0.10169654308000001,-4.529093089322242,0.11176865680813029,-1.2700091016724073, ,0.05295588256611093,-0.26507525574991836,0.04191792505263159,0.030648536819930863,-0.14464294460166768,0.3588948688959938, ,0.28229594230651855
0.010341669451856111,0.03243375758438867,-0.08884653334070024, ,0.010911463834858184,0.032989072163657616,-0.08983210583064832, ,0.0012666463807202981, ,0.009919639718129907,0.03777621792758574,-0.030084354869342494,-0.10886882019644561,-0.12877410745707085,-0.03140258800225214, ,0.04930020589160335, ,0.16862729944693816, ,0.002507196674099986, ,0.12703123304811895,-0.3459320963680127,0.10169654308000001,-4.529093089322242,0.11176865680813029,-1.2700091016724073, ,0.05295588256611093,-0.26507525574991836,0.04191792505263159,0.030648536819930863,-0.14464294460166768,0.3588948688959938, ,0.28398990631103516
0.010341669451856111,0.03243375758438867,-0.08884653334070024, ,0.01092271166661926,0.0330682170242482,-0.08988427330692039, ,0.00134798111027356, ,0.009919639718129907,0.03777621792758574,-0.030084354869342494,-0.10886882019644561,-0.12877410745707085,-0.03140258800225214, ,0.04930020589160335, ,0.16862729944693816, ,0.0024996693003089053, ,0.12703123304811895,-0.3459320963680127,0.10169654308000001,-4.529093089322242,0.11176865680813029,-1.2700091016724073, ,0.05295588256611093,-0.26507525574991836,0.04191792505263159,0.030648536819930863,-0.14464294460166768,0.3588948688959938, ,0.2856588363647461
0.010341669451856111,0.03243375758438867,-0.08884653334070024, ,0.010934133742694734,0.033147014861407885,-0.08993617193554061, ,0.0014307557955519472, ,0.009919639718129907,0.03777621792758574,-0.030084354869342494,-0.10886882019644561,-0.12877410745707085,-0.03140258800225214, ,0.04930020589160335, ,0.16862729944693816, ,0.002492773084149183, ,0.12703123304811895,-0.3459320963680127,0.10169654308000001,-4.529093089322242,0.11176865680813029,-1.2700091016724073, ,0.05295588256611093,-0.26507525574991836,0.04191792505263159,0.030648536819930863,-0.14464294460166768,0.3588948688959938, ,0.2879810333251953
0.01043738217081151,0.03276684646154748,-0.0891367149196623, ,0.010945729608719375,0.03322546660264677,-0.08998780266685835, ,0.001092291126429523, ,0.011486117002615273,0.03616626059151939,-0.03467207507695225,-0.12391624399125949,-0.11827494965030001,-0.022900399440623304, ,0.051401187526294266, ,0.17130134013659518, ,0.002483795635702262, ,0.12755637888356622,-0.3481639661686636,0.10209061524000002,-4.528464019491787,0.11053892831024133,-1.2668826932954849, ,0.06631512338118153,-0.2297746768970237,0.04590435596541788,0.02656762313959923,-0.1153848359775223,0.3423223838408195, ,0.28980588912963867
0.01043738217081151,0.03276684646154748,-0.0891367149196623, ,0.010957498810831029,0.033303573174071024,-0.09003916644977701, ,0.0011717575036533422, ,0.011486117002615273,0.03616626059151939,-0.03467207507695225,-0.12391624399125949,-0.11827494965030001,-0.022900399440623304, ,0.051401187526294266, ,0.17130134013659518, ,0.00247543870492488, ,0.12755637888356622,-0.3481639661686636,0.10209061524000002,-4.528464019491787,0.11053892831024133,-1.2668826932954849, ,0.06631512338118153,-0.2297746768970237,0.04590435596541788,0.02656762313959923,-0.1153848359775223,0.3423223838408195, ,0.29160189628601074
0.01043738217081151,0.03276684646154748,-0.0891367149196623, ,0.010969440895670578,0.033381335500383816,-0.09009026423175469, ,0.00125297228865627, ,0.011486117002615273,0.03616626059151939,-0.03467207507695225,-0.12391624399125949,-0.11827494965030001,-0.022900399440623304, ,0.051401187526294266, ,0.17130134013659518, ,0.0024677015757079905, ,0.12755637888356622,-0.3481639661686636,0.10209061524000002,-4.528464019491787,0.11053892831024133,-1.2668826932954849, ,0.06631512338118153,-0.2297746768970237,0.04590435596541788,0.02656762313959923,-0.1153848359775223,0.3423223838408195, ,0.2935218811035156
0.01043738217081151,0.03276684646154748,-0.0891367149196623, ,0.010981555410381746,0.0334587545048864,-0.09014109695880518, ,0.0013355315554693058, ,0.011486117002615273,0.03616626059151939,-0.03467207507695225,-0.12391624399125949,-0.11827494965030001,-0.022900399440623304, ,0.051401187526294266, ,0.17130134013659518, ,0.002460581009542967, ,0.12755637888356622,-0.3481639661686636,0.10209061524000002,-4.528464019491787,0.11053892831024133,-1.2668826932954849, ,0.06631512338118153,-0.2297746768970237,0.04590435596541788,0.02656762313959923,-0.1153848359775223,0.3423223838408195, ,0.2952849864959717
0.01043738217081151,0.03276684646154748,-0.0891367149196623, ,0.01099384190261093,0.033535831109479226,-0.09019166557549893, ,0.00141912145643674, ,0.011486117002615273,0.03616626059151939,-0.03467207507695225,-0.12391624399125949,-0.11827494965030001,-0.022900399440623304, ,0.051401187526294266, ,0.17130134013659518, ,0.002454071887336053, ,0.12755637888356622,-0.3481639661686636,0.10209061524000002,-4.528464019491787,0.11053892831024133,-1.2668826932954849, ,0.06631512338118153,-0.2297746768970237,0.04590435596541788,0.02656762313959923,-0.1153848359775223,0.3423223838408195, ,0.2969188690185547
0.010569467688368056,0.03314137012875343,-0.08953995314896653, ,0.011006299920507126,0.03361256623466212,-0.09024197102496374, ,0.0009516707768334401, ,0.011486117002615273,0.03616626059151939,-0.03467207507695225,-0.12391624399125949,-0.11827494965030001,-0.022900399440623304, ,0.051401187526294266, ,0.17130134013659518, ,0.002444740203419888, ,0.12834409763673713,-0.3503572223049433,0.10260913124000001,-4.527415569774365,0.10958247281188324,-1.2632440120646904, ,0.07299764735266984,-0.17541024317647097,0.04812329764350454,0.10171474202474287,-0.042117681518562454,0.2727817376670092, ,0.2990429401397705
0.010569467688368056,0.03314137012875343,-0.08953995314896653, ,0.011018929012721715,0.03368896079953631,-0.09029201424888572, ,0.0010331829087000333, ,0.01197110040537621,0.032374053906301735,-0.038269620785058474,-0.08977346263069735,-0.04036915565641812,-0.07673096039169687, ,0.051535914528374374, ,0.09843201326192545, ,0.002436026886785815, ,0.12834409763673713,-0.3503572223049433,0.10260913124000001,-4.527415569774365,0.10958247281188324,-1.2632440120646904, ,0.07299764735266984,-0.17541024317647097,0.04812329764350454,0.10171474202474287,-0.042117681518562454,0.2727817376670092, ,0.30100584030151367
0.010569467688368056,0.03314137012875343,-0.08953995314896653, ,0.011031728728408392,0.03376501572180455,-0.09034179618750968, ,0.001116051680403453, ,0.01197110040537621,0.032374053906301735,-0.038269620785058474,-0.08977346263069735,-0.04036915565641812,-0.07673096039169687, ,0.051535914528374374, ,0.09843201326192545, ,0.002427928879384696, ,0.12834409763673713,-0.3503572223049433,0.10260913124000001,-4.527415569774365,0.10958247281188324,-1.2632440120646904, ,0.07299764735266984,-0.17541024317647097,0.04812329764350454,0.10171474202474287,-0.042117681518562454,0.2727817376670092, ,0.3027510643005371
0.010569467688368056,0.03314137012875343,-0.08953995314896653, ,0.01104469861722299,0.033840731917772475,-0.09039131777964088, ,0.0011999054471263657, ,0.01197110040537621,0.032374053906301735,-0.038269620785058474,-0.08977346263069735,-0.04036915565641812,-0.07673096039169687, ,0.051535914528374374, ,0.09843201326192545, ,0.0024204409316270236, ,0.12834409763673713,-0.3503572223049433,0.10260913124000001,-4.527415569774365,0.10958247281188324,-1.2632440120646904, ,0.07299764735266984,-0.17541024317647097,0.04812329764350454,0.10171474202474287,-0.042117681518562454,0.2727817376670092, ,0.3045308589935303
0.010569467688368056,0.03314137012875343,-0.08953995314896653, ,0.01105783822932332,0.03391611030234935,-0.09044057996264519, ,0.001284467508103405, ,0.01197110040537621,0.032374053906301735,-0.038269620785058474,-0.08977346263069735,-0.04036915565641812,-0.07673096039169687, ,0.051535914528374374, ,0.09843201326192545, ,0.002413556244211729, ,0.12834409763673713,-0.3503572223049433,0.10260913124000001,-4.527415569774365,0.10958247281188324,-1.2632440120646904, ,0.07299764735266984,-0.17541024317647097,0.04812329764350454,0.10171474202474287,-0.042117681518562454,0.2727817376670092, ,0.30628490447998047
