NicholasDascanio/dvrk_moveit_final/test/execution/first_exp_nosummary/yes_joints_yes_smoothramp/200vel4.csv
Current Position (x),Current Position (y),Current Position (z), ,Planned Position (x),Planned Position (y),Planned Position (z), ,Position Error,,Cartesian linear Velocity(x),Cartesian linear Velocity(y),Cartesian linear Velocity(z),Cartesian Angular Velocity(x),Cartesian Angular Velocity(y),Cartesian Angular Velocity(z), ,Total Linear Velocity, ,Total Angular Velocity, ,MSE, ,Joint 1 Position,Joint 2 Position,Joint 3 Position,Joint 4 Position,Joint 5 Position,Joint 6 Position, ,Joint 1 Velocity,Joint 2 Velocity,Joint 3 Velocity,Joint 4 Velocity,Joint 5 Velocity,Joint 6 Velocity, ,Time Stamp
0.009261014738931836,0.017870745363203877,-0.08191788529134558, ,0.009430594986570251,0.018064752182924443,-0.08200857909332268, ,0.00027316931050953673, ,-0.004021154601180483,0.001905107373331436,-0.0002623575066456367,-0.12545964113604652,0.5042072920540284,0.12851216458409292, ,0.004457347854028232, ,0.5195816729970774, ,2.276410920912806e-05, ,0.13293140096402647,-0.20998882958303863,0.09099826171000001,-4.537270997118139,0.1884217331765424,-1.212120082678911, ,0.004424381870070286,-0.0134758508319328,0.0009763731596666245,0.005386104493627617,0.4983642947811613,0.21464580225616903, ,0.05275416374206543
0.009321331089185321,0.017998403055502193,-0.0819421503487947, ,0.009530581082953665,0.018342421789223563,-0.08203302232010937, ,0.00041278585757498887, ,0.0041658211278494586,0.0033593212210032745,-0.000422052884952232,0.00020586580976558744,-0.3346721159460925,-0.08604734889436436, ,0.0053681685305899595, ,0.3346721792628816, ,3.1179780367478435e-05, ,0.13341021040222842,-0.21140981243189597,0.09105270589000002,-4.5364322373442,0.1865088221798262,-1.214154096593346, ,0.013433881874075704,-0.042497510774057674,0.0010790300230638056,0.015019206333910176,-0.33626863791662975,-0.005296749197399975, ,0.10594916343688965
0.009408862274882981,0.018242776268335825,-0.08197245610121753, ,0.009629311948317558,0.018618353623951443,-0.08205924304285629, ,0.0004440589846041195, ,0.0013939190893820096,0.005711033040318881,-0.00046797285226512467,0.05618847763676263,0.040266779134271326,0.005173736308981954, ,0.00589727966148924, ,0.06912711856417234, ,3.531294227152016e-05, ,0.1343523838128838,-0.2141359371364972,0.09114344619,-4.5358031675137465,0.18596227618076444,-1.211503098994765, ,0.022146310748767977,-0.063054446218253,0.0019302392300462785,0.018843644858985993,0.05836381963728726,0.017501258410017, ,0.1583871841430664
0.009525043014959891,0.018613611456178424,-0.08200113286678917, ,0.00972680699280887,0.018892558117896717,-0.08208722380787781, ,0.00035486841642889207, ,0.0017633481031391512,0.006198645016377458,-0.00034790618873514637,0.027855222977248156,-0.004610045057261447,-0.006611650366387899, ,0.006453962758496965, ,0.028234127621412163, ,3.5354346883750884e-05, ,0.13571158479874731,-0.21829076742283,0.09126529745,-4.534754717796323,0.1860989126805299,-1.2082656885526983, ,0.021310788582634355,-0.06947067464016894,0.0019585501173976162,0.022154004321921276,0.006173136488896759,0.04541368201275586, ,0.21290016174316406
0.009619983992995781,0.018905675649124015,-0.08201401735011975, ,0.009823085515347203,0.01916504565969762,-0.08211694724540522, ,0.0003451341682735801, ,0.0018158451404330595,0.005388480567239586,-0.0007681038882078569,0.008970571105377793,-0.022630170749123844,0.047432603586633336, ,0.0057378567410343246, ,0.024343290124608712, ,3.5192629565213795e-05, ,0.1368391037983841,-0.2215652061615012,0.09135344517,-4.533286888191932,0.18623554918029533,-1.2056817080317563, ,0.02065221796702302,-0.06025202638633065,0.0021528330206784705,-0.03648498612123627,0.0,0.04642733265867297, ,0.265578031539917
0.009710230151600672,0.019151449509595624,-0.08205061700633484, ,0.009918166705527589,0.01943582659586151,-0.08214839606938329, ,0.00036560727949906706, ,0.0018279871107861802,0.004474325446402115,-0.0005448648643575281,0.0005426281196064045,-0.010427130687921067,-0.005811534455789782, ,0.004863949300510157, ,0.01044124033145128, ,3.599383634246204e-05, ,0.13787395000353017,-0.22426043993460554,0.09145455579,-4.532867508304963,0.18637218568006078,-1.2035877999516575, ,0.020948552220412975,-0.04911849977146521,0.0017470728063016386,0.017487750970675158,0.0,0.05107065690457836, ,0.31327199935913086
0.00978701287685992,0.019337374899216615,-0.08209170414829396, ,0.010012069643437396,0.019704911230857377,-0.08218155307731576, ,0.00044023440722485547, ,0.0019154455251997149,0.004844797274334293,-0.0013359500716064543,0.019971392522706535,-0.018095671343355876,0.015545930079026188, ,0.00537826689401241, ,0.026950136189980822, ,3.7655120344500564e-05, ,0.13872345061969488,-0.22625290501615547,0.09154529609,-4.53223843847451,0.18637218568006078,-1.201627510188284, ,0.020737967997917564,-0.051630544917557544,0.0026164276478318005,-0.006027608287182336,0.0,0.030721852577622222, ,0.360828161239624
0.009889193448956907,0.01958491069672006,-0.08213901407359085, ,0.010104813299891744,0.019972309827193724,-0.08221640115010158, ,0.0004500652908409941, ,0.0019780116943176876,0.005301413326487976,-0.000985210137930698,-0.004060585324578964,-0.006366299417515471,-0.016504073974567025, ,0.005743531364674808, ,0.007551034462291618, ,3.906232550577258e-05, ,0.13985096961933163,-0.22892497059063713,0.09165936961000001,-4.531609368644055,0.18623554918029533,-1.199555802521214, ,0.02190603452411606,-0.05689265081443092,0.0024036232865550025,0.030999603626278918,0.0,0.06539216238972614, ,0.4080080986022949
0.009993589772753244,0.01986854640585724,-0.08218040844611416, ,0.010196416536668836,0.02023803260549637,-0.08225292325187028, ,0.00042768813981461655, ,0.001996642617342173,0.005749482626618466,-0.000733226087469947,0.006876424716875251,-0.024771671357013997,0.04999421411882775, ,0.006130314242395822, ,0.025708382265450868, ,3.992740744057557e-05, ,0.14102482501621377,-0.2319986182745785,0.091777332,-4.530141539039664,0.18623554918029533,-1.1970237615768569, ,0.02277891059972894,-0.06386066053732892,0.002284355588699269,-0.03810500487180542,0.0,0.05176270573958277, ,0.4554290771484375
0.010092833595613668,0.020161649140015704,-0.08221377639834845, ,0.010286898106745258,0.020502089744586508,-0.08229110242981598, ,0.0003994247799821564, ,0.0018694941002419287,0.005835108656286617,-0.0005464243019157777,0.0010161713216784826,-0.001323434973726219,-0.03022419230523592, ,0.006151591724036514, ,0.0016685575460962678, ,4.0340583863430995e-05, ,0.14215234401585056,-0.2352112751502559,0.09189010923,-4.529512469209211,0.18623554918029533,-1.1946550781127803, ,0.021239243858207427,-0.06356124685764955,0.0021287297405825833,0.04668362953962114,0.0,0.06916682874227603, ,0.5036909580230713
0.010170174975851782,0.02038873040149474,-0.08224391966799713, ,0.010376276654530977,0.020764491381558038,-0.0823309218140335, ,0.000437314062782624, ,0.0018520160076412606,0.005452088121177348,-0.0011490704642512157,0.006923170878719197,-0.013446559755377906,0.012527462553835043, ,0.0058715918714993395, ,0.01512416160548713, ,4.143191140509934e-05, ,0.14300956736488948,-0.23769027240288196,0.09198214582000001,-4.529302779265726,0.1860989126805299,-1.1928284066661323, ,0.02014797060689401,-0.05832633162782469,0.002631121823587711,0.0,0.0,0.05142075055116893, ,0.5458760261535645
0.010250140242228293,0.020613413541073218,-0.08229526267380338, ,0.010464570716104326,0.02102524761185567,-0.08237236461735252, ,0.0004706723272968159, ,0.001966990030523537,0.0055550652044414695,-0.0010910865850020902,-0.010638450709418266,-0.007614157644064822,0.006509715715085386, ,0.005993185225049102, ,0.013082508556230586, ,4.2663920573736694e-05, ,0.14385906798105416,-0.2400688741281431,0.09209492305000001,-4.528673709435273,0.18596227618076444,-1.189858232857516, ,0.021865654736974834,-0.059236542795549796,0.0026315565042127876,0.008921891439623133,0.0028979994849446613,0.07178606842566869, ,0.5891010761260986
0.010331036304860368,0.02084338217452076,-0.08233338148345364, ,0.01055179871944685,0.02128436848935229,-0.08241541413517246, ,0.0004999343251975898, ,0.0022449723688313093,0.006010618038898065,-0.0016594749940324208,0.010029843907158829,-0.013918268424197406,0.010175407794353308, ,0.0066273137395299, ,0.017155639443558978, ,4.3974854132477985e-05, ,0.14477035046021267,-0.24253242591502072,0.09219732996,-4.528044639604819,0.1860989126805299,-1.1876009672971362, ,0.024128385852649575,-0.06267961793822377,0.0033365755173858404,0.003988340937193906,0.0023780121294369014,0.05353844423343285, ,0.6312830448150635
0.01041979270203447,0.021083749514535295,-0.0823768818228254, ,0.010637978984678106,0.021541864026426497,-0.08246005374529668, ,0.0005141903622460562, ,0.0020239040851061357,0.005646600432641655,-0.0006602657423250581,0.011905558170765865,-0.009317900722719425,-0.005632563003401329, ,0.006034586567620543, ,0.015118385801262632, ,4.5233703195937154e-05, ,0.14575113753523916,-0.24509637322926325,0.09230881090000001,-4.52762525971785,0.1860989126805299,-1.1849055688724976, ,0.023128672083468384,-0.06094858160466973,0.0022745696872768814,0.02008823657896457,0.0022448885314189696,0.05217323642170283, ,0.6734321117401123
0.010533949833321812,0.021389799977397077,-0.08243161423025565, ,0.010723129724290232,0.021797744194040486,-0.08250626690776727, ,0.000455829504638831, ,0.002327488933505399,0.006025155382416522,-0.001373172436271857,-0.0006070237957697023,-0.008079274792307455,-0.014253181533028295, ,0.006603431279084357, ,0.008102046596592926, ,4.5919541729304555e-05, ,0.1470253884594862,-0.24833992103643757,0.09245140280000001,-4.526576810000427,0.18623554918029533,-1.1819131946508528, ,0.02527215487575786,-0.06272104531293508,0.0031086673536299767,0.0303788786591314,0.0009099874503032131,0.06790038826674316, ,0.7160871028900146
0.010622464800469746,0.02162955146129185,-0.08247918851579601, ,0.010807269043382703,0.022052018921817167,-0.0825540371646994, ,0.0004671548818582614, ,0.0020614471981689536,0.005755217043801943,-0.0013992252658304952,0.006112142991606467,-0.006762697359212952,-0.012884735540148106, ,0.006271357039480802, ,0.009115501495627462, ,4.6607807577744724e-05, ,0.1479907300687643,-0.25085753195343474,0.09256806890000001,-4.525528360283005,0.18623554918029533,-1.1793811537064953, ,0.02203318819560501,-0.059571212528857984,0.003048576367464115,0.02766925518075986,0.0009099874503032131,0.057575315393710996, ,0.758188009262085
0.01070524292398424,0.02186778585955971,-0.08253671406946594, ,0.010890414939896734,0.02230469809811822,-0.08260334814011516, ,0.0004791879370879355, ,0.0021241862998294453,0.0056869964880099325,-0.0015605627484119487,-0.02716769665988989,-0.005610915901780616,-0.0010238641299164042, ,0.006268129911125923, ,0.02774105475736983, ,4.7613947604348166e-05, ,0.14887112161642588,-0.2533365292060608,0.09269380903,-4.525108980396035,0.18623554918029533,-1.1766857552818566, ,0.022492756946781416,-0.05832633162782469,0.003208219842900302,0.017709463174453887,0.0009099874503032131,0.08856814673506198, ,0.7962169647216797
0.01078487331957556,0.02211253265801898,-0.0826055964230233, ,0.010972585304849838,0.02255579157012099,-0.08265418353977796, ,0.00048381293956238874, ,0.0019271992692878322,0.005976956167009167,-0.001695981802185328,-0.015476417533854552,-0.007633757332259014,0.015964381830848935, ,0.00650495628880289, ,0.01725670161635726, ,4.856058475109e-05, ,0.1497051767668421,-0.2558386946573096,0.09283251206000001,-4.524270220622098,0.18637218568006078,-1.174755204682039, ,0.020101025536638593,-0.06138223904170167,0.003404319623851251,0.0,0.002451035313864474,0.07744659111416478, ,0.8375561237335205
0.010847853859916701,0.02230330524744181,-0.08265023741289372, ,0.011053797922570087,0.0228053091438964,-0.08270652715102722, ,0.0005455175557366713, ,0.001923570232460027,0.006434371337237041,-0.0012737285113674432,0.004841101066827703,0.0006816215521900444,-0.022363762534528212, ,0.006835469352234288, ,0.004888851345285277, ,4.979909958530109e-05, ,0.15036933179402542,-0.2578079915402368,0.09293232639000001,-4.523431460848159,0.18637218568006078,-1.172549878698244, ,0.020611846559181315,-0.06682883208343011,0.003128817819681792,0.04014472905723537,0.002221308297329659,0.06818313923776576, ,0.8743741512298584
0.010933653286303873,0.0225614812631378,-0.08270674962792132, ,0.011134070470930667,0.02305326058448636,-0.08276036284261133, ,0.0005337493096849662, ,0.002307250681705187,0.006583581798388643,-0.0014171007892175198,-0.004835849178265917,-0.00912822638314398,-0.0038854481310250993, ,0.007118646616534931, ,0.010330051024614841, ,5.086936324187831e-05, ,0.15129605973893237,-0.2604800571147185,0.09306454797000001,-4.522592701074221,0.1865088221798262,-1.1696391832167394, ,0.024719182484623802,-0.06812415043680602,0.0033676134291754757,0.021148866698303164,0.00014272230854326092,0.07618276197767462, ,0.9121460914611816
0.011017564629049546,0.022820916962539288,-0.0827577273175943, ,0.011213420521584031,0.023299655615980783,-0.08281567456452224, ,0.000520488340278611, ,0.001974287789059222,0.006579083075439714,-0.0007845953195258669,0.0060760323116458535,0.004411277192444237,0.00027740596676367865, ,0.006913590688129254, ,0.0075084975274981505, ,5.17827121173531e-05, ,0.1522536786153362,-0.2631752908878228,0.09319288068,-4.522173321187252,0.18705536817888796,-1.1670627414463244, ,0.023362122491007085,-0.069623581480903,0.002758235761038961,0.020619547490802893,0.01414772937005887,0.06866531206049838, ,0.9488179683685303
0.011086237955267093,0.023022151396662152,-0.08279859631147418, ,0.011291865540196244,0.02354450392159582,-0.08287244634783017, ,0.000566205520865129, ,0.0023146375981065595,0.007002910594489774,-0.0021746433383239535,0.0036398746870213044,0.007170081943282876,-0.02895594501866963, ,0.007689432856453222, ,0.008041067265107013, ,5.315641775262735e-05, ,0.15298733823838753,-0.265244983298115,0.0932939913,-4.520915181526345,0.18705536817888796,-1.1644490217618264, ,0.024152950256673654,-0.06941985483428732,0.0042488160896239,0.05022687478425824,0.008801214509388715,0.07454916832933349, ,0.9804680347442627
0.011159308867061436,0.023237688266229597,-0.08286791810128497, ,0.011369422886681165,0.02378781514375042,-0.08293066230451579, ,0.000592219822068329, ,0.0023499943539287455,0.007220531139885329,-0.0020569926209158453,0.0071856592402065825,-0.003629094052182911,0.006846360724146856, ,0.007867004642686626, ,0.008050094553427858, ,5.4579757937796964e-05, ,0.15375188879293578,-0.26739190303714944,0.09342750917,-4.520495801639376,0.18732864117841885,-1.1623031741051428, ,0.024783740286881895,-0.0724957536733925,0.004271604054706356,0.012969222171653815,0.009341957182216358,0.0687283049426195, ,1.0124900341033936
0.011231146644165321,0.023460865313775003,-0.0829180404687405, ,0.01144610981543475,0.024029598884144382,-0.08299030662730555, ,0.0006122821545178824, ,0.0026402022585521427,0.007604936785646811,-0.0018840974592963578,-0.04098246087577563,-0.019421406261917705,-0.017036202961570792, ,0.008267741814780797, ,0.045351440116066816, ,5.6018159992802526e-05, ,0.15455505301185513,-0.2696314955706745,0.09354417527000002,-4.519657041865438,0.1878751871774806,-1.160135126035431, ,0.025393883210722713,-0.0774668910681394,0.004155703501174016,0.034832700111341486,-0.020330179750576514,0.12107287967335911, ,1.0441629886627197
0.011336105350761008,0.023769587230931994,-0.08299663043397203, ,0.011521943475569108,0.02426986470383548,-0.0830513635895051, ,0.0005364784029590553, ,0.0025439137943103264,0.007613544236502198,-0.0013074677652934372,0.02705970124885004,-5.0868495576956996e-05,-0.045220003254049325, ,0.008133082145862022, ,0.027059749061605094, ,5.700036314477429e-05, ,0.155651681079995,-0.2727746478504839,0.09371787813000002,-4.518398902204531,0.1878751871774806,-1.1567862976896677, ,0.027522314837143496,-0.0778481883170392,0.00365927211578222,0.06579281286844724,0.001835645466806961,0.06066519794020411, ,1.0763421058654785
0.011413523689396314,0.024002410296810262,-0.08304282027170086, ,0.01159694091114663,0.02450862212331697,-0.08311381754483302, ,0.0005430772535487587, ,0.002558205372011231,0.0078047931681205435,-0.0019508414927614237,0.0019018715734944016,-0.014797572366130846,0.01890060644166455, ,0.008441859608664897, ,0.014919291651572785, ,5.795786350039387e-05, ,0.15619999511406493,-0.2743423626239515,0.09379435924000001,-4.518398902204531,0.1878751871774806,-1.1554794378474187, ,0.02625814652973735,-0.07753018101182253,0.0038198588776978426,0.0294419194483935,0.0019134989498572938,0.06507822246413969, ,1.1083259582519531
0.011487695777102715,0.024237312857182627,-0.08312345930893653, ,0.011671119061414182,0.02474588062259467,-0.08317765292725429, ,0.0005433435575307551, ,0.002342423523141663,0.00768220433422798,-0.002295271790661803,-0.007379810755635682,0.005583724071509875,-0.038222949559386085, ,0.008352932657911614, ,0.009254165615118975, ,5.886340228061791e-05, ,0.15721167312058834,-0.27745462397226395,0.09398750645000001,-4.517140762543623,0.18801182367724606,-1.152242027405352, ,0.02305562234170816,-0.07531503298291331,0.0046250904529616735,0.060221965717314134,0.0,0.09192400168549647, ,1.1401519775390625
0.011553231823490356,0.024469007268558957,-0.08318618988069676, ,0.011744494761037148,0.024981649641264973,-0.0832428542508151, ,0.0005500859609311889, ,0.002300019328252458,0.007893559898370187,-0.002250349181047773,0.011661564676162698,-0.002412919733032531,0.009390144434315423, ,0.008524227133068149, ,0.011908579775803393, ,6.002072784409348e-05, ,0.15790671907926854,-0.2797637211016571,0.09412102432000001,-4.516721382656655,0.1884217331765424,-1.1499625614319433, ,0.023777735294029257,-0.07829780656639503,0.0046670997714620575,0.011801367018359226,0.009460761063132556,0.06968349815448208, ,1.1672601699829102
0.011603373455013884,0.024634642250957177,-0.08325167617116315, ,0.011817084740333536,0.02521593857859168,-0.08330940610947515, ,0.0006220214463921986, ,0.0023854436751323694,0.007979685429772078,-0.0032540730952108467,-0.017458810109300817,0.016289246717144247,-0.033368786375567706, ,0.008941739919854575, ,0.0238778057760706, ,6.144514292007458e-05, ,0.158370083051722,-0.2813391586079989,0.09423639413000001,-4.5158826228827165,0.1884217331765424,-1.147920592928429, ,0.022675493801307234,-0.0749580896986341,0.005668616199288257,0.05913650368481851,0.009460761063132556,0.10308131754398461, ,1.1936919689178467
0.011677285335394857,0.02488236529372131,-0.08334642306035515, ,0.01188890562550796,0.025448756793583695,-0.08337729317694244, ,0.0006054217062527794, ,0.002561640540119272,0.008495488435948117,-0.003669024133492244,0.01412999564310397,-0.0008641828573847764,0.0025959455080187296, ,0.009601930228566506, ,0.014156397430852253, ,6.273603465882959e-05, ,0.159057406277528,-0.2837100376003858,0.09440620812000002,-4.515253553052263,0.1884217331765424,-1.1453885519840719, ,0.024024542166701465,-0.07967837242524835,0.00624904335817968,0.01921793118649622,0.009100287627772534,0.06965599654572806, ,1.21983003616333
0.011730371146382234,0.025053784643174277,-0.0834050349363777, ,0.011959973938885704,0.02568011360507221,-0.08344650020650685, ,0.0006683747298218382, ,0.002500136819372503,0.008545072042768859,-0.002066178931306352,0.0027567283734267088,0.006788782574332741,-0.023545873581020275, ,0.009139914425631472, ,0.007327149522751891, ,6.423897769496387e-05, ,0.15956710664722681,-0.28536270243546985,0.09451768906,-4.51462448322181,0.1884217331765424,-1.143509940960839, ,0.025999162070813913,-0.08457837928562457,0.004743541250744492,0.04888960503739363,0.0074930791892857725,0.09040103337667921, ,1.2461800575256348
0.011804507585592209,0.025311336149856447,-0.08346737540363776, ,0.012030306099146806,0.02591001829178823,-0.08351701203087296, ,0.0006417702630652017, ,0.0025559189674189534,0.008888617969137149,-0.0026821763768356743,0.021721596844270823,0.014021318329950277,0.009128020839855002, ,0.00962986610943969, ,0.025853919181354705, ,6.55691659712725e-05, ,0.1603857163318946,-0.28791120428396394,0.09466157725,-4.513785723447872,0.18910491567536958,-1.1411265958342607, ,0.027715228258899178,-0.08619159087962833,0.005487017402686876,0.019983080431687464,0.028287315154207415,0.07152816018386529, ,1.2731530666351318
0.011863368800744591,0.025499326094738938,-0.0835271648033927, ,0.01209991842155994,0.026138480092439863,-0.0835888135619952, ,0.0006843055789062284, ,0.00327411245333883,0.009243642508306591,-0.0028107273778900472,-0.0338177889199905,-0.01184446855517738,-0.014505291887858759, ,0.010201221866585475, ,0.03583202872593446, ,6.729173297135878e-05, ,0.16098808949608412,-0.2897260465094067,0.09478083593000002,-4.513366343560902,0.18937818867490044,-1.1390624269177176, ,0.03195183217456929,-0.08944103822664541,0.00576712944243302,0.03841798084668462,-0.008345567566698523,0.12827685822523616, ,1.2941350936889648
0.011927950048820735,0.025686837449247386,-0.0835866128024508, ,0.012168827118216482,0.026365508205789673,-0.08366188979090977, ,0.0007240734654286222, ,0.0031184438659820797,0.009772897390599855,-0.00321730996011795,-0.006522641267702516,-0.0021401867563317764,-0.0009624062435169593, ,0.010751060363143205, ,0.006864783180435882, ,6.911866684101013e-05, ,0.16161363085889632,-0.29153316600197526,0.09490009461000001,-4.5127372737304485,0.18924155217513502,-1.136745683030226, ,0.031072999855425925,-0.09267279449069411,0.006283554840236687,0.02804607369861365,0.007323270563407492,0.10536534339244252, ,1.3150761127471924
0.011987998989373614,0.025865209985151134,-0.0836530806768353, ,0.012237048298264538,0.026591111790732338,-0.08373622578756985, ,0.0007719275218854161, ,0.0033269947414606956,0.010014648116430403,-0.0037653429093676078,0.001005556972587137,-0.00016405680246784444,-0.019401780461171473, ,0.011204457957918136, ,0.0010188516588209412, ,7.107697851896023e-05, ,0.16218511309158892,-0.293208999035682,0.09502324216000001,-4.511898513956511,0.18924155217513502,-1.1347853932668528, ,0.03202731743451596,-0.09377168138188813,0.006955812890829694,0.046647513550809754,0.005322173510280418,0.10075301272221923, ,1.338582992553711
0.012100799448621538,0.026226275341719688,-0.08377801403316398, ,0.012304597968142787,0.026815299966371678,-0.08381180670067837, ,0.0006242001196597198, ,0.003640642386280956,0.010551015612865543,-0.003630287802595819,-0.0295306365982523,-0.01789389753568657,-0.0008429266435672836, ,0.011737001191845979, ,0.034528974301087464, ,7.239951628387806e-05, ,0.1633435230227226,-0.2966224469660892,0.0952643521,-4.511059754182572,0.19006137117372765,-1.1317783573827058, ,0.0344078830886406,-0.09999677719543813,0.00703880314626602,0.026048824433472464,-0.009239693507872956,0.13243524019031355, ,1.360490083694458
0.012172078968527336,0.026443424280368243,-0.08384779902849004, ,0.012371492031814469,0.02703808181209805,-0.0838886177575216, ,0.0006285294889599829, ,0.0031982258659486833,0.01037918427068698,-0.0032677000862826877,0.0064499117143855264,-0.0022730350459649537,-0.007035457234428185, ,0.011341692054909229, ,0.006838716917008622, ,7.369810411462316e-05, ,0.16401540078278012,-0.29866124844488445,0.09540175884,-4.510430684352119,0.18992473467396223,-1.1292165772747926, ,0.03148538206983105,-0.09916085847280122,0.006661987252195735,0.03541897796641976,0.006295783428254062,0.09849380472990281, ,1.3813860416412354
0.01220525720068177,0.026543664551401107,-0.08387991855799214, ,0.012437746291001466,0.027259466367665967,-0.0839666442638031, ,0.0007575914237464419, ,0.003421177973181932,0.010702453411300073,-0.003316824121864204,0.023838052540190516,-0.011007485188131787,0.002302301092375198, ,0.011715301532637307, ,0.026256760627967647, ,7.57302901426632e-05, ,0.16434747829637178,-0.2996497582527852,0.09546916592000002,-4.510430684352119,0.18992473467396223,-1.1282364323931058, ,0.033867573718226546,-0.10203972210588257,0.006810094707139805,0.023845404683472054,0.005251228948697359,0.08232285356722016, ,1.3972151279449463
0.012280732783562886,0.026782937980009594,-0.08398785818899786, ,0.012503376445418088,0.027479462633271248,-0.08404587160347693, ,0.0007335409661532755, ,0.0038054530751228982,0.012113384990889308,-0.006337984021977773,0.00042629576680037464,0.01556993465408376,-0.06046692618564104, ,0.014191039796551563, ,0.01557576909773816, ,7.762673244875042e-05, ,0.1650116333235551,-0.30180440072469383,0.09565323910000001,-4.509172544691212,0.18992473467396223,-1.1261127851494512, ,0.031984139386070365,-0.10532401948775891,0.010158680816326532,0.0938463087993832,0.003909001695302689,0.1202160309053111, ,1.412912130355835
0.012319977097147033,0.02690720724356696,-0.08405093479673975, ,0.012568398093005058,0.027698079569628546,-0.084126285238582, ,0.0008323879602679134, ,0.003907181221994157,0.012584929275532078,-0.006202120570256934,-0.02026895926213874,0.005271048050277942,-0.022361395559654135, ,0.014564093158849687, ,0.02094312889569208, ,7.98471315706825e-05, ,0.16534371083714675,-0.3029010287928337,0.09575564601000001,-4.508753164804243,0.18992473467396223,-1.1248059253072022, ,0.033485159336087075,-0.11125081073677699,0.010197702637644048,0.05605132221456563,0.0034728647481423805,0.14102340783019698, ,1.42854905128479
0.01239508093406726,0.02715561253349554,-0.08418803295966307, ,0.012632826730163497,0.027915326098048737,-0.0842078707090747, ,0.0007962922202491234, ,0.0037159845449038047,0.012807823337665598,-0.006474973052810102,-0.031552629477171565,-0.010406542752823598,0.027771450996741137, ,0.014824781813619804, ,0.033224457070188146, ,8.188651188400514e-05, ,0.1659615294670847,-0.30505567126474237,0.09597083015,-4.508333784917274,0.19006137117372765,-1.121895229825698, ,0.030493875822130714,-0.11337746900653618,0.010514067009900992,0.002421844347936383,0.0,0.1454926161190339, ,1.444336175918579
0.01243520721328875,0.027292114970490125,-0.08424642585104455, ,0.012696677751988779,0.028131211100515852,-0.08429061363266302, ,0.000880000976179343, ,0.0038934823326668153,0.012974012727219701,-0.004899579614172023,-0.029314884364597865,0.0034032166980394584,-0.015067400234467333, ,0.014404516351355135, ,0.029511765897350467, ,8.418485043664039e-05, ,0.16632449791217327,-0.30628358579174403,0.09607323706000001,-4.50770471508682,0.1901980076734931,-1.120373072926583, ,0.03566213512155985,-0.11906768075090436,0.009123030652920965,0.05102329456955956,0.0029309012239351027,0.15712238222701524, ,1.4601020812988281
0.01251036290607225,0.027556955466292138,-0.0843413795652897, ,0.012759966452504459,0.028345743419765215,-0.08437449970464003, ,0.0008280007908005683, ,0.003804831115193237,0.013682638548516124,-0.004615429119538041,0.040803583736001424,-0.006658268234960811,0.0014257619036001235, ,0.014932967669621525, ,0.041343257969046955, ,8.624738176097963e-05, ,0.1670349893366019,-0.3087316921128732,0.09625471766,-4.507075645256367,0.19047128067302396,-1.1183089040100402, ,0.035675541939274726,-0.12737844504492724,0.009096979737292977,0.031367296460346104,0.007746985373264038,0.09204806912889658, ,1.4772450923919678
0.012560156108437604,0.027731341555004365,-0.08439805208857432, ,0.012822708024896205,0.028558931859360096,-0.08445951469771745, ,0.0008704118984839179, ,0.00347665696792841,0.01300415449873144,-0.003874689894572152,0.013461085256023216,-0.005720771774338969,0.015349725850563944, ,0.01400744086828932, ,0.01462627926338945, ,8.873107263273037e-05, ,0.16749835330905538,-0.3103611887493346,0.09636879118000001,-4.506656265369397,0.19047128067302396,-1.1167570079473694, ,0.03333225906514604,-0.12276447808340334,0.008164434402870324,0.01753092533017682,0.007746985373264038,0.11289459758324207, ,1.4879231452941895
0.012600275151635958,0.027880105800708904,-0.08444345405580722, ,0.012884917561745686,0.028770785183769677,-0.08454564446185907, ,0.0009406242310995575, ,0.004333259304046551,0.015141539483084651,-0.005210879036447955,0.0021356688559270635,-0.007196272965910052,-0.03746385303885636, ,0.01658905104116598, ,0.0075064920049305265, ,9.142775844839856e-05, ,0.1678844899527666,-0.311751280666695,0.09646342035000001,-4.506027195538945,0.1906079171727894,-1.1156432447489575, ,0.03835769666874324,-0.13955432582128055,0.010191178195777351,0.07291456511408992,-0.011612391981018537,0.14705634298112008, ,1.4984691143035889
0.012645732186202704,0.02803854265585331,-0.08451245838651332, ,0.012946610055264544,0.028981312118445884,-0.08463287492411474, ,0.0009969161921727424, ,0.00499042733437962,0.016326718321255613,-0.008014221168948225,-0.03882086221846584,-0.0020599142721652226,-0.0364643303053343, ,0.018859847217466127, ,0.038875475008461204, ,9.428411169498083e-05, ,0.16827062659647785,-0.3131568180498039,0.09658397532000002,-4.505188435765006,0.1906079171727894,-1.1140096699461464, ,0.040381677258923734,-0.14184894104405196,0.01330727779448622,0.07607162137648564,-0.011510756548640031,0.19134442661843704, ,1.5090420246124268
0.012699370104547037,0.02821360654664575,-0.08461036482085962, ,0.013007800397528156,0.029190521349901077,-0.08472119208845304, ,0.0010304244085278804, ,0.005549793690712939,0.017265449206817676,-0.010132811924065283,-0.07192556970324446,-0.013713130192309702,0.011135504013029532, ,0.020774258682589804, ,0.07322115411537958, ,9.721740850730806e-05, ,0.16867220870593752,-0.31453918723429003,0.09672656722,-4.504769055878036,0.1906079171727894,-1.1120493801827727, ,0.04272712361930247,-0.1444397892822995,0.01546486555339806,0.0288583382818153,-0.009971373950281217,0.2196623831755026, ,1.5196850299835205
0.012754692855494474,0.028386897043755806,-0.08471804907697034, ,0.013068503380709669,0.02939842152578537,-0.08481058203559563, ,0.0010631186067005733, ,0.00576883901070018,0.01833329731030554,-0.01189644879075221,-0.07465285285112204,-0.01418304419614055,0.022649565022390666, ,0.022603424245685042, ,0.07598820265805376, ,0.00010022323476919718, ,0.16912012721264255,-0.3160682883433865,0.09690156637000001,-4.504559365934552,0.1906079171727894,-1.109762375458837, ,0.04204560990627859,-0.14944400245428469,0.017738097461024498,0.018370719930983232,-0.008708274676724402,0.22630252596532116, ,1.5305030345916748
0.012815951356480037,0.02857370491345366,-0.08483963982875256, ,0.013128733697313802,0.0296050212549641,-0.08490103092285073, ,0.001079451275157199, ,0.006286766886517629,0.01907242902326969,-0.012318192788154417,-0.049597207938049295,0.007522371803918836,-0.03119063651345231, ,0.02355883826293678, ,0.05016441795922398, ,0.00010324386984005219, ,0.16956804571934755,-0.3175742212538603,0.09708304697,-4.503720606160614,0.19047128067302396,-1.107527310311486, ,0.04783111973713245,-0.15355492161564852,0.018478899675174017,0.07953848476579853,0.0015824374176014403,0.21656142681985796, ,1.5417649745941162
0.01287756648738135,0.028773869720693478,-0.08496149045556088, ,0.013188505940410832,0.029810329107594877,-0.08499252498394624, ,0.0010825407826490423, ,0.005974692592479222,0.01946076218280096,-0.01108291625498529,-0.022386849984222214,0.00177242654039371,-0.013463621346744382, ,0.02317863777328554, ,0.022456900517303754, ,0.00010623381196622604, ,0.17004685515754947,-0.3192114406231959,0.09726971273000001,-4.50309153633016,0.1906079171727894,-1.1054334022313872, ,0.04681644872149521,-0.161664295670308,0.017427583719912477,0.061086465375163906,0.00356999358268498,0.19443602443459632, ,1.552320957183838
0.012932918620694274,0.028955431495554355,-0.08505415488069401, ,0.01324783460387034,0.030014353615205366,-0.08508505052886338, ,0.001105188976158261, ,0.005571291123583882,0.018916667666286906,-0.008545971877254406,0.006991140951618175,-0.005085979714747418,0.01942839110577992, ,0.02149216684532512, ,0.008645414731564584, ,0.00010925998604156776, ,0.1705256645957514,-0.32075598719804077,0.09742267495000001,-4.502881846386677,0.1908811901723203,-1.1038593057556878, ,0.04821999062930426,-0.16475163465012285,0.014858965970149254,0.02764157889671691,0.013431665536624377,0.16385196116918524, ,1.5629680156707764
0.012988842211817415,0.02914997039368708,-0.08512958168652351, ,0.013306734082595249,0.03021710327077032,-0.08517859394367067, ,0.0011145537314141683, ,0.00542045083258633,0.019135752774528513,-0.0069251856398687625,0.05531580118598231,0.012625872877906237,0.03025994167654136, ,0.021059831851726784, ,0.056738439446713036, ,0.00011265624869485358, ,0.17104308769832444,-0.32248587936186707,0.09756397056,-4.502462466499707,0.1911544631718512,-1.1025302455004098, ,0.052662009743879454,-0.1716038726192962,0.013464760371935757,0.02528558264517027,0.04355919249237694,0.12603391203973774, ,1.5682590007781982
0.012988842211817415,0.02914997039368708,-0.08512958168652351, ,0.013365218672755561,0.030418586528789177,-0.08527314169035685, ,0.001331035541708159, ,0.00542045083258633,0.019135752774528513,-0.0069251856398687625,0.05531580118598231,0.012625872877906237,0.03025994167654136, ,0.021059831851726784, ,0.056738439446713036, ,0.00011675853587671656, ,0.17104308769832444,-0.32248587936186707,0.09756397056,-4.502462466499707,0.1911544631718512,-1.1025302455004098, ,0.052662009743879454,-0.1716038726192962,0.013464760371935757,0.02528558264517027,0.04355919249237694,0.12603391203973774, ,1.5736100673675537
0.013059063896028868,0.029392996104980983,-0.0852206490222331, ,0.013423302572022415,0.030618811805363282,-0.08536868030666495, ,0.001287325601999673, ,0.0070950467232749675,0.022878248590122538,-0.010274438243153002,-0.05957685761165016,-0.016018503654959534,-0.04921979256911983, ,0.026063730120020497, ,0.061692741126705974, ,0.000653902013770627, ,0.17167635179401086,-0.3246482445666499,0.09773767342,-4.501623706725769,0.19129109967161662,-1.1003546586801705, ,0.05662108684872958,-0.19406327517069688,0.016558016133056134,0.08656413797696423,-0.02964151107806688,0.25297733153762547, ,1.5789401531219482
0.013059063896028868,0.029392996104980983,-0.0852206490222331, ,0.01348099987980176,0.030817787478273462,-0.08546519640592484, ,0.00150594284575529, ,0.0070950467232749675,0.022878248590122538,-0.010274438243153002,-0.05957685761165016,-0.016018503654959534,-0.04921979256911983, ,0.026063730120020497, ,0.061692741126705974, ,0.000669117028627496, ,0.17167635179401086,-0.3246482445666499,0.09773767342,-4.501623706725769,0.19129109967161662,-1.1003546586801705, ,0.05662108684872958,-0.19406327517069688,0.016558016133056134,0.08656413797696423,-0.02964151107806688,0.25297733153762547, ,1.5842499732971191
0.01313061925837153,0.029629587908878655,-0.0853384344212137, ,0.013538324597468405,0.03101552188705711,-0.08556267667688822, ,0.0014619580105555874, ,0.007931228155668369,0.024889629976310453,-0.014369944641261395,-0.0988334070662922,0.0021779228923456168,-0.056376133556876644, ,0.029814314840489554, ,0.09885739773895269, ,0.0006830265195385153, ,0.17225555675957768,-0.32664070964819986,0.09793470950000001,-4.500575257008347,0.19129109967161662,-1.097659260255532, ,0.05945923656545788,-0.20233889458096116,0.02262615272727273,0.11678234123217635,-0.020076081379898355,0.3179268355775464, ,1.5896430015563965
0.01313061925837153,0.029629587908878655,-0.0853384344212137, ,0.013595290628599845,0.031212023333085866,-0.08566110788356113, ,0.0016805176337661549, ,0.007931228155668369,0.024889629976310453,-0.014369944641261395,-0.0988334070662922,0.0021779228923456168,-0.056376133556876644, ,0.029814314840489554, ,0.09885739773895269, ,0.0007002246421976125, ,0.17225555675957768,-0.32664070964819986,0.09793470950000001,-4.500575257008347,0.19129109967161662,-1.097659260255532, ,0.05945923656545788,-0.20233889458096116,0.02262615272727273,0.11678234123217635,-0.020076081379898355,0.3179268355775464, ,1.5951249599456787
0.013213583584826825,0.02989139330089504,-0.08550904499858378, ,0.01365191177921002,0.03140730007964262,-0.08576047686503745, ,0.0015979120599433705, ,0.009138683074830812,0.02831458816587226,-0.020463721842037888,-0.15643419344209744,0.005640537720762718,-0.020488060379675214, ,0.0361108756882667, ,0.1565358392032792, ,0.0007154396831763541, ,0.1728579299237672,-0.32869495659274356,0.09819137492,-4.499526807290924,0.19129109967161662,-1.0941470744294879, ,0.061541466639734616,-0.2151858085226095,0.029662591284916204,0.08858064256974876,-0.014487889986818263,0.3853178931964396, ,1.6004650592803955
0.013213583584826825,0.02989139330089504,-0.08550904499858378, ,0.01370820175798338,0.0316013603519994,-0.08586077053533268, ,0.0018144821041499869, ,0.009138683074830812,0.02831458816587226,-0.020463721842037888,-0.15643419344209744,0.005640537720762718,-0.020488060379675214, ,0.0361108756882667, ,0.1565358392032792, ,0.000733757056859248, ,0.1728579299237672,-0.32869495659274356,0.09819137492,-4.499526807290924,0.19129109967161662,-1.0941470744294879, ,0.061541466639734616,-0.2151858085226095,0.029662591284916204,0.08858064256974876,-0.014487889986818263,0.3853178931964396, ,1.6059181690216064
0.013311211162920535,0.030191457577370802,-0.08574006556709002, ,0.013764174176508668,0.031794212337494174,-0.08596197588321788, ,0.0016802507256897523, ,0.010209935386209415,0.031661356025436765,-0.0253566461896103,-0.15512660263764028,0.01482494737561041,-0.0032853545220873984, ,0.041828743131309964, ,0.15583334504600216, ,0.0007492733465122071, ,0.17349119401945362,-0.33091910366052024,0.09851933629000001,-4.4986880475169855,0.1911544631718512,-1.0901150769990444, ,0.06513173751439313,-0.23033238242347276,0.03555538285714287,0.07969264080503324,0.0,0.3999124159480796, ,1.6112360954284668
0.013311211162920535,0.030191457577370802,-0.08574006556709002, ,0.01381984254951268,0.031985864185608746,-0.08606407997205204, ,0.001893036264242591, ,0.010209935386209415,0.031661356025436765,-0.0253566461896103,-0.15512660263764028,0.01482494737561041,-0.0032853545220873984, ,0.041828743131309964, ,0.15583334504600216, ,0.0007677211355078585, ,0.17416307177951115,-0.33332087358440404,0.09889785297,-4.497849287743048,0.19129109967161662,-1.0863875941161343, ,0.06931843795359444,-0.24024542166701462,0.03801625661097852,0.09635715171875668,0.007757871407104883,0.3441149071612203, ,1.6171250343322754
0.01341718308447002,0.030525078435349986,-0.08601110521333061, ,0.013875220295094417,0.032176324008045674,-0.08616706993961677, ,0.00172067865201763, ,0.010872492585170701,0.03351161172367287,-0.027163581517043376,-0.08630433425913282,0.015931470392515676,-0.018452098064765825, ,0.044487069763762384, ,0.08776237845400581, ,0.0007828474452937279, ,0.17416307177951115,-0.33332087358440404,0.09889785297,-4.497849287743048,0.19129109967161662,-1.0863875941161343, ,0.06931843795359444,-0.24024542166701462,0.03801625661097852,0.09635715171875668,0.007757871407104883,0.3441149071612203, ,1.6226630210876465
0.013530366400012579,0.030877646955211766,-0.0862845243052954, ,0.013930320734958547,0.03236559987880607,-0.08627093299794923, ,0.0015408283799665334, ,0.011059969796485224,0.03417517720763268,-0.025417642130514357,-0.030567093566072283,0.004022474911486458,-0.01373000797563779, ,0.04400366121753008, ,0.030830454171894065, ,0.0007946908973979905, ,0.17491989960118515,-0.3358770981657724,0.09928673997000001,-4.496800838025624,0.1915643726711475,-1.083261601577764, ,0.07460451380382924,-0.2510501099430444,0.03670233069124424,0.090342176247037,0.009218986537394495,0.29772427499328413, ,1.6279211044311523
0.013530366400012579,0.030877646955211766,-0.0862845243052954, ,0.013985157094649741,0.03255369983426651,-0.08637565643317556, ,0.0017390494225433073, ,0.011059969796485224,0.03417517720763268,-0.025417642130514357,-0.030567093566072283,0.004022474911486458,-0.01373000797563779, ,0.04400366121753008, ,0.030830454171894065, ,0.0008092194900925337, ,0.17491989960118515,-0.3358770981657724,0.09928673997000001,-4.496800838025624,0.1915643726711475,-1.083261601577764, ,0.07460451380382924,-0.2510501099430444,0.03670233069124424,0.090342176247037,0.009218986537394495,0.29772427499328413, ,1.6332170963287354
0.013634391452015383,0.03120425654516009,-0.08650815220352888, ,0.014039742503786128,0.032740631873256994,-0.08648122760534449, ,0.0015891770064860326, ,0.010854714423530622,0.03475704145819035,-0.02187593064744354,0.03976735005808451,0.011688211735410348,0.004188516298428756, ,0.042478619302356406, ,0.04144938376227225, ,0.000821037028219708, ,0.17566900468998492,-0.33833292721977576,0.0996198865,-4.4959620782516865,0.1918376456706784,-1.0807890389605186, ,0.08166690323448432,-0.26731532833372046,0.03367613429175476,0.08042704183388567,0.03625388965708518,0.24533188633219746, ,1.638498067855835
0.013634391452015383,0.03120425654516009,-0.08650815220352888, ,0.01409408999629347,0.03292640395713757,-0.08658763394826106, ,0.0017842174217112098, ,0.010854714423530622,0.03475704145819035,-0.02187593064744354,0.03976735005808451,0.011688211735410348,0.004188516298428756, ,0.042478619302356406, ,0.04144938376227225, ,0.0008354128549882379, ,0.17566900468998492,-0.33833292721977576,0.0996198865,-4.4959620782516865,0.1918376456706784,-1.0807890389605186, ,0.08166690323448432,-0.26731532833372046,0.03367613429175476,0.08042704183388567,0.03625388965708518,0.24533188633219746, ,1.6438090801239014
0.013750420923166645,0.031582491102173205,-0.08672461243891341, ,0.014148212510638783,0.03311102400987656,-0.08669486296931969, ,0.0015797265674593144, ,0.010673861625546094,0.03602676530393082,-0.019199937607421128,0.06343523600741298,0.008464263785362854,0.00020651656493114994, ,0.04219593279446116, ,0.06399742432000019, ,0.0008463586448775184, ,0.1764876143746527,-0.3411131110544966,0.09994395900000001,-4.495123318477749,0.19197428217044385,-1.078286737179717, ,0.08420314246536893,-0.28669770863586336,0.031985565301204825,0.0875501077881974,0.03431205975575124,0.24214829894954917, ,1.6494359970092773
0.013750420923166645,0.031582491102173205,-0.08672461243891341, ,0.014202122890064374,0.03329449991812717,-0.08680290224933845, ,0.0017723256323880674, ,0.010673861625546094,0.03602676530393082,-0.019199937607421128,0.06343523600741298,0.008464263785362854,0.00020651656493114994, ,0.04219593279446116, ,0.06399742432000019, ,0.0008597784562907148, ,0.1764876143746527,-0.3411131110544966,0.09994395900000001,-4.495123318477749,0.19197428217044385,-1.078286737179717, ,0.08420314246536893,-0.28669770863586336,0.031985565301204825,0.0875501077881974,0.03431205975575124,0.24214829894954917, ,1.6547870635986328
0.01385284637072839,0.03192294790759844,-0.08689752129815867, ,0.014255833882821626,0.03347683953130543,-0.08691173944239156, ,0.0016053598564668519, ,0.010916526825374865,0.036532289023765145,-0.017288945787474475,0.0258298775090959,-0.029520313409433847,-0.007834588672400443, ,0.04186509698647874, ,0.039225373563953884, ,0.0008704296191503739, ,0.17736028318944008,-0.3440554722795761,0.10025766118000001,-4.494284558703811,0.19211091867020927,-1.0755393991784936, ,0.08595737460006411,-0.29841805521531695,0.030111174896030254,0.08475205774398178,-0.01153885821685627,0.28369502811857406, ,1.660088062286377
0.01385284637072839,0.03192294790759844,-0.08689752129815867, ,0.014309358142404919,0.03365805066166719,-0.08702136227564342, ,0.0017984218505569189, ,0.010916526825374865,0.036532289023765145,-0.017288945787474475,0.0258298775090959,-0.029520313409433847,-0.007834588672400443, ,0.04186509698647874, ,0.039225373563953884, ,0.0008834999322687759, ,0.17736028318944008,-0.3440554722795761,0.10025766118000001,-4.494284558703811,0.19211091867020927,-1.0755393991784936, ,0.08595737460006411,-0.29841805521531695,0.030111174896030254,0.08475205774398178,-0.01153885821685627,0.28369502811857406, ,1.6654529571533203
0.01396242644298413,0.03230435083407433,-0.08706329712564288, ,0.014362708227785417,0.033838141084385744,-0.08713175854918213, ,0.001586639532378752, ,0.010446594629312876,0.037174697164999146,-0.015386208445107002,0.03831568775900203,-0.03009683810781253,0.007519980193422274, ,0.04156711270914623, ,0.04872279477035225, ,0.0008932657600480812, ,0.1782483974699759,-0.34721407002513394,0.10055840046000002,-4.493445798929873,0.19211091867020927,-1.072680643273574, ,0.08450306461128297,-0.31012072404729013,0.02859750721723519,0.07158039153238373,-0.008738030756590288,0.28093206614099453, ,1.670823097229004
0.01396242644298413,0.03230435083407433,-0.08706329712564288, ,0.014415896603644993,0.03401711853762913,-0.08724291613585329, ,0.0017808625387095772, ,0.010446594629312876,0.037174697164999146,-0.015386208445107002,0.03831568775900203,-0.03009683810781253,0.007519980193422274, ,0.04156711270914623, ,0.04872279477035225, ,0.0009054246200297454, ,0.1782483974699759,-0.34721407002513394,0.10055840046000002,-4.493445798929873,0.19211091867020927,-1.072680643273574, ,0.08450306461128297,-0.31012072404729013,0.02859750721723519,0.07158039153238373,-0.008738030756590288,0.28093206614099453, ,1.6761009693145752
0.014067477671806905,0.0326891938867744,-0.08722183161887423, ,0.014468935640610033,0.034194990722637195,-0.08735482298109226, ,0.0015640586031330597, ,0.010367846660289892,0.037557223333004736,-0.015594990449946656,0.04950608184949782,-0.026444551190325478,0.003361738257338593, ,0.041967141861108524, ,0.05612633522094243, ,0.0009143250792608713, ,0.1790978980861406,-0.35041900416793714,0.10085395458000002,-4.4928167290994185,0.19211091867020927,-1.069903566108795, ,0.08302444580793594,-0.31113751330646156,0.029014228633879785,0.07647488988642026,-0.007009616371140781,0.27169912119613127, ,1.6815900802612305
0.014067477671806905,0.0326891938867744,-0.08722183161887423, ,0.014521837615485434,0.034371765303799755,-0.08746746710275946, ,0.0017600642950624818, ,0.010367846660289892,0.037557223333004736,-0.015594990449946656,0.04950608184949782,-0.026444551190325478,0.003361738257338593, ,0.041967141861108524, ,0.05612633522094243, ,0.0009256016021382261, ,0.17990878503793417,-0.35351582005050114,0.10115210128,-4.491977969325481,0.19211091867020927,-1.0672898464242968, ,0.08287942494189587,-0.3184461126123181,0.030632329846153848,0.07589660736554932,-0.00587818082664702,0.26977650348248855, ,1.6876230239868164
0.014170286368749688,0.033067139967042594,-0.08738503410319441, ,0.014574614711488272,0.03454744990873307,-0.0875808365909724, ,0.0015469769055902025, ,0.01057383942957471,0.038904201427034484,-0.016694794482768876,0.05866834375319727,-0.025501148624580892,0.0057688923934245805, ,0.04363552602845061, ,0.06397094530347026, ,0.0009337775929731206, ,0.17990878503793417,-0.35351582005050114,0.10115210128,-4.491977969325481,0.19211091867020927,-1.0672898464242968, ,0.08287942494189587,-0.3184461126123181,0.030632329846153848,0.07589660736554932,-0.00587818082664702,0.26977650348248855, ,1.6932060718536377
0.014277951412289854,0.03345588260786355,-0.08755514228303544, ,0.014627279018481765,0.03472205212835776,-0.08769491960793978, ,0.001320890885589614, ,0.010850538460564156,0.03915688657819124,-0.017351056375365943,0.0817578253607298,-0.027949274150746255,0.012617514644926138, ,0.04418206772801203, ,0.08640313860403526, ,0.0009388050383317764, ,0.18074284018835043,-0.35667441779605896,0.10146191459000001,-4.491139209551543,0.19197428217044385,-1.064646387576243, ,0.08488098529380213,-0.3163231385282359,0.031479864664031625,0.06856342429374394,0.0,0.243947509426216, ,1.6985900402069092
0.014277951412289854,0.03345588260786355,-0.08755514228303544, ,0.014679842533209142,0.034895579516976125,-0.08780970438779505, ,0.0015162603761761041, ,0.010850538460564156,0.03915688657819124,-0.017351056375365943,0.0817578253607298,-0.027949274150746255,0.012617514644926138, ,0.04418206772801203, ,0.08640313860403526, ,0.0009462083118938833, ,0.18074284018835043,-0.35667441779605896,0.10146191459000001,-4.491139209551543,0.19197428217044385,-1.064646387576243, ,0.08488098529380213,-0.3163231385282359,0.031479864664031625,0.06856342429374394,0.0,0.243947509426216, ,1.703888177871704
0.014387497012867257,0.033848922994513066,-0.08773320483657837, ,0.014732317159527612,0.03506803959234929,-0.08792517923642972, ,0.001281405627762311, ,0.011055719383199556,0.0389536036342885,-0.018186480859440652,0.07933643217939484,-0.03066121785685717,0.016053457669177987, ,0.044388740162659604, ,0.08505514541710041, ,0.0009504513158922178, ,0.1815923408045151,-0.3598252928087426,0.10178209822,-4.490510139721089,0.19197428217044385,-1.0621960253720262, ,0.08510936462643119,-0.3091105588223804,0.03230996251521299,0.06326861328219173,0.0,0.23829102659968326, ,1.7091729640960693
0.014387497012867257,0.033848922994513066,-0.08773320483657837, ,0.01478471470864193,0.035239439835774974,-0.08804133253132675, ,0.0014786012511628975, ,0.011055719383199556,0.0389536036342885,-0.018186480859440652,0.07933643217939484,-0.03066121785685717,0.016053457669177987, ,0.044388740162659604, ,0.08505514541710041, ,0.0009570531900831012, ,0.1815923408045151,-0.3598252928087426,0.10178209822,-4.490510139721089,0.19197428217044385,-1.0621960253720262, ,0.08510936462643119,-0.3091105588223804,0.03230996251521299,0.06326861328219173,0.0,0.23829102659968326, ,1.7144520282745361
0.01449729285039936,0.034237265965671955,-0.08791736276335138, ,0.014837046899338534,0.0354097876921643,-0.08815815272139416, ,0.0012442748156100407, ,0.011307084110183318,0.03931394353389872,-0.018999224127377826,0.14104751983852226,-0.03350215784993905,-0.001994876767023323, ,0.04510439917240526, ,0.14497170398945816, ,0.000960599136077261, ,0.18244184142067982,-0.3628834950269355,0.10210746701000001,-4.489881069890636,0.19211091867020927,-1.0603471535123492, ,0.08587958512078804,-0.30710984323129703,0.033323873472803356,0.0780496052009034,0.0009773144823240925,0.1764989388481128, ,1.719783067703247
0.01449729285039936,0.034237265965671955,-0.08791736276335138, ,0.014889325358219279,0.035579090570119806,-0.08827562832679903, ,0.00144309977833886, ,0.011307084110183318,0.03931394353389872,-0.018999224127377826,0.14104751983852226,-0.03350215784993905,-0.001994876767023323, ,0.04510439917240526, ,0.14497170398945816, ,0.0009664832902511829, ,0.18244184142067982,-0.3628834950269355,0.10210746701000001,-4.489881069890636,0.19211091867020927,-1.0603471535123492, ,0.08587958512078804,-0.30710984323129703,0.033323873472803356,0.0780496052009034,0.0009773144823240925,0.1764989388481128, ,1.725121021270752
0.014608629039134041,0.03463125959409215,-0.0881123353300724, ,0.01494156161993531,0.03574735584201232,-0.08839374793879994, ,0.0011982103297548897, ,0.011137877938022624,0.03900567453453439,-0.02079181886935879,0.11394538773318395,-0.0295340147979406,0.007704930191971844, ,0.045582833421722924, ,0.11771068570912288, ,0.0009692751822933963, ,0.18326817383822183,-0.3659339745122542,0.10244579870000001,-4.489042310116697,0.19211091867020927,-1.0585502212292566, ,0.08001428461928396,-0.2956291014282579,0.034931604210526324,0.06676399914304547,0.0010108852538999549,0.1905634963821434, ,1.730497121810913
0.014608629039134041,0.03463125959409215,-0.0881123353300724, ,0.014993767127421067,0.03591459084405872,-0.08851250021958178, ,0.0013983570298697703, ,0.011137877938022624,0.03900567453453439,-0.02079181886935879,0.11394538773318395,-0.0295340147979406,0.007704930191971844, ,0.045582833421722924, ,0.11771068570912288, ,0.0009743832995264485, ,0.18326817383822183,-0.3659339745122542,0.10244579870000001,-4.489042310116697,0.19211091867020927,-1.0585502212292566, ,0.08001428461928396,-0.2956291014282579,0.034931604210526324,0.06676399914304547,0.0010108852538999549,0.1905634963821434, ,1.7359240055084229
0.014717699319927472,0.03501718820232602,-0.08831949320653501, ,0.015045953232127804,0.036080802876399004,-0.08863187390208752, ,0.001156117859360397, ,0.010902244259363111,0.03778905933001417,-0.021473522803335164,0.05822010360290109,-0.03439502223955277,0.037378562156349215, ,0.044810535775903215, ,0.06762095424198049, ,0.0009765213531715537, ,0.18405589259139274,-0.3688454448058368,0.10279320442,-4.488622930229728,0.19224755516997472,-1.056456313149158, ,0.07555488977585254,-0.2799319809984389,0.03516293933774835,0.03353567686551252,-0.001291742905533262,0.2252285061586022, ,1.7414190769195557
0.014717699319927472,0.03501718820232602,-0.08831949320653501, ,0.01509813119425788,0.03624599920317358,-0.08875185778985364, ,0.0013570718550315706, ,0.010902244259363111,0.03778905933001417,-0.021473522803335164,0.05822010360290109,-0.03439502223955277,0.037378562156349215, ,0.044810535775903215, ,0.06762095424198049, ,0.0009809463590071353, ,0.18405589259139274,-0.3688454448058368,0.10279320442,-4.488622930229728,0.19224755516997472,-1.056456313149158, ,0.07555488977585254,-0.2799319809984389,0.03516293933774835,0.03353567686551252,-0.001291742905533262,0.2252285061586022, ,1.7467081546783447
0.014827546253498079,0.035405527738457246,-0.08854039072237488, ,0.015150312182998248,0.0364101870526014,-0.08887244075684195, ,0.0011062438285171536, ,0.010381499806596441,0.03714699746456085,-0.021145098007758337,0.043006137962465586,-1.2221130328093563e-05,-0.02757556877887624, ,0.043986249312985955, ,0.043006090552901284, ,0.000982386559806101, ,0.1848049976801925,-0.37170285596929986,0.10315486933000001,-4.48778417045579,0.19224755516997472,-1.054005950944941, ,0.06982850740137658,-0.2719110073308618,0.03462785113043479,0.10478158148135787,-0.001255055846609708,0.2449778530576236, ,1.7520880699157715
0.014827546253498079,0.035405527738457246,-0.08854039072237488, ,0.01520250727675456,0.03657337361705632,-0.08899361174727462, ,0.0013076196169121835, ,0.010381499806596441,0.03714699746456085,-0.021145098007758337,0.043006137962465586,-1.2221130328093563e-05,-0.02757556877887624, ,0.043986249312985955, ,0.043006090552901284, ,0.0009860823900004884, ,0.18544598450875316,-0.37425135781779395,0.10349060844,-4.4869454106818525,0.19224755516997472,-1.0516372674808647, ,0.06442426446603583,-0.2578721238001923,0.034477947012987016,0.07462157345599292,-0.0012047830486822176,0.2466523471582246, ,1.7583820819854736
0.01492545040391354,0.03575822171504641,-0.0887484682412132, ,0.015254727463384927,0.03673556605314507,-0.08911535977546621, ,0.0010946390889302994, ,0.009965394640801688,0.035923682225348766,-0.021466694696606458,0.0224000313278143,-0.005091006451808049,-0.0021428101773587034, ,0.04301905410596646, ,0.02297118176407264, ,0.000987302128190711, ,0.18544598450875316,-0.37425135781779395,0.10349060844,-4.4869454106818525,0.19224755516997472,-1.0516372674808647, ,0.06442426446603583,-0.2578721238001923,0.034477947012987016,0.07462157345599292,-0.0012047830486822176,0.2466523471582246, ,1.7639081478118896
0.015022734883262454,0.03610073970739596,-0.08895745890977465, ,0.015306983640433813,0.03689677148178455,-0.08923767392565826, ,0.0008904967135909961, ,0.00919273309953466,0.033341855013995995,-0.020490459598890853,0.017903260765365997,-0.011525629891310733,0.02420633466929203, ,0.040200056867962124, ,0.021292329096054854, ,0.0009862265124729365, ,0.18606380313869111,-0.3766917414060489,0.10382375497000002,-4.486526030794883,0.19211091867020927,-1.049157166113092, ,0.058112027898634885,-0.23606204367778796,0.03257425668711657,0.04087619363101321,0.0016382278551975286,0.22406477397954583, ,1.7692890167236328
0.015022734883262454,0.03610073970739596,-0.08895745890977465, ,0.015359286615365812,0.037056996988279266,-0.08936054335185187, ,0.0010909501010902404, ,0.00919273309953466,0.033341855013995995,-0.020490459598890853,0.017903260765365997,-0.011525629891310733,0.02420633466929203, ,0.040200056867962124, ,0.021292329096054854, ,0.0009873773211390607, ,0.18606380313869111,-0.3766917414060489,0.10382375497000002,-4.486526030794883,0.19211091867020927,-1.049157166113092, ,0.058112027898634885,-0.23606204367778796,0.03257425668711657,0.04087619363101321,0.0016382278551975286,0.22406477397954583, ,1.774528980255127
0.015117296106686396,0.036441027177520235,-0.08916668599685702, ,0.01541164710579963,0.0372162496223984,-0.08948395727764241, ,0.0008878476306963, ,0.008988132047459511,0.031907605903279714,-0.019769257394706294,0.03925408406257264,-0.0046851190112328035,0.014725804188163234, ,0.038596701544558555, ,0.0395326502542456, ,0.0009862954766777263, ,0.18667389903575485,-0.3790857885970585,0.10415690150000001,-4.485896960964429,0.19224755516997472,-1.0470632580329933, ,0.05782872733605776,-0.22328692131404887,0.03141777420118344,0.04978447858703861,0.009834605648959402,0.19256517618624447, ,1.7797939777374268
0.015117296106686396,0.036441027177520235,-0.08916668599685702, ,0.015464075739741909,0.037374536398453485,-0.08960790499605169, ,0.0010892060341000048, ,0.008988132047459511,0.031907605903279714,-0.019769257394706294,0.03925408406257264,-0.0046851190112328035,0.014725804188163234, ,0.038596701544558555, ,0.0395326502542456, ,0.000987402041811299, ,0.18667389903575485,-0.3790857885970585,0.10415690150000001,-4.485896960964429,0.19224755516997472,-1.0470632580329933, ,0.05782872733605776,-0.22328692131404887,0.03141777420118344,0.04978447858703861,0.009834605648959402,0.19256517618624447, ,1.785187005996704
0.0152019219421588,0.0367427591499684,-0.08935427697731659, ,0.015516583055821034,0.037531864295375784,-0.08973237586936239, ,0.0009298695172581119, ,0.00868266950440081,0.030186131382434932,-0.01922591712790991,0.044071468153155144,0.010974780540808728,-0.014813341934961232, ,0.03682698965391462, ,0.04541736987368539, ,0.0009867899936777545, ,0.187229935802699,-0.38117864920597333,0.10445504820000001,-4.485058201190491,0.19252082816950558,-1.0454074828171531, ,0.05569069340285844,-0.20719856235473968,0.030282911634980987,0.0799223691145396,0.014479666100450412,0.17768795778723184, ,1.7907161712646484
0.0152019219421588,0.0367427591499684,-0.08935427697731659, ,0.01556917950352106,0.03768824025679343,-0.08985735932895138, ,0.0011322122116755482, ,0.00868266950440081,0.030186131382434932,-0.01922591712790991,0.044071468153155144,0.010974780540808728,-0.014813341934961232, ,0.03682698965391462, ,0.04541736987368539, ,0.000988320753867205, ,0.187229935802699,-0.38117864920597333,0.10445504820000001,-4.485058201190491,0.19252082816950558,-1.0454074828171531, ,0.05569069340285844,-0.20719856235473968,0.030282911634980987,0.0799223691145396,0.014479666100450412,0.17768795778723184, ,1.7960851192474365
0.015288887506682173,0.03704200774343673,-0.08955501162660799, ,0.01562187544341551,0.03784367119110899,-0.08998284487512245, ,0.0009677740117807143, ,0.008300538977056768,0.02859812064083123,-0.020134025931693042,0.0417435979275137,0.015084032341755869,0.007009760582083643, ,0.0359462160973205, ,0.0443852756097517, ,0.000988106725303804, ,0.18777052710389472,-0.38319428248614595,0.10476486151000002,-4.484638821303522,0.19265746466927103,-1.0436402896976167, ,0.050665745626519376,-0.18791473575934806,0.030514964597701155,0.05576273883176354,0.0262028506879446,0.15846044525584804, ,1.8014039993286133
0.015288887506682173,0.03704200774343673,-0.08955501162660799, ,0.015674681147401275,0.03799816397157689,-0.09010882207694108, ,0.001170374931690122, ,0.008300538977056768,0.02859812064083123,-0.020134025931693042,0.0417435979275137,0.015084032341755869,0.007009760582083643, ,0.0359462160973205, ,0.0443852756097517, ,0.0009899857789778899, ,0.18777052710389472,-0.38319428248614595,0.10476486151000002,-4.484638821303522,0.19265746466927103,-1.0436402896976167, ,0.050665745626519376,-0.18791473575934806,0.030514964597701155,0.05576273883176354,0.0262028506879446,0.15846044525584804, ,1.806704044342041
0.01534682511582183,0.03723715151986806,-0.0896997847819037, ,0.015727606798932564,0.0381517254363807,-0.0902352805720672, ,0.0011261420337775972, ,0.008892516501052439,0.027966222487101074,-0.021739851857068358,-0.008514868629088726,-0.02067383807122617,0.0016834509697816297, ,0.03652133087233824, ,0.02235857133894504, ,0.0009913751285166624, ,0.1881103273503606,-0.3844453652117703,0.10498004565,-4.4842194414165535,0.19279410116903647,-1.0425265264992047, ,0.049788531772545004,-0.17573507696013105,0.031794034970059885,0.0441035086964274,-0.01409535940131054,0.1889015507438059, ,1.811974048614502
0.01534682511582183,0.03723715151986806,-0.0896997847819037, ,0.015780662493254556,0.038304362388710385,-0.09036221006658857, ,0.001328894716079013, ,0.008892516501052439,0.027966222487101074,-0.021739851857068358,-0.008514868629088726,-0.02067383807122617,0.0016834509697816297, ,0.03652133087233824, ,0.02235857133894504, ,0.0009947844172799186, ,0.1881103273503606,-0.3844453652117703,0.10498004565,-4.4842194414165535,0.19279410116903647,-1.0425265264992047, ,0.049788531772545004,-0.17573507696013105,0.031794034970059885,0.0441035086964274,-0.01409535940131054,0.1889015507438059, ,1.8175430297851562
0.015464466861342757,0.037597186262010966,-0.09000302890095296, ,0.015833858237637426,0.03845608159683995,-0.09048960033485447, ,0.0010539938070789716, ,0.009508535327111323,0.027844403111231077,-0.025417273549429107,-0.0044439551618749825,-0.010474892560225763,-0.022584422562200345, ,0.03888136858926351, ,0.011378115105452192, ,0.000995376511177909, ,0.18875131417892124,-0.38660000768367897,0.10541171022000001,-4.483380681642616,0.19279410116903647,-1.040239521775269, ,0.04869006750049809,-0.15842561195070248,0.03524073345132744,0.06714955641984845,-0.011286318035860853,0.17206289247563822, ,1.822864055633545
0.015566959148132815,0.037893905813748505,-0.090289385417432, ,0.015887203951610196,0.03860688979420467,-0.09061744121930967, ,0.0008476576547681193, ,0.009753981774119198,0.02758803907916329,-0.027906020903747913,-0.02644327114198527,-0.011398052584424143,-0.007619304687183868, ,0.040434960904688726, ,0.028794882669141167, ,0.0009939139482431586, ,0.18875131417892124,-0.38660000768367897,0.10541171022000001,-4.483380681642616,0.19279410116903647,-1.040239521775269, ,0.04869006750049809,-0.15842561195070248,0.03524073345132744,0.06714955641984845,-0.011286318035860853,0.17206289247563822, ,1.828416109085083
0.015566959148132815,0.037893905813748505,-0.090289385417432, ,0.015940709467194537,0.038756793679478395,-0.0907457226303271, ,0.0010452312766538725, ,0.009753981774119198,0.02758803907916329,-0.027906020903747913,-0.02644327114198527,-0.011398052584424143,-0.007619304687183868, ,0.040434960904688726, ,0.028794882669141167, ,0.0009944170593060087, ,0.18926101454862007,-0.3882217815872661,0.10580189351000001,-4.482751611812161,0.19279410116903647,-1.0384425894921765, ,0.04620104262827205,-0.14554745637802266,0.03747955651764706,0.049761922747711934,-0.008925273509373026,0.17884149867047006, ,1.8338391780853271
0.015659155943887865,0.03815252108738715,-0.0905548153176337, ,0.015994384529138598,0.03890579991665101,-0.09087443454604167, ,0.0008842870858236342, ,0.009662584549199084,0.026589500586507494,-0.02774338993962033,-0.031919636520630304,-0.007152044430506335,-0.014943645836394563, ,0.03962401755188549, ,0.03271083152548124, ,0.0009933478362624906, ,0.18970121032245085,-0.3895655371073812,0.10615707697000001,-4.482332231925193,0.19279410116903647,-1.0368090146893654, ,0.04538352059228636,-0.13576100366018712,0.036957799350348035,0.056253965380068605,-0.007514608561828078,0.17602521422116832, ,1.8392000198364258
0.015659155943887865,0.03815252108738715,-0.0905548153176337, ,0.016048238795151014,0.039053915135106,-0.09100356701218432, ,0.0010794789380863753, ,0.009662584549199084,0.026589500586507494,-0.02774338993962033,-0.031919636520630304,-0.007152044430506335,-0.014943645836394563, ,0.03962401755188549, ,0.03271083152548124, ,0.0009941760199338743, ,0.18970121032245085,-0.3895655371073812,0.10615707697000001,-4.482332231925193,0.19279410116903647,-1.0368090146893654, ,0.04538352059228636,-0.13576100366018712,0.036957799350348035,0.056253965380068605,-0.007514608561828078,0.17602521422116832, ,1.844494104385376
0.01574824481059918,0.038387783816451866,-0.09080360469336035, ,0.0161022818361347,0.03920114592969749,-0.09113311014191465, ,0.0009462948712427847, ,0.009769679134690313,0.02529950756622625,-0.027047816940116126,-0.03600588345600424,-0.001099396557637885,-0.02052748404252306, ,0.03830269069810077, ,0.03602246298937722, ,0.000993720008993959, ,0.1901259606305332,-0.3907471152371375,0.10648763092,-4.481703162094739,0.19265746466927103,-1.0351457007229983, ,0.048367452374348,-0.1251938542987741,0.035875701621621625,0.06329880883179849,0.0,0.1720883339794439, ,1.849755048751831
0.01574824481059918,0.038387783816451866,-0.09080360469336035, ,0.016156523136420575,0.039347498860827806,-0.091263054115655, ,0.001139665709488496, ,0.009769679134690313,0.02529950756622625,-0.027047816940116126,-0.03600588345600424,-0.001099396557637885,-0.02052748404252306, ,0.03830269069810077, ,0.03602246298937722, ,0.0009950968552250397, ,0.1901259606305332,-0.3907471152371375,0.10648763092,-4.481703162094739,0.19265746466927103,-1.0351457007229983, ,0.048367452374348,-0.1251938542987741,0.035875701621621625,0.06329880883179849,0.0,0.1720883339794439, ,1.8550710678100586
0.01585632642507989,0.038664784830697185,-0.09109941049366219, ,0.016210972094001644,0.03949298045452486,-0.09139338918092378, ,0.0009476840245442149, ,0.009603113183192648,0.02428499771283031,-0.025622602516604646,-0.0268495362491829,-0.006490939053773568,-0.01633224057779769, ,0.036585497898010036, ,0.027622795710343855, ,0.0009946537446579291, ,0.19066655193172893,-0.39211403895587527,0.10688040679000001,-4.4810740922642855,0.19265746466927103,-1.0332670896997653, ,0.04922040537265082,-0.1204275908102421,0.034181998969957085,0.05648455835142317,0.0,0.15688963050618798, ,1.8603920936584473
0.01585632642507989,0.038664784830697185,-0.09109941049366219, ,0.016265638020766797,0.03963759720251955,-0.09152410565216892, ,0.0011376580640919697, ,0.009603113183192648,0.02428499771283031,-0.025622602516604646,-0.0268495362491829,-0.006490939053773568,-0.01633224057779769, ,0.036585497898010036, ,0.027622795710343855, ,0.0009959778587267628, ,0.19066655193172893,-0.39211403895587527,0.10688040679000001,-4.4810740922642855,0.19265746466927103,-1.0332670896997653, ,0.04922040537265082,-0.1204275908102421,0.034181998969957085,0.05648455835142317,0.0,0.15688963050618798, ,1.8656501770019531
0.015948108253917768,0.03890448451648089,-0.09135188285110288, ,0.016320530142734442,0.03978135556232278,-0.09165519391060148, ,0.000999799226404882, ,0.009059729071132235,0.02298476502431472,-0.02432432057189858,-0.018403811014669955,-0.00114534647869495,-0.011265704366714752, ,0.034670602610133106, ,0.018439185531053122, ,0.0009960129171458281, ,0.19114536136993085,-0.3932956170856316,0.10721744219000001,-4.480445022433832,0.1929307376688019,-1.0318563507043468, ,0.04656375935155582,-0.11283821826215314,0.032441571323828924,0.05144191931893917,0.0074225893577821245,0.14107860093474137, ,1.8709590435028076
0.015948108253917768,0.03890448451648089,-0.09135188285110288, ,0.01637565760028684,0.03992426195730355,-0.09178664440402913, ,0.0011881759466906767, ,0.009059729071132235,0.02298476502431472,-0.02432432057189858,-0.018403811014669955,-0.00114534647869495,-0.011265704366714752, ,0.034670602610133106, ,0.018439185531053122, ,0.0009977598537780539, ,0.19114536136993085,-0.3932956170856316,0.10721744219000001,-4.480445022433832,0.1929307376688019,-1.0318563507043468, ,0.04656375935155582,-0.11283821826215314,0.032441571323828924,0.05144191931893917,0.0074225893577821245,0.14107860093474137, ,1.8762810230255127
0.016037470381590754,0.039133810257440144,-0.09159475628078612, ,0.016431029448403422,0.040066322776765764,-0.09191844764668959, ,0.0010626591354380441, ,0.009302881928631252,0.02304612690261179,-0.024729555526704014,-0.0019158348529981601,0.009423539191557624,-0.011321031526397997, ,0.035060212405769564, ,0.009615834095929933, ,0.000998344531991207, ,0.1915778344108874,-0.3943381860236519,0.10751818147000002,-4.480025642546862,0.19306737416856737,-1.0305792300256538, ,0.04927151690470964,-0.11086091303559671,0.03291076760330579,0.05662463177903573,0.010965729071895133,0.13728721824546866, ,1.881728172302246
0.01613128570823454,0.039361757998523934,-0.09183751596818548, ,0.016486654656895142,0.04020754437602566,-0.09205059421908429, ,0.0009418301476623737, ,0.00939049912209699,0.022945516711318094,-0.024568547944617828,-0.014225700855205872,0.019003674010708346,-0.0006644868405607724, ,0.0349040364287351, ,0.023738181042225023, ,0.0009978399392739851, ,0.19211842571208312,-0.39551204142053403,0.10786558719000001,-4.47939657271641,0.19334064716809823,-1.0291684910302354, ,0.051658650821159925,-0.10932827368487416,0.03277533234567902,0.05181437869292535,0.03572264272855154,0.13789272979696407, ,1.8921120166778564
0.01613128570823454,0.039361757998523934,-0.09183751596818548, ,0.016542542110637992,0.040347933076489303,-0.09218307476781172, ,0.0011229799628296837, ,0.00939049912209699,0.022945516711318094,-0.024568547944617828,-0.014225700855205872,0.019003674010708346,-0.0006644868405607724, ,0.0349040364287351, ,0.023738181042225023, ,0.0009989473731107613, ,0.19211842571208312,-0.39551204142053403,0.10786558719000001,-4.47939657271641,0.19334064716809823,-1.0291684910302354, ,0.051658650821159925,-0.10932827368487416,0.03277533234567902,0.05181437869292535,0.03572264272855154,0.13789272979696407, ,1.8974111080169678
0.016223258806352447,0.03958064960987144,-0.09207171029505518, ,0.016598700609806984,0.04048749516573018,-0.09231588000540099, ,0.001011407068104774, ,0.00890240069959855,0.021401692296010678,-0.022893301334511822,-0.02800971043839548,0.008819492947021508,0.003919053623586672, ,0.03257895666441908, ,0.02936530344227478, ,0.0009990566686808842, ,0.19260495788315926,-0.3965623330914286,0.10817799308,-4.479186882772925,0.19334064716809823,-1.0274532374872836, ,0.04879020131540914,-0.10160272115467964,0.030573534587332057,0.040770882502485145,0.025501184666169057,0.14059161093897465, ,1.902696132659912
0.016223258806352447,0.03958064960987144,-0.09207171029505518, ,0.016655138870110102,0.04062623689756617,-0.09244900071014539, ,0.0011925272420280737, ,0.00890240069959855,0.021401692296010678,-0.022893301334511822,-0.02800971043839548,0.008819492947021508,0.003919053623586672, ,0.03257895666441908, ,0.02936530344227478, ,0.001000739021492599, ,0.19260495788315926,-0.3965623330914286,0.10817799308,-4.479186882772925,0.19334064716809823,-1.0274532374872836, ,0.04879020131540914,-0.10160272115467964,0.030573534587332057,0.040770882502485145,0.025501184666169057,0.14059161093897465, ,1.908069133758545
0.01631052393793789,0.03979268200058655,-0.09228737596736165, ,0.016711865523022038,0.04076416449213705,-0.09258242772593571, ,0.0010917457760599189, ,0.008678235279871398,0.020519058335861644,-0.020139121408419,-0.015376245450023866,-0.006125992575370037,0.016968336868312117, ,0.03003211170840869, ,0.01655153758164335, ,0.0010015235624802484, ,0.1931146582528581,-0.39760490202944887,0.10847095462,-4.4787675028859555,0.19375055666739455,-1.0261539163955615, ,0.05151842647039673,-0.10382597544690457,0.02770228090434783,0.023824717940326996,0.02132365163959753,0.1263274651098576, ,1.9143099784851074
0.016401020555744196,0.040008352046284834,-0.0924976429510081, ,0.01676888911601813,0.04090128413598214,-0.09271615196209407, ,0.000990152100626455, ,0.008706821673890187,0.020908805071247337,-0.020524143710190092,0.03402985733804381,0.038781340314590074,0.0002356280642435973, ,0.030565132883808598, ,0.051594766257509035, ,0.001001426370498592, ,0.19367841775267647,-0.3986860846318403,0.10876132358000001,-4.478138433055502,0.19429710266645633,-1.025129370687817, ,0.05466413684243708,-0.10382597544690457,0.028292738046181175,0.05939311336774082,0.06504083206477783,0.08956949414680868, ,1.9197330474853516
0.016401020555744196,0.040008352046284834,-0.0924976429510081, ,0.01682621811280816,0.04103760198211727,-0.09285016439320713, ,0.0011680837984298568, ,0.008706821673890187,0.020908805071247337,-0.020524143710190092,0.03402985733804381,0.038781340314590074,0.0002356280642435973, ,0.030565132883808598, ,0.051594766257509035, ,0.0010028387215827552, ,0.19367841775267647,-0.3986860846318403,0.10876132358000001,-4.478138433055502,0.19429710266645633,-1.025129370687817, ,0.05466413684243708,-0.10382597544690457,0.028292738046181175,0.05939311336774082,0.06504083206477783,0.08956949414680868, ,1.925220012664795
0.016490866994096496,0.04021487075347108,-0.09270229407592911, ,0.01688386089357023,0.0411731241501124,-0.09298445605895969, ,0.0010734566418192915, ,0.009688320115199978,0.022336225788347444,-0.022158612289244414,-0.007685146811620563,0.018860378386221198,-0.018852089793509243, ,0.03292073249044862, ,0.020365903178548393, ,0.0010034321494839025, ,0.19421900905387218,-0.39970548537123796,0.10904261851000001,-4.477509363225049,0.1945703756659872,-1.0238819891726798, ,0.0584340773143293,-0.10970744688840552,0.030456618585086043,0.07188187216100367,0.034673832391636086,0.13514693639472392, ,1.9305620193481445
0.016490866994096496,0.04021487075347108,-0.09270229407592911, ,0.016941825755184717,0.04130785672616917,-0.09311901806396866, ,0.0012536510770244666, ,0.009688320115199978,0.022336225788347444,-0.022158612289244414,-0.007685146811620563,0.018860378386221198,-0.018852089793509243, ,0.03292073249044862, ,0.020365903178548393, ,0.0010055173072134073, ,0.19421900905387218,-0.39970548537123796,0.10904261851000001,-4.477509363225049,0.1945703756659872,-1.0238819891726798, ,0.0584340773143293,-0.10970744688840552,0.030456618585086043,0.07188187216100367,0.034673832391636086,0.13514693639472392, ,1.936122179031372
0.01659839755319175,0.04044720942113942,-0.0929458849350624, ,0.017000120911468092,0.041441805763197614,-0.09325384157761538, ,0.0011159932051374097, ,0.010305330425811051,0.02289683147407688,-0.024904847828096387,-0.03921402077964497,-0.00610418990055731,0.009442520406647132, ,0.0353654658116935, ,0.03968615601010352, ,0.0010064303311631924, ,0.19483682768381017,-0.4008021134393778,0.10937187617000001,-4.47708998333808,0.1945703756659872,-1.0221667356297282, ,0.05768811036989105,-0.10428235336095688,0.03325430379958247,0.03409560196459561,0.019727672256044514,0.15252698508867846, ,1.9415509700775146
0.01659839755319175,0.04044720942113942,-0.0929458849350624, ,0.017058754493406676,0.04157497728089447,-0.0933889178338806, ,0.0012961739880648002, ,0.010305330425811051,0.02289683147407688,-0.024904847828096387,-0.03921402077964497,-0.00610418990055731,0.009442520406647132, ,0.0353654658116935, ,0.03968615601010352, ,0.0010088052791705827, ,0.19483682768381017,-0.4008021134393778,0.10937187617000001,-4.47708998333808,0.1945703756659872,-1.0221667356297282, ,0.05768811036989105,-0.10428235336095688,0.03325430379958247,0.03409560196459561,0.019727672256044514,0.15252698508867846, ,1.9470109939575195
0.016702624667025393,0.040677973675259126,-0.09319606818824172, ,0.01711773454939066,0.041707377265819814,-0.09352423813117704, ,0.001157446965585341, ,0.010971716940216472,0.02422360233615334,-0.026421537759171547,-0.03901097147511846,-0.024906915783668326,0.002048316497457203, ,0.037486786209485264, ,0.046283879191421184, ,0.0010100137481658246, ,0.195416032649377,-0.40185240511027237,0.10970631899000001,-4.47667060345111,0.19470701216575265,-1.0207262574707539, ,0.05934768077452831,-0.10970744688840552,0.03524073345132744,0.03458015071015376,0.0,0.15469822849728027, ,1.9523320198059082
0.016702624667025393,0.040677973675259126,-0.09319606818824172, ,0.017177069045447864,0.041839011671474656,-0.09365979383218291, ,0.0013372165754736705, ,0.010971716940216472,0.02422360233615334,-0.026421537759171547,-0.03901097147511846,-0.024906915783668326,0.002048316497457203, ,0.037486786209485264, ,0.046283879191421184, ,0.0010126524806441134, ,0.195416032649377,-0.40185240511027237,0.10970631899000001,-4.47667060345111,0.19470701216575265,-1.0207262574707539, ,0.05934768077452831,-0.10970744688840552,0.03524073345132744,0.03458015071015376,0.0,0.15469822849728027, ,1.9576621055603027
0.01681243325021636,0.04093179614335858,-0.09347322107017261, ,0.017236765865477607,0.04196988641837852,-0.09379557636367605, ,0.0011668772526341857, ,0.01106518690489643,0.025016749056942414,-0.02762412416051829,0.009260732919886442,0.000313292529101809,-0.025182298154748255, ,0.03887632094545536, ,0.00926516274142807, ,0.001013886278820034, ,0.1960184058135665,-0.4029876468427834,0.11007576164,-4.476041533620657,0.19511692166504896,-1.0195902938593129, ,0.05897883254100111,-0.11047373871766097,0.03670233069124424,0.07009908000497281,0.01803166210166071,0.11587619799118813, ,1.9629740715026855
0.01681243325021636,0.04093179614335858,-0.09347322107017261, ,0.017296832811484718,0.04210000739414648,-0.09393157721636675, ,0.0013451582874064838, ,0.01106518690489643,0.025016749056942414,-0.02762412416051829,0.009260732919886442,0.000313292529101809,-0.025182298154748255, ,0.03887632094545536, ,0.00926516274142807, ,0.0010165154217453233, ,0.1960184058135665,-0.4029876468427834,0.11007576164,-4.476041533620657,0.19511692166504896,-1.0195902938593129, ,0.05897883254100111,-0.11047373871766097,0.03670233069124424,0.07009908000497281,0.01803166210166071,0.11587619799118813, ,1.9682409763336182
0.016919500441289946,0.04118446723857528,-0.0937506989213359, ,0.01735727760381317,0.04222938045356694,-0.09406778794473186, ,0.0011764514098122755, ,0.010781721179873908,0.025113792292476643,-0.02753399192580776,0.049587486610016426,0.02423388867583122,0.014263716091094761, ,0.038795216023121304, ,0.0551922491258648, ,0.0010177747602340393, ,0.1966130562448818,-0.4040997203766717,0.11044520429000002,-4.475412463790203,0.19580010416387617,-1.018840523535546, ,0.060099393007264586,-0.11060249598889368,0.03670233069124424,0.04430360119322846,0.0631234864465571,0.07761377275978962, ,1.9735500812530518
0.016919500441289946,0.04118446723857528,-0.0937506989213359, ,0.01741810788138008,0.042358011418678565,-0.09420420016684786, ,0.0013533213593409437, ,0.010781721179873908,0.025113792292476643,-0.02753399192580776,0.049587486610016426,0.02423388867583122,0.014263716091094761, ,0.038795216023121304, ,0.0551922491258648, ,0.001020396218039562, ,0.1972154294090713,-0.4051731802461889,0.11079001743000001,-4.475202773846719,0.1959367406636416,-1.017726760337134, ,0.06468775839023229,-0.1111205404665934,0.03531887254988914,0.03360113087479823,0.023945793851401338,0.11105450841783422, ,1.9791719913482666
0.017028219630289724,0.041423108705945205,-0.09400758187975032, ,0.017479331201909636,0.04248590607884799,-0.09434080556422435, ,0.0012016979361690226, ,0.011270173118643681,0.024670889163518,-0.026161745212641654,0.008478562166023355,-0.015604194979547816,0.011040907005033927, ,0.037684300269660936, ,0.01775850955997222, ,0.0010218016577149842, ,0.1972154294090713,-0.4051731802461889,0.11079001743000001,-4.475202773846719,0.1959367406636416,-1.017726760337134, ,0.06468775839023229,-0.1111205404665934,0.03531887254988914,0.03360113087479823,0.023945793851401338,0.11105450841783422, ,1.9850549697875977
0.017148911255237886,0.04168621429760041,-0.09428171618708588, ,0.0175409550421667,0.0426130701908471,-0.09447759588163795, ,0.0010252458400078588, ,0.011382844830338112,0.024768643750689937,-0.02549633411776154,-0.007452475639276117,-0.01588608865624737,-0.0038766638667885873, ,0.03732449494801876, ,0.017546977849674513, ,0.0010218281514249293, ,0.19788730716912883,-0.40637792657456795,0.11116205266000001,-4.474573704016265,0.1959367406636416,-1.0161748642744632, ,0.06526612211724263,-0.11405882398854661,0.034779064454148474,0.04730029465302843,0.01441351738840742,0.13167819593683355, ,1.990328073501587
0.017148911255237886,0.04168621429760041,-0.09428171618708588, ,0.017602986798191018,0.04273950947893048,-0.0946145629269659, ,0.0011943208488384078, ,0.011382844830338112,0.024768643750689937,-0.02549633411776154,-0.007452475639276117,-0.01588608865624737,-0.0038766638667885873, ,0.03732449494801876, ,0.017546977849674513, ,0.0010231448895731239, ,0.19788730716912883,-0.40637792657456795,0.11116205266000001,-4.474573704016265,0.1959367406636416,-1.0161748642744632, ,0.06526612211724263,-0.11405882398854661,0.034779064454148474,0.04730029465302843,0.01441351738840742,0.13167819593683355, ,1.9956200122833252
0.017262081681061716,0.0419265051828912,-0.09452400171474003, ,0.017665433785530864,0.04286522963491249,-0.09475169857101845, ,0.0010467771373895395, ,0.011501737436128874,0.024287680536367783,-0.024610946134469378,-2.409243466361204e-05,-0.014057804277394625,-0.02513624981669883, ,0.03644008863216526, ,0.01405750377938829, ,0.0010233239217535513, ,0.19854373946343792,-0.40749772284133046,0.11149519919,-4.473944634185812,0.1959367406636416,-1.0148680044322145, ,0.06749426853376299,-0.1120388920406975,0.03381913273885351,0.0682091516808002,0.010545386513182818,0.12539025082034094, ,2.000880002975464
0.017262081681061716,0.0419265051828912,-0.09452400171474003, ,0.017728303239476887,0.042990236318244945,-0.09488899474737425, ,0.0012174179166266489, ,0.011501737436128874,0.024287680536367783,-0.024610946134469378,-2.409243466361204e-05,-0.014057804277394625,-0.02513624981669883, ,0.03644008863216526, ,0.01405750377938829, ,0.0010247832750984618, ,0.19854373946343792,-0.40749772284133046,0.11149519919,-4.473944634185812,0.1959367406636416,-1.0148680044322145, ,0.06749426853376299,-0.1120388920406975,0.03381913273885351,0.0682091516808002,0.010545386513182818,0.12539025082034094, ,2.006201982498169
0.017371801042683863,0.042162565830699945,-0.09476211777343968, ,0.017791602315296168,0.0431145351560946,-0.09502644345221194, ,0.001073474158719098, ,0.011397540784391695,0.023844697199547925,-0.023722139041276485,0.016459632050937527,-0.023861416567296526,-0.008543798851772732, ,0.03551356643824518, ,0.02898756932918123, ,0.0010251466399016009, ,0.19920789449062123,-0.40858662817659613,0.11182316056000001,-4.473525254298842,0.19634665016293792,-1.0138953983010546, ,0.06812415043680602,-0.1111205404665934,0.03284291035051547,0.0486386181457696,0.012101702269713502,0.10445622817396955, ,2.011554002761841
0.017371801042683863,0.042162565830699945,-0.09476211777343968, ,0.01785533808846582,0.04323813174341998,-0.09516403674414464, ,0.001245868759645796, ,0.011397540784391695,0.023844697199547925,-0.023722139041276485,0.016459632050937527,-0.023861416567296526,-0.008543798851772732, ,0.03551356643824518, ,0.02898756932918123, ,0.0010267816185663727, ,0.19920789449062123,-0.40858662817659613,0.11182316056000001,-4.473525254298842,0.19634665016293792,-1.0138953983010546, ,0.06812415043680602,-0.1111205404665934,0.03284291035051547,0.0486386181457696,0.012101702269713502,0.10445622817396955, ,2.016942024230957
0.017481908924187987,0.04240914907538304,-0.09500486149948224, ,0.01791951755490709,0.04336103164304941,-0.09530176674405405, ,0.001088914349506519, ,0.010495309671836404,0.02393590418603901,-0.023712977037525867,0.07459194913359919,0.022976182758586684,0.02882648325221911, ,0.03529000303617459, ,0.07805034498299768, ,0.001027238476882109, ,0.199887494983553,-0.4097373153748556,0.11216019596000001,-4.473105874411874,0.19702983266176513,-1.0133089854575688, ,0.06438055736666945,-0.11086091303559671,0.03284291035051547,0.03272744725788681,0.07545345468385328,0.05239072991701526, ,2.022304058074951
0.017481908924187987,0.04240914907538304,-0.09500486149948224, ,0.017984147631219076,0.04348324038575801,-0.0954396256349226, ,0.0012629076432298908, ,0.010495309671836404,0.02393590418603901,-0.023712977037525867,0.07459194913359919,0.022976182758586684,0.02882648325221911, ,0.03529000303617459, ,0.07805034498299768, ,0.0010289586897751586, ,0.199887494983553,-0.4097373153748556,0.11216019596000001,-4.473105874411874,0.19702983266176513,-1.0133089854575688, ,0.06438055736666945,-0.11086091303559671,0.03284291035051547,0.03272744725788681,0.07545345468385328,0.05239072991701526, ,2.027628183364868
0.017592470927237622,0.04265241358302246,-0.09525073974855312, ,0.01804923515491267,0.04360476347034519,-0.09557760566166804, ,0.001105642434389913, ,0.011255693609915258,0.024387393817360516,-0.025157915552157708,0.011104389752244828,0.007063707132460842,-0.011069557439260119, ,0.036801580547210465, ,0.013160294535001053, ,0.0010295143690839611, ,0.20053620454498786,-0.4108416661758697,0.11249852765000001,-4.47247680458142,0.19743974216106144,-1.012336379326409, ,0.06504245480361259,-0.10845364749539518,0.03440348060475163,0.06305320535791856,0.03543724268166936,0.11359443909202153, ,2.032924175262451
0.017592470927237622,0.04265241358302246,-0.09525073974855312, ,0.018114786884644386,0.04372560636371186,-0.09571569913097609, ,0.0012809152708859184, ,0.011255693609915258,0.024387393817360516,-0.025157915552157708,0.011104389752244828,0.007063707132460842,-0.011069557439260119, ,0.036801580547210465, ,0.013160294535001053, ,0.0010313230086652701, ,0.20053620454498786,-0.4108416661758697,0.11249852765000001,-4.47247680458142,0.19743974216106144,-1.012336379326409, ,0.06504245480361259,-0.10845364749539518,0.03440348060475163,0.06305320535791856,0.03543724268166936,0.11359443909202153, ,2.038360118865967
0.017710109587607117,0.04289712668426642,-0.09550649207012814, ,0.0181808095004502,0.04384577450093799,-0.09585389841113502, ,0.0011145323027162606, ,0.011961590770117644,0.024705220240733856,-0.025668975953937728,-0.02435241197958641,-0.01736553937285927,-0.012131301181148706, ,0.037580897905967636, ,0.02990971051167928, ,0.0010319173607656344, ,0.2012080823050454,-0.4119151260453869,0.11284722966,-4.471847734750966,0.19757637866082686,-1.0109775799075753, ,0.06856715430525345,-0.1087021094598749,0.03508548792951543,0.05527983977323126,0.010680590043555772,0.14441873557528395, ,2.0437581539154053
0.017710109587607117,0.04289712668426642,-0.09550649207012814, ,0.018247309603979474,0.04396527328536002,-0.09599219593186802, ,0.001290515114335084, ,0.011961590770117644,0.024705220240733856,-0.025668975953937728,-0.02435241197958641,-0.01736553937285927,-0.012131301181148706, ,0.037580897905967636, ,0.02990971051167928, ,0.0010337513873866944, ,0.2012080823050454,-0.4119151260453869,0.11284722966,-4.471847734750966,0.19757637866082686,-1.0109775799075753, ,0.06856715430525345,-0.1087021094598749,0.03508548792951543,0.05527983977323126,0.010680590043555772,0.14441873557528395, ,2.049225091934204
0.017828548834419464,0.04314497861621624,-0.0957657655877994, ,0.01831429371872879,0.044084108088648134,-0.09613058418416776, ,0.0011184832886007162, ,0.012276750949217395,0.024647123388561926,-0.026467605595826154,-0.00425709617379425,-0.016716012852293915,0.008360007424466354, ,0.03819336920430449, ,0.017249201853538166, ,0.0010343480909163706, ,0.20190312826372558,-0.4129963086477783,0.11320111683000002,-4.471638044807482,0.1979862881601232,-1.009759937555994, ,0.0711905037948018,-0.10428235336095688,0.035875701621621625,0.03694320872286595,0.026521564363076743,0.11877913380559091, ,2.05515718460083
0.017948303595099854,0.0433900799319518,-0.09602798235701242, ,0.018381768290275814,0.044202284250883635,-0.09626905572012895, ,0.0009516742426165745, ,0.011463208865673086,0.023745838207611728,-0.025576868672474343,0.03385285188620539,0.03898931392766568,0.038472055398225326, ,0.03673480911572998, ,0.05163498073832901, ,0.0010337699521170713, ,0.20263678788677691,-0.4140234321200502,0.11355759658000002,-4.471218664920513,0.19880610715871586,-1.0089582276556424, ,0.07060784342148123,-0.09844081074530164,0.03470329307189543,0.03250940273367277,0.0957511960239889,0.08446711443396904, ,2.06046199798584
0.017948303595099854,0.0433900799319518,-0.09602798235701242, ,0.018449739686513134,0.0443198070806364,-0.09640760315278253, ,0.0011224716804241286, ,0.011463208865673086,0.023745838207611728,-0.025576868672474343,0.03385285188620539,0.03898931392766568,0.038472055398225326, ,0.03673480911572998, ,0.05163498073832901, ,0.001034385936341426, ,0.20263678788677691,-0.4140234321200502,0.11355759658000002,-4.471218664920513,0.19880610715871586,-1.0089582276556424, ,0.07060784342148123,-0.09844081074530164,0.03470329307189543,0.03250940273367277,0.0957511960239889,0.08446711443396904, ,2.06569504737854
0.01806899863823787,0.043629287642884484,-0.09628265559997623, ,0.018518214197882188,0.044436681855042,-0.09654621915592902, ,0.0009608047568983482, ,0.011722528427886292,0.022792187556407013,-0.024081303768488337,0.06993972868724643,0.013294951093135205,-0.0020228593634837085, ,0.035168319231081366, ,0.07119208716564218, ,0.0010338784799314737, ,0.20334727931120555,-0.41498877372932824,0.1138920394,-4.470589595090059,0.19948928965754306,-1.0082084573318757, ,0.07322294873338794,-0.09537381061152843,0.03304732680497926,0.058335944827605964,0.06756063257194765,0.041484042631299026, ,2.0709340572357178
0.01806899863823787,0.043629287642884484,-0.09628265559997623, ,0.018587198037607097,0.0445529138198795,-0.09668489646397202, ,0.0011328784775981617, ,0.011722528427886292,0.022792187556407013,-0.024081303768488337,0.06993972868724643,0.013294951093135205,-0.0020228593634837085, ,0.035168319231081366, ,0.07119208716564218, ,0.001034556562107273, ,0.20334727931120555,-0.41498877372932824,0.1138920394,-4.470589595090059,0.19948928965754306,-1.0082084573318757, ,0.07322294873338794,-0.09537381061152843,0.03304732680497926,0.058335944827605964,0.06756063257194765,0.041484042631299026, ,2.0766611099243164
0.01815188219737866,0.04378605435070918,-0.09645104049382645, ,0.018656697341928426,0.04466850818964858,-0.09682362787175151, ,0.0010827670396787805, ,0.012178309586705386,0.02217188097043715,-0.024325792777584957,0.0197982774673566,-0.005724269323274599,-0.02526676403500425, ,0.035094838999700194, ,0.02060899153309645, ,0.001034884524539732, ,0.20388014787952705,-0.4156606514893858,0.11413444563000001,-4.469960525259606,0.19976256265707393,-1.0076961844780032, ,0.07379233402680464,-0.08868873042847737,0.03297890583850932,0.07087750948930377,0.03131600982385529,0.08611467666274136, ,2.0820930004119873
0.01815188219737866,0.04378605435070918,-0.09645104049382645, ,0.018726718170337296,0.04478347014764691,-0.09696240623437762, ,0.001259670428484236, ,0.012178309586705386,0.02217188097043715,-0.024325792777584957,0.0197982774673566,-0.005724269323274599,-0.02526676403500425, ,0.035094838999700194, ,0.02060899153309645, ,0.0010364033482150327, ,0.20388014787952705,-0.4156606514893858,0.11413444563000001,-4.469960525259606,0.19976256265707393,-1.0076961844780032, ,0.07379233402680464,-0.08868873042847737,0.03297890583850932,0.07087750948930377,0.03131600982385529,0.08611467666274136, ,2.087407112121582
0.018307134489416,0.04406339134264651,-0.09675623339066933, ,0.01879726650580901,0.04489780484604748,-0.09710122446706379, ,0.0010273724402295268, ,0.012196580333575102,0.021547274656352585,-0.023609753012299884,-0.018179425834269694,-0.04540276753343376,-0.0006928925193577561, ,0.03421201622604913, ,0.04890700857131082, ,0.0010363427380943246, ,0.204806875824434,-0.4167727250232741,0.11454796214000001,-4.469541145372637,0.19989919915683937,-1.006255706319029, ,0.07238515755794873,-0.08658480069203538,0.03204992257545272,0.029979462318435363,0.0,0.10987284117470769, ,2.092710018157959
0.018307134489416,0.04406339134264651,-0.09675623339066933, ,0.018868348255036967,0.0450115174059761,-0.09724007554496109, ,0.0012033316886698468, ,0.012196580333575102,0.021547274656352585,-0.023609753012299884,-0.018179425834269694,-0.04540276753343376,-0.0006928925193577561, ,0.03421201622604913, ,0.04890700857131082, ,0.001037455997764828, ,0.204806875824434,-0.4167727250232741,0.11454796214000001,-4.469541145372637,0.19989919915683937,-1.006255706319029, ,0.07238515755794873,-0.08658480069203538,0.03204992257545272,0.029979462318435363,0.0,0.10987284117470769, ,2.0979981422424316
0.018430202491133852,0.04427951708675812,-0.09699956721640554, ,0.01893996924866668,0.04512461291758903,-0.0973789525029909, ,0.00105734682391861, ,0.012922812647879573,0.02190959981578785,-0.025806091975735093,-0.005845186754100298,-0.03572732000927798,-0.000559692095564477, ,0.03623512155189032, ,0.03620215681912753, ,0.00103758772509035, ,0.20554825818035954,-0.41760678017369035,0.11487592351,-4.469121765485667,0.20017247215637027,-1.0054167185045946, ,0.07597833591550904,-0.08014944388384355,0.034329335172413794,0.03447766137600612,0.01525069948165616,0.09426144621632922, ,2.1032731533050537
0.018430202491133852,0.04427951708675812,-0.09699956721640554, ,0.019012135241529438,0.045237096440149574,-0.09751784843567873, ,0.0012345927937080614, ,0.012922812647879573,0.02190959981578785,-0.025806091975735093,-0.005845186754100298,-0.03572732000927798,-0.000559692095564477, ,0.03623512155189032, ,0.03620215681912753, ,0.0010388838110680979, ,0.20554825818035954,-0.41760678017369035,0.11487592351,-4.469121765485667,0.20017247215637027,-1.0054167185045946, ,0.07597833591550904,-0.08014944388384355,0.034329335172413794,0.03447766137600612,0.01525069948165616,0.09426144621632922, ,2.108664035797119
0.01856508200729076,0.04451723687751884,-0.09728602701610278, ,0.01908485191287619,0.045348973002106274,-0.09765675649698766, ,0.001048516134207379, ,0.012504613623525798,0.022456417195229148,-0.027464508391196078,0.06710698855012577,0.05472598613908638,-0.02007801785931436, ,0.03761589100752407, ,0.08659252764964531, ,0.0010389467674284851, ,0.2063128087349078,-0.4183790534611128,0.11523240326,-4.46828300571173,0.2009922911549629,-1.0050234023049458, ,0.07507669427094206,-0.07616126930856403,0.03628430870159454,0.09120666756850095,0.09835940308425052,0.035476479031668375, ,2.1139841079711914
0.01856508200729076,0.04451723687751884,-0.09728602701610278, ,0.019158124866611708,0.04546024760116989,-0.09779566990015202, ,0.0012250326229021303, ,0.012504613623525798,0.022456417195229148,-0.027464508391196078,0.06710698855012577,0.05472598613908638,-0.02007801785931436, ,0.03761589100752407, ,0.08659252764964531, ,0.0010401551171393532, ,0.2063128087349078,-0.4183790534611128,0.11523240326,-4.46828300571173,0.2009922911549629,-1.0050234023049458, ,0.07507669427094206,-0.07616126930856403,0.03628430870159454,0.09120666756850095,0.09835940308425052,0.035476479031668375, ,2.1192290782928467
0.01869432744476331,0.04473441918320064,-0.09755703192350343, ,0.019231959631527983,0.04557092520439078,-0.09793458191751087, ,0.0010636421812375342, ,0.013315323242390953,0.021706374243939033,-0.027456209171364272,-0.02774061585329406,0.002793265870966499,0.0001990767899114028, ,0.03744740228545906, ,0.027880611530846967, ,0.0010403066465851478, ,0.20713141841957558,-0.4191513267485353,0.11560962365,-4.46786362582476,0.2016754736537901,-1.004028595760757, ,0.07855707082654866,-0.07008636747302126,0.035875701621621625,0.05079649899551151,0.05089732316020292,0.1152076981856938, ,2.124490976333618
0.01882581331808751,0.04494091850957986,-0.09782301893043721, ,0.019306361661538363,0.04568101074823636,-0.0980734858803414, ,0.0009172769075406061, ,0.013315323242390953,0.021706374243939033,-0.027456209171364272,-0.02774061585329406,0.002793265870966499,0.0001990767899114028, ,0.03744740228545906, ,0.027880611530846967, ,0.0010395179944117853, ,0.20713141841957558,-0.4191513267485353,0.11560962365,-4.46786362582476,0.2016754736537901,-1.004028595760757, ,0.07855707082654866,-0.07008636747302126,0.035875701621621625,0.05079649899551151,0.05089732316020292,0.1152076981856938, ,2.1303160190582275
0.01882581331808751,0.04494091850957986,-0.09782301893043721, ,0.019381336335911523,0.04579050913866858,-0.09821237517869223, ,0.0010872020734081051, ,0.013723622694070698,0.0211954221107319,-0.027750384542877548,-0.07997169220912977,-0.03404096014754213,0.01731747487243355, ,0.03751889631344307, ,0.08691514290255811, ,0.0010398217146601694, ,0.2078959689741238,-0.41980003630997015,0.11595573308000001,-4.467444245937791,0.20194874665332097,-1.002617856765339, ,0.07888357569282692,-0.06513173751439313,0.03595668514672686,0.01820955005969839,0.01905011821930074,0.1519583787478502, ,2.1359550952911377
0.018962058073890186,0.04515336203211591,-0.09810040006411974, ,0.019456888959505,0.04589942525122101,-0.09835124326121765, ,0.0009297258960522205, ,0.013093409267620145,0.019757653870404995,-0.02609514831470484,0.00523011748278682,0.015625265649548595,0.022020895508819707, ,0.03525278738310736, ,0.016476982585631687, ,0.0010391249056816382, ,0.2087145786587916,-0.42044102313853077,0.11631610170000001,-4.4670248660508225,0.2026319291521482,-1.0016230502211503, ,0.08103923275702031,-0.05772320046135693,0.03389108834042554,0.0351733003892541,0.0820330872647593,0.07153246629952571, ,2.1413660049438477
0.018962058073890186,0.04515336203211591,-0.09810040006411974, ,0.019533024762999354,0.04600776393107655,-0.09849008363501013, ,0.0010990263192670684, ,0.013093409267620145,0.019757653870404995,-0.02609514831470484,0.00523011748278682,0.015625265649548595,0.022020895508819707, ,0.03525278738310736, ,0.016476982585631687, ,0.0010395016441318609, ,0.2087145786587916,-0.42044102313853077,0.11631610170000001,-4.4670248660508225,0.2026319291521482,-1.0016230502211503, ,0.08103923275702031,-0.05772320046135693,0.03389108834042554,0.0351733003892541,0.0820330872647593,0.07153246629952571, ,2.146646022796631
0.01909786316106517,0.045355940709273575,-0.09836148638061375, ,0.01960974890313186,0.04611552999314457,-0.09862888986543489, ,0.000954205175419472, ,0.013385831771976869,0.01931051851226728,-0.024701735133887032,-0.0002177503059193767,0.0218302082302212,-0.016058393421653785, ,0.03409182212884773, ,0.021831083568129694, ,0.0010389685412024083, ,0.20951774287771094,-0.4210047826383492,0.11663498904000001,-4.466395796220369,0.20345174815074082,-1.0009030190609391, ,0.08533897622164638,-0.05825472164424235,0.032441571323828924,0.07196506078545442,0.08363095418979528,0.07406754578503559, ,2.1519551277160645
0.01909786316106517,0.045355940709273575,-0.09836148638061375, ,0.019687066462930496,0.04622272822213832,-0.09876765557596266, ,0.0011240349365734305, ,0.013385831771976869,0.01931051851226728,-0.024701735133887032,-0.0002177503059193767,0.0218302082302212,-0.016058393421653785, ,0.03409182212884773, ,0.021831083568129694, ,0.0010394969039065763, ,0.20951774287771094,-0.4210047826383492,0.11663498904000001,-4.466395796220369,0.20345174815074082,-1.0009030190609391, ,0.08533897622164638,-0.05825472164424235,0.032441571323828924,0.07196506078545442,0.08363095418979528,0.07406754578503559, ,2.1573150157928467
0.01923011005280887,0.04553915884278903,-0.09860412119303663, ,0.019764982451947636,0.04632936337265244,-0.09890637444800333, ,0.0010009339201541144, ,0.013882465265077748,0.018778364252461453,-0.025502906164695346,-0.03894498724853205,-0.010500642101146696,-0.013328934636418035, ,0.034579589770259975, ,0.0403356508332295, ,0.001039258860796993, ,0.21039813442537253,-0.4215685421381675,0.11697461702000002,-4.465766726389915,0.20399829414980258,-0.9998784733531948, ,0.08549274014276646,-0.05088307858363044,0.03304732680497926,0.05691984798327482,0.042011372233461186,0.10741939725004068, ,2.1626081466674805
0.01923011005280887,0.04553915884278903,-0.09860412119303663, ,0.01984350180649413,0.04643544016924024,-0.0990450402207395, ,0.0011721686092984512, ,0.013882465265077748,0.018778364252461453,-0.025502906164695346,-0.03894498724853205,-0.010500642101146696,-0.013328934636418035, ,0.034579589770259975, ,0.0403356508332295, ,0.0010400742580270632, ,0.21039813442537253,-0.4215685421381675,0.11697461702000002,-4.465766726389915,0.20399829414980258,-0.9998784733531948, ,0.08549274014276646,-0.05088307858363044,0.03304732680497926,0.05691984798327482,0.042011372233461186,0.10741939725004068, ,2.168063163757324
