NicholasDascanio/dvrk_moveit_final/test/execution/first_exp_nosummary/yes_joints_yes_smoothramp/200vel3.csv
Current Position (x),Current Position (y),Current Position (z), ,Planned Position (x),Planned Position (y),Planned Position (z), ,Position Error,,Cartesian linear Velocity(x),Cartesian linear Velocity(y),Cartesian linear Velocity(z),Cartesian Angular Velocity(x),Cartesian Angular Velocity(y),Cartesian Angular Velocity(z), ,Total Linear Velocity, ,Total Angular Velocity, ,MSE, ,Joint 1 Position,Joint 2 Position,Joint 3 Position,Joint 4 Position,Joint 5 Position,Joint 6 Position, ,Joint 1 Velocity,Joint 2 Velocity,Joint 3 Velocity,Joint 4 Velocity,Joint 5 Velocity,Joint 6 Velocity, ,Time Stamp
0.009384663135248375,0.01846664735551171,-0.08143990919333743, ,0.009540074837367869,0.018589373104105134,-0.08154964561323359, ,0.00022639895842322386, ,-0.0042249709141984094,0.0012583720882863515,-0.00012216760042018916,-0.13803789605143804,0.5067010997977015,0.13273673146451878, ,0.0044100798701376285, ,0.5251670832054385, ,1.886657986860199e-05, ,0.13520188442904849,-0.21808225363522593,0.09067678179000001,-4.537900066948591,0.1884217331765424,-1.2144070874028468, ,0.0023755782379712674,-0.006465672556219056,0.00068418311302936,0.004635745559971881,0.4996991991421822,0.2192525928786524, ,0.0524289608001709
0.00944130880792765,0.018537316677870192,-0.08146972307453923, ,0.009614768207390394,0.01876695185717328,-0.08158238507640798, ,0.0003090521080669285, ,0.0046664010122768875,0.0017481795740919603,-0.0011352730629323746,-0.1188818892708162,-0.4124967903974749,-0.09230422185324949, ,0.005110799855019854, ,0.42928604180058666, ,2.4338684840461467e-05, ,0.13554168467551436,-0.21884680418977415,0.09072344823,-4.537270997118139,0.18568900318123358,-1.2179779198788983, ,0.00815606209714112,-0.023783694626183155,0.0013617616787527016,0.0008512246516400415,-0.4316167889762808,0.08147539681130525, ,0.10608696937561035
0.009504759894706755,0.018677796999462707,-0.08151490929756987, ,0.009688732837313608,0.018943852344315525,-0.08161581309877274, ,0.0003388407697331652, ,0.0002850201882388839,0.003248303876561967,-0.0009426235974831611,0.005196364861696901,0.08194570070355506,0.056133418486585616, ,0.0033942972510850205, ,0.08211029211719903, ,2.7321619881978672e-05, ,0.136113166908207,-0.22034501436737372,0.09080381821000001,-4.5364322373442,0.18459591118311003,-1.2160247530274997, ,0.012595824470197872,-0.03385549110184473,0.0018140147314364245,-0.025632784945837744,0.09895550502280533,0.03968891228371722, ,0.15908312797546387
0.009569041514237948,0.018897473248044486,-0.08154878227043694, ,0.009761976448299488,0.019120077721142686,-0.08164992507972078, ,0.00031145867798872953, ,0.0011076434791524206,0.003586014488482587,-0.00044819947580499245,0.03646462311421647,-0.016787408952535297,0.04307435266114883, ,0.00377984877457125, ,0.040143316233234826, ,2.8232155100286835e-05, ,0.13694722205862322,-0.22274678429125752,0.09089455851000001,-4.535593477570262,0.18568900318123358,-1.2136489466514484, ,0.013302066380497725,-0.040658501096174283,0.0013718178197359972,-0.03761746157401267,0.005087395072955906,-0.00046573822091428236, ,0.21232008934020996
0.009633890503535166,0.019077956412985438,-0.08157660551658474, ,0.009834506725293159,0.01929563113066249,-0.08168471643853911, ,0.00031514619241561446, ,0.0013650890497372292,0.0033924311648070803,-0.0006523589828162193,-0.03537683888653245,-0.002990081078750222,-0.0009645015050831091, ,0.003714516060555914, ,0.035502976135263035, ,2.8863398204378107e-05, ,0.137696327147423,-0.22473152663993323,0.09096974333,-4.535174097683293,0.185825639680999,-1.2123718259727556, ,0.01532820894176559,-0.036838874828598905,0.001554788379901309,0.012700197273636435,0.0,0.07444053563421917, ,0.2651360034942627
0.009703708739053107,0.019240862888402224,-0.08161718822254108, ,0.009906331317092818,0.0194705157033029,-0.08172018261436835, ,0.0003231163401487653, ,0.0014830307447088993,0.003059014999470719,-0.0008148620435916111,0.011217450128382203,-0.008794518099820833,-0.009340064240414109, ,0.003495847981080552, ,0.014253937560914838, ,2.9901853225843064e-05, ,0.13846860043484546,-0.22646141880375953,0.09105270589000002,-4.534754717796323,0.185825639680999,-1.2100848212488198, ,0.016561420865352665,-0.03242123046070064,0.0017157960153597455,0.016607678447752794,0.0010828744488353824,0.023988413529726076, ,0.3139369487762451
0.009757938339719158,0.01936227416306397,-0.0816497549002371, ,0.00997745783641946,0.019644734556935772,-0.08175631906616553, ,0.00037326747112196706, ,0.0015266779290214996,0.0030049843525101465,-0.0008550997478922386,-0.0058058153233975,-0.01961062155098557,0.0037083400806939503, ,0.0034773369173316483, ,0.02045199181461111, ,3.138972168426277e-05, ,0.13927948738663903,-0.22808319270734667,0.09113826103000001,-4.534335337909355,0.18623554918029533,-1.208540463936676, ,0.017263405777418733,-0.03231084152484534,0.0017954025608656451,0.0016427316301880635,-0.00909923799612491,0.0746553917703358, ,0.36173295974731445
0.009829763809417533,0.019522131942124935,-0.0816885016928634, ,0.01004789385998674,0.01981829079690049,-0.08179312127266393, ,0.0003824082147403887, ,0.0012930821788350532,0.0032744114278629296,-0.0006228135413523423,6.891778511478746e-05,0.005845440824335715,0.00343545776526807, ,0.0035751543221841492, ,0.005845847080776405, ,3.26542877549213e-05, ,0.13993591968094812,-0.22945783915895862,0.09120307553000001,-4.533706268078901,0.1865088221798262,-1.2069663674609763, ,0.01615542076242267,-0.03517306951759481,0.0015318687641353746,0.008874987035291852,0.015688259203145042,0.03869023738871817, ,0.41023898124694824
0.009901842351739366,0.01970107172768967,-0.08173707456070914, ,0.010117646928570657,0.01999118751602723,-0.08183058473233466, ,0.00037347414665742383, ,0.0015475634290271648,0.003622300935658182,-0.0010919753272864386,0.011188518976475534,-0.014909590055817991,-0.011397050990963447, ,0.0040875942497678, ,0.01864078411757261, ,3.355866908291144e-05, ,0.1407468066327417,-0.2313421859802694,0.09130029728000001,-4.532867508304963,0.1867820951793571,-1.2058006646859796, ,0.015938350950364593,-0.03798916795775452,0.002068070584928305,0.017983006349656175,-0.00700536089084065,0.028194882820121683, ,0.4589650630950928
0.009974265179756768,0.019883787639468804,-0.08178071636583173, ,0.010186724547079362,0.02016342779466066,-0.08186870496334774, ,0.0003620491575072045, ,0.0014646501613539498,0.0035687811975001708,-0.0007883362635066797,-0.021957268249185754,-0.009405252092632656,0.0010733551509107115, ,0.0039373688416434365, ,0.02388682473440887, ,3.417744367838568e-05, ,0.14154224811878682,-0.23329603739744822,0.09139363016,-4.5326578183614785,0.1867820951793571,-1.2044121261035903, ,0.01583727329079953,-0.03824947261526432,0.0017652628890373308,0.00880907991659311,-0.003593265690496996,0.061227379106974775, ,0.5061891078948975
0.01004977556578339,0.02006390620853453,-0.08182691478406144, ,0.010255134184622821,0.020335014700683364,-0.0819074775035327, ,0.00034951727942328923, ,0.0015174159205274152,0.0034307536134928047,-0.0009689325814036133,-0.0005219330722076249,-0.013375873454098677,0.005428499312893111, ,0.0038744614825378595, ,0.013386052621705613, ,3.457291807761038e-05, ,0.14236858053632884,-0.23520355241738167,0.09148955562000001,-4.53223843847451,0.1867820951793571,-1.2028602300409195, ,0.016291320439222448,-0.036178780617030414,0.001922181945462526,0.002200091327278371,-0.002398702809521353,0.03671787325435033, ,0.553900957107544
0.010113119789156874,0.020200312361868533,-0.08185948833273901, ,0.010322883274582582,0.020505951289539495,-0.08194689791033977, ,0.00038086258438200377, ,0.0015705075575695618,0.0035317541026682795,-0.0011039495278850747,0.011072096443889987,-0.01190703540340771,-0.005879825014861093, ,0.004019761882277981, ,0.016259422245552463, ,3.548764825095355e-05, ,0.14307134922788325,-0.23664770346486166,0.09156085157,-4.531819058587541,0.1867820951793571,-1.2016350489388112, ,0.01668957818474688,-0.03665389785958701,0.002088869428841515,0.01334523632172965,-0.0018978338810180103,0.027096655725378893, ,0.5955460071563721
0.010183500776490858,0.020346190455819407,-0.08191459283714712, ,0.010389979214681412,0.02067624060425793,-0.0819869617608012, ,0.00039598447827250916, ,0.0017508235450595993,0.003596369155915225,-0.0015136852377282144,0.014657944702941055,-0.009859100945322044,-0.004729560518612531, ,0.0042767390837494135, ,0.017665141220963427, ,3.640636376132142e-05, ,0.14378956338518614,-0.238138190909587,0.09165677703000001,-4.531399678700571,0.1865088221798262,-1.2000236745490285, ,0.018618195322438844,-0.03604137544947618,0.0025336108668681406,0.013013840945383777,0.0028010204126411374,0.023501404121921813, ,0.6379570960998535
0.010256073126078262,0.020504847638192096,-0.08195209703116725, ,0.010456429367053105,0.020845885675476235,-0.08202766465149104, ,0.0004026909874998297, ,0.0016035625357866054,0.003961462422047617,-0.0008005216448058931,0.011594301601894503,-0.009266931356503957,-0.00041568828315478076, ,0.0043480377449231595, ,0.014842636100151513, ,3.726359512600803e-05, ,0.1445927276041055,-0.2398140239432937,0.09173973959000001,-4.530980298813603,0.1865088221798262,-1.1987168147067795, ,0.018030959824904193,-0.04221394197440871,0.001922608511768256,0.010093724838184976,0.0023302124283660656,0.03230197937315556, ,0.6809289455413818
0.010323971647905411,0.020668129254260294,-0.08199679881837889, ,0.010522241058311963,0.021014889521463624,-0.08206900219848737, ,0.0004059147325645822, ,0.0017787043403768316,0.004046421337039575,-0.0010909174867911643,-0.0070061384558987114,-0.009951089770016838,0.005716516806790067, ,0.00455273716903483, ,0.012170051917416434, ,3.8044797818446565e-05, ,0.14532638722715682,-0.2415207479084973,0.09183047989000001,-4.530560918926633,0.1865088221798262,-1.197164918644109, ,0.01958253024318423,-0.0423269141652412,0.0022507858584145824,0.005188220112722058,0.002009240894079475,0.0504880859835165, ,0.7231240272521973
0.010390046138912508,0.020832969873665085,-0.08203294734248741, ,0.010587421579622612,0.021183255148144897,-0.08211097003733235, ,0.0004095660862715226, ,0.0014643787406961803,0.003851343441619236,-0.0008878546639575739,-0.02124467305911963,-0.002668406752962098,-0.00243470811894996, ,0.004214918422201982, ,0.021411597978375774, ,3.8765398528884575e-05, ,0.14605232411733393,-0.24326608553807205,0.09191344245000001,-4.530141539039664,0.1865088221798262,-1.1958580588018601, ,0.016095139341667362,-0.040519616378510155,0.0019765245712867604,0.014508070337336873,0.0017599947989544353,0.06437543939990133, ,0.7655191421508789
0.010450466385641736,0.020988154433993343,-0.08206927387472036, ,0.010651978186769637,0.021350985549123843,-0.08215356382299374, ,0.0004235070477342516, ,0.001525994515087449,0.003849999356426036,-0.0009285480527504265,-0.010108083929566263,-0.0040422756425003235,-0.006603571900901669, ,0.004244214390299397, ,0.010886383839292866, ,3.975983812386536e-05, ,0.14670875641164302,-0.24489558217453342,0.09199381243000002,-4.529512469209211,0.1865088221798262,-1.1946328776997515, ,0.016710149948665397,-0.04022761405615548,0.00202914796433121,0.017854092251426482,0.0015699644802275173,0.05327482150019497, ,0.8026871681213379
0.010516452059027234,0.02115737211444613,-0.08212910368203959, ,0.010715918100227128,0.021518083705706414,-0.08219677922982507, ,0.00041770747351412046, ,0.0016620037322962818,0.004090882610329208,-0.0013279109880797635,0.013564998551941737,-0.010609815885745184,-0.003281763727629056, ,0.00461095700803246, ,0.017221422091089435, ,4.06310169154095e-05, ,0.14740380237032322,-0.24661002887261127,0.09210140450000001,-4.528883399378757,0.18664545867959165,-1.1927840058400747, ,0.017457126850344146,-0.0418232444065539,0.0024939426209488027,0.012299838717228546,0.0,0.029899936755724422, ,0.8413400650024414
0.010565547767466514,0.021285968060343212,-0.08216220640147173, ,0.010779248505228373,0.021684552586924467,-0.0822406119515269, ,0.0004590044231044184, ,0.0016107032399264069,0.004367734282928301,-0.0010634710480777704,-0.019009295390738958,-0.005371899564282192,-0.005053994936000408, ,0.004775189877217058, ,0.019753749420799695, ,4.16764498776643e-05, ,0.14794439367151893,-0.2479460616598521,0.09217140416000001,-4.528464019491787,0.1867820951793571,-1.1913435276811004, ,0.017147983657114344,-0.04557970295795907,0.002306183801940061,0.017495511559749117,-0.0012175435571943165,0.0671856667752953, ,0.8780291080474854
0.010636052910984253,0.021458849407226536,-0.08220553528687272, ,0.010841976551835558,0.02185039514955929,-0.08228505770110814, ,0.00044948462550591746, ,0.0018261222181404785,0.004500473640600077,-0.0010843033425519595,0.02564513741184332,-0.012356756564781333,0.0008217058962149703, ,0.004976414279779344, ,0.028466866804622064, ,4.258305606365434e-05, ,0.1486934987603187,-0.24975318115242065,0.09226473704,-4.528254329548303,0.18664545867959165,-1.189516856234452, ,0.0201095447252534,-0.046932216398848065,0.002400363399638337,0.009026302525677932,0.002732408059209263,0.02272064362333205, ,0.915809154510498
0.01070637205186408,0.021641656759853734,-0.08226128352543001, ,0.010904109355009198,0.022015614338164877,-0.08233011221084563, ,0.00042858103010688837, ,0.0017808965627084028,0.004412610974598324,-0.0009638222895297164,0.005786767118602874,-0.017175088179577944,0.00019005168450701455, ,0.004855067619097233, ,0.018123750375140066, ,4.330404853692124e-05, ,0.1494734947806154,-0.25161435977510876,0.0923736254,-4.52762525971785,0.18705536817888796,-1.1881358564025895, ,0.018828758245728328,-0.0463590334921694,0.0022523771945701363,0.008669112859834583,-0.006050933424240763,0.040894061471329, ,0.9548990726470947
0.010773279483249304,0.021812210935602795,-0.08229917215546341, ,0.010965653994677976,0.022180213085091518,-0.0823757712322466, ,0.00042225697535952825, ,0.001659435680615291,0.0043295698308296465,-0.0011764458780886655,0.012262592903048018,6.099236487018696e-05,0.0036285470611047313, ,0.004783610205922008, ,0.012262744585622036, ,4.393771149224613e-05, ,0.15021487713654094,-0.2533905883361804,0.09246177312000001,-4.526996189887396,0.18719200467865343,-1.186205305802772, ,0.01895664034328222,-0.044385847314532635,0.002456633485502776,0.009633779969596249,0.012679958519305819,0.03526544761933526, ,0.992042064666748
0.010826162582975588,0.02195378544649258,-0.08234181677848068, ,0.01102661751580803,0.02234419431050925,-0.08242203053600801, ,0.0004461339575691372, ,0.0020096033624351717,0.004517667101561583,-0.001965873686253525,-0.033106995398915554,-0.022639159079177944,0.0007981426461752365, ,0.005320947384173856, ,0.04010741412914549, ,4.4878472773770144e-05, ,0.15080952756785623,-0.25482701665078616,0.09254603197000001,-4.526576810000427,0.18760191417794975,-1.1849059847110497, ,0.018574464975234056,-0.0445734812393005,0.0032674485169230773,0.007711138070754962,-0.016697428654011418,0.07674434794541393, ,1.0239911079406738
0.010884135228845952,0.02209246413607238,-0.08240686080987442, ,0.011087006928472953,0.022507560922431287,-0.08246888591197807, ,0.0004661645437460974, ,0.0019610361803708825,0.0046150032893556275,-0.0025131600700585253,-0.0009694906613800594,-0.0035472417674318156,-0.005327132156329994, ,0.005608911819526445, ,0.003677340914147362, ,4.5862941309287524e-05, ,0.1513655643348004,-0.25617077217090123,0.09265103146,-4.526157430113458,0.1874652776781843,-1.1832426707446828, ,0.019260592969042173,-0.04337154550204332,0.0038503291080493117,0.017835969360317623,0.005306112886869911,0.04776392220176983, ,1.056183099746704
0.010942431044596197,0.022234370316287094,-0.08245975771338378, ,0.011146829207923021,0.022670315816737566,-0.08251633316911738, ,0.00048479673134815745, ,0.0020151351323296537,0.004825504524717035,-0.0013273566648155364,0.012906095512006745,-0.008893986713358703,-0.005266051419067742, ,0.005395195940394015, ,0.0156738731977237, ,4.6880509675755646e-05, ,0.15196021476611568,-0.25757630955401006,0.09274566063,-4.525528360283005,0.1874652776781843,-1.1817724534221528, ,0.021850550669691635,-0.04911849977146521,0.002779412235212005,0.017526541612296016,0.0036159595285070356,0.03918680213429958, ,1.088257074356079
0.010999404325151924,0.02238281935722844,-0.08249822592745451, ,0.011206091294654958,0.02283246187719828,-0.08256436813545939, ,0.0004992721610574125, ,0.0020902422192223564,0.00509411784216725,-0.0016241443405733158,-0.0017799254921412459,-0.0075355056638603335,-0.004514032646357407, ,0.0057408182312212825, ,0.007742866417312406, ,4.790876016161828e-05, ,0.15259347886180208,-0.25908996519735805,0.09282862319000001,-4.524899290452551,0.18773855067771517,-1.1802800356865935, ,0.022084463941929432,-0.05112981765003813,0.0031492312218268093,0.018238023325080528,0.0027758993661932277,0.05604218541466431, ,1.1208751201629639
0.011064828433942383,0.022547808287319206,-0.08256196042894769, ,0.011264800094481496,0.02299400197549697,-0.08261298665807065, ,0.000491610769254455, ,0.0020976996929971655,0.005228726659443035,-0.0017398112189276748,-0.000191277313653735,-0.0031213636784681335,-0.008355284897921663, ,0.005896343744955625, ,0.0031272189255051983, ,4.8845265704208856e-05, ,0.15328080208760808,-0.26071173910094525,0.09294140042000001,-4.524479910565582,0.18801182367724606,-1.1785425817306128, ,0.02225538029044812,-0.051998324141627826,0.0033095390650322047,0.02345650837058298,0.00609114233502826,0.056576265937537895, ,1.1525869369506836
0.011144793325864266,0.022754219219854648,-0.08261769920971201, ,0.01132296247860095,0.023154938971254414,-0.0826621846030126, ,0.00044079418821702437, ,0.0017896892227206957,0.005061500336824031,-0.001443175178817807,0.028722381096728315,-0.003994232869621618,-0.0059210408500742625, ,0.005559184092144116, ,0.028998777078976995, ,4.950474157024355e-05, ,0.15413802543664698,-0.2628045997098601,0.09305936281,-4.523641150791644,0.18814846017701148,-1.1767753886110766, ,0.019272327692622007,-0.051047305841027846,0.002955252601113173,0.018718109516033317,0.0074499112155565015,0.02588060300114925, ,1.1866190433502197
0.011183417402976898,0.022857331995432273,-0.08264774766429428, ,0.011380585283666656,0.02331527571205193,-0.08271195785530175, ,0.0005027032617721239, ,0.0019018354703975353,0.005092314339349971,-0.0016871658301389504,0.01598728911380294,-0.002933039285677578,-0.009598078354340511, ,0.005691675678181251, ,0.016254111253648396, ,5.0619062766404715e-05, ,0.15453960754610666,-0.2638471686478804,0.09312028844,-4.523431460848159,0.18814846017701148,-1.1757135649892492, ,0.019999355439087624,-0.05047709657365467,0.003214694554994955,0.023221718159998916,0.006331042424458668,0.03870682102039509, ,1.2142670154571533
0.011240591711685255,0.023020003045386872,-0.08270722710564683, ,0.0114376753118568,0.02347501503345484,-0.0827623023188707, ,0.0004989099456352802, ,0.001911704038273042,0.005335219195460269,-0.0017644129673873377,0.004063554046392831,-0.007455322089349032,-0.006402998789163968, ,0.005935682716675628, ,0.008490836173592737, ,5.1669552645905814e-05, ,0.1551188125116735,-0.26544577435284483,0.09322788051000001,-4.522802391017706,0.18828509667677693,-1.1738646931295722, ,0.019291917373139008,-0.05301505114998367,0.0033527281667017476,0.019514511990738455,5.050245746147948e-06,0.05181833988850475, ,1.2419300079345703
0.011290647573300299,0.02317787762370175,-0.08275338843395975, ,0.011494239330943706,0.02363415975903589,-0.08281321391652886, ,0.0005032117637436978, ,0.0017341625022507662,0.005526336113572228,-0.0017310305927086388,0.004692435848933635,0.004163103453569495,-0.0033902193000589008, ,0.006045178023621674, ,0.006272988486035757, ,5.2694088212910704e-05, ,0.15566712654574344,-0.2670289345920609,0.09332121339,-4.522383011130737,0.18869500617607327,-1.1723203358174286, ,0.018344662972834096,-0.05498084678938052,0.0033733188310038124,0.020155211897679902,0.010655263845525578,0.0548254834826181, ,1.2696559429168701
0.011346469960619299,0.023345282045321346,-0.08281119796099101, ,0.011550284074363565,0.02379271270039871,-0.08286468858992331, ,0.0004945661042245931, ,0.001876236733424319,0.00548409045958898,-0.002020886897609213,0.008214461509215072,0.005200585144390037,-0.012990922495134607, ,0.006138362672711203, ,0.009722317815043905, ,5.364120158651742e-05, ,0.15623088604556182,-0.2686738766942707,0.09342880546000001,-4.521544251356799,0.1888316426758387,-1.1702264277373298, ,0.019422214809347273,-0.05325305362428214,0.0036660095558112777,0.029714542003203066,0.010684875516151982,0.0510029370790691, ,1.2973711490631104
0.011384396928326079,0.02346252135176078,-0.08285529633054642, ,0.011605816241285965,0.02395067665720147,-0.08291672229949912, ,0.0005395324494813078, ,0.001999538124000457,0.005612171814692219,-0.002086049507700911,0.005907414736732484,-6.618428595754362e-05,-0.009845249537140449, ,0.006312386849325399, ,0.005907785472744374, ,5.473086601040787e-05, ,0.15662474542214727,-0.26981684115965593,0.09350787915000001,-4.5213345614133145,0.18910491567536958,-1.1689790462221925, ,0.020351049015327208,-0.054475856233335694,0.0037790774661921713,0.02570398946214785,0.006880761566488378,0.05338897417123596, ,1.3246960639953613
0.011423862889962087,0.023579460781173303,-0.08289233904298865, ,0.011660842496683312,0.02410805441718008,-0.0829693110244609, ,0.0005843759508744129, ,0.0018904796260661976,0.005802590595323882,-0.0016265599873464941,0.052845382536417296,0.0019565896058210755,0.0140288439567119, ,0.0063158268046194215, ,0.052881591298811155, ,5.61753422429485e-05, ,0.15704949573022964,-0.27097525109078957,0.09358047139,-4.52112487146983,0.18937818867490044,-1.168303415888039, ,0.021695688513596427,-0.05807646362207514,0.0034094202739726035,0.0025231448225472913,0.023141883910159675,0.008386657432321743, ,1.3459320068359375
0.011493121570951998,0.023768978356999187,-0.08296305196578149, ,0.011715369471400557,0.02426484875617171,-0.08302245076273297, ,0.0005466349779410333, ,0.002547426244195311,0.006557886592483482,-0.0031175510399713666,-0.0368510170980316,-0.0050855012425771815,-0.031180590761077022, ,0.007695088142205792, ,0.037200265909710685, ,5.7428002200027256e-05, ,0.15774454168890983,-0.2728055387819808,0.09370880410000001,-4.520076421752408,0.18951482517466592,-1.1660461503276593, ,0.023038830191422863,-0.06114493657117962,0.005084204123842963,0.04859024337166372,-0.009220929103600457,0.10443487005366764, ,1.3680131435394287
0.01154629556915181,0.023903812136618054,-0.08302191536584727, ,0.011769403762224673,0.024421062438138425,-0.08307613753092073, ,0.0005659197676565176, ,0.002570484255246336,0.00661415884098338,-0.002364617506863029,-0.013511905346382616,-0.008400870579172909,-0.007292100764373839, ,0.0074796993545189405, ,0.015910569207407032, ,5.871615453281043e-05, ,0.15824651932573444,-0.2740952351719763,0.09380861843,-4.520076421752408,0.18937818867490044,-1.1641378001408704, ,0.025745236451023,-0.06420632040491935,0.004407529474266742,0.024944630820935235,0.0,0.08163609744536673, ,1.389070987701416
0.011594246906000437,0.02403287630805799,-0.08306464429133502, ,0.011822951931954203,0.024576698215190373,-0.08313036736427012, ,0.0005936057428037976, ,0.00280565924211706,0.006990136512552275,-0.0025549275789315032,0.008533884446935085,-0.009453397472072427,0.0003392426242817757, ,0.007953702733983598, ,0.012735537185755444, ,6.0069894625914416e-05, ,0.15875621969543324,-0.27534631789760067,0.09389158099000001,-4.519237661978469,0.18965146167443137,-1.1629720973658735, ,0.028852825040580957,-0.06754230715905395,0.0047421290622209,0.01805449238563652,0.006713760094660262,0.06261705239153194, ,1.4099831581115723
0.011655633146920313,0.0241919161279568,-0.08313495769483656, ,0.011876020509468703,0.02473175882760955,-0.08318513631663049, ,0.0005852509068976693, ,0.002925454570214897,0.007660380992960845,-0.00386338037474521,-0.0004908118147345284,0.0014461343404206675,-0.012836357428497393, ,0.009064514841935748, ,0.0015271541858488192, ,6.135231592105945e-05, ,0.15935859285962276,-0.2768445280752002,0.09401083967000001,-4.5188182820915,0.18978809817419678,-1.1614499404667589, ,0.028067714155122974,-0.07024199967318341,0.006205224589014414,0.03482149364168705,0.010484230018734234,0.07759682925133199, ,1.430880069732666
0.011713509105691975,0.0243416994055806,-0.083196192923942, ,0.011928615989798426,0.024886247003873048,-0.08324044046041297, ,0.0005871634379623852, ,0.0027727427102634252,0.007444156424377626,-0.002851677691224116,-0.0020084203494028685,-0.008963787509307215,0.02015892260719919, ,0.008440120417538303, ,0.00918603497834211, ,6.26041627132871e-05, ,0.15992235235944113,-0.27827323365693174,0.09411843174000001,-4.5186085921480155,0.18978809817419678,-1.1597346869238072, ,0.02823473417389788,-0.07156632093399003,0.005171692051948053,0.0,0.010088493362143154,0.07500707967784456, ,1.4518661499023438
0.011742362318981207,0.024422335028008352,-0.0832227901795854, ,0.011980744834193832,0.025040165460676438,-0.08329627588655326, ,0.0006662888384315742, ,0.0029914126415685094,0.008135134929527886,-0.0024229065853755925,0.019771071947107994,0.001957399395228136,-0.03849447178719729, ,0.008432600529349325, ,0.008543673587580073, ,6.433777267811214e-05, ,0.16051700279075642,-0.2797714438345313,0.09421694978,-4.517560142430592,0.19006137117372765,-1.1584056266685292, ,0.03109336224065229,-0.07888357569282692,0.0049668885313376996,0.06183056131586378,0.007232560283823823,0.07247780680589412, ,1.4685070514678955
0.011800540252154415,0.024580336455758422,-0.08327554712571954, ,0.012032413470195015,0.025193516902957517,-0.08335263870447104, ,0.0006600746636450952, ,0.0030672948576264316,0.00830967571523359,-0.003448903348130215,0.0053172133559668605,-0.0003558033715707078,-0.02227750127802314, ,0.009505469085779419, ,0.005329104373542516, ,6.601182768030124e-05, ,0.1608181893728512,-0.2805823307863249,0.09427269025000001,-4.517560142430592,0.19006137117372765,-1.157507160526983, ,0.029983235879453642,-0.0779761228911017,0.006033640727272728,0.04537722120388875,0.00695406131960949,0.08058948508347598, ,1.4843361377716064
0.011866483779612986,0.024759596518799987,-0.08336043027418266, ,0.012083628291701315,0.02534630402391957,-0.08340952504203172, ,0.0006275250846969213, ,0.0031625912276365864,0.008947607668160655,-0.004425939509280824,-0.023395415001714204,-0.005882742614773544,0.009912441379159215, ,0.010471418566567962, ,0.02412368342678531, ,6.753484045213109e-05, ,0.16140511707129226,-0.28218093649128934,0.09440750441000001,-4.517140762543623,0.19006137117372765,-1.155465192023469, ,0.02964602985269315,-0.08223305161045995,0.007073184511545294,0.014022141025648022,0.005531791439614258,0.11041960022105582, ,1.4999279975891113
0.01189788711350172,0.024851931993616922,-0.08340605374307136, ,0.012134395659040946,0.025498529505054816,-0.08346693104550626, ,0.0006911806419905784, ,0.0034940539805023542,0.009307147420771981,-0.00476443748028218,-0.030275780669090462,-0.00944419895379335,0.0007231541740656555, ,0.011024122225110011, ,0.03171459894980016, ,6.92491426297949e-05, ,0.16172174911913545,-0.28308449623757365,0.09448657810000001,-4.516721382656655,0.1901980076734931,-1.154351428825057, ,0.03176998378254797,-0.08472941210577749,0.00763239651173934,0.02335246747152306,0.0002993517908617882,0.1189247784819798, ,1.515714168548584
0.011960451141044555,0.025041481520529887,-0.0835018098920108, ,0.012184721899040256,0.025650196016167942,-0.08352485287953247, ,0.0006491237858573523, ,0.0027884656577662585,0.009558497976636963,-0.00398251295923147,0.03509694963229439,0.03157605703642264,-0.0010385326351476502, ,0.010723844169156942, ,0.04721062645694731, ,7.078169942829478e-05, ,0.1623395677490734,-0.28479894293565144,0.09464083661000001,-4.516092312826201,0.1908811901723203,-1.1527848710998845, ,0.02953530705212287,-0.08885481419332471,0.0069497432460732984,0.036045012081451985,0.04507001287932002,0.06560616620183016, ,1.531459093093872
0.011988186238555285,0.025125200528875954,-0.08353005813229133, ,0.01223461330509359,0.025801306215399555,-0.08358328672707573, ,0.0007215805442048349, ,0.0029601396723247437,0.00960786825793337,-0.00285892691981805,0.004755405341608577,0.016843952416119055,0.0072659986245852595, ,0.010452130044844198, ,0.017502360205654845, ,7.278175855018528e-05, ,0.1626098633996713,-0.28560982988744504,0.09469528079,-4.516092312826201,0.1908811901723203,-1.151723047478057, ,0.03224496824956533,-0.09321899956627777,0.0059061221802002226,0.026087173087810906,0.030927755771403765,0.0969717323954554, ,1.5420880317687988
0.012022834949745303,0.025236104885108097,-0.08356658098869439, ,0.01228407613723254,0.025951862749249634,-0.08364222878938941, ,0.000765688492711096, ,0.003427475949035221,0.01015324503594162,-0.0038758085980166966,-0.026990426203137987,-0.015607465461943455,0.008556900036516255, ,0.011395519664743165, ,0.031178134708448983, ,7.490547422008502e-05, ,0.1629573863790114,-0.28667556702408803,0.09476657674000001,-4.515672932939232,0.19101782667208575,-1.1504459267993639, ,0.03205977755353743,-0.09643998125860852,0.00704502942061035,0.01616302516732468,-0.004750841144878072,0.12541168558360624, ,1.552725076675415
0.012057960281685298,0.025342253638418005,-0.08361005182858754, ,0.012333116622195632,0.026101868252600885,-0.08370167528597613, ,0.0008130930031349952, ,0.0036673231399328467,0.011183958229171639,-0.0048747074565583795,-0.020507844759361852,0.0022571675880222217,-0.04610914403344758, ,0.012739425162524751, ,0.020631686781305725, ,7.716153563061164e-05, ,0.16328174115972882,-0.28766407683198875,0.09484305785000001,-4.515043863108779,0.19101782667208575,-1.1492207456972556, ,0.032689266813114286,-0.10303685294079346,0.008330968368200839,0.07595732378267744,-0.004509032262205425,0.1349079215040077, ,1.5638949871063232
0.012100206511771074,0.025461727057237135,-0.08366907457659917, ,0.012381740953497741,0.026251325348742312,-0.08376162245454818, ,0.0008433814164060685, ,0.0040765633068596185,0.011809698297524363,-0.006007873052555698,-0.016981099932681053,0.0024287251957796434,-0.04071619031921464, ,0.013862967968260224, ,0.017153904895771222, ,7.948943544529017e-05, ,0.16364470960481736,-0.2887452594343802,0.09493898331000002,-4.514414793278324,0.1908811901723203,-1.1477207892111696, ,0.03571582294259344,-0.10579369181546351,0.00965967951485749,0.07217787513592663,0.0,0.13419209669252175, ,1.5745961666107178
0.012140508688962296,0.025581113995448854,-0.08373626768142267, ,0.012429955291499765,0.02640023664939293,-0.0838220665509882, ,0.000872984939127583, ,0.004186370468974018,0.011942910273918214,-0.00666119870300676,-0.02880945225747506,-0.009238815091007569,0.0002652872565438956, ,0.014301411527373718, ,0.03025459023928032, ,8.1885428962864e-05, ,0.16398450985128324,-0.28980327383814897,0.09504268651000002,-4.51420510333484,0.1908811901723203,-1.1462505718886393, ,0.03585075238325303,-0.10567588146823026,0.010343384103896106,0.029267581008256584,0.0,0.13926118417233238, ,1.5850780010223389
0.012184347692573287,0.02570879806574871,-0.08380849876517937, ,0.012477765763478007,0.026548604754724436,-0.08388300384931024, ,0.0008927040084726665, ,0.004229616543058123,0.012914410077557104,-0.00745381867733306,-0.024869045194316312,-0.016690017739191727,0.029271591191212268, ,0.015499388911411269, ,0.029950393620162552, ,8.43152061313538e-05, ,0.16435520102924603,-0.2909307928377857,0.09515416745000001,-4.513995413391356,0.1908811901723203,-1.14486203330625, ,0.03487575948492127,-0.11392189862961677,0.011393999656652363,0.0,0.0,0.1388627864723634, ,1.595566987991333
0.012220649108645109,0.025820934823293718,-0.08386983032020091, ,0.012525178463693706,0.02669643225338563,-0.08394443064161963, ,0.000929945743653701, ,0.00448059737934794,0.013279893300007874,-0.006774236472674251,-0.02005571715945964,-0.013116314600520016,0.007296806243999527, ,0.015566682328714866, ,0.023963920489228664, ,8.683611782470147e-05, ,0.1646718330770892,-0.29191930264568644,0.09525009291000001,-4.513576033504387,0.19101782667208575,-1.1437482701078379, ,0.0389560515428862,-0.11921726326441054,0.010902677289527722,0.02457743558584821,0.0,0.14317865917393974, ,1.606112003326416
0.01226786127228582,0.025967852393549946,-0.08393903448832503, ,0.012572199453462643,0.02684372172252518,-0.08400634323807543, ,0.0009296769749512491, ,0.004496615568578481,0.013544192820474883,-0.006049967547667784,0.00798872645272011,0.007178523970870165,-0.03572326702916845, ,0.015500542508493665, ,0.010740155894190724, ,8.932297551977333e-05, ,0.16511202885092002,-0.29323988996717887,0.09536546272000002,-4.5127372737304485,0.19129109967161662,-1.14241920985256, ,0.04143971247094794,-0.12292349942807097,0.010329968560311285,0.07337623042935235,0.011282026936087281,0.12798296651437246, ,1.6166760921478271
0.01231285431617233,0.026111834083483672,-0.08400381079876976, ,0.012618834761224607,0.026990475727815457,-0.08406873796684934, ,0.0009326578735331019, ,0.004413293718434173,0.014267357162714846,-0.006755614963371695,0.0114688932902057,0.014846112800519784,0.01443490040071842, ,0.016391246913733337, ,0.018760132316081875, ,9.178706676975228e-05, ,0.16553677915900236,-0.29455275455579705,0.09547564737000001,-4.512527583786964,0.1915643726711475,-1.1411718283374228, ,0.04151222290396797,-0.12858664167814468,0.011249160677966103,0.028599585981705162,0.03356017430854842,0.1263385197044569, ,1.6271750926971436
0.012360026952174856,0.026251821332406895,-0.08407115791035302, ,0.012665090382612942,0.027136696823475706,-0.08413161117408735, ,0.0009379354606693652, ,0.004614169876283176,0.014677077721311294,-0.006806583133157995,-0.014376078136160616,0.0077282992233515015,0.024066062745664425, ,0.016823696027722396, ,0.016321709985562188, ,9.454325046323635e-05, ,0.16595380673421048,-0.29581928274716984,0.09558712831,-4.512527583786964,0.1915643726711475,-1.1395382535346115, ,0.04299816110488028,-0.1327229951866724,0.011451338260244429,0.019140499650958678,0.026641894617552356,0.15404322199689535, ,1.6325509548187256
0.012360026952174856,0.026251821332406895,-0.08407115791035302, ,0.012710972280523985,0.027282387552295864,-0.08419495922387055, ,0.001095698919546323, ,0.004614169876283176,0.014677077721311294,-0.006806583133157995,-0.014376078136160616,0.0077282992233515015,0.024066062745664425, ,0.016823696027722396, ,0.016321709985562188, ,9.779375588233729e-05, ,0.16595380673421048,-0.29581928274716984,0.09558712831,-4.512527583786964,0.1915643726711475,-1.1395382535346115, ,0.04299816110488028,-0.1327229951866724,0.011451338260244429,0.019140499650958678,0.026641894617552356,0.15404322199689535, ,1.6382479667663574
0.012413928389336044,0.026415446964166072,-0.0841491338354022, ,0.012756486385186698,0.027427550445659536,-0.0842587784981755, ,0.0010741142350081177, ,0.005492163681570719,0.016778026592818,-0.008767229451211741,0.015277050785854637,-0.003036873012411972,0.015371525415204706, ,0.019711173240187074, ,0.015575969523892641, ,0.0005472735271362807, ,0.16642489343953817,-0.2972866019932725,0.09571675731000001,-4.511898513956511,0.1915643726711475,-1.1379046787318003, ,0.04859034385994407,-0.1480451506372399,0.014058968684907327,0.02788399734532113,0.020332200980098518,0.13978770069381535, ,1.643524169921875
0.012413928389336044,0.026415446964166072,-0.0841491338354022, ,0.01280163859423208,0.027572188023568058,-0.08432306539683515, ,0.001232323524708288, ,0.005492163681570719,0.016778026592818,-0.008767229451211741,0.015277050785854637,-0.003036873012411972,0.015371525415204706, ,0.019711173240187074, ,0.015575969523892641, ,0.0005590847339909705, ,0.16642489343953817,-0.2972866019932725,0.09571675731000001,-4.511898513956511,0.1915643726711475,-1.1379046787318003, ,0.04859034385994407,-0.1480451506372399,0.014058968684907327,0.02788399734532113,0.020332200980098518,0.13978770069381535, ,1.6488959789276123
0.012453551134731804,0.026535175930428027,-0.08421264614114256, ,0.012846434772762854,0.027716302794663448,-0.08438781633749963, ,0.0012570214079890944, ,0.005706506210988506,0.01764093915316751,-0.010165915986956521,-0.006187548528390353,0.03092295515743955,-0.07861855223748888, ,0.02114504185845152, ,0.03153592877789581, ,0.0005709141691434811, ,0.16675697095312983,-0.2983291709312928,0.09581786793000001,-4.511059754182572,0.1915643726711475,-1.136679497629692, ,0.04756738925236631,-0.15039134953798858,0.01567796409448819,0.13044641202275897,0.01757260041591741,0.17991537242640404, ,1.6543681621551514
0.012540624712400014,0.026789095965561605,-0.08437065128322316, ,0.012890880753422687,0.027859897256251914,-0.0844530277555965, ,0.0011296373673075723, ,0.006586703813417535,0.019842175422632048,-0.012599060790491971,-0.06395097438752818,0.0042444262016002035,0.011019088376595196, ,0.024409689171120238, ,0.06409166842448219, ,0.0005802262224462158, ,0.16741340324743892,-0.3003525269443396,0.09604212610000001,-4.5100113044651495,0.1915643726711475,-1.133657384244491, ,0.05214117668047844,-0.16361541648012204,0.0185867112252042,0.041949047432160116,0.01397762219828551,0.23339953541377298, ,1.6600840091705322
0.012540624712400014,0.026789095965561605,-0.08437065128322316, ,0.012934982336466,0.02800297389432773,-0.08451869610429268, ,0.00128488708867745, ,0.006586703813417535,0.019842175422632048,-0.012599060790491971,-0.06395097438752818,0.0042444262016002035,0.011019088376595196, ,0.024409689171120238, ,0.06409166842448219, ,0.0005917780399254164, ,0.16741340324743892,-0.3003525269443396,0.09604212610000001,-4.5100113044651495,0.1915643726711475,-1.133657384244491, ,0.05214117668047844,-0.16361541648012204,0.0185867112252042,0.041949047432160116,0.01397762219828551,0.23339953541377298, ,1.665574073791504
0.012608344613693022,0.02698578529319582,-0.08450125535914738, ,0.01297874528982735,0.028145535183596228,-0.08458481785445354, ,0.0012203274805503306, ,0.007313499083464152,0.02134789802972523,-0.014798338808901681,-0.09805205395690468,0.0017292810499191218,0.023177328699074743, ,0.02698538216580271, ,0.09806729826213045, ,0.000601915934129044, ,0.1679771627472573,-0.30209786457391435,0.09624693992000001,-4.509591924578181,0.1915643726711475,-1.1309619858198525, ,0.0565536004520088,-0.17444290727660072,0.021438508102288024,0.033269016859731056,0.012115483697745726,0.2804520397483382, ,1.670889139175415
0.012608344613693022,0.02698578529319582,-0.08450125535914738, ,0.013022175349190902,0.02828758358749738,-0.0846513894946049, ,0.0013742179358888983, ,0.007313499083464152,0.02134789802972523,-0.014798338808901681,-0.09805205395690468,0.0017292810499191218,0.023177328699074743, ,0.02698538216580271, ,0.09806729826213045, ,0.0006141746960617401, ,0.1679771627472573,-0.30209786457391435,0.09624693992000001,-4.509591924578181,0.1915643726711475,-1.1309619858198525, ,0.0565536004520088,-0.17444290727660072,0.021438508102288024,0.033269016859731056,0.012115483697745726,0.2804520397483382, ,1.6761059761047363
0.01268832568577384,0.027220227719381058,-0.08466551502936133, ,0.013065278218060057,0.028429121558229558,-0.08471840753089331, ,0.0012674048847630206, ,0.007881452972953451,0.022987551751367387,-0.015499637128926207,-0.11288224134389305,0.01451923732915605,-0.04556537617432363, ,0.028823316735154866, ,0.11381216002205136, ,0.0006243814177601977, ,0.16858725864432106,-0.3039899341280994,0.09648416099000001,-4.508543474860758,0.19170100917091293,-1.1277245753777858, ,0.05994753099082172,-0.18717345475043548,0.022690614700854702,0.10774192628820163,0.0,0.3184050067125973, ,1.6814870834350586
0.01268832568577384,0.027220227719381058,-0.08466551502936133, ,0.01310805956782691,0.02857015153677249,-0.08478586848704683, ,0.0014187867349537957, ,0.007881452972953451,0.022987551751367387,-0.015499637128926207,-0.11288224134389305,0.01451923732915605,-0.04556537617432363, ,0.028823316735154866, ,0.11381216002205136, ,0.0006366030380247146, ,0.16858725864432106,-0.3039899341280994,0.09648416099000001,-4.508543474860758,0.19170100917091293,-1.1277245753777858, ,0.05994753099082172,-0.18717345475043548,0.022690614700854702,0.10774192628820163,0.0,0.3184050067125973, ,1.686920166015625
0.012760732399109359,0.02744581597870249,-0.08481735501352483, ,0.013150525037841719,0.0287106759529112,-0.08485376890433552, ,0.0013240600541550857, ,0.007389240756775382,0.02374972854764001,-0.01546796452150837,-0.0026006444158776718,0.08324777481054185,0.012864646374975974, ,0.029290073599887365, ,0.08328838140359593, ,0.0006470190534206293, ,0.16918963180851057,-0.3058202218192906,0.09670712287000001,-4.507914405030304,0.19238419166974016,-1.1252595515110673, ,0.06473188373701963,-0.1932727933981075,0.023018513757225436,0.0747200426239237,0.10271588840786448,0.2232087281920185, ,1.692202091217041
0.012760732399109359,0.02744581597870249,-0.08481735501352483, ,0.013192680235482469,0.028850697225258973,-0.08492210534153243, ,0.00147351378734344, ,0.007389240756775382,0.02374972854764001,-0.01546796452150837,-0.0026006444158776718,0.08324777481054185,0.012864646374975974, ,0.029290073599887365, ,0.08328838140359593, ,0.0006593547957179847, ,0.16918963180851057,-0.3058202218192906,0.09670712287000001,-4.507914405030304,0.19238419166974016,-1.1252595515110673, ,0.06473188373701963,-0.1932727933981075,0.023018513757225436,0.0747200426239237,0.10271588840786448,0.2232087281920185, ,1.6975531578063965
0.01283812543105555,0.027699043288770236,-0.0849790501512959, ,0.013234530736224439,0.028990217761281332,-0.08499087437487479, ,0.0013507066656730426, ,0.007697777509968794,0.024713892768898616,-0.015196840430077567,-0.018871522142940404,0.058577045740101336,0.04299452119966707, ,0.03001626614758806, ,0.061541886752879325, ,0.0006695217349820297, ,0.16986923230144232,-0.30788991422958273,0.09694952910000001,-4.507285335199851,0.19347728366786368,-1.1229654238751565, ,0.06706497636641044,-0.20407944421176513,0.02311873950653121,0.0413012603311887,0.0868709699557169,0.24262093141998212, ,1.7030529975891113
0.01283812543105555,0.027699043288770236,-0.0849790501512959, ,0.013276082083709553,0.02912923995731916,-0.08506007259802341, ,0.0014979429819609448, ,0.007697777509968794,0.024713892768898616,-0.015196840430077567,-0.018871522142940404,0.058577045740101336,0.04299452119966707, ,0.03001626614758806, ,0.061541886752879325, ,0.0006815278400107097, ,0.16986923230144232,-0.30788991422958273,0.09694952910000001,-4.507285335199851,0.19347728366786368,-1.1229654238751565, ,0.06706497636641044,-0.20407944421176513,0.02311873950653121,0.0413012603311887,0.0868709699557169,0.24262093141998212, ,1.7083311080932617
0.012917154113943003,0.0279409086109531,-0.08512148605823257, ,0.013317339789816071,0.02926776619861219,-0.08512969662202488, ,0.0013859174024667808, ,0.008701503942907005,0.026293795883411998,-0.014934373690565574,-0.0242048696976081,0.011125369894628066,0.009641707795233892, ,0.03146609906480969, ,0.02663923477621725, ,0.0006915905480457964, ,0.17053338732862564,-0.30990554750975535,0.09716989840000001,-4.506656265369397,0.19388719316716,-1.1204409216813263, ,0.0732794915509427,-0.22069056176388552,0.023459221678939622,0.06285975737158866,0.033129463150065735,0.25992464136822163, ,1.7136750221252441
0.012917154113943003,0.0279409086109531,-0.08512148605823257, ,0.01335830933472799,0.02940579885932265,-0.08519974307527144, ,0.001531876473254249, ,0.008701503942907005,0.026293795883411998,-0.014934373690565574,-0.0242048696976081,0.011125369894628066,0.009641707795233892, ,0.03146609906480969, ,0.02663923477621725, ,0.0007034255610769013, ,0.17053338732862564,-0.30990554750975535,0.09716989840000001,-4.506656265369397,0.19388719316716,-1.1204409216813263, ,0.0732794915509427,-0.22069056176388552,0.023459221678939622,0.06285975737158866,0.033129463150065735,0.25992464136822163, ,1.7190661430358887
0.013011717693955628,0.028226346047188797,-0.08527636406585662, ,0.013398996167004526,0.029543340302558382,-0.08527020860346159, ,0.0013727695997802656, ,0.008373020906002396,0.026950369113217187,-0.013121918337608698,0.01245257298120734,-0.00032673209633248424,-0.01034786204178756, ,0.031122574046660658, ,0.012456843046369324, ,0.0007127220060588925, ,0.17130566061604807,-0.3123227628993876,0.09741748979,-4.505817505595459,0.19388719316716,-1.1175821657764065, ,0.07108385135465976,-0.23259054303546764,0.021940511735537193,0.07870344508757576,0.016646861699206084,0.23479618632716026, ,1.7243430614471436
0.013095020924639496,0.02849009766194078,-0.08539264057027916, ,0.01343940570364984,0.029680392880396873,-0.08534108986956178, ,0.0012401858964840304, ,0.008212626601120087,0.02701842693991282,-0.01088756373750055,0.04484486152564385,-0.016287210261389032,0.0037848737922003407, ,0.030265189147516806, ,0.047710949166477626, ,0.0007199475388044423, ,0.17202387477335096,-0.314639582761655,0.09762100732000001,-4.505188435765006,0.19388719316716,-1.1152951610524706, ,0.07299764735266984,-0.24024542166701462,0.01988615670411985,0.060982218492822544,0.011376437395577874,0.20593579861990124, ,1.730635166168213
0.013095020924639496,0.02849009766194078,-0.08539264057027916, ,0.013479543330182205,0.029816958933907938,-0.08541238355376606, ,0.0013815962148209667, ,0.008212626601120087,0.02701842693991282,-0.01088756373750055,0.04484486152564385,-0.016287210261389032,0.0037848737922003407, ,0.030265189147516806, ,0.047710949166477626, ,0.0007288887371289899, ,0.17202387477335096,-0.314639582761655,0.09762100732000001,-4.505188435765006,0.19388719316716,-1.1152951610524706, ,0.07299764735266984,-0.24024542166701462,0.01988615670411985,0.060982218492822544,0.011376437395577874,0.20593579861990124, ,1.7361171245574951
0.013176144038427052,0.028750333013047635,-0.08549190263044525, ,0.013519414400703814,0.02995304079317778,-0.08548408635345714, ,0.0012507604247773258, ,0.008045657330425875,0.027311245081872597,-0.00989257859877362,0.052548336093589124,-0.021115025537258546,0.010343738909193169, ,0.030141330779075756, ,0.05663189768055448, ,0.0007358470262976345, ,0.17274981166352807,-0.31697184808967077,0.09780767308,-4.504769055878036,0.19388719316716,-1.1132531925489568, ,0.07266228296973261,-0.24332549117556607,0.019168244909747296,0.05357109387324281,0.00869274758427925,0.20306911033249075, ,1.7414741516113281
0.013176144038427052,0.028750333013047635,-0.08549190263044525, ,0.013559024237970226,0.03008864077733244,-0.08555619498316773, ,0.0013934842753923736, ,0.008045657330425875,0.027311245081872597,-0.00989257859877362,0.052548336093589124,-0.021115025537258546,0.010343738909193169, ,0.030141330779075756, ,0.05663189768055448, ,0.0007445001479962495, ,0.17274981166352807,-0.31697184808967077,0.09780767308,-4.504769055878036,0.19388719316716,-1.1132531925489568, ,0.07266228296973261,-0.24332549117556607,0.019168244909747296,0.05357109387324281,0.00869274758427925,0.20306911033249075, ,1.7467150688171387
0.013259326872311378,0.029027920136746703,-0.08558991906450986, ,0.01359837813345969,0.030223761194560817,-0.08562870617454027, ,0.0012435819366429992, ,0.00816258343422099,0.028000894306048265,-0.008968063504339064,0.11302773055536722,-0.031355827883970906,0.005138333261181974, ,0.030513997005914572, ,0.11729644393065447, ,0.0007509817296669865, ,0.17349891675232784,-0.31947401354091953,0.097999524,-4.5041399860475835,0.19388719316716,-1.1115379390060047, ,0.0754347707142057,-0.25509930526470637,0.018500361811846694,0.05652707809801895,0.006963409612237705,0.15032474656939135, ,1.7520020008087158
0.013259326872311378,0.029027920136746703,-0.08558991906450986, ,0.013637481347442913,0.0303584043421384,-0.08570161667628828, ,0.0013876834597039, ,0.00816258343422099,0.028000894306048265,-0.008968063504339064,0.11302773055536722,-0.031355827883970906,0.005138333261181974, ,0.030513997005914572, ,0.11729644393065447, ,0.0007591445723597674, ,0.17349891675232784,-0.31947401354091953,0.097999524,-4.5041399860475835,0.19388719316716,-1.1115379390060047, ,0.0754347707142057,-0.25509930526470637,0.018500361811846694,0.05652707809801895,0.006963409612237705,0.15032474656939135, ,1.7573060989379883
0.01334192798232997,0.029314023856734574,-0.08568283472461044, ,0.01367633910905242,0.030492572506450908,-0.08577492325415738, ,0.001228530837503923, ,0.008105078375401888,0.0280042133721421,-0.009102951322549348,0.10109069588725962,-0.03402051635406673,0.0019076195452110436, ,0.03054164345356308, ,0.1066617282133721, ,0.0007650861706527315, ,0.17426346730687606,-0.32206885178665895,0.09819007863000001,-4.503510916217129,0.1940238296669254,-1.1100157821068901, ,0.0736205908133986,-0.25373513785687374,0.01867387048065651,0.05828003872262444,0.0,0.16027020153835825, ,1.7626409530639648
0.01334192798232997,0.029314023856734574,-0.08568283472461044, ,0.013714956616352065,0.030626267963017453,-0.08584862269088481, ,0.0013742709361825025, ,0.008105078375401888,0.0280042133721421,-0.009102951322549348,0.10109069588725962,-0.03402051635406673,0.0019076195452110436, ,0.03054164345356308, ,0.1066617282133721, ,0.0007727009802218536, ,0.17426346730687606,-0.32206885178665895,0.09819007863000001,-4.503510916217129,0.1940238296669254,-1.1100157821068901, ,0.0736205908133986,-0.25373513785687374,0.01867387048065651,0.05828003872262444,0.0,0.16027020153835825, ,1.7678990364074707
0.0134261968092475,0.02960390981554538,-0.08578894896514526, ,0.013753339036406648,0.030759492976514105,-0.08592271178616143, ,0.0012084233409659563, ,0.008564871224568935,0.028900885272876934,-0.011364036720831814,0.06394297726013323,-0.026838303561991086,-0.0018802076612639109, ,0.03221427508484178, ,0.06934694434113134, ,0.0007780802686261017, ,0.17498168146417895,-0.32456329450503346,0.09838711471000001,-4.502881846386677,0.1940238296669254,-1.1082188498237977, ,0.07419620137487942,-0.25441539291815224,0.021014263218997364,0.06576421308297004,0.0,0.1995105596141325, ,1.7732090950012207
0.0134261968092475,0.02960390981554538,-0.08578894896514526, ,0.013791491505351266,0.030892249800797338,-0.08599718735659176, ,0.0013552207791621212, ,0.008564871224568935,0.028900885272876934,-0.011364036720831814,0.06394297726013323,-0.026838303561991086,-0.0018802076612639109, ,0.03221427508484178, ,0.06934694434113134, ,0.0007851185675350776, ,0.17498168146417895,-0.32456329450503346,0.09838711471000001,-4.502881846386677,0.1940238296669254,-1.1082188498237977, ,0.07419620137487942,-0.25441539291815224,0.021014263218997364,0.06576421308297004,0.0,0.1995105596141325, ,1.7784080505371094
0.01351032318702818,0.02988299546724091,-0.08590946982892426, ,0.013829419128460977,0.031024540678927497,-0.08607204623565529, ,0.0011964024315375761, ,0.008780564017525961,0.029857482939198005,-0.013265560219161702,0.045362225868079815,-0.023191623890306778,0.002506265565207754, ,0.033831090432597306, ,0.05094685999724088, ,0.0007900737948122162, ,0.17569989562148183,-0.327057737223408,0.09861007659000001,-4.502252776556222,0.19388719316716,-1.1060654634165874, ,0.0724957536733925,-0.25578690447027164,0.02339032528634362,0.06331014573355698,0.0,0.21953714966435411, ,1.7836871147155762
0.01351032318702818,0.02988299546724091,-0.08590946982892426, ,0.01386712698022021,0.03115636784319226,-0.08614728527366627, ,0.001343630284129545, ,0.008780564017525961,0.029857482939198005,-0.013265560219161702,0.045362225868079815,-0.023191623890306778,0.002506265565207754, ,0.033831090432597306, ,0.05094685999724088, ,0.0007966637530183751, ,0.17569989562148183,-0.327057737223408,0.09861007659000001,-4.502252776556222,0.19388719316716,-1.1060654634165874, ,0.0724957536733925,-0.25578690447027164,0.02339032528634362,0.06331014573355698,0.0,0.21953714966435411, ,1.7890031337738037
0.01359873160464976,0.030183969969196516,-0.08605295919080783, ,0.013904620104392258,0.03128773351513016,-0.08622290133773516, ,0.00115790417259331, ,0.008761575863150132,0.030240102960622985,-0.01500447676528459,0.02883157019778456,-0.016897360161512744,0.007593619056931774, ,0.03487640121450003, ,0.03341825040286818, ,0.000800913640307492, ,0.17639494158016203,-0.32959851633902787,0.0988550754,-4.501623706725769,0.19375055666739455,-1.103667040788955, ,0.0687658996800513,-0.25238548286827334,0.02520381569620253,0.05927114752255039,0.002171115716456352,0.23252273323547867, ,1.7944581508636475
0.01359873160464976,0.030183969969196516,-0.08605295919080783, ,0.013941903514088957,0.03141863990555397,-0.08629889131172913, ,0.001304859923238474, ,0.008761575863150132,0.030240102960622985,-0.01500447676528459,0.02883157019778456,-0.016897360161512744,0.007593619056931774, ,0.03487640121450003, ,0.03341825040286818, ,0.0008067734808066895, ,0.17639494158016203,-0.32959851633902787,0.0988550754,-4.501623706725769,0.19375055666739455,-1.103667040788955, ,0.0687658996800513,-0.25238548286827334,0.02520381569620253,0.05927114752255039,0.002171115716456352,0.23252273323547867, ,1.7998180389404297
0.013688100338005972,0.030493095536454653,-0.08620778896459672, ,0.013978982191839929,0.03154908921457416,-0.08637525209623304, ,0.0011080518045541402, ,0.008402006418791831,0.029779519799607825,-0.015285031663316273,0.01759967760500415,-0.01847871301638886,0.02521287142767132, ,0.03451153001976636, ,0.025518829366253288, ,0.0008102364500451659, ,0.17708998753884223,-0.3321701863861446,0.0991143334,-4.5012043268388,0.19375055666739455,-1.1012166785847382, ,0.06394672611756791,-0.24584699885614195,0.025324024674085854,0.039345049152050726,0.001981015010742285,0.23397473039672764, ,1.8057379722595215
0.013769282581037105,0.030793373387152368,-0.086356409012834, ,0.014015861089662292,0.031679083631622286,-0.08645198060850977, ,0.0009243470819853303, ,0.007828467559022775,0.02883003780017931,-0.014102872309263425,0.01730313075471437,-0.010621555963347452,0.011122915480685778, ,0.03303554133435426, ,0.020303084177558335, ,0.0008115331617717588, ,0.17771552890165443,-0.3346569063716449,0.09936451737000002,-4.500575257008347,0.19388719316716,-1.0989594130243585, ,0.05953384037545218,-0.23903511727574503,0.02388127664167916,0.05286697936874673,0.001440013375699737,0.22968125947390305, ,1.8111441135406494
0.013769282581037105,0.030793373387152368,-0.086356409012834, ,0.014052545129130149,0.03180862533547473,-0.08652907378246094, ,0.0010680764543771395, ,0.007828467559022775,0.02883003780017931,-0.014102872309263425,0.01730313075471437,-0.010621555963347452,0.011122915480685778, ,0.03303554133435426, ,0.020303084177558335, ,0.0008144156706774371, ,0.17771552890165443,-0.3346569063716449,0.09936451737000002,-4.500575257008347,0.19388719316716,-1.0989594130243585, ,0.05953384037545218,-0.23903511727574503,0.02388127664167916,0.05286697936874673,0.001440013375699737,0.22968125947390305, ,1.8164081573486328
0.013845292345260819,0.031074918134615135,-0.08648710067012173, ,0.014089039201443993,0.03193771649427572,-0.08660652856858819, ,0.000904486905523953, ,0.007453013073317477,0.02770625279074125,-0.01210192531445177,0.024653105679381997,-0.0020721484602185592,-0.01581111429975789, ,0.031139050144345558, ,0.024740031513708655, ,0.0008154164621757317, ,0.17830245660009547,-0.33700461716540914,0.09959136812000001,-4.499736497234409,0.19388719316716,-1.0967540870405632, ,0.059052234946154816,-0.23316201857118127,0.021642406956521743,0.0802401132406935,0.001440013375699737,0.22103507416019738, ,1.821732997894287
0.013845292345260819,0.031074918134615135,-0.08648710067012173, ,0.014125348167500343,0.03206635926556129,-0.08668434193395308, ,0.0010489475181627702, ,0.007453013073317477,0.02770625279074125,-0.01210192531445177,0.024653105679381997,-0.0020721484602185592,-0.01581111429975789, ,0.031139050144345558, ,0.024740031513708655, ,0.0008179827375162487, ,0.17830245660009547,-0.33700461716540914,0.09959136812000001,-4.499736497234409,0.19388719316716,-1.0967540870405632, ,0.059052234946154816,-0.23316201857118127,0.021642406956521743,0.0802401132406935,0.001440013375699737,0.22103507416019738, ,1.8271210193634033
0.01391599171538805,0.0313541911733219,-0.08661028604167052, ,0.014161476857961089,0.032194555796282304,-0.08676251086213871, ,0.000888621432733903, ,0.0067970999338173846,0.027240445663765527,-0.011929515679601457,0.05486759778958251,-0.002037757206999799,0.009923309349784401, ,0.030505012568768423, ,0.05490542322962776, ,0.0008187505494207883, ,0.17885849336703966,-0.3393523279591734,0.09981044113000001,-4.499317117347439,0.1940238296669254,-1.0948235364407455, ,0.05286737691279709,-0.2286673290565561,0.02129520256684492,0.052115484015822514,0.010283968241601743,0.1825606220010596, ,1.8323841094970703
0.01391599171538805,0.0313541911733219,-0.08661028604167052, ,0.014197430073323192,0.03232230822282816,-0.08684103235320961, ,0.0010342640045707988, ,0.0067970999338173846,0.027240445663765527,-0.011929515679601457,0.05486759778958251,-0.002037757206999799,0.009923309349784401, ,0.030505012568768423, ,0.05490542322962776, ,0.000821067898400896, ,0.17885849336703966,-0.3393523279591734,0.09981044113000001,-4.499317117347439,0.1940238296669254,-1.0948235364407455, ,0.05286737691279709,-0.2286673290565561,0.02129520256684492,0.052115484015822514,0.010283968241601743,0.1825606220010596, ,1.8376779556274414
0.01397269054056805,0.03157519734396804,-0.08671336553782608, ,0.014233212583988096,0.032449618671050236,-0.0869199034236732, ,0.0009354904011555347, ,0.006686168241980112,0.026800805450501296,-0.012888597141643941,0.04545134227007929,-0.0013692179214226372,0.01587543076172301, ,0.030481206584308237, ,0.045471957470663085, ,0.0008222851590684985, ,0.179283243675122,-0.3411826156503646,0.09998932915000001,-4.49889773746047,0.1940238296669254,-1.0931899616379344, ,0.04958042923640061,-0.22017851869714797,0.022062065817174518,0.044194614744364355,0.010283968241601743,0.18228449346931813, ,1.8429579734802246
0.01397269054056805,0.03157519734396804,-0.08671336553782608, ,0.014268829130331197,0.03257648925628525,-0.08699912110643984, ,0.001082561685546157, ,0.006686168241980112,0.026800805450501296,-0.012888597141643941,0.04545134227007929,-0.0013692179214226372,0.01587543076172301, ,0.030481206584308237, ,0.045471957470663085, ,0.0008250249119787896, ,0.179283243675122,-0.3411826156503646,0.09998932915000001,-4.49889773746047,0.1940238296669254,-1.0931899616379344, ,0.04958042923640061,-0.22017851869714797,0.022062065817174518,0.044194614744364355,0.010283968241601743,0.18228449346931813, ,1.848344087600708
0.0140471002402692,0.03187495196149273,-0.08685975467070328, ,0.014304284422771416,0.03270292208337862,-0.0870786824507838, ,0.000894207805465849, ,0.006120177206267325,0.025511374195035377,-0.012328743068916886,0.04167840698117633,0.007505551572546775,0.0004478826331593788, ,0.028987664411169747, ,0.042348820857980175, ,0.0008257455671192799, ,0.1798161122434435,-0.3436307219714938,0.10023821683,-4.4982686676300165,0.1940238296669254,-1.0910663143942796, ,0.04409709180226338,-0.20810732797910259,0.02106985650793651,0.05798778799563274,0.009677333974300794,0.1763370914596584, ,1.8536529541015625
0.0140471002402692,0.03187495196149273,-0.08685975467070328, ,0.014339583141840707,0.03282891924670845,-0.08715858452230457, ,0.0010415849025315151, ,0.006120177206267325,0.025511374195035377,-0.012328743068916886,0.04167840698117633,0.007505551572546775,0.0004478826331593788, ,0.028987664411169747, ,0.042348820857980175, ,0.000827970714907035, ,0.1798161122434435,-0.3436307219714938,0.10023821683,-4.4982686676300165,0.1940238296669254,-1.0910663143942796, ,0.04409709180226338,-0.20810732797910259,0.02106985650793651,0.05798778799563274,0.009677333974300794,0.1763370914596584, ,1.8593840599060059
0.014113105569128566,0.03214456807347826,-0.0869970520973519, ,0.014374729938253488,0.03295448283020822,-0.08723882440288645, ,0.0008847954969440495, ,0.005984084963918949,0.024925958988446042,-0.013492868762905116,0.03409160247673387,0.0080637809488538,0.003423565572716899, ,0.02896843474891378, ,0.03503229189480004, ,0.0008285505596216983, ,0.18027175348302274,-0.34580080990915085,0.10046766016000001,-4.497639597799563,0.1940238296669254,-1.0891060246309061, ,0.039973437893205885,-0.19729093879099954,0.02197077451034483,0.052036892405167075,0.008481429520575092,0.1720514709182695, ,1.8647749423980713
0.014113105569128566,0.03214456807347826,-0.0869970520973519, ,0.014409729432976267,0.03307961490739088,-0.08731939919066012, ,0.0010325724898418596, ,0.005984084963918949,0.024925958988446042,-0.013492868762905116,0.03409160247673387,0.0080637809488538,0.003423565572716899, ,0.02896843474891378, ,0.03503229189480004, ,0.0008306113871996797, ,0.18027175348302274,-0.34580080990915085,0.10046766016000001,-4.497639597799563,0.1940238296669254,-1.0891060246309061, ,0.039973437893205885,-0.19729093879099954,0.02197077451034483,0.052036892405167075,0.008481429520575092,0.1720514709182695, ,1.8699951171875
0.014169476799680825,0.03237821378869289,-0.08713061080527641, ,0.014444586217297039,0.03320431754137194,-0.08740030599996333, ,0.000911519665113567, ,0.006001891340400591,0.024690156131195736,-0.014635824938455588,0.02657774878326776,0.005715169459443736,0.012008251687663788, ,0.029322924156262392, ,0.027185275808326418, ,0.0008314204699788186, ,0.18062699919523706,-0.34762337486746786,0.10068025172000002,-4.497220217912593,0.1940238296669254,-1.0873907710879542, ,0.03768742714792326,-0.19017423158010174,0.02298529800865801,0.04105425272196363,0.007646251510974708,0.17056379131786029, ,1.8752641677856445
0.014169476799680825,0.03237821378869289,-0.08713061080527641, ,0.014479304852894915,0.033328592784893175,-0.08748154196130117, ,0.001059417922845355, ,0.006001891340400591,0.024690156131195736,-0.014635824938455588,0.02657774878326776,0.005715169459443736,0.012008251687663788, ,0.029322924156262392, ,0.027185275808326418, ,0.0008336778705022496, ,0.18103630403757096,-0.34960039448326935,0.10093691714000001,-4.496800838025624,0.1940238296669254,-1.085593838804862, ,0.03712712893523896,-0.17804304232358495,0.02402535674208145,0.04374302670173569,0.00687891286125608,0.1644589376032869, ,1.8806190490722656
0.014237110076708933,0.032641229241913254,-0.08729859590969884, ,0.014513889871909463,0.033452442680345744,-0.08756310422130713, ,0.0008970166913912914, ,0.006208568284232307,0.02405324351838497,-0.01592498706695812,0.021011847156728308,0.005741213962088883,0.006712525097904061, ,0.029507796545616333, ,0.02178206221805071, ,0.0008342988393344951, ,0.18103630403757096,-0.34960039448326935,0.10093691714000001,-4.496800838025624,0.1940238296669254,-1.085593838804862, ,0.03712712893523896,-0.17804304232358495,0.02402535674208145,0.04374302670173569,0.00687891286125608,0.1644589376032869, ,1.8870489597320557
0.014281431039618252,0.03281074448038929,-0.08741407044221813, ,0.01454834577701042,0.03357586925979421,-0.0876449899427036, ,0.0008426050206360145, ,0.005981120964865175,0.023242782744717493,-0.015857947102931202,0.013350138424835113,0.013266799978594226,-0.008265797245507769, ,0.02876586942947929, ,0.01882108325221885, ,0.000834379481871403, ,0.18129115422242037,-0.35083603174314526,0.10110932371,-4.496171768195171,0.1940238296669254,-1.0844503364428941, ,0.03453309372578995,-0.16945882421155498,0.023668367786032693,0.05835116417476207,0.006448043407613315,0.16611315364705503, ,1.89335298538208
0.014281431039618252,0.03281074448038929,-0.08741407044221813, ,0.014582677041466973,0.03369887454499942,-0.08772719630426276, ,0.0009887223931799186, ,0.005981120964865175,0.023242782744717493,-0.015857947102931202,0.013350138424835113,0.013266799978594226,-0.008265797245507769, ,0.02876586942947929, ,0.01882108325221885, ,0.0008358635483262926, ,0.18129115422242037,-0.35083603174314526,0.10110932371,-4.496171768195171,0.1940238296669254,-1.0844503364428941, ,0.03453309372578995,-0.16945882421155498,0.023668367786032693,0.05835116417476207,0.006448043407613315,0.16611315364705503, ,1.8986661434173584
0.014352948531503852,0.033082023350381365,-0.08760565861906607, ,0.014616888109217458,0.033821460547442256,-0.08780972050076756, ,0.0008112168148186145, ,0.005632616866114203,0.02160648989080939,-0.015233709190830341,0.007458341126260349,0.012545867175328296,-0.007051458405975322, ,0.027030217791813506, ,0.014595369646968072, ,0.0008356288175309814, ,0.18169273633188004,-0.35278988316032406,0.10139191493000001,-4.495752388308202,0.1940238296669254,-1.0822450104590988, ,0.031748725847598115,-0.1548074087413879,0.022498321355932206,0.05325656711381522,0.005827505323811963,0.15652549935794546, ,1.9039771556854248
0.014352948531503852,0.033082023350381365,-0.08760565861906607, ,0.014650983394938864,0.03394362926834699,-0.08789255974297205, ,0.0009557728770971894, ,0.005632616866114203,0.02160648989080939,-0.015233709190830341,0.007458341126260349,0.012545867175328296,-0.007051458405975322, ,0.027030217791813506, ,0.014595369646968072, ,0.000836762252055191, ,0.18169273633188004,-0.35278988316032406,0.10139191493000001,-4.495752388308202,0.1940238296669254,-1.0822450104590988, ,0.031748725847598115,-0.1548074087413879,0.022498321355932206,0.05325656711381522,0.005827505323811963,0.15652549935794546, ,1.9092440605163574
0.01440848332888209,0.03329076369399085,-0.08774747017493353, ,0.014684967284116104,0.034065382698705064,-0.08797571125756173, ,0.0008535642751226028, ,0.005352971155696447,0.021310782793773526,-0.01428342219709271,0.023043420185559882,0.005680578189600234,0.005908080522298242, ,0.026207249247822875, ,0.023733259108336013, ,0.0008369192803081575, ,0.18201709111259748,-0.35430353880367205,0.10160450649000001,-4.495333008421233,0.1940238296669254,-1.0806931143964282, ,0.030503677775143293,-0.15506036202364507,0.02149637182186235,0.037675936850635805,0.005413555886393039,0.13827196490136776, ,1.9145550727844238
0.01440848332888209,0.03329076369399085,-0.08774747017493353, ,0.014718844133111805,0.03418672281929789,-0.08805917228711513, ,0.0009981106099834496, ,0.005352971155696447,0.021310782793773526,-0.01428342219709271,0.023043420185559882,0.005680578189600234,0.005908080522298242, ,0.026207249247822875, ,0.023733259108336013, ,0.0008384117926199657, ,0.18201709111259748,-0.35430353880367205,0.10160450649000001,-4.495333008421233,0.1940238296669254,-1.0806931143964282, ,0.030503677775143293,-0.15506036202364507,0.02149637182186235,0.037675936850635805,0.005413555886393039,0.13827196490136776, ,1.9198689460754395
0.014465446996347078,0.033513064229127455,-0.08789883345884565, ,0.014752618269235655,0.034307651600720995,-0.08814294009006425, ,0.0008794455517388608, ,0.005415658013174712,0.020677289498622874,-0.014751383101084231,0.011377327095400798,0.007063728828468612,-0.009738155109727253, ,0.02597080969320126, ,0.013391756356140256, ,0.0008387882491256437, ,0.18234916862618913,-0.35590214450863655,0.10183135724,-4.49470393859078,0.1941604661666909,-1.0793343149775945, ,0.029544502353197624,-0.1462202489344696,0.021730984338335608,0.05121538303698351,0.0,0.1427868295326011, ,1.9252290725708008
0.014465446996347078,0.033513064229127455,-0.08789883345884565, ,0.014786293990814053,0.03442817100340706,-0.08822701194065495, ,0.0010237501248417853, ,0.005415658013174712,0.020677289498622874,-0.014751383101084231,0.011377327095400798,0.007063728828468612,-0.009738155109727253, ,0.02597080969320126, ,0.013391756356140256, ,0.0008404697207230631, ,0.18234916862618913,-0.35590214450863655,0.10183135724,-4.49470393859078,0.1941604661666909,-1.0793343149775945, ,0.029544502353197624,-0.1462202489344696,0.021730984338335608,0.05121538303698351,0.0,0.1427868295326011, ,1.930652141571045
0.014519677677205434,0.03371848450368353,-0.08805145662624755, ,0.014819875567259335,0.034548282977649614,-0.08831138512890796, ,0.0009199169022713583, ,0.005624900435481895,0.02087515318557377,-0.01623148186123368,0.005569906072945678,0.011607415847282478,-0.01868606687114186, ,0.027034654220866466, ,0.012874580756608228, ,0.000841185461097372, ,0.18263490974253543,-0.3573308500903681,0.10205302283,-4.494284558703811,0.1941604661666909,-1.077945776395205, ,0.028695779122609847,-0.14184894104405196,0.023219841865889216,0.06040898855773513,0.0,0.1458983362065433, ,1.9367179870605469
0.014575532555535262,0.03392047569011377,-0.08821615151681728, ,0.01485336723913972,0.03466798946362623,-0.08839605696057953, ,0.0008175175360197001, ,0.005856287726789184,0.020103534205683813,-0.016728816971587557,-0.018086446894052786,0.005683629557154112,-0.0038623139933260183, ,0.026801147564365906, ,0.018958425462808903, ,0.00084097414033775, ,0.18263490974253543,-0.3573308500903681,0.10205302283,-4.493865178816841,0.1941604661666909,-1.0763938803325344, ,0.030193108990922937,-0.1319846196918926,0.023459221678939622,0.043378369709277324,0.0,0.15708909359516235, ,1.9423799514770508
0.014575532555535262,0.03392047569011377,-0.08821615151681728, ,0.014886773218248292,0.034787292391422336,-0.08848102475712244, ,0.0009583317678253532, ,0.005856287726789184,0.020103534205683813,-0.016728816971587557,-0.018086446894052786,0.005683629557154112,-0.0038623139933260183, ,0.026801147564365906, ,0.018958425462808903, ,0.0008420127034128615, ,0.1829129281260075,-0.35867460561048314,0.10228505874,-4.493865178816841,0.1941604661666909,-1.0763938803325344, ,0.030193108990922937,-0.1319846196918926,0.023459221678939622,0.043378369709277324,0.0,0.15708909359516235, ,1.9478189945220947
0.014633929035671015,0.03412458043204693,-0.08838644389643373, ,0.014920097687673009,0.034906193681054375,-0.08856628585564552, ,0.0008515602730903739, ,0.005973238618340813,0.019859318755119884,-0.016897427013724462,-0.03534513958458702,0.003516207588302358,0.004354462149114099, ,0.026750610473281533, ,0.03551958939123832, ,0.0008420964540240678, ,0.18320639197522803,-0.36001063839772396,0.10252357610000001,-4.493445798929873,0.1941604661666909,-1.074760305529723, ,0.03105266412253625,-0.1284126408098387,0.023563330650887577,0.03485333795715506,0.0,0.1695292921026848, ,1.9531700611114502
0.014633929035671015,0.03412458043204693,-0.08838644389643373, ,0.014953344801865871,0.03502469524249338,-0.08865183760887672, ,0.0009912955796749915, ,0.005973238618340813,0.019859318755119884,-0.016897427013724462,-0.03534513958458702,0.003516207588302358,0.004354462149114099, ,0.026750610473281533, ,0.03551958939123832, ,0.0008433938377253802, ,0.18320639197522803,-0.36001063839772396,0.10252357610000001,-4.493445798929873,0.1941604661666909,-1.074760305529723, ,0.03105266412253625,-0.1284126408098387,0.023563330650887577,0.03485333795715506,0.0,0.1695292921026848, ,1.959644079208374
0.014690261148587206,0.03431320321192721,-0.08854460020290586, ,0.014986518686712495,0.035142798975688415,-0.08873767738512098, ,0.0009018184176643986, ,0.005861934434544767,0.019417310687905823,-0.01615807556965847,-0.03261400153089387,0.007774451226911891,-0.008366927331537852, ,0.02593217375733005, ,0.03352781064025671, ,0.0008438974978972683, ,0.18349985582444858,-0.3612308301918514,0.10274524169000002,-4.4928167290994185,0.1941604661666909,-1.0730450519867714, ,0.03116484123430896,-0.12602515479212587,0.02272298362339515,0.0480491179943218,0.0,0.16667667457631324, ,1.965022087097168
0.014690261148587206,0.03431320321192721,-0.08854460020290586, ,0.0150196234396018,0.035260506770590075,-0.08882380256822342, ,0.0010410655655608949, ,0.005861934434544767,0.019417310687905823,-0.01615807556965847,-0.03261400153089387,0.007774451226911891,-0.008366927331537852, ,0.02593217375733005, ,0.03352781064025671, ,0.0008455826950567864, ,0.18349985582444858,-0.3612308301918514,0.10274524169000002,-4.4928167290994185,0.1941604661666909,-1.0730450519867714, ,0.03116484123430896,-0.12602515479212587,0.02272298362339515,0.0480491179943218,0.0,0.16667667457631324, ,1.9703199863433838
0.014751925571859434,0.03451787542796097,-0.08871234880872475, ,0.015052663129495292,0.035377820507173995,-0.08891021055752857, ,0.0009322541978855251, ,0.00562621419148058,0.019025629966553465,-0.01571341744627203,-0.027011250033132792,0.007443833170591406,-0.00679851216141919, ,0.025308899019780392, ,0.028018160586503076, ,0.000846317199318047, ,0.18383193333804024,-0.3625668629790923,0.10298246276,-4.49239734921245,0.1941604661666909,-1.0713297984438195, ,0.029379858067638008,-0.12340304493949386,0.022154118942976357,0.04515896732724774,0.0,0.1579028835625213, ,1.975667953491211
0.014751925571859434,0.03451787542796097,-0.08871234880872475, ,0.015085641796996658,0.035494742055464,-0.08899689876784128, ,0.0010707957816886461, ,0.00562621419148058,0.019025629966553465,-0.01571341744627203,-0.027011250033132792,0.007443833170591406,-0.00679851216141919, ,0.025308899019780392, ,0.028018160586503076, ,0.0008482035739598166, ,0.18414856538588342,-0.36374844110884863,0.10319635061000001,-4.491977969325481,0.1941604661666909,-1.0698595811212894, ,0.03287043351523061,-0.12636077437878931,0.022690614700854702,0.03865857184073612,0.0,0.14810236315139633, ,1.981215000152588
0.014813380530789566,0.03471474412365966,-0.08887453436548169, ,0.015118563454421377,0.035611273275556146,-0.08908386462938847, ,0.0009699073648879972, ,0.005978440575932015,0.01956558257914215,-0.016009060417708124,-0.014796790950227567,0.0007166652923532653,-0.0009025151418952435, ,0.025977755654386505, ,0.014814100715795009, ,0.0008492177722175515, ,0.18414856538588342,-0.36374844110884863,0.10319635061000001,-4.491977969325481,0.1941604661666909,-1.0698595811212894, ,0.03287043351523061,-0.12636077437878931,0.022690614700854702,0.03865857184073612,0.0,0.14810236315139633, ,1.9864990711212158
0.014874589599412315,0.03491372492846693,-0.08903856871948508, ,0.01515143208586592,0.03572741601764143,-0.08917110558777828, ,0.0008696556631016481, ,0.005978440575932015,0.01956558257914215,-0.016009060417708124,-0.014796790950227567,0.0007166652923532653,-0.0009025151418952435, ,0.025977755654386505, ,0.014814100715795009, ,0.0008493866804066764, ,0.18450381109809777,-0.3651230875604606,0.10344394200000001,-4.491558589438512,0.1941604661666909,-1.0683893637987594, ,0.03154818535853417,-0.12453666871190391,0.02253014359264498,0.03716943356796746,0.0,0.13476132231391463, ,1.9922029972076416
0.014874589599412315,0.03491372492846693,-0.08903856871948508, ,0.015184251647277712,0.03584317212203001,-0.08925861910396195, ,0.0010040840807516555, ,0.005882136325981488,0.019344473428082,-0.01591924380805698,-0.004388844524307597,-0.0005060389820128878,-0.0009111581044891239, ,0.025733839654967193, ,0.004417805940766528, ,0.0008506546918849139, ,0.18450381109809777,-0.3651230875604606,0.10344394200000001,-4.491558589438512,0.1941604661666909,-1.0683893637987594, ,0.03154818535853417,-0.12453666871190391,0.02253014359264498,0.03716943356796746,0.0,0.13476132231391463, ,1.9981470108032227
0.014930447223456628,0.03509181202101924,-0.08918475474100572, ,0.01521702606652419,0.035958543419174094,-0.08934640265419434, ,0.00092708187215566, ,0.006140467313144442,0.019247022469222923,-0.015556636480832072,-0.00010488164061038428,-0.000643514015624418,-0.010429939714859988, ,0.02549827741929487, ,0.0006513058580111996, ,0.000851276051074107, ,0.18481272041306673,-0.36626605202584583,0.10365134840000001,-4.491139209551543,0.1941604661666909,-1.0671641826966507, ,0.03493996375495979,-0.12404828961891604,0.022215915648535565,0.04724565464605855,0.0,0.1316922803456274, ,2.0034940242767334
0.014930447223456628,0.03509181202101924,-0.08918475474100572, ,0.015249759243462646,0.03607353172969169,-0.08943445372999408, ,0.0010621126765169707, ,0.006140467313144442,0.019247022469222923,-0.015556636480832072,-0.00010488164061038428,-0.000643514015624418,-0.010429939714859988, ,0.02549827741929487, ,0.0006513058580111996, ,0.0008529763464405817, ,0.18481272041306673,-0.36626605202584583,0.10365134840000001,-4.491139209551543,0.1941604661666909,-1.0671641826966507, ,0.03493996375495979,-0.12404828961891604,0.022215915648535565,0.04724565464605855,0.0,0.1316922803456274, ,2.0087890625
0.014998670879291982,0.035311079738625635,-0.08936604731530776, ,0.015282455050009537,0.03618813886439001,-0.08952276983810509, ,0.0009350551399721755, ,0.006297542838702645,0.019779798240412913,-0.01654066767772153,0.003714719186620104,0.002171225398472625,-0.01695139523426137, ,0.026542289868463846, ,0.004302571352046822, ,0.0008536329767888344, ,0.18518341159102952,-0.3676638666760805,0.10390801382,-4.490719829664573,0.1941604661666909,-1.0656939653741206, ,0.03447037470340384,-0.12470031742243204,0.02335602862170088,0.05438412283086454,-2.5867892293015756e-05,0.12971625369284828, ,2.0140600204467773
0.014998670879291982,0.035311079738625635,-0.08936604731530776, ,0.015315117330210088,0.03630236662428878,-0.08961134850045671, ,0.001069093409119096, ,0.006297542838702645,0.019779798240412913,-0.01654066767772153,0.003714719186620104,0.002171225398472625,-0.01695139523426137, ,0.026542289868463846, ,0.004302571352046822, ,0.0008553429802200269, ,0.18518341159102952,-0.3676638666760805,0.10390801382,-4.490719829664573,0.1941604661666909,-1.0656939653741206, ,0.03447037470340384,-0.12470031742243204,0.02335602862170088,0.05438412283086454,-2.5867892293015756e-05,0.12971625369284828, ,2.0192999839782715
0.015062855215194949,0.035513954791368915,-0.08953760403067786, ,0.015347749900307713,0.03641621680064403,-0.08970018725412462, ,0.0009600390718783341, ,0.006398147717566051,0.01999846126985212,-0.016720709576393097,-0.006189313253260485,-0.002063955660902553,-0.0037564427319805695, ,0.02684132776364937, ,0.006524278084461555, ,0.0008561673588945018, ,0.18551548910462118,-0.3689381176003275,0.10414912376,-4.490300449777605,0.1940238296669254,-1.0641940088880346, ,0.035120999836591706,-0.12569131332247785,0.02363325151335312,0.04098416287115063,0.0,0.13839948098551802, ,2.0245940685272217
0.015062855215194949,0.035513954791368915,-0.08953760403067786, ,0.01538035654881364,0.03652969117497113,-0.0897892836512917, ,0.0010935584708900035, ,0.006398147717566051,0.01999846126985212,-0.016720709576393097,-0.006189313253260485,-0.002063955660902553,-0.0037564427319805695, ,0.02684132776364937, ,0.006524278084461555, ,0.0008580219769569666, ,0.18551548910462118,-0.3689381176003275,0.10414912376,-4.490300449777605,0.1940238296669254,-1.0641940088880346, ,0.035120999836591706,-0.12569131332247785,0.02363325151335312,0.04098416287115063,0.0,0.13839948098551802, ,2.0299770832061768
0.015126793596792806,0.035721256588285684,-0.08970984291623121, ,0.015412941036576318,0.0366427915190687,-0.0898786352592084, ,0.0009795906497081543, ,0.006421976115538363,0.020510899961475773,-0.01728124945369153,0.009684088449873429,-0.006824495855252261,0.005026865850281957, ,0.027578621741104575, ,0.011847099709383578, ,0.0008589643697689913, ,0.18585528935108706,-0.37024325945607145,0.10439282628,-4.489881069890636,0.1940238296669254,-1.0629688277859262, ,0.034147873896535,-0.12806604798714005,0.024355980917431196,0.03064509465536449,0.0,0.12289872735919535, ,2.0356030464172363
0.015126793596792806,0.035721256588285684,-0.08970984291623121, ,0.015445507096850997,0.036755519595041634,-0.08996823966015403, ,0.0011126756668199036, ,0.006421976115538363,0.020510899961475773,-0.01728124945369153,0.009684088449873429,-0.006824495855252261,0.005026865850281957, ,0.027578621741104575, ,0.011847099709383578, ,0.0008609159951309214, ,0.18585528935108706,-0.37024325945607145,0.10439282628,-4.489881069890636,0.1940238296669254,-1.0629688277859262, ,0.034147873896535,-0.12806604798714005,0.024355980917431196,0.03064509465536449,0.0,0.12289872735919535, ,2.0417630672454834
0.015188874512718296,0.03592556644108816,-0.08987916015073331, ,0.015478058435369197,0.03686787715532497,-0.09005809445139679, ,0.0010017955416347067, ,0.006160505254545406,0.02032836628225974,-0.01640236340209236,0.0072499663142007965,-0.0022503145240695046,-0.001264498413998635, ,0.02683713520238878, ,0.007591096086317402, ,0.0008619914115164465, ,0.1861796441318045,-0.3715252331131927,0.10463263993000001,-4.489461690003666,0.1940238296669254,-1.0616619679436772, ,0.03295032693002458,-0.12893606190009615,0.023459221678939622,0.03814311300998654,0.0,0.12753510680899074, ,2.047152042388916
0.015188874512718296,0.03592556644108816,-0.08987916015073331, ,0.01551059873040814,0.03697986594270691,-0.09014819724515499, ,0.0011346518715167912, ,0.006160505254545406,0.02032836628225974,-0.01640236340209236,0.0072499663142007965,-0.0022503145240695046,-0.001264498413998635, ,0.02683713520238878, ,0.007591096086317402, ,0.0008640570210619036, ,0.18645766251527657,-0.3726527521128295,0.10482708343000001,-4.489252000060182,0.19388719316716,-1.060407047678013, ,0.0317912702038428,-0.1303529417011961,0.021820289753424663,0.040645393988390933,0.001430779905853494,0.12175297957974894, ,2.052597999572754
0.015241198911699986,0.03609926785956146,-0.09001298273677895, ,0.015543131632860455,0.03709148769035278,-0.0902385456685576, ,0.001061386921398367, ,0.005754682995793707,0.01990939421817065,-0.014832953263443301,0.01500318375019184,0.0003892252017180173,-0.0031468527662176335, ,0.025485620593426746, ,0.015008207783643831, ,0.0008655407045230801, ,0.18645766251527657,-0.3726527521128295,0.10482708343000001,-4.489252000060182,0.19388719316716,-1.060407047678013, ,0.0317912702038428,-0.1303529417011961,0.021820289753424663,0.040645393988390933,0.001430779905853494,0.12175297957974894, ,2.0578811168670654
0.015309523746755134,0.03633259950999797,-0.0901859395171202, ,0.015575660766303494,0.037202744121827974,-0.09032913736360491, ,0.000921133096739411, ,0.006161249076334325,0.020923745773970433,-0.01628183025815077,-0.0043527173390396886,0.0012934025595046869,-0.01060745067015508, ,0.02721878255818232, ,0.004540693138406872, ,0.0008659555731217094, ,0.18685152189186202,-0.37417413048905174,0.10508245256000001,-4.488622930229728,0.1940238296669254,-1.0590482482591792, ,0.03255469693258002,-0.13365766416686023,0.023598239288888892,0.049346095861132755,-0.003751267457834804,0.1453559678507661, ,2.063138008117676
0.015309523746755134,0.03633259950999797,-0.0901859395171202, ,0.015608189727068929,0.037313636951121866,-0.09041996998712956, ,0.0010518583980634129, ,0.006161249076334325,0.020923745773970433,-0.01628183025815077,-0.0043527173390396886,0.0012934025595046869,-0.01060745067015508, ,0.02721878255818232, ,0.004540693138406872, ,0.0008673326310842406, ,0.18685152189186202,-0.37417413048905174,0.10508245256000001,-4.488622930229728,0.1940238296669254,-1.0590482482591792, ,0.03255469693258002,-0.13365766416686023,0.023598239288888892,0.049346095861132755,-0.003751267457834804,0.1453559678507661, ,2.068554162979126
0.015371773024307244,0.03654257091832066,-0.09035095344721827, ,0.01564072208431227,0.03742416788267101,-0.09051104121075657, ,0.0009355078281147778, ,0.00610463464224998,0.021037768853351582,-0.016971320331418162,-0.01467419377034729,-0.00010122281302170962,0.000503672405025008, ,0.027710647705061243, ,0.01467449491284132, ,0.0008678339192977004, ,0.18718359940545368,-0.37551016327629255,0.10532096992000001,-4.488413240286244,0.1940238296669254,-1.0575780309366491, ,0.030474290802334866,-0.13180130772009832,0.024281724878048784,0.037418536128398044,-0.003751267457834804,0.15186372134836887, ,2.0738821029663086
0.015371773024307244,0.03654257091832066,-0.09035095344721827, ,0.015673261380082244,0.03753433861138261,-0.09060234872086503, ,0.001066629255777878, ,0.00610463464224998,0.021037768853351582,-0.016971320331418162,-0.01467419377034729,-0.00010122281302170962,0.000503672405025008, ,0.027710647705061243, ,0.01467449491284132, ,0.0008692849801479207, ,0.18718359940545368,-0.37551016327629255,0.10532096992000001,-4.488413240286244,0.1940238296669254,-1.0575780309366491, ,0.030474290802334866,-0.13180130772009832,0.024281724878048784,0.037418536128398044,-0.003751267457834804,0.15186372134836887, ,2.0792810916900635
0.01543345604444012,0.03675049145108498,-0.09052377531686949, ,0.015705811129390616,0.037644150822658075,-0.09069389021854794, ,0.0009496017293960053, ,0.006424422480231685,0.021703267877263527,-0.018077519549679393,-0.014689434242766617,-0.012335096418767892,0.02710175414297809, ,0.028967253128762586, ,0.01918155758598425, ,0.0008698669855772547, ,0.18749250872042264,-0.37679213693341385,0.10556596873000001,-4.488203550342759,0.1940238296669254,-1.056107813614119, ,0.03165341613024376,-0.13365766416686023,0.025609021736334413,0.008462267634230816,-0.003751267457834804,0.14864283824779673, ,2.0845789909362793
0.01543345604444012,0.03675049145108498,-0.09052377531686949, ,0.015738374820281245,0.03775360619241652,-0.09078566341957366, ,0.0010806479641747766, ,0.006424422480231685,0.021703267877263527,-0.018077519549679393,-0.014689434242766617,-0.012335096418767892,0.02710175414297809, ,0.028967253128762586, ,0.01918155758598425, ,0.0008713833954952225, ,0.18749250872042264,-0.37679213693341385,0.10556596873000001,-4.488203550342759,0.1940238296669254,-1.056107813614119, ,0.03165341613024376,-0.13365766416686023,0.025609021736334413,0.008462267634230816,-0.003751267457834804,0.14864283824779673, ,2.0898449420928955
0.015494215555662287,0.03695761579784884,-0.09069831026133116, ,0.015770955913899945,0.03786270638711789,-0.09087766605434597, ,0.0009632978257781293, ,0.006597238708592341,0.02206750211654398,-0.018955341669783757,-0.017556988540425304,-0.0037810605781736306,0.008481230761240221, ,0.029829568988841634, ,0.01795944928355441, ,0.0008720399271401004, ,0.1877859725696432,-0.37805094239191245,0.10581226383000002,-4.48778417045579,0.1940238296669254,-1.05480095377187, ,0.031506288698031466,-0.1327229951866724,0.026592339766277135,0.029183652228161442,-0.003751267457834804,0.1542483259441337, ,2.0951099395751953
0.015494215555662287,0.03695761579784884,-0.09069831026133116, ,0.0158035578445639,0.037971453063787027,-0.09096989586786498, ,0.0010942199939611092, ,0.006597238708592341,0.02206750211654398,-0.018955341669783757,-0.017556988540425304,-0.0037810605781736306,0.008481230761240221, ,0.029829568988841634, ,0.01795944928355441, ,0.0008736156722948593, ,0.1877859725696432,-0.37805094239191245,0.10581226383000002,-4.48778417045579,0.1940238296669254,-1.05480095377187, ,0.031506288698031466,-0.1327229951866724,0.026592339766277135,0.029183652228161442,-0.003751267457834804,0.1542483259441337, ,2.1004090309143066
0.015564874569108598,0.03719628906237407,-0.09089800109817041, ,0.015836184019831136,0.03807984787003647,-0.09106235061968837, ,0.0009387735349232815, ,0.006333469927513871,0.02186155352029673,-0.017661986135621432,0.044124229318222775,0.016980973472566625,-0.042430378541827365, ,0.028809479653378066, ,0.04727895255092416, ,0.0008740745304823834, ,0.18811805008323484,-0.3794950934393924,0.10609485505,-4.4869454106818525,0.19388719316716,-1.0531376398055028, ,0.03167454658159906,-0.1338461799132169,0.025324024674085854,0.08441600323064112,0.004015860101257398,0.10385803023538148, ,2.1057281494140625
0.015564874569108598,0.03719628906237407,-0.09089800109817041, ,0.01586883782056997,0.038187892444090266,-0.09115502808389143, ,0.0010685194412170503, ,0.006333469927513871,0.02186155352029673,-0.017661986135621432,0.044124229318222775,0.016980973472566625,-0.042430378541827365, ,0.028809479653378066, ,0.04727895255092416, ,0.0008754342851029055, ,0.18811805008323484,-0.3794950934393924,0.10609485505,-4.4869454106818525,0.19388719316716,-1.0531376398055028, ,0.03167454658159906,-0.1338461799132169,0.025324024674085854,0.08441600323064112,0.004015860101257398,0.10385803023538148, ,2.111016035079956
0.015624963810884782,0.03740868369120328,-0.09106442372008755, ,0.015901522601028714,0.03829558841480766,-0.09124792604902819, ,0.0009469729974419937, ,0.005767419137425473,0.02063661703564571,-0.015682272116288948,0.06321982290584817,-0.0016875455280879852,-0.004638175736642533, ,0.026553092944362963, ,0.06324233447335412, ,0.0008759310817163712, ,0.18841151393245537,-0.38077706709651366,0.10632689096000002,-4.486735720738368,0.19388719316716,-1.0523208524040975, ,0.029964301092033716,-0.13017413108157858,0.02308523408695653,0.040536596058188906,0.004015860101257398,0.06556162495249646, ,2.116340160369873
0.015624963810884782,0.03740868369120328,-0.09106442372008755, ,0.015934241688904945,0.03840293740170593,-0.0913410423180918, ,0.0010773630286225622, ,0.005767419137425473,0.02063661703564571,-0.015682272116288948,0.06321982290584817,-0.0016875455280879852,-0.004638175736642533, ,0.026553092944362963, ,0.06324233447335412, ,0.0008773202675571037, ,0.18841151393245537,-0.38077706709651366,0.10632689096000002,-4.486735720738368,0.19388719316716,-1.0523208524040975, ,0.029964301092033716,-0.13017413108157858,0.02308523408695653,0.040536596058188906,0.004015860101257398,0.06556162495249646, ,2.1215929985046387
0.015680012717109563,0.037614691163069494,-0.09121829213198189, ,0.01596699838541519,0.03850994101498437,-0.09143437470847585, ,0.0009646371084665439, ,0.005746082449796551,0.021097159040208573,-0.015864641757702948,0.04072700303413047,-0.012563771354846147,0.006454735993343491, ,0.027014707867899782, ,0.042620841402217446, ,0.0008779183281112778, ,0.1887049777816759,-0.38213626808237716,0.10656281574000001,-4.486735720738368,0.1940238296669254,-1.0514521254261069, ,0.028051120768096596,-0.13365766416686023,0.023321832386530017,0.025295666877234217,-0.007149966622586682,0.09498827577404206, ,2.1268980503082275
0.015680012717109563,0.037614691163069494,-0.09121829213198189, ,0.01599979596536439,0.038616600855547585,-0.0915279210519344, ,0.0010963368213359017, ,0.005746082449796551,0.021097159040208573,-0.015864641757702948,0.04072700303413047,-0.012563771354846147,0.006454735993343491, ,0.027014707867899782, ,0.042620841402217446, ,0.0008794041682012412, ,0.1887049777816759,-0.38213626808237716,0.10656281574000001,-4.486735720738368,0.1940238296669254,-1.0514521254261069, ,0.028051120768096596,-0.13365766416686023,0.023321832386530017,0.025295666877234217,-0.007149966622586682,0.09498827577404206, ,2.132162094116211
0.015738732789577218,0.03782582092179663,-0.09138365634614272, ,0.016032637677215272,0.038722918515028806,-0.09162167919454291, ,0.0009735599884552788, ,0.005894362021530723,0.021127844221064555,-0.016980513139198197,0.009119385859326095,-0.012217813669200876,0.017029191277948604, ,0.02773927056612912, ,0.01524587673991771, ,0.0008800403561759307, ,0.18899071889802221,-0.38344140993812115,0.10680262939000001,-4.486316340851398,0.1940238296669254,-1.0503903018042795, ,0.027300616098524386,-0.12928738631944245,0.024393279509954065,0.015013363190722488,-0.007149966622586682,0.12081165622030629, ,2.1374311447143555
0.015738732789577218,0.03782582092179663,-0.09138365634614272, ,0.016065526743158087,0.03882889557581372,-0.09171564699665907, ,0.001105970542853105, ,0.005894362021530723,0.021127844221064555,-0.016980513139198197,0.009119385859326095,-0.012217813669200876,0.017029191277948604, ,0.02773927056612912, ,0.01524587673991771, ,0.0008815566661536298, ,0.18899071889802221,-0.38344140993812115,0.10680262939000001,-4.486316340851398,0.1940238296669254,-1.0503903018042795, ,0.027300616098524386,-0.12928738631944245,0.024393279509954065,0.015013363190722488,-0.007149966622586682,0.12081165622030629, ,2.14298415184021
0.015805071737132026,0.03806320967263399,-0.09157212977229413, ,0.016098466359180028,0.03893453361106351,-0.09180982233288425, ,0.0009496228531827297, ,0.005759896544928941,0.02036295786809609,-0.01590275155368923,-0.007767911010803289,0.021165316505847784,-0.05494101335713909, ,0.026471191290240528, ,0.02254573234937868, ,0.0008820104407338238, ,0.1893073509458654,-0.3848855609856011,0.10707485029000001,-4.48547758107746,0.1940238296669254,-1.0489200844817494, ,0.027602368108921114,-0.124210656490145,0.02311873950653121,0.09531464997193578,-0.007149966622586682,0.1470270421224541, ,2.1482911109924316
0.015805071737132026,0.03806320967263399,-0.09157212977229413, ,0.01613145969513457,0.03903983418473846,-0.09190420309202231, ,0.0010819414154415478, ,0.005759896544928941,0.02036295786809609,-0.01590275155368923,-0.007767911010803289,0.021165316505847784,-0.05494101335713909, ,0.026471191290240528, ,0.02254573234937868, ,0.0008833344869239412, ,0.1893073509458654,-0.3848855609856011,0.10707485029000001,-4.48547758107746,0.1940238296669254,-1.0489200844817494, ,0.027602368108921114,-0.124210656490145,0.02311873950653121,0.09531464997193578,-0.007149966622586682,0.1470270421224541, ,2.1535849571228027
0.015862696820276873,0.03826847418557992,-0.09173829649160804, ,0.016164509894811198,0.03914479885162167,-0.0919987871770422, ,0.0009627520186792642, ,0.0057884074450757295,0.020431044206618124,-0.01657044285808895,-0.018741573798629455,0.0040567879824203925,-0.010408055494656756, ,0.026935344895437727, ,0.01917557998791031, ,0.0008838569706854894, ,0.18956992386358903,-0.3860825845811059,0.10730558991000001,-4.485058201190491,0.1940238296669254,-1.0476132246395005, ,0.026754141967429035,-0.12197550328852286,0.02363325151335312,0.04664884330530133,-0.006958078209831231,0.1470981870555089, ,2.158885955810547
0.01592113366725982,0.038477738232578385,-0.09191670132577423, ,0.016197620076004914,0.039249429157342114,-0.0920935725050381, ,0.0008385910991881847, ,0.0057884074450757295,0.020431044206618124,-0.01657044285808895,-0.018741573798629455,0.0040567879824203925,-0.010408055494656756, ,0.026935344895437727, ,0.01917557998791031, ,0.0008835611153162259, ,0.18956992386358903,-0.3860825845811059,0.10730558991000001,-4.485058201190491,0.1940238296669254,-1.0476132246395005, ,0.026754141967429035,-0.12197550328852286,0.02363325151335312,0.04664884330530133,-0.006958078209831231,0.1470981870555089, ,2.164278030395508
0.01592113366725982,0.038477738232578385,-0.09191670132577423, ,0.016230793330585507,0.03935372663839841,-0.09218855700718924, ,0.0009680652383696589, ,0.006220354938192486,0.021315127616301142,-0.018958902638124307,-0.015597094725539344,-0.0035480978849752446,0.006634104541525163, ,0.029197045571396022, ,0.01599549664885282, ,0.0008841098433880014, ,0.18983249678131267,-0.38734911277247874,0.10756484791000001,-4.485058201190491,0.1940238296669254,-1.046224686057111, ,0.026426327362425724,-0.12135158767067875,0.02637220450331126,0.026904652357353332,-0.006400926379638193,0.14014146476760203, ,2.1700961589813232
0.015979815188516856,0.03867892660243445,-0.09209543695195868, ,0.016264032724567355,0.03945769282218204,-0.09228373862872229, ,0.0008501258461489986, ,0.0062495713842819,0.020880316867473728,-0.018694420232415073,-0.018158584498230643,-0.014909693672210001,0.030292916210147593, ,0.028714562904551988, ,0.023495337262830363, ,0.000883890591792911, ,0.19008734696616209,-0.38849207723786394,0.10781373559000001,-4.484848511247007,0.1940238296669254,-1.044917826214862, ,0.027316333206237994,-0.1181780094127905,0.025985010636215337,0.0,-0.005960107304260884,0.13488352957725386, ,2.175624132156372
0.015979815188516856,0.03867892660243445,-0.09209543695195868, ,0.01629734129817876,0.03956132922700108,-0.09237911532887069, ,0.0009797605032284798, ,0.0062495713842819,0.020880316867473728,-0.018694420232415073,-0.018158584498230643,-0.014909693672210001,0.030292916210147593, ,0.028714562904551988, ,0.023495337262830363, ,0.0008845051425072416, ,0.19008734696616209,-0.38849207723786394,0.10781373559000001,-4.484848511247007,0.1940238296669254,-1.044917826214862, ,0.027316333206237994,-0.1181780094127905,0.025985010636215337,0.0,-0.005960107304260884,0.13488352957725386, ,2.1809029579162598
0.01604586738391998,0.03889633122811229,-0.0922860885651859, ,0.01633072206593139,0.03966463736210332,-0.09247468508083592, ,0.0008408359834756081, ,0.006139361161961709,0.020475771209729432,-0.018258852140534926,0.014085359128929758,-0.0037782535915490507,0.012495625983604262, ,0.028112891057308666, ,0.014583227098086612, ,0.000884226994997486, ,0.1903808108153826,-0.3897277144977399,0.10808077133,-4.484429131360038,0.19388719316716,-1.0434995484689167, ,0.02764256963544153,-0.11502659582844943,0.025445385814696485,0.02022775504606392,0.0027234549642427526,0.10403694472838312, ,2.1861510276794434
0.01604586738391998,0.03889633122811229,-0.0922860885651859, ,0.016364178016690066,0.03976761872770005,-0.09257044587174817, ,0.000970217833101274, ,0.006139361161961709,0.020475771209729432,-0.018258852140534926,0.014085359128929758,-0.0037782535915490507,0.012495625983604262, ,0.028112891057308666, ,0.014583227098086612, ,0.0008847712408082695, ,0.1903808108153826,-0.3897277144977399,0.10808077133,-4.484429131360038,0.19388719316716,-1.0434995484689167, ,0.02764256963544153,-0.11502659582844943,0.025445385814696485,0.02022775504606392,0.0027234549642427526,0.10403694472838312, ,2.191473960876465
0.01610802407243511,0.0391023952745129,-0.09247324419201108, ,0.01639771211374202,0.039870274814989476,-0.09266639570262716, ,0.0008431284931800321, ,0.006067072223290478,0.02001377812344234,-0.01849648840003493,0.029670475638498048,0.017931383747583823,-0.041703170677142035, ,0.027919182711347926, ,0.0346679893096649, ,0.0008845093367351359, ,0.19065110646598046,-0.39086295623025086,0.10834002933,-4.4838000615295845,0.19388719316716,-1.0425194035872298, ,0.02603482621631572,-0.10845364749539518,0.025486098432000007,0.07750854810488793,0.002546440969119585,0.09186687009694527, ,2.1968231201171875
0.01610802407243511,0.0391023952745129,-0.09247324419201108, ,0.01643132729486638,0.03997260710617972,-0.09276253258834281, ,0.0009723586693497172, ,0.006067072223290478,0.02001377812344234,-0.01849648840003493,0.029670475638498048,0.017931383747583823,-0.041703170677142035, ,0.027919182711347926, ,0.0346679893096649, ,0.0008850583950639771, ,0.19065110646598046,-0.39086295623025086,0.10834002933,-4.4838000615295845,0.19388719316716,-1.0425194035872298, ,0.02603482621631572,-0.10845364749539518,0.025486098432000007,0.07750854810488793,0.002546440969119585,0.09186687009694527, ,2.2022299766540527
0.016169596677259677,0.03930462582696437,-0.09265769751792909, ,0.016465026472403863,0.04007461707451306,-0.09285885455757567, ,0.000848898957332325, ,0.005913362739251304,0.019491788865243644,-0.017243993557809714,0.03020755714595152,0.003361746016464982,-0.012023065097204516, ,0.026688068605183565, ,0.03039401783720087, ,0.000884833802283035, ,0.19092140211657832,-0.3919750297641392,0.10859539846,-4.4835903715861,0.19388719316716,-1.0416209374456837, ,0.026974684922817165,-0.10845364749539518,0.024134562909090912,0.04425065923605773,0.0023913060334940475,0.08540303998810322, ,2.2076971530914307
0.016169596677259677,0.03930462582696437,-0.09265769751792909, ,0.016498812533326263,0.040176306184288774,-0.09295535965277808, ,0.0009781679159294287, ,0.005913362739251304,0.019491788865243644,-0.017243993557809714,0.03020755714595152,0.003361746016464982,-0.012023065097204516, ,0.026688068605183565, ,0.03039401783720087, ,0.000885409938787025, ,0.19092140211657832,-0.3919750297641392,0.10859539846,-4.4835903715861,0.19388719316716,-1.0416209374456837, ,0.026974684922817165,-0.10845364749539518,0.024134562909090912,0.04425065923605773,0.0023913060334940475,0.08540303998810322, ,2.212965965270996
0.016225391352902536,0.03947977217285099,-0.0928160193089644, ,0.01653268833930573,0.040277675890886704,-0.09305204593013462, ,0.0008870120331814778, ,0.005673453442836908,0.01806805138613042,-0.0163973837303305,0.022315916505502877,-0.0021631627329846376,-0.0007809444722906619, ,0.025050284390792748, ,0.022420486548432598, ,0.000885419767586991, ,0.19118397503430196,-0.39294037137341725,0.10881576776000002,-4.4835903715861,0.19388719316716,-1.0408858287844187, ,0.02613520836091181,-0.09864546939549977,0.022787999313304726,0.029408484604548153,0.002262545213769203,0.08098612008606759, ,2.2182250022888184
