NicholasDascanio/dvrk_moveit_final/test/execution/first_exp_nosummary/yes_joints_yes_smoothramp/300vel5.csv
Current Position (x),Current Position (y),Current Position (z), ,Planned Position (x),Planned Position (y),Planned Position (z), ,Position Error,,Cartesian linear Velocity(x),Cartesian linear Velocity(y),Cartesian linear Velocity(z),Cartesian Angular Velocity(x),Cartesian Angular Velocity(y),Cartesian Angular Velocity(z), ,Total Linear Velocity, ,Total Angular Velocity, ,MSE, ,Joint 1 Position,Joint 2 Position,Joint 3 Position,Joint 4 Position,Joint 5 Position,Joint 6 Position, ,Joint 1 Velocity,Joint 2 Velocity,Joint 3 Velocity,Joint 4 Velocity,Joint 5 Velocity,Joint 6 Velocity, ,Time Stamp
0.010028579702319247,0.01841103438499264,-0.0814930313110125, ,0.010180233732112964,0.018546348273383244,-0.08159580349332078, ,0.0002277518706848847, ,-0.0038396989489065457,0.0012788613685559128,-0.00017875453434129242,-0.43063278585249243,0.48840635428737833,0.13680173508990118, ,0.004051015625959286, ,0.6511415845723315, ,1.8979322557073725e-05, ,0.1418820483652527,-0.21723275301906123,0.09077659612000001,-4.5358031675137465,0.17913045119249243,-1.1631325439762894, ,0.0004977117553564007,-0.007500934737395424,0.0006310925739076463,0.004075681136309906,0.4388367248086075,0.507435323293496, ,0.03668808937072754
0.009929606266379454,0.018467108330401754,-0.08151069601928357, ,0.010230284831041691,0.018730552304058755,-0.08162663016716541, ,0.0004162343728581568, ,-0.0009396558742499595,0.002257270216170213,-0.0005453349593063676,0.07027510162810971,0.15452688240534193,0.030939697026299055, ,0.002505117204576116, ,0.16975614066877073, ,2.9272101979229156e-05, ,0.14199016662549183,-0.2176343351285209,0.09081289224000001,-4.5353837876267775,0.1915643726711475,-1.1541587480197721, ,0.005636044045892522,-0.02184049287881951,0.0011721727870314782,0.009933215284805636,0.16751240448542565,-0.02339670857451215, ,0.07269096374511719
0.010054197912809745,0.018576228491278813,-0.08156999546069436, ,0.010279883792999035,0.018914625168304913,-0.08165845259572053, ,0.0004162584440899173, ,0.0034029182418601938,0.003556723210132138,-0.0015368283234569904,0.016410654936711958,-0.25896453104310796,-0.06961816112081304, ,0.005156740622724509, ,0.25948398396398203, ,3.313264648852996e-05, ,0.14226046227608968,-0.2188931405870195,0.09089326222,-4.534964407739808,0.18104336218920858,-1.1605267788808706, ,0.010405369275497485,-0.040710828639412604,0.0022975351968844656,0.013414538386556332,-0.26010678685015215,-0.011950686738651073, ,0.1094970703125
0.010096516946781731,0.018767378555883063,-0.08161105189041466, ,0.010329038726382857,0.019098559330109413,-0.08169126253444287, ,0.00041252979361672585, ,0.0008416793442581408,0.005404401970851567,-0.0005834931614067361,0.029403060486408557,0.046619412730119277,0.010819637872192934, ,0.005500586246074462, ,0.05511723513809941, ,3.5066059077373445e-05, ,0.1427701626457885,-0.22096283299731168,0.09098140994000001,-4.534335337909355,0.1817265446880358,-1.158633506195136, ,0.015017715074928118,-0.05945923656545788,0.001949725087989005,0.014356975214223845,0.055491685649626164,0.039922340510140125, ,0.14727401733398438
0.010135799160341368,0.018937547375115875,-0.0816361352814777, ,0.010377757690754313,0.019282347306297035,-0.08172505178009355, ,0.00043050791712607, ,0.0014635861476778663,0.005780396071053662,-0.0006539034118606991,0.03230826848192849,-0.006880309218310827,0.0325567260895165, ,0.005998554227642708, ,0.0330327544603811, ,3.660158458414913e-05, ,0.14322580388536776,-0.222831734352874,0.09104881702,-4.533496578135416,0.18199981768756668,-1.1561609435778901, ,0.01777096283866494,-0.06477606932318823,0.002122143820943246,-0.018876420106504352,0.011447290895305723,0.03119315727928329, ,0.18365001678466797
0.010200454403820168,0.01917623686831558,-0.08166064623401703, ,0.010426048696950331,0.019465981666405487,-0.0817598121706485, ,0.0003803665549191404, ,0.0017485453612714644,0.0059402899547864145,-0.0008476577601293185,0.005027615032184674,-0.009023354336810967,0.0011555626165656893, ,0.006250038344335801, ,0.01032946447784477, ,3.7436868086801565e-05, ,0.14397490897416754,-0.22549607719448145,0.09113437216,-4.533286888191932,0.1821364541873321,-1.1550471803794782, ,0.019434147359916196,-0.06549133302862027,0.002377789449171518,0.013189349826723745,-0.0006733037294684271,0.06223853675892295, ,0.21672511100769043
0.010252248427886771,0.01935043862571359,-0.08168437924778187, ,0.010473919707196497,0.019649455032561318,-0.08179553558520677, ,0.0003884645401895222, ,0.0016162918158775502,0.005442599696191628,-0.0006116616738214451,-0.00856053830382711,-0.01435322539145767,0.036278409649071794, ,0.005710378331623922, ,0.01671220796870332, ,3.817304990692025e-05, ,0.1445309457411117,-0.22736497855004378,0.09120177924,-4.532448128417994,0.18199981768756668,-1.1526487577518458, ,0.018484016665070272,-0.0610662429591189,0.002063462277898632,-0.023746869136579245,0.0007384028918301157,0.07201856425611039, ,0.2503650188446045
0.010301188868719686,0.01951339488241397,-0.08171596683158866, ,0.010521378635219621,0.01983276007935583,-0.0818322139439007, ,0.00040495808846088523, ,0.001548937716961244,0.005176912527659751,-0.0013243946489767582,0.029108177115389308,-0.011957698617826544,0.009459073875214066, ,0.005563600682678785, ,0.03146859595233906, ,3.895027318918105e-05, ,0.1450715370423074,-0.22918754350836076,0.09127696406000001,-4.532448128417994,0.18199981768756668,-1.1512602191694565, ,0.016375658595076927,-0.05549528746109402,0.0026623452314892197,0.000752506911848775,0.0008519422355026359,0.02633087627364488, ,0.28346896171569824
0.010363411368360937,0.01972081015154857,-0.08177515699098918, ,0.010568433346360403,0.020015889533721264,-0.08186983920780444, ,0.00037157849161016215, ,0.001510467942469427,0.005042339048102656,-0.0015367730797277545,-0.011613969740285276,-0.0007130621008317684,-0.008477814616524488, ,0.005483463137454701, ,0.011635839062110359, ,3.91892053813121e-05, ,0.14571252387086805,-0.23138079964464053,0.09138974129,-4.531819058587541,0.18199981768756668,-1.14889153570538, ,0.015432906417054932,-0.05283794073411513,0.0028424003426124203,0.022190357244937186,0.0008088478578726979,0.06791261805313079, ,0.31688404083251953
0.010404341324466103,0.019869823754422974,-0.08181988768464091, ,0.010615091657686166,0.0201988361748063,-0.0819084033788434, ,0.0004006243924663251, ,0.001360404535137328,0.005063998847712381,-0.0016712164080500687,0.041522395873284476,-0.00406422172125334,-0.018761747128714226, ,0.0055034306674464715, ,0.041720825222474, ,3.968324191775042e-05, ,0.14612182871320195,-0.23294079168523388,0.09147270385,-4.530980298813603,0.18199981768756668,-1.1477480333434122, ,0.013345090923705635,-0.05254537184854417,0.0029662591284916203,0.028766614726239155,0.0007332929090071056,0.01481333136784161, ,0.34916090965270996
0.010442998892527419,0.02001788070679613,-0.08185415462053584, ,0.010661361338103467,0.020381592833852463,-0.08194789849970373, ,0.00043446125706124536, ,0.0011779862535468378,0.005023032906122126,-0.0009514384511655309,0.01879060246528347,-0.014345106581124454,0.025355560550077583, ,0.005246307874675987, ,0.023640406591921338, ,4.079748307698129e-05, ,0.14652341082266163,-0.2345239519244499,0.09154529609,-4.530560918926633,0.18199981768756668,-1.1467678884617254, ,0.012195982721818632,-0.05469564354955088,0.002175769911214315,-0.016359130864346632,-0.002849226402630094,0.034259438823736214, ,0.37795209884643555
0.010486358658245943,0.020186198779434353,-0.08191083873445272, ,0.01070725010847073,0.020564152394069495,-0.08198831665374139, ,0.00044457259876816494, ,0.0016758783803090972,0.0058017041588255365,-0.0025471714163273333,0.008867882473572845,-0.0007207018037739769,-0.027840883909340856, ,0.006554114869017476, ,0.008897120351430556, ,4.18434364765593e-05, ,0.14694043839786974,-0.23626928955402465,0.09164511042000001,-4.5299318490961795,0.18199981768756668,-1.1452159923990548, ,0.015142323529355479,-0.05807646362207514,0.00403567558145427,0.04131728233079276,-0.00253614686952999,0.05471727311077566, ,0.40699291229248047
0.01051784512914097,0.020301651998674407,-0.0819497866236315, ,0.010752765641711001,0.02074650779051198,-0.08202964996489101, ,0.0005093745930400649, ,0.0014615899499193564,0.005892067313636136,-0.0012191622927582258,0.038908963619646804,-0.004660130846254454,-0.021337197423154555, ,0.0061918542542769945, ,0.03918704211160262, ,4.32866356602584e-05, ,0.14723390224709026,-0.23747403588240368,0.09171381379000001,-4.5299318490961795,0.18186318118780123,-1.1439610721333904, ,0.01508455596224301,-0.06284565666123892,0.002759669355509356,0.033612794343686386,-0.0012273746656899414,0.028190384691331952, ,0.4354209899902344
0.01056492719411649,0.02048775197308273,-0.08198936891173236, ,0.01079791556292448,0.02092865200995456,-0.08207189059757598, ,0.0005054564779957433, ,0.001697643762771505,0.006319179815041018,-0.0013596154399522274,0.013010152478299272,-0.01658760576312016,0.01030295020699296, ,0.00668300695979402, ,0.02108109893854321, ,4.4520460409976814e-05, ,0.14769726621954374,-0.23947422369682783,0.09180196151000002,-4.529722159152695,0.18158990818827037,-1.1425947339640299, ,0.017113966015955055,-0.06783198109969318,0.003029443042982123,0.001817541027434776,-0.007275601981226219,0.05389361423686156, ,0.46485400199890137
0.010615367293317272,0.02067761607215165,-0.08203258295628699, ,0.010842707449501242,0.02111057809076843,-0.08211503075661641, ,0.000495920654901195, ,0.0016523665372222976,0.006595315194023895,-0.0013673388634222498,-0.007224115403885502,-0.008773854197456306,-0.024470005035343426, ,0.006935280329538188, ,0.011365225947692282, ,4.554058429042485e-05, ,0.14819152112349412,-0.24148985697700043,0.09189529439,-4.528883399378757,0.1813166351887395,-1.1409016808341068, ,0.015734860148975426,-0.07024199967318341,0.003101404112149533,0.03876966618038612,-0.013575086376193339,0.0811947349900872, ,0.49448299407958984
0.010671607010922249,0.02088623184546885,-0.08207662648119875, ,0.01088714883123382,0.02129227912279683,-0.08215906268713984, ,0.0004670421777298628, ,0.0017615283413591459,0.006350859647832897,-0.0012844475030628025,0.03292713473670579,-0.021391208394542817,0.010355086145593693, ,0.006714626255571337, ,0.03926550647253184, ,4.6570154343875465e-05, ,0.1487166669589414,-0.2435981630516637,0.09198862727000001,-4.528673709435273,0.18104336218920858,-1.1394536639246056, ,0.017560499918295853,-0.06807528088842953,0.002857698514531755,0.0,-0.008305686250495761,0.04297373396056969, ,0.519697904586792
0.010707049015378783,0.021011097469529054,-0.0821054849955267, ,0.010931247190429934,0.0214737482472312,-0.08220397867448916, ,0.0005234611433528078, ,0.0019476528982543474,0.006722422021961493,-0.0017619530206075575,0.016860093076443164,-0.02082323829946843,-0.056238044081717856, ,0.007217256272314258, ,0.026793095972764965, ,4.787790310510513e-05, ,0.14907963540402994,-0.24503459136626946,0.09205733064,-4.52762525971785,0.18063345268991227,-1.1380575865916889, ,0.016778101407084647,-0.06998299524960973,0.003549200427807487,0.06586562343170473,-0.02904508351735761,0.05825004302043723, ,0.5451309680938721
0.010760802420395834,0.021214615620696934,-0.08216235532854538, ,0.010975009962025004,0.021654978656487172,-0.08224977104413243, ,0.0004974394249683109, ,0.0017919652467024935,0.00684674302545198,-0.002119588571888001,0.03191401851403263,-0.011768518082798192,0.008857769377854926, ,0.007387941879579391, ,0.03401474085652254, ,4.8905080973665734e-05, ,0.1496047812394772,-0.24716606563955543,0.09216881158000001,-4.52762525971785,0.18049681619014685,-1.136557630105603, ,0.017498975024611983,-0.07087150228414546,0.0039594361222967936,0.004555784222288929,-0.0005557886823492659,0.039184244343921634, ,0.5705239772796631
0.010801714967175588,0.02135050687562487,-0.0822022518793692, ,0.011018444533694867,0.021835963594080052,-0.08229643216157215, ,0.0005399165269305383, ,0.0020776722174647355,0.006692269163930312,-0.001960075887520093,-0.013239900342827848,-0.02387269670147652,-0.031584672854362034, ,0.007276337395321565, ,0.027298362750534506, ,5.010254133799833e-05, ,0.14996002695169153,-0.2485716030226643,0.09224529269000001,-4.526786499943912,0.17995027019108506,-1.1348050986485685, ,0.018054973660287438,-0.06916686702512448,0.0037719184276580634,0.042041444779404434,-0.02866578166437607,0.08447856951651182, ,0.5952770709991455
0.010854967598865265,0.021563790165323803,-0.08226651456916421, ,0.011061558245968389,0.022016696354501375,-0.082343954432254, ,0.0005037863079334355, ,0.0018682272714477845,0.006939738732509288,-0.0017551825981261928,0.018288422816074842,-0.03552634184733378,0.03711133584117196, ,0.007398034385296939, ,0.03995731940629262, ,5.0992474585483484e-05, ,0.15047745005426458,-0.2507725818918183,0.09236714395000001,-4.526367120056943,0.17995027019108506,-1.1334165600661787, ,0.017250852855566403,-0.07356352058796184,0.003640039195612432,-0.028811470933594385,-0.018351219322165924,0.04811788151601666, ,0.6208949089050293
0.010891794869335773,0.02170763012798218,-0.08230509591926581, ,0.011104358392340074,0.022197170283094255,-0.0823923303014765, ,0.0005407796706782118, ,0.0017817005545851927,0.007330748121969281,-0.0018946042131003013,-0.0072545244810487824,-0.006766842100724185,0.017448091326008105, ,0.007778422077662201, ,0.009920598643119175, ,5.231171516506389e-05, ,0.1508326957664789,-0.2522785148022921,0.09244492135000001,-4.526576810000427,0.1798136336913196,-1.1319982823202333, ,0.01779095267312913,-0.07659155896567456,0.003898387547723936,0.0,0.0,0.08391599118958619, ,0.6427769660949707
0.01092534957860074,0.02184956949776687,-0.08234149235557325, ,0.0111468522193827,0.022377378775929734,-0.08244155225429986, ,0.0005810835028817851, ,0.0017522096743526373,0.007311124376011581,-0.0021456647415208775,-0.023707378993008343,-0.0009234677204249852,0.008021320139027637, ,0.007818353763255508, ,0.023725357980509405, ,5.376396088186498e-05, ,0.15116477328007055,-0.25375355678126893,0.09252010617,-4.526157430113458,0.1798136336913196,-1.1299563138167192, ,0.016927745550922364,-0.07531503298291331,0.0041405800675851315,0.010928897013656956,0.0,0.10088693531599718, ,0.6644930839538574
0.010963956636054505,0.022008139976674612,-0.08239420995938745, ,0.011189046926859977,0.022557315279682258,-0.08249161281545565, ,0.0006014536298158602, ,0.0019186325177537955,0.007874912696787511,-0.0027842220220671487,0.033736167173381085,-0.011578158529164547,0.013157689311088482, ,0.008570139613120144, ,0.03566767065998945, ,5.5231697010942195e-05, ,0.1515277417251591,-0.2553676079519819,0.09261603163000001,-4.525947740169974,0.1798136336913196,-1.1282410602737676, ,0.017711261955668304,-0.07974532904073174,0.00492846891089109,0.0020914301777609067,-0.0004359632897756811,0.04584971174503769, ,0.6863219738006592
0.011005308162828896,0.022169934304959144,-0.08246033440129064, ,0.011230949667839081,0.022736973291505924,-0.08254250454925534, ,0.0006157915509844242, ,0.0021405782835271885,0.008156189614458126,-0.003363105637993964,0.03389140281302206,-0.008704390602094918,-0.0024093398775563712, ,0.009078324952721708, ,0.034991336069920595, ,5.6682724403384904e-05, ,0.15189843290312188,-0.2569739363898206,0.09272621628000001,-4.525738050226489,0.1798136336913196,-1.1269342004315186, ,0.019174973036668173,-0.08062611857134305,0.005594946090621708,0.018684176782085362,-0.0007373022420959938,0.04897938819597264, ,0.7078299522399902
0.011069202985817312,0.022409244816783247,-0.0825339491038066, ,0.011272567548803278,0.022916346358910433,-0.08259422005949965, ,0.0005496741831361534, ,0.0020281915159073944,0.008093584868502132,-0.002171299309312617,0.01986212357853969,-0.009256644526522768,-0.000885409483976272, ,0.008621729382175414, ,0.021913224794432355, ,5.772023844653265e-05, ,0.15247763786868873,-0.2594143199780755,0.09286621560000001,-4.525108980396035,0.1794037241920233,-1.1246396569570558, ,0.01974551426518327,-0.08324293119164104,0.004438231128448036,0.018119106377350015,-0.0028889166525598847,0.06538209581812843, ,0.7305231094360352
0.011091570893665848,0.02249406274565158,-0.08255684167477892, ,0.011313907629764683,0.023095428079636587,-0.08264675198938817, ,0.0006474239366992199, ,0.0020570826683107626,0.008316134736755467,-0.002354852843733083,0.009805304628134101,-0.013544211399641265,0.0018753089633921707, ,0.008884538141050058, ,0.016720934818851098, ,5.945368165651601e-05, ,0.1526861516562928,-0.2602869887928629,0.09291288204,-4.524899290452551,0.17926708769225788,-1.1237114516519537, ,0.01914788974141864,-0.08526230149009054,0.004673947042253522,0.014681646625899896,-0.008621177706658753,0.07621447014648458, ,0.7483251094818115
0.01113551485218642,0.022665458259544198,-0.08261402154221216, ,0.011354976924376713,0.02327421210153269,-0.08270009302142814, ,0.0006528040600365744, ,0.0023967078615540413,0.008737605950520727,-0.0032029966544736893,0.0026623408181223433,-0.023272913052943874,-0.00029019314268544745, ,0.009609846715155232, ,0.023424699363377266, ,6.113073661761976e-05, ,0.15308773376575247,-0.2620168809566892,0.09301788153000001,-4.524689600509067,0.17913045119249243,-1.1222931739060082, ,0.020544910491117296,-0.08730169416602647,0.00563851735221239,0.014937090275184006,-0.018572618031233577,0.08404644253477783, ,0.7674031257629395
0.011181336615794103,0.02284517451721862,-0.08268036043693977, ,0.011395782400046751,0.023452692122430115,-0.0827542358773439, ,0.0006484768428560468, ,0.002509166526889455,0.009314966095332078,-0.003389575091104574,0.0012928624699427003,0.008098755097342838,-0.08633757323927853, ,0.01022515179912187, ,0.008201300326502603, ,6.271056684696515e-05, ,0.15350476134096058,-0.26378538678488656,0.09313454763000001,-4.523431460848159,0.17913045119249243,-1.120496241622916, ,0.021750387705356585,-0.09107192088144989,0.006006339185520362,0.10888358193347829,-0.012944132638018536,0.10405174460658673, ,0.7850809097290039
0.01122813637477823,0.023034601346358465,-0.0827462731542354, ,0.011436330978048746,0.023630861890019398,-0.08280917331798548, ,0.000634687371355053, ,0.0022487287211952196,0.009321060400394867,-0.002510767861234809,-0.021631872688609364,-0.007595020155724572,-0.005166777326408583, ,0.009911755803203953, ,0.022926452998278838, ,6.415711881597517e-05, ,0.15393723438191714,-0.2656774563390716,0.09325380631,-4.523221770904676,0.17913045119249243,-1.1183725943792613, ,0.020861055519558316,-0.09508711579005087,0.00515495518446602,0.02648149552785819,-0.009937891754573132,0.11939276433087193, ,0.8035750389099121
0.011271392834408204,0.023218715341729035,-0.08280159947588096, ,0.01147662953363585,0.023808715201726026,-0.08286489814323843, ,0.0006278763085159042, ,0.0023574963059193555,0.009658189522645069,-0.002968819489895233,-0.011827842513803023,-0.015054490524393801,0.02021393943411794, ,0.010375562772752917, ,0.019145118000413505, ,6.550994134653037e-05, ,0.15434653922425104,-0.26753863496175967,0.09336139838000002,-4.52301208096119,0.17913045119249243,-1.1162489471356067, ,0.021557687768848425,-0.09763059831118392,0.00571539702906351,0.0,-0.008176052186923483,0.10830945069963184, ,0.8213069438934326
0.011293705453767787,0.023318037992426523,-0.08283039577841583, ,0.011516684896152991,0.02398624590458642,-0.08292140319193275, ,0.0007102844464822137, ,0.002198088598317316,0.009958617807722288,-0.003102343476307296,-0.000317727504157772,-0.009096830326875457,0.005895708687920846, ,0.010659746581008505, ,0.009102377298018586, ,6.745039451144852e-05, ,0.15455505301185513,-0.26853486750253464,0.09341843514,-4.522383011130737,0.17913045119249243,-1.1152688022539199, ,0.019426190697742228,-0.10020796363090896,0.005912699153674834,0.015182991834787078,-0.007503164479729489,0.1016228442402496, ,0.8357150554656982
0.01134322822203058,0.02353192123681254,-0.08290894147728121, ,0.011556503849149538,0.024163447895123903,-0.08297868134175193, ,0.000670205984737004, ,0.0022466729181117124,0.010601770848175575,-0.003835240852820508,-0.008162554821158453,-0.000631697631142761,-0.0023484510104199493, ,0.011495832145492792, ,0.00818696172434121, ,6.915424305056005e-05, ,0.15496435785418902,-0.2706431735771979,0.09355713817000001,-4.521753941300283,0.17885717819296154,-1.113003997943013, ,0.018896244834422697,-0.10451205017452729,0.006815922772785623,0.026545994848053773,-0.0043975363102965875,0.11602518245003071, ,0.8510599136352539
0.01136818521059686,0.02363620174004402,-0.08294423758485404, ,0.011596093130491793,0.02434031511922439,-0.08303672550914214, ,0.0007458362332514759, ,0.0023465029316799774,0.010744022600672932,-0.0035747196516151486,-0.0030392478870122247,-0.006739710623617135,0.004621499627328205, ,0.011563680998704393, ,0.007393289283199916, ,7.111750355704222e-05, ,0.15516514890891886,-0.27168574251521826,0.09362195267000001,-4.521753941300283,0.17858390519343065,-1.1118010172539334, ,0.020346685582862515,-0.10686592517845808,0.006625961530782031,0.0186409100950648,-0.006485562903042961,0.11169302698059305, ,0.8656120300292969
0.011418053556040402,0.023864136900876298,-0.0830394159441574, ,0.011635459432475742,0.024516841572012626,-0.08309552864922198, ,0.0006902444049041362, ,0.0025949478817583384,0.011365206754932619,-0.00486556142924713,0.012344965792592828,-0.014370219694862404,0.021771792485130025, ,0.012632314400504187, ,0.01894469297117338, ,7.27873570166141e-05, ,0.15557445375125276,-0.273878998651498,0.09378139634,-4.520915181526345,0.17858390519343065,-1.10984072749056, ,0.020359781497204632,-0.11230407285026127,0.008586960388140163,0.03289840516934993,-0.006485562903042961,0.10084057445281498, ,0.8803319931030273
0.011445705525642698,0.02398407866585697,-0.08308949720066354, ,0.011674609401939507,0.024693021297727658,-0.08315508375569056, ,0.0007478624446164915, ,0.0026446433149858737,0.011715272460890335,-0.004271979551222065,0.00593351690618959,0.004375267066959939,-0.03708572992275021, ,0.01274721759375176, ,0.007372216990868857, ,7.463639756944825e-05, ,0.15580613573747948,-0.27502968584975745,0.09386565519000001,-4.520495801639376,0.17858390519343065,-1.1087789038687328, ,0.022333947177799667,-0.11392189862961677,0.007628741149425289,0.06410006190116105,-0.006485562903042961,0.1165366332675777, ,0.8949489593505859
0.011470622181558563,0.024096562211592128,-0.08312722555246481, ,0.011713549640376037,0.024868848389599216,-0.0832153838607376, ,0.0008143780315712305, ,0.0026509136109902536,0.011733525717679513,-0.00389619564675374,-0.010230039181183335,-0.009623908720825977,-0.002754091674944839, ,0.012644497192777684, ,0.014045402088138542, ,7.699827292489979e-05, ,0.15601464952508354,-0.27614175938364577,0.09393565485000001,-4.520286111695891,0.17844726869366523,-1.1075239836030684, ,0.022621440180803525,-0.11586928151217434,0.007280078391224864,0.027430875977449577,-0.01216094005740849,0.12844603637925128, ,0.9059638977050781
0.0114992106061521,0.024226235243501308,-0.08317545627829741, ,0.01175228670404569,0.02504431698972323,-0.08327642203495178, ,0.0008622640772079901, ,0.0028580461789717354,0.012737478053773107,-0.005125652401816107,-0.013567098635546487,-0.009748679455579095,0.00767618212397205, ,0.014024410421680112, ,0.016706373423827674, ,7.949340833372703e-05, ,0.15626177697705873,-0.2774082875750186,0.09402120999000001,-4.520286111695891,0.17844726869366523,-1.1062171237608194, ,0.022933045325875007,-0.12292349942807097,0.008771371982378857,0.01873947581163133,-0.010746514506621337,0.13776022640645486, ,0.918100118637085
0.01152633468457531,0.024353181213386074,-0.08322589829662178, ,0.011790827104088854,0.025219421288937966,-0.08333819138723111, ,0.0009126542865022182, ,0.0027977551413216747,0.013187981969856615,-0.005151193124372887,-0.016710765278739277,-0.006715989085127593,0.009293147090924275, ,0.01443208553441399, ,0.018009835700687035, ,8.212690076146545e-05, ,0.15648573623041123,-0.2786284793691461,0.09410806142000001,-4.519866731808922,0.17844726869366523,-1.1049102639185704, ,0.02228674061965025,-0.12754965263235318,0.00892870600896861,0.018827392406710584,-0.009411051678138964,0.1457723161900185, ,0.9288959503173828
0.011555498255935692,0.02448678359041885,-0.08328098047164711, ,0.01182917730663845,0.025394155526699807,-0.0834006850646906, ,0.0009552765270535655, ,0.0031171672725012222,0.013769639587998091,-0.006065263230989852,-0.016079009288603917,0.019290685913738056,-0.05042545592132597, ,0.015365777697510609, ,0.025113046301022433, ,8.486395027794873e-05, ,0.15670969548376376,-0.27990273029339313,0.0942013943,-4.519237661978469,0.17831063219389978,-1.1033286286923438, ,0.025005781701836833,-0.12928738631944245,0.010030737732997482,0.08578357716510147,-0.00041930052080857503,0.15836806045618101, ,0.9395930767059326
0.0116231621895927,0.0247765510452489,-0.08342066112388158, ,0.011867343732932639,0.025568513990959395,-0.08346389625257288, ,0.0008298790332568198, ,0.003636521992936824,0.014874716909375875,-0.007350451928782647,-0.050751208005756776,-0.0009416550369850465,0.01628819219141283, ,0.016985600928331335, ,0.050759942935302935, ,8.705970288261657e-05, ,0.15722711858633678,-0.2825979640664975,0.09442435618000002,-4.518398902204531,0.17817399569413436,-1.099950061183025, ,0.02859202818875287,-0.13773141009937706,0.011660916193265009,0.018528164216518667,-0.0030906908284974344,0.19126903899388142, ,0.95290207862854
0.0116231621895927,0.0247765510452489,-0.08342066112388158, ,0.011905332759427373,0.025742491018037016,-0.08352781817415564, ,0.0010119994540187104, ,0.003519572671334489,0.01497957908405871,-0.006799639186030991,0.021599958715560592,-0.011231896413874887,0.016746699793841597, ,0.016822909212873435, ,0.02434571212822617, ,9.023349094418277e-05, ,0.1575128597026831,-0.28402666964822904,0.09454102228000001,-4.518398902204531,0.17817399569413436,-1.0983981651203543, ,0.028243137368592495,-0.1403800910628266,0.011170274558204768,0.013409419831270595,-0.00280352277127749,0.11999479691764252, ,0.9609889984130859
0.011658999835977494,0.024929532321569685,-0.08349289673855166, ,0.011943150717909011,0.0259160809924992,-0.08359244409066274, ,0.0010314696695141244, ,0.003519572671334489,0.01497957908405871,-0.006799639186030991,0.021599958715560592,-0.011231896413874887,0.016746699793841597, ,0.016822909212873435, ,0.02434571212822617, ,9.343274916833976e-05, ,0.1575128597026831,-0.28402666964822904,0.09454102228000001,-4.518398902204531,0.17817399569413436,-1.0983981651203543, ,0.028243137368592495,-0.1403800910628266,0.011170274558204768,0.013409419831270595,-0.00280352277127749,0.11999479691764252, ,0.9684228897094727
0.011696229991759082,0.025089315130399577,-0.0835640659760056, ,0.011980803895606835,0.026089278347034034,-0.08365776730117182, ,0.0010438815448655964, ,0.003670796574468613,0.01627633018152526,-0.007132979379759504,0.023862788481109592,-0.007396918750329395,0.009304979782572494, ,0.018145882907735153, ,0.024982935428566357, ,9.66305702374775e-05, ,0.15780632355190363,-0.28546309796283476,0.0946550958,-4.517769832374077,0.17817399569413436,-1.0971729840182458, ,0.02923504052941182,-0.15232253861712805,0.011896050425690816,0.024320630502843766,-0.002573647492676132,0.13263878937059104, ,0.9756150245666504
0.011738650203986616,0.025260697514556535,-0.08363940146575688, ,0.012018298535305741,0.026262077562327436,-0.08372378114252446, ,0.0010431131861570085, ,0.004209204526793575,0.017762410591426775,-0.007979348702622641,-0.014204858141602508,0.010245808218739123,-0.05554026275311366, ,0.01992211430759434, ,0.017514409739725567, ,9.977817040667031e-05, ,0.1581384010654953,-0.28711576279791884,0.09478472480000001,-4.51693107260014,0.17790072269460347,-1.0953165734080417, ,0.03290462606049611,-0.1644661032209199,0.013207969751243784,0.09662553945109624,-0.010384047632500252,0.19184670566739356, ,0.9827120304107666
0.011738650203986616,0.025260697514556535,-0.08363940146575688, ,0.01205564083545879,0.02643447316693879,-0.0837904789892344, ,0.001225176216169175, ,0.004209204526793575,0.017762410591426775,-0.007979348702622641,-0.014204858141602508,0.010245808218739123,-0.05554026275311366, ,0.01992211430759434, ,0.017514409739725567, ,0.00010354883171312557, ,0.1581384010654953,-0.28711576279791884,0.09478472480000001,-4.51693107260014,0.17790072269460347,-1.0953165734080417, ,0.03290462606049611,-0.1644661032209199,0.013207969751243784,0.09662553945109624,-0.010384047632500252,0.19184670566739356, ,0.990138053894043
0.011787016022401628,0.02544017931590213,-0.08372548044306746, ,0.012092836950299826,0.026606459737177082,-0.08385785425339773, ,0.0012129547751879067, ,0.005269615232209592,0.018966286716725806,-0.009533906496141227,-0.09147285397955024,-0.061130024742040136,-0.02177821345841089, ,0.021871996927435525, ,0.11001892046987972, ,0.00010721984306991994, ,0.15847047857908694,-0.2887761503658771,0.09492342783,-4.51651169271317,0.17721754019577626,-1.092799194126186, ,0.03546223526101299,-0.1738039222682615,0.0150983995450237,0.04554251873061603,-0.0781851665260494,0.2613634505022656, ,0.9976530075073242
0.011837090705657794,0.02563795246237668,-0.08382808143436626, ,0.012129892989956,0.026778031896976848,-0.0839259003846012, ,0.0011811362503596054, ,0.004777981287512858,0.018956550013547645,-0.00979718271957869,-0.04791473531921854,-0.03259526649883397,0.024906443733231105, ,0.021866976993648837, ,0.057950609734312125, ,0.00011072236685332487, ,0.1588025560926786,-0.29045198339958384,0.09507379747000001,-4.516302002769685,0.1769442671962454,-1.0906977472955603, ,0.03396454601233743,-0.1716038726192962,0.015479894577259477,0.014081356722093503,-0.033186888642718404,0.218174337627798, ,1.0051660537719727
0.011837090705657794,0.02563795246237668,-0.08382808143436626, ,0.012166815020560407,0.02694918431777363,-0.08399461086983173, ,0.0013622698540752397, ,0.004777981287512858,0.018956550013547645,-0.00979718271957869,-0.04791473531921854,-0.03259526649883397,0.024906443733231105, ,0.021866976993648837, ,0.057950609734312125, ,0.00011524058882885524, ,0.1588025560926786,-0.29045198339958384,0.09507379747000001,-4.516302002769685,0.1769442671962454,-1.0906977472955603, ,0.03396454601233743,-0.1716038726192962,0.015479894577259477,0.014081356722093503,-0.033186888642718404,0.218174337627798, ,1.0088410377502441
0.011881954291211392,0.025828055389646307,-0.08392484298722855, ,0.012203609064364684,0.027119911718380484,-0.08406397923338532, ,0.0013385490137374269, ,0.004980340718221048,0.020910477374741523,-0.010777109179155938,-0.026557317774450508,-0.005886640498382422,-0.020074072106737804, ,0.024045746816611764, ,0.027201902844251207, ,0.00011964097884651198, ,0.15917324727064136,-0.29228227109077504,0.09523713001,-4.5154632429957475,0.1769442671962454,-1.0886557787920463, ,0.03566213512155985,-0.18828758245728333,0.01694554417021277,0.06254157757797918,-0.019042045099853577,0.22164275967338365, ,1.0124750137329102
0.011881954291211392,0.025828055389646307,-0.08392484298722855, ,0.012240281099851636,0.027290208864863358,-0.08413399903677703, ,0.0015198806334519581, ,0.004980340718221048,0.020910477374741523,-0.010777109179155938,-0.026557317774450508,-0.005886640498382422,-0.020074072106737804, ,0.024045746816611764, ,0.027201902844251207, ,0.0006819622108388684, ,0.15917324727064136,-0.29228227109077504,0.09523713001,-4.5154632429957475,0.1769442671962454,-1.0886557787920463, ,0.03566213512155985,-0.18828758245728333,0.01694554417021277,0.06254157757797918,-0.019042045099853577,0.22164275967338365, ,1.0161089897155762
0.011881954291211392,0.025828055389646307,-0.08392484298722855, ,0.012276837061847718,0.02746007057041737,-0.08420466387864864, ,0.0017022648689577534, ,0.004980340718221048,0.020910477374741523,-0.010777109179155938,-0.026557317774450508,-0.005886640498382422,-0.020074072106737804, ,0.024045746816611764, ,0.027201902844251207, ,0.0007015834158026931, ,0.15917324727064136,-0.29228227109077504,0.09523713001,-4.5154632429957475,0.1769442671962454,-1.0886557787920463, ,0.03566213512155985,-0.18828758245728333,0.01694554417021277,0.06254157757797918,-0.019042045099853577,0.22164275967338365, ,1.0200819969177246
0.011937315816171008,0.02605987573421143,-0.08404955639712845, ,0.01231328284163571,0.02762949169524261,-0.08427596739467935, ,0.0016298182135356689, ,0.006170955481185269,0.025552691874632185,-0.014636651954875467,-0.03885460994167439,0.02516671274297988,-0.04879087997504805, ,0.0300874115543166, ,0.04629301753240653, ,0.0007190972799108625, ,0.15956710664722681,-0.294344240768193,0.09543027722000001,-4.51462448322181,0.17680763069647995,-1.0860939986841331, ,0.04397448635703002,-0.22328692131404887,0.022184974261838443,0.10934049112382531,0.0,0.27910702000751586, ,1.0237939357757568
0.011937315816171008,0.02605987573421143,-0.08404955639712845, ,0.012349624287067266,0.02779846714641988,-0.08434790325749379, ,0.0018115488463929519, ,0.006170955481185269,0.025552691874632185,-0.014636651954875467,-0.03885460994167439,0.02516671274297988,-0.04879087997504805, ,0.0300874115543166, ,0.04629301753240653, ,0.0007393278644753456, ,0.15956710664722681,-0.294344240768193,0.09543027722000001,-4.51462448322181,0.17680763069647995,-1.0860939986841331, ,0.04397448635703002,-0.22328692131404887,0.022184974261838443,0.10934049112382531,0.0,0.27910702000751586, ,1.0274081230163574
0.012012632567017581,0.026333191121614332,-0.08423034050936556, ,0.012385867202675569,0.027966991877786847,-0.08442046517657192, ,0.0016866405643185987, ,0.008482664383680687,0.028734752081342227,-0.021273477421492937,-0.25188404802531533,-0.0576143619522034,-0.046905830778917294, ,0.03674510054177477, ,0.2583892102927868, ,0.000756551731745223, ,0.16001502515393184,-0.2966610606304603,0.09569083151,-4.513576033504387,0.1759878116978873,-1.0818316266957697, ,0.047025243586952814,-0.23606204367778796,0.02960745635687733,0.08818909116342964,-0.10890860382563053,0.48768235748780536, ,1.0312778949737549
0.012012632567017581,0.026333191121614332,-0.08423034050936556, ,0.012422017349787838,0.028135060889813834,-0.08449364689815753, ,0.0018664567544665587, ,0.008482664383680687,0.028734752081342227,-0.021273477421492937,-0.25188404802531533,-0.0576143619522034,-0.046905830778917294, ,0.03674510054177477, ,0.2583892102927868, ,0.0007763714642938183, ,0.16001502515393184,-0.2966610606304603,0.09569083151,-4.513576033504387,0.1759878116978873,-1.0818316266957697, ,0.047025243586952814,-0.23606204367778796,0.02960745635687733,0.08818909116342964,-0.10890860382563053,0.48768235748780536, ,1.0350730419158936
0.012012632567017581,0.026333191121614332,-0.08423034050936556, ,0.012458080446637888,0.0283026692294795,-0.08456744220516785, ,0.0020471700916463113, ,0.008482664383680687,0.028734752081342227,-0.021273477421492937,-0.25188404802531533,-0.0576143619522034,-0.046905830778917294, ,0.03674510054177477, ,0.2583892102927868, ,0.0007986661770543884, ,0.16001502515393184,-0.2966610606304603,0.09569083151,-4.513576033504387,0.1759878116978873,-1.0818316266957697, ,0.047025243586952814,-0.23606204367778796,0.02960745635687733,0.08818909116342964,-0.10890860382563053,0.48768235748780536, ,1.038625955581665
0.012104596211485033,0.026651852104685687,-0.08447620516002302, ,0.01249406216847885,0.02846981199014727,-0.08464184491710283, ,0.0018665739754775488, ,0.009331691641001474,0.03331778266476434,-0.026633400362601777,-0.21459624322197213,-0.012683659236649953,-0.031228587361789822, ,0.043663407167259, ,0.21497071757740024, ,0.0008170783804754773, ,0.1605324482565049,-0.29923273067757705,0.0960291632,-4.5127372737304485,0.17516799269929464,-1.0767524673060007, ,0.051771381101184274,-0.26433688456398546,0.03628430870159454,0.09301268933779164,-0.05781557688316788,0.4866654845419436, ,1.04221510887146
0.012104596211485033,0.026651852104685687,-0.08447620516002302, ,0.012529968147695685,0.028636484311440783,-0.08471684888995376, ,0.0020439216435470756, ,0.009331691641001474,0.03331778266476434,-0.026633400362601777,-0.21459624322197213,-0.012683659236649953,-0.031228587361789822, ,0.043663407167259, ,0.21497071757740024, ,0.0008378723340868603, ,0.1605324482565049,-0.29923273067757705,0.0960291632,-4.5127372737304485,0.17516799269929464,-1.0767524673060007, ,0.051771381101184274,-0.26433688456398546,0.03628430870159454,0.09301268933779164,-0.05781557688316788,0.4866654845419436, ,1.045807123184204
0.012104596211485033,0.026651852104685687,-0.08447620516002302, ,0.01256580397391774,0.02880268137911991,-0.08479244801611252, ,0.0022223385682472122, ,0.009331691641001474,0.03331778266476434,-0.026633400362601777,-0.21459624322197213,-0.012683659236649953,-0.031228587361789822, ,0.043663407167259, ,0.21497071757740024, ,0.0008609467713228662, ,0.1605324482565049,-0.29923273067757705,0.0960291632,-4.5127372737304485,0.17516799269929464,-1.0767524673060007, ,0.051771381101184274,-0.26433688456398546,0.03628430870159454,0.09301268933779164,-0.05781557688316788,0.4866654845419436, ,1.0495328903198242
0.01220143594553029,0.027009203403419255,-0.08476639699608049, ,0.012601575194131341,0.028968398424956836,-0.08486863622428116, ,0.002002251085771144, ,0.009699913168463768,0.03621483324125323,-0.029562663907029448,-0.14937334189240384,0.038817233152614136,-0.03155295283489862, ,0.04774467048213338, ,0.15433454013294276, ,0.0008796566781171003, ,0.16108848502344905,-0.30202835997804633,0.09642323536000001,-4.511479134069542,0.1750313561995292,-1.072067039954433, ,0.05601944602034875,-0.2815932983930884,0.04012295093198993,0.11341009343520798,0.0,0.44987784775133255, ,1.0532350540161133
0.01220143594553029,0.027009203403419255,-0.08476639699608049, ,0.012637287312792463,0.0291336307266116,-0.08494540747938056, ,0.0021760520717578956, ,0.009699913168463768,0.03621483324125323,-0.029562663907029448,-0.14937334189240384,0.038817233152614136,-0.03155295283489862, ,0.04774467048213338, ,0.15433454013294276, ,0.0009005662812403388, ,0.16108848502344905,-0.30202835997804633,0.09642323536000001,-4.511479134069542,0.1750313561995292,-1.072067039954433, ,0.05601944602034875,-0.2815932983930884,0.04012295093198993,0.11341009343520798,0.0,0.44987784775133255, ,1.056859016418457
0.01220143594553029,0.027009203403419255,-0.08476639699608049, ,0.012672945791939172,0.029298373607508452,-0.08502275578245998, ,0.0023512425621156716, ,0.009699913168463768,0.03621483324125323,-0.029562663907029448,-0.14937334189240384,0.038817233152614136,-0.03155295283489862, ,0.04774467048213338, ,0.15433454013294276, ,0.0009235928888732806, ,0.16108848502344905,-0.30202835997804633,0.09642323536000001,-4.511479134069542,0.1750313561995292,-1.072067039954433, ,0.05601944602034875,-0.2815932983930884,0.04012295093198993,0.11341009343520798,0.0,0.44987784775133255, ,1.0606000423431396
0.012292234852946624,0.02736571074251164,-0.08504555121155136, ,0.012708556051304352,0.029462622436711404,-0.08510067517060586, ,0.002138551061895783, ,0.009924879165872457,0.0387627273797706,-0.028945910699727108,-0.10775323441692558,0.03523201888168731,-0.014058740171660648, ,0.0493854027685526, ,0.11336681331504803, ,0.0009425766103267572, ,0.16162135359177054,-0.30483171201138987,0.09680693720000001,-4.510640374295604,0.17516799269929464,-1.0680128421109607, ,0.060099393007264586,-0.3081069531119181,0.040428455634517774,0.10082369151626294,0.0066074336860351595,0.4333274368254384, ,1.0645439624786377
0.012292234852946624,0.02736571074251164,-0.08504555121155136, ,0.012744123468428188,0.029626372628800305,-0.08517915971685097, ,0.0023092524153085704, ,0.009924879165872457,0.0387627273797706,-0.028945910699727108,-0.10775323441692558,0.03523201888168731,-0.014058740171660648, ,0.0493854027685526, ,0.11336681331504803, ,0.000963602391941862, ,0.16162135359177054,-0.30483171201138987,0.09680693720000001,-4.510640374295604,0.17516799269929464,-1.0680128421109607, ,0.060099393007264586,-0.3081069531119181,0.040428455634517774,0.10082369151626294,0.0066074336860351595,0.4333274368254384, ,1.0681838989257812
0.01239544363438909,0.027765370975651536,-0.08532894082015473, ,0.012779653378770855,0.029789619643746667,-0.08525820353008388, ,0.0020616021832956465, ,0.010111366952418429,0.040113306166436304,-0.026707924293688776,-0.04552317377191232,0.015418254379174209,0.00665197572169423, ,0.04924053506336144, ,0.048063170192530175, ,0.0009802387524169194, ,0.16227006315320538,-0.30804436888706727,0.09721008339000001,-4.509591924578181,0.17516799269929464,-1.0636838688835109, ,0.06594645000588659,-0.3272308329602441,0.03885075980487805,0.0786470852590521,0.005340181248399107,0.385847216876471, ,1.071861982345581
0.01239544363438909,0.027765370975651536,-0.08532894082015473, ,0.012815151075824979,0.029952358986789676,-0.08533780075495784, ,0.0022269147706419595, ,0.010111366952418429,0.040113306166436304,-0.026707924293688776,-0.04552317377191232,0.015418254379174209,0.00665197572169423, ,0.04924053506336144, ,0.048063170192530175, ,0.0009988458571665469, ,0.16227006315320538,-0.30804436888706727,0.09721008339000001,-4.509591924578181,0.17516799269929464,-1.0636838688835109, ,0.06594645000588659,-0.3272308329602441,0.03885075980487805,0.0786470852590521,0.005340181248399107,0.385847216876471, ,1.0754458904266357
0.01239544363438909,0.027765370975651536,-0.08532894082015473, ,0.012850621811228292,0.030114586208311873,-0.08541794557179977, ,0.002394560758855247, ,0.010111366952418429,0.040113306166436304,-0.026707924293688776,-0.04552317377191232,0.015418254379174209,0.00665197572169423, ,0.04924053506336144, ,0.048063170192530175, ,0.001019371076309028, ,0.16227006315320538,-0.30804436888706727,0.09721008339000001,-4.509591924578181,0.17516799269929464,-1.0636838688835109, ,0.06594645000588659,-0.3272308329602441,0.03885075980487805,0.0786470852590521,0.005340181248399107,0.385847216876471, ,1.0790541172027588
0.012496579732431717,0.028181792573679636,-0.08558129039255279, ,0.012886070794876211,0.03027629690371545,-0.08549863219651999, ,0.002132014083826445, ,0.009718190966657821,0.04276179387179227,-0.023230146619989712,0.030788182813262597,0.013635200297367941,-0.006888452331588828, ,0.049625134385554055, ,0.033672304988188115, ,0.0010354963372875411, ,0.1629033272488918,-0.31125702576274467,0.09756397056,-4.508753164804243,0.17516799269929464,-1.0603350405377479, ,0.06735056178741716,-0.3649882367633491,0.03670233069124424,0.0966387279825492,0.004446232628195901,0.34729858385674006, ,1.0828120708465576
0.012496579732431717,0.028181792573679636,-0.08558129039255279, ,0.012921503195034415,0.030437486713297573,-0.08557985488052063, ,0.0022953688290276507, ,0.009718190966657821,0.04276179387179227,-0.023230146619989712,0.030788182813262597,0.013635200297367941,-0.006888452331588828, ,0.049625134385554055, ,0.033672304988188115, ,0.0010534945157409713, ,0.1629033272488918,-0.31125702576274467,0.09756397056,-4.508753164804243,0.17516799269929464,-1.0603350405377479, ,0.06735056178741716,-0.3649882367633491,0.03670233069124424,0.0966387279825492,0.004446232628195901,0.34729858385674006, ,1.0864720344543457
0.012496579732431717,0.028181792573679636,-0.08558129039255279, ,0.012956924138451472,0.03059815132212696,-0.0856616079106053, ,0.002461129309292326, ,0.009718190966657821,0.04276179387179227,-0.023230146619989712,0.030788182813262597,0.013635200297367941,-0.006888452331588828, ,0.049625134385554055, ,0.033672304988188115, ,0.0010733203579036663, ,0.1629033272488918,-0.31125702576274467,0.09756397056,-4.508753164804243,0.17516799269929464,-1.0603350405377479, ,0.06735056178741716,-0.3649882367633491,0.03670233069124424,0.0966387279825492,0.004446232628195901,0.34729858385674006, ,1.0901179313659668
0.012598929887493929,0.02863086330586013,-0.08580461365117635, ,0.012992338710471287,0.03075828645991929,-0.0857438856088879, ,0.002164344629106845, ,0.01027847268790446,0.04500483184187835,-0.02064858197307353,0.05181377710259694,0.0059818599910599415,-0.018133193074411125, ,0.05057119562963172, ,0.052157898663221104, ,0.0010884734727814882, ,0.16370649146781116,-0.3153809651175805,0.09795415385,-4.50770471508682,0.1753046291990601,-1.0565258789146972, ,0.07772067285706043,-0.39213612214244126,0.034931604210526324,0.11322203128291074,0.0,0.3567717163724367, ,1.0937199592590332
0.012598929887493929,0.02863086330586013,-0.08580461365117635, ,0.013027751955145843,0.030917887900913318,-0.08582668233270198, ,0.0023269845059191406, ,0.01027847268790446,0.04500483184187835,-0.02064858197307353,0.05181377710259694,0.0059818599910599415,-0.018133193074411125, ,0.05057119562963172, ,0.052157898663221104, ,0.0011054393773450178, ,0.16370649146781116,-0.3153809651175805,0.09795415385,-4.50770471508682,0.1753046291990601,-1.0565258789146972, ,0.07772067285706043,-0.39213612214244126,0.034931604210526324,0.11322203128291074,0.0,0.3567717163724367, ,1.0974071025848389
0.012598929887493929,0.02863086330586013,-0.08580461365117635, ,0.013063168875347744,0.031076951463746665,-0.0859099924745097, ,0.00249198110153416, ,0.009922203505461111,0.04704377830082875,-0.019610693471725935,0.05736024208446986,0.0006798917163082221,0.011796403193028234, ,0.05192443064361231, ,0.05736424604480628, ,0.001124176427671898, ,0.16447104202235938,-0.3194122316779257,0.09830285586000001,-4.506656265369397,0.17516799269929464,-1.052820596444816, ,0.07519567476899429,-0.41439712470947937,0.03470329307189543,0.08597863809778367,-0.0014919135936293255,0.3688794159475053, ,1.1017980575561523
0.012701201064752846,0.02909105767095228,-0.0860065208310567, ,0.013098594432882702,0.031235473011331737,-0.08599381046181132, ,0.002180963134620732, ,0.009922203505461111,0.04704377830082875,-0.019610693471725935,0.05736024208446986,0.0006798917163082221,0.011796403193028234, ,0.05192443064361231, ,0.05736424604480628, ,0.0011382669170978824, ,0.16447104202235938,-0.3194122316779257,0.09830285586000001,-4.506656265369397,0.17516799269929464,-1.052820596444816, ,0.07519567476899429,-0.41439712470947937,0.03470329307189543,0.08597863809778367,-0.0014919135936293255,0.3688794159475053, ,1.1054770946502686
0.012701201064752846,0.02909105767095228,-0.0860065208310567, ,0.013134033548602236,0.031393448450732026,-0.08607813075705373, ,0.0023438163843166803, ,0.009922203505461111,0.04704377830082875,-0.019610693471725935,0.05736024208446986,0.0006798917163082221,0.011796403193028234, ,0.05192443064361231, ,0.05736424604480628, ,0.0011541294100876035, ,0.16447104202235938,-0.3194122316779257,0.09830285586000001,-4.506656265369397,0.17516799269929464,-1.052820596444816, ,0.07519567476899429,-0.41439712470947937,0.03470329307189543,0.08597863809778367,-0.0014919135936293255,0.3688794159475053, ,1.109147071838379
0.012795831497225829,0.029548683148299604,-0.08618507469333764, ,0.013169491102516208,0.031550873733037284,-0.08616294785754015, ,0.00203687953377228, ,0.009711518077166746,0.04736533039603958,-0.0170895254524934,0.06660203617012732,-0.005843200096437343,0.026309738798766517, ,0.05128196551498926, ,0.06685785482450682, ,0.0011655936974081836, ,0.1652047016454107,-0.32347438916976784,0.09862952094,-4.506027195538945,0.17516799269929464,-1.0492267318786312, ,0.0772776397055951,-0.42364706052888745,0.03257425668711657,0.07237116224868671,-0.0014990514266085588,0.3665862988729265, ,1.1127800941467285
0.012795831497225829,0.029548683148299604,-0.08618507469333764, ,0.01320497193390538,0.03170774485323984,-0.086248256295339, ,0.0021983937903608717, ,0.009711518077166746,0.04736533039603958,-0.0170895254524934,0.06660203617012732,-0.005843200096437343,0.026309738798766517, ,0.05128196551498926, ,0.06685785482450682, ,0.0011788347242409104, ,0.1652047016454107,-0.32347438916976784,0.09862952094,-4.506027195538945,0.17516799269929464,-1.0492267318786312, ,0.0772776397055951,-0.42364706052888745,0.03257425668711657,0.07237116224868671,-0.0014990514266085588,0.3665862988729265, ,1.1164851188659668
0.012795831497225829,0.029548683148299604,-0.08618507469333764, ,0.01324048084143407,0.03186405785011078,-0.08633405063719292, ,0.0023623858450599446, ,0.009711518077166746,0.04736533039603958,-0.0170895254524934,0.06660203617012732,-0.005843200096437343,0.026309738798766517, ,0.05128196551498926, ,0.06685785482450682, ,0.0011938163839981134, ,0.1652047016454107,-0.32347438916976784,0.09862952094,-4.506027195538945,0.17516799269929464,-1.0492267318786312, ,0.0772776397055951,-0.42364706052888745,0.03257425668711657,0.07237116224868671,-0.0014990514266085588,0.3665862988729265, ,1.1201720237731934
0.01289402596705026,0.03004276938763587,-0.08635014331888423, ,0.01327602258326262,0.032019808806075224,-0.08642032548442834, ,0.002014827986012995, ,0.009484632115429641,0.048943729674792415,-0.01575379578178348,0.10764879082033063,-0.006702036519399087,0.023423188419444928, ,0.05228411807019732, ,0.10785721342702081, ,0.0012040790290232992, ,0.16600014313145584,-0.32792268330532115,0.09895748231000001,-4.505188435765006,0.17516799269929464,-1.0456328673124466, ,0.07690189753522753,-0.44138112352777104,0.031985565301204825,0.07744798121512798,-0.0014518068326334454,0.3435353747384746, ,1.123779058456421
0.01289402596705026,0.03004276938763587,-0.08635014331888423, ,0.01331160187716013,0.03217499384708876,-0.08650707547286404, ,0.002178388965989776, ,0.009484632115429641,0.048943729674792415,-0.01575379578178348,0.10764879082033063,-0.006702036519399087,0.023423188419444928, ,0.05228411807019732, ,0.10785721342702081, ,0.0012161075467636263, ,0.16600014313145584,-0.32792268330532115,0.09895748231000001,-4.505188435765006,0.17516799269929464,-1.0456328673124466, ,0.07690189753522753,-0.44138112352777104,0.031985565301204825,0.07744798121512798,-0.0014518068326334454,0.3435353747384746, ,1.127351999282837
0.01289402596705026,0.03004276938763587,-0.08635014331888423, ,0.013347223400616887,0.03232960914251316,-0.08659429527272107, ,0.0023440635987193206, ,0.009484632115429641,0.048943729674792415,-0.01575379578178348,0.10764879082033063,-0.006702036519399087,0.023423188419444928, ,0.05228411807019732, ,0.10785721342702081, ,0.001229863108372842, ,0.16600014313145584,-0.32792268330532115,0.09895748231000001,-4.505188435765006,0.17516799269929464,-1.0456328673124466, ,0.07690189753522753,-0.44138112352777104,0.031985565301204825,0.07744798121512798,-0.0014518068326334454,0.3435353747384746, ,1.130950927734375
0.012990423633784323,0.03053665807266266,-0.08651909928841828, ,0.013382891790956985,0.032483650904992,-0.08668197958853063, ,0.001992822705536303, ,0.010074060811064746,0.05127441970935892,-0.01788208050441995,0.11475129130584569,-0.0024668837625045122,0.012004378251246428, ,0.0552297168281993, ,0.11477779638665618, ,0.0012390553926760162, ,0.16676469368600405,-0.3323246410436291,0.09929062884,-4.504349675991068,0.17516799269929464,-1.0422023602265431, ,0.07914674024893309,-0.45405235195440563,0.03500837696703297,0.09308060103492849,-0.0013773637994860418,0.35145614293769534, ,1.135179042816162
0.012990423633784323,0.03053665807266266,-0.08651909928841828, ,0.013418611645451065,0.03263711539032723,-0.08677012315904468, ,0.0021583046356550384, ,0.010074060811064746,0.05127441970935892,-0.01788208050441995,0.11475129130584569,-0.0024668837625045122,0.012004378251246428, ,0.0552297168281993, ,0.11477779638665618, ,0.001249998836044814, ,0.16676469368600405,-0.3323246410436291,0.09929062884,-4.504349675991068,0.17516799269929464,-1.0422023602265431, ,0.07914674024893309,-0.45405235195440563,0.03500837696703297,0.09308060103492849,-0.0013773637994860418,0.35145614293769534, ,1.1387579441070557
0.013093189806995972,0.03104909705355112,-0.08671185437197121, ,0.013454387521428605,0.032789998897354275,-0.08685872075714401, ,0.00178403272216692, ,0.010460466463786426,0.05214726989235344,-0.020049083997581943,0.10570619661130086,-0.007011915529533159,0.028171310322946008, ,0.05683946591065092, ,0.10593849027600823, ,0.0012562815876462506, ,0.16755241243917496,-0.3367961033778051,0.09965488633000001,-4.503510916217129,0.17516799269929464,-1.0386901744004988, ,0.07908078463205898,-0.4518901978974799,0.03756795169811321,0.07623627978023725,-0.0012963108919144032,0.35575547345915903, ,1.1423540115356445
0.013093189806995972,0.03104909705355112,-0.08671185437197121, ,0.013490223936390806,0.03294229776781873,-0.08694776718974781, ,0.0019487175018455063, ,0.010460466463786426,0.05214726989235344,-0.020049083997581943,0.10570619661130086,-0.007011915529533159,0.028171310322946008, ,0.05683946591065092, ,0.10593849027600823, ,0.0012643331680439163, ,0.16755241243917496,-0.3367961033778051,0.09965488633000001,-4.503510916217129,0.17516799269929464,-1.0386901744004988, ,0.07908078463205898,-0.4518901978974799,0.03756795169811321,0.07623627978023725,-0.0012963108919144032,0.35575547345915903, ,1.1460840702056885
0.013093189806995972,0.03104909705355112,-0.08671185437197121, ,0.013526125368122944,0.033094008386251615,-0.08703725729772278, ,0.0021154154728523023, ,0.010460466463786426,0.05214726989235344,-0.020049083997581943,0.10570619661130086,-0.007011915529533159,0.028171310322946008, ,0.05683946591065092, ,0.10593849027600823, ,0.001274115723271599, ,0.16755241243917496,-0.3367961033778051,0.09965488633000001,-4.503510916217129,0.17516799269929464,-1.0386901744004988, ,0.07908078463205898,-0.4518901978974799,0.03756795169811321,0.07623627978023725,-0.0012963108919144032,0.35575547345915903, ,1.150007963180542
0.01320750261522449,0.03161132766310525,-0.08693007943099952, ,0.013562096254807069,0.033245127179845686,-0.08712718595579211, ,0.001683415721754286, ,0.010745612263777904,0.053169541135025804,-0.02119900950155723,0.13925498431398498,-0.012215910392219623,0.028528411961311763, ,0.05823973120885577, ,0.1397897522770442, ,0.0012787668596179933, ,0.1684173585210881,-0.34163825688994387,0.10006321768000001,-4.502672156443191,0.17516799269929464,-1.0350146310941735, ,0.07967837242524835,-0.45405235195440563,0.03923352591133005,0.07450243376030213,-0.001212207392046576,0.32366918824260943, ,1.153714895248413
0.01320750261522449,0.03161132766310525,-0.08693007943099952, ,0.013598140995134532,0.0333956506183311,-0.08721754807244454, ,0.0018490659729222456, ,0.010745612263777904,0.053169541135025804,-0.02119900950155723,0.13925498431398498,-0.012215910392219623,0.028528411961311763, ,0.05823973120885577, ,0.1397897522770442, ,0.0012851747148236589, ,0.1684173585210881,-0.34163825688994387,0.10006321768000001,-4.502672156443191,0.17516799269929464,-1.0350146310941735, ,0.07967837242524835,-0.45405235195440563,0.03923352591133005,0.07450243376030213,-0.001212207392046576,0.32366918824260943, ,1.1576159000396729
0.013311588950234805,0.032116083048042546,-0.08713956139139516, ,0.013634263948418593,0.0335455752138516,-0.08730833858984406, ,0.0014751449926290708, ,0.010593443370377105,0.05241199547186381,-0.022148436272442003,0.1460021375230029,-0.006911925577195924,0.01785875953031361, ,0.05787738367530519, ,0.14616563736602428, ,0.0012872854956881635, ,0.16916646360988788,-0.3459012054365158,0.10044432694000001,-4.501833396669253,0.1750313561995292,-1.0319627785454168, ,0.07585686775257457,-0.43933769240032766,0.040022139497487445,0.08281737204807207,0.0,0.30365612694949073, ,1.162302017211914
0.013311588950234805,0.032116083048042546,-0.08713956139139516, ,0.013670469434707035,0.033694897520840046,-0.08739955248373814, ,0.001639831000361796, ,0.010593443370377105,0.05241199547186381,-0.022148436272442003,0.1460021375230029,-0.006911925577195924,0.01785875953031361, ,0.05787738367530519, ,0.14616563736602428, ,0.0012911596221131486, ,0.16916646360988788,-0.3459012054365158,0.10044432694000001,-4.501833396669253,0.1750313561995292,-1.0319627785454168, ,0.07585686775257457,-0.43933769240032766,0.040022139497487445,0.08281737204807207,0.0,0.30365612694949073, ,1.1659369468688965
0.013311588950234805,0.032116083048042546,-0.08713956139139516, ,0.01370676173489463,0.03384361413589457,-0.08749118476336779, ,0.0018066998048786058, ,0.010593443370377105,0.05241199547186381,-0.022148436272442003,0.1460021375230029,-0.006911925577195924,0.01785875953031361, ,0.05787738367530519, ,0.14616563736602428, ,0.0012967633197519036, ,0.16916646360988788,-0.3459012054365158,0.10044432694000001,-4.501833396669253,0.1750313561995292,-1.0319627785454168, ,0.07585686775257457,-0.43933769240032766,0.040022139497487445,0.08281737204807207,0.0,0.30365612694949073, ,1.169593095779419
0.01341389732560366,0.03262607596758646,-0.08735225940823481, ,0.013743145090835853,0.03399172169765458,-0.08758323047137612, ,0.0014236361835006568, ,0.010429784771185401,0.05230508755929713,-0.02148330521952816,0.15396959952638598,-0.011507365488140334,0.028180950377296857, ,0.05749899997490735, ,0.15439900408548007, ,0.0012981275440932878, ,0.1699001232329392,-0.35017187671596195,0.10083191765,-4.5012043268388,0.1750313561995292,-1.0290223439003567, ,0.0749580896986341,-0.43731309473949664,0.039525586898263035,0.07091570013797659,0.0,0.2916311733655513, ,1.1731910705566406
0.01341389732560366,0.03262607596758646,-0.08735225940823481, ,0.013779623705457407,0.034139216886676226,-0.08767568468371743, ,0.0015899544442422747, ,0.010429784771185401,0.05230508755929713,-0.02148330521952816,0.15396959952638598,-0.011507365488140334,0.028180950377296857, ,0.05749899997490735, ,0.15439900408548007, ,0.0013012320855842346, ,0.1699001232329392,-0.35017187671596195,0.10083191765,-4.5012043268388,0.1750313561995292,-1.0290223439003567, ,0.0749580896986341,-0.43731309473949664,0.039525586898263035,0.07091570013797659,0.0,0.2916311733655513, ,1.177009105682373
0.01341389732560366,0.03262607596758646,-0.08735225940823481, ,0.013816201742870795,0.0342860964253089,-0.08776854250956664, ,0.001758069505072005, ,0.010429784771185401,0.05230508755929713,-0.02148330521952816,0.15396959952638598,-0.011507365488140334,0.028180950377296857, ,0.05749899997490735, ,0.15439900408548007, ,0.001306040900526211, ,0.1699001232329392,-0.35017187671596195,0.10083191765,-4.5012043268388,0.1750313561995292,-1.0290223439003567, ,0.0749580896986341,-0.43731309473949664,0.039525586898263035,0.07091570013797659,0.0,0.2916311733655513, ,1.1807429790496826
0.013519765557454384,0.03316502632612908,-0.08757115792929164, ,0.01385288332848484,0.03443235707757059,-0.0878617990912285, ,0.0013422246339333855, ,0.00973322605235974,0.04996093279644427,-0.019968276411397576,0.14064833173872807,-0.007600713611564701,0.025857639542151874, ,0.05467689235974492, ,0.14085354412861187, ,0.001306417814415869, ,0.1706569510546132,-0.3546665072487606,0.10123765642000002,-4.500365567064861,0.1750313561995292,-1.0260819092552964, ,0.06972589387102922,-0.41621465595820517,0.03739157633802818,0.06950077553349475,0.0,0.28381251121979645, ,1.184386968612671
0.013519765557454384,0.03316502632612908,-0.08757115792929164, ,0.013889672549118423,0.03457799564902416,-0.08795544960404608, ,0.001510295858833656, ,0.00973322605235974,0.04996093279644427,-0.019968276411397576,0.14064833173872807,-0.007600713611564701,0.025857639542151874, ,0.05467689235974492, ,0.14085354412861187, ,0.001308519649925331, ,0.1706569510546132,-0.3546665072487606,0.10123765642000002,-4.500365567064861,0.1750313561995292,-1.0260819092552964, ,0.06972589387102922,-0.41621465595820517,0.03739157633802818,0.06950077553349475,0.0,0.28381251121979645, ,1.18802809715271
0.01361538101941336,0.033649445935071964,-0.08776740139356888, ,0.01392657345311292,0.034723008986653134,-0.08804948925631062, ,0.001152801769090562, ,0.00973322605235974,0.04996093279644427,-0.019968276411397576,0.14064833173872807,-0.007600713611564701,0.025857639542151874, ,0.05467689235974492, ,0.14085354412861187, ,0.001306930691957629, ,0.1713133833489223,-0.35868232834335734,0.10160321020000002,-4.499736497234409,0.17475808319999833,-1.0230003175429838, ,0.06424979117025781,-0.4021056845697914,0.036957799350348035,0.08139763566860227,-0.007891531240589136,0.2933064294770402, ,1.191884994506836
0.01361538101941336,0.033649445935071964,-0.08776740139356888, ,0.013963590050444914,0.03486739397873748,-0.08814391328917041, ,0.0013215173755535938, ,0.00932218099747579,0.04879058782356789,-0.019848548822320032,0.11804467723830601,-0.0037194810505320006,0.010503243839297195, ,0.05349195648946682, ,0.11810324840122263, ,0.001307078032195972, ,0.1713133833489223,-0.35868232834335734,0.10160321020000002,-4.499736497234409,0.17475808319999833,-1.0230003175429838, ,0.06424979117025781,-0.4021056845697914,0.036957799350348035,0.08139763566860227,-0.007891531240589136,0.2933064294770402, ,1.196018934249878
0.01361538101941336,0.033649445935071964,-0.08776740139356888, ,0.014000726312838493,0.03501114755472971,-0.08823871697653979, ,0.0014915966864050896, ,0.00932218099747579,0.04879058782356789,-0.019848548822320032,0.11804467723830601,-0.0037194810505320006,0.010503243839297195, ,0.05349195648946682, ,0.11810324840122263, ,0.001308923218738063, ,0.1713133833489223,-0.35868232834335734,0.10160321020000002,-4.499736497234409,0.17475808319999833,-1.0230003175429838, ,0.06424979117025781,-0.4021056845697914,0.036957799350348035,0.08139763566860227,-0.007891531240589136,0.2933064294770402, ,1.1996409893035889
0.013700089931502112,0.03407218570907946,-0.0879510490996488, ,0.014037986173878284,0.03515426668513076,-0.08833389562500824, ,0.001196513506536329, ,0.009423264984976913,0.04653647151794936,-0.02085774508374471,0.09007826372784439,-0.009427104687530028,-0.002265052459470798, ,0.051860260646245125, ,0.09057019350415281, ,0.0013078102512905211, ,0.17186942011586645,-0.36211122173951305,0.10193506044000002,-4.49889773746047,0.17448481020046747,-1.0202454407912336, ,0.0621053282450725,-0.3736100061357117,0.037216849345794396,0.08590152979366758,-0.018398721729485916,0.292322318409698, ,1.2033469676971436
0.013700089931502112,0.03407218570907946,-0.0879510490996488, ,0.014075373529121592,0.035296748381365574,-0.08842944457374989, ,0.0013672065486381823, ,0.009423264984976913,0.04653647151794936,-0.02085774508374471,0.09007826372784439,-0.009427104687530028,-0.002265052459470798, ,0.051860260646245125, ,0.09057019350415281, ,0.0013083925679311843, ,0.17186942011586645,-0.36211122173951305,0.10193506044000002,-4.49889773746047,0.17448481020046747,-1.0202454407912336, ,0.0621053282450725,-0.3736100061357117,0.037216849345794396,0.08590152979366758,-0.018398721729485916,0.292322318409698, ,1.2070040702819824
0.013700089931502112,0.03407218570907946,-0.0879510490996488, ,0.014112892236211275,0.03543858969565964,-0.08852535919443223, ,0.0015386025095149023, ,0.009423264984976913,0.04653647151794936,-0.02085774508374471,0.09007826372784439,-0.009427104687530028,-0.002265052459470798, ,0.051860260646245125, ,0.09057019350415281, ,0.0013106276159077254, ,0.17186942011586645,-0.36211122173951305,0.10193506044000002,-4.49889773746047,0.17448481020046747,-1.0202454407912336, ,0.0621053282450725,-0.3736100061357117,0.037216849345794396,0.08590152979366758,-0.018398721729485916,0.292322318409698, ,1.2106709480285645
0.013804679058386372,0.03459490604247147,-0.08818921910538158, ,0.014150546114988156,0.03557978772091434,-0.08862163489112566, ,0.0011298669625825382, ,0.009189739542408912,0.0453859549554483,-0.021275364290141242,0.11409510187909566,-0.02032607020633547,0.01551980130004209, ,0.05096054695304509, ,0.11589148822865553, ,0.0013088895327026755, ,0.17256446607454667,-0.36627377475872,0.10235765098,-4.498058977686532,0.17448481020046747,-1.0174683636264545, ,0.05847008105882364,-0.35810166625838025,0.03730400824355972,0.060816017630325674,-0.018398721729485916,0.248495424427324, ,1.2143089771270752
0.013804679058386372,0.03459490604247147,-0.08818921910538158, ,0.014188338947603709,0.03572033959058301,-0.08871826710021208, ,0.0013014174436526338, ,0.009189739542408912,0.0453859549554483,-0.021275364290141242,0.11409510187909566,-0.02032607020633547,0.01551980130004209, ,0.05096054695304509, ,0.11589148822865553, ,0.0013088183699498182, ,0.17256446607454667,-0.36627377475872,0.10235765098,-4.498058977686532,0.17448481020046747,-1.0174683636264545, ,0.05847008105882364,-0.35810166625838025,0.03730400824355972,0.060816017630325674,-0.018398721729485916,0.248495424427324, ,1.21799898147583
0.013804679058386372,0.03459490604247147,-0.08818921910538158, ,0.014226274478632553,0.03586024247854686,-0.08881525129029443, ,0.0014733415392838404, ,0.009189739542408912,0.0453859549554483,-0.021275364290141242,0.11409510187909566,-0.02032607020633547,0.01551980130004209, ,0.05096054695304509, ,0.11589148822865553, ,0.0013103704753208937, ,0.17313594830723927,-0.3697335590863726,0.10274394540000001,-4.497429907856079,0.17448481020046747,-1.0150996801623782, ,0.056218567273975575,-0.3195183217456929,0.03875623240875913,0.07944282594277767,-0.018398721729485916,0.24063303683959017, ,1.2219951152801514
0.01389656356196256,0.03504398412159579,-0.0884173104117826, ,0.014264356415185087,0.03599949359899097,-0.0889125829621057, ,0.0011373499212542874, ,0.0094515293813329,0.04269089349561076,-0.023749059134523545,0.08683451332410398,-0.012232970597241492,-0.008520533613251764, ,0.04975803055663353, ,0.08769190794428605, ,0.0013087534607969067, ,0.17313594830723927,-0.3697335590863726,0.10274394540000001,-4.497429907856079,0.17448481020046747,-1.0150996801623782, ,0.056218567273975575,-0.3195183217456929,0.03875623240875913,0.07944282594277767,-0.018398721729485916,0.24063303683959017, ,1.2257390022277832
0.01389656356196256,0.03504398412159579,-0.0884173104117826, ,0.014302588427020079,0.03613809020628015,-0.08901025764841788, ,0.001309011360157637, ,0.0094515293813329,0.04269089349561076,-0.023749059134523545,0.08683451332410398,-0.012232970597241492,-0.008520533613251764, ,0.04975803055663353, ,0.08769190794428605, ,0.0013087558487539504, ,0.17313594830723927,-0.3697335590863726,0.10274394540000001,-4.497429907856079,0.17448481020046747,-1.0150996801623782, ,0.056218567273975575,-0.3195183217456929,0.03875623240875913,0.07944282594277767,-0.018398721729485916,0.24063303683959017, ,1.2292859554290771
0.013990253649297478,0.035473099649794254,-0.0886617098158269, ,0.01434097414665719,0.03627602959483474,-0.08910827091395188, ,0.0009834216685987475, ,0.009114607157620684,0.040859369165229066,-0.024014504649407825,0.058798693254376415,-0.00439616655576593,-0.009053658397867417, ,0.04826241338531106, ,0.05896273926891212, ,0.00130577113150482, ,0.17366109414268655,-0.3726990885100748,0.10311209176000001,-4.496591148082141,0.17448481020046747,-1.012894354178583, ,0.0519414020571816,-0.2993594370929678,0.038382678361445786,0.078202244855672,-0.015511138594705275,0.2477220543273242, ,1.2328200340270996
0.013990253649297478,0.035473099649794254,-0.0886617098158269, ,0.014379517169489603,0.03641330909900661,-0.0892066183552852, ,0.0011543159068968768, ,0.009114607157620684,0.040859369165229066,-0.024014504649407825,0.058798693254376415,-0.00439616655576593,-0.009053658397867417, ,0.04826241338531106, ,0.05896273926891212, ,0.001304394265826566, ,0.17366109414268655,-0.3726990885100748,0.10311209176000001,-4.496591148082141,0.17448481020046747,-1.012894354178583, ,0.0519414020571816,-0.2993594370929678,0.038382678361445786,0.078202244855672,-0.015511138594705275,0.2477220543273242, ,1.2364299297332764
0.013990253649297478,0.035473099649794254,-0.0886617098158269, ,0.014418221053896547,0.03654992609295508,-0.08930529560076249, ,0.0013254863072324867, ,0.009114607157620684,0.040859369165229066,-0.024014504649407825,0.058798693254376415,-0.00439616655576593,-0.009053658397867417, ,0.04826241338531106, ,0.05896273926891212, ,0.00130458428421761, ,0.17366109414268655,-0.3726990885100748,0.10311209176000001,-4.496591148082141,0.17448481020046747,-1.012894354178583, ,0.0519414020571816,-0.2993594370929678,0.038382678361445786,0.078202244855672,-0.015511138594705275,0.2477220543273242, ,1.2400000095367432
0.014078036411167815,0.03585047707158835,-0.08889760081898837, ,0.014457089321355986,0.03668587799052275,-0.08940429831040414, ,0.0010480067518320656, ,0.009253531383981474,0.03917627879974553,-0.025609153793721962,0.015887523115227342,-0.0046827037684820045,0.011218588765418097, ,0.047709930011479, ,0.01656291310525644, ,0.0013022934133927393, ,0.17417079451238537,-0.37560283607078326,0.10350746021000001,-4.4959620782516865,0.17421153720093657,-1.0101394774268326, ,0.05074702757137475,-0.2742686172210138,0.039330398814814815,0.05503460644428817,-0.010293825890083905,0.26454927954544294, ,1.2440450191497803
0.014078036411167815,0.03585047707158835,-0.08889760081898837, ,0.014496125456557079,0.03682116224511155,-0.08950362217581473, ,0.0012183144261240285, ,0.009253531383981474,0.03917627879974553,-0.025609153793721962,0.015887523115227342,-0.0046827037684820045,0.011218588765418097, ,0.047709930011479, ,0.01656291310525644, ,0.001301550236514255, ,0.17417079451238537,-0.37560283607078326,0.10350746021000001,-4.4959620782516865,0.17421153720093657,-1.0101394774268326, ,0.05074702757137475,-0.2742686172210138,0.039330398814814815,0.05503460644428817,-0.010293825890083905,0.26454927954544294, ,1.2478439807891846
0.014078036411167815,0.03585047707158835,-0.08889760081898837, ,0.014535332907512778,0.036955776349558385,-0.08960326292009348, ,0.0013888000505423838, ,0.009253531383981474,0.03917627879974553,-0.025609153793721962,0.015887523115227342,-0.0046827037684820045,0.011218588765418097, ,0.047709930011479, ,0.01656291310525644, ,0.0013023155857601156, ,0.17417079451238537,-0.37560283607078326,0.10350746021000001,-4.4959620782516865,0.17421153720093657,-1.0101394774268326, ,0.05074702757137475,-0.2742686172210138,0.039330398814814815,0.05503460644428817,-0.010293825890083905,0.26454927954544294, ,1.2515521049499512
0.01417515856417277,0.03623964710560356,-0.08917146956442903, ,0.01457471508567252,0.037089717836011234,-0.08970321629774239, ,0.0010793610373541554, ,0.009800293839255783,0.037309171895279894,-0.027964897063295538,-0.022145070664723075,0.007620729743814597,-0.01767765966366903, ,0.04764509979639053, ,0.02341927782440857, ,0.0013003768505565855, ,0.1746882176149584,-0.3782362879808938,0.10391708785,-4.495123318477749,0.17407490070117113,-1.0072509823583573, ,0.051884604460618246,-0.24457974628471849,0.04094810159383034,0.08275292701311632,-0.008975419994156915,0.27817005024127317, ,1.2557570934295654
0.01417515856417277,0.03623964710560356,-0.08917146956442903, ,0.014614275366034643,0.037222984275805275,-0.08980347809457609, ,0.0012486834419324845, ,0.009800293839255783,0.037309171895279894,-0.027964897063295538,-0.022145070664723075,0.007620729743814597,-0.01767765966366903, ,0.04764509979639053, ,0.02341927782440857, ,0.0012999312177236191, ,0.1746882176149584,-0.3782362879808938,0.10391708785,-4.495123318477749,0.17407490070117113,-1.0072509823583573, ,0.051884604460618246,-0.24457974628471849,0.04094810159383034,0.08275292701311632,-0.008975419994156915,0.27817005024127317, ,1.2593979835510254
0.014274661998192145,0.036607278631236743,-0.08946150994789663, ,0.014654017087259103,0.037355573279338125,-0.08990404412762981, ,0.0009485207768996364, ,0.009872208833202823,0.035531591296642046,-0.029060628053982192,-0.007234614939213625,0.016225980071260276,-0.020205218137725835, ,0.046951832660822444, ,0.017765172561473135, ,0.0012969277096823886, ,0.17519791798465723,-0.38058399877465804,0.10433449323,-4.494494248647295,0.17393826420140568,-1.004444166030022, ,0.05151842647039673,-0.22120499197778737,0.04137353641558442,0.0843676279671482,0.0045310464082912935,0.24212218744095798, ,1.2630910873413086
0.014274661998192145,0.036607278631236743,-0.08946150994789663, ,0.014693943551779994,0.03748748249594645,-0.09000491024506999, ,0.0011161719166853463, ,0.009872208833202823,0.035531591296642046,-0.029060628053982192,-0.007234614939213625,0.016225980071260276,-0.020205218137725835, ,0.046951832660822444, ,0.017765172561473135, ,0.0012953958809281763, ,0.17519791798465723,-0.38058399877465804,0.10433449323,-4.494494248647295,0.17393826420140568,-1.004444166030022, ,0.05151842647039673,-0.22120499197778737,0.04137353641558442,0.0843676279671482,0.0045310464082912935,0.24212218744095798, ,1.266753911972046
0.014274661998192145,0.036607278631236743,-0.08946150994789663, ,0.01473405802591809,0.03761870961378145,-0.09010607232610182, ,0.0012843278405996104, ,0.009872208833202823,0.035531591296642046,-0.029060628053982192,-0.007234614939213625,0.016225980071260276,-0.020205218137725835, ,0.046951832660822444, ,0.017765172561473135, ,0.0012953028721859195, ,0.17519791798465723,-0.38058399877465804,0.10433449323,-4.494494248647295,0.17393826420140568,-1.004444166030022, ,0.05151842647039673,-0.22120499197778737,0.04137353641558442,0.0843676279671482,0.0045310464082912935,0.24212218744095798, ,1.2703590393066406
0.014371922132692026,0.036947987589407774,-0.08974800283497203, ,0.014774363739993506,0.03774925235968499,-0.09020752628088052, ,0.0010075446772795785, ,0.009779243803182899,0.033683215100888654,-0.029319492644997877,-0.006262550253450832,0.0035024341328079495,0.002234188612784493, ,0.04571460639505616, ,0.007173905098081362, ,0.0012929048872283666, ,0.17569989562148183,-0.3826691366506987,0.10473893571000001,-4.493865178816841,0.17393826420140568,-1.0021571613060865, ,0.049788531772545004,-0.20147970606894008,0.04094810159383034,0.054323511522013763,0.0045310464082912935,0.2165782586239957, ,1.2739849090576172
0.014371922132692026,0.036947987589407774,-0.08974800283497203, ,0.014814863888438232,0.03787910849906533,-0.09030926805041785, ,0.0011739685640827406, ,0.009779243803182899,0.033683215100888654,-0.029319492644997877,-0.006262550253450832,0.0035024341328079495,0.002234188612784493, ,0.04571460639505616, ,0.007173905098081362, ,0.0012919219424089813, ,0.17569989562148183,-0.3826691366506987,0.10473893571000001,-4.493865178816841,0.17393826420140568,-1.0021571613060865, ,0.049788531772545004,-0.20147970606894008,0.04094810159383034,0.054323511522013763,0.0045310464082912935,0.2165782586239957, ,1.277574062347412
0.014371922132692026,0.036947987589407774,-0.08974800283497203, ,0.014855561629908672,0.03800827583577301,-0.09041129360649362, ,0.0013409224348313149, ,0.009779243803182899,0.033683215100888654,-0.029319492644997877,-0.006262550253450832,0.0035024341328079495,0.002234188612784493, ,0.04571460639505616, ,0.007173905098081362, ,0.0012923235857894922, ,0.17569989562148183,-0.3826691366506987,0.10473893571000001,-4.493865178816841,0.17393826420140568,-1.0021571613060865, ,0.049788531772545004,-0.20147970606894008,0.04094810159383034,0.054323511522013763,0.0045310464082912935,0.2165782586239957, ,1.2814090251922607
0.01447057727347472,0.037275043241030655,-0.09003659941480653, ,0.01489646008739838,0.03813675221197727,-0.0905135989515631, ,0.0010730550218285178, ,0.009894533653349441,0.03186619095939852,-0.02899585106946443,-0.013832021028378322,0.00039862291688539894,-0.000529190477196805, ,0.04420537638931127, ,0.013837023143670295, ,0.0012905409145377768, ,0.17620959599118063,-0.3845998198692548,0.10514078561000001,-4.493236108986388,0.17393826420140568,-0.9999518353222914, ,0.051323386456717565,-0.18390880146990463,0.040022139497487445,0.05339287339459771,0.0045310464082912935,0.20658819756229702, ,1.2849640846252441
0.01447057727347472,0.037275043241030655,-0.09003659941480653, ,0.014937562348350406,0.038264535508040855,-0.09061618011866705, ,0.0012381776120238535, ,0.009894533653349441,0.03186619095939852,-0.02899585106946443,-0.013832021028378322,0.00039862291688539894,-0.000529190477196805, ,0.04420537638931127, ,0.013837023143670295, ,0.001290118629840084, ,0.17620959599118063,-0.3845998198692548,0.10514078561000001,-4.493236108986388,0.17393826420140568,-0.9999518353222914, ,0.051323386456717565,-0.18390880146990463,0.040022139497487445,0.05339287339459771,0.0045310464082912935,0.20658819756229702, ,1.2885351181030273
0.01447057727347472,0.037275043241030655,-0.09003659941480653, ,0.014978871464770083,0.038391623642397246,-0.09071903317134083, ,0.0014038627460254464, ,0.009894533653349441,0.03186619095939852,-0.02899585106946443,-0.013832021028378322,0.00039862291688539894,-0.000529190477196805, ,0.04420537638931127, ,0.013837023143670295, ,0.0012910285827695668, ,0.1767347418266279,-0.3863528802317038,0.10553615406000001,-4.49239734921245,0.17393826420140568,-0.9979098668187772, ,0.05301505114998367,-0.17006620350980425,0.039525586898263035,0.08831337167792817,0.0045310464082912935,0.20207829292431606, ,1.2921879291534424
0.01457093139929855,0.037585003647071534,-0.09032451384368698, ,0.01502039045333751,0.03851801457142561,-0.09082215420352319, ,0.0011489859676948014, ,0.01008197781047435,0.03058266005605472,-0.028918396225007206,-0.017299632412541333,0.011411904594289896,-0.034963997614825736, ,0.04328070023580503, ,0.02072410731234715, ,0.0012899012604277037, ,0.1767347418266279,-0.3863528802317038,0.10553615406000001,-4.49239734921245,0.17393826420140568,-0.9979098668187772, ,0.05301505114998367,-0.17006620350980425,0.039525586898263035,0.08831337167792817,0.0045310464082912935,0.20207829292431606, ,1.2959260940551758
0.01457093139929855,0.037585003647071534,-0.09032451384368698, ,0.015062122295520104,0.038643706289327014,-0.09092553933946515, ,0.0013127648029350372, ,0.01008197781047435,0.03058266005605472,-0.028918396225007206,-0.017299632412541333,0.011411904594289896,-0.034963997614825736, ,0.04328070023580503, ,0.02072410731234715, ,0.0012900812883214622, ,0.1767347418266279,-0.3863528802317038,0.10553615406000001,-4.49239734921245,0.17393826420140568,-0.9979098668187772, ,0.05301505114998367,-0.17006620350980425,0.039525586898263035,0.08831337167792817,0.0045310464082912935,0.20207829292431606, ,1.2996129989624023
0.014673777895607176,0.03788977910641151,-0.09062093407004436, ,0.01510406993768529,0.03876869682800047,-0.0910291847336403, ,0.0010603377797312572, ,0.0100241375918586,0.029328260155702512,-0.02952685802142795,-0.030432978507635194,0.005532644040658417,-0.020589169759611406, ,0.042807306886075466, ,0.03093143849959958, ,0.0012882864171606012, ,0.1772676103949494,-0.38801326779966205,0.10593800396000001,-4.491768279381996,0.17393826420140568,-0.9958678983152631, ,0.05091037637257016,-0.15506036202364507,0.03962390925373134,0.06928361300233322,0.004197306547334107,0.19725080116137828, ,1.3035459518432617
0.014673777895607176,0.03788977910641151,-0.09062093407004436, ,0.015146236291212952,0.038892984256918624,-0.09113308657065278, ,0.0012214490138609305, ,0.0100241375918586,0.029328260155702512,-0.02952685802142795,-0.030432978507635194,0.005532644040658417,-0.020589169759611406, ,0.042807306886075466, ,0.03093143849959958, ,0.0012877682977551774, ,0.1772676103949494,-0.38801326779966205,0.10593800396000001,-4.491768279381996,0.17393826420140568,-0.9958678983152631, ,0.05091037637257016,-0.15506036202364507,0.03962390925373134,0.06928361300233322,0.004197306547334107,0.19725080116137828, ,1.3075881004333496
0.014673777895607176,0.03788977910641151,-0.09062093407004436, ,0.015188624232608142,0.0390165666830037,-0.0912372410651464, ,0.0013836731209709587, ,0.0100241375918586,0.029328260155702512,-0.02952685802142795,-0.030432978507635194,0.005532644040658417,-0.020589169759611406, ,0.042807306886075466, ,0.03093143849959958, ,0.0012885060271645295, ,0.1772676103949494,-0.38801326779966205,0.10593800396000001,-4.491768279381996,0.17393826420140568,-0.9958678983152631, ,0.05091037637257016,-0.15506036202364507,0.03962390925373134,0.06928361300233322,0.004197306547334107,0.19725080116137828, ,1.3112950325012207
0.014774116466527005,0.038176043908272686,-0.09090957181333542, ,0.015231236603613496,0.039139442250503524,-0.09134164446171496, ,0.0011505572384809051, ,0.010511360148476258,0.028852960407490646,-0.029728119050663377,-0.039334380555632084,-0.008020414953789141,-0.0012605526123050594, ,0.04274041505106861, ,0.040143459380899846, ,0.001287452982976105, ,0.17778503349752245,-0.3895192007101358,0.10632559467000001,-4.491139209551543,0.17393826420140568,-0.9938259298117492, ,0.055430456517798356,-0.14874128770920184,0.03972272199501248,0.046664276089654476,0.0037212051812020135,0.1961645987655733, ,1.3151071071624756
0.014774116466527005,0.038176043908272686,-0.09090957181333542, ,0.01527407621132205,0.03926160914086737,-0.09144629303481014, ,0.0013101455225337326, ,0.010511360148476258,0.028852960407490646,-0.029728119050663377,-0.039334380555632084,-0.008020414953789141,-0.0012605526123050594, ,0.04274041505106861, ,0.040143459380899846, ,0.0012876248961545718, ,0.17778503349752245,-0.3895192007101358,0.10632559467000001,-4.491139209551543,0.17393826420140568,-0.9938259298117492, ,0.055430456517798356,-0.14874128770920184,0.03972272199501248,0.046664276089654476,0.0037212051812020135,0.1961645987655733, ,1.3187119960784912
0.014774116466527005,0.038176043908272686,-0.09090957181333542, ,0.015317145828289538,0.03938306557262173,-0.09155118308865108, ,0.0014708661443368484, ,0.011083379992149702,0.027985317607264634,-0.03030119018893266,-0.04089053156191945,-0.006823660113598971,-0.019092664646666868, ,0.04271043713772699, ,0.04145566745574908, ,0.001289002649900303, ,0.1783796839288377,-0.39100968815486115,0.10673911118000001,-4.490510139721089,0.17407490070117113,-0.9918953792119316, ,0.05998542449966548,-0.13673910887387722,0.040022139497487445,0.06359719519294064,0.003963833255952622,0.18864635729512064, ,1.3230290412902832
0.014884814269927004,0.03847192190926745,-0.09122042472331691, ,0.015360448192647232,0.039503809801246445,-0.09165631095713378, ,0.001216970442897498, ,0.011083379992149702,0.027985317607264634,-0.03030119018893266,-0.04089053156191945,-0.006823660113598971,-0.019092664646666868, ,0.04271043713772699, ,0.04145566745574908, ,0.0012884650961167, ,0.1783796839288377,-0.39100968815486115,0.10673911118000001,-4.490510139721089,0.17407490070117113,-0.9918953792119316, ,0.05998542449966548,-0.13673910887387722,0.040022139497487445,0.06359719519294064,0.003963833255952622,0.18864635729512064, ,1.3267669677734375
0.014884814269927004,0.03847192190926745,-0.09122042472331691, ,0.015403986008214332,0.03962384011905052,-0.09176167300373962, ,0.0013745561308752183, ,0.011083379992149702,0.027985317607264634,-0.03030119018893266,-0.04089053156191945,-0.006823660113598971,-0.019092664646666868, ,0.04271043713772699, ,0.04145566745574908, ,0.0012891028074852816, ,0.1783796839288377,-0.39100968815486115,0.10673911118000001,-4.490510139721089,0.17407490070117113,-0.9918953792119316, ,0.05998542449966548,-0.13673910887387722,0.040022139497487445,0.06359719519294064,0.003963833255952622,0.18864635729512064, ,1.3305699825286865
0.014989971053359804,0.038733764401304806,-0.09150382858769662, ,0.01544776194461066,0.039743154855047945,-0.09186726562144519, ,0.0011664167633054622, ,0.01121663446384553,0.027697946850394957,-0.029833153796670415,-0.0415258540526316,-0.005268598386762526,-0.027622264552009987, ,0.042225658240915814, ,0.04185846452050169, ,0.0012882007042192536, ,0.17895116616153034,-0.3922839390791082,0.10711373899000001,-4.489881069890636,0.17407490070117113,-0.9900167681886984, ,0.061862413010737145,-0.1346055908630791,0.039525586898263035,0.07259686787819569,0.0038197509437267537,0.18865980201954152, ,1.3342249393463135
0.014989971053359804,0.038733764401304806,-0.09150382858769662, ,0.015491778637369197,0.03986175237483371,-0.09197308523263101, ,0.0013207458190773386, ,0.01121663446384553,0.027697946850394957,-0.029833153796670415,-0.0415258540526316,-0.005268598386762526,-0.027622264552009987, ,0.042225658240915814, ,0.04185846452050169, ,0.0012884382598021594, ,0.17895116616153034,-0.3922839390791082,0.10711373899000001,-4.489881069890636,0.17407490070117113,-0.9900167681886984, ,0.061862413010737145,-0.1346055908630791,0.039525586898263035,0.07259686787819569,0.0038197509437267537,0.18865980201954152, ,1.3378419876098633
0.014989971053359804,0.038733764401304806,-0.09150382858769662, ,0.015536038688048634,0.03997963108045963,-0.09207912828899079, ,0.0014769371652822837, ,0.01121663446384553,0.027697946850394957,-0.029833153796670415,-0.0415258540526316,-0.005268598386762526,-0.027622264552009987, ,0.042225658240915814, ,0.04185846452050169, ,0.0012898041938998414, ,0.17895116616153034,-0.3922839390791082,0.10711373899000001,-4.489881069890636,0.17407490070117113,-0.9900167681886984, ,0.061862413010737145,-0.1346055908630791,0.039525586898263035,0.07259686787819569,0.0038197509437267537,0.18865980201954152, ,1.341486930847168
0.015111539642345038,0.03902360783809685,-0.09181942408507861, ,0.015580544664346085,0.04009678941031033,-0.09218539127144026, ,0.0012270356062862484, ,0.011297186115613877,0.02690295780064613,-0.02918436230976478,-0.027456575649519623,-0.014049565940051016,-0.020664281140994396, ,0.04126890543716642, ,0.030842060210535285, ,0.0012893526213270817, ,0.1796307666544621,-0.3936740309964686,0.10753114437000001,-4.489252000060182,0.17407490070117113,-0.9881381571654657, ,0.06351870251571003,-0.1287611147333389,0.03866216388349515,0.062116709456349804,0.0034931405870239703,0.16683590243990803, ,1.3450989723205566
0.015111539642345038,0.03902360783809685,-0.09181942408507861, ,0.01562529910020942,0.04021322583897905,-0.09229187069002702, ,0.0013792554379430037, ,0.011297186115613877,0.02690295780064613,-0.02918436230976478,-0.027456575649519623,-0.014049565940051016,-0.020664281140994396, ,0.04126890543716642, ,0.030842060210535285, ,0.0012899947843029098, ,0.1796307666544621,-0.3936740309964686,0.10753114437000001,-4.489252000060182,0.17407490070117113,-0.9881381571654657, ,0.06351870251571003,-0.1287611147333389,0.03866216388349515,0.062116709456349804,0.0034931405870239703,0.16683590243990803, ,1.348747968673706
0.015230812437773276,0.039299032224485574,-0.09211990822159259, ,0.01567030449595014,0.04032893887714373,-0.09239856308383879, ,0.0011539105314726553, ,0.011938934915648843,0.027772699633139795,-0.030069464289011683,-0.027933329171295602,-0.019089305306809228,-0.018091216614274545, ,0.04263840633115702, ,0.03383264507915854, ,0.0012890296477580142, ,0.18031036714739385,-0.39497917285221257,0.10792910540000002,-4.488622930229728,0.17407490070117113,-0.9864229036225137, ,0.06812415043680602,-0.1319846196918926,0.03992183338345865,0.06014531780522349,0.0032269627150899884,0.17017592883987345, ,1.3529419898986816
0.015230812437773276,0.039299032224485574,-0.09211990822159259, ,0.015715563318355774,0.04044392707144267,-0.09250546502091339, ,0.001301699532271913, ,0.011938934915648843,0.027772699633139795,-0.030069464289011683,-0.027933329171295602,-0.019089305306809228,-0.018091216614274545, ,0.04263840633115702, ,0.03383264507915854, ,0.0012891188722968447, ,0.18031036714739385,-0.39497917285221257,0.10792910540000002,-4.488622930229728,0.17407490070117113,-0.9864229036225137, ,0.06812415043680602,-0.1319846196918926,0.03992183338345865,0.06014531780522349,0.0032269627150899884,0.17017592883987345, ,1.3568511009216309
0.015230812437773276,0.039299032224485574,-0.09211990822159259, ,0.01576107800080237,0.040558189004350605,-0.092612573098147, ,0.001452369114311166, ,0.011938934915648843,0.027772699633139795,-0.030069464289011683,-0.027933329171295602,-0.019089305306809228,-0.018091216614274545, ,0.04263840633115702, ,0.03383264507915854, ,0.0012902604823808608, ,0.18031036714739385,-0.39497917285221257,0.10792910540000002,-4.488622930229728,0.17407490070117113,-0.9864229036225137, ,0.06812415043680602,-0.1319846196918926,0.03992183338345865,0.06014531780522349,0.0032269627150899884,0.17017592883987345, ,1.3604629039764404
0.015351955680377154,0.03957210227322547,-0.09241657281259909, ,0.01580685094336743,0.040671723294054614,-0.09271988394120438, ,0.0012280446777198873, ,0.012423491367924405,0.027372437675785483,-0.030026877553016102,-0.03702591185654882,-0.038017249319184584,0.013577752931029119, ,0.04248772596488867, ,0.05306792803150175, ,0.0012898284281818262, ,0.1810131358389483,-0.39626886924220805,0.10832317756000001,-4.488203550342759,0.17407490070117113,-0.984707650079562, ,0.07294153847691835,-0.12772132107465783,0.039822028800000006,0.024294841586094074,0.002998844137156098,0.16908720174487513, ,1.3641419410705566
0.015351955680377154,0.03957210227322547,-0.09241657281259909, ,0.015852884512942124,0.04078452859432985,-0.09282739420442707, ,0.0013746568645975207, ,0.012423491367924405,0.027372437675785483,-0.030026877553016102,-0.03702591185654882,-0.038017249319184584,0.013577752931029119, ,0.04248772596488867, ,0.05306792803150175, ,0.001290413451881245, ,0.1810131358389483,-0.39626886924220805,0.10832317756000001,-4.488203550342759,0.17407490070117113,-0.984707650079562, ,0.07294153847691835,-0.12772132107465783,0.039822028800000006,0.024294841586094074,0.002998844137156098,0.16908720174487513, ,1.367785930633545
0.015351955680377154,0.03957210227322547,-0.09241657281259909, ,0.015899181043344007,0.04089660359441577,-0.09293510057074286, ,0.0015240178423085043, ,0.012423491367924405,0.027372437675785483,-0.030026877553016102,-0.03702591185654882,-0.038017249319184584,0.013577752931029119, ,0.04248772596488867, ,0.05306792803150175, ,0.0012920134819526645, ,0.1810131358389483,-0.39626886924220805,0.10832317756000001,-4.488203550342759,0.17407490070117113,-0.984707650079562, ,0.07294153847691835,-0.12772132107465783,0.039822028800000006,0.024294841586094074,0.002998844137156098,0.16908720174487513, ,1.3715550899505615
0.015476756310466912,0.039858840633744536,-0.0927248535145607, ,0.015945742835429683,0.04100794701889161,-0.09304299975157487, ,0.0012812536334031294, ,0.012462139937018226,0.0284032896417731,-0.030566478341393206,-0.025532347941964323,-0.026043359027313386,-0.017397693576067498, ,0.04354723174300681, ,0.03647095636700348, ,0.0012919402857040282, ,0.1817159045305027,-0.397574011097952,0.10871984230000001,-4.487574480512305,0.17421153720093657,-0.9831038144403066, ,0.07135108387854945,-0.133469678703897,0.04073864838874681,0.05828386424185438,0.0,0.16793179929439594, ,1.3753869533538818
0.015476756310466912,0.039858840633744536,-0.0927248535145607, ,0.015992572157207233,0.041118557627552794,-0.09315108848675097, ,0.001426404270799759, ,0.012462139937018226,0.0284032896417731,-0.030566478341393206,-0.025532347941964323,-0.026043359027313386,-0.017397693576067498, ,0.04354723174300681, ,0.03647095636700348, ,0.0012928488261438643, ,0.1817159045305027,-0.397574011097952,0.10871984230000001,-4.487574480512305,0.17421153720093657,-0.9831038144403066, ,0.07135108387854945,-0.133469678703897,0.04073864838874681,0.05828386424185438,0.0,0.16793179929439594, ,1.3790109157562256
0.015602219853085245,0.04013926658390197,-0.09302713412644863, ,0.01603967124394899,0.04122843421528625,-0.09325936354441264, ,0.0011964866698763394, ,0.013116750981036505,0.02883954174917728,-0.031061501283720615,-0.014631664875006346,-0.011128655335739479,-0.06480536476968761, ,0.04436874109775528, ,0.01838215635684473, ,0.0012922021002628743, ,0.18246500961930248,-0.3989254893509413,0.10913724768000001,-4.486735720738368,0.17421153720093657,-0.9813885608973548, ,0.07659155896567456,-0.13328222128998704,0.04148128,0.11049492299723901,0.0,0.16609134607922216, ,1.3833699226379395
0.015602219853085245,0.04013926658390197,-0.09302713412644863, ,0.01608704229830383,0.04133757561194688,-0.09336782172092416, ,0.0013368116423457717, ,0.013116750981036505,0.02883954174917728,-0.031061501283720615,-0.014631664875006346,-0.011128655335739479,-0.06480536476968761, ,0.04436874109775528, ,0.01838215635684473, ,0.0012924994972100935, ,0.18246500961930248,-0.3989254893509413,0.10913724768000001,-4.486735720738368,0.17421153720093657,-0.9813885608973548, ,0.07659155896567456,-0.13328222128998704,0.04148128,0.11049492299723901,0.0,0.16609134607922216, ,1.3870549201965332
0.015602219853085245,0.04013926658390197,-0.09302713412644863, ,0.016134687490410124,0.04144598068223317,-0.09347645984078158, ,0.001480850133246674, ,0.013116750981036505,0.02883954174917728,-0.031061501283720615,-0.014631664875006346,-0.011128655335739479,-0.06480536476968761, ,0.04436874109775528, ,0.01838215635684473, ,0.0012937468524156339, ,0.18246500961930248,-0.3989254893509413,0.10913724768000001,-4.486735720738368,0.17421153720093657,-0.9813885608973548, ,0.07659155896567456,-0.13328222128998704,0.04148128,0.11049492299723901,0.0,0.16609134607922216, ,1.390631914138794
0.015730046045316293,0.04042833158661682,-0.09333052598029057, ,0.016182608958007945,0.04155364832556299,-0.09358527475652238, ,0.0012393739919362514, ,0.012792068717734119,0.028990703551272267,-0.029412901707927538,-0.012600553043816142,-0.034254794794463736,-0.006867462876949371, ,0.04323443883476677, ,0.03649853270896872, ,0.0012933891362282694, ,0.1832218374409765,-0.400292413069679,0.10954557903,-4.486106650907914,0.17434817370070202,-0.97986640399824, ,0.07622244301885203,-0.1407966491965442,0.040022139497487445,0.04842550063269484,0.0013231617661761236,0.161226327562912, ,1.3942270278930664
0.015730046045316293,0.04042833158661682,-0.09333052598029057, ,0.01623080880655194,0.04166057747594993,-0.0936942633486341, ,0.0013789482035044542, ,0.012792068717734119,0.028990703551272267,-0.029412901707927538,-0.012600553043816142,-0.034254794794463736,-0.006867462876949371, ,0.04323443883476677, ,0.03649853270896872, ,0.0012939483458183098, ,0.1832218374409765,-0.400292413069679,0.10954557903,-4.486106650907914,0.17434817370070202,-0.97986640399824, ,0.07622244301885203,-0.1407966491965442,0.040022139497487445,0.04842550063269484,0.0013231617661761236,0.161226327562912, ,1.3978559970855713
0.015730046045316293,0.04042833158661682,-0.09333052598029057, ,0.016279289109323733,0.04176676710187866,-0.09380342252546367, ,0.00152207382025681, ,0.012792068717734119,0.028990703551272267,-0.029412901707927538,-0.012600553043816142,-0.034254794794463736,-0.006867462876949371, ,0.04323443883476677, ,0.03649853270896872, ,0.0012954296800679105, ,0.1832218374409765,-0.400292413069679,0.10954557903,-4.486106650907914,0.17434817370070202,-0.97986640399824, ,0.07622244301885203,-0.1407966491965442,0.040022139497487445,0.04842550063269484,0.0013231617661761236,0.161226327562912, ,1.4014930725097656
0.015854351383092644,0.04071056440957928,-0.09361125027327095, ,0.016328051907544657,0.04187221620618117,-0.09391274922312648, ,0.001290243659228174, ,0.012325946103654247,0.02763942982717888,-0.027134497555342245,-0.02674971377962851,-0.03675869991723064,0.023160433654545894, ,0.040646623305049694, ,0.04546135168496563, ,0.0012953962218689445, ,0.18399411072839894,-0.4016747822541652,0.10993057716000001,-4.485687271020946,0.1746214467002329,-0.9782923075225405, ,0.07622244301885203,-0.13673910887387722,0.03739157633802818,0.01913399050373428,0.01023941149368737,0.1678846403374437, ,1.405198097229004
0.015854351383092644,0.04071056440957928,-0.09361125027327095, ,0.01637709921048819,0.04197692382591278,-0.09402224040541568, ,0.0014303301545809746, ,0.012325946103654247,0.02763942982717888,-0.027134497555342245,-0.02674971377962851,-0.03675869991723064,0.023160433654545894, ,0.040646623305049694, ,0.04546135168496563, ,0.0012962611829760728, ,0.18399411072839894,-0.4016747822541652,0.10993057716000001,-4.485687271020946,0.1746214467002329,-0.9782923075225405, ,0.07622244301885203,-0.13673910887387722,0.03739157633802818,0.01913399050373428,0.01023941149368737,0.1678846403374437, ,1.4088690280914307
0.015854351383092644,0.04071056440957928,-0.09361125027327095, ,0.016426432995592554,0.04208088903222763,-0.09413189306371113, ,0.0015735742302268956, ,0.012325946103654247,0.02763942982717888,-0.027134497555342245,-0.02674971377962851,-0.03675869991723064,0.023160433654545894, ,0.040646623305049694, ,0.04546135168496563, ,0.0012980275081177978, ,0.18399411072839894,-0.4016747822541652,0.10993057716000001,-4.485687271020946,0.1746214467002329,-0.9782923075225405, ,0.07622244301885203,-0.13673910887387722,0.03739157633802818,0.01913399050373428,0.01023941149368737,0.1678846403374437, ,1.4124970436096191
0.01597929430380824,0.04099999002976852,-0.09388944213085089, ,0.016476055208573485,0.04218411093025506,-0.09424170421688902, ,0.0013315413176962112, ,0.01229769375796556,0.02892827671285961,-0.02765110897691246,0.09393458125722494,0.012826152607641203,0.0095006243479885, ,0.04186480972121538, ,0.09480611574242626, ,0.0012982396208366484, ,0.1847972749473183,-0.403111210568771,0.11031687158000002,-4.485058201190491,0.17516799269929464,-0.977267761814796, ,0.07967837242524835,-0.14356572096591644,0.03847539014492755,0.05537732995385281,0.06872005683612185,0.06772493829971707, ,1.4164400100708008
0.01597929430380824,0.04099999002976852,-0.09388944213085089, ,0.016525967763536525,0.04228658865897493,-0.09435167091122999, ,0.001472359789473299, ,0.01229769375796556,0.02892827671285961,-0.02765110897691246,0.09393458125722494,0.012826152607641203,0.0095006243479885, ,0.04186480972121538, ,0.09480611574242626, ,0.0012993347162368791, ,0.1847972749473183,-0.403111210568771,0.11031687158000002,-4.485058201190491,0.17516799269929464,-0.977267761814796, ,0.07967837242524835,-0.14356572096591644,0.03847539014492755,0.05537732995385281,0.06872005683612185,0.06772493829971707, ,1.4200870990753174
0.016107755099833358,0.04129080673358385,-0.09417085629420352, ,0.016576172543089764,0.0423883213910943,-0.0944617902203294, ,0.0012282491090850284, ,0.012987128797035258,0.029360559228379393,-0.028528980265507615,0.02797494201963404,0.0035075408214691566,-0.03213588593822874, ,0.0429489309248051, ,0.028193639795991234, ,0.00129889043119218, ,0.18560043916623764,-0.4045399161505025,0.11070705487000002,-4.484429131360038,0.1754412656988255,-0.9760203802996588, ,0.08131700219234857,-0.1427021677570989,0.039525586898263035,0.09062896728748213,0.03449509585899687,0.13442112652971044, ,1.4236900806427002
0.016107755099833358,0.04129080673358385,-0.09417085629420352, ,0.01662667139845651,0.042489308332922665,-0.09457205924500568, ,0.0013662518129271797, ,0.012987128797035258,0.029360559228379393,-0.028528980265507615,0.02797494201963404,0.0035075408214691566,-0.03213588593822874, ,0.0429489309248051, ,0.028193639795991234, ,0.0012993088248675526, ,0.18560043916623764,-0.4045399161505025,0.11070705487000002,-4.484429131360038,0.1754412656988255,-0.9760203802996588, ,0.08131700219234857,-0.1427021677570989,0.039525586898263035,0.09062896728748213,0.03449509585899687,0.13442112652971044, ,1.4273450374603271
0.016107755099833358,0.04129080673358385,-0.09417085629420352, ,0.016677466149587702,0.042589548724248194,-0.09468247511321005, ,0.001507665498208609, ,0.012987128797035258,0.029360559228379393,-0.028528980265507615,0.02797494201963404,0.0035075408214691566,-0.03213588593822874, ,0.0429489309248051, ,0.028193639795991234, ,0.001300594977172127, ,0.18560043916623764,-0.4045399161505025,0.11070705487000002,-4.484429131360038,0.1754412656988255,-0.9760203802996588, ,0.08131700219234857,-0.1427021677570989,0.039525586898263035,0.09062896728748213,0.03449509585899687,0.13442112652971044, ,1.4311649799346924
0.016241361063137796,0.04158427302952146,-0.09445609204900424, ,0.016728558585274517,0.042689041838213336,-0.0947930349799352, ,0.001253557372017323, ,0.013714804471578228,0.03028872339305477,-0.029561810234183014,-0.007731389574913259,-0.022301425495075668,-0.005258397918242168, ,0.04449048494674398, ,0.02360308004157477, ,0.0013003064029073737, ,0.18641904885090543,-0.405968621732234,0.11110242332,-4.4838000615295845,0.1754412656988255,-0.9742234480165664, ,0.08503310175490213,-0.1462202489344696,0.04094810159383034,0.057184748137175924,0.01962075766483382,0.1660399783833057, ,1.4348580837249756
