NicholasDascanio/dvrk_moveit_final/test/execution/first_exp_nosummary/yes_joints_yes_smoothramp/300vel3.csv
Current Position (x),Current Position (y),Current Position (z), ,Planned Position (x),Planned Position (y),Planned Position (z), ,Position Error,,Cartesian linear Velocity(x),Cartesian linear Velocity(y),Cartesian linear Velocity(z),Cartesian Angular Velocity(x),Cartesian Angular Velocity(y),Cartesian Angular Velocity(z), ,Total Linear Velocity, ,Total Angular Velocity, ,MSE, ,Joint 1 Position,Joint 2 Position,Joint 3 Position,Joint 4 Position,Joint 5 Position,Joint 6 Position, ,Joint 1 Velocity,Joint 2 Velocity,Joint 3 Velocity,Joint 4 Velocity,Joint 5 Velocity,Joint 6 Velocity, ,Time Stamp
0.06762661393047684,0.010558186687008603,-0.12018974478792918, ,0.06760098780828741,0.010666729343331526,-0.11976419866473449, ,0.00043991784385966125, ,-0.0014724808159948984,0.0009189594949657023,0.0018540402451545901,-0.3424493981596582,0.49805858914626017,0.6642503479260581, ,0.002539714853583668, ,0.6044286132557734, ,3.665982032163844e-05, ,0.5246515805433163,-0.023183644088421978,0.14862094479000001,-3.3653139029831314,0.9777707923214919,-0.34472461973273627, ,-0.0011720104563110666,-0.0017679237681854114,-0.0011902963394888162,-0.002360234703673104,0.14776337912988077,0.8831615490446434, ,0.03702807426452637
0.06747334102969818,0.010715015328356569,-0.12004459429506963, ,0.06744268409251149,0.010856695582615357,-0.1197600829253312, ,0.0003193115434100941, ,-0.0031327497462659555,0.003800068781122562,0.002692011301224888,0.6698916331266859,-0.20101721529992495,-0.20951156972903326, ,0.0056126258168449315, ,0.6994016878591416, ,3.451042669407979e-05, ,0.5244894031529576,-0.023523444334887858,0.14860798189000002,-3.366781732587523,1.0018188162802093,-0.3178589676433264, ,-0.0075164495674712,-0.014172183625817023,-0.0006242981482523918,0.014611387385794317,0.3998545627810746,-0.5901272966691427, ,0.07400703430175781
0.06746106313274612,0.010746919617015158,-0.12012089968720352, ,0.06728505095693085,0.011046110370488672,-0.11975612232273673, ,0.0005035453491261824, ,0.0001284117211502517,9.17678103650088e-05,-0.003241051669639085,-0.5531917993932011,-0.13479206016552783,-0.2341894514506415, ,0.0032448924213936987, ,0.5693769106656831, ,3.946171051237305e-05, ,0.524056930112001,-0.024342054019555654,0.14854835255,-3.3678301823049455,0.9851491633088256,-0.33481383220493344, ,-0.014347889561304924,-0.027363593298290304,-0.0026091419361179364,-0.04742704596133992,-0.09407104879422701,0.059776955366812184, ,0.11078906059265137
0.06731445092119359,0.010893811145359353,-0.12002980513392565, ,0.06712808642296629,0.011234974465056181,-0.11975231614714318, ,0.0004776235700754669, ,-0.005138697155953742,0.005145213462106404,0.0027111742646823917,0.03381870344846827,0.04700648907865303,0.10512741543738052, ,0.007760792222751757, ,0.057907812241384575, ,4.143805491598582e-05, ,0.5235163388108053,-0.025369177491827516,0.14842390871000002,-3.3684592521353993,0.9871987108053072,-0.3335446661153193, ,-0.01963114223385825,-0.03699685830739601,-0.004095863080483415,-0.045541049222101046,0.05027816182786994,0.0334106950714603, ,0.14649391174316406
0.06714338354212489,0.011127134292125269,-0.11999923710725724, ,0.06697178851491759,0.01142328862456478,-0.11974866369023128, ,0.0004241925026506632, ,-0.004066055796254812,0.006259467774780448,-0.000302140789149391,0.038015877003841896,0.023767310593813006,0.027004053632572977, ,0.007470276810014476, ,0.04483404908363741, ,4.162674632927053e-05, ,0.5225973335987726,-0.027083624189905356,0.1483344647,-3.369298011909337,0.9874719838048381,-0.33344078696214996, ,-0.026279961661166095,-0.04586609065175001,-0.0012131109889383944,-0.00821147989508553,0.0,-0.004457609724053483, ,0.18355894088745117
0.06697549052707946,0.011371888672334858,-0.1200054645420424, ,0.06681615525996268,0.011611053607402248,-0.11974516424517088, ,0.0003877419735653676, ,-0.004657623568516201,0.00604791685765395,0.00013112464356751768,0.04533138848295051,0.020473620056749964,0.014318946642516222, ,0.0076346544974375315, ,0.04974036489633276, ,4.116665778528121e-05, ,0.5215702101265007,-0.028898466415348115,0.14827613165,-3.3703464616267595,0.9871987108053072,-0.333789702335741, ,-0.028730530293209437,-0.044448216186637364,-0.0018803476235300083,-0.003362122854066864,0.0,-0.015926467972457198, ,0.22184991836547852
0.06682762032346622,0.011541162889383044,-0.11999853798968142, ,0.06666118468815534,0.011798270172096054,-0.11974181710661787, ,0.00039963807041664014, ,-0.005284081316352992,0.005226475895861284,0.0004402171889300257,0.021603536651726506,0.010389189915986481,0.04892550230518708, ,0.00744522375897993, ,0.023971818099029162, ,4.099959518200105e-05, ,0.5207284322432102,-0.030164994606720934,0.14821131715000002,-3.3716046012876673,0.9870620743055418,-0.33425003561302863, ,-0.02860926788015399,-0.039359992351087,-0.002513620249329336,-0.05894861990260707,-0.0003108472867009571,-0.032023720883607866, ,0.25925397872924805
0.06665011451132545,0.011733815864448039,-0.11998357943147894, ,0.06650687483242365,0.011984939077312231,-0.11973862157071369, ,0.0003789258861595693, ,-0.00422486262929612,0.004490034138594678,-0.0003483017030905855,-0.005065964896249637,0.006730457545003727,0.04172228281645894, ,0.006175045334128679, ,0.00842395744855861, ,4.062069194223957e-05, ,0.5197013087709383,-0.03161686838707514,0.14812446572000001,-3.372443361061605,0.98651552830648,-0.3347028301397892, ,-0.02503216606659741,-0.03453309372578995,-0.0015185812065129465,-0.0581131370420586,-0.021632100508242276,-0.022568438192429083, ,0.29610109329223633
0.0665292467784761,0.011868251445034313,-0.11998818866765659, ,0.06635322372856818,0.012171061081854097,-0.11973557693508374, ,0.0004318454326298624, ,-0.004029145160510421,0.0041564588792241475,7.494294011851465e-05,-0.0010139110865120815,0.023513572707613856,0.01295396530249629, ,0.005789281266566638, ,0.023535422604397723, ,4.0899371433625084e-05, ,0.518689630764415,-0.032960623907190206,0.14805835493000002,-3.373072430892059,0.9858323458076529,-0.33471749180229093, ,-0.025205030958425176,-0.03167454658159906,-0.0018419069750231268,-0.0046647609258230385,-0.025735171544249175,0.008560738961479658, ,0.3323819637298584
0.06635909132768779,0.01203594107461661,-0.1199763840458965, ,0.06620022941526046,0.012356636944661119,-0.11973268249883681, ,0.000432981976903147, ,-0.004257759048303141,0.004068347320079224,2.604023794571973e-05,-0.06525397123402515,0.025222026469293033,0.047631843810302985, ,0.0058890270948769915, ,0.06995878344445892, ,4.113455047839857e-05, ,0.5179636938742379,-0.033918242783594045,0.14799354043000001,-3.3741208806094813,0.9851491633088256,-0.3349771896852145, ,-0.02492041532522867,-0.03296177198974323,-0.0021874226201592972,-0.046575102388851715,-0.06364933509266976,0.03247647599678355, ,0.3698859214782715
0.0661986894829308,0.012215724936091006,-0.11996210574756909, ,0.06604788993404105,0.012541667424807668,-0.11972993756256257, ,0.0004276459704304268, ,-0.0039270054847994895,0.004403304307888253,2.654755838437566e-05,-0.055267727831891184,0.01730053771563624,0.023976733513920816, ,0.005900098785475434, ,0.057912264201550184, ,4.12800903502418e-05, ,0.5170215204635825,-0.03530061196808024,0.14791057787,-3.374749950439935,0.9839194348109367,-0.33601639705546077, ,-0.023783694626183155,-0.035448988254938654,-0.002041108600717581,-0.03046244886346071,-0.07080699244809452,0.02149444926675078, ,0.4067809581756592
0.06602899056642074,0.012412535845512638,-0.11994685804401538, ,0.06589620332931793,0.012726153281501883,-0.11972734142833115, ,0.0004051862424309618, ,-0.004218518146995816,0.005112776083745217,0.00048740552772925006,0.018109102690813863,0.019971002766319853,0.027246375421916453, ,0.006646347778104236, ,0.026958867775906774, ,4.1217675095557726e-05, ,0.5160407333885559,-0.03678337667993134,0.14783020789,-3.375588710213873,0.9835095253116403,-0.33617221578521483, ,-0.024208403458793566,-0.03845094876761376,-0.0020646547660401818,-0.017079093588278117,-0.009859226278105815,-0.002607692513044587, ,0.44374895095825195
0.06590797289641598,0.012563706868871444,-0.11994529802370849, ,0.06574516764836456,0.012910095274084394,-0.11972489339969154, ,0.0004416657948574953, ,-0.00386678359386905,0.005071080386618201,-0.00016662906451892314,-0.021898572657648753,0.010407682671269044,0.012195509230005818, ,0.006379313199279457, ,0.024245975811011514, ,4.175742104210335e-05, ,0.5152993510326304,-0.037957232076813466,0.14777446742000003,-3.376217780044327,0.982143160313986,-0.33595650288979684, ,-0.02442649718364756,-0.03963949104363859,-0.0016431250230253013,-0.02279908421891165,-0.05430887075024619,-0.0010569331004057604, ,0.477679967880249
0.06578376622736601,0.012721916363843955,-0.11994101935787806, ,0.06559478094131858,0.013093494162027182,-0.1197225927816706, ,0.00047063326235916584, ,-0.0041560270940193015,0.005328345623726041,0.0001847750180379408,-0.03432627188747665,0.014757733802203002,0.006984625457912158, ,0.0067600273741601, ,0.03736420277042794, ,4.243468156339074e-05, ,0.5145502459438306,-0.03916970113806671,0.14771872695000002,-3.37684684987478,0.9811867048156279,-0.336646794886452, ,-0.025627043359025322,-0.04208290091284735,-0.0021627714215885947,-0.013985513967955705,-0.0689611877880358,0.011305100773818987, ,0.5106179714202881
0.06563966642724378,0.012889643682997198,-0.11992291557130833, ,0.06544504126117956,0.013276350704932351,-0.11972043888077072, ,0.000477931047631918, ,-0.005174492254973583,0.005862108528252384,0.000758621524273563,0.0347414271798967,-0.004301895751930068,0.03727806231766507, ,0.007855901801249942, ,0.03500675748418854, ,4.307910380205787e-05, ,0.5137470817249112,-0.040459397528062206,0.14764354213000003,-3.3778952995922027,0.9803668858170351,-0.337366826046663, ,-0.02691348314193726,-0.0445734812393005,-0.002613422726825267,-0.06238342062018717,-0.0032640385506490363,-0.05506338642232024, ,0.5426158905029297
0.06545935518696104,0.01312362922088245,-0.11991445895877488, ,0.06529594666380781,0.01345866566253101,-0.11971843100497025, ,0.0004211635327808918, ,-0.004607408494874058,0.006120128390157105,-0.00012641026760438654,0.04486131917541858,0.008592626048619293,0.0230953459694414, ,0.007661603233423174, ,0.045676812285558956, ,4.3290822780300726e-05, ,0.5126736218553941,-0.042251071554882294,0.14756317215,-3.378943749309625,0.9791371573191462,-0.3379976397162064, ,-0.0282768002260044,-0.04564547453509898,-0.0015041107996410076,-0.029187193017477405,0.0,-0.036424614694728005, ,0.5759580135345459
0.06532875395508257,0.013302331534474948,-0.11992401651631841, ,0.06514749520792217,0.013640439794681934,-0.11971656846372025, ,0.0004361268434402137, ,-0.004727939504404623,0.00594779600056595,-0.00023319936098069771,0.04768265394788533,-0.005276378263375934,-0.0010394228427049257, ,0.0076015834642276965, ,0.047973697534086424, ,4.356932241154328e-05, ,0.5118163985063552,-0.04362571800649426,0.14751650571000002,-3.379363129196595,0.9777707923214919,-0.33819032052149134, ,-0.029636771254987752,-0.0448261415014033,-0.0015609332976587295,-0.027795319389974035,-0.012121721150980884,-0.06090913413883755, ,0.609015941619873
0.06518462280242503,0.013470591958825004,-0.11992462337277937, ,0.06499968495509853,0.013821673861370492,-0.11971485056794506, ,0.00044884868198176794, ,-0.005070216517073752,0.0053598184331640295,9.931176315040825e-06,-0.0460474791430528,0.023504906963842834,0.07612713983936037, ,0.00737799754640481, ,0.051699622695033184, ,4.389162229948577e-05, ,0.5109514524244421,-0.044930859862238194,0.14745687637000002,-3.3806212688575017,0.9766777003233683,-0.3384424796538877, ,-0.028739231241208592,-0.04247848771641485,-0.002217262182628062,-0.07492523356226076,-0.04441874061780004,0.017066341397472026, ,0.6421968936920166
0.06500234264103913,0.01367908136692507,-0.11992030774389749, ,0.064852513969768,0.014002368622707389,-0.1197132766300393, ,0.0004120984865192955, ,-0.0043784053780610765,0.005013693744623064,0.00012017720239827637,-0.002356376309432416,0.004015865365881457,-0.00432285928835399, ,0.006657477088168076, ,0.004656144751673918, ,4.3983913574209686e-05, ,0.5098316561576794,-0.046552633765825344,0.14737521010000001,-3.38146002863144,0.9750380623261831,-0.3389840758327636, ,-0.027128914110483356,-0.03927853541327433,-0.0020294624494620163,-0.016486956633505717,-0.04771519641674183,-0.021784573946443255, ,0.6750519275665283
0.06486390461884486,0.013836006382922974,-0.11992452221569276, ,0.06470598031921564,0.014182524838927481,-0.11971184596386797, ,0.0004361723430656421, ,-0.003944615242776159,0.005095900376533296,-0.0006891977318069806,-0.028097676101538308,0.019140502184978456,0.025586521598606422, ,0.006480986311868132, ,0.03399762089029123, ,4.4191733785022854e-05, ,0.5089667100757663,-0.04776510282707859,0.14732206221000002,-3.3822987884053783,0.974081606827825,-0.33959268908927825, ,-0.02676923598264338,-0.03987266452036587,-0.001126277451303548,-0.02656459834746931,-0.05184997667594902,0.011839333827760659, ,0.707028865814209
0.06472663712780163,0.013990512450856769,-0.11992577673099508, ,0.06456008207357777,0.014362143270388584,-0.11971055788476409, ,0.000460618284359621, ,-0.004717273683227289,0.0051590313022187705,-4.237176162667257e-05,-0.01507033081456125,0.014726235432816067,0.06476723002811478, ,0.006990713150024481, ,0.02107075890619609, ,4.4501549944108644e-05, ,0.5081326549253501,-0.048954403689709165,0.14726891432000003,-3.3833472381228002,0.9733984243289978,-0.34050581689332626, ,-0.02687537285711435,-0.04022761405615548,-0.0018368403924229097,-0.06958811077370386,-0.02340127798968914,-0.006233183241651967, ,0.7394790649414062
0.06459393365218098,0.01415455946583736,-0.1199228325791342, ,0.06441481730584135,0.014541224677570342,-0.11970941170952812, ,0.0004765932427909447, ,-0.004463078974088719,0.005427763941081572,0.0003154625243991958,0.04211014148231344,-0.0021531117063041914,-0.00014753038167651927, ,0.007034146141029378, ,0.04216515036947316, ,4.4860414535117916e-05, ,0.507306322507808,-0.05019776368245931,0.14721187756,-3.383556928066285,0.9720320593313434,-0.34086185517889206, ,-0.0264557963642238,-0.04117003972167929,-0.0019246649562883428,-0.02185067991948369,-0.01174346124776006,-0.04527536816596971, ,0.7724199295043945
0.06441539419828157,0.014366098412374208,-0.11991673364516554, ,0.06427018409184146,0.014719769821072815,-0.11970840675642606, ,0.00043539583474704605, ,-0.004726338247851633,0.005475703385302909,0.0002487181196571078,0.03627229405348075,-0.00582752884174854,0.008830737708911749, ,0.0072376419847881915, ,0.036737438782576924, ,4.500363672485088e-05, ,0.5062174171725424,-0.05188904218191448,0.14713021129,-3.3848150677271924,0.9702557848343927,-0.341782105894915, ,-0.02758632022048569,-0.041952670892338985,-0.0019708997178916115,-0.037800134674354585,-0.013932163370195375,-0.055656328600465446, ,0.8060500621795654
0.06428584698533832,0.014525702814507335,-0.11990848984834838, ,0.0641261805102599,0.014897779461615572,-0.11970754234518904, ,0.0004520114087202335, ,-0.004427894389232875,0.005437184484619553,0.00018880519864314794,0.022125410792532454,0.0033363008388422426,7.560885303147923e-05, ,0.00701461839625095, ,0.022375538117005617, ,4.5207891847444687e-05, ,0.50544514388512,-0.053147847640413075,0.14706798937,-3.3856538275011303,0.9687527833369728,-0.34219008375706556, ,-0.02714443408423077,-0.04186014184317194,-0.001870896349541931,-0.01710515983553605,-0.027680677612182812,-0.03211958668832653, ,0.8394880294799805
0.0641562066190603,0.01468873396044932,-0.11990207068925952, ,0.0639828046426234,0.01507525436003631,-0.11970681779701108, ,0.00046646538634768117, ,-0.004340893647627214,0.005395113552733063,-6.991320376214345e-05,-0.04910027217474139,0.02148334582909482,0.025385328852821857, ,0.006924990668799097, ,0.05359450415524123, ,4.5648237442268735e-05, ,0.504657425131949,-0.0544143758317859,0.14701095261000002,-3.3862828973315837,0.9676596913388492,-0.3428506365901649, ,-0.027514335041597792,-0.04323323077834659,-0.0019209854703328513,-0.025176425544781212,-0.0725893200997291,0.025553544655224292, ,0.8679399490356445
0.0640203310030198,0.014851936923913546,-0.1198997311010063, ,0.06384005457330197,0.01525219527728967,-0.11970623243454799, ,0.0004797375058094992, ,-0.005072483481150064,0.005581199178869081,-0.0002856348873982344,-0.03744917294740505,0.0003081778219869262,0.04772018356636244, ,0.007547281645045995, ,0.03745044095888081, ,4.611389437833113e-05, ,0.5038465381801555,-0.055696349488907164,0.14695391585,-3.3875410369924905,0.9664299628409603,-0.3438898439604112, ,-0.03002117733580221,-0.04493226399548806,-0.0019489552820261841,-0.07913610760785574,-0.05945421553252848,-0.02151556288128206, ,0.897454023361206
0.06388029255702643,0.015025166680505598,-0.11989508623762259, ,0.06369792838950719,0.015428602974446098,-0.11970578558191647, ,0.000481510406028984, ,-0.004834023691692207,0.006017122246870227,0.00014428870716568453,0.024437549531962744,0.002277565720842683,-0.02275219202066904, ,0.00771973862359586, ,0.024543453969233634, ,4.65571985161356e-05, ,0.5029661466324938,-0.0570632732076449,0.14689039764,-3.3879604168794604,0.9646536883440096,-0.34472841593629344, ,-0.031062828660710567,-0.04658661833994638,-0.0020327732924961717,0.0,-0.04250138316153276,-0.036528151937395614, ,0.9272239208221436
0.06372255375528763,0.015209547560748084,-0.11988988949910555, ,0.06355642418129019,0.01560447821269064,-0.11970547656469283, ,0.00046645191132532824, ,-0.005612937122257196,0.006232231294496818,0.0002128582830365946,-0.004328831720303522,0.009003128909873172,0.029474630426501804, ,0.008389939135367768, ,0.009989750458870355, ,4.691595547489989e-05, ,0.502039418687587,-0.05847653332362799,0.14682299056,-3.3890088665968827,0.9631506868465897,-0.3452180725385846, ,-0.033544341307342095,-0.04916939977122838,-0.0024222645255474458,-0.04896511003272536,-0.043033760247222184,-0.02059477052571878, ,0.9569830894470215
0.06356767449579444,0.015394062206743843,-0.11988893823803438, ,0.06341554004154049,0.015779821753321682,-0.11970530470991095, ,0.0004535158129527009, ,-0.005219744384492059,0.006260683714490739,-0.0003291297415979964,-0.023123143430935456,0.023902426159857295,0.02113474855697095, ,0.008157831721672757, ,0.033256664572007814, ,4.720554128657953e-05, ,0.501043186146812,-0.05995929803547909,0.14675947235,-3.389847626370821,0.9617843218489353,-0.34565578956429105, ,-0.034333191591342536,-0.04927151690470964,-0.0018656957687145685,-0.02129094438370794,-0.05970122474252101,0.010881090145174153, ,0.986177921295166
0.06341534862976798,0.015583978535297109,-0.11989171666093662, ,0.06327527406598357,0.015954634357749832,-0.11970526934606172, ,0.0004379146302209561, ,-0.004431624969403906,0.006041384580056211,-0.00028880997502125916,-0.024446178671888856,0.00961902878174538,0.003356794111313905, ,0.007498068999099496, ,0.02627054179802841, ,4.7422340926609454e-05, ,0.5000932900032824,-0.061395726350084855,0.14670502817,-3.390476696201274,0.9605545933510463,-0.34653163945425614, ,-0.029851192689043973,-0.047401069709525866,-0.0016239693530696764,-0.01848596436532468,-0.0703002608829142,-0.004100895393655241, ,1.0176100730895996
0.06326772124066525,0.015766150959567366,-0.11989624749661473, ,0.06313562435317993,0.01612891678749669,-0.11970536980309181, ,0.00043067728925633923, ,-0.004867689395222284,0.006176202507014438,0.00022095600972555263,0.028836522057134703,0.004101393895435504,0.00344710745165792, ,0.007866937079591062, ,0.029126730613598436, ,4.760170652746072e-05, ,0.49915111659262695,-0.06287076832906173,0.14664928770000002,-3.3917348358621813,0.9590515918536265,-0.347102974796688, ,-0.030040184095748903,-0.047212408735557605,-0.0021988212066097112,-0.06896613172625024,-0.05353659088832952,-0.014767740825505894, ,1.0468730926513672
0.06312802679538475,0.015940871477471006,-0.11988866016222162, ,0.06299658900452258,0.016302669804193634,-0.11970560541240156, ,0.0004262428457085267, ,-0.004209545243127694,0.005724715717285641,0.0003470569248717602,0.017665366590433995,0.0045016758602995244,-0.014154091702207444, ,0.007114287716052654, ,0.018229927655523764, ,4.7756227593749295e-05, ,0.4982707250449654,-0.06423769204779947,0.14658836207,-3.3919445258056657,0.9576852268559721,-0.3477040493026755, ,-0.0264557963642238,-0.04451076058089624,-0.001875428219085073,0.0,-0.04040282047851401,-0.023748675751394218, ,1.076145887374878
0.0630343614662947,0.016052969051512253,-0.11988546733674695, ,0.06285816612423595,0.01647589416958067,-0.11970597550684456, ,0.0004920648037180578, ,-0.004725860317855936,0.005486045500733593,0.00010951889733401207,-0.013207428762013446,0.0020290241836288473,0.03908051225344052, ,0.007241715637117904, ,0.013362376796117178, ,4.812051561682236e-05, ,0.4977224110108954,-0.06512580632833528,0.14654947337000002,-3.392992975523088,0.9568654078573794,-0.34809736550232423, ,-0.027450662874883073,-0.043650847083013235,-0.0019309990932234213,-0.06052198455344237,-0.04109966761117341,-0.022399569424596522, ,1.105334997177124
0.06290369545141693,0.01621794137383512,-0.11987967699308294, ,0.06272035381937396,0.016648590645505192,-0.11970647942072583, ,0.0004990694824376032, ,-0.0042486001437869,0.005280731240501909,0.0001297327094857718,-0.01977634587369898,0.011861082092582123,0.0033036677935320063, ,0.006778905235516235, ,0.023060553430547647, ,4.848859741521921e-05, ,0.49690380132622763,-0.066423225451205,0.1464937329,-3.393412355410058,0.9554990428597251,-0.3486167612681713, ,-0.027043870492582153,-0.042120258126263105,-0.001874495989170075,-0.012526470555129985,-0.059673652635934715,0.0009623196878261776, ,1.1345598697662354
0.06277581591058617,0.016383933517702867,-0.11988148371824962, ,0.06258315019981792,0.016820759993920766,-0.11970711648980063, ,0.0005082729353288132, ,-0.004494647700259315,0.0056918284100474364,-0.00021337360547258482,0.009050992871714684,0.010055940052741482,0.03294952411638231, ,0.007255638972163778, ,0.013529316402101029, ,4.8867101050461535e-05, ,0.4961006371073083,-0.06772064457407473,0.14644836275,-3.394251115183996,0.9544059508616015,-0.34935899284141125, ,-0.028026267441958293,-0.04411759254229232,-0.0013704503171728774,-0.04082612310056305,-0.023888252781984115,-0.018380161011648445, ,1.1631109714508057
0.06264543248072614,0.016553463099073608,-0.11988743170925856, ,0.062446553378275704,0.01699240297688602,-0.11970788605127311, ,0.0005142545644200873, ,-0.004630947462972593,0.005569989799317778,-0.0002194677557817307,-0.017375563493526716,0.00829868000149103,0.03559506860807666, ,0.007246973634914389, ,0.019255604287706087, ,4.924537637566519e-05, ,0.49527430468976624,-0.06905667736131557,0.14640428889,-3.3952995649014186,0.9530395858639472,-0.34996006734739893, ,-0.028695779122609847,-0.04422038283246542,-0.0015865350119521914,-0.049845279814693826,-0.04564905827068064,-0.010986646172372425, ,1.1919689178466797
0.06255212593469203,0.016668213100952917,-0.11988496001212057, ,0.06231056147027902,0.017163520356563395,-0.11970878744379589, ,0.0005785494289666563, ,-0.005068382090656156,0.005919397897076904,0.0002610894372347429,-0.006473288789276331,0.005428754776463336,0.0021623957152476234, ,0.007797174884215313, ,0.008448363520371583, ,4.9947573956256784e-05, ,0.4946873769913252,-0.06996795984047406,0.14636540019000002,-3.3957189447883875,0.9519464938658235,-0.35053894144035747, ,-0.02982304888701156,-0.04695543867316713,-0.0019712583560691486,-0.03287175050099307,-0.06414400543196833,-0.010206789927344962, ,1.2173340320587158
0.06239584167644194,0.016849526671738647,-0.11987819157140421, ,0.06217517259418217,0.017334112895217926,-0.119709820007467, ,0.0005584511038523804, ,-0.00556022729449851,0.005961527827311314,3.608390366485075e-05,-0.015038784859225421,-0.004238291517427016,0.05428813320464155, ,0.008152131233634372, ,0.01562460127583298, ,5.056174479789967e-05, ,0.4937452035806698,-0.07141211088795404,0.1462992894,-3.3969770844492944,0.9504434923684038,-0.3513553130032109, ,-0.03184461126123181,-0.047903554547436035,-0.0021458724936009705,-0.08827678790507316,-0.04237039747013823,-0.03798916077856466, ,1.2421789169311523
0.062290028831168666,0.01697838953340303,-0.11987460012825904, ,0.06204038487116072,0.017504181355216072,-0.11971098308383014, ,0.0006046070491497563, ,-0.005271818265078908,0.006855228364474315,0.00030308885490794866,0.03377948799808195,-0.0014610657762242386,-0.02841720698873723, ,0.008653212501902527, ,0.03381107100662472, ,5.128415066407967e-05, ,0.49272580284127215,-0.07295665746279895,0.14623188232,-3.3973964643362637,0.9485305813716876,-0.35216414581553734, ,-0.03378317606211135,-0.053463065666744095,-0.002145294480808081,0.0,-0.04558580513790748,-0.04718109239611242, ,1.2676410675048828
0.06212447744231725,0.017179021974708178,-0.1198723797946029, ,0.0619061964252087,0.017673726499024517,-0.11971227601587271, ,0.0005639258717000696, ,-0.0058509247055176985,0.007039199948014073,-0.00022387686428288161,-0.007477660679680423,0.005043568258810657,0.049203999310490944, ,0.009156078673106726, ,0.009019589237970901, ,5.1863068226372077e-05, ,0.4920462023483404,-0.07402239459944193,0.14619169733,-3.3984449140536865,0.9477107623730949,-0.35304753445602954, ,-0.03563535169300442,-0.05569069340285844,-0.0019042213413030488,-0.07162776625963053,-0.04462405841350567,-0.027822694525339135, ,1.2929890155792236
0.06195842829235359,0.017398152148286272,-0.11987966036545362, ,0.06177260538313817,0.017842749089208968,-0.11971369814802443, ,0.000509646986728182, ,-0.005374557552878813,0.007156933625181366,-0.00018771371740099792,0.01220701116552644,0.008450995323927155,-0.019166872467198975, ,0.008952251350591028, ,0.014846900133035365, ,5.226917766998309e-05, ,0.4909418515473263,-0.07573684129751977,0.14613854944000002,-3.3988642939406555,0.9460711243759097,-0.353670809375046, ,-0.03645675818612016,-0.056152036425130634,-0.001781726446036439,0.0,-0.06009155036091497,-0.025247559531002314, ,1.3184070587158203
0.0618438433614008,0.01754053107754139,-0.11988572985223145, ,0.06163960987457649,0.01801124988843296,-0.11971524882615688, ,0.0005406951972405761, ,-0.005742241656070863,0.006961824652527449,-0.0002921754422554018,-0.015511983637628624,-0.0012529057264272364,0.038706614049458965, ,0.009029158776891208, ,0.015562500092638399, ,5.2744207435066494e-05, ,0.4902159146571492,-0.07686436029715654,0.14610225332000001,-3.399912743658078,0.9449780323777862,-0.3543313622081453, ,-0.03542252391133661,-0.055625405368388496,-0.0018679494254683641,-0.07074700029268971,-0.05791983097606554,-0.032821887796891235, ,1.3433759212493896
0.06168101012413245,0.017749951897258892,-0.11988696160642057, ,0.06150720803196524,0.018179229659456692,-0.11971692739758066, ,0.0004933540275857317, ,-0.005139607177552934,0.006783129721159875,2.6337507910796946e-05,0.004310493787979744,0.008903314786828972,-0.017024826279333632, ,0.008510411530470136, ,0.009891884092000845, ,5.30752596365072e-05, ,0.4891501775205062,-0.07851702513224058,0.14604392027000002,-3.4003321235450468,0.9432017578808354,-0.3553332916643087, ,-0.03419709605710659,-0.05355357875760201,-0.001914323235053618,0.0,-0.06261998327874702,-0.018552524516122604, ,1.3692519664764404
0.061570690097731896,0.01788168215118136,-0.119891744008732, ,0.06137539799055804,0.0183466891651358,-0.11971873321104576, ,0.0005332009623652802, ,-0.005640780079812167,0.006584975115658054,-0.0002481519035069659,-0.008553713232211047,-0.002193097282254414,0.03756659678229744, ,0.008674207545929236, ,0.008830384235600007, ,5.349849038234419e-05, ,0.488455131561826,-0.07956731680313513,0.14600762415000001,-3.4013805732624696,0.9421086658827119,-0.3559121657572674, ,-0.03464656500856911,-0.05260362614105919,-0.0018236669867649183,-0.06985533017414998,-0.049775240403301065,-0.03691566020505717, ,1.3941988945007324
0.06140992639002179,0.01808013995646089,-0.1198944410398071, ,0.06124417788841915,0.018513629168420108,-0.11972066561673934, ,0.0004955636793903716, ,-0.004954544669790961,0.006282066535828853,-0.00014696989361689407,0.018618637857123956,0.0035858926413785755,-0.023769520110996502, ,0.008002091788724028, ,0.01896080962644323, ,5.3809735232508616e-05, ,0.4873971171580573,-0.08113503157660269,0.14595188368,-3.401799953149439,0.9404690278855267,-0.3568621556368461, ,-0.03353248818320522,-0.04934838354574663,-0.001634158773001237,0.0,-0.05084674178552512,-0.03366585871931689, ,1.4207398891448975
0.06130699434911469,0.01819950711676443,-0.11990220077282412, ,0.06111354586642136,0.018680050432352546,-0.11972272396628428, ,0.0005482299861358493, ,-0.005203928025425994,0.006006296452242207,-0.0002039230881560254,-0.016948172207874767,-0.0033413393289371904,0.018225987953860392, ,0.007949720032297646, ,0.01727440562505352, ,5.424297220096389e-05, ,0.4867484075966224,-0.08210037318588076,0.14591947643000003,-3.4030580928103458,0.9392392993876376,-0.35741129056624904, ,-0.032745666514310136,-0.048540635068271505,-0.0018021324074384872,-0.05237339340675628,-0.06191325042421897,-0.03154228849256126, ,1.4466359615325928
0.061157246554696634,0.018383925800991064,-0.11990641409217338, ,0.0609835000682452,0.018845953720067848,-0.11972490761273862, ,0.0005259298828146639, ,-0.004935026460173616,0.006185805252044326,3.1109924132242603e-06,0.022130991840059393,0.007212265047126746,-0.017317393825648168, ,0.007913196728068037, ,0.02327654542527266, ,5.46058235096684e-05, ,0.4857444523229732,-0.0835599696991092,0.14586892112000002,-3.4032677827538302,0.9375996613904524,-0.35819792296554664, ,-0.03285905178617409,-0.04846626228726802,-0.0016914423961069062,0.0,-0.042886768103146795,-0.029047612024646317, ,1.472395896911621
0.06105854293828804,0.018500080721580266,-0.11991236472536694, ,0.06085403864037585,0.01901133979479145,-0.11972721591059372, ,0.0005809371148560255, ,-0.005287165992185234,0.005762058802197448,-0.00029720910762983397,-0.035171510654177764,0.000878063067485918,0.040098498407492716, ,0.007825840473876225, ,0.03518246944782899, ,5.509044875427412e-05, ,0.485118910960161,-0.08449442037689037,0.14583781016000003,-3.404316232471253,0.9365065693923288,-0.3588584757986459, ,-0.032813603581767214,-0.047118640297155304,-0.0017862929097719688,-0.06938961019118078,-0.06461800082695777,-0.01863024884962411, ,1.4975030422210693
0.060904852228666,0.018690540997758687,-0.11990952915173408, ,0.060725159732102456,0.019176209419838167,-0.11972964821577292, ,0.0005481973738068026, ,-0.005016136405512114,0.006378901374270836,0.0001842441195603916,0.0014111370826880984,0.0036669615077026593,-0.024032118579977935, ,0.008117016266890867, ,0.003929111167313881, ,5.561365712273844e-05, ,0.48412267841938605,-0.08600807602023837,0.1457807734,-3.4047356123582215,0.9348669313951435,-0.3599718231585056, ,-0.03307666140065207,-0.05099244575952218,-0.00200741165973535,0.0,-0.06694317381682031,-0.024013967108539695, ,1.5194170475006104
0.060799970974990604,0.01881173958994464,-0.11990922183545616, ,0.06059686149551611,0.01934056335861118,-0.11973220388563083, ,0.0005935009633685924, ,-0.005712128783686826,0.0065995670245111646,-5.732250359730237e-05,-0.026616262826605865,-0.0037112070051417145,0.044815429949377185, ,0.008728458398930326, ,0.026873751213590823, ,5.622934200575304e-05, ,0.4834739688579512,-0.0869965858281391,0.14574058841,-3.4057840620756443,0.9335005663974891,-0.36024618270393105, ,-0.034345617646931156,-0.053674740700492524,-0.002039018371735791,-0.07880162791112222,-0.0631693987212001,-0.029413759957205077, ,1.5407640933990479
0.06068386022967907,0.01895900614920961,-0.11990586553025512, ,0.06046914208550801,0.019504402374600632,-0.11973488227895138, ,0.000610570386059983, ,-0.0054986173305328345,0.0070000013829178715,-1.4703159927051661e-05,-0.011139221765785455,0.0019581591060307208,-0.00043194783506027767, ,0.008901405961498441, ,0.011310024254256906, ,5.686764652450413e-05, ,0.4827171410362772,-0.08817044122502123,0.14569651455000002,-3.4059937520191292,0.9321342013998347,-0.3610106146901997, ,-0.03562197505948603,-0.05625189185445807,-0.00197956664754371,-0.027437836267713744,-0.07266720849385006,-0.024541129125028233, ,1.5625619888305664
0.060566796335495963,0.0191006397481279,-0.11990652214992198, ,0.06034199965976781,0.019667727231382586,-0.11973768275594673, ,0.0006329522099183252, ,-0.005883016799949284,0.007022925592502994,-0.00014824942807235147,-0.013194382094005185,-0.0043181063751844325,0.027440162128926547, ,0.009162605985157434, ,0.013883002611467484, ,5.75398730931016e-05, ,0.4820066496118485,-0.08927479202603533,0.14565632956000002,-3.406832511793067,0.9307678364021804,-0.36161168919618736, ,-0.03652692130811038,-0.05679050961009622,-0.0019550157664705785,-0.024496753409822394,-0.06367193022679282,-0.03400795150420514, ,1.5840930938720703
0.06045281774130407,0.019248203259077425,-0.11990916379480429, ,0.06021543237878199,0.019830538692617763,-0.11974060467825612, ,0.0006510595543173104, ,-0.005734703882947009,0.00763837526606065,-0.0003709320424920839,-0.006437290498233609,0.0030582873239269988,0.004982997458577514, ,0.009558723550265588, ,0.007126838732168299, ,5.823491926528046e-05, ,0.4812420990573003,-0.09048726108728858,0.14561873715,-3.4076712715670054,0.9295381079042914,-0.3624875390861525, ,-0.03820327760002849,-0.06087039227611981,-0.0016427201720190833,-0.03227670740340136,-0.07103608766122371,-0.02712235073516374, ,1.6058809757232666
0.060334241203075845,0.019405183197616707,-0.11991446005893977, ,0.060089438405832196,0.019992837522050347,-0.11974364740894469, ,0.0006591228838101536, ,-0.00595830011555527,0.007760145226277203,6.4133546750974e-05,0.011259514555891404,0.001971993068966566,-0.015004679872621622, ,0.00978393107660503, ,0.011430897808063134, ,5.892934385769856e-05, ,0.4804466575712552,-0.09173834381291295,0.14558244103,-3.408090651453974,0.9280351064068715,-0.36297719568844367, ,-0.0391166288369624,-0.06170152246974693,-0.0020659728013645755,-0.014178935926771101,-0.0667687795357224,-0.03648987349500127, ,1.6278769969940186
0.06015138439418694,0.01964147454270556,-0.11991298109390036, ,0.05996401590699294,0.02015462448350681,-0.11974681031250176, ,0.0005710013487972847, ,-0.0059572701569368045,0.007777549080653425,-5.0894041449707494e-05,-0.022835459375839837,0.0027678017778428946,0.004593894422568257, ,0.009797036675860607, ,0.023002585323981778, ,5.941037325073195e-05, ,0.47927280217437307,-0.09363813609997218,0.14551762653000003,-3.4091391011713967,0.9257122859108591,-0.3640235259706647, ,-0.038765090505911266,-0.06288730388235307,-0.002082197584313726,-0.03362362006854107,-0.08726224385655498,-0.019667316106798387, ,1.6500670909881592
0.06003463858131453,0.019792458947803487,-0.11991497824351526, ,0.05983916305113097,0.02031590034089469,-0.1197500927548395, ,0.0005825708534398594, ,-0.00599739833098453,0.00775639063661792,-0.00014295863708240234,0.012431867298047133,0.0036123091595803318,-0.015291800059521438, ,0.009805652432154968, ,0.012946045804825565, ,5.9904060180722054e-05, ,0.4785005288869506,-0.0948428824283512,0.14548003412000002,-3.409558481058366,0.9243459209132047,-0.3647062792167929, ,-0.04022761405615548,-0.061581402698553396,-0.0018568247760937906,-0.012965411214967582,-0.0656667560046721,-0.03596683178788792, ,1.6715099811553955
0.05990731333896189,0.01995061763960191,-0.1199175372318352, ,0.05971487800990228,0.02047666585820148,-0.11975349410329253, ,0.0005836679125873951, ,-0.006299041469655917,0.007645471562169668,-0.00010242822237419924,0.04687409390837143,-0.002659490301427671,0.029989343952993807, ,0.009906646778054055, ,0.046949478893745046, ,6.038734369689244e-05, ,0.4776819192022828,-0.09609396515397557,0.14544244171,-3.4103972408323044,0.9233894654148465,-0.3655599286937291, ,-0.0391166288369624,-0.05960863163220527,-0.0016747219812717946,-0.059993256047590086,-0.014958219146164532,-0.06384408190566258, ,1.6941659450531006
0.059795873109341056,0.020099313378363844,-0.1199239518764984, ,0.05959115895775137,0.020636921799493172,-0.11975701372661549, ,0.0005989983674573623, ,-0.005409529660873016,0.007409613492939666,-0.0002325138973235353,-0.012990164412532635,0.02262474050605054,-0.000753460819024665, ,0.009177115340839249, ,0.026088757241975954, ,6.0890906048543526e-05, ,0.4769173686477346,-0.09727554328373192,0.14541133075,-3.410606930775789,0.9220231004171922,-0.3655892520187328, ,-0.03744946391415579,-0.058905612388870744,-0.0015849285674793406,0.0,-0.0720308081069441,0.008419098284946514, ,1.7162530422210693
0.05967460781005938,0.02024558206145971,-0.11993069313390631, ,0.05946800407190919,0.02079666892891344,-0.11976065099498227, ,0.0006126142090316351, ,-0.005940645727741793,0.006991803368257104,-0.00033615301900098574,0.0009135330291667899,-0.004222494819797554,0.024918130916217585, ,0.009180935946573838, ,0.00432018577130562, ,6.141037826018297e-05, ,0.47614509536031213,-0.09844167594773982,0.1453789235,-3.4118650704366957,0.921066644918834,-0.36644290149566916, ,-0.03797396620987226,-0.0560856628596163,-0.0016438290395003401,-0.06091331209071857,-0.05290183710796403,-0.044136527312976674, ,1.7385680675506592
0.059513897380917336,0.020454617112025418,-0.11994463226022492, ,0.05934541153239128,0.02095590801068223,-0.1197644052799853, ,0.0005587144267297856, ,-0.005386638766961241,0.006922065094562097,-0.0003414200381533323,0.00677563000675279,-0.005530891428786659,-0.027342015083850764, ,0.008777666547638804, ,0.008746423382470683, ,6.180509227920515e-05, ,0.47502529909354957,-0.10012523171432076,0.14533484964,-3.4122844503236647,0.9186071879230561,-0.3673778138741938, ,-0.03709810068743971,-0.05546285304410916,-0.0015183771684596078,-0.012272607622394627,-0.07176168353760151,-0.04440068484206935, ,1.7613260746002197
0.059457691246105136,0.020521093457718177,-0.1199489541640749, ,0.05922337952199611,0.021114639809094473,-0.11976827595463262, ,0.0006632072607068833, ,-0.005575978240786038,0.006501856358092644,-0.0003731737461156353,-0.03224883708421247,-0.006918746448453715,0.018626696286132782, ,0.008573501506839495, ,0.03298267038464383, ,6.253236496772846e-05, ,0.47466233064846103,-0.10066582301551648,0.14531929416,-3.4129135201541185,0.9179240054242289,-0.3678008692373984, ,-0.036123693018070335,-0.053493202682339785,-0.001699587856724484,-0.05964436667696695,-0.08160276399732985,-0.030428581257799, ,1.779378890991211
0.05934892289321775,0.02065445248601344,-0.11995181696532368, ,0.05910190622630356,0.021272865088519062,-0.11977226239334834, ,0.000689703722614585, ,-0.005353670589568666,0.00666772102669882,-5.814378215741986e-05,-0.000714290912298059,-0.007081913579409422,-0.029460841861914316, ,0.008551238107484649, ,0.007117844579197776, ,6.329871028841127e-05, ,0.47394411649115814,-0.10175472835078214,0.14528299804000003,-3.4135425899845724,0.9162843674270437,-0.3684241441564149, ,-0.03604137544947618,-0.054041538472933255,-0.001818681773896841,-0.01193382042234811,-0.07784930868385757,-0.041982842166013, ,1.7985188961029053
0.05923431155649071,0.020795035149294552,-0.11995352805778967, ,0.05898098983367302,0.02143058461339762,-0.11977636397197045, ,0.0007067404968424985, ,-0.005778102040708861,0.006939573819620201,-0.00013643745826147488,-0.019884468317346974,-0.008162860237222295,0.008758045524730241, ,0.009031210504180426, ,0.021494752092452715, ,6.408391540994133e-05, ,0.4732027341352326,-0.10289769281616737,0.14524540563000002,-3.41438134975851,0.9147813659296238,-0.36940387319954937, ,-0.03715620264622975,-0.05679050961009622,-0.0018933690183256865,-0.050980743378742234,-0.07957034398891245,-0.03729922008503891, ,1.8163950443267822
0.059121906623658384,0.020939559639945718,-0.11995570484139889, ,0.05886062853524167,0.02158779914824325,-0.11978058006774973, ,0.0007205202189738925, ,-0.005708168580424474,0.00752847591385518,8.373667257604851e-05,0.0009854594722877993,-0.0017497350630529557,-0.029087461526989322, ,0.009448182362675736, ,0.0020081591476769673, ,6.4880928640866e-05, ,0.47246135177930704,-0.1040715482130495,0.14520910951000002,-3.4150104195889637,0.9131417279324385,-0.37002714811856585, ,-0.03835769666874324,-0.06071461392096659,-0.001970093595956103,-0.005553890875806119,-0.08187038311065356,-0.034866224427170515, ,1.8349730968475342
0.05900026572912898,0.02109699181124424,-0.11995548217473957, ,0.05874082052492269,0.021744509457639352,-0.11978491005934823, ,0.0007181126394429972, ,-0.006163383801169919,0.008305442052634386,0.00014586068590381773,0.0076867614907301235,-0.004096658848328232,-0.0077545085477211916, ,0.010343545954356454, ,0.008710276455713541, ,6.565747301214543e-05, ,0.47166591029326194,-0.10534579913729654,0.14516892452000002,-3.415639489419417,0.9115020899352533,-0.37073210177772287, ,-0.0399566069719877,-0.06664111064499352,-0.0020278563360916616,-0.02795703526185666,-0.07310633118029926,-0.04259422314239086, ,1.8529720306396484
0.058873840100328256,0.021268746479594758,-0.11995472874185459, ,0.05862156399940396,0.021900716306238452,-0.11978935332683845, ,0.0007002700341849486, ,-0.006491964080705418,0.00834451363817374,-6.976018386290438e-05,-0.017058128011613577,-0.006986753070355404,0.02214105656770001, ,0.010572670994885328, ,0.018433514307551788, ,6.638400166277867e-05, ,0.47124115998517957,-0.10604856782885097,0.14514818388,-3.416268559249871,0.9106822709366605,-0.3711254179773716, ,-0.04120579312135075,-0.06778352968462198,-0.00202914796433121,-0.06274918505296885,-0.08240581851676876,-0.03839640985070381, ,1.8711249828338623
0.05880954352886932,0.021358595357162877,-0.11995622004072506, ,0.0585028571581456,0.022056420458761,-0.1197939092517015, ,0.0007793338146401549, ,-0.0061046755175381065,0.008862601519955769,-0.0002169922445453892,-0.007015581479943056,0.005754656823279051,-0.01610041569494906, ,0.010763821556963135, ,0.009073833735275937, ,6.72494055434871e-05, ,0.47040710483476333,-0.1074463824790856,0.14511059147000002,-3.416478249193355,0.9090426329394753,-0.37199372911680983, ,-0.042026989175584936,-0.07097751799436858,-0.0016930565550009706,-0.009367177144284158,-0.09146918820837932,-0.021022040273025844, ,1.8892090320587158
0.05867710146569921,0.021540085969744455,-0.11996377034427862, ,0.0583846982033789,0.022211622679994086,-0.11979857721682581, ,0.000750832864481899, ,-0.007040238455862345,0.009424261151444093,-0.0003543226266352452,-0.0002711875256689849,-0.0031230299748860792,0.03845010513048426, ,0.011768908202962884, ,0.0031347821133389515, ,6.804363128441519e-05, ,0.46953443601997596,-0.10889825625943982,0.14507818422000002,-3.4175266989107778,0.9075396314420554,-0.37264674319938207, ,-0.045189019789747986,-0.07537485429584652,-0.001708651658864856,-0.07369328734715974,-0.06808211322152709,-0.04344555167058138, ,1.9073519706726074
0.058537650792554546,0.021735164725388903,-0.11996998483154606, ,0.058267085340104524,0.02236632373479051,-0.11980335660650694, ,0.0007066345056590352, ,-0.006702979259487764,0.00955768010007315,-0.00028009794263230683,-0.005239026785268613,0.0075870908513103515,0.00043759848142307695, ,0.011677227183964705, ,0.00922015993585781, ,6.873891847461814e-05, ,0.4685845398764463,-0.11045052556715894,0.14504318439000002,-3.417946078797747,0.9058999934448702,-0.3734333755986797, ,-0.04549230180175972,-0.07640655520005699,-0.0017223911893681756,-0.024626843612936267,-0.08801072894545352,-0.022502324011444516, ,1.9258699417114258
0.058400353476596986,0.021924139446699076,-0.11997472006193985, ,0.05815001677609027,0.02252052438806722,-0.11980824680644446, ,0.0006678748435945985, ,-0.0069948895452576435,0.00948317800739627,-0.000232705870762026,0.011554305293260542,0.005763969286596782,-0.005384382633998611, ,0.0117861485181804, ,0.012912215640497137, ,6.934827984909466e-05, ,0.46766553466441363,-0.11195645847763272,0.14500818456,-3.4185751486282006,0.9043969919474503,-0.3741680684213924, ,-0.04728298034801733,-0.07555488977585254,-0.001804386940667798,-0.022990196670992696,-0.07667784617799413,-0.036007495392518116, ,1.9440639019012451
0.05825600702837654,0.022114630102310434,-0.11998213405021292, ,0.05803349072186997,0.02267422540480435,-0.11981324720374235, ,0.0006254463815111232, ,-0.0071387198735505,0.009436931221566611,-0.0003046102545818624,0.01369870378702411,0.0010589963970655371,0.006018450577332987, ,0.011836797697046274, ,0.013739576369510956, ,6.986728354046459e-05, ,0.46670019305513555,-0.11347783685385494,0.14497318473,-3.419413908402139,0.9028939904500305,-0.3749027612441053, ,-0.04759124451277371,-0.07525530654914415,-0.0017479218171842425,-0.03998563910928425,-0.07070530987413036,-0.04521624592532619, ,1.9628019332885742
0.05818730635220152,0.022211945704148958,-0.11998484660497195, ,0.05791750539074128,0.02282742755004398,-0.11981835718690657, ,0.0006923360367328579, ,-0.006843574331024636,0.009284022722988112,-0.00035399039850529234,0.007385270701346668,0.0020429589688240324,-0.007635442255060165, ,0.011539189605316866, ,0.007662630402183215, ,7.050012416598218e-05, ,0.46622138361693366,-0.1142501101412774,0.14495633296000002,-3.419413908402139,0.9020741714514379,-0.37529607744375404, ,-0.04665533016640648,-0.07419620137487942,-0.001660231903239064,-0.02570421415879469,-0.08078045765812121,-0.03911789707869639, ,1.980463981628418
0.05804473686120329,0.02239685730785101,-0.11999486310684285, ,0.05780205899876448,0.02298013158888887,-0.1198235761458442, ,0.0006545537830050737, ,-0.006949974799303016,0.009021131672089417,-0.00045872844166613535,-0.03868649453181265,-0.002357015518521424,0.03514304154538589, ,0.011397078491408016, ,0.0387582298526971, ,7.1182456192248e-05, ,0.46526376474052983,-0.11574832031887695,0.14492133313000002,-3.4204623581195612,0.9001612604547217,-0.37585987403565885, ,-0.04557970295795907,-0.07373499732592913,-0.0017706549044019567,-0.07274200184013052,-0.10052357220709372,-0.023955570616369548, ,1.9957780838012695
0.057977362913606015,0.02248645390387559,-0.11999906853163078, ,0.05768714976476009,0.023132338286501446,-0.1198289034718624, ,0.0007282488963596379, ,-0.006965181024314664,0.008776346958725027,-0.00043203102963345437,-0.034427560457427106,-0.0046883273528489575,0.017652024769310277, ,0.011212700988252618, ,0.03474532101473888, ,7.1988854504231e-05, ,0.4648081235009506,-0.11647425720905405,0.14490448136,-3.42088173800653,0.8992048049563637,-0.37622345107175176, ,-0.04626862094513446,-0.07194612703447369,-0.0018560763642625044,-0.06086072245649804,-0.10408716144314561,-0.030579687637723098, ,2.010511875152588
0.057838782895719504,0.022665800903772546,-0.11999790070277153, ,0.057572775910307905,0.02328404840810231,-0.11983433855766625, ,0.0006926342961543193, ,-0.00672372563069263,0.009077773359935277,4.584558962229639e-05,0.031744143123930736,0.0030590318534941888,-0.031613917345464704, ,0.011296749857780841, ,0.03189119468682996, ,7.271932179328767e-05, ,0.4638891182889178,-0.11790296279078559,0.14486559266000001,-3.4213011178934996,0.8979750764584746,-0.37750769466241973, ,-0.04579968221933918,-0.07216497456917931,-0.0018668083038373136,0.0,-0.06876687277131101,-0.04750709769812089, ,2.0249760150909424
0.057771776712933536,0.02274959400503562,-0.12000124509602077, ,0.057458935659744574,0.023435262718969344,-0.1198398807973586, ,0.0007707460974345821, ,-0.006778349544179486,0.008695960690423915,-0.00033295996355623986,-0.04513260514874922,0.008807524741357561,0.016038467173994198, ,0.011030712452503129, ,0.04598395959008452, ,7.357930173999275e-05, ,0.46344892251508707,-0.11859028601659156,0.1448474446,-3.4219301877239525,0.8970186209601165,-0.3777079142182315, ,-0.04579968221933918,-0.07135108387854945,-0.0018859346347548482,-0.04171985926196681,-0.10950447078074617,-0.003919413566360518, ,2.0396108627319336
0.05762266971653525,0.022939742084315394,-0.12000328343323083, ,0.05734562724016237,0.023585981984436295,-0.11984552958643806, ,0.0007206003180689041, ,-0.006784441414502069,0.009089235985300509,-0.0003671842705041729,0.01143903171445016,-0.0069776144409301345,-0.010623122282177455, ,0.011348025396155854, ,0.01339919959738143, ,7.433781261385207e-05, ,0.4624604127071863,-0.12013483259143647,0.14480466703,-3.422768947497891,0.8951057099634003,-0.3785984257706984, ,-0.04606647648469455,-0.07294153847691835,-0.001569099632235424,-0.03372165596156191,-0.07989393445062899,-0.05366048964014289, ,2.055161952972412
0.05755219887460368,0.023036492970873,-0.12000734690029657, ,0.057232848881407186,0.02373620696989171,-0.1198512843217975, ,0.0007848182126996934, ,-0.006605397825456277,0.009485873222808729,-0.0004046307016756308,0.03059587472527906,-0.005174131586952145,-0.04354982808963909, ,0.01156619199375839, ,0.031030294679297764, ,7.519906166375362e-05, ,0.46197388053611016,-0.12090710587885892,0.14478911155000002,-3.4229786374413753,0.8942858909648077,-0.37907342071048766, ,-0.04674726185146343,-0.07531503298291331,-0.0013871822737205478,0.0,-0.08076430231304868,-0.05896050800687452, ,2.0697319507598877
0.05741293257133687,0.023226711600232687,-0.12002680411806192, ,0.05712059881607692,0.023885938440777688,-0.11985714440172351, ,0.000740826208437143, ,-0.007158845749591232,0.009542259994297008,-0.000996407868182956,-0.03317230375175744,-0.004528259817551703,0.022817175477029855, ,0.011970656912006897, ,0.03347994732930642, ,7.597104405284508e-05, ,0.4610008161939579,-0.1224439297208296,0.14476577833,-3.424027087158798,0.8922363434683261,-0.37977083561911784, ,-0.04939976135266568,-0.07753018101182253,-0.001242993639653493,-0.06658967500145943,-0.1069615992188277,-0.03220972349683397, ,2.084407091140747
0.057342547996978466,0.0233249590533397,-0.1200326636662889, ,0.05700887527951971,0.024035177162588645,-0.11986310922589488, ,0.0008028050531348085, ,-0.007283064193235459,0.009814058787420334,-0.0007067588277456975,-0.00771345388620738,-0.00040425471823212714,-0.00135496104411179, ,0.012241661732229297, ,0.007724039922973232, ,7.684024418685802e-05, ,0.4605065612900075,-0.1232316484740005,0.14475151914,-3.4242367771022826,0.891279887969968,-0.38013441265521075, ,-0.05061170216451775,-0.07901493884968425,-0.0014286948872586842,-0.03845690597122931,-0.09713805633174363,-0.03855190667574097, ,2.098963975906372
0.057186209189250124,0.02353449112136596,-0.12004096059649107, ,0.05689767650983232,0.02418392390087019,-0.11986917819538026, ,0.0007311109597851749, ,-0.007787190973224077,0.010456765084288597,-0.00027283944947086676,0.015891897516407606,-0.002879701948441204,-0.0074100310407344645, ,0.013040656449989288, ,0.016150699365162387, ,7.757337564540082e-05, ,0.45944854688623876,-0.12490748150770722,0.14471781560000002,-3.4250755368762205,0.8896402499727828,-0.3812477600150704, ,-0.05263280175178634,-0.08383122045801306,-0.0018156182916128165,-0.03544704175145722,-0.08584778493890058,-0.0542107366409602, ,2.1137919425964355
0.05710795321802718,0.023634243707922695,-0.12004404457190279, ,0.056787000747858266,0.024332179421217903,-0.11987535071263834, ,0.0007865000738423067, ,-0.008184015110299425,0.010128077373173863,-0.0001758189382205567,-0.005579246454595006,-0.005069409846575463,0.034301007934606574, ,0.013022556081723844, ,0.007538362368158421, ,7.839159999464602e-05, ,0.45893112378366574,-0.1257183684595008,0.14469837125,-3.4257046067066743,0.8886837944744247,-0.38161133705116335, ,-0.05280853731690082,-0.08223305161045995,-0.0021030910377607607,-0.07829819774015705,-0.08407957111275687,-0.049056662805517785, ,2.129167079925537
0.05702602595389498,0.02374328662944977,-0.12004294806438101, ,0.05667684623718628,0.024479944489276075,-0.11988162618151596, ,0.000831033108182679, ,-0.007803831388694975,0.010829350049711325,-4.606114362255484e-05,0.010282645108376362,0.01660509472561199,-0.012168042160530298, ,0.013557470385374346, ,0.01221277503553275, ,7.92746489847554e-05, ,0.45784994118127426,-0.1274559833562013,0.14465559368000003,-3.4261239865936433,0.8869075199774739,-0.382204872806624, ,-0.05361409127597219,-0.08658480069203538,-0.0019491935949170396,-0.00641437271425258,-0.09026918454631588,-0.02198954234037024, ,2.1442079544067383
0.05686484311874274,0.02395924542911987,-0.12004484433829787, ,0.05656721122414827,0.02462721987073667,-0.11988800400724686, ,0.0007479127547898642, ,-0.007796813056006648,0.010672865825994221,-3.213012653611449e-05,0.014757610376442593,0.005931215757088888,-0.0007490386570889718, ,0.013217465381646447, ,0.015904916987523877, ,8.00048424743331e-05, ,0.45730934988007854,-0.12832865217098868,0.14463614933000002,-3.426753056424097,0.8860877009788813,-0.38259818900627274, ,-0.05231363922738191,-0.08549274014276646,-0.001922608511768256,-0.028945826040689314,-0.08285059091434262,-0.038908809057275284, ,2.1595520973205566
0.05678435800772017,0.024066625608393143,-0.12004584054269413, ,0.05645809395781797,0.024774006331337972,-0.11989448359644969, ,0.0007935645169921447, ,-0.008119081848272574,0.01107528813801428,-0.0002330262287853816,0.01985490348833117,-0.002224432555825692,0.03348706276151103, ,0.013734474821495394, ,0.01997912142028177, ,8.093831631846319e-05, ,0.4567842040446313,-0.12919359825290183,0.14461670498,-3.4273821262545505,0.8852678819802886,-0.38307318394606216, ,-0.05292634777382642,-0.08844076566493084,-0.001695585528841337,-0.06991285574645878,-0.0682308159744814,-0.05385527427297226, ,2.170306921005249
0.05670520261097925,0.024180016011833855,-0.1200481773536435, ,0.05634949269000913,0.024920304636863358,-0.11990106435712782, ,0.0008343854205152824, ,-0.00796405574280764,0.011301020817177515,-0.00038906251288603564,0.01857913798565295,-0.0016223977448654434,0.002182194911673768, ,0.013830785408781385, ,0.018649840287049857, ,8.193088422376503e-05, ,0.45624361274343556,-0.13008943526631186,0.14460114950000003,-3.4275918161980354,0.8845846994814615,-0.383659596789548, ,-0.05407233137234802,-0.0902062182114741,-0.0015524696255978965,-0.04169094201233652,-0.08542594160113606,-0.05253011627477841, ,2.1815309524536133
0.05662265550337096,0.024296434682938822,-0.12005401541429506, ,0.056241405675273394,0.02506611555314035,-0.11990774569866772, ,0.0008712949575708011, ,-0.007974977545376006,0.01130796826624717,-0.0006296907962563387,-0.01792319786785007,0.003236763002933991,-0.015440371448913156, ,0.013851603649346688, ,0.018213117705301547, ,8.297512847234517e-05, ,0.45567213051074296,-0.13103160867696725,0.14458429773,-3.4280111960850044,0.8833549709835725,-0.3838820167583886, ,-0.056352103063224926,-0.0914228724070046,-0.0015909574217867317,-0.02411679302547964,-0.1247532987324691,-0.02989237238513158, ,2.192333936691284
0.05654102126501397,0.024408295243362972,-0.12006017095517421, ,0.05613383117089922,0.025211439846039123,-0.11991452703183696, ,0.0009121716822824972, ,-0.008056184285904312,0.011373944005105854,-0.0008263801468179157,-0.023775736829300544,-0.011921300626525825,-0.0006589511336756752, ,0.013962507354583193, ,0.026597050031982455, ,8.407686650700542e-05, ,0.4551855983396668,-0.1318347728958866,0.14457003854,-3.428430575971973,0.8822618789854489,-0.38421585463092567, ,-0.055986396199687774,-0.09312751870311164,-0.0015502811402874808,-0.042687080417936424,-0.12706139769318392,-0.04717302628283569, ,2.203371047973633
0.0564615031803716,0.024519430136644427,-0.1200682195859452, ,0.05602676743690967,0.025356278281471533,-0.11992140776878384, ,0.0009543917926104497, ,-0.008371928123692503,0.012042656899306801,-0.0005271735197494905,-0.008060477893090444,-0.016244570030318845,-0.029489770515924767, ,0.014676262385996655, ,0.018134424703720058, ,8.523746352037638e-05, ,0.4539808520112878,-0.13381951524456231,0.14453633500000002,-3.4296887156328806,0.8796657854899056,-0.38561110028673773, ,-0.05832633162782469,-0.09773114475640657,-0.0017361849896513027,-0.03589782546113298,-0.13491738257183278,-0.06321760232984529, ,2.214573860168457
0.05629186133765785,0.024760371788329814,-0.12007869830262283, ,0.05592021273606084,0.025500631625389725,-0.11992838732303562, ,0.000841843631571472, ,-0.008371928123692503,0.012042656899306801,-0.0005271735197494905,-0.008060477893090444,-0.016244570030318845,-0.029489770515924767, ,0.014676262385996655, ,0.018134424703720058, ,8.620149516677497e-05, ,0.45339392431284675,-0.1348003023195888,0.14451818694000002,-3.4301080955198495,0.8782994204922512,-0.38629385353286594, ,-0.05949651508368074,-0.09978647903098925,-0.0019068359021084207,-0.036756786679437194,-0.1384210619901573,-0.059932989645110304, ,2.225339889526367
0.05620427646429094,0.024880289639126047,-0.1200833901379885, ,0.05581416533384027,0.025644500643785113,-0.1199354651094971, ,0.0008706818981681564, ,-0.008903950442428865,0.01222115463559538,-0.0004015373037250685,-0.024376805779281426,-0.01698815401480939,0.0014787411141017762, ,0.015126076368795923, ,0.029712388608654175, ,8.720325852629678e-05, ,0.45279927388153146,-0.13578108939461533,0.14449874259,-3.4307371653503034,0.8769330554945969,-0.3868132492987129, ,-0.060061355416753656,-0.09999677719543813,-0.002020397199391172,-0.06683714354050654,-0.13754005719273185,-0.05791424377968506, ,2.2362148761749268
0.05611296006413647,0.025008579205681832,-0.1200864329758031, ,0.05570862349846489,0.02578788610268708,-0.11994264054444988, ,0.0008896536187604168, ,-0.009155742479513973,0.012710067847049516,-0.00034110273867834313,-0.017321998178757778,-0.010310509684274624,0.003501666941606302, ,0.015668113993270297, ,0.020158329069007778, ,8.822613123506148e-05, ,0.4521737325187193,-0.13682365833263563,0.14447800195000002,-3.431156545237272,0.8755666904969425,-0.3874143238047006, ,-0.061862413010737145,-0.10348630486201829,-0.0020369324194373407,-0.06069357738024085,-0.1326419753869265,-0.05239084008932164, ,2.2473249435424805
0.056017028275854516,0.025143125423610545,-0.12009155499556128, ,0.05560358550087971,0.02593078876816183,-0.11994991304555043, ,0.0009007835003659084, ,-0.009221981161976426,0.01314979077871465,-0.0005495888427539375,-0.000657139904617189,0.0006211403916840073,-0.015530855378213599, ,0.016070593703155354, ,0.0009042390393980508, ,8.925709575152943e-05, ,0.451509577491536,-0.1379125636679013,0.1444585576,-3.431575925124241,0.874200325499288,-0.38785204083040703, ,-0.06446803095004808,-0.10591176513222186,-0.0017397618496313855,-0.031099136969021213,-0.1271708762502796,-0.046776994160591834, ,2.2585198879241943
0.055918309351987806,0.025280275668916503,-0.12009557473653942, ,0.055499049614755824,0.0260732094063111,-0.11995728203182912, ,0.0009075502803362927, ,-0.009887337356381146,0.013570305101816778,-0.000260533206830674,0.0730888603851911,-0.008806161680845956,0.0008690933769789164, ,0.016792274953297607, ,0.07361745714132727, ,9.028899735327412e-05, ,0.45084542246435266,-0.13900919173604118,0.14444040954,-3.4322049949546947,0.8732438700009298,-0.38870569030734325, ,-0.06603823351320166,-0.10722818255194438,-0.0017379597283650513,-0.0552178679046581,-0.061814352215667744,-0.09865694452608369, ,2.269299030303955
0.05582519742780919,0.025404876817829436,-0.12009983281013115, ,0.05539501411648879,0.02621514878327118,-0.11996474692368903, ,0.0009272791036334568, ,-0.010022639806934007,0.013415214175445916,-0.0007616532384306751,0.004712131382307258,0.009183018267910594,0.03885328392008561, ,0.01676309624527149, ,0.010321434332138547, ,9.134262835098461e-05, ,0.4502198811015405,-0.14000542427681614,0.14442355777000002,-3.432834064785148,0.8724240510023373,-0.3891806852471327, ,-0.06822210032959797,-0.10747105499260563,-0.0015990807948310435,-0.07278414735946931,-0.09815280367967781,-0.04169852012589132, ,2.279979944229126
0.0557205818564847,0.025548414851433048,-0.12010825777920803, ,0.05529147728519671,0.02635660766521144,-0.1199723071429043, ,0.0009250886081098774, ,-0.00983872178427513,0.013722160908274272,-0.0008048275562109217,-0.007420544826241072,0.025032290028505683,0.013067059243748316, ,0.016904020046609534, ,0.026109002845553876, ,9.238266145490941e-05, ,0.44954028060860873,-0.14107888414633335,0.14440800229,-3.4332534446721175,0.8711943225044483,-0.3893214264758328, ,-0.06947067464016894,-0.10932827368487416,-0.001537982378629587,-0.030959401085990164,-0.11821791477743239,-0.01309056559048015, ,2.290827989578247
0.05562440186896493,0.025682895405348714,-0.12011487504028466, ,0.05518843740271881,0.026497586818333224,-0.11997996211261891, ,0.0009338033049156061, ,-0.010111641080607244,0.013967884195269276,-0.0007276182931595624,0.03853106856876375,0.01802840611900252,-0.006765472005186023, ,0.017259099125273535, ,0.04254017715339532, ,9.357539709504601e-05, ,0.4488066209855574,-0.1422295713445928,0.14439115052,-3.433463134615602,0.8701012305063248,-0.38957358560822924, ,-0.07129747675317114,-0.11060249598889368,-0.0014731761232023776,-0.021622033582157186,-0.09159289007308291,-0.04795235495224781, ,2.2988839149475098
0.05551833946075852,0.025826498854185944,-0.12012429871799608, ,0.05508589275361362,0.02663808700886887,-0.1199877112573459, ,0.0009296997481708633, ,-0.010528789247886574,0.01447371521571895,-0.0008661671609890864,0.016577618834454532,0.011878741142818332,0.020334737352651733, ,0.017919098211766186, ,0.020394164296632974, ,9.475404622834883e-05, ,0.4480729613625061,-0.14337253580997802,0.14437689133,-3.434092204446056,0.8691447750079667,-0.3901821988647439, ,-0.0731101244672348,-0.11544640092271385,-0.0014890605656002654,-0.055353734682098234,-0.10481644521179002,-0.04657610249608789, ,2.3061110973358154
0.05551833946075852,0.025826498854185944,-0.12012429871799608, ,0.054983841625157015,0.02677810900308015,-0.1199955540029653, ,0.0010990109250546617, ,-0.010528789247886574,0.01447371521571895,-0.0008661671609890864,0.016577618834454532,0.011878741142818332,0.020334737352651733, ,0.017919098211766186, ,0.020394164296632974, ,9.619313298878865e-05, ,0.4480729613625061,-0.14337253580997802,0.14437689133,-3.434092204446056,0.8691447750079667,-0.3901821988647439, ,-0.0731101244672348,-0.11544640092271385,-0.0014890605656002654,-0.055353734682098234,-0.10481644521179002,-0.04657610249608789, ,2.313652992248535
0.05540791541075192,0.025974136372451943,-0.12013371849204722, ,0.05488228230734097,0.026917653567257397,-0.12000348977672363, ,0.0010878760842071185, ,-0.011209938317956993,0.014885292966104951,-0.0010209178661756873,-0.02085567507456082,0.008728337374206389,0.04121238385849507, ,0.018662179322593883, ,0.022608473104845372, ,9.760557749703713e-05, ,0.44731613354083205,-0.1445618366726086,0.14436003956000001,-3.434930964219993,0.8679150465100777,-0.39056797631386564, ,-0.0772776397055951,-0.12027495761529881,-0.0017188044014587345,-0.0833193247254964,-0.1337634185866466,-0.03636663425192507, ,2.3207759857177734
0.055296384349400346,0.02612354314616952,-0.12014398534127999, ,0.0547812130928713,0.02705672146771811,-0.12001151800723128, ,0.00107413723422658, ,-0.011291822605113026,0.014974380211575189,-0.0009911520571373156,-0.012040367901025393,-0.0031932874986274696,0.00452506642094621, ,0.01878083339116035, ,0.012456626519245752, ,9.898753674111341e-05, ,0.4465361375205354,-0.14576658300098763,0.14434318779000002,-3.435560034050447,0.8665486815124233,-0.39108737207971256, ,-0.07881805777281627,-0.12135158767067875,-0.0018277945414217228,-0.06656238042546284,-0.14778971633183344,-0.05966084424810712, ,2.328734874725342
0.05517643157044429,0.02628104721926159,-0.12015516964351611, ,0.05468063227716624,0.027195313470805758,-0.12001963812446342, ,0.0010488415088011922, ,-0.011798189109445868,0.015485003745636248,-0.0010798252429711354,0.0001287011079171502,-0.0189255977097414,-0.015435758099913568, ,0.01949740059136021, ,0.01892603531235953, ,0.00010032118319145661, ,0.4457020823701191,-0.1470485566581089,0.14432374344,-3.4363987938243854,0.864909043515238,-0.39179232573886963, ,-0.08251907961606154,-0.12569131332247785,-0.0018836404309471445,-0.07090557870256747,-0.1562772650311891,-0.09181453376323151, ,2.335848093032837
0.05517643157044429,0.02628104721926159,-0.12015516964351611, ,0.05458053815835481,0.027333430342888758,-0.12002784955975616, ,0.0012160631567462068, ,-0.011798189109445868,0.015485003745636248,-0.0010798252429711354,0.0001287011079171502,-0.0189255977097414,-0.015435758099913568, ,0.01949740059136021, ,0.01892603531235953, ,0.00010190777817639925, ,0.4457020823701191,-0.1470485566581089,0.14432374344,-3.4363987938243854,0.864909043515238,-0.39179232573886963, ,-0.08251907961606154,-0.12569131332247785,-0.0018836404309471445,-0.07090557870256747,-0.1562772650311891,-0.09181453376323151, ,2.343291997909546
0.055063176876272275,0.02642868287304843,-0.12016511095347722, ,0.054480929037274736,0.027471072850359074,-0.12003615174580727, ,0.0012009245971574772, ,-0.011862160310542406,0.015648622142161454,-0.001173123299203343,-0.02050275417163715,-0.022397150751583855,-0.02763048947237422, ,0.01967146259067401, ,0.030364375350228037, ,0.00010346090752344705, ,0.444906640884074,-0.14825330298648792,0.14430429909,-3.4370278636548384,0.8632694055180528,-0.39266063687830777, ,-0.08390534178467797,-0.12789345223513582,-0.0019408811404898261,-0.06614269874056428,-0.18273811881597382,-0.0873459249436018, ,2.3508780002593994
0.054939235769046295,0.026595402210136662,-0.12017743045567111, ,0.054381803217471145,0.027608241759631176,-0.12004454411667367, ,0.0011637155071872055, ,-0.012297982095331273,0.016643142723269996,-0.001245250832641143,-0.033482677721738796,-0.02017399267846061,-0.027296153360443894, ,0.02073126173102875, ,0.03909065985635714, ,0.00010494661201434814, ,0.4440571402679093,-0.14956616757510607,0.14428485474000002,-3.437656933485292,0.8613564945213367,-0.39346946969063423, ,-0.0870614142738264,-0.13556705936924396,-0.0019516179199407398,-0.06564588526810185,-0.2018624620237069,-0.08007861446818677, ,2.3595938682556152
0.054820030285405164,0.026752830710672346,-0.12019028197669099, ,0.054283159005194564,0.027744937837140687,-0.12005302610777073, ,0.0011363742761332169, ,-0.012312824255103981,0.016253873023426103,-0.0013245915427264432,-0.034136866390373596,-0.019594721797179342,-0.019380339629543455, ,0.020434005289071407, ,0.03936087866472236, ,0.0001063807932095564, ,0.44318447145312195,-0.15090992309522114,0.14426541039000002,-3.4384956932592305,0.859306947024855,-0.3942485633394048, ,-0.08746261894789933,-0.13309528970332507,-0.0018912977882226145,-0.07268140371637588,-0.19579959632246727,-0.07845781934579064, ,2.366786003112793
0.054820030285405164,0.026752830710672346,-0.12019028197669099, ,0.05418499470939915,0.027881161849343392,-0.12006159715587077, ,0.0013011383955588744, ,-0.012312824255103981,0.016253873023426103,-0.0013245915427264432,-0.034136866390373596,-0.019594721797179342,-0.019380339629543455, ,0.020434005289071407, ,0.03936087866472236, ,0.00010806038705082145, ,0.44318447145312195,-0.15090992309522114,0.14426541039000002,-3.4384956932592305,0.859306947024855,-0.3942485633394048, ,-0.08746261894789933,-0.13309528970332507,-0.0018912977882226145,-0.07268140371637588,-0.19579959632246727,-0.07845781934579064, ,2.3742449283599854
0.05468105429180855,0.026942009532956803,-0.12020321111844415, ,0.054087308641741313,0.028016914562713803,-0.12007025669910162, ,0.0012351646034409215, ,-0.01298658520019132,0.01810356020400286,-0.0011094628410191548,0.0017988094076147904,-0.01612954395133534,-0.023129808749148228, ,0.022307424661250942, ,0.01622953798976733, ,0.0001096281467882665, ,0.442257743508215,-0.1523386286769527,0.14424596604,-3.4391247630896835,0.8573940360281388,-0.3951390748918716, ,-0.09159936443867836,-0.14599529470533967,-0.0018149700245501965,-0.06388100578634039,-0.17981816475980755,-0.09216761994281226, ,2.381455898284912
0.05455754775333317,0.027111130587792864,-0.12021449938650862, ,0.05399009911657748,0.028152196743744157,-0.12007900417694584, ,0.001193388305723482, ,-0.013197838206365275,0.018009666045338473,-0.0013577000282338205,-0.013661528067383676,-0.0033295140581771857,-0.01121781539212582, ,0.022369049013149366, ,0.014061401530249326, ,0.00011112221429155935, ,0.4413232928304338,-0.15381367065592955,0.14422781798,-3.439753832920138,0.8556177615311881,-0.39597764686775394, ,-0.09414379122864167,-0.14577103157983223,-0.0017189156859334705,-0.06230750480679521,-0.18421692449666638,-0.06838677681136571, ,2.3891310691833496
0.05441801615695498,0.027303802056997964,-0.12022686381860122, ,0.05389336445096305,0.02828700915894315,-0.12008783903023885, ,0.0011230687911677067, ,-0.013607297377328086,0.018831328878939776,-0.001217102897030537,0.00629869919972704,0.005309809006858234,0.002874108364206672, ,0.02326496999189535, ,0.008238184465966037, ,0.00011249962157379877, ,0.4403347830225331,-0.1553659399636487,0.14420966992,-3.4403829027505908,0.8538414870342373,-0.39673454010349557, ,-0.0962443626353659,-0.15135078398480187,-0.0016724382555602657,-0.06372608433827284,-0.16447804886726203,-0.06598263667222624, ,2.396458864212036
0.05441801615695498,0.027303802056997964,-0.12022686381860122, ,0.053797102964649915,0.028421352574834653,-0.12009676070116755, ,0.001285059988273497, ,-0.013607297377328086,0.018831328878939776,-0.001217102897030537,0.00629869919972704,0.005309809006858234,0.002874108364206672, ,0.02326496999189535, ,0.008238184465966037, ,0.00011411556783161265, ,0.4403347830225331,-0.1553659399636487,0.14420966992,-3.4403829027505908,0.8538414870342373,-0.39673454010349557, ,-0.0962443626353659,-0.15135078398480187,-0.0016724382555602657,-0.06372608433827284,-0.16447804886726203,-0.06598263667222624, ,2.403696060180664
0.0542793958243171,0.02749516444801945,-0.12023907322874969, ,0.05370131298008536,0.028555227757956676,-0.12010576863327001, ,0.0012147773915603326, ,-0.014010782714155278,0.01922907448551677,-0.0011635287884653569,0.018978559460729523,0.008439242684190088,0.017361398850267155, ,0.023820435283059212, ,0.020770328266182254, ,0.00011561487825090915, ,0.43935399594750657,-0.15690276380561935,0.14419281815,-3.4410119725810446,0.852201849037052,-0.39735781502251194, ,-0.09823699954293041,-0.15405347655595905,-0.0016614965517579613,-0.0735016422767269,-0.14954090844138831,-0.06898040682249941, ,2.4109809398651123
0.054140968278824156,0.027689690641816832,-0.12025143453491619, ,0.05360599282240994,0.028688635474860145,-0.12011486227143296, ,0.001141377019911679, ,-0.013646807549931805,0.01942871867171412,-0.0013812111850482443,-0.007216005833816876,0.017731187886881758,0.018981489954032364, ,0.023782729235039258, ,0.019143295538348527, ,0.00011699388925607562, ,0.438404099803977,-0.15840869671609314,0.14417855896,-3.4416410424114985,0.8506988475396322,-0.39784747162480333, ,-0.0974301248033581,-0.15608049598432694,-0.001383534542536828,-0.06267821504785778,-0.16555254178069442,-0.043738399554895294, ,2.4181740283966064
0.054004380041460354,0.027885553611622302,-0.12026506768621868, ,0.05351114081945595,0.028821576492107488,-0.12012404106189123, ,0.0010673857183251462, ,-0.014036674725598906,0.02022421813830553,-0.0012523090970669995,0.02076741744066179,0.015489688174709776,0.007264300008781035, ,0.02464985831059948, ,0.02590783794339789, ,0.00011825279853071759, ,0.4374001445303278,-0.1600304706196803,0.14416429977,-3.4422701122419515,0.8489225730426815,-0.3983593286401233, ,-0.09989151742996924,-0.16138935639195712,-0.0013541059614839998,-0.055113501346203235,-0.158023755216642,-0.05842525947345381, ,2.425889015197754
0.054004380041460354,0.027885553611622302,-0.12026506768621868, ,0.05341675530174554,0.02895405157627174,-0.12013330445222592, ,0.0012265203973098548, ,-0.014036674725598906,0.02022421813830553,-0.0012523090970669995,0.02076741744066179,0.015489688174709776,0.007264300008781035, ,0.02464985831059948, ,0.02590783794339789, ,0.00011992439370233018, ,0.4374001445303278,-0.1600304706196803,0.14416429977,-3.4422701122419515,0.8489225730426815,-0.3983593286401233, ,-0.09989151742996924,-0.16138935639195712,-0.0013541059614839998,-0.055113501346203235,-0.158023755216642,-0.05842525947345381, ,2.429677963256836
0.054004380041460354,0.027885553611622302,-0.12026506768621868, ,0.05332283460248941,0.029086061493935167,-0.12014265189136379, ,0.0013858964563441844, ,-0.014036674725598906,0.02022421813830553,-0.0012523090970669995,0.02076741744066179,0.015489688174709776,0.007264300008781035, ,0.02464985831059948, ,0.02590783794339789, ,0.00012183097813401971, ,0.4374001445303278,-0.1600304706196803,0.14416429977,-3.4422701122419515,0.8489225730426815,-0.3983593286401233, ,-0.09989151742996924,-0.16138935639195712,-0.0013541059614839998,-0.055113501346203235,-0.158023755216642,-0.05842525947345381, ,2.4333200454711914
0.05386370331343331,0.028082789015319402,-0.12027382821970234, ,0.053229377057584314,0.029217607011688084,-0.1201520828295756, ,0.0013057578733282646, ,-0.014964327244240266,0.021009317837193106,-0.001039639374139971,0.060870515708593184,0.00982028898327506,0.024292028605313737, ,0.025814789867151234, ,0.061657584759248464, ,0.00012361131932980054, ,0.43641935745530125,-0.16159818539314785,0.14414874429000002,-3.4428991820724053,0.8476928445447925,-0.39915349978994785, ,-0.10405366398955129,-0.1667784561660295,-0.0014879709702725868,-0.0786968093056054,-0.12455795394394745,-0.08963106599427387, ,2.4371070861816406
0.05386370331343331,0.028082789015319402,-0.12027382821970234, ,0.05313638100561232,0.029348688896127732,-0.12016159671847457, ,0.0014642732523516364, ,-0.014964327244240266,0.021009317837193106,-0.001039639374139971,0.060870515708593184,0.00982028898327506,0.024292028605313737, ,0.025814789867151234, ,0.061657584759248464, ,0.0001256243252352387, ,0.43641935745530125,-0.16159818539314785,0.14414874429000002,-3.4428991820724053,0.8476928445447925,-0.39915349978994785, ,-0.10405366398955129,-0.1667784561660295,-0.0014879709702725868,-0.0786968093056054,-0.12455795394394745,-0.08963106599427387, ,2.4408788681030273
0.05386370331343331,0.028082789015319402,-0.12027382821970234, ,0.05304384478783817,0.029479307913857052,-0.12017119301101532, ,0.0016226419882482029, ,-0.014964327244240266,0.021009317837193106,-0.001039639374139971,0.060870515708593184,0.00982028898327506,0.024292028605313737, ,0.025814789867151234, ,0.061657584759248464, ,0.000127868729527612, ,0.43641935745530125,-0.16159818539314785,0.14414874429000002,-3.4428991820724053,0.8476928445447925,-0.39915349978994785, ,-0.10405366398955129,-0.1667784561660295,-0.0014879709702725868,-0.0786968093056054,-0.12455795394394745,-0.08963106599427387, ,2.444571018218994
0.05369714284950524,0.0283150029133983,-0.12028894280974145, ,0.05295176674820812,0.02960946483148338,-0.12018087116149252, ,0.0014976303518934983, ,-0.016326491531890194,0.022783891285280678,-0.0015869346747935864,-0.042589102449315866,0.01443493139760597,0.06234847590831765, ,0.028074514946877235, ,0.044968865806042396, ,0.0001299192708784591, ,0.4352609475241676,-0.1634670867487102,0.14413189252000003,-3.4441573217333126,0.8457799335480763,-0.39971729638185255, ,-0.11460983280008549,-0.1842659059387782,-0.0016912278660021606,-0.1171142441444107,-0.21350321835169536,-0.03648938866220017, ,2.4484338760375977
0.05369714284950524,0.0283150029133983,-0.12028894280974145, ,0.05286014523334813,0.029739160415617416,-0.1201906306255402, ,0.0016548277512001357, ,-0.016326491531890194,0.022783891285280678,-0.0015869346747935864,-0.042589102449315866,0.01443493139760597,0.06234847590831765, ,0.028074514946877235, ,0.044968865806042396, ,0.0007249254155574658, ,0.4352609475241676,-0.1634670867487102,0.14413189252000003,-3.4441573217333126,0.8457799335480763,-0.39971729638185255, ,-0.11460983280008549,-0.1842659059387782,-0.0016912278660021606,-0.1171142441444107,-0.21350321835169536,-0.03648938866220017, ,2.4522790908813477
0.053532124312570026,0.028541923932147613,-0.12030888239455605, ,0.052768978592561855,0.029868395432871953,-0.12020047086012903, ,0.0015341678829246467, ,-0.016928546087266995,0.02282591155979523,-0.002291972080221529,-0.1194386469827558,-0.007318259879146867,0.06345173633951737, ,0.028510542737395075, ,0.11966263961933502, ,0.0007315046226092315, ,0.43417204218890193,-0.16518925617966226,0.14411633704000001,-3.4454154613942194,0.8433204765522985,-0.39983542135897154, ,-0.11966827434863908,-0.1860724344283741,-0.001749632478745389,-0.15278762944894916,-0.2868106096887141,-0.028237607904132156, ,2.45634388923645
0.053532124312570026,0.028541923932147613,-0.12030888239455605, ,0.05267826517782933,0.02999717064986064,-0.12021039132356641, ,0.0016901239370115313, ,-0.016928546087266995,0.02282591155979523,-0.002291972080221529,-0.1194386469827558,-0.007318259879146867,0.06345173633951737, ,0.028510542737395075, ,0.11966263961933502, ,0.0007392354235318308, ,0.43417204218890193,-0.16518925617966226,0.14411633704000001,-3.4454154613942194,0.8433204765522985,-0.39983542135897154, ,-0.11966827434863908,-0.1860724344283741,-0.001749632478745389,-0.15278762944894916,-0.2868106096887141,-0.028237607904132156, ,2.4602549076080322
0.053532124312570026,0.028541923932147613,-0.12030888239455605, ,0.05258800334380479,0.03012548683319678,-0.12022039147549458, ,0.001845769895733972, ,-0.016928546087266995,0.02282591155979523,-0.002291972080221529,-0.1194386469827558,-0.007318259879146867,0.06345173633951737, ,0.028510542737395075, ,0.11966263961933502, ,0.0007480876993094478, ,0.43417204218890193,-0.16518925617966226,0.14411633704000001,-3.4454154613942194,0.8433204765522985,-0.39983542135897154, ,-0.11966827434863908,-0.1860724344283741,-0.001749632478745389,-0.15278762944894916,-0.2868106096887141,-0.028237607904132156, ,2.463873863220215
0.05336148385115857,0.02877433919204667,-0.12033325381332417, ,0.05249819144781566,0.030253344749492386,-0.12023047077688931, ,0.001715603557120252, ,-0.017241971057956926,0.024293208141986933,-0.0023800475039589394,-0.06769901857764475,-0.03788549626682032,-0.03823429385127249, ,0.029884948618232984, ,0.07757878539706055, ,0.0007557663965936605, ,0.43285145486740956,-0.16723578039133175,0.14409818898,-3.4466736010551267,0.8400412005579279,-0.40067357749630167, ,-0.12585801267701696,-0.19894537014354458,-0.0015362769819585917,-0.10133375997650407,-0.31248637802302853,-0.10783260045548843, ,2.467529058456421
0.05336148385115857,0.02877433919204667,-0.12033325381332417, ,0.05240882784985986,0.030380745165356545,-0.12024062869005857, ,0.0018699393095381622, ,-0.017241971057956926,0.024293208141986933,-0.0023800475039589394,-0.06769901857764475,-0.03788549626682032,-0.03823429385127249, ,0.029884948618232984, ,0.07757878539706055, ,0.0007645394116562157, ,0.43285145486740956,-0.16723578039133175,0.14409818898,-3.4466736010551267,0.8400412005579279,-0.40067357749630167, ,-0.12585801267701696,-0.19894537014354458,-0.0015362769819585917,-0.10133375997650407,-0.31248637802302853,-0.10783260045548843, ,2.471281051635742
0.05336148385115857,0.02877433919204667,-0.12033325381332417, ,0.052319910912604996,0.030507688847394576,-0.1202508646786416, ,0.0020238980170788185, ,-0.017241971057956926,0.024293208141986933,-0.0023800475039589394,-0.06769901857764475,-0.03788549626682032,-0.03823429385127249, ,0.029884948618232984, ,0.07757878539706055, ,0.0007743781507610798, ,0.43285145486740956,-0.16723578039133175,0.14409818898,-3.4466736010551267,0.8400412005579279,-0.40067357749630167, ,-0.12585801267701696,-0.19894537014354458,-0.0015362769819585917,-0.10133375997650407,-0.31248637802302853,-0.10783260045548843, ,2.475024938583374
0.053185695579423896,0.02902409792431518,-0.12035594127204878, ,0.05223143900138603,0.030634176562206617,-0.12026117820760689, ,0.0018740167756200344, ,-0.01767351845522051,0.025454243630021876,-0.002498063419309581,-0.039632794773012354,-0.06377993668053117,-0.09246303269027747, ,0.03108877762489902, ,0.07509086991369192, ,0.000782902481186343, ,0.43156175847741407,-0.16928230460300125,0.14408133721000002,-3.447512360829065,0.8367619245635572,-0.4021651635547562, ,-0.1303529417011961,-0.20810732797910259,-0.0013941148357114424,-0.08612039887079641,-0.33070500475039044,-0.1614285824999795, ,2.4791159629821777
0.053185695579423896,0.02902409792431518,-0.12035594127204878, ,0.05214341048420381,0.03076020907638665,-0.12027156874325201, ,0.002026711344933076, ,-0.01767351845522051,0.025454243630021876,-0.002498063419309581,-0.039632794773012354,-0.06377993668053117,-0.09246303269027747, ,0.03108877762489902, ,0.07509086991369192, ,0.0007924702416767025, ,0.43156175847741407,-0.16928230460300125,0.14408133721000002,-3.447512360829065,0.8367619245635572,-0.4021651635547562, ,-0.1303529417011961,-0.20810732797910259,-0.0013941148357114424,-0.08612039887079641,-0.33070500475039044,-0.1614285824999795, ,2.4827558994293213
0.05300672583866651,0.029281256779893787,-0.12038074230187801, ,0.05205582373172332,0.03088578715652112,-0.12028203575320096, ,0.0018677461094218826, ,-0.019023942566354538,0.027216526600077957,-0.0024147445461602723,-0.020072569578194976,-0.0987529141184,-0.0705273903044156, ,0.03329385381964542, ,0.10077224864150576, ,0.0008006784544075817, ,0.43026433935454433,-0.1713828879447903,0.14406837431000002,-3.448770500489972,0.8336192850689521,-0.4040948824774695, ,-0.13556705936924396,-0.22120499197778737,-0.0015143616828673225,-0.14805575381578906,-0.3274798730481241,-0.22159830760311142, ,2.486325979232788
0.05300672583866651,0.029281256779893787,-0.12038074230187801, ,0.051968677117271836,0.031010911569187713,-0.12029257870640397, ,0.002019164098750629, ,-0.019023942566354538,0.027216526600077957,-0.0024147445461602723,-0.020072569578194976,-0.0987529141184,-0.0705273903044156, ,0.03329385381964542, ,0.10077224864150576, ,0.0008099094062586653, ,0.43026433935454433,-0.1713828879447903,0.14406837431000002,-3.448770500489972,0.8336192850689521,-0.4040948824774695, ,-0.13556705936924396,-0.22120499197778737,-0.0015143616828673225,-0.14805575381578906,-0.3274798730481241,-0.22159830760311142, ,2.4899239540100098
0.05300672583866651,0.029281256779893787,-0.12038074230187801, ,0.05188196901683755,0.031135583080954377,-0.12030319707313566, ,0.002170165247522991, ,-0.019023942566354538,0.027216526600077957,-0.0024147445461602723,-0.020072569578194976,-0.0987529141184,-0.0705273903044156, ,0.03329385381964542, ,0.10077224864150576, ,0.0008201368937869685, ,0.43026433935454433,-0.1713828879447903,0.14406837431000002,-3.448770500489972,0.8336192850689521,-0.4040948824774695, ,-0.13556705936924396,-0.22120499197778737,-0.0015143616828673225,-0.14805575381578906,-0.3274798730481241,-0.22159830760311142, ,2.4935359954833984
0.052806694073959035,0.029568162599826534,-0.12040616217452295, ,0.051795697809067384,0.0312598024583779,-0.12031389032499404, ,0.0019728844246128673, ,-0.020180492197627554,0.028806180364338088,-0.002653327452702919,-0.06227025461691132,-0.08105632251615669,-0.08298828871439654, ,0.035271637885028115, ,0.10221405006048173, ,0.0008287394873005946, ,0.42882018830706436,-0.17373832147142879,0.14405152254,-3.450238330094364,0.8299300995752852,-0.40615068096638085, ,-0.14735549931439562,-0.23665072707848075,-0.0016716721678893384,-0.12505237279495166,-0.3832433940008519,-0.1821465651530234, ,2.497231960296631
0.052806694073959035,0.029568162599826534,-0.12040616217452295, ,0.05170986187526555,0.03138357046800277,-0.12032465793489847, ,0.0021225902904243497, ,-0.020180492197627554,0.028806180364338088,-0.002653327452702919,-0.06227025461691132,-0.08105632251615669,-0.08298828871439654, ,0.035271637885028115, ,0.10221405006048173, ,0.0008383235673237335, ,0.42882018830706436,-0.17373832147142879,0.14405152254,-3.450238330094364,0.8299300995752852,-0.40615068096638085, ,-0.14735549931439562,-0.23665072707848075,-0.0016716721678893384,-0.12505237279495166,-0.3832433940008519,-0.1821465651530234, ,2.5009870529174805
0.052806694073959035,0.029568162599826534,-0.12040616217452295, ,0.05162445959939173,0.03150688787636015,-0.12033549937708966, ,0.0022718554711219797, ,-0.020180492197627554,0.028806180364338088,-0.002653327452702919,-0.06227025461691132,-0.08105632251615669,-0.08298828871439654, ,0.035271637885028115, ,0.10221405006048173, ,0.0008488642430869559, ,0.42882018830706436,-0.17373832147142879,0.14405152254,-3.450238330094364,0.8299300995752852,-0.40615068096638085, ,-0.14735549931439562,-0.23665072707848075,-0.0016716721678893384,-0.12505237279495166,-0.3832433940008519,-0.1821465651530234, ,2.504819869995117
0.05260324472958114,0.02986099295584587,-0.12043533882893462, ,0.05153948936805956,0.031629755449966386,-0.12034641412712697, ,0.002065914768901395, ,-0.021127355632376443,0.030564008944075266,-0.0030119356763928067,-0.08215568855610843,-0.05926472453153325,-0.07774745834516943, ,0.03727727934371216, ,0.10130086246266086, ,0.0008577478235673533, ,0.42731425539659057,-0.17614009139531261,0.14403726335000003,-3.4512867798117868,0.8259676410820875,-0.407738607427478, ,-0.15633763024459765,-0.2503877085975482,-0.0013796328041339424,-0.10942662632551127,-0.4070277113012684,-0.14660775398831696, ,2.5085480213165283
0.05260324472958114,0.02986099295584587,-0.12043533882893462, ,0.05145494957053448,0.03175217395532207,-0.12035740166188835, ,0.0022138702642831164, ,-0.021127355632376443,0.030564008944075266,-0.0030119356763928067,-0.08215568855610843,-0.05926472453153325,-0.07774745834516943, ,0.03727727934371216, ,0.10130086246266086, ,0.0008675747977754385, ,0.42731425539659057,-0.17614009139531261,0.14403726335000003,-3.4512867798117868,0.8259676410820875,-0.407738607427478, ,-0.15633763024459765,-0.2503877085975482,-0.0013796328041339424,-0.10942662632551127,-0.4070277113012684,-0.14660775398831696, ,2.5122568607330322
0.05238596047752679,0.03017785547179247,-0.12046671907186929, ,0.05137083859873236,0.03187414415891071,-0.120368461459568, ,0.0019792731739776644, ,-0.022555998992392634,0.032562581150268485,-0.0031842935043980072,-0.002575731317598094,-0.04837398437909534,-0.06264261819411715, ,0.039739583626842254, ,0.04844250980494328, ,0.0008755726278200589, ,0.4257156496916261,-0.17871948417530362,0.14402689303000002,-3.4525449194726936,0.8221418190886551,-0.40927459431199004, ,-0.1659037439833405,-0.26287241428939273,-0.0008205671618391335,-0.113409156561477,-0.3446908867004172,-0.1780119481084074, ,2.5163280963897705
0.05238596047752679,0.03017785547179247,-0.12046671907186929, ,0.05128715484721778,0.031995666827197476,-0.12037959299967582, ,0.002125888729330404, ,-0.022555998992392634,0.032562581150268485,-0.0031842935043980072,-0.002575731317598094,-0.04837398437909534,-0.06264261819411715, ,0.039739583626842254, ,0.04844250980494328, ,0.0008845034571165613, ,0.4257156496916261,-0.17871948417530362,0.14402689303000002,-3.4525449194726936,0.8221418190886551,-0.40927459431199004, ,-0.1659037439833405,-0.26287241428939273,-0.0008205671618391335,-0.113409156561477,-0.3446908867004172,-0.1780119481084074, ,2.5199520587921143
0.05238596047752679,0.03017785547179247,-0.12046671907186929, ,0.05120389671320219,0.03211674272662827,-0.12039079576303603, ,0.00227207457595875, ,-0.022555998992392634,0.032562581150268485,-0.0031842935043980072,-0.002575731317598094,-0.04837398437909534,-0.06264261819411715, ,0.039739583626842254, ,0.04844250980494328, ,0.000894344387037428, ,0.4257156496916261,-0.17871948417530362,0.14402689303000002,-3.4525449194726936,0.8221418190886551,-0.40927459431199004, ,-0.1659037439833405,-0.26287241428939273,-0.0008205671618391335,-0.113409156561477,-0.3446908867004172,-0.1780119481084074, ,2.523650884628296
0.05214879671244549,0.030523130209599195,-0.12049768426712962, ,0.05112106259654196,0.0322373726236282,-0.12040206923178501, ,0.002001001424795083, ,-0.023587919972956853,0.03443362404097378,-0.0030057990135865277,0.044105458903692364,-0.02228549336244518,-0.019396675660371673, ,0.041846137945523984, ,0.04941593588375643, ,0.0009021377464582565, ,0.4239780347949256,-0.18148422254427599,0.14402041158,-3.4535933691901164,0.81899917959405,-0.4112043132347034, ,-0.1716038726192962,-0.2750635987202052,-0.0004889093636243779,-0.12073558997520219,-0.2916430969459323,-0.16561537592759282, ,2.5272209644317627
0.05214879671244549,0.030523130209599195,-0.12049768426712962, ,0.05103865089973722,0.03235755728460059,-0.12041341288937128, ,0.0021458443755503704, ,-0.023587919972956853,0.03443362404097378,-0.0030057990135865277,0.044105458903692364,-0.02228549336244518,-0.019396675660371673, ,0.041846137945523984, ,0.04941593588375643, ,0.0009108349956127469, ,0.4239780347949256,-0.18148422254427599,0.14402041158,-3.4535933691901164,0.81899917959405,-0.4112043132347034, ,-0.1716038726192962,-0.2750635987202052,-0.0004889093636243779,-0.12073558997520219,-0.2916430969459323,-0.16561537592759282, ,2.531014919281006
0.05214879671244549,0.030523130209599195,-0.12049768426712962, ,0.05095666002792964,0.032477297475925655,-0.12042482622055327, ,0.0022902549801935147, ,-0.023587919972956853,0.03443362404097378,-0.0030057990135865277,0.044105458903692364,-0.02228549336244518,-0.019396675660371673, ,0.041846137945523984, ,0.04941593588375643, ,0.0009204143010612244, ,0.4239780347949256,-0.18148422254427599,0.14402041158,-3.4535933691901164,0.81899917959405,-0.4112043132347034, ,-0.1716038726192962,-0.2750635987202052,-0.0004889093636243779,-0.12073558997520219,-0.2916430969459323,-0.16561537592759282, ,2.535183906555176
0.051902669824069506,0.030883075414554803,-0.12052915185235066, ,0.05087508838890095,0.03259659396395956,-0.12043630871139849, ,0.002000172311047002, ,-0.024438506510529832,0.036130649462222705,-0.0029730968565065043,0.023962896869938726,0.02707492352284315,0.01727799058191575, ,0.04372074720250549, ,0.036156215370732964, ,0.0009278609080266434, ,0.4221863607681055,-0.1843570791734875,0.14401652271,-3.454851508851023,0.8159931765992103,-0.41234698391956676, ,-0.17871363758657396,-0.2875664895711236,-0.0003156418814153372,-0.09857476998061308,-0.2916430969459323,-0.08914762015755703, ,2.538878917694092
0.051902669824069506,0.030883075414554803,-0.12052915185235066, ,0.05079393439307111,0.032715447515032775,-0.12044785984928187, ,0.0021432429074475417, ,-0.024438506510529832,0.036130649462222705,-0.0029730968565065043,0.023962896869938726,0.02707492352284315,0.01727799058191575, ,0.04372074720250549, ,0.036156215370732964, ,0.0009361854422692523, ,0.4221863607681055,-0.1843570791734875,0.14401652271,-3.454851508851023,0.8159931765992103,-0.41234698391956676, ,-0.17871363758657396,-0.2875664895711236,-0.0003156418814153372,-0.09857476998061308,-0.2916430969459323,-0.08914762015755703, ,2.542541980743408
0.0516579404748926,0.03124449768079082,-0.120556067105913, ,0.0507131964534966,0.032833858895449396,-0.12045947912288504, ,0.0018514695717429086, ,-0.02537429266606728,0.03705330264110433,-0.002685905465391882,0.04095540355027285,0.050595286488629085,0.06693354593578003, ,0.04498906592812889, ,0.06509399430586797, ,0.000942411864918733, ,0.4204101322070339,-0.187229935802699,0.14401263384000001,-3.455899958568446,0.8132604466039015,-0.41297738175055804, ,-0.18319872887735672,-0.29379858067638015,-0.0003435559189074176,-0.11610911921816641,-0.2555928313468918,-0.06580934732761709, ,2.5464210510253906
0.0516579404748926,0.03124449768079082,-0.120556067105913, ,0.05063525698774569,0.03294616661631825,-0.1204707638108896, ,0.0019871676660925923, ,-0.02537429266606728,0.03705330264110433,-0.002685905465391882,0.04095540355027285,0.050595286488629085,0.06693354593578003, ,0.04498906592812889, ,0.06509399430586797, ,0.0009494710257374752, ,0.4204101322070339,-0.187229935802699,0.14401263384000001,-3.455899958568446,0.8132604466039015,-0.41297738175055804, ,-0.18319872887735672,-0.29379858067638015,-0.0003435559189074176,-0.11610911921816641,-0.2555928313468918,-0.06580934732761709, ,2.5502870082855225
0.0516579404748926,0.03124449768079082,-0.120556067105913, ,0.050555336355578136,0.033063724867355614,-0.120482522277728, ,0.0021285516770843125, ,-0.02537429266606728,0.03705330264110433,-0.002685905465391882,0.04095540355027285,0.050595286488629085,0.06693354593578003, ,0.04498906592812889, ,0.06509399430586797, ,0.0009573843186995345, ,0.4204101322070339,-0.187229935802699,0.14401263384000001,-3.455899958568446,0.8132604466039015,-0.41297738175055804, ,-0.18319872887735672,-0.29379858067638015,-0.0003435559189074176,-0.11610911921816641,-0.2555928313468918,-0.06580934732761709, ,2.5540659427642822
0.05140030976384858,0.03162075764577115,-0.12058007659400448, ,0.05047582706660842,0.03318084318101566,-0.12049434729949271, ,0.0018154571453804901, ,-0.026259702640461974,0.038077763267935924,-0.002430557080105273,0.07600986408197617,0.07288971888661155,0.08483909095682624, ,0.04631841584050674, ,0.10531101821293402, ,0.0009631048042107408, ,0.41855667631722,-0.19020318795927546,0.14400874497000002,-3.456948408285869,0.810937626107889,-0.41353363959193573, ,-0.18866191164705923,-0.30030677708376824,-0.00028461333453435987,-0.10849373582433094,-0.21921782336045598,-0.056315622926356834, ,2.5576729774475098
0.05140030976384858,0.03162075764577115,-0.12058007659400448, ,0.05039672754461903,0.03329752231959644,-0.1205062383709091, ,0.0019555482927639555, ,-0.026259702640461974,0.038077763267935924,-0.002430557080105273,0.07600986408197617,0.07288971888661155,0.08483909095682624, ,0.04631841584050674, ,0.10531101821293402, ,0.000969677277644868, ,0.41855667631722,-0.19020318795927546,0.14400874497000002,-3.456948408285869,0.810937626107889,-0.41353363959193573, ,-0.18866191164705923,-0.30030677708376824,-0.00028461333453435987,-0.10849373582433094,-0.21921782336045598,-0.056315622926356834, ,2.5613460540771484
0.05140030976384858,0.03162075764577115,-0.12058007659400448, ,0.050318036216015986,0.033413763045499104,-0.12051819498798816, ,0.0020952359602094705, ,-0.026259702640461974,0.038077763267935924,-0.002430557080105273,0.07600986408197617,0.07288971888661155,0.08483909095682624, ,0.04631841584050674, ,0.10531101821293402, ,0.00097708226897753, ,0.41855667631722,-0.19020318795927546,0.14400874497000002,-3.456948408285869,0.810937626107889,-0.41353363959193573, ,-0.18866191164705923,-0.30030677708376824,-0.00028461333453435987,-0.10849373582433094,-0.21921782336045598,-0.056315622926356834, ,2.5650129318237305
0.0511371018268038,0.03200157401140214,-0.1206044562005067, ,0.05023975150982783,0.0335295661212281,-0.12053021664802789, ,0.0017735582849795258, ,-0.026425296148702572,0.038287804017711494,-0.0022880881782243127,0.09486721551936701,0.07995118112363411,0.07585699050357406, ,0.04657775821737935, ,0.1240644185227959, ,0.0009822879945723141, ,0.41666460676303496,-0.19319960831447455,0.14400744868,-3.457996858003291,0.8088880786114074,-0.41423105450056574, ,-0.19017423158010174,-0.30126013193165324,-0.00018312876898294236,-0.09344056690097037,-0.20649235138577446,-0.057885331705437915, ,2.568701982498169
0.0511371018268038,0.03200157401140214,-0.1206044562005067, ,0.0501618718577029,0.03364493230938109,-0.1205423028496099, ,0.0019119526738903682, ,-0.026425296148702572,0.038287804017711494,-0.0022880881782243127,0.09486721551936701,0.07995118112363411,0.07585699050357406, ,0.04657775821737935, ,0.1240644185227959, ,0.0009883247782042494, ,0.41666460676303496,-0.19319960831447455,0.14400744868,-3.457996858003291,0.8088880786114074,-0.41423105450056574, ,-0.19017423158010174,-0.30126013193165324,-0.00018312876898294236,-0.09344056690097037,-0.20649235138577446,-0.057885331705437915, ,2.5723659992218018
0.0511371018268038,0.03200157401140214,-0.1206044562005067, ,0.05008439569390826,0.03375986237265038,-0.12055445309260052, ,0.0020499435295483564, ,-0.026425296148702572,0.038287804017711494,-0.0022880881782243127,0.09486721551936701,0.07995118112363411,0.07585699050357406, ,0.04657775821737935, ,0.1240644185227959, ,0.0009951739314387276, ,0.41470303261298197,-0.19631186966278705,0.14400744868,-3.4588356177772295,0.8065652581153949,-0.4147873123419433, ,-0.1924887252707318,-0.30221955910341014,-0.00012258244987563028,-0.08837181242379727,-0.2274128821776693,-0.059844147862023495, ,2.576137065887451
0.05086667498171129,0.03239674682255418,-0.12062957425639087, ,0.05000732145532787,0.033874357073812394,-0.12056666687814711, ,0.0017104905367082493, ,-0.026597669991551668,0.038315864440768455,-0.002378767081916717,0.08149242630921419,0.0755106210279677,0.060776776649182476, ,0.04670331947145559, ,0.1110984672878789, ,0.0009997592942930192, ,0.41470303261298197,-0.19631186966278705,0.14400744868,-3.4588356177772295,0.8065652581153949,-0.4147873123419433, ,-0.1924887252707318,-0.30221955910341014,-0.00012258244987563028,-0.08837181242379727,-0.2274128821776693,-0.059844147862023495, ,2.5798819065093994
0.05086667498171129,0.03239674682255418,-0.12062957425639087, ,0.0499306475814606,0.03398841717572809,-0.1205789437086791, ,0.0018471938879160532, ,-0.026597669991551668,0.038315864440768455,-0.002378767081916717,0.08149242630921419,0.0755106210279677,0.060776776649182476, ,0.04670331947145559, ,0.1110984672878789, ,0.0010051569668638666, ,0.41470303261298197,-0.19631186966278705,0.14400744868,-3.4588356177772295,0.8065652581153949,-0.4147873123419433, ,-0.1924887252707318,-0.30221955910341014,-0.00012258244987563028,-0.08837181242379727,-0.2274128821776693,-0.059844147862023495, ,2.583441972732544
0.05059498523021595,0.03278936738687943,-0.120653479438612, ,0.049854372514418654,0.03410204344133733,-0.12059128308790527, ,0.001508474065003787, ,-0.02615233047752645,0.03804833168302853,-0.002370038854059871,0.06408027516354695,0.0516530400784987,0.055170237750303, ,0.04623026084111212, ,0.08230624650846438, ,0.0010083425181179166, ,0.4127414584629289,-0.1994164082782253,0.14400615239,-3.4598840674946523,0.804105801119617,-0.41547718850004645, ,-0.18903773218818878,-0.30126013193165324,0.0,-0.10786806594870696,-0.2499611893877821,-0.07818740044185246, ,2.587017059326172
0.05059498523021595,0.03278936738687943,-0.120653479438612, ,0.04977849469892611,0.03421523663365377,-0.12060368452081402, ,0.0016438489682514329, ,-0.02615233047752645,0.03804833168302853,-0.002370038854059871,0.06408027516354695,0.0516530400784987,0.055170237750303, ,0.04623026084111212, ,0.08230624650846438, ,0.001012339414030706, ,0.4127414584629289,-0.1994164082782253,0.14400615239,-3.4598840674946523,0.804105801119617,-0.41547718850004645, ,-0.18903773218818878,-0.30126013193165324,0.0,-0.10786806594870696,-0.2499611893877821,-0.07818740044185246, ,2.590648889541626
0.05059498523021595,0.03278936738687943,-0.120653479438612, ,0.04970301258231633,0.03432799751576441,-0.12061614751367054, ,0.0017788736747541968, ,-0.02615233047752645,0.03804833168302853,-0.002370038854059871,0.06408027516354695,0.0516530400784987,0.055170237750303, ,0.04623026084111212, ,0.08230624650846438, ,0.0010171302531602278, ,0.4127414584629289,-0.1994164082782253,0.14400615239,-3.4598840674946523,0.804105801119617,-0.41547718850004645, ,-0.18903773218818878,-0.30126013193165324,0.0,-0.10786806594870696,-0.2499611893877821,-0.07818740044185246, ,2.5945489406585693
0.05035184172000053,0.03314174056609175,-0.12067555290406486, ,0.04962792461453139,0.034440326850819686,-0.12062867157401723, ,0.001487474427874764, ,-0.02581999663852365,0.03761075039837638,-0.002610811589709579,0.03239430663209947,0.029037007327597997,0.04296827841121031, ,0.04569526353025337, ,0.043503320523796324, ,0.001020051645549759, ,0.41098067536760574,-0.2022197603115688,0.14400485610000002,-3.4609325172120746,0.8015097076240736,-0.416219004234734, ,-0.18754336276377626,-0.2993594370929678,0.00015364179605817239,-0.12292562907500014,-0.2868106096887141,-0.09072964858737628, ,2.598541021347046
0.05035184172000053,0.03314174056609175,-0.12067555290406486, ,0.049553229248119265,0.03455222540203788,-0.12064125621067172, ,0.0016212419979312119, ,-0.02581999663852365,0.03761075039837638,-0.002610811589709579,0.03239430663209947,0.029037007327597997,0.04296827841121031, ,0.04569526353025337, ,0.043503320523796324, ,0.0010237626971076692, ,0.41098067536760574,-0.2022197603115688,0.14400485610000002,-3.4609325172120746,0.8015097076240736,-0.416219004234734, ,-0.18754336276377626,-0.2993594370929678,0.00015364179605817239,-0.12292562907500014,-0.2868106096887141,-0.09072964858737628, ,2.6024010181427
