NicholasDascanio/dvrk_moveit_final/test/execution/first_exp_nosummary/yes_joints_yes_smoothramp/400vel3.csv
Current Position (x),Current Position (y),Current Position (z), ,Planned Position (x),Planned Position (y),Planned Position (z), ,Position Error,,Cartesian linear Velocity(x),Cartesian linear Velocity(y),Cartesian linear Velocity(z),Cartesian Angular Velocity(x),Cartesian Angular Velocity(y),Cartesian Angular Velocity(z), ,Total Linear Velocity, ,Total Angular Velocity, ,MSE, ,Joint 1 Position,Joint 2 Position,Joint 3 Position,Joint 4 Position,Joint 5 Position,Joint 6 Position, ,Joint 1 Velocity,Joint 2 Velocity,Joint 3 Velocity,Joint 4 Velocity,Joint 5 Velocity,Joint 6 Velocity, ,Time Stamp
0.010701704661014434,0.01872002489455564,-0.08057874750247243, ,0.01088540853440402,0.018762436267080677,-0.08069053575028999, ,0.00021918587994648506, ,-6.921029904256242e-05,-1.3616859314054185e-05,0.00028584633476030224,0.08343894165192867,-0.01021424044252399,-0.007493911410377572, ,0.0002944208067495204, ,0.08406180875886297, ,1.826548999554042e-05, ,0.15497980331993746,-0.22232203398317518,0.09009215500000001,-4.531819058587541,0.20987366363971652,-1.2068243250600323, ,-0.00029848597891720335,-0.0006142584403801159,-0.0002881400688642387,0.0,0.0,-0.08384064669718416, ,0.028761863708496094
0.010732302420383446,0.018729470017310585,-0.08059673351791541, ,0.0108885029624464,0.018840839322832415,-0.08072671040831668, ,0.00023172337730915127, ,0.001917508359477905,0.00045023359299176243,-0.0011148214314415851,0.31654339694043954,-0.2338324735865279,-0.07737362153393576, ,0.0022632665377562986, ,0.393544594487315, ,2.0495875329801653e-05, ,0.15497980331993746,-0.22243787497628856,0.09011030306000001,-4.532028748531025,0.20673102414511138,-1.213328053430617, ,-0.0002388810310172965,-0.005374979022105381,0.0010932468637071336,0.0,-0.19880164169107412,-0.3438734477370162, ,0.05773186683654785
0.010766979654990565,0.01875866287887691,-0.08063655889432197, ,0.010891643200320404,0.018919164315407293,-0.08076293264208909, ,0.00023931576376667383, ,0.0014401890558448447,0.0011885013121807125,-0.0009528745856550519,0.1858130400858277,-0.1651573768956233,-0.049881255465032075, ,0.0020963420192368007, ,0.2486029867257825, ,2.156953190694719e-05, ,0.15497208058706324,-0.22272361609263486,0.09015437692000002,-4.532028748531025,0.20345174815074082,-1.219802042637646, ,-9.400788254849428e-05,-0.01361115053908072,0.0011330404772451402,0.0,-0.1463878496889917,-0.19567950174673593, ,0.08596301078796387
0.010788299229264381,0.018811864082083487,-0.08069253298852117, ,0.01089482953463793,0.018997411225609072,-0.08079920218171141, ,0.0002390706280774435, ,0.00014741130788484204,0.0020960896137875284,-0.0018477963789872143,-0.18552024583383847,0.04390648167290499,0.0247644293747225, ,0.0027981553246591816, ,0.1906450648380898, ,2.212608688332747e-05, ,0.15494891238844055,-0.223210148263711,0.09021919142000001,-4.53223843847451,0.20181211015355555,-1.215279556927807, ,0.0002618773393980334,-0.01893016987003207,0.002226871455333427,0.0,0.018338260284819066,0.22104494246711515, ,0.11533999443054199
0.01078323181182132,0.018860114006331124,-0.08072952407462429, ,0.010898062250809363,0.01907558003437029,-0.08083551875817536, ,0.0002661700807721519, ,-0.00023536204230319168,0.0025374165755836673,-0.0017983130930088497,0.029358242142985328,0.05824300292760998,0.018666005284195035, ,0.003118943434801428, ,0.06522387424657429, ,2.2989725574459726e-05, ,0.15494891238844055,-0.22366578950329025,0.09026845044000001,-4.532028748531025,0.2030418386514445,-1.2130151684554522, ,0.0002618773393980334,-0.023825493738004213,0.0023784995550246383,0.0,0.06060395103953185,0.0029158099637431184, ,0.14387989044189453
0.010785682761204446,0.018931938276227356,-0.08075621640203501, ,0.010901341633044999,0.01915367072275225,-0.08087188210335929, ,0.0002755373058955574, ,3.719226322917475e-05,0.00254322395493153,-0.0004737980864150143,0.038458114847113346,-0.0008864067698395976,0.0034915033973094193, ,0.0025872487271370354, ,0.0384683287205898, ,2.3725855415604244e-05, ,0.1549566351213148,-0.22442261732496424,0.09031122801000001,-4.531819058587541,0.20331511165097538,-1.2128296105621423, ,-0.00044663419866889487,-0.0283867608610442,0.0010381188787475604,0.0,0.0,-0.010534126927784918, ,0.17184805870056152
0.01079152720262804,0.01901482896904745,-0.08078586772493215, ,0.010904667964356431,0.019231683271944834,-0.08090829195002724, ,0.00027352204945803603, ,0.00018435087452067556,0.0029070427240781137,-0.0012775703589416498,0.028827686345874782,-0.0005112040246261522,0.004550849889731511, ,0.0031807339823692166, ,0.02883221860363031, ,2.4229515072576375e-05, ,0.1549566351213148,-0.22531073160550008,0.09035919074000001,-4.531819058587541,0.20317847515120993,-1.2127998713985864, ,-0.00029267749637031316,-0.030376741856104606,0.0019167358217964832,0.0,-0.0009751802947658028,0.0010886191528260583, ,0.20093488693237305
0.010799364306436979,0.019102679129504044,-0.0808196165581036, ,0.010908041526558202,0.019309617663266502,-0.08094474803182745, ,0.00026512672563386725, ,0.0001989652143946096,0.002986101173888175,-0.001365981147085241,0.03005057296716154,0.002831147596181272,-0.005195365686527653, ,0.003289725196946964, ,0.03018364345736457, ,2.4507948912919098e-05, ,0.1549566351213148,-0.226237459550407,0.09041233863,-4.531399678700571,0.20290520215167906,-1.2122503206306314, ,-0.0002173297907156928,-0.030830715256163342,0.0020255355442522893,0.010514645651282087,0.0,0.0020156738100079335, ,0.2311398983001709
0.010804828642832127,0.019188922906981074,-0.080863158969104, ,0.01091146260026895,0.019387473878164058,-0.08098125008329149, ,0.00025443820524124843, ,0.00021159361507415585,0.002680057923265262,-0.0010369025143359336,-0.003533011830535656,-0.0011356301121994978,-0.004681711805657751, ,0.002881431788925991, ,0.0037110414097986707, ,2.460967408805016e-05, ,0.1549257441898179,-0.22712557383094284,0.09047456055000001,-4.531399678700571,0.20276856565191362,-1.2116488302860917, ,-0.0003144652565565129,-0.028259958772623817,0.0016284421790480007,0.010129934177855288,-0.00813885688472904,0.03218226730004734, ,0.26013898849487305
0.010811240510254097,0.01926779209775915,-0.08089640441878243, ,0.010914931464913158,0.019465251898212767,-0.08101779783983355, ,0.0002539262679357623, ,0.0002541630503508029,0.0025051864245288556,-0.0012798799997749597,-0.010394763116104851,-0.002960965716358218,0.0019185932998015303, ,0.0028246505432763264, ,0.010808256945962574, ,2.4686434157219382e-05, ,0.15491029872406945,-0.22795190624848485,0.09052511586,-4.531189988757087,0.20249529265238275,-1.2108542432977147, ,-0.0002972685036008178,-0.025696436923496015,0.0018291214038584289,0.0029700521907485614,-0.008772276704531396,0.035380112149079074, ,0.28891491889953613
0.010816749335804763,0.019343018946390362,-0.08093572510910638, ,0.010918448398722393,0.01954295170511596,-0.08105439103774827, ,0.0002537664478026889, ,0.00013424805873373202,0.0023265246522146373,-0.0009552077930259018,0.00813926077605149,-0.0009959052750319372,-0.0018211535960395142, ,0.0025185633655903177, ,0.008199963005807496, ,2.4748060105705946e-05, ,0.15488713052544675,-0.22871645680303307,0.09058085633000001,-4.530980298813603,0.2023586561526173,-1.210089395472894, ,-0.0007819731557839808,-0.024307618227067312,0.0014609108129940264,0.005835534341284085,-0.005382162325164224,0.007228858724065173, ,0.3192570209503174
0.010820573759968012,0.019389646279148763,-0.08095654026869341, ,0.01092201367873677,0.01962057328070518,-0.08109102941421113, ,0.0002858402830773458, ,0.00025537752839665867,0.00234655646752797,-0.0010259691379920282,-0.011797248581129932,-0.00032081558082492885,-0.0002893360263439679, ,0.002573743889632268, ,0.01180160992071571, ,2.5269611693524065e-05, ,0.15487940779257253,-0.22920298897410923,0.09061196729000001,-4.530980298813603,0.20222201965285186,-1.2096512626086353, ,0.0004828920474711382,-0.024370041489078266,0.001554898331793469,0.005835534341284085,-0.006009641456417992,0.03631003603284359, ,0.34527087211608887
0.010828241414060327,0.019462090449541846,-0.0809896689011403, ,0.010925627580806525,0.01969811660693991,-0.08112771270727631, ,0.0002902559299344804, ,0.00022330602269775098,0.002460570112052357,-0.0011910693406027087,-0.00757605837388782,-0.0007874167955556581,-0.0012273719711016554, ,0.0027427936543280482, ,0.0076168684964414216, ,2.5752914960391475e-05, ,0.15487940779257253,-0.22992892586428632,0.09065993002000002,-4.530770608870118,0.20194874665332097,-1.2088566756202583, ,-0.00032791961168633963,-0.02509173494406948,0.001751751200134779,0.006405960959152364,-0.0070228152301532645,0.032841354228454626, ,0.3704240322113037
0.010833449520346598,0.01951185190852147,-0.08101890203848079, ,0.0109292903795934,0.019775581665907694,-0.08116444065587597, ,0.00031610179434078136, ,0.00032477832254428996,0.0025611734842480795,-0.0016765464352037692,0.011238944051982867,-0.009064711665129987,0.00031999711257023745, ,0.0030782947429712766, ,0.014438935589658227, ,2.6359573663249444e-05, ,0.1548716850596983,-0.23044634896685937,0.0907014113,-4.530560918926633,0.20181211015355555,-1.2084185427559997, ,-0.0005386402231534407,-0.02523183769169656,0.0022337416238956674,0.0016614104037368893,-0.01205949575508767,0.012347360610390223, ,0.39566898345947266
0.010847323513924546,0.01959800533654146,-0.08108076594749958, ,0.010933002348571946,0.019852968439823603,-0.08120121299981893, ,0.0002947109416940921, ,0.0005870573258009908,0.0029153209725333324,-0.0019294075878812426,-0.026674908180376225,-0.02866796560979683,-0.009739079599767376, ,0.0035449042747079953, ,0.03915868969474411, ,2.6747916762741655e-05, ,0.15484851686107565,-0.23128040411727563,0.09078178128000002,-4.5303512289831485,0.2011289276547283,-1.2075347382769555, ,-0.0008457840889418359,-0.028870380760106718,0.002550650363490793,0.00886413372348415,-0.03976474853569086,0.051397616101301745, ,0.42105793952941895
0.010850431534104725,0.019657692719195256,-0.08111296608682442, ,0.01093676376003122,0.019930276911030737,-0.08123802947979034, ,0.00031208371814654717, ,0.00027370407781967285,0.002844863553155737,-0.0009897431012289436,0.00027768418952246006,-0.011491203499562654,-0.004923374151835119, ,0.003024525411485129, ,0.011494558120107181, ,2.720239107663893e-05, ,0.15481762592957873,-0.23217624113068566,0.09084400320000001,-4.5303512289831485,0.2011289276547283,-1.2071263445762526, ,-0.0005415117414311671,-0.03028948022932358,0.0016251680590510824,0.007703676939881757,-0.018198069192765284,0.02851635305437215, ,0.44753098487854004
0.010854788602533201,0.019743624387995675,-0.08114173674668346, ,0.010940574885076075,0.0200075070619996,-0.08127488983734962, ,0.0003077711771201781, ,0.00011685708186468687,0.002917276781952388,-0.0009086440819857458,0.0008376693077510177,0.0009860561103002888,-0.0005992753380149573, ,0.0030577431984763095, ,0.0012938301747869416, ,2.7581605880436685e-05, ,0.15479445773095607,-0.23280178249349784,0.09087511416,-4.5303512289831485,0.20085565465519745,-1.2064134363280163, ,-0.0009304221325316136,-0.03116484123430896,0.0015657881017710777,0.006803512138721053,-0.0056192032544212685,0.03052001247606493, ,0.47412586212158203
0.010859902677464712,0.019834352128686224,-0.08117857858116906, ,0.010944435993628583,0.020084658875328204,-0.08131179381493026, ,0.00029588113738831585, ,0.00021391906037651257,0.002872067254933103,-0.0014644850411100537,-0.004533886292783242,0.0012495558754081304,-0.0017689778391060873, ,0.003230982531194877, ,0.004702926194925708, ,2.7853872648804603e-05, ,0.15475584406658496,-0.23374395590415323,0.09093215092000001,-4.5299318490961795,0.20058238165566658,-1.205537170599499, ,-0.0008483465175472514,-0.02903823181103757,0.002105122188458954,0.007874828766515143,-0.005986300986780663,0.03393682745253883, ,0.5006098747253418
0.010865097853143045,0.019892815547838994,-0.0812082097287795, ,0.010948347354429611,0.020161732333742025,-0.08134874115583768, ,0.0003146359788642857, ,0.0003081498989778066,0.002943745671732352,-0.0015851123677961456,0.016999352689733786,-0.005303870473196743,-0.0043788659324787696, ,0.00335755508646147, ,0.017807555527258667, ,2.820143311089723e-05, ,0.15474812133371071,-0.23433860633546852,0.09097492849000001,-4.5299318490961795,0.20044574515590113,-1.2047723227746783, ,-0.000301809641226808,-0.02953530705212287,0.002246342056127486,0.007874828766515143,-0.009382162927531745,0.012152673778373244, ,0.5257589817047119
0.010875292854177997,0.01998198192025244,-0.08126077849193018, ,0.010952309235040147,0.020238727420093833,-0.08138573160424926, ,0.00029574153392470195, ,0.00032021462267850607,0.002893928415210581,-0.0016477983842225596,0.0008364544517834936,0.0021729642801871364,-0.013401915710823832, ,0.0033455341265613836, ,0.0023283964011158384, ,2.8418679929169907e-05, ,0.1547403986008365,-0.2352112751502559,0.09104752073000001,-4.529302779265726,0.20017247215637027,-1.204059414526442, ,0.0,-0.028437800886566007,0.0023035157657266816,0.019392288393864515,-0.006389309144945823,0.029589141087978114, ,0.5514318943023682
0.010881747738395781,0.020039131141679305,-0.08129071822489148, ,0.010956321901842793,0.02031564411736353,-0.08142276490521266, ,0.00031536812990442, ,0.0003308107174720009,0.002728518815693048,-0.0013829737293538885,0.009550572120893797,-0.00828904357206858,-0.013335978746753928, ,0.0030768274235758388, ,0.012646014042811522, ,2.8713729486307983e-05, ,0.15473267586796227,-0.23575958918432582,0.09108770572000001,-4.529302779265726,0.19989919915683937,-1.2034281850183461, ,-0.00031050305855128026,-0.027450662874883073,0.0019634909006475787,0.01596832566123112,-0.015239808029008801,0.01764644257454663, ,0.57753586769104
0.010888188212142156,0.0201177310004173,-0.08132878953403402, ,0.010960385620043199,0.020392482408658166,-0.08145984080464486, ,0.0003128501839006676, ,0.00018138154688252862,0.002585622100256285,-0.0010775204508656237,-0.009340896336619438,-0.0005200760417391088,-0.0067107733527523835, ,0.0028070253352823304, ,0.00935536335260202, ,2.897167554566294e-05, ,0.1547095076693396,-0.2365936443347421,0.09114603877,-4.529302779265726,0.19962592615730848,-1.2027152767701101, ,-0.0008764510766547475,-0.02664895859547059,0.0016617936798418549,0.011967607494407327,-0.009251851801978715,0.03655262335166544, ,0.604482889175415
0.010894646171316582,0.020197400649563674,-0.0813665369502546, ,0.010964500653671614,0.020469242277211665,-0.08149695904933144, ,0.00030949546548375513, ,0.0002332529331614516,0.002645534397023322,-0.0013237881576021531,-0.018904131549418245,-0.002067213037634545,0.005619519721017496, ,0.0029674356375277416, ,0.019016823062136617, ,2.9326570801911573e-05, ,0.15468633947071692,-0.23740453128653566,0.09120177924,-4.529093089322242,0.19935265315777762,-1.2019206897817334, ,-0.0006736832236056428,-0.028109283636987788,0.0021931449153242467,0.0,-0.007647439924410013,0.03385806853763864, ,0.6277790069580078
0.010900773205815393,0.020258143093883813,-0.08140628967743982, ,0.010968667265584087,0.020545923706385055,-0.08153411938692456, ,0.00032212997207714045, ,0.0002687245941143433,0.0029523301374700345,-0.0021908631062889424,-0.0033392313867465022,-0.0002184849235170312,-0.004047804597465027, ,0.003686237553196183, ,0.00334637144763731, ,2.971211003390209e-05, ,0.15465544853922003,-0.23799145898497673,0.09125492713000001,-4.528883399378757,0.19907938015824675,-1.2011261027933564, ,-0.0018247096712470867,-0.027739532756056937,0.002836831971504898,0.00908241020825135,-0.008537779656506948,0.031235484603417553, ,0.650244951248169
0.010907083796868207,0.020318408521403347,-0.08144722496952192, ,0.010972885717464187,0.020622526679665926,-0.0815713215659428, ,0.0003349891224836837, ,0.0003424768980350807,0.0030526107823685895,-0.0018481578031850003,-0.003830981247044653,-0.004490360824692043,-0.003178202423961314, ,0.003584886369160717, ,0.005902521294292338, ,3.0126119575231738e-05, ,0.1546400030734716,-0.23857066395054355,0.09130937131000001,-4.528883399378757,0.1989427436584813,-1.2005246124488167, ,-0.0006276135959708597,-0.029860585764150654,0.002536838910654563,0.007829719496931464,-0.011710989507613359,0.03319961986498231, ,0.674191951751709
0.01091344606277775,0.020381066449154103,-0.0814834844582572, ,0.010977156269824248,0.020699051180668667,-0.08160856533576985, ,0.0003475895652599927, ,0.0003177139827619625,0.003171576624495151,-0.0018259112886684942,0.0006051383725232775,-0.0007868805435240352,0.0012239135975550027, ,0.0036733897824725277, ,0.0009926597702039541, ,3.056472290304301e-05, ,0.15463228034059737,-0.23918075984760728,0.09135992662,-4.528464019491787,0.19880610715871586,-1.1998414433641362, ,-0.0002976801971140761,-0.031226371029440866,0.0025510588597053175,0.004658748296641945,-0.006343109203516369,0.030380561066149142, ,0.6970429420471191
0.010921045191648424,0.020478036165714246,-0.08153272054680655, ,0.010981479182006969,0.020775497193134127,-0.08164585044665328, ,0.00032393472222606656, ,0.00024337117723667457,0.0032126369262985817,-0.001454543526164337,-0.02287137058753016,0.0015803125191333237,-0.006065263559213633, ,0.003534962859724745, ,0.02292590194962367, ,3.088112505046023e-05, ,0.15460138940910045,-0.24015382418975958,0.09143122257000001,-4.528254329548303,0.19853283415918496,-1.1987201414151973, ,-0.0009470506924162576,-0.032588235425299025,0.0021904306270627066,0.013651152180162433,-0.010248593069171934,0.05628260353855236, ,0.7200319766998291
0.010926114239289794,0.020543298528160437,-0.08156571614573473, ,0.010985854712186707,0.020851864700929822,-0.08168317664970347, ,0.00033552790803759343, ,0.00030732064763106263,0.0033714306391221345,-0.001896755691094472,-0.021354320245540927,0.004237757378285646,-0.0030148394093993, ,0.0038805505648775054, ,0.021770750577823066, ,3.122274245445217e-05, ,0.154585943943352,-0.24081025648406867,0.09147918530000002,-4.528254329548303,0.19839619765941952,-1.1981186510706574, ,-0.0005929155031299742,-0.033088194406719236,0.002670379131601006,0.011503413888279634,-0.006454259027032723,0.0554779958926811, ,0.7425689697265625
0.01093150606107716,0.020610052276055838,-0.08159713416504852, ,0.010990283117371036,0.02092815368804951,-0.0817205436968926, ,0.00034622703997365503, ,0.00016132993026719359,0.0032625093704099625,-0.0012440915456147711,-0.022165895521846363,0.0029641208828030882,-0.0018398836422095141, ,0.0034953910385367437, ,0.02236320497805039, ,3.1583960058714486e-05, ,0.15456277574472935,-0.24148985697700043,0.09152585174000001,-4.528254329548303,0.19812292465988865,-1.1973240640822806, ,-0.0013134329729760702,-0.033747134266881494,0.0019964085072463706,0.009958130415519547,-0.008290341238514676,0.056454114554839493, ,0.7647180557250977
0.010934151751622725,0.020677609001983437,-0.08162148019465539, ,0.010994764653402213,0.021004364138613233,-0.0817579513410538, ,0.00035925926150258864, ,0.00022942527521930644,0.0033725847594451453,-0.0015747396477015464,-0.032627280565775366,0.005821994513895091,-0.0027068375660355506, ,0.0037291780427587944, ,0.033142647106529734, ,3.197155126247039e-05, ,0.15454733027898088,-0.24218490293568062,0.09156603673000001,-4.527834949661335,0.19812292465988865,-1.1965889554210158, ,-0.000991753169790001,-0.033952394117520844,0.0023538955992315654,0.012217049474768796,-0.00705982984880066,0.06776580294103246, ,0.7875180244445801
0.0109428277698016,0.020784126401259515,-0.0816813715570989, ,0.010999299574958486,0.021080496036867152,-0.08179539933587951, ,0.00032253117682097207, ,0.0002399430136709734,0.003413666976384698,-0.002003473556287274,-0.00019570865112375534,-0.00419658896345728,0.011434324497631524, ,0.0039654257231993804, ,0.004201149934489042, ,3.2207447964665476e-05, ,0.15450871661460977,-0.24322747187370095,0.09165029558000001,-4.527415569774365,0.19784965166035778,-1.195385974731936, ,-0.0017886451151787723,-0.03356807271258252,0.0027774736739319965,-0.006243948100160276,-0.008913985427457586,0.031503765070082096, ,0.8096399307250977
0.010949302333216619,0.020849148044473707,-0.08171563972077825, ,0.011003888135555686,0.021156549367183548,-0.08183288743592076, ,0.0003334999396205337, ,0.00028749138212271977,0.003218041735831429,-0.001616067515810845,0.0018643175503459944,-0.006878944306373629,0.010663098416504396, ,0.0036124947230420728, ,0.007127100019481649, ,3.246806774440159e-05, ,0.15449327114886133,-0.24387618143513579,0.09169955460000001,-4.527415569774365,0.19757637866082686,-1.1945097090034187, ,-0.0006131082639361983,-0.032388034661594116,0.002363325151335312,-0.006243948100160276,-0.010029904256869329,0.028076174923823312, ,0.8332650661468506
0.010952903729823016,0.020909141436091253,-0.08174704094141311, ,0.011008530587548528,0.021232524114060666,-0.0818704153965866, ,0.0003505594955217157, ,0.00028944323319802216,0.003273803983385847,-0.0017264811428131309,-0.014584736328978849,-0.004544449174217291,0.012109031054616217, ,0.0037124529685056617, ,0.015276339616136458, ,3.277179668609558e-05, ,0.15447782568311286,-0.24447083186645108,0.09174492475000001,-4.527415569774365,0.19757637866082686,-1.1939379578224347, ,-0.0007952083937699242,-0.03267801017853677,0.0024849939968798755,-0.006243948100160276,-0.010029904256869329,0.04500966765586225, ,0.8562400341033936
0.010957902574162365,0.02097819683942568,-0.08178422214298338, ,0.011013227182132254,0.02130842026212268,-0.08190798297414155, ,0.00035696647527982874, ,0.0002900878276834024,0.0032786390254641255,-0.0018439023640654836,-0.01163381475036613,0.0009206197230024795,-0.0031745545162059855, ,0.0037727444566618483, ,0.011670183644609132, ,3.3188672171315056e-05, ,0.1544546574844902,-0.24515815509225705,0.09179807264,-4.52762525971785,0.19743974216106144,-1.1932547887377545, ,-0.0008942142402200354,-0.03199492297992946,0.002603597829355999,0.009949857934627894,-0.00837568216444846,0.044030126668984676, ,0.8769009113311768
0.010966297788807247,0.021045873585924316,-0.08182171600450669, ,0.011017978169343865,0.021384237796119306,-0.08194558992570641, ,0.0003640136657141939, ,0.000290383312352253,0.0033249041778654746,-0.0018371130096375894,-0.018899359798822436,2.101694650235935e-05,-0.0053763340608956964, ,0.0038097630464714776, ,0.018899371484164765, ,3.3609416454110546e-05, ,0.15443921201874175,-0.24581458738656614,0.09185122053000001,-4.526996189887396,0.19702983266176513,-1.1923487838456812, ,-0.0011950239878942756,-0.03251008617967481,0.0026057273875347625,0.01218804454117981,-0.011281865414902245,0.051804736593231926, ,0.8962500095367432
0.010973485376336996,0.021113013927062836,-0.08186059333848882, ,0.01102278379806378,0.021459976700926142,-0.08198323600925568, ,0.00037128792806190324, ,0.0004640187469707994,0.0033934513814303587,-0.0018242342490384117,-0.030969525713425136,-0.012088890789135921,-0.007901347574705722, ,0.0038805484497731373, ,0.03324534258217162, ,3.4034485244370326e-05, ,0.1544237665529933,-0.24647101968087523,0.09190566471000002,-4.526996189887396,0.19675655966223426,-1.1917175543375857, ,-0.0005272848975531085,-0.03347334799240592,0.0026129940157480318,0.01218804454117981,-0.024790165227432385,0.0629940532587555, ,0.9169800281524658
0.01097765740624869,0.02118292931428193,-0.08189619315193314, ,0.011027644316017026,0.021535636961544202,-0.08202092098361732, ,0.00037743662723974434, ,0.00011918642570983963,0.003513312028790988,-0.0017830352129526187,0.013737706349956592,0.007538707040708889,-0.004580521957131664, ,0.00394167240982174, ,0.015670248229854227, ,3.446015873222706e-05, ,0.1543928756214964,-0.24716606563955543,0.09195751631000001,-4.526996189887396,0.19661992316246882,-1.1911977427331863, ,-0.001973316228989526,-0.03458343351256224,0.002599773383385018,0.01218804454117981,-0.00029512426186065546,0.022469695950827307, ,0.9361050128936768
0.010985503686466195,0.021255969929108092,-0.08193472400518148, ,0.011032559969774957,0.02161121856309997,-0.082058644608471, ,0.0003791730497695844, ,0.0004183306588448527,0.003803799364465843,-0.0021305216319821418,-0.013150590032596539,-0.0012663721126851667,-0.00318267097403824, ,0.0043798416146687506, ,0.013211423711671564, ,3.487318848864621e-05, ,0.15438515288862217,-0.24788427979685831,0.09201325678000001,-4.526786499943912,0.19634665016293792,-1.1900764407842472, ,-0.0001662112705478652,-0.036968033330140544,0.003029443042982123,0.010538430022323849,-0.010945917808861285,0.050243365544674165, ,0.9558999538421631
0.010990854295937914,0.02133207280197285,-0.08197792221722419, ,0.011037531004756518,0.021686721490845322,-0.08209640664434797, ,0.0003768195418711073, ,0.0002222810037249249,0.00387994027235348,-0.0018360460883409034,-0.010822617494629339,0.0021120379324281687,-0.0005796076480408886, ,0.004298186896839095, ,0.011026774398807998, ,3.52623592289705e-05, ,0.1543542619571253,-0.24862566215278387,0.09207418241000001,-4.526786499943912,0.19621001366317248,-1.1894749504397075, ,-0.0016899052451067559,-0.038686074830195996,0.002746820403517848,0.008734856924665583,-0.008462933811815074,0.04969811285034344, ,0.9765849113464355
0.010994444046230033,0.021408440664616713,-0.0820088570436492, ,0.01104255766522974,0.02176214573015734,-0.08213420685262911, ,0.00037833155873340544, ,0.0002266093729303341,0.0037548494984837194,-0.0015476778530614586,0.007198205692126246,-0.001719801535814985,0.004170625968236139, ,0.004067622561278301, ,0.00740080282806335, ,3.5640218551184905e-05, ,0.15433881649137682,-0.2493979354402063,0.09212344143000001,-4.526576810000427,0.19621001366317248,-1.1889031992587236, ,-0.0009678855088484086,-0.03815719403235657,0.002443444012885412,0.002286161275666183,-0.007445332529355547,0.030114132658071516, ,0.9965000152587891
0.011000258276478563,0.02148455492802332,-0.0820426607660751, ,0.01104764019431322,0.021837491266538247,-0.08217204499554395, ,0.0003788791153089101, ,0.00026319115063398876,0.003793749683287887,-0.001701023310726016,-0.02297637887207649,0.003147568913480656,0.004225689894231414, ,0.004165967660082383, ,0.02319097186674313, ,3.6004718791890865e-05, ,0.15431564829275415,-0.25016248599475455,0.09217529303000001,-4.526367120056943,0.1959367406636416,-1.1879452547900657, ,-0.0007765727760600247,-0.03803484631602035,0.002608287460291469,0.00499474871241702,-0.006980796990379778,0.06099684101038994, ,1.01790189743042
0.011003432357423227,0.02155845675793467,-0.08207554458959847, ,0.011052778833977522,0.021912758085615266,-0.08220992083617039, ,0.0003821275718753021, ,0.00022712355972472398,0.0036486106205212586,-0.0017757073782795852,-0.00975435822151558,0.002532980892416947,0.0036178623822132267, ,0.0040641212167994096, ,0.010077871625365317, ,3.6364095975128614e-05, ,0.1542924800941315,-0.25090386835068007,0.09222584834000001,-4.526367120056943,0.1959367406636416,-1.1871284673886602, ,-0.001225665355362395,-0.03630334413101407,0.00263416760707789,0.004332810395139436,-0.005904876377351294,0.04583753360294231, ,1.0378339290618896
0.011010338625192408,0.021638401159751828,-0.08212002785641502, ,0.0110579738250466,0.021987946173140576,-0.08224783413843259, ,0.0003752136383092219, ,0.00036251837793815586,0.003839230717323671,-0.0025657128543221815,0.004154579131146306,0.004472679481368683,0.008136657110600435, ,0.004631845693243528, ,0.006104538425534673, ,3.669110130435171e-05, ,0.15427703462838302,-0.25167614163810254,0.09228936655000002,-4.526157430113458,0.19580010416387617,-1.1866086557842608, ,-0.00043530319572039394,-0.03589143024147911,0.003477906445414847,0.0,0.0,0.03167840744041135, ,1.05814790725708
0.01101828149217618,0.021712500820048088,-0.08216338599073571, ,0.0110632254071994,0.022063055514991322,-0.08228578466710057, ,0.000374018696885903, ,0.00033993633017609387,0.003652579805607909,-0.0019092319782373752,0.0003512582719874339,-0.0035365476414473,-0.0037340743924983944, ,0.004135464023738146, ,0.003553948729019263, ,3.7002752867531076e-05, ,0.15426158916263458,-0.2523866330625312,0.09235029218000002,-4.525947740169974,0.1955268311643453,-1.185977426276165, ,-0.0007574856227203964,-0.03566213512155985,0.0027818392455466303,0.009350547173583907,-0.011657062962958499,0.03498951094422059, ,1.0780019760131836
0.011020604274138457,0.02178483836747944,-0.08219552635968384, ,0.01106853381897108,0.022138086097169142,-0.08232377218778868, ,0.0003788511478471272, ,0.00018215251798983542,0.0035591647967896985,-0.0015452961072135087,0.009491387569567262,0.0021469266913259613,-0.002670699805635534, ,0.0038844270683700984, ,0.00973117321831505, ,3.731562983299951e-05, ,0.15421525276538922,-0.2531125699527083,0.09239955120000001,-4.525947740169974,0.19539019466457985,-1.1852942571914848, ,-0.001268645798649375,-0.03555524224746001,0.002401449045680688,0.009350547173583907,-0.005100826915151935,0.02659955120960156, ,1.0979058742523193
0.011023611617497152,0.021856447117593422,-0.08223155319377592, ,0.011073899297754623,0.02221303790580053,-0.08236179646695514, ,0.0003829479745713251, ,0.0001937520766222715,0.0036602972570726694,-0.0018306395376162573,0.005513667842732003,0.003064765182710619,-0.0022039641895630242, ,0.004097140099387988, ,0.006308194566163337, ,3.77245095131366e-05, ,0.15418436183389234,-0.25381533864426276,0.09245269909,-4.525947740169974,0.19539019466457985,-1.184885863490782, ,-0.0016573470433009923,-0.035823684997535216,0.0027043822614601022,0.009276501577905587,-0.005100826915151935,0.03088096584559088, ,1.1159279346466064
0.011028041272927436,0.021928479432678324,-0.08226903608657347, ,0.011079322079802152,0.022287910927136296,-0.08239985727190027, ,0.00038592085055399794, ,0.00016760588795600314,0.003810127674118345,-0.002073283135526771,0.007718475826401837,0.0007258441577229644,0.0011608982090598248, ,0.004340929345983382, ,0.007752529831335173, ,3.812849380041553e-05, ,0.15413802543664698,-0.25451810733581715,0.09250714327000001,-4.525738050226489,0.19511692166504896,-1.1840912765024054, ,-0.002622601441939083,-0.03689616701340232,0.002970684729578516,0.005140756416286056,-0.007211527788121505,0.02878954465700229, ,1.1328089237213135
0.011031009407815205,0.021966963783116675,-0.0822924114843017, ,0.0110848024002266,0.02236270514755178,-0.0824379543707658, ,0.00042507369403178965, ,0.00022660191489312317,0.003799533253458533,-0.002487287013146256,-0.02338520970314309,0.003303422557665106,0.0032937768370289813, ,0.004546910825795514, ,0.0236173799003884, ,3.861802679599981e-05, ,0.15411485723802432,-0.25488107578090574,0.09253955052000001,-4.525528360283005,0.1949802851652835,-1.1836531436381468, ,-0.0028371008270198857,-0.03555524224746001,0.0033711770412698412,0.004859357527585048,-0.008665132143585027,0.05866119037228261, ,1.1502630710601807
0.011040137837927143,0.022048818813174314,-0.0823522718382466, ,0.011090340493002835,0.022437420553546666,-0.0824760875325338, ,0.0004109281510786171, ,0.0006562369454975426,0.004198406784733261,-0.0033361861553171247,-0.031862125352466415,-0.01079239052461476,0.0005261559476205846, ,0.005402536859815015, ,0.033640313981869896, ,3.90583707525173e-05, ,0.15408396630652743,-0.2556301808697055,0.09261862421000001,-4.525528360283005,0.19470701216575265,-1.1828585566497698, ,-0.0007470779926495401,-0.037597837384497144,0.004322608282225238,0.004859357527585048,-0.02244475116676847,0.06725130701573599, ,1.1678969860076904
0.011048658374121492,0.022130935054222013,-0.08241186910597338, ,0.011095936590969392,0.022512057131744808,-0.08251425652702546, ,0.0003974574842084418, ,0.00040787022345366297,0.00409309758754723,-0.002496107237362901,-0.019987084838738428,-0.001228186648009983,0.0029488336020635623, ,0.004811481821724005, ,0.020024784710362786, ,3.945330358470456e-05, ,0.15406079810790474,-0.2563792859585053,0.09269769790000001,-4.525528360283005,0.1945703756659872,-1.1821753875650893, ,-0.0009794938001484136,-0.038686074830195996,0.0034786659794715006,0.004859357527585048,-0.011380020034365163,0.05795306365370027, ,1.184877872467041
0.011050883947461664,0.022172898424651342,-0.08243412296668785, ,0.011101590925829822,0.022586614868894208,-0.08255246112490011, ,0.00043328560278557487, ,0.0002974123720793091,0.0041462950095224865,-0.00214658735016115,0.005834126589687062,-0.0016341223344386406,0.0008817787453167534, ,0.004678467022105509, ,0.006058662296483283, ,3.9922434327609924e-05, ,0.1540453526421563,-0.25678086806796496,0.09273010515,-4.52531867033952,0.1945703756659872,-1.181930351344668, ,-0.0014316885945660693,-0.040261748645935846,0.0031479864664031624,0.0057886560419370325,-0.00931007966250906,0.03384796201064717, ,1.201387882232666
0.011060550119601387,0.022257605467790525,-0.08247293682873598, ,0.011107303728154017,0.0226610937518668,-0.08259070109765378, ,0.000422915024955669, ,0.00028253811895150873,0.004137031131029633,-0.0018511976352440665,0.008424678533157056,-0.0013854522300755174,0.0014167056678347047, ,0.0045411217834916305, ,0.008537838499709299, ,4.035391766640994e-05, ,0.1540453526421563,-0.2576226459512554,0.09278973449000001,-4.52531867033952,0.1941604661666909,-1.1808609889723134, ,-0.000946453161250096,-0.04095681551940906,0.002865409519697788,0.005483286587081533,-0.008217247470972935,0.032036647271015364, ,1.2181179523468018
0.011068010243853654,0.022342457462511987,-0.08251691078424185, ,0.011113075227379867,0.022735493767658488,-0.0826289762176192, ,0.000411177639544617, ,0.0004985724026498521,0.004272635206896799,-0.0025447162627730236,0.008773523241139992,-0.006202211089252424,0.002216076429812243, ,0.004997956273310082, ,0.010744400046152477, ,4.0746154635194534e-05, ,0.15403762990928208,-0.25844125563592324,0.09285454899000001,-4.525108980396035,0.1940238296669254,-1.180177819887633, ,0.0,-0.0403988682666968,0.0035899958350236656,0.003447586435148832,-0.011523789051506604,0.030333217459407397, ,1.2357869148254395
0.011076749433804396,0.022431009619845215,-0.08256912718085953, ,0.011118905651814531,0.02280981490338899,-0.08266728625796312, ,0.00039358073374522, ,0.0005199042552445107,0.004498340042404441,-0.0027198876543626824,0.002977056586383969,-0.004804056462275608,-0.002368901731092851, ,0.005282343459495517, ,0.005651709852992468, ,4.108735327577588e-05, ,0.15402990717640785,-0.2592753107863395,0.09292843752,-4.524899290452551,0.19388719316716,-1.1794129720628121, ,-0.0002338168371042115,-0.042251532305641486,0.0038198588776978426,0.008861319778826182,-0.012883646335803713,0.03866095349830305, ,1.2532720565795898
0.011080361801307859,0.022477658758519738,-0.08259658711641936, ,0.011124795228636002,0.022884057146301744,-0.08270563099268674, ,0.00042311292347003017, ,0.0005017762448066715,0.004584323234859495,-0.0026700718277277206,-0.009597472177791427,-0.0011557005177107648,-0.00041622043821941705, ,0.00532889129995632, ,0.009666804836884136, ,4.148597360041555e-05, ,0.15402218444353363,-0.2597155065601703,0.09296732622000001,-4.524899290452551,0.19388719316716,-1.17908625710225, ,-0.00013815232094869045,-0.04329240034601769,0.0037970945220500607,0.008799729951481707,-0.010809849126460306,0.05271960011216899, ,1.2698709964752197
0.011090155486033784,0.02256872308916295,-0.08264404094546975, ,0.011130744183894458,0.022958220483763718,-0.08274401019662345, ,0.0004041652062845625, ,0.0003830277034354057,0.004558034105509996,-0.0020485654249964556,-0.005980193561375065,0.0007802150663386204,0.0015047981928658308, ,0.005011886414223911, ,0.0060308747744564385, ,4.183174055961838e-05, ,0.15402218444353363,-0.26059589810783185,0.09303732588000001,-4.524899290452551,0.1936139201676291,-1.1782099913737327, ,-0.00011941863272335559,-0.04478383273169929,0.0031876749089453675,0.00761354664661147,-0.008169871283994422,0.0507609280673787, ,1.2863969802856445
0.011094077734791678,0.02261233658285539,-0.08266568783455668, ,0.011136752742513788,0.023032304903265396,-0.08278242364543881, ,0.00043797465220534577, ,0.000434293371735584,0.004191621614039816,-0.0022239230593335993,0.01967665052164293,-0.005170316536946695,-0.0018494727052778496, ,0.004764885755383326, ,0.020344599990874616, ,4.233574044818062e-05, ,0.15401446171065938,-0.2610206484159142,0.09306973313000001,-4.524899290452551,0.19347728366786368,-1.177608501029193, ,-3.3737636881664776e-05,-0.04015951822195124,0.0032647697315023576,0.007151935183248408,-0.010082564388946788,0.019831253334353094, ,1.3009920120239258
0.011102258501357137,0.02270393815097923,-0.08271446326968412, ,0.01114282112829301,0.023106310392420674,-0.0828208711156285, ,0.00041817625119687583, ,0.00045427394823537156,0.004541082276813742,-0.00253810885120228,-0.006051902180830736,-0.004566544115104572,-0.0028939181890117295, ,0.005222048410862216, ,0.00758148040004129, ,4.278562617575354e-05, ,0.15399129351203672,-0.2618933172307016,0.09314102908,-4.524479910565582,0.19320401066833282,-1.1768955927809566, ,-0.0008931420284921244,-0.043095795439814163,0.0036550737769619097,0.00975851557131229,-0.014922530792755753,0.04847155834540534, ,1.3154900074005127
0.011105399249113189,0.022751086773979783,-0.08274310176011782, ,0.011148949563907707,0.023180236938966713,-0.0828593523845178, ,0.0004467445597882509, ,0.00042579059164750676,0.0048211703635665315,-0.0030218159162910636,-8.309285019153414e-05,-0.0031522704194907806,-0.0027520717823187224, ,0.005705817446643187, ,0.0031533653399795987, ,4.3287385720817077e-05, ,0.15397584804628828,-0.2623335130045324,0.09318121407,-4.524479910565582,0.19320401066833282,-1.176487199080254, ,-0.002027309290601903,-0.04474160375222573,0.0041906896921862676,0.00975851557131229,-0.014056073884066024,0.04420620663937591, ,1.3290579319000244
0.01111608624528175,0.022848194695472716,-0.08279691944641861, ,0.011155138270911453,0.02325408453076396,-0.08289786723026075, ,0.0004200738913110115, ,0.000444708676244687,0.004760837374871735,-0.0028638371796449037,-0.017210893879710913,0.002219990422842758,-0.00015746999201853235, ,0.005573589660911482, ,0.017353478770077955, ,4.372157967115167e-05, ,0.15396040258053983,-0.2632602409494393,0.09325899147000001,-4.524479910565582,0.19279410116903647,-1.1753361579677588, ,-0.00038993600055461393,-0.04709525635656118,0.003435895496117343,0.009726910068705056,-0.015006521488378523,0.049480659642748726, ,1.3427529335021973
0.011120504795703486,0.02289589841545207,-0.08282133521877874, ,0.011161387469737315,0.023327853155795917,-0.08293641543183829, ,0.00044888723102746764, ,0.0005656097124622961,0.004617505981099166,-0.0027187943559920957,-0.04170589584236528,-0.007073503040240035,0.0015742857496266476, ,0.0053882389129002745, ,0.04230149161821547, ,4.420740104809621e-05, ,0.1539526798476656,-0.26371588218901854,0.09329528759000001,-4.524270220622098,0.19265746466927103,-1.1748980251035002, ,-0.0005248837139955079,-0.043391377027192854,0.0038596587157741706,0.006317522663662502,-0.02094690929341014,0.08343353455593311, ,1.3569929599761963
0.011124266740048018,0.022943165485450313,-0.08284978591015632, ,0.011167697379699254,0.023401542802168922,-0.08297499676905762, ,0.00047715169928385276, ,0.0004891263722819674,0.004906121888913774,-0.0025330677213488157,0.010855835638046556,-0.010216561021293055,-0.0010406817770598881, ,0.005543077545721316, ,0.01490728970664347, ,4.474208725695502e-05, ,0.15394495711479136,-0.26415607796284934,0.09333547258000001,-4.524270220622098,0.19265746466927103,-1.1744896314027975, ,-0.0007725944107830832,-0.04709525635656118,0.003755023932107497,0.006317522663662502,-0.017942586255174357,0.03440415213582135, ,1.3710389137268066
0.011132064850551678,0.02304637321985492,-0.08290441096817422, ,0.011174068218993607,0.023475153458112262,-0.08301361102255143, ,0.0004444563280643861, ,0.00040550442790588157,0.00526723448788404,-0.0031037091419151416,0.016853793251468404,0.005241813080256055,0.0012654942372649419, ,0.006127087679233417, ,0.01765012609143564, ,4.519817381021868e-05, ,0.1539217889161687,-0.26513686503787587,0.09341584256,-4.524060530678613,0.19252082816950558,-1.173643104837836, ,-0.0011978451459855378,-0.04901701526780516,0.0044136357772236075,0.00863600957325171,-0.0025320877897687575,0.03287219299013865, ,1.3844928741455078
0.011137236805072847,0.023097327142059185,-0.0829347488168148, ,0.01118050020470047,0.02354868511197819,-0.08305225797377619, ,0.00046840595718513446, ,0.00044046556900050526,0.005281252687917852,-0.003009096539860384,-0.016068418834668276,0.0003857502910889494,0.0011806765192836283, ,0.006094284359735293, ,0.016073048462774287, ,4.5693910186770914e-05, ,0.15389862071754604,-0.2656156744760778,0.09345862013,-4.524060530678613,0.19224755516997472,-1.1729301965895997, ,-0.001654322422836143,-0.04958042923640061,0.00431792125779344,0.00863600957325171,-0.012487554009352102,0.06527545704931655, ,1.3985450267791748
0.011142959519810395,0.02315189234512263,-0.08296398422796851, ,0.011186993552785225,0.02362213775224143,-0.08309093740501187, ,0.0004890673247496298, ,0.0005792923525530493,0.005100228537107717,-0.0027476562313864606,-0.06113650907115728,-0.014084757399285467,-0.0015744252003729044, ,0.005822158150233573, ,0.06273797201255246, ,4.622143604469758e-05, ,0.1538831752517976,-0.26613309757865083,0.0935013977,-4.523850840735128,0.19197428217044385,-1.1720539308610824, ,-0.001733844796014473,-0.04864015456610496,0.004007248181132076,0.008685156708494388,-0.03345673645758231,0.10684632394329924, ,1.412363052368164
0.011148772172450996,0.023257730692282617,-0.08301366991873053, ,0.011193548478099955,0.023695511367499363,-0.0831296490993596, ,0.0004550912078695756, ,0.0004648762479028426,0.005280025917898137,-0.0022904541873044297,0.016211162929803413,-0.012517836266731962,-0.0032293083865735104, ,0.005774163489517826, ,0.02048165101436658, ,4.667030183156349e-05, ,0.1538600070531749,-0.26715249831804844,0.09357787881000001,-4.523641150791644,0.19197428217044385,-1.1714821796800985, ,-0.0009405680697780876,-0.051743152431009146,0.0036276045365520385,0.008307920865278663,-0.021017760475987392,0.03347334190961583, ,1.4263529777526855
0.011151732189382247,0.023308716646853113,-0.08303697676037039, ,0.011200165194384836,0.023768805946471714,-0.08316839284074219, ,0.000480934616946424, ,0.0005310136471424227,0.005411713157519895,-0.0027000720469179656,-0.0018873601823210912,-0.0069132335315854505,-0.0005729127065731256, ,0.0060711616558343446, ,0.007166235146612224, ,4.716153815654089e-05, ,0.15385228432030068,-0.2676467532219988,0.09361417493000002,-4.523641150791644,0.19197428217044385,-1.1711554647195361, ,-0.000508656525845078,-0.0518279309440037,0.004070741507794531,0.008307920865278663,-0.01719328825408247,0.05243209381988457, ,1.4396789073944092
0.01115706360603143,0.02336650760101941,-0.08306775454870857, ,0.011206843914269706,0.023842021478000852,-0.0832071684139018, ,0.0004980238469173297, ,0.0004013796526842391,0.005622641365933298,-0.0030914279897530875,0.0504633437350869,0.0035144092317154173,0.00038678177655479, ,0.006429006810645171, ,0.05058557237880328, ,4.7770549365775464e-05, ,0.15384456158742646,-0.2681950672560688,0.09365954508,-4.523641150791644,0.1918376456706784,-1.170799010595418, ,-0.0009523378753715398,-0.052662009743879454,0.004513689861150468,0.008307920865278663,0.0,0.002836933143577332, ,1.450679063796997
0.01116349507845349,0.023423272068851288,-0.08310158491839081, ,0.011213584849275355,0.023915157951051084,-0.08324597560439934, ,0.0005150819123736254, ,0.0005268959043726138,0.005656035765437303,-0.003516660369805259,-0.005158069577086987,0.0021922432162658424,0.0016505622419029134, ,0.006680962507791032, ,0.005604606279079301, ,4.840336130896008e-05, ,0.15382911612167802,-0.26872021309151606,0.09370750781000001,-4.523431460848159,0.1915643726711475,-1.1703311385676036, ,-0.0012000710600974258,-0.05179964058868492,0.0049330478538247135,0.008777077730626298,-0.009068723034017085,0.0569783252193351, ,1.462773084640503
0.011177195980115122,0.02354150392722705,-0.083170442050988, ,0.011220388209815087,0.02398821535470911,-0.08328481419861347, ,0.00046313891685106266, ,0.0006506036591713412,0.005584247765942132,-0.0028461445688726613,-0.027205385876220005,-0.014711451314732189,-0.008622136946976784, ,0.006301400410994383, ,0.030928301283339277, ,4.892569749426089e-05, ,0.15380594792305533,-0.26981684115965593,0.09380602585000002,-4.52301208096119,0.19101782667208575,-1.1691503582915528, ,-0.0008541036915465742,-0.05316355269382116,0.004260179598823215,0.014910533784690485,-0.03119099253346388,0.0782954541212349, ,1.4747059345245361
0.011180861642009324,0.023599577956863554,-0.08319831699217284, ,0.011227254205196121,0.024061193678183594,-0.08332368398373928, ,0.00048058113431894355, ,0.0005379295220824352,0.005794093518295374,-0.002777561647008871,0.0071365937477392664,-0.007496395689613864,-0.007396242897670014, ,0.006447924981915883, ,0.010350213451432541, ,4.947354046414916e-05, ,0.1537982251901811,-0.2703728779266001,0.09384880342000002,-4.52301208096119,0.19101782667208575,-1.1687419645908501, ,-0.0008226858716012674,-0.05546285304410916,0.004257902036888533,0.014910533784690485,-0.01940402070344803,0.047591804262151344, ,1.4867379665374756
0.011185383017485834,0.023657389070662678,-0.08322748222415502, ,0.011234183043621082,0.02413409291080525,-0.08336258474778756, ,0.000497876175016797, ,0.0005584481340713152,0.00593457071317617,-0.003102846754980101,0.0034688340781049306,-0.0024692432683550707,-0.004302225766191536, ,0.006720018739038351, ,0.004257930470560842, ,5.004602522208848e-05, ,0.1537982251901811,-0.27092119196067005,0.09389287728000001,-4.52301208096119,0.19101782667208575,-1.168170213409866, ,-0.000624218864484613,-0.05588748030534204,0.004619724918793504,0.0137134290691326,-0.014183882106334858,0.05231851663713073, ,1.4980928897857666
0.011190500544321096,0.023715633798591235,-0.08326049294359238, ,0.011241174932189431,0.02420691304202652,-0.0834015162795834, ,0.0005136251258556314, ,0.0006188658649225595,0.0060899403938124465,-0.003597010060920283,-0.022942581585673593,0.0032412713938242757,0.00014792299974152552, ,0.00709991903737758, ,0.023170409781908423, ,5.0639663526950744e-05, ,0.1537982251901811,-0.27146178326186576,0.09394084001000001,-4.52301208096119,0.19101782667208575,-1.1676801409690225, ,-0.0005020717882041522,-0.055986396199687774,0.0051482907304460255,0.012273488652313124,-0.011247090673870044,0.07935446770819019, ,1.5093460083007812
0.01119950922708965,0.023781619018757957,-0.08330206069360821, ,0.011248230076898779,0.02427965406142165,-0.08344047836876488, ,0.0005192033105854844, ,0.0006792908420127161,0.006483820900958187,-0.004245145580401753,0.005038513721216455,0.006852187492320689,-0.005451060965951505, ,0.007779629202124554, ,0.00850523912480562, ,5.123486024965315e-05, ,0.1537982251901811,-0.27205643369318105,0.09399917306000001,-4.522592701074221,0.19074455367255488,-1.1668038752405052, ,-0.0004165817189917788,-0.05804094284921761,0.005893012031076582,0.018046953883132582,-0.005705756149159374,0.05477989049935121, ,1.5203440189361572
0.011207069211833532,0.023844839074759573,-0.08334300040472073, ,0.011255348682646563,0.024352315958686494,-0.08347947080578294, ,0.0005277194949859675, ,0.0006136896362194616,0.006325238649996043,-0.003732975113169162,0.01519266660634811,0.0044779269801228025,-0.006561352474736952, ,0.00737023487716282, ,0.01583884301096709, ,5.183706184291314e-05, ,0.1537982251901811,-0.27262791592587365,0.09405620982000001,-4.522592701074221,0.1906079171727894,-1.1660390274156842, ,-0.00035760121426228194,-0.05782872733605776,0.005354222359663867,0.017956661202925883,-0.0067002521750164695,0.04413395407176241, ,1.5328998565673828
0.011214342398543053,0.023911354266687616,-0.0833816447925623, ,0.0112625309532313,0.024424898723638542,-0.08351849338189936, ,0.0005336455588417345, ,0.0005917490300766911,0.006327187740706885,-0.003761159053494691,-0.01111367621966548,0.009123099844254773,0.002327309665930885, ,0.007384428823303348, ,0.01437862125278786, ,5.2441316123413296e-05, ,0.1537982251901811,-0.2732380118229374,0.09411195029000001,-4.522383011130737,0.19047128067302396,-1.1654375370711447, ,-0.0003113193240362224,-0.05775833326748069,0.005386814852891445,0.011819800071930191,-0.003522579241690432,0.0702301162252381, ,1.543907880783081
0.01122554564401526,0.02403788012688144,-0.08345391157395411, ,0.011269777091354176,0.024497402346216737,-0.08355754588918585, ,0.0004731354587114377, ,0.0005498600399541115,0.00641277688553894,-0.003461429148446714,0.0007224795242995049,0.007181595907604648,0.0036429449812640856, ,0.007308046606101892, ,0.007217845658245018, ,5.2925452509843045e-05, ,0.1537982251901811,-0.2744041444869453,0.09421694978,-4.522383011130737,0.19047128067302396,-1.164620749669739, ,-0.00024962689272165883,-0.05953384037545218,0.005125100231660232,0.009828089183872632,-0.003522579241690432,0.05973227700233611, ,1.5553309917449951
0.011232308810243133,0.024101551581429653,-0.08348926600295108, ,0.011277087298620387,0.02456982681648129,-0.08359662812052367, ,0.00048250744354225936, ,0.0006414941604481009,0.006476101060600558,-0.0036676179443455494,0.020792024881626868,-0.003465854812544149,0.005159497144277443, ,0.007470128585953938, ,0.02107891001916856, ,5.341962337389941e-05, ,0.1537982251901811,-0.2749910721853863,0.09426880138,-4.522173321187252,0.19033464417325854,-1.1640192593251992, ,-0.00022768742725059627,-0.05972117152830131,0.005343445662529353,0.004306869594703139,-0.010237788321264568,0.037800593543546306, ,1.5671980381011963
0.011239256066413498,0.02416562571941334,-0.08352580784888784, ,0.011284461775540586,0.024642172124613632,-0.08363573986960153, ,0.0004911467007170035, ,0.0006698654262574044,0.006484072659726945,-0.003757408843330008,0.019217749206043282,-0.00021642565482771822,-0.008101031179468405, ,0.0075239643248654516, ,0.019218967814674987, ,5.392228316959036e-05, ,0.1537982251901811,-0.2755779998838274,0.09432194927000001,-4.521963631243768,0.1901980076734931,-1.1633360902405188, ,-0.0002089044293199971,-0.05919958924421134,0.005436454443686007,0.018132829655677085,-0.01117292074214801,0.040794711328165756, ,1.5783510208129883
0.01124613891462512,0.02423105327513456,-0.08356193417180864, ,0.011291900721532503,0.024714438260916412,-0.08367488093091509, ,0.0004985099375573165, ,0.0005802041063928842,0.006517881686154418,-0.0033266759590420145,-0.015509632352891992,0.005435252071557329,0.0007875138385395049, ,0.007340721450664807, ,0.0164344352016068, ,5.452902747238054e-05, ,0.1537982251901811,-0.2761803730480169,0.09437509716,-4.521753941300283,0.19006137117372765,-1.1628162786361198, ,-0.0001930489623278561,-0.061263358010633165,0.005058371394093365,0.01298831126257818,-0.008624773422872212,0.08088851675355789, ,1.5867068767547607
0.01125217236116821,0.024299449565245847,-0.08359727849977583, ,0.011299404334922089,0.024786625215813245,-0.08371405109976604, ,0.0005031965957346378, ,0.0006365966561720864,0.00654440076100559,-0.0035497870058150433,0.019162949591035736,-0.00010549498260002763,-0.0017430151251070932, ,0.007472310513485997, ,0.019163239957175247, ,5.513764667187425e-05, ,0.15379050245730688,-0.2768213598765776,0.09442824505000001,-4.521753941300283,0.18992473467396223,-1.1621331095514393, ,0.0,-0.060443911820682025,0.005260505785997359,0.012286846917127826,-0.009265089393106447,0.0415031925836907, ,1.594904899597168
0.01125217236116821,0.024299449565245847,-0.08359727849977583, ,0.011306972812945232,0.024858732979848794,-0.08375325017226073, ,0.0005832051011287845, ,0.0008246225017285412,0.007114516653476904,-0.004765841065004362,0.0001941184958265751,0.002208672990828785,0.001767821171555036, ,0.007472310513485997, ,0.019163239957175247, ,5.5882374231790764e-05, ,0.15379050245730688,-0.2774082875750186,0.09448528181000002,-4.521753941300283,0.18992473467396223,-1.1615613583704554, ,0.0,-0.0628040645655002,0.006603984875621892,0.010815107982780158,-0.009265089393106447,0.06283347231124431, ,1.6044878959655762
0.011258388686920891,0.02436456401651157,-0.08363737909144818, ,0.011314606351749076,0.02493076154368833,-0.08379247794530872, ,0.0005897420792928585, ,0.0008246225017285412,0.007114516653476904,-0.004765841065004362,0.0001941184958265751,0.002208672990828785,0.001767821171555036, ,0.008602882687787807, ,0.002217186485657557, ,5.663076954490688e-05, ,0.15379050245730688,-0.2774082875750186,0.09448528181000002,-4.521753941300283,0.18992473467396223,-1.1615613583704554, ,0.0,-0.0628040645655002,0.006603984875621892,0.010815107982780158,-0.009265089393106447,0.06283347231124431, ,1.6133708953857422
0.011268263631261972,0.024441417123407777,-0.08369280888827045, ,0.011322305146393445,0.025002710898118084,-0.0838317342166226, ,0.0005807507501019717, ,0.0009673163094043566,0.007320362628254554,-0.0053438784614470445,-0.027245164862704067,-0.0021381395780551296,0.008546520795950504, ,0.009114847604996104, ,0.02732893420704902, ,5.735538760745935e-05, ,0.15379050245730688,-0.27807244260220193,0.09456046663,-4.521544251356799,0.18978809817419678,-1.1607965105456344, ,0.0,-0.06334909316319812,0.007223950802721089,0.004109124312061063,-0.015492824627171147,0.0892172606463691, ,1.6216189861297607
0.011277451999869625,0.024514971206832655,-0.0837438096321727, ,0.011330069390852453,0.025074581034044724,-0.08387101878471649, ,0.0005762932561093089, ,0.0008345771876917307,0.007477033929852958,-0.00486573557288662,0.012703394294879874,0.004974853313668962,-0.007702430347692692, ,0.008959795652560502, ,0.013642777920069989, ,5.8064557946559226e-05, ,0.15379050245730688,-0.27871342943076255,0.09463046629,-4.5213345614133145,0.18965146167443137,-1.1600316627208134, ,0.0,-0.06603823351320166,0.006810094707139805,0.020938102600662326,-0.008266316226836322,0.05506626771917552, ,1.6308350563049316
0.011285682434749983,0.024585169186059463,-0.08378907666684725, ,0.011337899278015729,0.02514637194249562,-0.08391033144890452, ,0.0005765222066182147, ,0.0008031021729270492,0.007158823078269221,-0.0046308541396975255,0.006283548910694068,0.004186851787587701,-0.0059383646481601365, ,0.008563791860459585, ,0.007550676305780449, ,5.8766701982821934e-05, ,0.15379050245730688,-0.2793389707935747,0.09469398450000001,-4.5213345614133145,0.18951482517466592,-1.1592668148959926, ,0.0,-0.06326462770564718,0.006496252659053834,0.01871458174789402,-0.008905035036743005,0.05836170629055864, ,1.6389739513397217
0.01129549600772946,0.02466256786711187,-0.08383628420210154, ,0.01134579499968995,0.025218083614618428,-0.08394967200930048, ,0.0005691963889040346, ,0.0009189358096959719,0.007901488894370968,-0.004849933811949798,-0.0202897559644316,-0.00385384183299886,0.005245208162975021, ,0.009316642514903276, ,0.020652512953309072, ,5.9448813585175356e-05, ,0.15379050245730688,-0.2800340167522549,0.09476139158,-4.52112487146983,0.18924155217513502,-1.1583905491674753, ,0.0,-0.07092447052202598,0.006916548640903171,0.007870486519382902,-0.01852783716510236,0.08986275569284337, ,1.6477420330047607
0.011304642681543756,0.024741280193205133,-0.08388701609865759, ,0.011353756746600382,0.025289716041681114,-0.08398904026681618, ,0.0005600026805010912, ,0.0009692062170599644,0.007877703840772219,-0.005079492106121884,-0.0006886747466350166,-0.007761871645539934,0.0019032387971735778, ,0.009423312504117626, ,0.007792362989944158, ,6.0107978075236774e-05, ,0.15379050245730688,-0.2807290627109352,0.09483268753000001,-4.520915181526345,0.18910491567536958,-1.1576257013426543, ,0.0,-0.06982850740137658,0.0071365643010752695,0.008882579232637855,-0.02014426878255452,0.06884698141271622, ,1.6560869216918945
0.011304642681543756,0.024741280193205133,-0.08388701609865759, ,0.011361784708392256,0.025361269215071966,-0.08402843602316078, ,0.0006384756796575993, ,0.0009692062170599644,0.007877703840772219,-0.005079492106121884,-0.0006886747466350166,-0.007761871645539934,0.0019032387971735778, ,0.009423312504117626, ,0.007792362989944158, ,6.0895180386975416e-05, ,0.15378277972443266,-0.2815013359983576,0.09490787235,-4.52070549158286,0.18896827917560413,-1.1568608535178333, ,0.0,-0.0710306448790949,0.00687772518134715,0.02236355425351416,-0.016366223513301553,0.05757322514025444, ,1.6645159721374512
0.011313409223561131,0.02482769539127123,-0.08393956485994086, ,0.011369879073632119,0.025432743126299277,-0.08406785908083936, ,0.0006210724698016815, ,0.0008947391081386494,0.007942705957264493,-0.004787111035449497,0.014178341797228154,-0.0018766862422746958,-0.01051706797078748, ,0.009316843245483953, ,0.014302004225176171, ,6.164455975217329e-05, ,0.15378277972443266,-0.2815013359983576,0.09490787235,-4.52070549158286,0.18896827917560413,-1.1568608535178333, ,0.0,-0.0710306448790949,0.00687772518134715,0.02236355425351416,-0.016366223513301553,0.05757322514025444, ,1.6729240417480469
0.01131969677548061,0.024904167431539836,-0.08398012699029728, ,0.011378040029809421,0.02550413776699126,-0.08410730924315217, ,0.0006160711518880057, ,0.0007100382759482325,0.008032864966976456,-0.0037390095099088276,-0.0030280071017771163,0.0026081126537938156,-0.005403949969843379, ,0.008888828159334495, ,0.003996383101320301, ,6.248405214124256e-05, ,0.15378277972443266,-0.282204104689912,0.09496879798,-4.52070549158286,0.18896827917560413,-1.1562891023368493, ,0.0,-0.07525530654914415,0.005890832662721894,0.020297433808836526,-0.013938802097173308,0.07925642694803042, ,1.678699016571045
0.01131969677548061,0.024904167431539836,-0.08398012699029728, ,0.011386267763337905,0.02557545312889639,-0.08414678631419345, ,0.0006948607875979924, ,0.0007100382759482325,0.008032864966976456,-0.0037390095099088276,-0.0030280071017771163,0.0026081126537938156,-0.005403949969843379, ,0.008888828159334495, ,0.003996383101320301, ,6.345161187522475e-05, ,0.15378277972443266,-0.282204104689912,0.09496879798,-4.52070549158286,0.18896827917560413,-1.1562891023368493, ,0.0,-0.07525530654914415,0.005890832662721894,0.020297433808836526,-0.013938802097173308,0.07925642694803042, ,1.6841390132904053
0.011326901070471159,0.024988744033163663,-0.0840183307495731, ,0.011394562459557092,0.025646689203882644,-0.08418629009885008, ,0.0006824076891822164, ,0.000685289503884209,0.008453884523892816,-0.004059094365407519,0.016826752908598776,0.004482005828707003,0.00774360906524386, ,0.009402873620055275, ,0.01741344275534542, ,6.439155174905176e-05, ,0.15378277972443266,-0.2829995461759572,0.09502972361,-4.520495801639376,0.1888316426758387,-1.1555242545120286, ,0.0,-0.07881805777281627,0.006328490870083433,0.008031360943405832,-0.006018717650156846,0.06207849416384836, ,1.690566062927246
0.011337944685212896,0.025074311286220737,-0.08406564938818503, ,0.01140292430273359,0.02571784598393763,-0.084225820402801, ,0.0006663437639700806, ,0.0011179712093646551,0.00955959280416848,-0.005752226194365933,-0.01818332217201383,-0.006020300225717281,-0.0008690670777483371, ,0.01121266161076966, ,0.01915403909678982, ,6.529806213770602e-05, ,0.15378277972443266,-0.28377954219625384,0.09509972327,-4.520286111695891,0.1884217331765424,-1.1543732133995337, ,0.0,-0.08541578898152184,0.008283313322932919,0.015649773998998712,-0.024907656749291508,0.10242571948186388, ,1.6962730884552002
0.011337944685212896,0.025074311286220737,-0.08406564938818503, ,0.011411353476062744,0.025788923461168838,-0.0842653770325153, ,0.0007456209110988033, ,0.0011179712093646551,0.00955959280416848,-0.005752226194365933,-0.01818332217201383,-0.006020300225717281,-0.0008690670777483371, ,0.01121266161076966, ,0.01915403909678982, ,6.633171724161088e-05, ,0.15378277972443266,-0.28377954219625384,0.09509972327,-4.520286111695891,0.1884217331765424,-1.1543732133995337, ,0.0,-0.08541578898152184,0.008283313322932919,0.015649773998998712,-0.024907656749291508,0.10242571948186388, ,1.7021269798278809
0.011353277832924339,0.02517422513179404,-0.08413281297116201, ,0.011419850161669944,0.02585992162780302,-0.08430495979525274, ,0.0007101028718700754, ,0.0016143946744277015,0.009867595360876398,-0.0068466618063705515,-0.051948796741282326,-0.034760853118388536,-0.015768218229300444, ,0.012118270762019769, ,0.06250595473505041, ,6.729895248011482e-05, ,0.15378277972443266,-0.2846522110110412,0.09519305615000001,-4.520076421752408,0.1878751871774806,-1.1530290756432018, ,0.0,-0.08549274014276646,0.00942533226035503,0.022250003466365294,-0.061462276424633734,0.13221765650810646, ,1.7083489894866943
0.011353277832924339,0.02517422513179404,-0.08413281297116201, ,0.011428414540612072,0.025930840476186413,-0.08434456849906063, ,0.0007892735316781927, ,0.0016143946744277015,0.009867595360876398,-0.0068466618063705515,-0.051948796741282326,-0.034760853118388536,-0.015768218229300444, ,0.012118270762019769, ,0.06250595473505041, ,6.839190010401793e-05, ,0.15378277972443266,-0.2846522110110412,0.09519305615000001,-4.520076421752408,0.1878751871774806,-1.1530290756432018, ,0.0,-0.08549274014276646,0.00942533226035503,0.022250003466365294,-0.061462276424633734,0.13221765650810646, ,1.7139179706573486
0.011366670512078101,0.02527759892946707,-0.08420665653263709, ,0.011437046792879059,0.026001679998784576,-0.0843842029527742, ,0.0007488450755308857, ,0.0015363054846444968,0.010762613370335765,-0.008226419815443123,0.004009961578326927,-0.009195940812007253,-0.009982376828670543, ,0.013633343833461922, ,0.01003220223094136, ,6.941030488824897e-05, ,0.15379050245730688,-0.2855326025587028,0.09529416677000001,-4.519866731808922,0.18773855067771517,-1.1521825490782402, ,2.4576767157317052e-05,-0.09003504891695518,0.011038677422037424,0.023378471987878468,-0.02829576932642911,0.08523221805792314, ,1.7194819450378418
0.011382102778038845,0.025389901077911396,-0.08429793614701492, ,0.011445747097395181,0.026072440188182167,-0.08442386296601496, ,0.0006969704442650475, ,0.0015264479004597478,0.011624254102424927,-0.009785134011494697,0.03246032135227235,0.014598447949846579,-0.0019413780692055242, ,0.01527095852438448, ,0.03559195211179919, ,7.03359265043162e-05, ,0.15379050245730688,-0.2855326025587028,0.09529416677000001,-4.519866731808922,0.18773855067771517,-1.1521825490782402, ,2.4576767157317052e-05,-0.09003504891695518,0.011038677422037424,0.023378471987878468,-0.02829576932642911,0.08523221805792314, ,1.7252929210662842
0.011382102778038845,0.025389901077911396,-0.08429793614701492, ,0.011454515632020615,0.02614312103708296,-0.08446354834918998, ,0.0007746039825778542, ,0.0015264479004597478,0.011624254102424927,-0.009785134011494697,0.03246032135227235,0.014598447949846579,-0.0019413780692055242, ,0.01527095852438448, ,0.03559195211179919, ,7.13837482060835e-05, ,0.15379050245730688,-0.28645160777073553,0.09541472174000001,-4.519657041865438,0.18760191417794975,-1.1514177012534192, ,2.4413718304680894e-05,-0.09367911308832258,0.012814812164119069,0.022713999801835867,0.0,0.0641933006938387, ,1.7308249473571777
0.011399011778666321,0.025503950562114137,-0.08439135981867456, ,0.011463352573552854,0.026213722538309808,-0.08450325891349024, ,0.0007214134761008473, ,0.0016116545702621774,0.01203635865697262,-0.009544784459956724,0.008504932359755102,0.004984055596026054,-0.002748303293362489, ,0.01544584962247652, ,0.009857718062972589, ,7.233703647575186e-05, ,0.15379050245730688,-0.28738605844851667,0.09553786929000001,-4.519657041865438,0.18732864117841885,-1.1504597567847614, ,2.4200885193084138e-05,-0.09885098079007372,0.01270240153110048,0.022311284179786593,-0.013808926971962362,0.09148723806241377, ,1.736271858215332
0.011399011778666321,0.025503950562114137,-0.08439135981867456, ,0.011472258097728137,0.026284244684804222,-0.08454299447089007, ,0.0007982587355696864, ,0.0016116545702621774,0.01203635865697262,-0.009544784459956724,0.008504932359755102,0.004984055596026054,-0.002748303293362489, ,0.01544584962247652, ,0.009857718062972589, ,7.34102461023827e-05, ,0.15379050245730688,-0.28738605844851667,0.09553786929000001,-4.519657041865438,0.18732864117841885,-1.1504597567847614, ,2.4200885193084138e-05,-0.09885098079007372,0.01270240153110048,0.022311284179786593,-0.013808926971962362,0.09148723806241377, ,1.7419490814208984
0.01141871100392629,0.025630829257599894,-0.08449021346508684, ,0.011481232379222885,0.026354687469626752,-0.0845827548341461, ,0.0007324230597646827, ,0.0019105442005509267,0.0119417993161403,-0.008991611118457896,-0.05121557034588331,-0.030868818795658635,-0.004824974598494474, ,0.015070030542596898, ,0.059798984614448214, ,7.436867910984573e-05, ,0.1537982251901811,-0.2884363501194112,0.09567009087000002,-4.519447351921953,0.1869187316791225,-1.1491453581919855, ,4.343716941343779e-05,-0.10010225902792276,0.012131615780654989,0.015352337358290039,-0.05718479356427324,0.14568099337623988, ,1.7482690811157227
0.01141871100392629,0.025630829257599894,-0.08449021346508684, ,0.011490275591655231,0.026425050885956397,-0.08462253981679539, ,0.0008083438306330822, ,0.0019105442005509267,0.0119417993161403,-0.008991611118457896,-0.05121557034588331,-0.030868818795658635,-0.004824974598494474, ,0.015070030542596898, ,0.059798984614448214, ,7.544470924428845e-05, ,0.1537982251901811,-0.2884363501194112,0.09567009087000002,-4.519447351921953,0.1869187316791225,-1.1491453581919855, ,4.343716941343779e-05,-0.10010225902792276,0.012131615780654989,0.015352337358290039,-0.05718479356427324,0.14568099337623988, ,1.7539548873901367
0.011433976874811264,0.025752549304945808,-0.08457566975965201, ,0.011499387907586334,0.02649533492709081,-0.08466234923315563, ,0.0007506813004204265, ,0.0015211114498559378,0.012085602808151718,-0.007822132038186467,-0.010328568642094265,-0.010524659168104918,-0.0006003527081888257, ,0.014476233104717219, ,0.014746109707836293, ,7.641998059702317e-05, ,0.15380594792305533,-0.28946347359168306,0.09578805326,-4.519027972034984,0.1867820951793571,-1.1480537954066024, ,0.00026987603917072385,-0.10474276110206487,0.011061674666666669,0.017113740319014508,-0.031474074403157824,0.11302899719640097, ,1.759774923324585
0.011445858609240384,0.02587887262155228,-0.08464755961580936, ,0.011508569498521958,0.026565539586446228,-0.08470218289832286, ,0.000691684812110041, ,0.001231824018717125,0.01241706475947358,-0.006505460603265867,0.008252775433161101,0.002765455947057729,-0.008181158630774042, ,0.01407202562940721, ,0.008703794419308086, ,7.729331098748669e-05, ,0.15380594792305533,-0.28946347359168306,0.09578805326,-4.519027972034984,0.1867820951793571,-1.1480537954066024, ,0.00026987603917072385,-0.10474276110206487,0.011061674666666669,0.017113740319014508,-0.031474074403157824,0.11302899719640097, ,1.7653748989105225
0.011445858609240384,0.02587887262155228,-0.08464755961580936, ,0.011517820534913846,0.026635664857557004,-0.08474204062817109, ,0.0007660546122311138, ,0.001231824018717125,0.01241706475947358,-0.006505460603265867,0.008252775433161101,0.002765455947057729,-0.008181158630774042, ,0.01407202562940721, ,0.008703794419308086, ,7.828114295882134e-05, ,0.15381367065592955,-0.2905832698584456,0.09589434904000001,-4.5188182820915,0.1867820951793571,-1.1472370080051966, ,0.00043462062815639044,-0.11190677070574384,0.009899820708514607,0.029361318278036206,-0.019819110375281127,0.10494349363545466, ,1.7711279392242432
0.011445858609240384,0.02587887262155228,-0.08464755961580936, ,0.011527141186161112,0.02670571073407602,-0.08478192223935106, ,0.0008416183435724919, ,0.001231824018717125,0.01241706475947358,-0.006505460603265867,0.008252775433161101,0.002765455947057729,-0.008181158630774042, ,0.01407202562940721, ,0.008703794419308086, ,7.951233199206919e-05, ,0.15381367065592955,-0.2905832698584456,0.09589434904000001,-4.5188182820915,0.1867820951793571,-1.1472370080051966, ,0.00043462062815639044,-0.11190677070574384,0.009899820708514607,0.029361318278036206,-0.019819110375281127,0.10494349363545466, ,1.7740750312805176
0.011456798319600166,0.02600158997277663,-0.08470984890905095, ,0.011536531620611827,0.026775677209774102,-0.08482182754928914, ,0.0007861982355883239, ,0.0009617351371927007,0.012329188824256437,-0.005880251568434341,0.015703250335309143,0.023499272351244188,-0.010301757919767854, ,0.013693472534253516, ,0.028263189223810967, ,8.065031251315817e-05, ,0.15381367065592955,-0.29169534339233394,0.09599027450000001,-4.5186085921480155,0.18664545867959165,-1.1461454452198137, ,0.00043462062815639044,-0.11230407285026127,0.009287936746355686,0.03786670585349278,0.0,0.10201240939957598, ,1.7771220207214355
0.011456798319600166,0.02600158997277663,-0.08470984890905095, ,0.01154599200556437,0.026845564278540242,-0.08486175637618623, ,0.0008621624098605265, ,0.0009617351371927007,0.012329188824256437,-0.005880251568434341,0.015703250335309143,0.023499272351244188,-0.010301757919767854, ,0.013693472534253516, ,0.028263189223810967, ,8.190676283043689e-05, ,0.15381367065592955,-0.29169534339233394,0.09599027450000001,-4.5186085921480155,0.18664545867959165,-1.1461454452198137, ,0.00043462062815639044,-0.11230407285026127,0.009287936746355686,0.03786670585349278,0.0,0.10201240939957598, ,1.7798938751220703
0.011456798319600166,0.02600158997277663,-0.08470984890905095, ,0.01155552250726884,0.02691537193438146,-0.08490170853901678, ,0.0009389111013274056, ,0.0009617351371927007,0.012329188824256437,-0.005880251568434341,0.015703250335309143,0.023499272351244188,-0.010301757919767854, ,0.013693472534253516, ,0.028263189223810967, ,8.328237172048018e-05, ,0.15381367065592955,-0.29169534339233394,0.09599027450000001,-4.5186085921480155,0.18664545867959165,-1.1461454452198137, ,0.00043462062815639044,-0.11230407285026127,0.009287936746355686,0.03786670585349278,0.0,0.10201240939957598, ,1.7826268672943115
0.011468067718169694,0.02612943100106542,-0.08477039854309948, ,0.011565123290928622,0.026985100171422447,-0.0849416838575273, ,0.0008780251546747877, ,0.001138851247359011,0.013904235648739324,-0.006689811425515712,0.004122851285300357,0.01878632804424031,0.000966896082185711, ,0.013693472534253516, ,0.028263189223810967, ,8.455599797521464e-05, ,0.1538213933888038,-0.2928691987892161,0.09608619996000001,-4.5186085921480155,0.1865088221798262,-1.1448905249541492, ,0.0005190836010631234,-0.12652925541129437,0.01054190041032429,0.028585720197389017,-0.0053234988956355235,0.1257762684098952, ,1.7856810092926025
0.011468067718169694,0.02612943100106542,-0.08477039854309948, ,0.011574794520701778,0.027054748983905634,-0.08498168215223606, ,0.000955115041885523, ,0.001138851247359011,0.013904235648739324,-0.006689811425515712,0.004122851285300357,0.01878632804424031,0.000966896082185711, ,0.015471855998820736, ,0.019233408712643882, ,0.00047121103314403035, ,0.1538213933888038,-0.2928691987892161,0.09608619996000001,-4.5186085921480155,0.1865088221798262,-1.1448905249541492, ,0.0005190836010631234,-0.12652925541129437,0.01054190041032429,0.028585720197389017,-0.0053234988956355235,0.1257762684098952, ,1.7884750366210938
0.011468067718169694,0.02612943100106542,-0.08477039854309948, ,0.011584536359702398,0.027124318366191412,-0.08502170324443147, ,0.0010327244872953148, ,0.001138851247359011,0.013904235648739324,-0.006689811425515712,0.004122851285300357,0.01878632804424031,0.000966896082185711, ,0.015471855998820736, ,0.019233408712643882, ,0.0004760937588323024, ,0.1538213933888038,-0.2928691987892161,0.09608619996000001,-4.5186085921480155,0.1865088221798262,-1.1448905249541492, ,0.0005190836010631234,-0.12652925541129437,0.01054190041032429,0.028585720197389017,-0.0053234988956355235,0.1257762684098952, ,1.7914669513702393
0.011468067718169694,0.02612943100106542,-0.08477039854309948, ,0.01159434897000222,0.027193808312757365,-0.08506174695617076, ,0.0011107339528474477, ,0.001138851247359011,0.013904235648739324,-0.006689811425515712,0.004122851285300357,0.01878632804424031,0.000966896082185711, ,0.015471855998820736, ,0.019233408712643882, ,0.0004815647949876054, ,0.1538213933888038,-0.2928691987892161,0.09608619996000001,-4.5186085921480155,0.1865088221798262,-1.1448905249541492, ,0.0005190836010631234,-0.12652925541129437,0.01054190041032429,0.028585720197389017,-0.0053234988956355235,0.1257762684098952, ,1.7942969799041748
0.011490170204584897,0.026287392374743725,-0.08486079288853751, ,0.011604232512631988,0.02726321881819866,-0.08510181311027988, ,0.0010116018016747884, ,0.0024625674615361384,0.016082609270204936,-0.011029140836868267,-0.10416156243863582,-0.05083421655151499,-0.008670223593381553, ,0.019655953475732832, ,0.11590404867332531, ,0.0004860950258139916, ,0.15382911612167802,-0.2942670134394507,0.09621971783000001,-4.5181892122610465,0.18568900318123358,-1.1427518002094406, ,-0.0009268485558565769,-0.13673910887387722,0.015345675838150292,0.020614882564061972,-0.0930094241802557,0.2312992247035159, ,1.7970860004425049
0.011490170204584897,0.026287392374743725,-0.08486079288853751, ,0.011614187147582755,0.027332549877227778,-0.08514190153035117, ,0.0010893835300992743, ,0.0024625674615361384,0.016082609270204936,-0.011029140836868267,-0.10416156243863582,-0.05083421655151499,-0.008670223593381553, ,0.019655953475732832, ,0.11590404867332531, ,0.0004912076402570872, ,0.15382911612167802,-0.2942670134394507,0.09621971783000001,-4.5181892122610465,0.18568900318123358,-1.1427518002094406, ,-0.0009268485558565769,-0.13673910887387722,0.015345675838150292,0.020614882564061972,-0.0930094241802557,0.2312992247035159, ,1.799881935119629
0.011490170204584897,0.026287392374743725,-0.08486079288853751, ,0.011624213033807645,0.02740180148467453,-0.0851820120407432, ,0.001167500273279004, ,0.0024625674615361384,0.016082609270204936,-0.011029140836868267,-0.10416156243863582,-0.05083421655151499,-0.008670223593381553, ,0.019655953475732832, ,0.11590404867332531, ,0.0004968907716270193, ,0.15382911612167802,-0.2942670134394507,0.09621971783000001,-4.5181892122610465,0.18568900318123358,-1.1427518002094406, ,-0.0009268485558565769,-0.13673910887387722,0.015345675838150292,0.020614882564061972,-0.0930094241802557,0.2312992247035159, ,1.8028590679168701
0.011516379182247793,0.026456667631233523,-0.08499324091886362, ,0.011634310329223043,0.027470973635485726,-0.08522214446657955, ,0.0010464804154144052, ,0.0028981491982072584,0.018022875253028654,-0.015130283792880252,-0.05832373941647736,0.004219854954681133,-0.06698116086105389, ,0.02370967711324633, ,0.05847619141521403, ,0.0005014706853252476, ,0.1538213933888038,-0.2956339371581885,0.09639730956,-4.517350452487108,0.18500582068240637,-1.1405611358881471, ,0.0006486957620929654,-0.141426142412028,0.019935934317897377,0.09418305327860237,-0.05236352797334993,0.20654963267009452, ,1.8058888912200928
0.011516379182247793,0.026456667631233523,-0.08499324091886362, ,0.011644479190710162,0.027540066324725283,-0.08526229863374712, ,0.0011236344579826855, ,0.0028981491982072584,0.018022875253028654,-0.015130283792880252,-0.05832373941647736,0.004219854954681133,-0.06698116086105389, ,0.02370967711324633, ,0.05847619141521403, ,0.0005066125346860527, ,0.1538213933888038,-0.2956339371581885,0.09639730956,-4.517350452487108,0.18500582068240637,-1.1405611358881471, ,0.0006486957620929654,-0.141426142412028,0.019935934317897377,0.09418305327860237,-0.05236352797334993,0.20654963267009452, ,1.808717966079712
0.011516379182247793,0.026456667631233523,-0.08499324091886362, ,0.011654719774116352,0.027609079547573908,-0.08530247436889621, ,0.0012011730395329878, ,0.0028981491982072584,0.018022875253028654,-0.015130283792880252,-0.05832373941647736,0.004219854954681133,-0.06698116086105389, ,0.02370967711324633, ,0.05847619141521403, ,0.0005123056535782407, ,0.1538213933888038,-0.2956339371581885,0.09639730956,-4.517350452487108,0.18500582068240637,-1.1405611358881471, ,0.0006486957620929654,-0.141426142412028,0.019935934317897377,0.09418305327860237,-0.05236352797334993,0.20654963267009452, ,1.8115229606628418
0.011516379182247793,0.026456667631233523,-0.08499324091886362, ,0.011665032234256783,0.027678013299329472,-0.08534267149943772, ,0.001279017084126979, ,0.0028981491982072584,0.018022875253028654,-0.015130283792880252,-0.05832373941647736,0.004219854954681133,-0.06698116086105389, ,0.02370967711324633, ,0.05847619141521403, ,0.0005185390798428646, ,0.1538213933888038,-0.2956339371581885,0.09639730956,-4.517350452487108,0.18500582068240637,-1.1405611358881471, ,0.0006486957620929654,-0.141426142412028,0.019935934317897377,0.09418305327860237,-0.05236352797334993,0.20654963267009452, ,1.8144619464874268
0.011542884485256907,0.026646859247281062,-0.08515502919341708, ,0.011675416724915693,0.02774686757540626,-0.08538288985354421, ,0.0011311514473877208, ,0.003033674270723221,0.019931212265145666,-0.01791354709641074,-0.03899480051502133,0.022350870625554325,-0.022155439320865083, ,0.026969456270278545, ,0.044946123751689354, ,0.0005234795021617747, ,0.1538213933888038,-0.2971167018700396,0.09660990112000001,-4.516721382656655,0.18486918418264095,-1.1386527857013584, ,0.0006064136354211242,-0.1520784319847288,0.023219841865889216,0.058158594167403946,-0.020758365040289137,0.19702419398117868, ,1.8173909187316895
0.011542884485256907,0.026646859247281062,-0.08515502919341708, ,0.011685873398847831,0.027815642371335145,-0.08542312926014684, ,0.0012076330014801817, ,0.003033674270723221,0.019931212265145666,-0.01791354709641074,-0.03899480051502133,0.022350870625554325,-0.022155439320865083, ,0.026969456270278545, ,0.044946123751689354, ,0.000528952730156322, ,0.1538213933888038,-0.2971167018700396,0.09660990112000001,-4.516721382656655,0.18486918418264095,-1.1386527857013584, ,0.0006064136354211242,-0.1520784319847288,0.023219841865889216,0.058158594167403946,-0.020758365040289137,0.19702419398117868, ,1.8201839923858643
0.011542884485256907,0.026646859247281062,-0.08515502919341708, ,0.011696402407780072,0.02788433768276375,-0.08546338954893588, ,0.001284525881279234, ,0.003033674270723221,0.019931212265145666,-0.01791354709641074,-0.03899480051502133,0.022350870625554325,-0.022155439320865083, ,0.026969456270278545, ,0.044946123751689354, ,0.0005349493424668212, ,0.1538213933888038,-0.2971167018700396,0.09660990112000001,-4.516721382656655,0.18486918418264095,-1.1386527857013584, ,0.0006064136354211242,-0.1520784319847288,0.023219841865889216,0.058158594167403946,-0.020758365040289137,0.19702419398117868, ,1.8229150772094727
0.011575713245699285,0.02685802416226283,-0.08535025364857435, ,0.011707003902412711,0.027952953505455982,-0.0855036705503586, ,0.0011133931241384188, ,0.0031612798310297887,0.021233169803861838,-0.019573189434250595,-0.042202940859002974,0.03257216392291587,0.011193105885257536, ,0.029050833632079564, ,0.05331070443121696, ,0.0005395040179130543, ,0.15383683885455224,-0.29871530757500403,0.09686138138000001,-4.516721382656655,0.18473254768287548,-1.1365810780342884, ,0.0011055974266655664,-0.15975916087284645,0.02524375835182251,0.03112894957269994,-0.0022033024523967623,0.20671456135531846, ,1.8258960247039795
0.011575713245699285,0.02685802416226283,-0.08535025364857435, ,0.01171767803242094,0.028021489835292096,-0.08554397209561802, ,0.0011879954586240566, ,0.0031612798310297887,0.021233169803861838,-0.019573189434250595,-0.042202940859002974,0.03257216392291587,0.011193105885257536, ,0.029050833632079564, ,0.05331070443121696, ,0.000544570357293609, ,0.15383683885455224,-0.29871530757500403,0.09686138138000001,-4.516721382656655,0.18473254768287548,-1.1365810780342884, ,0.0011055974266655664,-0.15975916087284645,0.02524375835182251,0.03112894957269994,-0.0022033024523967623,0.20671456135531846, ,1.8286950588226318
0.011575713245699285,0.02685802416226283,-0.08535025364857435, ,0.011728424946456338,0.02808994666826847,-0.08558429401667328, ,0.0012632216029862737, ,0.0031612798310297887,0.021233169803861838,-0.019573189434250595,-0.042202940859002974,0.03257216392291587,0.011193105885257536, ,0.029050833632079564, ,0.05331070443121696, ,0.0005501412971826993, ,0.15383683885455224,-0.29871530757500403,0.09686138138000001,-4.516721382656655,0.18473254768287548,-1.1365810780342884, ,0.0011055974266655664,-0.15975916087284645,0.02524375835182251,0.03112894957269994,-0.0022033024523967623,0.20671456135531846, ,1.8315620422363281
0.011575713245699285,0.02685802416226283,-0.08535025364857435, ,0.01173924479214827,0.028158324000497625,-0.08562463614623678, ,0.0013389578003137007, ,0.0031612798310297887,0.021233169803861838,-0.019573189434250595,-0.042202940859002974,0.03257216392291587,0.011193105885257536, ,0.029050833632079564, ,0.05331070443121696, ,0.0005562091164375532, ,0.15383683885455224,-0.29871530757500403,0.09686138138000001,-4.516721382656655,0.18473254768287548,-1.1365810780342884, ,0.0011055974266655664,-0.15975916087284645,0.02524375835182251,0.03112894957269994,-0.0022033024523967623,0.20671456135531846, ,1.834557056427002
0.011610561142029695,0.02707492901360466,-0.08554451943292453, ,0.01175013771610536,0.028226621828208245,-0.08566499831777427, ,0.0011663589160009302, ,0.0034501898279069637,0.02213929251397013,-0.01921877475634328,-0.055320604946329135,0.027280158175620642,0.033833054018216326, ,0.029519711821133762, ,0.06168122680151614, ,0.000560866748495289, ,0.15387545251892334,-0.30036024967721386,0.09711415793000001,-4.516302002769685,0.18459591118311003,-1.1343460128869374, ,0.005329632516496721,-0.16976197058760426,0.02524375835182251,0.01134867937785615,0.0,0.2273898745275043, ,1.8373758792877197
0.011610561142029695,0.02707492901360466,-0.08554451943292453, ,0.011761103863916936,0.028294840147744724,-0.08570538036550378, ,0.0012396461293217441, ,0.0034501898279069637,0.02213929251397013,-0.01921877475634328,-0.055320604946329135,0.027280158175620642,0.033833054018216326, ,0.029519711821133762, ,0.06168122680151614, ,0.0005660090165318531, ,0.15387545251892334,-0.30036024967721386,0.09711415793000001,-4.516302002769685,0.18459591118311003,-1.1343460128869374, ,0.005329632516496721,-0.16976197058760426,0.02524375835182251,0.01134867937785615,0.0,0.2273898745275043, ,1.840162992477417
0.011610561142029695,0.02707492901360466,-0.08554451943292453, ,0.01177214338015448,0.02836297895556728,-0.08574578212439343, ,0.0013136544993431973, ,0.0034501898279069637,0.02213929251397013,-0.01921877475634328,-0.055320604946329135,0.027280158175620642,0.033833054018216326, ,0.029519711821133762, ,0.06168122680151614, ,0.0005716304111394572, ,0.15387545251892334,-0.30036024967721386,0.09711415793000001,-4.516302002769685,0.18459591118311003,-1.1343460128869374, ,0.005329632516496721,-0.16976197058760426,0.02524375835182251,0.01134867937785615,0.0,0.2273898745275043, ,1.8429210186004639
0.011645801792734998,0.02729907380461125,-0.08573205571569766, ,0.011783256408372998,0.02843103824825189,-0.08578620343016168, ,0.0011415643862737364, ,0.0034501898279069637,0.02213929251397013,-0.01921877475634328,-0.055320604946329135,0.027280158175620642,0.033833054018216326, ,0.029519711821133762, ,0.06168122680151614, ,0.0005758836497598621, ,0.15392951164904292,-0.30209014184104016,0.09736304561,-4.515672932939232,0.1844592746833446,-1.1321109477395863, ,0.005949604397241481,-0.18110103350853202,0.024695831813953493,0.06888380321842465,-0.005165844109730473,0.20992801340595063, ,1.8457159996032715
0.011645801792734998,0.02729907380461125,-0.08573205571569766, ,0.011794443091112602,0.02849901802249014,-0.08582664411927551, ,0.0012128096832132271, ,0.0034306082530869957,0.02311504131333362,-0.018311234224933384,-0.019193445307336625,0.036760274840536324,-0.021711451858601558, ,0.02968796905724001, ,0.0414693150466833, ,0.0005806016203780353, ,0.15392951164904292,-0.30209014184104016,0.09736304561,-4.515672932939232,0.1844592746833446,-1.1321109477395863, ,0.005949604397241481,-0.18110103350853202,0.024695831813953493,0.06888380321842465,-0.005165844109730473,0.20992801340595063, ,1.8489670753479004
0.011645801792734998,0.02729907380461125,-0.08573205571569766, ,0.011805703569899908,0.028566918275089,-0.08586710402894956, ,0.0012850043683091865, ,0.0034306082530869957,0.02311504131333362,-0.018311234224933384,-0.019193445307336625,0.036760274840536324,-0.021711451858601558, ,0.02968796905724001, ,0.0414693150466833, ,0.0005857810523481172, ,0.15392951164904292,-0.30209014184104016,0.09736304561,-4.515672932939232,0.1844592746833446,-1.1321109477395863, ,0.005949604397241481,-0.18110103350853202,0.024695831813953493,0.06888380321842465,-0.005165844109730473,0.20992801340595063, ,1.8519718647003174
0.011645801792734998,0.02729907380461125,-0.08573205571569766, ,0.011817037985249391,0.02863473900297087,-0.08590758299714524, ,0.0013579886532177831, ,0.0034306082530869957,0.02311504131333362,-0.018311234224933384,-0.019193445307336625,0.036760274840536324,-0.021711451858601558, ,0.02968796905724001, ,0.0414693150466833, ,0.0005914176041792828, ,0.15392951164904292,-0.30209014184104016,0.09736304561,-4.515672932939232,0.1844592746833446,-1.1321109477395863, ,0.005949604397241481,-0.18110103350853202,0.024695831813953493,0.06888380321842465,-0.005165844109730473,0.20992801340595063, ,1.8548269271850586
0.01167695531600873,0.027525290088670724,-0.085893123259323, ,0.011828446476664936,0.028702480203173578,-0.08594808086256868, ,0.0011881693800105753, ,0.0030400011785477847,0.023161690910384895,-0.01471911421432543,0.002319177742601734,0.027046175198543798,-0.004406843258205851, ,0.027610828604881368, ,0.02714541374492105, ,0.0005957418924099443, ,0.1539835707791625,-0.30392042953223136,0.09758730378000001,-4.515043863108779,0.18432263818357916,-1.1300392400725165, ,0.0077826488941910065,-0.19287996251721704,0.02129520256684492,0.05104711880724145,-0.00629525839116852,0.19713036610959744, ,1.8575620651245117
0.01167695531600873,0.027525290088670724,-0.085893123259323, ,0.011839929182641207,0.02877014187284989,-0.08598859746467144, ,0.0012590995868739317, ,0.0030400011785477847,0.023161690910384895,-0.01471911421432543,0.002319177742601734,0.027046175198543798,-0.004406843258205851, ,0.027610828604881368, ,0.02714541374492105, ,0.0006005142499240737, ,0.1539835707791625,-0.30392042953223136,0.09758730378000001,-4.515043863108779,0.18432263818357916,-1.1300392400725165, ,0.0077826488941910065,-0.19287996251721704,0.02129520256684492,0.05104711880724145,-0.00629525839116852,0.19713036610959744, ,1.8602869510650635
0.01167695531600873,0.027525290088670724,-0.085893123259323, ,0.011851486240665222,0.028837724009267818,-0.08602913264364738, ,0.0013309554433637535, ,0.0030400011785477847,0.023161690910384895,-0.01471911421432543,0.002319177742601734,0.027046175198543798,-0.004406843258205851, ,0.027610828604881368, ,0.02714541374492105, ,0.0006057316870200716, ,0.1539835707791625,-0.30392042953223136,0.09758730378000001,-4.515043863108779,0.18432263818357916,-1.1300392400725165, ,0.0077826488941910065,-0.19287996251721704,0.02129520256684492,0.05104711880724145,-0.00629525839116852,0.19713036610959744, ,1.8630390167236328
0.011705773465445988,0.02776401390537203,-0.08603070888843127, ,0.011863117787217633,0.028905226609810354,-0.08606968624043355, ,0.0011526677345767597, ,0.0026437936837181274,0.023655936374912673,-0.012223528469531602,0.01814298147462898,0.020823662030854072,0.017447421597896463, ,0.026758318688987804, ,0.027618696643341163, ,0.0006096106660807572, ,0.15406852084077896,-0.3059592310110266,0.09779341389000001,-4.515043863108779,0.18432263818357916,-1.128078950309143, ,0.007842907173379604,-0.20585019860839648,0.019076420982035932,0.02987376681936363,-0.005245698611911982,0.1910993641507055, ,1.8662149906158447
0.011705773465445988,0.02776401390537203,-0.08603070888843127, ,0.011874823957774266,0.02897264967197521,-0.08611025809670733, ,0.0012229908265421444, ,0.0026437936837181274,0.023655936374912673,-0.012223528469531602,0.01814298147462898,0.020823662030854072,0.017447421597896463, ,0.026758318688987804, ,0.027618696643341163, ,0.0006139302446755557, ,0.15406852084077896,-0.3059592310110266,0.09779341389000001,-4.515043863108779,0.18432263818357916,-1.128078950309143, ,0.007842907173379604,-0.20585019860839648,0.019076420982035932,0.02987376681936363,-0.005245698611911982,0.1910993641507055, ,1.8690118789672852
0.011705773465445988,0.02776401390537203,-0.08603070888843127, ,0.011886604886807605,0.02903999319337513,-0.08615084805488665, ,0.0012943170267292118, ,0.0026437936837181274,0.023655936374912673,-0.012223528469531602,0.01814298147462898,0.020823662030854072,0.017447421597896463, ,0.026758318688987804, ,0.027618696643341163, ,0.0006186881942004065, ,0.15406852084077896,-0.3059592310110266,0.09779341389000001,-4.515043863108779,0.18432263818357916,-1.128078950309143, ,0.007842907173379604,-0.20585019860839648,0.019076420982035932,0.02987376681936363,-0.005245698611911982,0.1910993641507055, ,1.8717870712280273
0.011705773465445988,0.02776401390537203,-0.08603070888843127, ,0.011898460707788152,0.029107257171737233,-0.08619145595812842, ,0.0013664810523432462, ,0.0026437936837181274,0.023655936374912673,-0.012223528469531602,0.01814298147462898,0.020823662030854072,0.017447421597896463, ,0.026758318688987804, ,0.027618696643341163, ,0.0006238812001597317, ,0.15406852084077896,-0.3059592310110266,0.09779341389000001,-4.515043863108779,0.18432263818357916,-1.128078950309143, ,0.007842907173379604,-0.20585019860839648,0.019076420982035932,0.02987376681936363,-0.005245698611911982,0.1910993641507055, ,1.8744959831237793
0.011731007725448574,0.02800519567399873,-0.08614993924843278, ,0.011910391553185823,0.02917444160490333,-0.08623208165032734, ,0.0011857748432057597, ,0.0024119100087067586,0.023685964106515425,-0.011407452878289969,0.023737865865125597,0.01445196082353175,0.046428517486782436, ,0.026400230807999445, ,0.027791100271560478, ,0.000627756328732463, ,0.15413030270377276,-0.30807525981856415,0.09798267223000001,-4.514834173165294,0.18418600168381372,-1.1261706001223541, ,0.007038614213500284,-0.20856470672191377,0.018330047779056387,0.0,-0.0022947911364891616,0.18416642706293868, ,1.8772079944610596
0.011731007725448574,0.02800519567399873,-0.08614993924843278, ,0.011922397554471689,0.029241546490829946,-0.08627272497611496, ,0.0012570878027628614, ,0.0024119100087067586,0.023685964106515425,-0.011407452878289969,0.023737865865125597,0.01445196082353175,0.046428517486782436, ,0.026400230807999445, ,0.027791100271560478, ,0.0006320668182806163, ,0.15413030270377276,-0.30807525981856415,0.09798267223000001,-4.514834173165294,0.18418600168381372,-1.1261706001223541, ,0.007038614213500284,-0.20856470672191377,0.018330047779056387,0.0,-0.0022947911364891616,0.18416642706293868, ,1.879978895187378
0.011731007725448574,0.02800519567399873,-0.08614993924843278, ,0.011934478842118963,0.029308571827587507,-0.08631338578085886, ,0.001329249661284547, ,0.0024119100087067586,0.023685964106515425,-0.011407452878289969,0.023737865865125597,0.01445196082353175,0.046428517486782436, ,0.026400230807999445, ,0.027791100271560478, ,0.0006368095587092144, ,0.15413030270377276,-0.30807525981856415,0.09798267223000001,-4.514834173165294,0.18418600168381372,-1.1261706001223541, ,0.007038614213500284,-0.20856470672191377,0.018330047779056387,0.0,-0.0022947911364891616,0.18416642706293868, ,1.8829660415649414
0.011758318121671748,0.028254832716118235,-0.0862645298466336, ,0.011946635545604838,0.029375517613360953,-0.08635406391066101, ,0.001139918610992022, ,0.0024119100087067586,0.023685964106515425,-0.011407452878289969,0.023737865865125597,0.01445196082353175,0.046428517486782436, ,0.026400230807999445, ,0.027791100271560478, ,0.0006402089441976119, ,0.154207530032515,-0.31027623868771814,0.09817063428000002,-4.513995413391356,0.18391272868428285,-1.1239874745515879, ,0.008142079463989989,-0.22069056176388552,0.01885066452071006,0.07999229098048231,-0.014654738154142507,0.20215150296559564, ,1.8859238624572754
0.011758318121671748,0.028254832716118235,-0.0862645298466336, ,0.011958867793411817,0.029442383846449458,-0.08639475921235695, ,0.0012113866210598176, ,0.0026533913198749657,0.025073130772699636,-0.011447772821014671,0.02781539616808793,0.028613615753915286,-0.029473612780848073, ,0.027690320958826887, ,0.039905326384965925, ,0.000644042351424875, ,0.154207530032515,-0.31027623868771814,0.09817063428000002,-4.513995413391356,0.18391272868428285,-1.1239874745515879, ,0.008142079463989989,-0.22069056176388552,0.01885066452071006,0.07999229098048231,-0.014654738154142507,0.20215150296559564, ,1.8889799118041992
0.011758318121671748,0.028254832716118235,-0.0862645298466336, ,0.01197117571302905,0.029509170525266075,-0.08643547153351513, ,0.0012837027514070924, ,0.0026533913198749657,0.025073130772699636,-0.011447772821014671,0.02781539616808793,0.028613615753915286,-0.029473612780848073, ,0.027690320958826887, ,0.039905326384965925, ,0.0006483067540914231, ,0.154207530032515,-0.31027623868771814,0.09817063428000002,-4.513995413391356,0.18391272868428285,-1.1239874745515879, ,0.008142079463989989,-0.22069056176388552,0.01885066452071006,0.07999229098048231,-0.014654738154142507,0.20215150296559564, ,1.8918919563293457
0.011758318121671748,0.028254832716118235,-0.0862645298466336, ,0.011983559430953887,0.029575877648337856,-0.08647620072243518, ,0.0013567232289648779, ,0.0026533913198749657,0.025073130772699636,-0.011447772821014671,0.02781539616808793,0.028613615753915286,-0.029473612780848073, ,0.027690320958826887, ,0.039905326384965925, ,0.0006529982539250221, ,0.154207530032515,-0.31027623868771814,0.09817063428000002,-4.513995413391356,0.18391272868428285,-1.1239874745515879, ,0.008142079463989989,-0.22069056176388552,0.01885066452071006,0.07999229098048231,-0.014654738154142507,0.20215150296559564, ,1.894792079925537
0.011787140006436912,0.028509367377814145,-0.0863853010771126, ,0.011996019072693294,0.029642505214305784,-0.08651694662814716, ,0.001159725127742036, ,0.0030063837364953,0.026013867226324826,-0.012874723732882013,0.0028160791766740677,-0.00031934631254685805,-0.030104871221559887, ,0.029180783787245257, ,0.0028340660282037025, ,0.0006563319833580288, ,0.15427703462838302,-0.31250038575549477,0.09836637407000001,-4.5131566536174175,0.1835028191849865,-1.1217746098172656, ,0.006226214703708247,-0.2254084122528997,0.02052681896907217,0.07174069713384582,-0.04856249502965575,0.22582402301910798, ,1.8976259231567383
0.011787140006436912,0.028509367377814145,-0.0863853010771126, ,0.012008554762765333,0.029709053221924457,-0.0865577091004106, ,0.0012320694563928468, ,0.0030063837364953,0.026013867226324826,-0.012874723732882013,0.0028160791766740677,-0.00031934631254685805,-0.030104871221559887, ,0.029180783787245257, ,0.0028340660282037025, ,0.0006600949733778642, ,0.15427703462838302,-0.31250038575549477,0.09836637407000001,-4.5131566536174175,0.1835028191849865,-1.1217746098172656, ,0.006226214703708247,-0.2254084122528997,0.02052681896907217,0.07174069713384582,-0.04856249502965575,0.22582402301910798, ,1.900649070739746
0.011787140006436912,0.028509367377814145,-0.0863853010771126, ,0.012021166624700572,0.029775521670062265,-0.08659848798971297, ,0.0013051298056279063, ,0.0030063837364953,0.026013867226324826,-0.012874723732882013,0.0028160791766740677,-0.00031934631254685805,-0.030104871221559887, ,0.029180783787245257, ,0.0028340660282037025, ,0.0006642835112496177, ,0.15427703462838302,-0.31250038575549477,0.09836637407000001,-4.5131566536174175,0.1835028191849865,-1.1217746098172656, ,0.006226214703708247,-0.2254084122528997,0.02052681896907217,0.07174069713384582,-0.04856249502965575,0.22582402301910798, ,1.9036428928375244
0.011814526206097868,0.02875901902158363,-0.08650972924285931, ,0.012033854781043477,0.029841910557701017,-0.0866392831472692, ,0.0011124492424062268, ,0.003163790589486163,0.026434320649958654,-0.013164857954461857,0.04046241408920217,-0.0069438658715661895,0.0026367206943436576, ,0.029700107139202535, ,0.041053913719986596, ,0.0006671749030635313, ,0.1543542619571253,-0.3146627509602776,0.09856470644000001,-4.5131566536174175,0.18336618268522106,-1.120029617110758, ,0.008813496102638528,-0.22811764797709322,0.021014263218997364,0.0381660561057153,-0.03650933576697418,0.18728743813210016, ,1.9064860343933105
0.011814526206097868,0.02875901902158363,-0.08650972924285931, ,0.01204661935335406,0.029908219883935893,-0.08668009442502002, ,0.0011847169055631468, ,0.003163790589486163,0.026434320649958654,-0.013164857954461857,0.04046241408920217,-0.0069438658715661895,0.0026367206943436576, ,0.029700107139202535, ,0.041053913719986596, ,0.0006704924800026314, ,0.1543542619571253,-0.3146627509602776,0.09856470644000001,-4.5131566536174175,0.18336618268522106,-1.120029617110758, ,0.008813496102638528,-0.22811764797709322,0.021014263218997364,0.0381660561057153,-0.03650933576697418,0.18728743813210016, ,1.9093329906463623
0.011814526206097868,0.02875901902158363,-0.08650972924285931, ,0.012059460462209001,0.02997444964797573,-0.08672092167563131, ,0.0012577227997650183, ,0.003163790589486163,0.026434320649958654,-0.013164857954461857,0.04046241408920217,-0.0069438658715661895,0.0026367206943436576, ,0.029700107139202535, ,0.041053913719986596, ,0.000674232800510672, ,0.1543542619571253,-0.3146627509602776,0.09856470644000001,-4.5131566536174175,0.18336618268522106,-1.120029617110758, ,0.008813496102638528,-0.22811764797709322,0.021014263218997364,0.0381660561057153,-0.03650933576697418,0.18728743813210016, ,1.9120728969573975
0.011814526206097868,0.02875901902158363,-0.08650972924285931, ,0.012072378227203442,0.030040599849142247,-0.08676176475249324, ,0.0013313372902726385, ,0.003163790589486163,0.026434320649958654,-0.013164857954461857,0.04046241408920217,-0.0069438658715661895,0.0026367206943436576, ,0.029700107139202535, ,0.041053913719986596, ,0.0006783916896863807, ,0.1543542619571253,-0.3146627509602776,0.09856470644000001,-4.5131566536174175,0.18336618268522106,-1.120029617110758, ,0.008813496102638528,-0.22811764797709322,0.021014263218997364,0.0381660561057153,-0.03650933576697418,0.18728743813210016, ,1.9149060249328613
0.011844776608838299,0.029030075111869426,-0.08664660147088968, ,0.01208537276695218,0.03010667048687046,-0.08680262350971789, ,0.0011141305979879047, ,0.0033768491053547773,0.026711769099533794,-0.013794460435443292,0.059569715338435525,-0.011676027609741273,0.04117829015079152, ,0.030252419027445628, ,0.06070321331494216, ,0.0006811321859650066, ,0.1544546574844902,-0.3169872935554192,0.09878248316,-4.512946963673933,0.18336618268522106,-1.1184777210480874, ,0.011611720944845427,-0.22811764797709322,0.021790439835841315,0.0,-0.022707010104829384,0.16438285198847447, ,1.9178149700164795
0.011844776608838299,0.029030075111869426,-0.08664660147088968, ,0.012098444199091223,0.03017266156070835,-0.08684349780214015, ,0.001186852646572003, ,0.0033768491053547773,0.026711769099533794,-0.013794460435443292,0.059569715338435525,-0.011676027609741273,0.04117829015079152, ,0.030252419027445628, ,0.06070321331494216, ,0.0006842929388438003, ,0.1544546574844902,-0.3169872935554192,0.09878248316,-4.512946963673933,0.18336618268522106,-1.1184777210480874, ,0.011611720944845427,-0.22811764797709322,0.021790439835841315,0.0,-0.022707010104829384,0.16438285198847447, ,1.9207680225372314
0.011844776608838299,0.029030075111869426,-0.08664660147088968, ,0.012111592640279225,0.030238573070316816,-0.08688438748531478, ,0.0012602381913200261, ,0.0033768491053547773,0.026711769099533794,-0.013794460435443292,0.059569715338435525,-0.011676027609741273,0.04117829015079152, ,0.030252419027445628, ,0.06070321331494216, ,0.0006878702385486217, ,0.1544546574844902,-0.3169872935554192,0.09878248316,-4.512946963673933,0.18336618268522106,-1.1184777210480874, ,0.011611720944845427,-0.22811764797709322,0.021790439835841315,0.0,-0.022707010104829384,0.16438285198847447, ,1.9235730171203613
