NicholasDascanio/dvrk_moveit_final/test/execution/first_exp_nosummary/yes_joints_yes_smoothramp/500vel5.csv
Current Position (x),Current Position (y),Current Position (z), ,Planned Position (x),Planned Position (y),Planned Position (z), ,Position Error,,Cartesian linear Velocity(x),Cartesian linear Velocity(y),Cartesian linear Velocity(z),Cartesian Angular Velocity(x),Cartesian Angular Velocity(y),Cartesian Angular Velocity(z), ,Total Linear Velocity, ,Total Angular Velocity, ,MSE, ,Joint 1 Position,Joint 2 Position,Joint 3 Position,Joint 4 Position,Joint 5 Position,Joint 6 Position, ,Joint 1 Velocity,Joint 2 Velocity,Joint 3 Velocity,Joint 4 Velocity,Joint 5 Velocity,Joint 6 Velocity, ,Time Stamp
0.00964333444332866,0.018490399650810632,-0.08122387162761362, ,0.009782011011075937,0.018572668119029776,-0.08134471524923745, ,0.0002015005513452832, ,-4.55406715732254e-06,0.00015387219661142201,0.00012899009152680208,0.08813909740718666,-0.013361790585549357,-0.026750157081859974, ,0.00020083783540406498, ,0.08914616054214344, ,1.6791712612106933e-05, ,0.16185303557799727,-0.21173416721261337,0.09105659476000001,-4.464508586729008,0.4168779607843588,-0.9280229531898297, ,9.165811532779234e-05,-0.0021442659798503144,-9.524340215074415e-05,0.0,-0.0010912463081555696,-0.09115379844270244, ,0.024586915969848633
0.009663155431734039,0.018513776414727925,-0.08124807009260175, ,0.009824999573934614,0.018695570064171205,-0.08137215034020265, ,0.0002732002291127262, ,0.00048091160786173354,0.0009680189192438249,-0.00101526382685487,-0.15691324107622007,-0.007655118109355583,0.043396135087031835, ,0.0014829353460991265, ,0.15709986014733132, ,2.1577308202636793e-05, ,0.1618916492423684,-0.2119581264659659,0.09108252056,-4.464089206842039,0.41537495928693896,-0.9247553877456551, ,0.001993291222602417,-0.01180111366135484,0.0010303855012070648,0.0,0.0,0.1476591887453731, ,0.047612905502319336
0.009672465851259256,0.01855033371781295,-0.08127466784865515, ,0.009867740754724493,0.01881806821035589,-0.08139983957118883, ,0.00035423439491759004, ,0.000739334636604498,0.0020986436678343532,-0.0008984684710366124,0.06115415680989308,-0.009291869368328258,-0.00750628121779679, ,0.002399617999363899, ,0.06185604037995387, ,2.5904224230487485e-05, ,0.1619920447697333,-0.212305649445306,0.09111881668,-4.464089206842039,0.4157848687862353,-0.9230476729532303, ,0.007542211652142193,-0.02191109248637053,0.0014336806435980454,0.0,0.003964221020402957,-0.04088826309083915, ,0.07071685791015625
0.009694527457786076,0.018603120050320294,-0.0813104538867523, ,0.009910236371619967,0.01894016440568884,-0.08142778180176286, ,0.00041700728127206467, ,0.0017610596902104382,0.0027878203619267333,-0.0017023594356624836,0.07750078707959432,-0.11331700916411142,-0.06542695669415793, ,0.0037109703921004915, ,0.13728480092071965, ,2.9665296586849147e-05, ,0.1621156084957209,-0.21282307254787905,0.09116548312000002,-4.46366982695507,0.41510168628740807,-0.9278813802840253, ,0.00701878753676306,-0.029199058941067932,0.0021165043210204628,0.024161984292644652,-0.10744224347923652,-0.07122773785208292, ,0.0932769775390625
0.00973485278380241,0.018677572542654338,-0.08135615047976444, ,0.009952488237144482,0.019061860492752002,-0.08145597589472002, ,0.0004527775752096473, ,0.0015504261917772732,0.004114861705811143,-0.0017236862823140926,-0.13802486299117103,0.017719433673103826,0.0345047113605188, ,0.004723028968145098, ,0.1391576125600459, ,3.266769292033291e-05, ,0.16233184501619918,-0.21358762310242727,0.09122511246000001,-4.463250447068101,0.41332541179045734,-0.924554336512739, ,0.014958534293579885,-0.041841684990507395,0.002765418666666667,0.02990349644484202,0.0,0.19433445762100512, ,0.11601686477661133
0.009777646857632936,0.018829589391515897,-0.08140104475885847, ,0.009994498158177505,0.0191831583086112,-0.08148442071608086, ,0.0004230685711874234, ,0.001597508905246285,0.005793993882106382,-0.001286069758797239,0.03242761721291697,0.04248525253218363,-0.024943479346346373, ,0.006146248874941541, ,0.053446674740598846, ,3.422239682330217e-05, ,0.162841545385898,-0.21516306060876905,0.0913106676,-4.462201997350679,0.41428186728881544,-0.921005288611164, ,0.020496099688654595,-0.05990968532731741,0.002879915299222564,0.062247576847527096,0.04552264177722202,0.04873770789829252, ,0.1385498046875
0.009813685500187366,0.018948650601399015,-0.08143374397858964, ,0.01003626793596184,0.01930405968482291,-0.08151311513508698, ,0.0004268001145492293, ,0.0019472564845288676,0.006122137569207183,-0.0013505377032041915,0.04406757397986466,-0.019870574705095376,-0.007641010761344119, ,0.006564779380955145, ,0.048340364247460195, ,3.539706552213839e-05, ,0.16323540476248347,-0.2164373115330161,0.09137418581000001,-4.461992307407194,0.41455514028834634,-0.9211464456784164, ,0.01958657204509201,-0.06626881393747959,0.00288356472121651,0.024166796307747835,-0.009281466090606455,0.02450402443707935, ,0.16141486167907715
0.009859351797841654,0.019087643854104133,-0.08145160519830753, ,0.010077799366110484,0.01942456644744113,-0.0815420580241968, ,0.0004116040423694189, ,0.002044460762098768,0.006537690154486948,-0.00041450934093552176,0.06840051019995698,8.329982174802575e-05,-0.07973798983864841, ,0.0068624361824034365, ,0.06840056092222278, ,3.609991170687052e-05, ,0.16370649146781116,-0.21793552171061567,0.09142733370000002,-4.460524477802802,0.41428186728881544,-0.9205968949104613, ,0.022551554552868527,-0.06998299524960973,0.002119320319318787,0.09948032271808281,-0.0012666811672511825,0.01711970980202116, ,0.18463897705078125
0.009900503563748504,0.019214021990374662,-0.08146914827108023, ,0.010119094238613907,0.01954468041702448,-0.08157124825908124, ,0.0004093180741213987, ,0.0019925203484944948,0.006404137229021194,-0.0011817665861545725,0.017415363741576366,-0.020643954531005697,0.045663704382685855, ,0.0068102630823964, ,0.027008660702214363, ,3.702759158334925e-05, ,0.1641621327073904,-0.21932561362797606,0.09147788901000001,-4.460105097915833,0.41428186728881544,-0.919698428768915, ,0.02166102295331449,-0.07145854033017378,0.002832795930997688,-0.01992040851177122,-0.0018326144128448288,0.05229639750482772, ,0.2053849697113037
0.009942803708696714,0.01934634162181196,-0.08148943915779423, ,0.010160154337847024,0.019664403408642877,-0.08160068471862036, ,0.00040097402788414146, ,0.001978841722562734,0.006288840158301666,-0.0005595332242872401,0.037841524375978555,-0.0001487086765466772,-0.04640971183679573, ,0.006616524958670076, ,0.03784181657066961, ,3.770484861968923e-05, ,0.16459460574834697,-0.2207234282782107,0.09152974061000001,-4.459685718028864,0.41414523078904997,-0.9185251872433913, ,0.022099893236718855,-0.06783198109969318,0.002232489351086195,0.034876570266876,0.0,0.04283020098252148, ,0.22622179985046387
0.00998250776326926,0.019468503354529355,-0.08150824717444222, ,0.010200981442576406,0.019783737231884656,-0.08163036628489867, ,0.0004025123887796921, ,0.0020570866296260766,0.006059396240890334,-0.0015348246952809736,0.019533564483610804,-0.016205781269546082,0.02426747955901358, ,0.006580545194066113, ,0.025380848842842803, ,3.8284378447235e-05, ,0.16502707878930356,-0.22209035199694846,0.09158288850000001,-4.458637268311442,0.4140085942892846,-0.9174336244580081, ,0.021547897719907082,-0.06549133302862027,0.003122684085473437,0.0,-0.001139121808811962,0.047337490314821956, ,0.24683499336242676
0.010025400532229833,0.01958966479581737,-0.08154953254973735, ,0.010241577325967215,0.019902683690863083,-0.08166029184320071, ,0.0003962080967051502, ,0.0019871117729224623,0.005758662205536036,-0.0021759110400623085,-0.006687205153331779,-0.007538537569862192,0.0085534302447406, ,0.00646880146934664, ,0.010077115728530407, ,3.872207921570987e-05, ,0.16544410636451168,-0.2233646029211955,0.09165548074,-4.458427578367957,0.41387195778951913,-0.916342061672625, ,0.018926394407353563,-0.059384819498417264,0.00366432287094548,0.02213294876326184,-0.0034292960016696133,0.07189131735808421, ,0.26854991912841797
0.010062650370396851,0.019700546940517268,-0.08157907840536384, ,0.010281943755590422,0.02002124458422379,-0.08169046028200841, ,0.00040415651660394937, ,0.0017514066077388467,0.005100889060970858,-0.0010778978059804072,0.025602546177533936,-0.019324704914414206,0.016466434382041116, ,0.0054998507250743475, ,0.032077010315808535, ,3.916032963824972e-05, ,0.16600786586433006,-0.22510221781789602,0.09173844330000001,-4.45716943870705,0.41373532128975365,-0.9147604264463983, ,0.01834111742529393,-0.055592818722009836,0.002425584211968936,0.0,-0.005307155122690297,0.02966400067662605, ,0.29068899154663086
0.010120863476413439,0.019858033307340466,-0.08162053699565423, ,0.010322082493429868,0.020139421705151168,-0.08172087049299563, ,0.0003601879147338066, ,0.0019370329681280625,0.005124367993736572,-0.001717453230672427,-0.016564540819517713,-0.005337022594742018,-0.022217143203658665, ,0.005741157518688539, ,0.017403098078311023, ,3.921727778523177e-05, ,0.16638627977516707,-0.22617567768741323,0.09179677635000001,-4.456540368876596,0.41346204829022276,-0.9136391244974595, ,0.01818297404837532,-0.0519414020571816,0.0030602903976945247,0.0530155111972346,-0.010256957493919064,0.07829204152796426, ,0.31076478958129883
0.010159324980654423,0.019956239203761716,-0.0816553858190481, ,0.010361995295889293,0.020257216841375512,-0.08175152137102444, ,0.00037537293372695097, ,0.0020290366518546897,0.00490811829380916,-0.0017255488822935645,-0.007582933195071547,-0.01200238466741201,-0.018811212213463893, ,0.005584275590063441, ,0.014197116380805886, ,3.937188077598946e-05, ,0.16675697095312983,-0.2271796329610624,0.09185770198000001,-4.455911299046143,0.41332541179045734,-0.9124658829719356, ,0.01914402694340746,-0.049736342535886144,0.0030265649857495725,0.04439379903162097,-0.012342596726049718,0.0645780312062913, ,0.33194589614868164
0.010199077701004212,0.020054749131603933,-0.081691237114099, ,0.010401683913799486,0.020374631775179897,-0.0817824118141413, ,0.0003894701645212307, ,0.001961981275710416,0.004637984705215092,-0.0017163936184372663,-0.0012517557267692678,-0.01378338181274051,0.012401854178157517, ,0.005320364621476574, ,0.013840105006118595, ,3.959995374701105e-05, ,0.16714310759684106,-0.22819131096758583,0.0919199239,-4.455491919159174,0.4131887752906919,-0.9115376776668336, ,0.01956637970277748,-0.04783111973713245,0.002979018425285207,0.010064867093728539,-0.003772891780447715,0.05198010269259998, ,0.352125883102417
0.01023918143018544,0.020153114636904047,-0.08172428680247192, ,0.010441150092425373,0.02049166828340716,-0.08181354072357297, ,0.0004041981871798245, ,0.0020005164366301213,0.0047778218063306115,-0.0015678148933335539,0.01675924278979422,-0.01217129111413344,-0.03907620634647805, ,0.005411810303958749, ,0.020712618044631165, ,3.989319671300323e-05, ,0.1675292442405523,-0.22917209804261232,0.09197955324000001,-4.454233779498266,0.4130521387909265,-0.9103644361413099, ,0.018926394407353563,-0.04797620907910555,0.0028500288996242623,0.05755182830631565,-0.012409158520571523,0.039297072472878565, ,0.3758227825164795
0.010273812118886217,0.020244073168087757,-0.08174987628254565, ,0.010480395571473004,0.02060832813746635,-0.0818449070037219, ,0.00042940568646322757, ,0.0018703547182079214,0.004863818961340358,-0.0013655986115656735,0.004480250461929862,-0.01963054308490076,0.013757917362759862, ,0.005387004847642772, ,0.02013531390381135, ,4.0537992694051196e-05, ,0.16789221268564083,-0.2301374396518904,0.09203010855,-4.454233779498266,0.4130521387909265,-0.909220933779342, ,0.018415862906747675,-0.05115738089405433,0.0026385309789630613,0.006493657342036609,-0.009652263219294435,0.04793076959920206, ,0.39354681968688965
0.010314278815500243,0.020350499939718842,-0.08178470142920478, ,0.010519422085096776,0.020724613103340225,-0.08187650956216286, ,0.00043643230120237695, ,0.0020197605973117146,0.005570355372528787,-0.001997235211628021,-0.01611518326397822,0.018621161633000663,-0.07145817717886266, ,0.006252778609328826, ,0.02462614042358567, ,4.1164408111090116e-05, ,0.16827834932935207,-0.23120317678853336,0.09209362676,-4.4529756398373594,0.41291550229116103,-0.9075576198129749, ,0.018791473575934806,-0.05325305362428214,0.0035054602816901414,0.11121260448471068,-0.0006124962171637897,0.09143918807463298, ,0.41254591941833496
0.010334151853578086,0.0204025050062991,-0.08180554316324239, ,0.010558231361906418,0.020840524941591762,-0.08190834730963842, ,0.0005026348399013642, ,0.00195601935905981,0.005404406296302925,-0.0019011006409549612,-0.004308189807309914,0.003311653594206253,-0.026002819305792874, ,0.006053742874914231, ,0.005433925737346384, ,4.2091250758216546e-05, ,0.16847141765120768,-0.23172832262398063,0.09212862659000001,-4.452765949893875,0.41291550229116103,-0.9067408324115692, ,0.018810097434781126,-0.05382696628387452,0.0033676134291754757,0.05754055458986521,-0.0007487078178775036,0.07030941298366583, ,0.4313488006591797
0.01037410323127373,0.02051674432351271,-0.08184186197342383, ,0.01059682512497408,0.020956065407371126,-0.08194041916005507, ,0.0005023162108599206, ,0.001971764122636891,0.00548711046391631,-0.0016097507518416567,-0.02958394570635437,-0.00857832175972402,0.03592956585702768, ,0.006048762888524618, ,0.030802555864068628, ,4.294041078280213e-05, ,0.16887299976066736,-0.23289445528798855,0.09219473738,-4.4525562599503905,0.41291550229116103,-0.9051072576087581, ,0.02021664711514077,-0.05786398875516511,0.0031220720344962765,0.0,-0.000852653094908933,0.09124208565336253, ,0.44888877868652344
0.010414655088924949,0.020634189913247208,-0.08187446552391094, ,0.010635205091841465,0.021071236250422707,-0.08197272403047863, ,0.0004993060571812733, ,0.00209391554094439,0.0063402537365633066,-0.0019175231528868132,0.03513751721129393,0.00625875303738585,-0.0639199403381718, ,0.0069469557921776354, ,0.035690574460647724, ,4.3707813595210287e-05, ,0.16927458187012703,-0.23409920161636757,0.09226084817,-4.451088430345999,0.41291550229116103,-0.9040454339869307, ,0.01999092933610086,-0.06288730388235307,0.003640039195612432,0.0907298361495462,-0.0008596120815438432,0.04384697209406179, ,0.4674389362335205
0.010458134186824746,0.020761773991059437,-0.08192329059307996, ,0.010673372974526904,0.021186039215091716,-0.08200526084113101, ,0.0004827502849509316, ,0.0019563076897482963,0.006181359201375723,-0.002041581573924807,-0.02572265364583556,-0.009705722493674927,0.050193790227864306, ,0.006797381604440781, ,0.027492834696923797, ,4.433856134966171e-05, ,0.1696761639795867,-0.23539662073923728,0.09234381073,-4.450669050459029,0.4127788657913956,-0.9024637987607043, ,0.019339095487766612,-0.06495341653557206,0.0037147414925373136,-0.012985796245546702,0.0,0.09248301651557209, ,0.4851868152618408
0.010496378709708876,0.02088461557620418,-0.08195046671832003, ,0.010711330479532339,0.021300476040331303,-0.08203802851538544, ,0.0004762470548776021, ,0.0019579562848242816,0.006472689803256341,-0.0012895247636446655,-0.007118360812163322,0.0069142257701039714,-0.023722029955834476, ,0.0068841978631147965, ,0.00992358698498414, ,4.4893531961900553e-05, ,0.17007002335617216,-0.23668631712923277,0.09240473636,-4.450039980628576,0.4127788657913956,-0.9005851877374713, ,0.020007788648212267,-0.06706497636641044,0.0030703183346183507,0.0632820579107833,0.0,0.08827682165783857, ,0.5031709671020508
0.01053928367838674,0.02101706138675,-0.08198162058532461, ,0.010749079307850523,0.021414548459709373,-0.08207102597976278, ,0.0005285171862962535, ,0.0021266492349363993,0.006675499200058443,-0.0017243453309566386,0.017295144122980447,0.000205351425971354,-0.012459672372854549, ,0.007215143335986364, ,0.017296363185004205, ,4.5639650598909586e-05, ,0.1704947736642545,-0.23806868631371897,0.09247084715000001,-4.4498302906850915,0.41264222929163014,-0.8988401950309636, ,0.0215527916326302,-0.06901595749706967,0.0035484097839162403,0.045242164645786176,0.0030587326745850824,0.0616950328699043, ,0.5220558643341064
0.010559741395534922,0.02108151195659977,-0.08200151819315606, ,0.010786621154972045,0.021528258201415598,-0.08210425216392712, ,0.0005114791308056294, ,0.0020599765018036497,0.006561598976407477,-0.0022523490145173334,0.020157842762281986,-0.010671903233521032,0.026733457437236867, ,0.007236792134528396, ,0.02280851032830847, ,4.626246730535363e-05, ,0.17070328745185856,-0.23875600953952494,0.09250973585000001,-4.449620600741607,0.41264222929163014,-0.8982684438499797, ,0.020229576115640757,-0.06778352968462198,0.0040541642962585904,0.0,0.0029349060130762126,0.04989657434092417, ,0.5409719944000244
0.010600914579893773,0.02121301279438779,-0.08203912982334255, ,0.010823957710892415,0.021641606988268062,-0.08213770600068193, ,0.0004931110260908808, ,0.0020609751530640693,0.006765570128040547,-0.00171979885345533,0.029790769175399627,0.00772920100819611,-0.045921792842633195, ,0.007278617027659054, ,0.03077710961529681, ,4.6961945631607374e-05, ,0.17110486956131823,-0.2400920423267658,0.09258362438,-4.448572151024184,0.41264222929163014,-0.8972066202281523, ,0.020399170584366032,-0.0682711809773171,0.0036005450994575053,0.07707323389178826,0.0026365913152978657,0.053622618361661566, ,0.556771993637085
0.010643069901416991,0.02134757726368461,-0.08208325918246638, ,0.01086109066011908,0.021754596537720352,-0.08217138642596535, ,0.0004700682415440801, ,0.002183034646594312,0.006669344103704501,-0.002139842760619578,0.009243151789304746,-0.00407233496736542,-0.003263575219770367, ,0.007336533110538326, ,0.010100483505342182, ,4.752955455579544e-05, ,0.17152961986940057,-0.2414821342441262,0.09266529065000001,-4.448572151024184,0.4127788657913956,-0.8961745357698809, ,0.021135176293646054,-0.06763858984923077,0.003994185436308927,0.03547741016647797,-0.0005203944130841523,0.066664269695967, ,0.5731499195098877
0.010665852748377795,0.02141531308187411,-0.0821049424729426, ,0.010898021681678645,0.021867228561868284,-0.08220529237884747, ,0.0005178804092293255, ,0.0022063710814573226,0.006554431015822696,-0.002278608957211381,-0.020318706993346577,-0.008073940605443312,0.02119660717495167, ,0.00728153129981281, ,0.021864088609413197, ,4.8252888646962465e-05, ,0.17173813365700466,-0.24216945746993218,0.09270547564,-4.448152771137215,0.41264222929163014,-0.8952463304647789, ,0.020994898574882917,-0.0667348393519485,0.0040948101593830345,0.016683994040677972,-0.00396481296559211,0.09284102754861893, ,0.5913779735565186
0.010709683396397897,0.021546292900778766,-0.0821486331127295, ,0.010934752449123819,0.02197950476745712,-0.08223942280152505, ,0.0004965595306883947, ,0.002284883056134338,0.006408981074382589,-0.001960622442324789,-0.007020108227573841,-0.0027557560430793828,-0.013524472249474437, ,0.007080944100425565, ,0.0075416252138943525, ,4.885665028255052e-05, ,0.17215516123221278,-0.2434668765928019,0.09278584562000002,-4.446894631476308,0.41264222929163014,-0.8935310769218271, ,0.02218254828388751,-0.06446803095004808,0.0037710254545454554,0.04941154250588692,-0.00396481296559211,0.08219844115377647, ,0.6069509983062744
0.010752693279112867,0.02167934967145499,-0.08219575683373759, ,0.010971284630540533,0.022091426855887997,-0.08227377663931733, ,0.0004729448962743, ,0.0021548299833996187,0.006474498879528997,-0.002674940671134758,-0.0020846741768297547,-0.010849364031604587,0.019348515484848273, ,0.007329238404668735, ,0.011047830835818558, ,4.934164415031513e-05, ,0.17255674334167245,-0.2447642957156716,0.09286751189,-4.446475251589339,0.41264222929163014,-0.8921425383394376, ,0.0195583144184812,-0.06508706554078929,0.004478158987911161,0.011574418961735684,-0.00396481296559211,0.07055071944297311, ,0.6250159740447998
0.010773763449431399,0.021740822010435167,-0.08221997065600722, ,0.011007619888554997,0.022202996523225136,-0.08230835284066289, ,0.0005254574435258506, ,0.002349511264746218,0.006658754498751549,-0.0025503096111014743,0.0049369052472719435,-0.0005856845490323538,-0.027371433729045873, ,0.007507549118739744, ,0.004971524887157925, ,4.9991701675490744e-05, ,0.1727575343964023,-0.24540528254423224,0.09291158575000001,-4.445846181758886,0.41264222929163014,-0.8914074296781724, ,0.0215527916326302,-0.06495341653557206,0.004420985711906744,0.061003297222673517,-0.00396481296559211,0.07213950457716739, ,0.6409499645233154
0.010821672792680308,0.021876434137892295,-0.08227496668220803, ,0.011043759880340816,0.02231421546020263,-0.0823431503571147, ,0.0004956048569103129, ,0.002341607119675756,0.006607451456537706,-0.0025585325218794412,-0.0002607570660489527,-0.008840572853409253,0.004646301836109008, ,0.007462414308984273, ,0.008844417590451882, ,5.050459936979313e-05, ,0.1732054529031073,-0.2467413153314731,0.09300491863,-4.445217111928431,0.41264222929163014,-0.8900188910957829, ,0.021795347165473305,-0.06558185318484504,0.004423441133018607,0.02772644038164208,-0.00396481296559211,0.07242387994469773, ,0.6577548980712891
0.010864823339078797,0.022004658556138403,-0.08231616622889901, ,0.01107970625762607,0.022425085352231398,-0.08237816814333654, ,0.00047621171441947295, ,0.002099963928443984,0.006429746035906067,-0.0018368731487588144,-0.0008566123459556958,-0.004354516834811965,-0.004079343184005518, ,0.0070089646561847345, ,0.00443797268524633, ,5.092617847230489e-05, ,0.17362248047831544,-0.24802328898859435,0.09308269603000001,-4.4443783521544935,0.41264222929163014,-0.8885486737732529, ,0.020316193868223247,-0.06517647085059805,0.00366432287094548,0.03752117371473113,-0.0036649835881369733,0.0744365226477729, ,0.6741659641265869
0.01088706598185745,0.022068187947909747,-0.08233677043024891, ,0.011115460666700296,0.022535607879405818,-0.0824134051570989, ,0.0005258501742736491, ,0.0023273881822092244,0.006466603266537586,-0.0019957643519133484,0.006686971855984653,0.003120182614607815,-0.04236864048277982, ,0.007156589194990156, ,0.007379101037360114, ,5.1494523858101915e-05, ,0.17383871699879372,-0.24865655308428075,0.09312158473000001,-4.443958972267525,0.41264222929163014,-0.8878135651119877, ,0.022234522389519864,-0.06339141052670058,0.0038596587157741706,0.07650582011724362,-0.0034912632146162923,0.07156182099883097, ,0.6911599636077881
0.010930276290854385,0.022195534836072214,-0.08237659273159323, ,0.01115102474842166,0.022645784716511172,-0.08244886035927412, ,0.0005066334437877658, ,0.0022004066247831664,0.006394623389778163,-0.002136751457521502,0.01354102261833948,-0.01424247081566512,0.01616041344728538, ,0.007092157951054663, ,0.019652156839413633, ,5.2144741952309664e-05, ,0.17426346730687606,-0.24994624947427627,0.09319806584000001,-4.443539592380556,0.41264222929163014,-0.8866700627500197, ,0.021210760294696197,-0.06482031527217949,0.003969302646399203,0.01029900628015079,-0.0031864101078127823,0.054164711493332116, ,0.7051138877868652
0.010952760857885402,0.022263421879928677,-0.08239721453014304, ,0.011186400138224004,0.022755617533029817,-0.08248453271383352, ,0.0005517864980695001, ,0.002256082322632092,0.006684334770976529,-0.0017589643934833794,0.00791627482813552,-0.007980686369400686,-0.00041663270627878037, ,0.007270776747674295, ,0.011240941333557086, ,5.2915445327650445e-05, ,0.17447970382735434,-0.2506181272343338,0.09323825083000001,-4.442910522550102,0.41264222929163014,-0.8860166328288954, ,0.02240248856432266,-0.06817309020005086,0.0036940657513914663,0.03239020713654133,-0.003052945511720532,0.06753819295714969, ,0.7183558940887451
0.010976817470531034,0.022334311332554466,-0.08241811865875966, ,0.01122158846612386,0.022865107993148604,-0.08252042118784197, ,0.0005934001538911415, ,0.0022477231031935857,0.0068037792380549675,-0.0019615739232184152,0.008300320666096813,0.00603283348868263,-0.04398469680394483, ,0.007429094381219593, ,0.010261111198752438, ,5.378857027045183e-05, ,0.1747113858135811,-0.251313173193014,0.09327973211000001,-4.4420717627761634,0.41264222929163014,-0.8852815241676302, ,0.021320364313293816,-0.06692308995660845,0.003923352591133005,0.07996038997985111,-0.002924269574697957,0.07432486378110174, ,0.7324349880218506
0.011021384151201664,0.02246809206930327,-0.08246513037466446, ,0.011256591356727656,0.0229742577557656,-0.08255652475145521, ,0.0005655785213320937, ,0.0024444863839035587,0.006883761985401929,-0.0026431663665748514,-0.030264955553977724,-0.009477505462474226,0.03404280478169887, ,0.007768398882276006, ,0.031714202565198864, ,5.454275380992196e-05, ,0.17513613612166343,-0.2526492059802548,0.09336528725000001,-4.441652382889195,0.41264222929163014,-0.8834029131443975, ,0.023066830714261247,-0.0686167328694655,0.004631814922942717,0.007522308684012649,-0.0027115870222590714,0.1039560027406114, ,0.747917890548706
0.01104709493891421,0.022544535326442863,-0.08249633002303601, ,0.011291410429238641,0.02308306847449702,-0.08259284237791446, ,0.0005991849839655292, ,0.0024558018444443513,0.00741972096716902,-0.0033572665876512777,-0.01912180948033556,-0.001600480470108176,0.008155019661118335, ,0.008506142537624413, ,0.01918867205178458, ,5.537180399622074e-05, ,0.17536781810789018,-0.25338286560330614,0.09341843514,-4.441023313058741,0.41264222929163014,-0.8823410895225701, ,0.02138281693521198,-0.07140477167680269,0.005462555390946503,0.033993380728665853,-0.0026104935653321172,0.09983728919787077, ,0.7625489234924316
0.011097894457402878,0.022693937659839597,-0.08256095606315532, ,0.011326047297464004,0.023191541797683877,-0.08262937304354316, ,0.0005516742513776557, ,0.002486874999836278,0.007494431519090511,-0.002614941219249647,0.006600681726335878,-0.006603206174874769,0.0017327327902759218, ,0.008317990661168046, ,0.00933655883706741, ,5.602882024592233e-05, ,0.1758234593474694,-0.2548192939179119,0.09352602721000002,-4.440184553284803,0.41264222929163014,-0.8807075147197587, ,0.023287593020483624,-0.07419620137487942,0.004786301538461539,0.034005736463636374,-0.0024342699694827994,0.07563973675890406, ,0.7777969837188721
0.011122111218132941,0.022765964434282346,-0.08258439650188158, ,0.011360503569822019,0.023299679368399294,-0.08266611572774252, ,0.0005902207859086443, ,0.002181931482239839,0.007167952579521788,-0.0019416162854753569,0.01904498646757443,-0.007216607186220901,0.009072230858520769, ,0.007740170732967427, ,0.02036641669029469, ,5.677601984719618e-05, ,0.1760396958679477,-0.25552206260946636,0.09356880478000001,-4.440184553284803,0.4125055927918647,-0.8799426668949379, ,0.021528344273700265,-0.07282957909322392,0.004059330152905199,0.022442787357446762,0.0005391726636188264,0.05977739351605038, ,0.7912189960479736
0.011170100220092044,0.022915779878071803,-0.08262186340130419, ,0.011394780849348998,0.023407482824454897,-0.08270306941298751, ,0.0005466695427574392, ,0.0024740677502324625,0.007681080449318851,-0.002102522891893952,0.017110514512520318,0.01132785812827362,-0.05429028627288705, ,0.008339101307250482, ,0.02052047944411573, ,5.737143436648595e-05, ,0.17651850530614963,-0.2570434409856886,0.09365176734000001,-4.438716723680412,0.4125055927918647,-0.878635807052689, ,0.023742041921058485,-0.0750173451055105,0.004370044312757203,0.09435277667203656,0.0005391726636188264,0.07692755388312278, ,0.8045969009399414
0.011193634605780527,0.022986329960457644,-0.0826451721897645, ,0.01142888073370649,0.023514953798408268,-0.08274023308482271, ,0.0005863620694784714, ,0.002629986956939203,0.007841248540680266,-0.0029354811873379197,-0.0032026944309192637,0.0006823110138665547,-0.00501953649488329, ,0.008776050357171246, ,0.0032745686310589033, ,5.8059313523530143e-05, ,0.17674246455950213,-0.2577384869443688,0.0936958412,-4.438297343793443,0.4125055927918647,-0.8777373409111427, ,0.024370041489078266,-0.07616126930856403,0.005234574932632271,0.04714133400352135,0.0005391726636188264,0.09109929081526426, ,0.8195858001708984
0.011221402090273091,0.02306751731073955,-0.08267980549852529, ,0.011462804815188233,0.02362209391756927,-0.08277760573185838, ,0.0006126951722343088, ,0.0026312872507320848,0.0075813624884808984,-0.003279620203999947,-0.011735159630098078,-0.003899179229874588,0.014906901486052717, ,0.008669292846599147, ,0.012365984385852636, ,5.896239084738633e-05, ,0.17699731474435154,-0.2585339284304139,0.09375417425,-4.438297343793443,0.4125055927918647,-0.8768388747695965, ,0.02388546225987183,-0.07299764735266984,0.005500280220994476,0.026234231511594593,0.000546188336323823,0.09306084086865056, ,0.8309719562530518
0.011246455601359354,0.023145985766708368,-0.08271143723651163, ,0.01149655468072726,0.023728904804007384,-0.08281518634576598, ,0.0006427348062905555, ,0.00241296243058826,0.007769993675036943,-0.002837677078869298,-0.027923556028352593,-0.002956509281909497,0.03292498363905405, ,0.008616704741691263, ,0.028079635471611176, ,5.992350369836319e-05, ,0.17722127399770404,-0.2592907562520879,0.09380861843,-4.437877963906473,0.4125055927918647,-0.8758587298879097, ,0.022370801876112865,-0.07690189753522753,0.005105388307692308,0.013780839296232101,0.0005525669638640393,0.1119654024228358, ,0.8427789211273193
0.011299805388487938,0.023310075625626377,-0.08277071220242618, ,0.011530131911903076,0.023835388074558136,-0.08285297392127441, ,0.0005794570448092358, ,0.002918602028247841,0.008495183957371378,-0.0035238323516941132,0.060050040565492784,-0.007962035745816614,-0.027242447092468806, ,0.009649030143580158, ,0.06057558406314911, ,6.068600921966406e-05, ,0.17770780616878018,-0.26086619375842973,0.09391621050000001,-4.436410134302082,0.4125055927918647,-0.8743068338252391, ,0.026374914274171976,-0.0809700866539853,0.006033640727272728,0.053116077006278024,0.0005578625751203449,0.030442494773294634, ,0.8540918827056885
0.011329120671699097,0.023393627739164233,-0.08281236011074226, ,0.011563538084948541,0.023941545340830636,-0.08289096745616611, ,0.0006011192365953762, ,0.002992791180008791,0.008395093901849166,-0.004640461947264888,0.01010620056672119,-0.010105319532097187,0.01847610033265558, ,0.010048297753949019, ,0.014291702858258702, ,6.148624897906474e-05, ,0.1779626563536296,-0.26165391251160064,0.09398232129,-4.436200444358597,0.4125055927918647,-0.8735717251639741, ,0.025278886936193606,-0.0778481883170392,0.007088923684913219,0.017554292589764386,0.0005578150913860352,0.07349991769213098, ,0.8683397769927979
0.011359312600229106,0.02348210126510515,-0.08286010517722656, ,0.011596774770757028,0.024047378209213773,-0.08292916595127235, ,0.0006170054266247726, ,0.002848598938345023,0.008512209251896944,-0.0040858876308217575,-0.017940605606299596,-0.0028611855497801195,0.017340594165861006, ,0.009862388148482221, ,0.018167325370904198, ,6.230740065473968e-05, ,0.17822522927135323,-0.2624647994633942,0.09405620982000001,-4.435781064471628,0.41264222929163014,-0.8727029981859837, ,0.02445797462847185,-0.08028506054016141,0.0065740039290136205,0.029123567782323577,-0.000789776689157625,0.10740675237711736, ,0.8794918060302734
0.011386114984182653,0.023567194690414708,-0.08289609935884948, ,0.011629843534889623,0.024152888280883543,-0.0829675684104693, ,0.0006383951861389877, ,0.0027189749219674606,0.008653489639345053,-0.003194083491786493,-0.009392458531020895,0.0115381511450557,-0.03157921525209978, ,0.009616541837742043, ,0.014877742058882575, ,6.316305034810431e-05, ,0.17844918852470573,-0.26323707275081665,0.09411583916,-4.435151994641175,0.41264222929163014,-0.8716411745641564, ,0.024183726187174,-0.08166690323448432,0.005748398238902924,0.08181124999986106,-0.000789776689157625,0.1100201963547412, ,0.8914098739624023
0.011412206736663308,0.023652916734506535,-0.08292922813384916, ,0.011662745937581938,0.02425807715180986,-0.08300617384067463, ,0.0006594768105601213, ,0.0025487336277912605,0.008201614772638453,-0.002962063225083588,-0.018767258211916785,0.003706693036736662,0.001145578046230508, ,0.00908495165279309, ,0.019129807992589228, ,6.405106471197925e-05, ,0.1786885932438067,-0.2640942960998556,0.09417546850000001,-4.434732614754205,0.41264222929163014,-0.8704976722021884, ,0.02305562234170816,-0.07934526886159764,0.005390460751269035,0.04701180562455386,-0.000789776689157625,0.11055130422127792, ,0.9027919769287109
0.011467732099105088,0.023827032427883074,-0.0829918042502888, ,0.011695483533751364,0.02436294641276318,-0.08304498125184223, ,0.0005847241303963138, ,0.003003013835467352,0.009056097946828622,-0.00396476095951676,0.003131054054447997,0.003981254786904608,-0.012437217530084551, ,0.010332005206380326, ,0.005064966751168688, ,6.472573003554153e-05, ,0.17918284814775706,-0.2657778518664365,0.09428954202,-4.433684165036783,0.4125055927918647,-0.8683442857949781, ,0.026323700848396886,-0.08488098529380213,0.006661987252195735,0.05877027813147903,0.0017672615988629714,0.09594211663560852, ,0.9143798351287842
0.011467732099105088,0.023827032427883074,-0.0829918042502888, ,0.011728057873004145,0.02446749764932187,-0.08308398965695923, ,0.0006974692521049072, ,0.003003013835467352,0.009056097946828622,-0.00396476095951676,0.003131054054447997,0.003981254786904608,-0.012437217530084551, ,0.010332005206380326, ,0.005064966751168688, ,6.583322077282119e-05, ,0.17918284814775706,-0.2657778518664365,0.09428954202,-4.433684165036783,0.4125055927918647,-0.8683442857949781, ,0.026323700848396886,-0.08488098529380213,0.006661987252195735,0.05877027813147903,0.0017672615988629714,0.09594211663560852, ,0.9234628677368164
0.01149787202039477,0.023916386669289323,-0.08303127381789582, ,0.011760470499642243,0.024571732441878564,-0.08312319807204119, ,0.000711959346770485, ,0.0027958810734257087,0.008855648242326875,-0.003801183921181161,0.012333611549690341,0.005167281276697555,-0.017953067880251472, ,0.010034363755177174, ,0.013372313519267239, ,6.695478693201918e-05, ,0.1794454210654807,-0.2666119070168527,0.09435565281000001,-4.4330550952063295,0.4125055927918647,-0.8674458196534319, ,0.024183726187174,-0.08302444580793594,0.006430686927735164,0.06084915166521238,0.0017566242902529634,0.08468846749034266, ,0.9337389469146729
0.011553833859484577,0.02410124785236153,-0.08309928642187522, ,0.011792722952670755,0.02467565236564755,-0.08316260551612811, ,0.0006253142021605368, ,0.002723860624969675,0.00914123628235396,-0.003098204693801438,0.00891757348012483,-0.0026725621896089217,0.011719884795382836, ,0.010028982490700535, ,0.009309441720387397, ,6.783967568061438e-05, ,0.1799473987023053,-0.2683958583107986,0.09447880036,-4.432216335432392,0.4125055927918647,-0.8655672086301989, ,0.02531260110922133,-0.08935681879328698,0.006582153520661158,0.04213671682906506,0.0016602220190058937,0.09388926771865598, ,0.9444119930267334
0.011553833859484577,0.02410124785236153,-0.08309928642187522, ,0.011824816765804654,0.024779258990671262,-0.08320221101128072, ,0.0007373766407298403, ,0.0028744030827600304,0.009380404032970475,-0.003782201250470887,0.0066116298941210775,0.00035124228200936257,0.003637349189043679, ,0.010514714413763821, ,0.006620953120475809, ,6.898187650906384e-05, ,0.1799473987023053,-0.2683958583107986,0.09447880036,-4.432216335432392,0.4125055927918647,-0.8655672086301989, ,0.02531260110922133,-0.08935681879328698,0.006582153520661158,0.04213671682906506,0.0016602220190058937,0.09388926771865598, ,0.9534499645233154
0.011582722711808482,0.024196778571616003,-0.08314235007982586, ,0.011856753467475957,0.024882553881827314,-0.08324201358257546, ,0.000745193562054469, ,0.003032630657325073,0.010050027346808666,-0.0050210478519292796,0.00563617312935167,0.013304061873865429,-0.029714929519639333, ,0.011636615483323043, ,0.014448685293006242, ,7.012087179066146e-05, ,0.18018680342140625,-0.2692839725913344,0.09455009631000001,-4.431587265601937,0.4125055927918647,-0.8645870637485122, ,0.024024542166701465,-0.09124705919083728,0.007976370315473212,0.08074735160630037,0.001616761992924526,0.1039212687253966, ,0.962338924407959
0.011616920200011255,0.02430503307727846,-0.08319993407259461, ,0.01188853458084094,0.024985538598835504,-0.08328201225810218, ,0.0007372916419432202, ,0.0033134112097623395,0.010454634587525956,-0.005554525316718833,-0.010643360975306387,0.009986072799696023,-0.011247246108958891, ,0.012293527959773924, ,0.014594614675427164, ,7.12189683165763e-05, ,0.1804570990720041,-0.27026475966636093,0.09463954032,-4.430958195771484,0.4125055927918647,-0.8634435613865443, ,0.026294525230942303,-0.09433095582352961,0.008642871144872492,0.06736734156085387,0.001572918903893676,0.12187194773674098, ,0.9716298580169678
0.011641220439928192,0.024383079550270352,-0.08324042236136273, ,0.011920161623787008,0.025088214696264592,-0.08332220606895781, ,0.0007627006837527251, ,0.0032593960374834577,0.010540195222981741,-0.005327950032255816,-0.02139536974506874,0.0053551773945370645,0.013012313876583694, ,0.012251792906099283, ,0.0220553795515237, ,7.235664643678206e-05, ,0.18065016739385972,-0.27097525109078957,0.09470305853000001,-4.430538815884515,0.4125055927918647,-0.8624634165048577, ,0.026382246749644362,-0.096734904748696,0.008450297888594166,0.04524818179309544,0.0015434385518542702,0.13167840492331367, ,0.9817218780517578
0.011682394922588785,0.02451094226875316,-0.08330335079642966, ,0.011951636108939831,0.025190583723539033,-0.08336259404924341, ,0.000733425583474651, ,0.003185169401168838,0.010425080061696033,-0.0046620464505372165,-0.01393071688819808,0.004379151722955975,0.009428221330876669, ,0.011855896234105674, ,0.014602802492311622, ,7.340381388425264e-05, ,0.1809899676403256,-0.2721491064876717,0.09480416915,-4.4299097460540615,0.4125055927918647,-0.8608298417020463, ,0.026867763748151408,-0.09723047290826925,0.007785342873900294,0.04701691867079877,0.0014972408072062467,0.12463319605553586, ,0.9916548728942871
0.011713887597519682,0.024614365785073516,-0.08334201396730552, ,0.011982959543670527,0.02529264722494617,-0.08340317523606075, ,0.0007322609676043607, ,0.00314375180991646,0.010348806237275902,-0.0036586103203316966,-0.0053421133151756684,0.007555811124516764,-0.009556369547368528, ,0.01141781044925301, ,0.009253564489754002, ,7.44286870432885e-05, ,0.18126798602379768,-0.27312989356269823,0.09487416881,-4.429280676223608,0.4125055927918647,-0.8596046605999379, ,0.0282683769909058,-0.09854303380941928,0.006813007493584261,0.06606472825316989,0.0014615116776007693,0.12042121255983244, ,1.000349998474121
0.011743993250422694,0.024718142973008467,-0.08337657888252148, ,0.012014133430102488,0.02539440673964295,-0.0834439486695063, ,0.0007313324052292965, ,0.0029800223972962997,0.010467702045706158,-0.0029694328767916217,0.015962412451351084,0.0008706792618856647,-0.0006435642018126959, ,0.011281438348714203, ,0.0159861406666292, ,7.560744886254472e-05, ,0.18153828167439556,-0.2741261261034732,0.09494027960000001,-4.428651606393155,0.4125055927918647,-0.8585428369781107, ,0.027984942954429604,-0.10248049844327299,0.0061787476803723835,0.050987898691850615,0.0014277030687719228,0.09925779527716977, ,1.0076508522033691
0.011743993250422694,0.024718142973008467,-0.08337657888252148, ,0.01204515926511869,0.025495863801662775,-0.08348491339266934, ,0.0008410035801467125, ,0.0029800223972962997,0.010467702045706158,-0.0029694328767916217,0.015962412451351084,0.0008706792618856647,-0.0006435642018126959, ,0.011281438348714203, ,0.0159861406666292, ,7.702261299516934e-05, ,0.18185491372223875,-0.27525364510310996,0.09500898297,-4.428232226506185,0.4125055927918647,-0.8576443708365644, ,0.028652458200021373,-0.10734948140098505,0.006778217668085108,0.05052884885623751,0.0013927352420661598,0.0782973615071893, ,1.014887809753418
0.011777649290646095,0.024833068378182062,-0.08340994961987222, ,0.012076038540368613,0.025597019939922545,-0.08352606845162582, ,0.0008283367166337067, ,0.0031176348345629875,0.011049340345996833,-0.003395858838167712,0.04052227313059984,-0.002811647931189089,-0.0053492187710844725, ,0.011972444457675122, ,0.04061969944876869, ,7.838936099894096e-05, ,0.18185491372223875,-0.27525364510310996,0.09500898297,-4.428232226506185,0.4125055927918647,-0.8576443708365644, ,0.028652458200021373,-0.10734948140098505,0.006778217668085108,0.05052884885623751,0.0013927352420661598,0.0782973615071893, ,1.0221199989318848
0.011811649578929346,0.024943784335537168,-0.0834498581125769, ,0.012106772742275384,0.02569787667822927,-0.08356741289543623, ,0.000818273835475228, ,0.003863948976958533,0.01168046798289091,-0.005047483438875769,0.03062343160207254,0.0020433042360614093,-0.026497780351849427, ,0.013298139834638666, ,0.030691524107018385, ,7.971460134548278e-05, ,0.18215610030433352,-0.2762962140411303,0.09508287150000001,-4.427393466732248,0.4125055927918647,-0.8567459046950181, ,0.033449750284973837,-0.10759290426130474,0.008638184121475054,0.07778349075301735,0.0013627207096491868,0.0940201985800141, ,1.0297307968139648
0.011850145524307003,0.025067988050706206,-0.0835104201026474, ,0.01213736335204281,0.025798435535287337,-0.08360894577613945, ,0.000791046722158203, ,0.004018269626020914,0.012680557665230826,-0.006505736970294124,-0.0015917980954927892,0.006708759789502842,-0.010605531622524998, ,0.014807688780336324, ,0.006895017580533332, ,8.096043186043032e-05, ,0.18248045508505095,-0.27742373304076706,0.09518138954000001,-4.426764396901794,0.41264222929163014,-0.8556321414966062, ,0.031973363058783955,-0.11392189862961677,0.010336671979234265,0.07391062312680438,-5.060339405584835e-05,0.13356541888034767, ,1.036545991897583
0.011850145524307003,0.025067988050706206,-0.0835104201026474, ,0.012167811845662378,0.02589869802470514,-0.0836506661487503, ,0.0009003665398448893, ,0.004018269626020914,0.012680557665230826,-0.006505736970294124,-0.0015917980954927892,0.006708759789502842,-0.010605531622524998, ,0.014807688780336324, ,0.006895017580533332, ,8.243461402245632e-05, ,0.18248045508505095,-0.27742373304076706,0.09518138954000001,-4.426764396901794,0.41264222929163014,-0.8556321414966062, ,0.031973363058783955,-0.11392189862961677,0.010336671979234265,0.07391062312680438,-5.060339405584835e-05,0.13356541888034767, ,1.0433719158172607
0.011888855340399438,0.02519202070149921,-0.08357544301814411, ,0.012198119693920484,0.025998665655001932,-0.08369257307125474, ,0.0008718027131822321, ,0.00402881542131126,0.01304250540619092,-0.007065273788224633,-0.03577926721975297,0.014375089863162535,-0.002509320099549791, ,0.015370634166230385, ,0.038559034657925824, ,8.382548010511749e-05, ,0.1827816416671457,-0.2785280838417812,0.09528379645000001,-4.425925637127856,0.41264222929163014,-0.8541619241740761, ,0.030790701349276698,-0.11572797751033022,0.010985387255172415,0.07761043577794738,-5.060339405584835e-05,0.17223957817129945, ,1.0502519607543945
0.011934860602104705,0.025333341040942314,-0.0836545512250944, ,0.012228288362405401,0.026098339929614918,-0.0837346656046058, ,0.0008232505475187357, ,0.004476089670427459,0.013542179525969549,-0.00814102835328449,-0.055504262176202517,0.013832866375029234,0.0072132907114198334, ,0.016422616956510865, ,0.05720202160862967, ,8.509046706795683e-05, ,0.18313688737936,-0.2797714438345313,0.09540564771000001,-4.425086877353917,0.41264222929163014,-0.8522016344107026, ,0.033651397715769776,-0.11744670984959255,0.012224721043745205,0.07449918880663584,-5.060339405584835e-05,0.19429850134552884, ,1.057647943496704
0.011934860602104705,0.025333341040942314,-0.0836545512250944, ,0.01225831931151433,0.02619772234690589,-0.0837769428127192, ,0.0009309996130576838, ,0.004476089670427459,0.013542179525969549,-0.00814102835328449,-0.055504262176202517,0.013832866375029234,0.0072132907114198334, ,0.016422616956510865, ,0.05720202160862967, ,8.657558401708609e-05, ,0.18313688737936,-0.2797714438345313,0.09540564771000001,-4.425086877353917,0.41264222929163014,-0.8522016344107026, ,0.033651397715769776,-0.11744670984959255,0.012224721043745205,0.07449918880663584,-5.060339405584835e-05,0.19429850134552884, ,1.0644538402557373
0.011979474780099749,0.025470355887836596,-0.08373773980488787, ,0.012288213996460464,0.026296814400168445,-0.08381940376247002, ,0.000886014998909601, ,0.00470848118390814,0.014155260371035264,-0.008231266846029168,-0.04310100959326958,0.009276870186210918,0.010036721409906102, ,0.017038044052107546, ,0.044088063130792096, ,8.813546110871722e-05, ,0.18346896489295167,-0.28096074469716187,0.09553009155000002,-4.424457807523464,0.41264222929163014,-0.8503230233874697, ,0.03613744918449001,-0.12356372598759216,0.012532503162863888,0.07047680359687616,-5.060339405584835e-05,0.18682183324944202, ,1.0701649188995361
0.011979474780099749,0.025470355887836596,-0.08373773980488787, ,0.012317973867280159,0.026395617577634454,-0.0838620475236879, ,0.0009930474488073688, ,0.004501395755181132,0.01415807635547781,-0.007860317371681115,-0.015340362085229617,0.004177999589251528,0.010646725806279084, ,0.016807685117702986, ,0.01589913077712955, ,8.991493066555804e-05, ,0.18346896489295167,-0.28096074469716187,0.09553009155000002,-4.424457807523464,0.41264222929163014,-0.8503230233874697, ,0.03613744918449001,-0.12356372598759216,0.012532503162863888,0.07047680359687616,-5.060339405584835e-05,0.18682183324944202, ,1.0751609802246094
0.01202637303171426,0.025613497733167533,-0.08381858312412457, ,0.012347600368839827,0.026494133362481385,-0.08390487316915335, ,0.0009413565135509795, ,0.004501395755181132,0.01415807635547781,-0.007860317371681115,-0.015340362085229617,0.004177999589251528,0.010646725806279084, ,0.016807685117702986, ,0.01589913077712955, ,9.156683229727141e-05, ,0.18383193333804024,-0.28221955015566047,0.09565453539,-4.42382873769301,0.41264222929163014,-0.8485260911043773, ,0.034570834811829064,-0.12486439678746157,0.012168687181054242,0.06105614530421557,-5.060339405584835e-05,0.15712489320694675, ,1.0803909301757812
0.01202637303171426,0.025613497733167533,-0.08381858312412457, ,0.012377094940843254,0.026592363232838815,-0.08394787977459328, ,0.0010478077819009663, ,0.004955791560716939,0.015436129263513154,-0.008001549910556004,0.007666487575142496,0.007028472744220051,-0.016789345772676555, ,0.01807923553705408, ,0.010400693633421953, ,9.34343789869181e-05, ,0.1842257927146257,-0.283578751141524,0.09578416439000001,-4.422989977919072,0.41264222929163014,-0.8469741950417066, ,0.039100511560968595,-0.1365423619546342,0.012753251817453966,0.09042470782192845,-5.060339405584835e-05,0.1504225925946216, ,1.0852878093719482
0.012076498295288698,0.02576755538074744,-0.08390091703197856, ,0.012406459017838312,0.026690308661795597,-0.08399106641867705, ,0.0009841110750482965, ,0.004955791560716939,0.015436129263513154,-0.008001549910556004,0.007666487575142496,0.007028472744220051,-0.016789345772676555, ,0.01807923553705408, ,0.010400693633421953, ,9.514887859352986e-05, ,0.1842257927146257,-0.283578751141524,0.09578416439000001,-4.422989977919072,0.41264222929163014,-0.8469741950417066, ,0.039100511560968595,-0.1365423619546342,0.012753251817453966,0.09042470782192845,-5.060339405584835e-05,0.1504225925946216, ,1.0902729034423828
0.012076498295288698,0.02576755538074744,-0.08390091703197856, ,0.01243569402922438,0.026787971117406502,-0.08403443218301258, ,0.0010899982323172288, ,0.004955791560716939,0.015436129263513154,-0.008001549910556004,0.007666487575142496,0.007028472744220051,-0.016789345772676555, ,0.01807923553705408, ,0.010400693633421953, ,9.707543207346597e-05, ,0.1842257927146257,-0.283578751141524,0.09578416439000001,-4.422989977919072,0.41264222929163014,-0.8469741950417066, ,0.039100511560968595,-0.1365423619546342,0.012753251817453966,0.09042470782192845,-5.060339405584835e-05,0.1504225925946216, ,1.0946547985076904
0.012127154740349089,0.025923233982165707,-0.08397974408447759, ,0.012464801399259252,0.026885352062699482,-0.08407797615214212, ,0.0010243661485430107, ,0.005310525929402496,0.01608232891308619,-0.008315848960618225,-0.01607617629902789,0.015990794262311914,-0.029471097429325827, ,0.01886786508461833, ,0.02267485183565894, ,9.884561391652797e-05, ,0.18462737482408537,-0.28494567486026173,0.09591120081000001,-4.4217318382581645,0.41264222929163014,-0.8452589414987548, ,0.04213896161566198,-0.14100585669906504,0.01330727779448622,0.1154279347302068,-5.060339405584835e-05,0.18481873491101236, ,1.1000268459320068
0.012127154740349089,0.025923233982165707,-0.08397974408447759, ,0.012493782547066132,0.026982452955681975,-0.08412169741353798, ,0.0011298280976088063, ,0.005310525929402496,0.01608232891308619,-0.008315848960618225,-0.01607617629902789,0.015990794262311914,-0.029471097429325827, ,0.01886786508461833, ,0.02267485183565894, ,0.00010082467308802639, ,0.18462737482408537,-0.28494567486026173,0.09591120081000001,-4.4217318382581645,0.41264222929163014,-0.8452589414987548, ,0.04213896161566198,-0.14100585669906504,0.01330727779448622,0.1154279347302068,-5.060339405584835e-05,0.18481873491101236, ,1.1047308444976807
0.012176790128619637,0.02608019545185682,-0.08406222731202195, ,0.012522638886640819,0.027079275249348406,-0.08416559505759816, ,0.0010622884241137764, ,0.00535842765216582,0.01701342765161789,-0.00906010766282777,0.011108256466402532,0.01070185502649268,-0.02358322965460069, ,0.020006374439722006, ,0.015424752888915065, ,0.0001026442060223556, ,0.18501351146779657,-0.28632804404474793,0.09604212610000001,-4.420893078484227,0.41264222929163014,-0.8437070454360842, ,0.04113434831316461,-0.14874128770920184,0.01431160064690027,0.1038060779924368,-5.060339405584835e-05,0.1620047996553437, ,1.110238790512085
0.012176790128619637,0.02608019545185682,-0.08406222731202195, ,0.012551371826858736,0.027175820391686603,-0.08420966817764364, ,0.0011672378790495, ,0.00535842765216582,0.01701342765161789,-0.00906010766282777,0.011108256466402532,0.01070185502649268,-0.02358322965460069, ,0.020006374439722006, ,0.015424752888915065, ,0.00010466936279499727, ,0.18501351146779657,-0.28632804404474793,0.09604212610000001,-4.420893078484227,0.41264222929163014,-0.8437070454360842, ,0.04113434831316461,-0.14874128770920184,0.01431160064690027,0.1038060779924368,-5.060339405584835e-05,0.1620047996553437, ,1.1147778034210205
0.012233051123562391,0.02625727868958184,-0.0841582957882533, ,0.012579982771481996,0.027272089825685027,-0.08425391586991199, ,0.0010767294972757382, ,0.005324620325706572,0.017503105702075354,-0.009562166601981538,-0.012725293391613454,0.012102910927820445,-0.007987440282902577, ,0.02064328755201074, ,0.017561704498316677, ,0.00010648779208574306, ,0.1854305390430047,-0.2878725906195928,0.09619249574000001,-4.419844628766804,0.4125055927918647,-0.8417170165091548, ,0.03945818775819991,-0.15232253861712805,0.014942599924953096,0.09564235596379168,-0.0021174090691779618,0.18888754161498264, ,1.1194589138031006
0.012233051123562391,0.02625727868958184,-0.0841582957882533, ,0.012608473119166484,0.02736808498933946,-0.08429833723355572, ,0.001180865748833015, ,0.005324620325706572,0.017503105702075354,-0.009562166601981538,-0.012725293391613454,0.012102910927820445,-0.007987440282902577, ,0.02064328755201074, ,0.017561704498316677, ,0.00010850843961113248, ,0.1854305390430047,-0.2878725906195928,0.09619249574000001,-4.419844628766804,0.4125055927918647,-0.8417170165091548, ,0.03945818775819991,-0.15232253861712805,0.014942599924953096,0.09564235596379168,-0.0021174090691779618,0.18888754161498264, ,1.1240057945251465
0.012289348348827405,0.026442963693634757,-0.08425641509950438, ,0.012636844263468864,0.027463807315659863,-0.08434293137063628, ,0.0010818318614703535, ,0.005743260015699212,0.018461991741648885,-0.009838582419615681,-0.017528480393808298,0.011619180692060273,-0.006409102495381746, ,0.021693959498077148, ,0.021029809620758882, ,0.0001103063917571784, ,0.18585528935108706,-0.28949436452317995,0.09634805054000001,-4.418796179049382,0.4125055927918647,-0.8397567267457813, ,0.0435307071369132,-0.16084227382791658,0.015570685747800588,0.10034527908937324,-0.0021174090691779618,0.20371347876992998, ,1.1285018920898438
0.012289348348827405,0.026442963693634757,-0.08425641509950438, ,0.01266509759285371,0.027559258232677488,-0.08438769738612066, ,0.0011851312294687722, ,0.005743260015699212,0.018461991741648885,-0.009838582419615681,-0.017528480393808298,0.011619180692060273,-0.006409102495381746, ,0.021693959498077148, ,0.021029809620758882, ,0.00011253631880637257, ,0.18585528935108706,-0.28949436452317995,0.09634805054000001,-4.418796179049382,0.4125055927918647,-0.8397567267457813, ,0.0435307071369132,-0.16084227382791658,0.015570685747800588,0.10034527908937324,-0.0021174090691779618,0.20371347876992998, ,1.1308469772338867
0.012289348348827405,0.026442963693634757,-0.08425641509950438, ,0.012693234490700582,0.02765443916345151,-0.08443263438787796, ,0.0012891276380404737, ,0.005743260015699212,0.018461991741648885,-0.009838582419615681,-0.017528480393808298,0.011619180692060273,-0.006409102495381746, ,0.021693959498077148, ,0.021029809620758882, ,0.00011497232567849286, ,0.18585528935108706,-0.28949436452317995,0.09634805054000001,-4.418796179049382,0.4125055927918647,-0.8397567267457813, ,0.0435307071369132,-0.16084227382791658,0.015570685747800588,0.10034527908937324,-0.0021174090691779618,0.20371347876992998, ,1.1331830024719238
0.012346086610012692,0.026630460185929048,-0.0843563671730506, ,0.012721256335310977,0.027749351526075973,-0.08447774148667354, ,0.001186339697491242, ,0.0060962873926861325,0.019620147393422757,-0.010791414608666474,-0.0270491681427417,0.012938547496714563,-0.00013692870087940977, ,0.023207100916960693, ,0.029984385306177818, ,0.0001171858946285192, ,0.1862800396591694,-0.29112386115964134,0.09650619792000001,-4.41774772933196,0.4125055927918647,-0.8376330795021267, ,0.04540523519544056,-0.16945882421155498,0.016891634697773068,0.1014592554414117,-0.0021174090691779618,0.22295367904254368, ,1.136314868927002
0.012346086610012692,0.026630460185929048,-0.0843563671730506, ,0.012749164499915588,0.027843996733686933,-0.08452301779616728, ,0.0012895406811178442, ,0.0060962873926861325,0.019620147393422757,-0.010791414608666474,-0.0270491681427417,0.012938547496714563,-0.00013692870087940977, ,0.023207100916960693, ,0.029984385306177818, ,0.00011960312099241471, ,0.1862800396591694,-0.29112386115964134,0.09650619792000001,-4.41774772933196,0.4125055927918647,-0.8376330795021267, ,0.04540523519544056,-0.16945882421155498,0.016891634697773068,0.1014592554414117,-0.0021174090691779618,0.22295367904254368, ,1.1386699676513672
0.012346086610012692,0.026630460185929048,-0.0843563671730506, ,0.012776960352681185,0.027938376194468904,-0.08456846243290711, ,0.0013932985562217384, ,0.0060962873926861325,0.019620147393422757,-0.010791414608666474,-0.0270491681427417,0.012938547496714563,-0.00013692870087940977, ,0.023207100916960693, ,0.029984385306177818, ,0.0006674248566016053, ,0.1862800396591694,-0.29112386115964134,0.09650619792000001,-4.41774772933196,0.4125055927918647,-0.8376330795021267, ,0.04540523519544056,-0.16945882421155498,0.016891634697773068,0.1014592554414117,-0.0021174090691779618,0.22295367904254368, ,1.1409008502960205
0.012346086610012692,0.026630460185929048,-0.0843563671730506, ,0.012804645256717699,0.028032491311662182,-0.0846140745163265, ,0.0014974579742920231, ,0.0060962873926861325,0.019620147393422757,-0.010791414608666474,-0.0270491681427417,0.012938547496714563,-0.00013692870087940977, ,0.023207100916960693, ,0.029984385306177818, ,0.0006766474467981655, ,0.1862800396591694,-0.29112386115964134,0.09650619792000001,-4.41774772933196,0.4125055927918647,-0.8376330795021267, ,0.04540523519544056,-0.16945882421155498,0.016891634697773068,0.1014592554414117,-0.0021174090691779618,0.22295367904254368, ,1.1431307792663574
0.012346086610012692,0.026630460185929048,-0.0843563671730506, ,0.012832220570085578,0.02812634348356941,-0.08465985316873985, ,0.0016019041222479695, ,0.0060962873926861325,0.019620147393422757,-0.010791414608666474,-0.0270491681427417,0.012938547496714563,-0.00013692870087940977, ,0.023207100916960693, ,0.029984385306177818, ,0.0006868151025723392, ,0.18676657183024553,-0.2929387033850841,0.09669027110000002,-4.416489589671052,0.4122323197923338,-0.8348782027503764, ,0.05010398181545448,-0.1932727933981075,0.020421553230769232,0.16777877704682317,-0.003865729404209106,0.27904595972046453, ,1.1458699703216553
0.012414281897816879,0.026842021824810984,-0.08447511694728828, ,0.012859687645802325,0.028219934103562556,-0.08470579751533856, ,0.0014663703668408015, ,0.007076889048868532,0.022940742190272877,-0.013302976176717959,-0.04534964603263992,0.03389816015919478,-0.042288787177405265, ,0.027446842915149403, ,0.056618682789697276, ,0.000695288529357866, ,0.18676657183024553,-0.2929387033850841,0.09669027110000002,-4.416489589671052,0.4122323197923338,-0.8348782027503764, ,0.05010398181545448,-0.1932727933981075,0.020421553230769232,0.16777877704682317,-0.003865729404209106,0.27904595972046453, ,1.1484088897705078
0.012414281897816879,0.026842021824810984,-0.08447511694728828, ,0.012887047831850074,0.02831326456009002,-0.08475190668418592, ,0.0015699284610916145, ,0.007076889048868532,0.022940742190272877,-0.013302976176717959,-0.04534964603263992,0.03389816015919478,-0.042288787177405265, ,0.027446842915149403, ,0.056618682789697276, ,0.0007046932598066158, ,0.18676657183024553,-0.2929387033850841,0.09669027110000002,-4.416489589671052,0.4122323197923338,-0.8348782027503764, ,0.05010398181545448,-0.1932727933981075,0.020421553230769232,0.16777877704682317,-0.003865729404209106,0.27904595972046453, ,1.1506397724151611
0.012414281897816879,0.026842021824810984,-0.08447511694728828, ,0.012914302471182358,0.028406336236683087,-0.08479817980621471, ,0.0016737591713855441, ,0.007076889048868532,0.022940742190272877,-0.013302976176717959,-0.04534964603263992,0.03389816015919478,-0.042288787177405265, ,0.027446842915149403, ,0.056618682789697276, ,0.0007150024716319236, ,0.18676657183024553,-0.2929387033850841,0.09669027110000002,-4.416489589671052,0.4122323197923338,-0.8348782027503764, ,0.05010398181545448,-0.1932727933981075,0.020421553230769232,0.16777877704682317,-0.003865729404209106,0.27904595972046453, ,1.1528468132019043
0.012414281897816879,0.026842021824810984,-0.08447511694728828, ,0.01294145290173125,0.02849915051196319,-0.08484461601522203, ,0.001777783539791837, ,0.007076889048868532,0.022940742190272877,-0.013302976176717959,-0.04534964603263992,0.03389816015919478,-0.042288787177405265, ,0.027446842915149403, ,0.056618682789697276, ,0.000726189640770449, ,0.18676657183024553,-0.2929387033850841,0.09669027110000002,-4.416489589671052,0.4122323197923338,-0.8348782027503764, ,0.05010398181545448,-0.1932727933981075,0.020421553230769232,0.16777877704682317,-0.003865729404209106,0.27904595972046453, ,1.155059814453125
0.012503020207633674,0.027097581181062418,-0.0846437615580779, ,0.012968500456414504,0.028591708759648716,-0.08489121444786507, ,0.0015843995757892765, ,0.009165430060150179,0.026348570354722104,-0.018740369062616793,-0.15501501895090827,-0.005460088359589511,-0.06561002069065326, ,0.03360734593103611, ,0.15511114193945583, ,0.0007351293275935618, ,0.18733033133006394,-0.29502384126112474,0.0969365662,-4.414392690236206,0.4115491372935066,-0.8309722848861312, ,0.05491721155004096,-0.21041450456423677,0.026681426331658296,0.20960864550957012,-0.07474156052912417,0.4029082797222995, ,1.1572999954223633
0.012503020207633674,0.027097581181062418,-0.0846437615580779, ,0.012995446463142442,0.028684012348561737,-0.08493797424365765, ,0.0016869524506291475, ,0.009165430060150179,0.026348570354722104,-0.018740369062616793,-0.15501501895090827,-0.005460088359589511,-0.06561002069065326, ,0.03360734593103611, ,0.15511114193945583, ,0.0007449419371093926, ,0.18733033133006394,-0.29502384126112474,0.0969365662,-4.414392690236206,0.4115491372935066,-0.8309722848861312, ,0.05491721155004096,-0.21041450456423677,0.026681426331658296,0.20960864550957012,-0.07474156052912417,0.4029082797222995, ,1.1596839427947998
0.012503020207633674,0.027097581181062418,-0.0846437615580779, ,0.013022292244825307,0.028776062642635068,-0.08498489454496558, ,0.0017897807631648962, ,0.009165430060150179,0.026348570354722104,-0.018740369062616793,-0.15501501895090827,-0.005460088359589511,-0.06561002069065326, ,0.03360734593103611, ,0.15511114193945583, ,0.0007556035577834284, ,0.18733033133006394,-0.29502384126112474,0.0969365662,-4.414392690236206,0.4115491372935066,-0.8309722848861312, ,0.05491721155004096,-0.21041450456423677,0.026681426331658296,0.20960864550957012,-0.07474156052912417,0.4029082797222995, ,1.1621549129486084
0.012503020207633674,0.027097581181062418,-0.0846437615580779, ,0.013049039119379935,0.028867861000919037,-0.08503197449700302, ,0.0018928118180434718, ,0.009165430060150179,0.026348570354722104,-0.018740369062616793,-0.15501501895090827,-0.005460088359589511,-0.06561002069065326, ,0.03360734593103611, ,0.15511114193945583, ,0.0007670905099072672, ,0.18733033133006394,-0.29502384126112474,0.0969365662,-4.414392690236206,0.4115491372935066,-0.8309722848861312, ,0.05491721155004096,-0.21041450456423677,0.026681426331658296,0.20960864550957012,-0.07474156052912417,0.4029082797222995, ,1.1645958423614502
0.012595687006693038,0.027373080184586868,-0.08485523644475183, ,0.013075688399737264,0.028959408777588416,-0.08507921324782777, ,0.0016724249910279351, ,0.010494988061332115,0.0296966547511556,-0.02438017310995686,-0.13263283689129984,0.022860245482227134,-0.032016741417247294, ,0.0398300002346008, ,0.13458845281730974, ,0.0007761438547184739, ,0.18789409082988232,-0.29715531553441066,0.09723212032,-4.412295790801362,0.4114125007937412,-0.8272670024162502, ,0.06182211176447608,-0.2254084122528997,0.033393734842767295,0.19212627832334786,-0.03143389010511369,0.402463037981267, ,1.1669118404388428
0.012595687006693038,0.027373080184586868,-0.08485523644475183, ,0.013102241393848992,0.029050707321949566,-0.08512660994833766, ,0.0017733227956610597, ,0.010494988061332115,0.0296966547511556,-0.02438017310995686,-0.13263283689129984,0.022860245482227134,-0.032016741417247294, ,0.0398300002346008, ,0.13458845281730974, ,0.0007860169135396876, ,0.18789409082988232,-0.29715531553441066,0.09723212032,-4.412295790801362,0.4114125007937412,-0.8272670024162502, ,0.06182211176447608,-0.2254084122528997,0.033393734842767295,0.19212627832334786,-0.03143389010511369,0.402463037981267, ,1.1692018508911133
0.012595687006693038,0.027373080184586868,-0.08485523644475183, ,0.013128699404694964,0.029141757978446616,-0.08517416375226636, ,0.0018745767475339104, ,0.010494988061332115,0.0296966547511556,-0.02438017310995686,-0.13263283689129984,0.022860245482227134,-0.032016741417247294, ,0.0398300002346008, ,0.13458845281730974, ,0.000796689068774925, ,0.18789409082988232,-0.29715531553441066,0.09723212032,-4.412295790801362,0.4114125007937412,-0.8272670024162502, ,0.06182211176447608,-0.2254084122528997,0.033393734842767295,0.19212627832334786,-0.03143389010511369,0.402463037981267, ,1.1714468002319336
0.012595687006693038,0.027373080184586868,-0.08485523644475183, ,0.01315506373029002,0.029232562086669193,-0.08522187381617932, ,0.0019761068354724786, ,0.010494988061332115,0.0296966547511556,-0.02438017310995686,-0.13263283689129984,0.022860245482227134,-0.032016741417247294, ,0.0398300002346008, ,0.13458845281730974, ,0.0008081397267040275, ,0.18789409082988232,-0.29715531553441066,0.09723212032,-4.412295790801362,0.4114125007937412,-0.8272670024162502, ,0.06182211176447608,-0.2254084122528997,0.033393734842767295,0.19212627832334786,-0.03143389010511369,0.402463037981267, ,1.1738429069519043
0.012700102239403956,0.027678181389320673,-0.08511626963324131, ,0.013181335663691191,0.029323120981358794,-0.08526973929946918, ,0.001720745422355629, ,0.010494988061332115,0.0296966547511556,-0.02438017310995686,-0.13263283689129984,0.022860245482227134,-0.032016741417247294, ,0.0398300002346008, ,0.13458845281730974, ,0.0008169147814699083, ,0.18850418672694605,-0.29944896719805536,0.09758600749000002,-4.411037651140454,0.4114125007937412,-0.8236731378500654, ,0.06102697206332526,-0.23843452652882108,0.03747955651764706,0.12117685694194007,-0.01906853172176491,0.3817294808601618, ,1.1762847900390625
0.012700102239403956,0.027678181389320673,-0.08511626963324131, ,0.013207516493004647,0.029413435992415683,-0.0853177593643525, ,0.001819114035475188, ,0.010938073747313077,0.03193668447065976,-0.027823463456778386,-0.10991084922777031,0.011514474962937187,0.03536938085394026, ,0.04374629574044895, ,0.11051226735988008, ,0.0008264595362699587, ,0.18850418672694605,-0.29944896719805536,0.09758600749000002,-4.411037651140454,0.4114125007937412,-0.8236731378500654, ,0.06102697206332526,-0.23843452652882108,0.03747955651764706,0.12117685694194007,-0.01906853172176491,0.3817294808601618, ,1.1786959171295166
0.012700102239403956,0.027678181389320673,-0.08511626963324131, ,0.013233607501392977,0.029503508444906186,-0.08536593317586481, ,0.0019180142358537825, ,0.010938073747313077,0.03193668447065976,-0.027823463456778386,-0.10991084922777031,0.011514474962937187,0.03536938085394026, ,0.04374629574044895, ,0.11051226735988008, ,0.000836757222115089, ,0.18850418672694605,-0.29944896719805536,0.09758600749000002,-4.411037651140454,0.4114125007937412,-0.8236731378500654, ,0.06102697206332526,-0.23843452652882108,0.03747955651764706,0.12117685694194007,-0.01906853172176491,0.3817294808601618, ,1.181210994720459
0.012700102239403956,0.027678181389320673,-0.08511626963324131, ,0.01325960996708192,0.029593339659069066,-0.085414259901857, ,0.0020173443671586337, ,0.010938073747313077,0.03193668447065976,-0.027823463456778386,-0.10991084922777031,0.011514474962937187,0.03536938085394026, ,0.04374629574044895, ,0.11051226735988008, ,0.000847790746835122, ,0.18850418672694605,-0.29944896719805536,0.09758600749000002,-4.411037651140454,0.4114125007937412,-0.8236731378500654, ,0.06102697206332526,-0.23843452652882108,0.03747955651764706,0.12117685694194007,-0.01906853172176491,0.3817294808601618, ,1.1836109161376953
0.012700102239403956,0.027678181389320673,-0.08511626963324131, ,0.01328552516336777,0.02968293095032266,-0.08546273871299145, ,0.002117021876472445, ,0.010978960769051315,0.03385167329314902,-0.02738991155107468,-0.07287099504598574,0.030141483787532473,-0.01067206436923695, ,0.04490746729765731, ,0.07885857942268996, ,0.0008595428869243566, ,0.1891451735555067,-0.30196657811505256,0.09796841304000001,-4.409360131592578,0.4114125007937412,-0.8199159158035995, ,0.061862413010737145,-0.25578690447027164,0.03774599886255925,0.17300627807285188,-0.013533988342828677,0.37188744579327426, ,1.1861238479614258
0.012811611028990453,0.028013871106190434,-0.08539595080910971, ,0.013311354358624213,0.029772283629271853,-0.085511368782737, ,0.001831687556729922, ,0.010978960769051315,0.03385167329314902,-0.02738991155107468,-0.07287099504598574,0.030141483787532473,-0.01067206436923695, ,0.04490746729765731, ,0.07885857942268996, ,0.0008684616453629397, ,0.1891451735555067,-0.30196657811505256,0.09796841304000001,-4.409360131592578,0.4114125007937412,-0.8199159158035995, ,0.061862413010737145,-0.25578690447027164,0.03774599886255925,0.17300627807285188,-0.013533988342828677,0.37188744579327426, ,1.1887547969818115
0.012811611028990453,0.028013871106190434,-0.08539595080910971, ,0.013337098816309527,0.029861399001714733,-0.08556014928736594, ,0.0019278116815767048, ,0.010978960769051315,0.03385167329314902,-0.02738991155107468,-0.07287099504598574,0.030141483787532473,-0.01067206436923695, ,0.04490746729765731, ,0.07885857942268996, ,0.0008780921002376102, ,0.1891451735555067,-0.30196657811505256,0.09796841304000001,-4.409360131592578,0.4114125007937412,-0.8199159158035995, ,0.061862413010737145,-0.25578690447027164,0.03774599886255925,0.17300627807285188,-0.013533988342828677,0.37188744579327426, ,1.1910169124603271
0.012811611028990453,0.028013871106190434,-0.08539595080910971, ,0.013362759794973537,0.02995027836864968,-0.08560907940594904, ,0.002024564606808163, ,0.010978960769051315,0.03385167329314902,-0.02738991155107468,-0.07287099504598574,0.030141483787532473,-0.01067206436923695, ,0.04490746729765731, ,0.07885857942268996, ,0.0008884206813778855, ,0.1891451735555067,-0.30196657811505256,0.09796841304000001,-4.409360131592578,0.4114125007937412,-0.8199159158035995, ,0.061862413010737145,-0.25578690447027164,0.03774599886255925,0.17300627807285188,-0.013533988342828677,0.37188744579327426, ,1.1933808326721191
0.012811611028990453,0.028013871106190434,-0.08539595080910971, ,0.013388338548264779,0.03003892302628217,-0.08565815832035202, ,0.0021218394589382654, ,0.010978960769051315,0.03385167329314902,-0.02738991155107468,-0.07287099504598574,0.030141483787532473,-0.01067206436923695, ,0.04490746729765731, ,0.07885857942268996, ,0.0008994333490346746, ,0.1891451735555067,-0.30196657811505256,0.09796841304000001,-4.409360131592578,0.4114125007937412,-0.8199159158035995, ,0.061862413010737145,-0.25578690447027164,0.03774599886255925,0.17300627807285188,-0.013533988342828677,0.37188744579327426, ,1.1958158016204834
0.01292503558822427,0.02836745192676912,-0.08566461916904462, ,0.013413836324937544,0.030127334266031536,-0.08570738521523087, ,0.0018270032684605663, ,0.011614127155417417,0.03590073626404143,-0.026061838480889915,-0.04082286037009559,0.028371275983757317,-0.023948768770445734, ,0.04585815346136887, ,0.04971341072989894, ,0.0009076419323924259, ,0.18982477404843845,-0.3046772573539054,0.09834692972,-4.407472922101217,0.4114125007937412,-0.8163220512374147, ,0.07156632093399003,-0.2782901511978615,0.03730400824355972,0.19131774366487442,-0.010526908336904315,0.36571632920795283, ,1.1983659267425537
0.01292503558822427,0.02836745192676912,-0.08566461916904462, ,0.013439254368858866,0.030215513374538233,-0.08575675927802898, ,0.0019204795934274971, ,0.011614127155417417,0.03590073626404143,-0.026061838480889915,-0.04082286037009559,0.028371275983757317,-0.023948768770445734, ,0.04585815346136887, ,0.04971341072989894, ,0.0009165264732786984, ,0.18982477404843845,-0.3046772573539054,0.09834692972,-4.407472922101217,0.4114125007937412,-0.8163220512374147, ,0.07156632093399003,-0.2782901511978615,0.03730400824355972,0.19131774366487442,-0.010526908336904315,0.36571632920795283, ,1.2006149291992188
0.01292503558822427,0.02836745192676912,-0.08566461916904462, ,0.01346459391901564,0.030303461633670307,-0.08580627969897102, ,0.0020147765343285625, ,0.011614127155417417,0.03590073626404143,-0.026061838480889915,-0.04082286037009559,0.028371275983757317,-0.023948768770445734, ,0.04585815346136887, ,0.04971341072989894, ,0.0009260764738095667, ,0.18982477404843845,-0.3046772573539054,0.09834692972,-4.407472922101217,0.4114125007937412,-0.8163220512374147, ,0.07156632093399003,-0.2782901511978615,0.03730400824355972,0.19131774366487442,-0.010526908336904315,0.36571632920795283, ,1.2028629779815674
0.01292503558822427,0.02836745192676912,-0.08566461916904462, ,0.013489856209521778,0.030391180320530342,-0.08585594567106081, ,0.00210976415182646, ,0.011614127155417417,0.03590073626404143,-0.026061838480889915,-0.04082286037009559,0.028371275983757317,-0.023948768770445734, ,0.04585815346136887, ,0.04971341072989894, ,0.000936280677930402, ,0.18982477404843845,-0.3046772573539054,0.09834692972,-4.407472922101217,0.4114125007937412,-0.8163220512374147, ,0.07156632093399003,-0.2782901511978615,0.03730400824355972,0.19131774366487442,-0.010526908336904315,0.36571632920795283, ,1.205103874206543
0.0130391049940915,0.02872694216792124,-0.08590973984296182, ,0.013515042469625108,0.03047867070746282,-0.08590575639007583, ,0.0018152369610490726, ,0.011352126653063795,0.03642488321980698,-0.022987104332758516,-0.018812407412388314,0.015005774821824261,0.006463137997353242, ,0.04454267462477869, ,0.02406394673226812, ,0.0009437931247946641, ,0.19055843367148978,-0.30750377758587155,0.09870600205,-4.405585712609857,0.4114125007937412,-0.8125648291909489, ,0.0754347707142057,-0.2928917949335518,0.03462785113043479,0.15868125653926096,-0.008633753042859241,0.3519644380594779, ,1.2073087692260742
0.0130391049940915,0.02872694216792124,-0.08590973984296182, ,0.013540153923714575,0.03056593406206023,-0.085955711054564, ,0.001906581907205015, ,0.011352126653063795,0.03642488321980698,-0.022987104332758516,-0.018812407412388314,0.015005774821824261,0.006463137997353242, ,0.04454267462477869, ,0.02406394673226812, ,0.0009519523517642433, ,0.19055843367148978,-0.30750377758587155,0.09870600205,-4.405585712609857,0.4114125007937412,-0.8125648291909489, ,0.0754347707142057,-0.2928917949335518,0.03462785113043479,0.15868125653926096,-0.008633753042859241,0.3519644380594779, ,1.2097008228302002
0.0130391049940915,0.02872694216792124,-0.08590973984296182, ,0.013565191791327164,0.030652971647170738,-0.0860058088658391, ,0.0019988962280019346, ,0.011352126653063795,0.03642488321980698,-0.022987104332758516,-0.018812407412388314,0.015005774821824261,0.006463137997353242, ,0.04454267462477869, ,0.02406394673226812, ,0.0009607501994637198, ,0.19055843367148978,-0.30750377758587155,0.09870600205,-4.405585712609857,0.4114125007937412,-0.8125648291909489, ,0.0754347707142057,-0.2928917949335518,0.03462785113043479,0.15868125653926096,-0.008633753042859241,0.3519644380594779, ,1.2121808528900146
0.0130391049940915,0.02872694216792124,-0.08590973984296182, ,0.01359015728715521,0.0307397847209044,-0.08605604902797694, ,0.002092032540475966, ,0.011352126653063795,0.03642488321980698,-0.022987104332758516,-0.018812407412388314,0.015005774821824261,0.006463137997353242, ,0.04454267462477869, ,0.02406394673226812, ,0.0009701775523054885, ,0.19055843367148978,-0.30750377758587155,0.09870600205,-4.405585712609857,0.4114125007937412,-0.8125648291909489, ,0.0754347707142057,-0.2928917949335518,0.03462785113043479,0.15868125653926096,-0.008633753042859241,0.3519644380594779, ,1.214540958404541
0.013155700817993722,0.029111451581419884,-0.08612583122779725, ,0.013615051621053162,0.03082637453664049,-0.08610643074781087, ,0.0017754831120677058, ,0.011348411716783049,0.03774830642691346,-0.019215304793909874,0.03845630119372396,-0.002248156553420355,0.017297055103683213, ,0.04385144267771165, ,0.0385219247933254, ,0.0009768329701547631, ,0.1913847660890318,-0.3106778207971778,0.09904692632,-4.4041178830054655,0.4114125007937412,-0.8092976795853264, ,0.08353604010428767,-0.31738107544639055,0.03160478476190477,0.14116810073349484,-0.007280336595812174,0.31388021918642395, ,1.216991901397705
0.013155700817993722,0.029111451581419884,-0.08612583122779725, ,0.013639875998044861,0.03091274234303435,-0.08615695323492821, ,0.001865487226486163, ,0.011348411716783049,0.03774830642691346,-0.019215304793909874,0.03845630119372396,-0.002248156553420355,0.017297055103683213, ,0.04385144267771165, ,0.0385219247933254, ,0.000984117021436168, ,0.1913847660890318,-0.3106778207971778,0.09904692632,-4.4041178830054655,0.4114125007937412,-0.8092976795853264, ,0.08353604010428767,-0.31738107544639055,0.03160478476190477,0.14116810073349484,-0.007280336595812174,0.31388021918642395, ,1.2192468643188477
0.013155700817993722,0.029111451581419884,-0.08612583122779725, ,0.013664631618330508,0.03099888938402408,-0.08620761570166537, ,0.0019565583861456026, ,0.011348411716783049,0.03774830642691346,-0.019215304793909874,0.03845630119372396,-0.002248156553420355,0.017297055103683213, ,0.04385144267771165, ,0.0385219247933254, ,0.000992023048791529, ,0.1913847660890318,-0.3106778207971778,0.09904692632,-4.4041178830054655,0.4114125007937412,-0.8092976795853264, ,0.08353604010428767,-0.31738107544639055,0.03160478476190477,0.14116810073349484,-0.007280336595812174,0.31388021918642395, ,1.2215428352355957
0.013155700817993722,0.029111451581419884,-0.08612583122779725, ,0.013689319677293829,0.031084816898837485,-0.08625841736310484, ,0.0020485357810551457, ,0.011348411716783049,0.03774830642691346,-0.019215304793909874,0.03845630119372396,-0.002248156553420355,0.017297055103683213, ,0.04385144267771165, ,0.0385219247933254, ,0.001000543312761397, ,0.1913847660890318,-0.3106778207971778,0.09904692632,-4.4041178830054655,0.4114125007937412,-0.8092976795853264, ,0.08353604010428767,-0.31738107544639055,0.03160478476190477,0.14116810073349484,-0.007280336595812174,0.31388021918642395, ,1.223876953125
0.013270291215220836,0.029500190497924645,-0.08630977274968336, ,0.013713941365509,0.03117052612199908,-0.08630935743707027, ,0.0017282496131599203, ,0.011348411716783049,0.03774830642691346,-0.019215304793909874,0.03845630119372396,-0.002248156553420355,0.017297055103683213, ,0.04385144267771165, ,0.0385219247933254, ,0.0010063649631645852, ,0.1913847660890318,-0.3106778207971778,0.09904692632,-4.4041178830054655,0.4114125007937412,-0.8092976795853264, ,0.08353604010428767,-0.31738107544639055,0.03160478476190477,0.14116810073349484,-0.007280336595812174,0.31388021918642395, ,1.2260949611663818
0.013270291215220836,0.029500190497924645,-0.08630977274968336, ,0.013738497868747791,0.031256018283336795,-0.08636043514412217, ,0.00181788760946394, ,0.011111913331878725,0.039067024490613916,-0.01750092453779132,0.07384718814149589,0.0030474913487043656,0.01246469571624348, ,0.04422656871296798, ,0.07391003151253368, ,0.001012805619087596, ,0.19224198943807072,-0.3139831504673459,0.09935933221000001,-4.402650053401073,0.4112758642939757,-0.8061641482964291, ,0.0848051309727174,-0.33414416041715067,0.030514964597701155,0.14764817575393913,0.0,0.2969960602066072, ,1.2285828590393066
0.013270291215220836,0.029500190497924645,-0.08630977274968336, ,0.01376299036798669,0.031341294607989234,-0.08641164970755481, ,0.0019086109382946683, ,0.011111913331878725,0.039067024490613916,-0.01750092453779132,0.07384718814149589,0.0030474913487043656,0.01246469571624348, ,0.04422656871296798, ,0.07391003151253368, ,0.0010198592042782028, ,0.19224198943807072,-0.3139831504673459,0.09935933221000001,-4.402650053401073,0.4112758642939757,-0.8061641482964291, ,0.0848051309727174,-0.33414416041715067,0.030514964597701155,0.14764817575393913,0.0,0.2969960602066072, ,1.2311208248138428
0.013270291215220836,0.029500190497924645,-0.08630977274968336, ,0.013787420039413838,0.03142635631641195,-0.08646300035339115, ,0.002000253903797747, ,0.011111913331878725,0.039067024490613916,-0.01750092453779132,0.07384718814149589,0.0030474913487043656,0.01246469571624348, ,0.04422656871296798, ,0.07391003151253368, ,0.0010275185378681992, ,0.19224198943807072,-0.3139831504673459,0.09935933221000001,-4.402650053401073,0.4112758642939757,-0.8061641482964291, ,0.0848051309727174,-0.33414416041715067,0.030514964597701155,0.14764817575393913,0.0,0.2969960602066072, ,1.233630895614624
0.01338383320514614,0.02989979837294521,-0.08648577195697846, ,0.01381178805443617,0.03151120462438486,-0.08651448631037907, ,0.0016675131106833432, ,0.010999954518072097,0.0398837711263585,-0.01719821052347858,0.08190775777749959,0.0006375653774856394,0.007858828610247625, ,0.044805051544098154, ,0.08191022994208098, ,0.0010324797361070763, ,0.19307604458848696,-0.3174120438635016,0.09966784923000001,-4.401182223796682,0.41086595479467947,-0.8028077812001391, ,0.08324293119164104,-0.3413559048865855,0.030573534587332057,0.15168843349745761,-0.005965093324314627,0.2952034756923896, ,1.236259937286377
0.01338383320514614,0.02989979837294521,-0.08648577195697846, ,0.013836095579686515,0.031595840743019014,-0.08656610680998744, ,0.0017571438942552311, ,0.010999954518072097,0.0398837711263585,-0.01719821052347858,0.08190775777749959,0.0006375653774856394,0.007858828610247625, ,0.044805051544098154, ,0.08191022994208098, ,0.001038054075785139, ,0.19307604458848696,-0.3174120438635016,0.09966784923000001,-4.401182223796682,0.41086595479467947,-0.8028077812001391, ,0.08324293119164104,-0.3413559048865855,0.030573534587332057,0.15168843349745761,-0.005965093324314627,0.2952034756923896, ,1.2388598918914795
0.01338383320514614,0.02989979837294521,-0.08648577195697846, ,0.013860343777030602,0.031680265878763235,-0.08661786108640183, ,0.001847856705078437, ,0.010999954518072097,0.0398837711263585,-0.01719821052347858,0.08190775777749959,0.0006375653774856394,0.007858828610247625, ,0.044805051544098154, ,0.08191022994208098, ,0.0010442357752453934, ,0.19307604458848696,-0.3174120438635016,0.09966784923000001,-4.401182223796682,0.41086595479467947,-0.8028077812001391, ,0.08324293119164104,-0.3413559048865855,0.030573534587332057,0.15168843349745761,-0.005965093324314627,0.2952034756923896, ,1.2410588264465332
0.01338383320514614,0.02989979837294521,-0.08648577195697846, ,0.013884533803574106,0.03176448123341136,-0.08666974837652033, ,0.0019394820397028118, ,0.010999954518072097,0.0398837711263585,-0.01719821052347858,0.08190775777749959,0.0006375653774856394,0.007858828610247625, ,0.044805051544098154, ,0.08191022994208098, ,0.0010510179439155254, ,0.19307604458848696,-0.3174120438635016,0.09966784923000001,-4.401182223796682,0.41086595479467947,-0.8028077812001391, ,0.08324293119164104,-0.3413559048865855,0.030573534587332057,0.15168843349745761,-0.005965093324314627,0.2952034756923896, ,1.243269920349121
0.01338383320514614,0.02989979837294521,-0.08648577195697846, ,0.01390866681166975,0.0318484880041089,-0.08672176791994998, ,0.002031879840856816, ,0.010999954518072097,0.0398837711263585,-0.01719821052347858,0.08190775777749959,0.0006375653774856394,0.007858828610247625, ,0.044805051544098154, ,0.08191022994208098, ,0.0010583928453962868, ,0.19307604458848696,-0.3174120438635016,0.09966784923000001,-4.401182223796682,0.41086595479467947,-0.8028077812001391, ,0.08324293119164104,-0.3413559048865855,0.030573534587332057,0.15168843349745761,-0.005965093324314627,0.2952034756923896, ,1.2454609870910645
0.01338383320514614,0.02989979837294521,-0.08648577195697846, ,0.013932743948924414,0.03193228738335989,-0.0867739189590013, ,0.0021249337111699292, ,0.011367094772708284,0.04116704732098939,-0.0173989273915074,0.06745807426114739,-0.03147144235411624,0.01359332057962138, ,0.04611571644326106, ,0.07443817483264568, ,0.0010663521055886275, ,0.19387148607453208,-0.3207250962665439,0.09996081077,-4.39971439419229,0.4105926817951486,-0.7998895469681078, ,0.08360964013962183,-0.35277673441810703,0.031232963764705888,0.14037728798443586,-0.040165512825175255,0.31132407635595716, ,1.2478368282318115
0.013490661516109859,0.03028617411608819,-0.08664907501736137, ,0.013956766358206148,0.03201588055903402,-0.08682620073868623, ,0.001800142112098032, ,0.011367094772708284,0.04116704732098939,-0.0173989273915074,0.06745807426114739,-0.03147144235411624,0.01359332057962138, ,0.04611571644326106, ,0.07443817483264568, ,0.0010717875871183269, ,0.19387148607453208,-0.3207250962665439,0.09996081077,-4.39971439419229,0.4105926817951486,-0.7998895469681078, ,0.08360964013962183,-0.35277673441810703,0.031232963764705888,0.14037728798443586,-0.040165512825175255,0.31132407635595716, ,1.250295877456665
0.013490661516109859,0.03028617411608819,-0.08664907501736137, ,0.013980735177651226,0.032099268714373345,-0.08687861250671225, ,0.0018921341588494396, ,0.011367094772708284,0.04116704732098939,-0.0173989273915074,0.06745807426114739,-0.03147144235411624,0.01359332057962138, ,0.04611571644326106, ,0.07443817483264568, ,0.001077819547204585, ,0.19387148607453208,-0.3207250962665439,0.09996081077,-4.39971439419229,0.4105926817951486,-0.7998895469681078, ,0.08360964013962183,-0.35277673441810703,0.031232963764705888,0.14037728798443586,-0.040165512825175255,0.31132407635595716, ,1.2525618076324463
0.013490661516109859,0.03028617411608819,-0.08664907501736137, ,0.014004651540671246,0.032182453027999075,-0.08693115351347899, ,0.0019848495497338144, ,0.011367094772708284,0.04116704732098939,-0.0173989273915074,0.06745807426114739,-0.03147144235411624,0.01359332057962138, ,0.04611571644326106, ,0.07443817483264568, ,0.0010844402041573532, ,0.19387148607453208,-0.3207250962665439,0.09996081077,-4.39971439419229,0.4105926817951486,-0.7998895469681078, ,0.08360964013962183,-0.35277673441810703,0.031232963764705888,0.14037728798443586,-0.040165512825175255,0.31132407635595716, ,1.2548069953918457
0.013602232459377443,0.030712792208463263,-0.08682860774044385, ,0.01402851657596017,0.03226543467391879,-0.08698382301207441, ,0.001617562534844909, ,0.011216582822864616,0.04248091798375135,-0.01821356128967403,0.09640500367800449,-0.0208784818186569,0.018035147132135013, ,0.04756231636303159, ,0.09863991957039689, ,0.0010883034094521906, ,0.19470554122494835,-0.32436250345030365,0.10028488327000001,-4.398246564587898,0.4105926817951486,-0.7971124698033286, ,0.0809700866539853,-0.3608248728458964,0.03257425668711657,0.13646723714506584,-0.027310513075574666,0.29163842841733223, ,1.2570528984069824
0.013602232459377443,0.030712792208463263,-0.08682860774044385, ,0.014052331407501372,0.03234821482153289,-0.08703662025827001, ,0.001708936919261251, ,0.011216582822864616,0.04248091798375135,-0.01821356128967403,0.09640500367800449,-0.0208784818186569,0.018035147132135013, ,0.04756231636303159, ,0.09863991957039689, ,0.0010927683987313923, ,0.19470554122494835,-0.32436250345030365,0.10028488327000001,-4.398246564587898,0.4105926817951486,-0.7971124698033286, ,0.0809700866539853,-0.3608248728458964,0.03257425668711657,0.13646723714506584,-0.027310513075574666,0.29163842841733223, ,1.259408950805664
0.013602232459377443,0.030712792208463263,-0.08682860774044385, ,0.01407609715457481,0.032430794635641934,-0.0870895445105172, ,0.0018011574298552066, ,0.011216582822864616,0.04248091798375135,-0.01821356128967403,0.09640500367800449,-0.0208784818186569,0.018035147132135013, ,0.04756231636303159, ,0.09863991957039689, ,0.0010978283203822768, ,0.19470554122494835,-0.32436250345030365,0.10028488327000001,-4.398246564587898,0.4105926817951486,-0.7971124698033286, ,0.0809700866539853,-0.3608248728458964,0.03257425668711657,0.13646723714506584,-0.027310513075574666,0.29163842841733223, ,1.2617878913879395
0.013602232459377443,0.030712792208463263,-0.08682860774044385, ,0.014099814931763965,0.03251317527645322,-0.08714259502994331, ,0.0018940843503652193, ,0.011216582822864616,0.04248091798375135,-0.01821356128967403,0.09640500367800449,-0.0208784818186569,0.018035147132135013, ,0.04756231636303159, ,0.09863991957039689, ,0.0011034755262686806, ,0.19470554122494835,-0.32436250345030365,0.10028488327000001,-4.398246564587898,0.4105926817951486,-0.7971124698033286, ,0.0809700866539853,-0.3608248728458964,0.03257425668711657,0.13646723714506584,-0.027310513075574666,0.29163842841733223, ,1.2642297744750977
0.013602232459377443,0.030712792208463263,-0.08682860774044385, ,0.014123485848962903,0.032595357899587715,-0.08719577108034658, ,0.001987603480506549, ,0.011827461165612112,0.04333328741447898,-0.02025256225445816,0.12355979045082381,-0.021164185452449667,0.016755990635415264, ,0.04927300390315784, ,0.12535924838199816, ,0.001109701779467539, ,0.19549325997811923,-0.3278377332437047,0.10061284464,-4.396988424926991,0.4105926817951486,-0.7946621075991116, ,0.08368336998101479,-0.3594581119639045,0.03516293933774835,0.13448838675572358,-0.019374676229938135,0.2620783942227084, ,1.266711950302124
0.013718714594829984,0.031156375389902624,-0.08702771260665185, ,0.014147111011383542,0.032677343656087036,-0.0872490719281934, ,0.001595577608795411, ,0.011827461165612112,0.04333328741447898,-0.02025256225445816,0.12355979045082381,-0.021164185452449667,0.016755990635415264, ,0.04927300390315784, ,0.12535924838199816, ,0.001113099512539762, ,0.19549325997811923,-0.3278377332437047,0.10061284464,-4.396988424926991,0.4105926817951486,-0.7946621075991116, ,0.08368336998101479,-0.3594581119639045,0.03516293933774835,0.13448838675572358,-0.019374676229938135,0.2620783942227084, ,1.2693018913269043
0.013718714594829984,0.031156375389902624,-0.08702771260665185, ,0.014170691519562375,0.03275913369242034,-0.08730249684261332, ,0.0016877866254692705, ,0.011827461165612112,0.04333328741447898,-0.02025256225445816,0.12355979045082381,-0.021164185452449667,0.016755990635415264, ,0.04927300390315784, ,0.12535924838199816, ,0.0011170903952684391, ,0.19549325997811923,-0.3278377332437047,0.10061284464,-4.396988424926991,0.4105926817951486,-0.7946621075991116, ,0.08368336998101479,-0.3594581119639045,0.03516293933774835,0.13448838675572358,-0.019374676229938135,0.2620783942227084, ,1.2715868949890137
0.013718714594829984,0.031156375389902624,-0.08702771260665185, ,0.014194228469367878,0.03284072915049112,-0.08735604509539502, ,0.0017807198709653713, ,0.011827461165612112,0.04333328741447898,-0.02025256225445816,0.12355979045082381,-0.021164185452449667,0.016755990635415264, ,0.04927300390315784, ,0.12535924838199816, ,0.0011216671502732455, ,0.19549325997811923,-0.3278377332437047,0.10061284464,-4.396988424926991,0.4105926817951486,-0.7946621075991116, ,0.08368336998101479,-0.3594581119639045,0.03516293933774835,0.13448838675572358,-0.019374676229938135,0.2620783942227084, ,1.2739148139953613
0.013836310372011934,0.03158178224990678,-0.08722904030277623, ,0.014217722952007404,0.03292213116764402,-0.08740971596098251, ,0.0014052239931507226, ,0.011645412247790655,0.043635584166620875,-0.020280133907522098,0.11887503143541002,-0.012487487607560315,0.011266654562049162, ,0.0495072081952747, ,0.11952910530513065, ,0.0011236093204299404, ,0.19635820606003238,-0.33159098142057775,0.100980991,-4.3955205953225995,0.4101827722958522,-0.7916324554633838, ,0.08124738147129348,-0.3594581119639045,0.03524073345132744,0.14158304779437073,-0.016969516977966573,0.27012069060275246, ,1.2767879962921143
0.013836310372011934,0.03158178224990678,-0.08722904030277623, ,0.014241176054034167,0.03300334087667213,-0.08746350871647081, ,0.001496569606410197, ,0.011645412247790655,0.043635584166620875,-0.020280133907522098,0.11887503143541002,-0.012487487607560315,0.011266654562049162, ,0.0495072081952747, ,0.11952910530513065, ,0.0011261464652325274, ,0.19635820606003238,-0.33159098142057775,0.100980991,-4.3955205953225995,0.4101827722958522,-0.7916324554633838, ,0.08124738147129348,-0.3594581119639045,0.03524073345132744,0.14158304779437073,-0.016969516977966573,0.27012069060275246, ,1.2792279720306396
0.013836310372011934,0.03158178224990678,-0.08722904030277623, ,0.01426458885735457,0.033084359405823306,-0.08751742264160184, ,0.0015888124319239547, ,0.011645412247790655,0.043635584166620875,-0.020280133907522098,0.11887503143541002,-0.012487487607560315,0.011266654562049162, ,0.0495072081952747, ,0.11952910530513065, ,0.001129272586629091, ,0.19635820606003238,-0.33159098142057775,0.100980991,-4.3955205953225995,0.4101827722958522,-0.7916324554633838, ,0.08124738147129348,-0.3594581119639045,0.03524073345132744,0.14158304779437073,-0.016969516977966573,0.27012069060275246, ,1.2815258502960205
0.013836310372011934,0.03158178224990678,-0.08722904030277623, ,0.01428796243923497,0.03316518787880737,-0.08757145701876023, ,0.0016817883882481175, ,0.011645412247790655,0.043635584166620875,-0.020280133907522098,0.11887503143541002,-0.012487487607560315,0.011266654562049162, ,0.0495072081952747, ,0.11952910530513065, ,0.0011329807463715006, ,0.19635820606003238,-0.33159098142057775,0.100980991,-4.3955205953225995,0.4101827722958522,-0.7916324554633838, ,0.08124738147129348,-0.3594581119639045,0.03524073345132744,0.14158304779437073,-0.016969516977966573,0.27012069060275246, ,1.2839958667755127
0.013957637243239302,0.032017623010974494,-0.08743349567950713, ,0.014311297872308953,0.03324582741480314,-0.08762561113296961, ,0.0012924667290097338, ,0.011925699809935351,0.0428111593807351,-0.02021893565829564,0.06922084252172327,-0.049918278301913345,0.015113922966259408, ,0.04882441031526847, ,0.08534258121839955, ,0.0011340439862557556, ,0.19718453847757442,-0.33516660674134374,0.10133487817,-4.394052765718208,0.4096362262967905,-0.7885730641641001, ,0.08042113691395829,-0.35017321608291796,0.034931604210526324,0.12800559764781125,-0.059675664358411304,0.2991972436270006, ,1.286996841430664
0.013957637243239302,0.032017623010974494,-0.08743349567950713, ,0.014334596224584327,0.03332627912846491,-0.08767988427188812, ,0.0013839747995961706, ,0.011925699809935351,0.0428111593807351,-0.02021893565829564,0.06922084252172327,-0.049918278301913345,0.015113922966259408, ,0.04882441031526847, ,0.08534258121839955, ,0.0011356991572050298, ,0.19718453847757442,-0.33516660674134374,0.10133487817,-4.394052765718208,0.4096362262967905,-0.7885730641641001, ,0.08042113691395829,-0.35017321608291796,0.034931604210526324,0.12800559764781125,-0.059675664358411304,0.2991972436270006, ,1.289287805557251
0.013957637243239302,0.032017623010974494,-0.08743349567950713, ,0.014357858559450185,0.03340654412992972,-0.08773427572580433, ,0.0014763968344858928, ,0.011925699809935351,0.0428111593807351,-0.02021893565829564,0.06922084252172327,-0.049918278301913345,0.015113922966259408, ,0.04882441031526847, ,0.08534258121839955, ,0.001137940589292404, ,0.19718453847757442,-0.33516660674134374,0.10133487817,-4.394052765718208,0.4096362262967905,-0.7885730641641001, ,0.08042113691395829,-0.35017321608291796,0.034931604210526324,0.12800559764781125,-0.059675664358411304,0.2991972436270006, ,1.29156494140625
0.013957637243239302,0.032017623010974494,-0.08743349567950713, ,0.014381085935683989,0.03348662352482403,-0.08778878478763331, ,0.0015695546040760794, ,0.011925699809935351,0.0428111593807351,-0.02021893565829564,0.06922084252172327,-0.049918278301913345,0.015113922966259408, ,0.04882441031526847, ,0.08534258121839955, ,0.0011407615959249768, ,0.19718453847757442,-0.33516660674134374,0.10133487817,-4.394052765718208,0.4096362262967905,-0.7885730641641001, ,0.08042113691395829,-0.35017321608291796,0.034931604210526324,0.12800559764781125,-0.059675664358411304,0.2991972436270006, ,1.2940049171447754
0.013957637243239302,0.032017623010974494,-0.08743349567950713, ,0.014404279407458613,0.03356651841427069,-0.08784341075291265, ,0.0016633089191775668, ,0.010791862991372969,0.04194234452055766,-0.019971227732133046,0.11922245967769825,-0.02285349729762147,0.02896495373583089, ,0.04769145109801587, ,0.12139305603404364, ,0.0011441547603616821, ,0.19795681176499685,-0.3387113411306128,0.10168617276000001,-4.3927946260573005,0.409499589797025,-0.7860929627963276, ,0.07156632093399003,-0.3401324070196085,0.034477947012987016,0.10764428394673758,-0.02316703113723151,0.24144007779603366, ,1.2968649864196777
0.014070185078104555,0.03245167364376443,-0.08763440200597936, ,0.014427440024349434,0.03364622989489571,-0.08789815291979765, ,0.0012744254698777947, ,0.010791862991372969,0.04194234452055766,-0.019971227732133046,0.11922245967769825,-0.02285349729762147,0.02896495373583089, ,0.04769145109801587, ,0.12139305603404364, ,0.0011449952165521085, ,0.19795681176499685,-0.3387113411306128,0.10168617276000001,-4.3927946260573005,0.409499589797025,-0.7860929627963276, ,0.07156632093399003,-0.3401324070196085,0.034477947012987016,0.10764428394673758,-0.02316703113723151,0.24144007779603366, ,1.299278974533081
0.014070185078104555,0.03245167364376443,-0.08763440200597936, ,0.014450568831341284,0.033725759058835375,-0.08795301058905819, ,0.0013672954595969602, ,0.010791862991372969,0.04194234452055766,-0.019971227732133046,0.11922245967769825,-0.02285349729762147,0.02896495373583089, ,0.04769145109801587, ,0.12139305603404364, ,0.0011464202181100884, ,0.19795681176499685,-0.3387113411306128,0.10168617276000001,-4.3927946260573005,0.409499589797025,-0.7860929627963276, ,0.07156632093399003,-0.3401324070196085,0.034477947012987016,0.10764428394673758,-0.02316703113723151,0.24144007779603366, ,1.301562786102295
0.014070185078104555,0.03245167364376443,-0.08763440200597936, ,0.0144736668688358,0.033805106993742895,-0.08800798306407386, ,0.0014608703553883984, ,0.010791862991372969,0.04194234452055766,-0.019971227732133046,0.11922245967769825,-0.02285349729762147,0.02896495373583089, ,0.04769145109801587, ,0.12139305603404364, ,0.0011484230852265107, ,0.19795681176499685,-0.3387113411306128,0.10168617276000001,-4.3927946260573005,0.409499589797025,-0.7860929627963276, ,0.07156632093399003,-0.3401324070196085,0.034477947012987016,0.10764428394673758,-0.02316703113723151,0.24144007779603366, ,1.3040199279785156
0.014170901648069691,0.03286208819730322,-0.08782325565534763, ,0.014496735172658133,0.03388427478279548,-0.08806306965083041, ,0.0010993378251181341, ,0.010791862991372969,0.04194234452055766,-0.019971227732133046,0.11922245967769825,-0.02285349729762147,0.02896495373583089, ,0.04769145109801587, ,0.12139305603404364, ,0.0011481124190232932, ,0.1986364122579286,-0.34204756173227774,0.10201802300000001,-4.391746176339878,0.409499589797025,-0.7838059580723917, ,0.0659923098459463,-0.33065136431522923,0.0325077786122449,0.11931632713379009,-0.014756527307987181,0.23597314036011427, ,1.306865930557251
0.014170901648069691,0.03286208819730322,-0.08782325565534763, ,0.014519774774064301,0.03396326350470102,-0.0881182696579153, ,0.0011921966185889337, ,0.009928291708219666,0.040664121983476104,-0.01831223723390655,0.11932526662435876,-0.006405883624100838,0.0181964809913311, ,0.04568894642516285, ,0.11949708172478324, ,0.0011483896781400583, ,0.1986364122579286,-0.34204756173227774,0.10201802300000001,-4.391746176339878,0.409499589797025,-0.7838059580723917, ,0.0659923098459463,-0.33065136431522923,0.0325077786122449,0.11931632713379009,-0.014756527307987181,0.23597314036011427, ,1.3091988563537598
0.014170901648069691,0.03286208819730322,-0.08782325565534763, ,0.014542786699748081,0.03404207423370515,-0.08817358239651325, ,0.0012858438331854712, ,0.009928291708219666,0.040664121983476104,-0.01831223723390655,0.11932526662435876,-0.006405883624100838,0.0181964809913311, ,0.04568894642516285, ,0.11949708172478324, ,0.001149248766609092, ,0.1986364122579286,-0.34204756173227774,0.10201802300000001,-4.391746176339878,0.409499589797025,-0.7838059580723917, ,0.0659923098459463,-0.33065136431522923,0.0325077786122449,0.11931632713379009,-0.014756527307987181,0.23597314036011427, ,1.3115577697753906
0.014170901648069691,0.03286208819730322,-0.08782325565534763, ,0.014565771971848105,0.03412070803959823,-0.08822900718040308, ,0.0013801017281723851, ,0.009928291708219666,0.040664121983476104,-0.01831223723390655,0.11932526662435876,-0.006405883624100838,0.0181964809913311, ,0.04568894642516285, ,0.11949708172478324, ,0.001150682635935572, ,0.1986364122579286,-0.34204756173227774,0.10201802300000001,-4.391746176339878,0.409499589797025,-0.7838059580723917, ,0.0659923098459463,-0.33065136431522923,0.0325077786122449,0.11931632713379009,-0.014756527307987181,0.23597314036011427, ,1.3138999938964844
0.014267172127078185,0.03326001163025875,-0.08800285018299966, ,0.014588731607955048,0.03419916598772188,-0.08828454332595302, ,0.0014748373496969748, ,0.009168907130587189,0.039548174289146636,-0.018265600410545438,0.13762514157138378,0.012463611663781168,0.007859083471062723, ,0.04451695301715706, ,0.13818834674131308, ,0.0011526835909587906, ,0.19926967635361503,-0.3452679413408294,0.10233691034,-4.3904880366789705,0.40936295329725964,-0.7814892141849001, ,0.058687038687984396,-0.31738107544639055,0.03211453935483872,0.1252157816131777,0.0,0.2078971547543909, ,1.3171899318695068
0.014267172127078185,0.03326001163025875,-0.08800285018299966, ,0.01461166662111849,0.03427744913897602,-0.08834019015211625, ,0.0011259013257530497, ,0.009168907130587189,0.039548174289146636,-0.018265600410545438,0.13762514157138378,0.012463611663781168,0.007859083471062723, ,0.04451695301715706, ,0.13818834674131308, ,0.0011525192825832954, ,0.19926967635361503,-0.3452679413408294,0.10233691034,-4.3904880366789705,0.40936295329725964,-0.7814892141849001, ,0.058687038687984396,-0.31738107544639055,0.03211453935483872,0.1252157816131777,0.0,0.2078971547543909, ,1.3194937705993652
