NicholasDascanio/dvrk_moveit_final/test/execution/first_exp_nosummary/yes_joints_yes_smoothramp/600vel4.csv
Current Position (x),Current Position (y),Current Position (z), ,Planned Position (x),Planned Position (y),Planned Position (z), ,Position Error,,Cartesian linear Velocity(x),Cartesian linear Velocity(y),Cartesian linear Velocity(z),Cartesian Angular Velocity(x),Cartesian Angular Velocity(y),Cartesian Angular Velocity(z), ,Total Linear Velocity, ,Total Angular Velocity, ,MSE, ,Joint 1 Position,Joint 2 Position,Joint 3 Position,Joint 4 Position,Joint 5 Position,Joint 6 Position, ,Joint 1 Velocity,Joint 2 Velocity,Joint 3 Velocity,Joint 4 Velocity,Joint 5 Velocity,Joint 6 Velocity, ,Time Stamp
0.00904147504538869,0.018097346496052824,-0.0814464029601937, ,0.009268970066635218,0.018124090498241294,-0.08155114800957834, ,0.0002518744761098386, ,2.999730491337278e-05,4.471095281449502e-06,4.323516220851851e-06,0.29790138201473126,-0.039471841077893824,-0.024511318326551026, ,3.0635302962328084e-05, ,0.3005050076860041, ,2.0989539675819883e-05, ,0.12983458508146245,-0.21406643254062918,0.09054844908000001,-4.537690377005107,0.17721754019577626,-1.2966693295170293, ,0.00036987725906612235,-5.457114573133179e-05,0.0,0.0,0.0,-0.3014019095637326, ,0.019675016403198242
0.009057737251006476,0.018098341508438132,-0.08144411340787729, ,0.009308241678825237,0.018212874734305176,-0.08156527404148398, ,0.0003009156481811656, ,0.0021186056289817117,0.00015836408616832468,-0.00042360309827393867,0.21469126559798535,-0.249688710869731,-0.07093427932652165, ,0.0021663352879478753, ,0.32929742158093617, ,2.512682383140928e-05, ,0.12985775328008514,-0.21410504620500032,0.09054585650000001,-4.537480687061622,0.17557790219859098,-1.2986811430184355, ,0.0006941190985448167,-0.004277754221949039,0.00035397870059141026,0.0,-0.22542821013933032,-0.2461300498948491, ,0.03909492492675781
0.009102272050712993,0.01810946933613854,-0.08145729276339916, ,0.009347335027691438,0.018301461525112757,-0.08157953530574338, ,0.0003344549333937647, ,0.002375116641637149,0.0007757859204391291,-0.0009074344904996265,0.1372811195170182,-0.21888803411811877,-0.0567487925538281, ,0.002658281439253871, ,0.258375844954477, ,2.7726408052649028e-05, ,0.12993498060882738,-0.21426722359535902,0.09056011569000001,-4.537690377005107,0.17147880720562775,-1.3045683035434263, ,0.0057651236152587845,-0.009707103095318885,0.0010284964415329346,0.0,-0.19989249338033618,-0.15850913047010118, ,0.058129072189331055
0.00914152852917703,0.018134310230055874,-0.08147948678135314, ,0.009386250877349785,0.018389851361498996,-0.081593931430099, ,0.0003718707775302912, ,0.0010192018565073721,0.001510936618309802,-0.00010933266031889517,0.1353086336281481,-0.05247425799685462,-0.013205184160054402, ,0.0018258300905259343, ,0.14512744084643975, ,2.9978948457501434e-05, ,0.1300662670676892,-0.2145452419788311,0.09058733778000001,-4.537900066948591,0.16860944071055353,-1.3063941433129702, ,0.009116188185365685,-0.017531302708012335,0.0005049725382226925,0.0,-0.028194922556256902,-0.12341383476214873, ,0.07772493362426758
0.009174287783267883,0.018179500834024,-0.08149970872474475, ,0.009424989990407105,0.018478044733446133,-0.0816084620429572, ,0.0004047311956952014, ,0.002091174435672987,0.0025604455984951343,-0.0010604938745263114,-0.07850281260521126,-0.09838882168084506,-0.028488334095753205, ,0.003471820767432151, ,0.12586918534205543, ,3.19970582867358e-05, ,0.13028250358816748,-0.21503177414990723,0.09061844874000001,-4.537690377005107,0.1672430757128991,-1.308465435141488, ,0.012153726055231582,-0.02816768820376099,0.0016684625034042108,0.014884539858119735,-0.10582733983598464,0.09403565345866638, ,0.09720301628112793
0.009201681687748348,0.018242231140381426,-0.08152440423731291, ,0.009463553127962362,0.018566042130084073,-0.08162312677338761, ,0.0004279910599311502, ,0.0013292733556205894,0.0035665216042193994,-0.0005994572169568382,-0.17949067447449615,0.02813848406411899,0.01264492637336686, ,0.0038531017326678746, ,0.18168290098062653, ,3.373932404582922e-05, ,0.13054507650589112,-0.21569592917709055,0.09065863373000001,-4.537690377005107,0.16696980271336823,-1.3044853772876293, ,0.016483748750820006,-0.0391166288369624,0.0015189949251730051,0.01173689283422954,0.013047303160607128,0.22418409567186898, ,0.11710810661315918
0.00923429209537804,0.01834215008204931,-0.08155270984888562, ,0.009501941049608584,0.0186538440396906,-0.08163792525112501, ,0.00041958402103704626, ,0.0014789612094339175,0.004414028608630855,-0.0009376521056806292,0.022286821051657482,0.02286445186243554,-0.0025624990148780907, ,0.004748701537063495, ,0.031929383826774835, ,3.488086266497859e-05, ,0.13102388594409303,-0.21673849811511087,0.09071307791000001,-4.536851617231169,0.1681995312112572,-1.3020576313349932, ,0.020156529642835763,-0.04744847077923539,0.00208333155380221,0.020082243357821036,0.035728284352437086,0.03288938312638473, ,0.1400470733642578
0.009272576544256868,0.01843246738279361,-0.08156142182317394, ,0.009540154513432117,0.018741450949693594,-0.08165285710656382, ,0.0004188427213773389, ,0.0018322768999476156,0.00447046686209881,-9.593657463311873e-05,0.09764547877752726,-0.023861579696360297,0.03723688102963771, ,0.004832340678134931, ,0.10051872716712186, ,3.573493699092435e-05, ,0.13147180445079806,-0.21775017612163428,0.09074548516000001,-4.536641927287684,0.1681995312112572,-1.301730916374431, ,0.02354762817828059,-0.05143465667125787,0.0012931356148808523,-0.03186825735563195,0.013613409456936858,-0.049314335413043274, ,0.15970897674560547
0.009316337335657239,0.01853137201734651,-0.08156878932024758, ,0.009578194276016968,0.01882886334666942,-0.08166792197076396, ,0.00040853081968839625, ,0.0022797251782324724,0.005008086928802061,-0.0006174298301191394,0.049965292185021964,-0.023388224397821948,-0.002222626509894607, ,0.005537084175793798, ,0.055168283130956695, ,3.629125709721949e-05, ,0.13197378208762264,-0.21884680418977415,0.09077789241,-4.536851617231169,0.1681995312112572,-1.3018125951145716, ,0.026265414214910264,-0.055723394925702156,0.002054341801175764,0.010421114510938492,0.0,0.006688936113449089, ,0.17978501319885254
0.00936242003583266,0.018633276291110796,-0.0815817638806698, ,0.009616061092443003,0.018916081716345606,-0.08168311947544489, ,0.0003931738174559249, ,0.002371619749086823,0.005055179629558067,-0.0008137035443430308,0.028476002311131406,-0.017103562879984224,-0.020177082753027268, ,0.005642830387264346, ,0.03321768460944831, ,3.658793598431488e-05, ,0.13252209612169258,-0.21998976865515937,0.09081937369000001,-4.536012857457231,0.1681995312112572,-1.3013225226737282, ,0.027152200732037418,-0.05526903992922002,0.0021701378092643052,0.0304870399977725,-0.0006636694850473912,0.03048902933467449, ,0.20031094551086426
0.009410593404329464,0.01873626949893485,-0.08159277354853958, ,0.009653755716289509,0.019003106543600226,-0.0816984492529881, ,0.0003761612325508764, ,0.002286358431904511,0.004944136433859069,-0.0005510968735468011,0.016731855377119086,-0.015130164719597817,-0.019483351412560752, ,0.005475000248382332, ,0.02255829933312661, ,3.6679738419205304e-05, ,0.13308585562151098,-0.22114045585341882,0.09085826239000001,-4.536012857457231,0.1681995312112572,-1.3003423777920415, ,0.026514931980573,-0.05463266641247599,0.0018879223087652963,0.0304870399977725,-0.0008441408776287569,0.041712673699128414, ,0.22020411491394043
0.009457040272213224,0.018830667274036855,-0.0816098415870146, ,0.009691278899329307,0.019089938312655555,-0.08171391093592686, ,0.00036458145219232997, ,0.0024149458182903785,0.004805458226989898,-0.0010048134721396085,0.021099200748482098,-0.018989185235687128,-0.011778138290313529, ,0.005471201165230203, ,0.028386007611831594, ,3.666157504215839e-05, ,0.13361872418983248,-0.22217530205856492,0.09090103996000001,-4.536012857457231,0.1681995312112572,-1.2996072691307765, ,0.027206691960570746,-0.051998324141627826,0.0023342338100820637,0.02182974576258404,-0.0008327237607167882,0.03460711824506217, ,0.23899507522583008
0.009502014192729755,0.018926111834885538,-0.08162404367349654, ,0.009728631392759276,0.01917657750630527,-0.08172950415898496, ,0.0003538507056774206, ,0.0021525424789100673,0.00448625146258837,-0.0005901290145294909,0.00023320740970154052,-0.016323646624728887,-0.0012947223851386893, ,0.005010802686484285, ,0.016325312395935675, ,3.6843991303975144e-05, ,0.1341361472924055,-0.22321787099658522,0.09094122495000001,-4.5353837876267775,0.1681995312112572,-1.2988721604695115, ,0.024881211735309595,-0.049502838580318606,0.0018198921396302531,0.011681459867012085,-0.0007779146342345415,0.05080752117287708, ,0.2561349868774414
0.00952258764754321,0.01896949438990473,-0.08162898394398847, ,0.009765813945349084,0.01926302460708093,-0.08174522855601046, ,0.00039853711265577487, ,0.0020532510310222385,0.0044703846336092,-0.000645089748103885,0.010400489801881647,-0.016545090921419352,-0.001478409165527519, ,0.004961483583759184, ,0.019542523422448943, ,3.7322142667689416e-05, ,0.13437555201150647,-0.22369668043478716,0.09095807672,-4.535174097683293,0.1681995312112572,-1.298382088028668, ,0.02359446582756608,-0.0491948893512031,0.0018608551425761872,0.011070770492638275,-0.0007485828827370059,0.040140502872130404, ,0.27344512939453125
0.009564143010961309,0.019057391343508204,-0.08164651457075223, ,0.009802827304683804,0.019349280096471386,-0.0817610837620239, ,0.00039407529199995945, ,0.0021327309775209325,0.004370353368166181,-0.0009834196371668275,0.015270498421036918,-0.02410761268481683,0.022876548327100555, ,0.004961415540738773, ,0.02853708309177924, ,3.771258567433878e-05, ,0.13484663871683417,-0.22464657657831677,0.09099955800000001,-4.534754717796323,0.1681995312112572,-1.297483621887122, ,0.024079406637521134,-0.047543557895025436,0.002179640328407225,-0.01506425437428566,-0.000690566900779815,0.030105992826500404, ,0.291018009185791
0.0096048816171839,0.019144969716661492,-0.08166813725556513, ,0.009839672216853048,0.01943534445511988,-0.08177706941270388, ,0.0003889862841883722, ,0.0020615233990859366,0.004207952099566142,-0.0012192126758543036,-0.009198921077109491,-0.01441318731185995,0.0024193773597042203, ,0.004841819817608432, ,0.01709854138419286, ,3.802633892192943e-05, ,0.13530227995641342,-0.22558874998897216,0.09104492815000001,-4.534754717796323,0.1681995312112572,-1.2965034770054351, ,0.02275160430555521,-0.04461539330440563,0.002367540356718193,0.007512771224016573,-0.0006363098709726221,0.054918404092844084, ,0.30973005294799805
0.009642959083247893,0.019231896697496476,-0.08169147301065531, ,0.00987634942645245,0.019521218162824535,-0.0817931851443873, ,0.0003853872348029058, ,0.0017998521258413354,0.00430675262642951,-0.0010314618690330192,0.0048228375957922506,0.003278801260238633,-0.0629324921317701, ,0.004780324198987151, ,0.005831835060970269, ,3.8284723260285966e-05, ,0.13571930753162154,-0.22650003246813064,0.09109159459,-4.533706268078901,0.1681995312112572,-1.29576836834417, ,0.019675915728482433,-0.045081682450579946,0.002182926068247225,0.0749573886493372,-0.0005885659770115145,0.05021046194094121, ,0.3275411128997803
0.009661740272841423,0.019275269098455373,-0.08170181854247784, ,0.009912859676584639,0.01960690169853909,-0.08180943059406807, ,0.00042967602914532584, ,0.001990552958619868,0.004301435730060879,-0.001082523112480548,0.010400049691092204,-0.02325437795657801,0.029556125423322706, ,0.004861739062307772, ,0.02547404812202179, ,3.8768322804619785e-05, ,0.1359278213192256,-0.2269633964405841,0.09111363152000002,-4.533496578135416,0.1681995312112572,-1.2953599746434672, ,0.022360259556661353,-0.04674726185146343,0.0022457086592415063,-0.022463629683071612,-0.0005672841938594975,0.034497885882843485, ,0.34548211097717285
0.009704822142472987,0.01936936678597263,-0.08172138463611932, ,0.009949203708860682,0.019692395540373737,-0.08182580539939692, ,0.00041829848429502026, ,0.0018001581472546666,0.0041624144431587,-0.0006833203845045966,-0.01928659931536262,-0.015154626352949892,0.021642465665156978, ,0.004586195601980253, ,0.024528261517048455, ,3.914336917788163e-05, ,0.13641435349030173,-0.22798279717998174,0.09115900167,-4.533496578135416,0.1681995312112572,-1.2943798297617806, ,0.020527134232851133,-0.04579968221933918,0.0018203487962273883,-0.011551293183647119,-0.0005237329208168237,0.06377396816907052, ,0.3643839359283447
0.009743174747699621,0.019454718204608444,-0.081739462496878, ,0.009985382263401222,0.019777700165595418,-0.08184230919868114, ,0.0004166044549175126, ,0.001981619793782391,0.00430445296878698,-0.0010900234907755993,-0.02644002128802457,-0.012803357942671028,0.011151426230700668, ,0.004862435971614622, ,0.029376873562682107, ,3.947488532384338e-05, ,0.13684682653125832,-0.22890952512488869,0.09120048295000001,-4.533706268078901,0.1681995312112572,-1.2930729699195314, ,0.02199233871575221,-0.04604412496771994,0.0022713263253956936,0.0,-0.0004893620753497058,0.07279865317603781, ,0.3821380138397217
0.009785771171547612,0.019545348390089624,-0.08176238864927673, ,0.010021396078837768,0.019862816050628944,-0.08185894163088334, ,0.00040697332920097863, ,0.0022532897773408053,0.004671650659829367,-0.0011322283947627699,0.015139693792657808,-0.0021877006083062082,-0.06392700661445799, ,0.005308820570151134, ,0.015296939631349928, ,3.972956198042657e-05, ,0.13731791323658601,-0.2298594212684183,0.09124844568000001,-4.5326578183614785,0.1681995312112572,-1.2919294675575634, ,0.024926961270940576,-0.04866509823511321,0.002432993969757141,0.07616508140325091,-0.0004589779100549538,0.04364592208506594, ,0.4002399444580078
0.009828365340836635,0.019635121556678344,-0.08178676189264705, ,0.010057245892313854,0.019947743671057103,-0.08187570233562143, ,0.00039752898716903577, ,0.0021435682266156644,0.004439824004950625,-0.0011479301413188005,0.0076915973057037935,-0.022593701631622633,0.023152718277397535, ,0.0050620811477533854, ,0.023867048886066826, ,3.991806636413032e-05, ,0.1377889999419137,-0.23080931741194793,0.09129770470000001,-4.532448128417994,0.1681995312112572,-1.2907859651955957, ,0.023867440029796474,-0.047543557895025436,0.002386696362001798,-0.014676940360821133,-0.00043238250731758945,0.03780248058935362, ,0.41849803924560547
0.009849707737768243,0.019680233828013153,-0.08179750972612457, ,0.010092932439486384,0.020032483501621807,-0.081892590953168, ,0.00043849575575981016, ,0.0022248755257295414,0.004564746665459795,-0.0009791135894476504,-0.0004062864256373926,-0.018874791079196197,0.010021270946105804, ,0.005171619344640292, ,0.018879163300900326, ,4.0276587443237275e-05, ,0.13802840466101465,-0.23129584958302407,0.09132103792000001,-4.5326578183614785,0.1681995312112572,-1.290214214014612, ,0.025071847175289503,-0.04911849977146521,0.002264545282911573,0.0,-0.0004198510175402364,0.04955322413375968, ,0.43517303466796875
0.009892365180461436,0.01977113003539154,-0.08181742824181534, ,0.010128456454526799,0.020117036016224544,-0.0819096071244494, ,0.0004288204562162516, ,0.002313392968032457,0.004785319460500592,-0.0009341211106882285,0.010165546925719375,-0.020637715424885628,0.00821089199838784, ,0.00539663335914356, ,0.02300551330131222, ,4.056498383118126e-05, ,0.13850721409921657,-0.23226891392517635,0.09136640807000002,-4.532448128417994,0.1681995312112572,-1.2892340691329252, ,0.026192917901868833,-0.051658650821159925,0.002287964883654123,0.0017007406170588492,-0.0003979987525699857,0.04163587100444739, ,0.45273613929748535
0.009939628779129298,0.019870140040101656,-0.08183759362496668, ,0.010163818670122352,0.02020140168792713,-0.08192675049104603, ,0.00040981011860691876, ,0.002148636459237313,0.004840271271725954,-0.0006197853106964866,0.004106336121712051,-0.008738980796394877,-0.02559035740566127, ,0.005331885074644294, ,0.009655660604233361, ,4.075211882752556e-05, ,0.13902463720178962,-0.2333269283289451,0.0914143708,-4.531819058587541,0.16806289471149174,-1.2878157913869797, ,0.02464855624895345,-0.052487246437207286,0.0019844659643714706,0.03785130088298477,0.0,0.05358061651341325, ,0.4706079959869385
0.009961989342026769,0.019919165903216622,-0.08184579007492819, ,0.010199019817477274,0.020285580988952168,-0.08194402069519055, ,0.0004473172432446657, ,0.0022663699741560187,0.004820521141259244,-0.0008468721055123125,0.007803485985463353,-0.011512069892404865,-0.021662712326890814, ,0.0053936118970665786, ,0.013907629083797925, ,4.124321312964888e-05, ,0.1392640419208906,-0.23382890596576972,0.09143511144000001,-4.531819058587541,0.16806289471149174,-1.2871623614658552, ,0.02564089207199967,-0.051602469580462634,0.0021835245400959563,0.033896124926980936,0.0,0.05523596412726019, ,0.4863159656524658
0.010008502055530378,0.020022731370420672,-0.08186973719608823, ,0.010234060626314084,0.020369574390683855,-0.0819614173797688, ,0.0004237711713165223, ,0.0022577880750292035,0.004965450016530984,-0.0015365837898615718,0.009866897253144189,-0.013170159124426435,-0.010999869574966894, ,0.005666956026093459, ,0.0164562678866823, ,4.161115613466587e-05, ,0.13981235595496053,-0.2349641476982807,0.09148955562000001,-4.531819058587541,0.1681995312112572,-1.2860485982674432, ,0.024464279855238663,-0.05157442476003847,0.0029205741694169423,0.02204669951186381,0.00021273527163349746,0.04472294935350175, ,0.5025360584259033
0.010031096507298842,0.02007172375587593,-0.08188319545569603, ,0.010268941824874818,0.02045338236366879,-0.0819789401883179, ,0.0004597833640096537, ,0.0024203661619476313,0.0049845693414649304,-0.001268887497515475,0.006558893496368155,-0.017402446460381818,-0.001398665943618808, ,0.005684556214791469, ,0.018597425270716016, ,4.2093643263686124e-05, ,0.14005948340693572,-0.23547384806797952,0.09151677771000001,-4.531399678700571,0.1681995312112572,-1.2853951683463187, ,0.026890604012034792,-0.05260362614105919,0.002688860823767725,0.012450423168059707,0.00021273527163349746,0.04778638354378704, ,0.5174450874328613
0.010076642881457477,0.020172655610723924,-0.08190791184565269, ,0.01030366413992226,0.020537005377616206,-0.08199658876502655, ,0.0004383525983258606, ,0.002134296768409095,0.005031814146516882,-0.0011178228056124427,0.007630309096060822,-0.002596148824051932,-0.04493839402701072, ,0.005578880185617557, ,0.008059876277977811, ,4.2468563751569414e-05, ,0.1405614610437603,-0.2365318624717483,0.0915699256,-4.530560918926633,0.1681995312112572,-1.2840883085040695, ,0.023541786543902453,-0.05277916660649098,0.002526377719270421,0.05810508577712378,0.00020915946321805367,0.05317246707700121, ,0.5327110290527344
0.010099568416203235,0.020223652181972616,-0.08191940200366897, ,0.010338228296741147,0.020620443901399128,-0.08201436275473413, ,0.0004726729857170573, ,0.002351533296961134,0.004901334715218961,-0.001131019941652918,-0.02007312858728897,-0.02348649993714266,0.038951101244950104, ,0.005552656746616344, ,0.030895730620546735, ,4.294499556413035e-05, ,0.14081631122860971,-0.237072453772944,0.09159585140000001,-4.5303512289831485,0.1681995312112572,-1.2833531998428045, ,0.02640426865845041,-0.052662009743879454,0.002536838910654563,-0.02795392307676245,0.0002060977608617741,0.06921088927172986, ,0.5487310886383057
0.01012740603762386,0.020292106773208345,-0.08193764813938116, ,0.010372635019139407,0.02070369840305473,-0.08203226180293022, ,0.0004883612069615394, ,0.002345121209341934,0.004871584410391935,-0.0015325239497808018,-0.01010632493434039,-0.020256181862798216,0.02883836336653961, ,0.005619658157818041, ,0.022637374126182837, ,4.344952950994393e-05, ,0.14114838874220137,-0.2377906679302469,0.09163344381,-4.5303512289831485,0.16847280421078806,-1.2825958907685107, ,0.025780206889016784,-0.05096505991324961,0.002922181529994497,-0.01792593805884661,0.0019203898002144793,0.05905960437150767, ,0.5639870166778564
0.010188514246326648,0.02042759927633356,-0.08198096386625249, ,0.010406885029449472,0.02078676934978505,-0.08205028555575422, ,0.0004260216393802067, ,0.0022648712005061216,0.00516671272937394,-0.001664292830486926,-0.014868388349055413,-0.0035749944425350977,-0.006942541821773157, ,0.005881703206416228, ,0.015292140378302666, ,4.3715378334691914e-05, ,0.1418202665022589,-0.2391884825804815,0.09171511008000001,-4.5299318490961795,0.16860944071055353,-1.2808286976489742, ,0.02495317947895629,-0.053104052355048,0.00312452167908984,0.021824436165494485,0.006828833893267218,0.07225037151513962, ,0.5808250904083252
0.01020835640608309,0.020471384168772304,-0.08199313888297109, ,0.010440979048529413,0.020869657207957606,-0.08206843365999458, ,0.00046733714914141326, ,0.0022459916629607654,0.005222168817546839,-0.0013957314594879847,0.0231101468881882,-0.0032052214969306024,-0.029834934004601472, ,0.005853511084473342, ,0.023331359455306587, ,4.410354375536478e-05, ,0.14203650302273718,-0.23964412382006076,0.09173973959000001,-4.529722159152695,0.16860944071055353,-1.2803386252081308, ,0.025105010994304438,-0.05407233137234802,0.002879394707158352,0.043412343674507976,0.006828833893267218,0.037815377021876144, ,0.5962059497833252
0.010254810424914199,0.02057945533839852,-0.0820114332333035, ,0.010474917795764243,0.020952362443106318,-0.08208670576308849, ,0.0004395144106673903, ,0.0020058363923068,0.005132822221214188,-0.0005772092181799201,0.030271815618750877,-0.006168721318752998,-0.01895392725096642, ,0.0055409759130359325, ,0.030893946713944194, ,4.438227706926983e-05, ,0.14256164885818445,-0.24081025648406867,0.09178899861,-4.529722159152695,0.16860944071055353,-1.2795218378067252, ,0.023576879890303302,-0.0555602702332967,0.002046090111753372,0.03163687068768157,0.006077070153570849,0.030319741051734003, ,0.6125190258026123
0.010276515141343647,0.020630030353353913,-0.08201889536996303, ,0.010508701989067115,0.021034885519931646,-0.08210510151312059, ,0.00047460503292584994, ,0.0021705987783749974,0.005074847255815916,-0.0007044749554766836,-0.016303397000827387,-0.0036346128344570544,-0.010607188063674233, ,0.005564338117821313, ,0.016703627277415343, ,4.4757031979525926e-05, ,0.14280877631015965,-0.2413585705181386,0.09181103554,-4.529722159152695,0.16860944071055353,-1.2788684078856007, ,0.02529910465435105,-0.054569834133680724,0.00217695934399344,0.025798482369116128,0.005645704153849084,0.07555304372383861, ,0.6285579204559326
0.01031726338922457,0.02073502033010901,-0.08203539409376034, ,0.010542332344880554,0.02111722690230192,-0.08212362055882383, ,0.0004522408736117608, ,0.001981198262957194,0.005196291129501395,-0.000983029340874825,0.0053278479403032,-0.0038978725011707444,0.0009164092191443078, ,0.0056473829996468525, ,0.0066014675421044175, ,4.5045058333579605e-05, ,0.14329530848123578,-0.24247836678490114,0.09185770198000001,-4.529093089322242,0.1688827137100844,-1.2773759901500417, ,0.022949683569158594,-0.05533349362009957,0.002462710500927644,0.013379068452195489,0.009118451070151799,0.053227610241218776, ,0.6445550918579102
0.010333008245363083,0.020780847922159163,-0.08204432450112209, ,0.010575809578177772,0.021199387053253412,-0.08214226254957739, ,0.0004936794028607542, ,0.002189984655676628,0.005455766900335523,-0.0011879317148082698,-0.001228500518171893,0.00644812500425814,-0.03837234721954102, ,0.005997716817418364, ,0.006564109200136905, ,4.544302530728741e-05, ,0.14349609953596562,-0.2429571762231031,0.09187973891000001,-4.528673709435273,0.16915598670961526,-1.27694539603631, ,0.024979452897728554,-0.05685856294695672,0.0027515652997063397,0.05559346586796122,0.009438147573388405,0.06736507755867055, ,0.6598939895629883
0.010381621598613628,0.02090295100929807,-0.08207568898531421, ,0.01060913440246375,0.021281366434991247,-0.08216102713540717, ,0.0004497142539208447, ,0.0018699067006722725,0.005285802205613487,-0.0013353333772922287,0.001663383728956113,0.0004892501511133406,0.034457551586917316, ,0.005763624836385358, ,0.0017338428809654804, ,4.5694249947119906e-05, ,0.14403669083716134,-0.2442314271473501,0.09194584970000001,-4.528254329548303,0.1692926232093807,-1.2753415603970546, ,0.022339204698321746,-0.055625405368388496,0.0028358218835677416,-0.018147978783984917,0.020848619659382207,0.05453884957814159, ,0.6756539344787598
0.010402150325853838,0.020954899339742712,-0.08208814348257228, ,0.01064230752977666,0.021363165508890235,-0.08217991396698487, ,0.00048247131445894813, ,0.002007936945868864,0.005310282961953971,-0.0011696732032100373,0.005332073554233156,-0.0043096557344573135,0.029095838348641496, ,0.005796468866207378, ,0.006855956602481087, ,4.6158854418060216e-05, ,0.14426065009051384,-0.24477974118142007,0.09197307179000001,-4.528254329548303,0.1692926232093807,-1.2746881304759303, ,0.02381353615018087,-0.056285255965878286,0.0026965992077196553,-0.013791722043746001,0.01670642512355926,0.05147818895118442, ,0.6895999908447266
0.01044680581902473,0.021064616162857392,-0.08211100933587198, ,0.010675329670688934,0.02144478473549509,-0.08219892269562742, ,0.0004521947072051126, ,0.0020574389088099153,0.005200218718259868,-0.0011916697410378407,0.00451850559706285,-0.004050372529528373,0.009384529632517204, ,0.00571798971255899, ,0.006068147201266893, ,4.6520430682146185e-05, ,0.14475490499446422,-0.24594587384542796,0.09202751597000002,-4.528254329548303,0.1692926232093807,-1.2733812706336811, ,0.023777735294029257,-0.05463266641247599,0.0026965992077196553,0.00529445950859536,0.011940543138659764,0.052623062895158376, ,0.7040669918060303
0.010467090236846091,0.021117397188734077,-0.08212433730558096, ,0.010708201534308586,0.021526224574521573,-0.08221805297329653, ,0.000483794497187867, ,0.0023731219036326203,0.005458730093286025,-0.0014481076979329576,-0.0065778047843436036,-0.004979086877606205,-0.032007881674250296, ,0.006125884238676083, ,0.008249777082401433, ,4.695491277668696e-05, ,0.14498658698069095,-0.24648646514662367,0.09205603435000001,-4.52762525971785,0.16942925970914616,-1.2728392586162531, ,0.02568252816196773,-0.056185282154215976,0.0030323265790976593,0.04656006063622736,0.0,0.06947909681265602, ,0.7181370258331299
0.010488225303083663,0.02117294767591174,-0.08213931313811033, ,0.010740923828280444,0.021607485484856782,-0.08223730445259822, ,0.0005121346988385472, ,0.002205869375976523,0.005323101259345448,-0.001443737169888105,-0.003090838807075879,0.00479705549498538,-0.0449071883157654, ,0.0059401720292288395, ,0.005706577428461228, ,4.744938800418491e-05, ,0.14524143716554036,-0.2470579473793163,0.09208714531000001,-4.527415569774365,0.16970253270867705,-1.2723269857623807, ,0.024196058530971645,-0.054319943651099475,0.002984600247329961,0.06104726501662783,0.005310960103685603,0.06694179274160945, ,0.7315640449523926
0.010533535159296007,0.021278850574993048,-0.08216530843561184, ,0.010773497258787335,0.021688567924559927,-0.08225667678678152, ,0.0004835269292643987, ,0.002305538776449869,0.00508580740187071,-0.0013298381821543817,-0.024604317096218523,-0.016602986519564898,0.03417984358357935, ,0.005740158148461811, ,0.029682176152296614, ,4.784986740427778e-05, ,0.14575113753523916,-0.2481622981803304,0.09214418207000001,-4.5272058798308805,0.1698391692084425,-1.2708865076034068, ,0.025745236451023,-0.05331288851599482,0.002833299807897546,-0.021177399038493843,0.0043532960832196755,0.0758635071125162, ,0.7445430755615234
0.010556631131478245,0.021334016991023025,-0.0821815755701572, ,0.010805922530551432,0.02176947235086315,-0.08227616962973933, ,0.00051060318073195, ,0.0023063259372689193,0.005513500970503478,-0.0015775473366714092,-0.0044829067202508495,-0.0030247427138800813,0.01658840835168607, ,0.006181139691036047, ,0.005407912826393421, ,4.8306111842984284e-05, ,0.1460137104529628,-0.24873378041302302,0.09217658932000002,-4.527415569774365,0.16997580570820792,-1.2701811381056973, ,0.026433688456398544,-0.05682451590327592,0.0031966308488862133,0.0,0.015607666420929788,0.06370580918829238, ,0.7581000328063965
0.010580471457388113,0.02138822670982314,-0.0822020103178685, ,0.010838200346835265,0.021850199220171958,-0.08229578263600666, ,0.0005372485722853567, ,0.0025387573821533584,0.005577228364394908,-0.002508916718368341,-0.013674027656238824,-0.007194655272443517,0.011266012554744034, ,0.006621588055274765, ,0.015451281394546967, ,4.881403477508751e-05, ,0.14627628337068643,-0.24927437171421873,0.09221288544,-4.5272058798308805,0.17011244220797336,-1.2695574473481288, ,0.02691348314193726,-0.054790381962165575,0.004130915850622407,0.00409600308245879,0.009691728910691397,0.07067167076488712, ,0.7714269161224365
0.01063019323144176,0.021493690448822784,-0.0822394387554793, ,0.010870331409443231,0.021930748988065935,-0.08231551546076057, ,0.0005044543352432179, ,0.0024442881648119824,0.005504287812089466,-0.0013352417510574483,-0.0005908954326782304,-0.0076891805912603335,0.0031038379528982763, ,0.006168841016327422, ,0.00771185163064814, ,4.922194477964291e-05, ,0.14681687467188215,-0.25033238611798747,0.09228158881000001,-4.526786499943912,0.1702490787077388,-1.268362005409576, ,0.027755759449684343,-0.057132415146580844,0.0029795756677890015,0.012229119461082778,0.009308597490891156,0.06089165553446414, ,0.7846779823303223
0.010659759039917196,0.021558250800815814,-0.08225497399310994, ,0.010902316418722633,0.022011122109299577,-0.08233536775981931, ,0.0005199900593150622, ,0.002400445877284202,0.005282311369328958,-0.0011542086354387527,-0.006850742053594977,-0.006780447986866115,0.0031470622472467764, ,0.005915839026413251, ,0.009638835074086652, ,4.965405425219848e-05, ,0.1471489521854738,-0.25098109567942234,0.09231529235000001,-4.526786499943912,0.17038571520750423,-1.2676566359118668, ,0.027763879917633346,-0.05472718659658061,0.002743508701343438,0.012229119461082778,0.009447318980612202,0.06692911734530402, ,0.8009510040283203
0.010707296832970338,0.021664827745241373,-0.08227327779610488, ,0.010934156073564997,0.02209131903780268,-0.08235533918964265, ,0.0004899938876997944, ,0.0023224826173081424,0.005446017496659273,-0.0009885943828829033,-0.0009253889598903429,-0.006286702470666419,0.002378555388901736, ,0.00600252871175849, ,0.006354445111953201, ,4.999888599053844e-05, ,0.14770498895241796,-0.2521317828776818,0.09236714395000001,-4.526576810000427,0.17052235170726968,-1.2662978364930333, ,0.026905852440734554,-0.05737420892289647,0.0026280830754000996,0.013193603835287369,0.009529703520687521,0.06163963780195734, ,0.8151109218597412
0.010731978024554655,0.02172208194710337,-0.08228584209530661, ,0.010965851071407259,0.022171340226681224,-0.08237542940732992, ,0.0005143495798471471, ,0.0025303771348922084,0.005821686178374182,-0.001540942184676525,0.007066291628272228,-0.0074276957906341794,-0.0009348355390797065, ,0.0065321773721152086, ,0.010251982351004446, ,5.0390213080808386e-05, ,0.1479907300687643,-0.2527264333089971,0.09239695862000001,-4.526367120056943,0.17065898820703512,-1.2657558244756053, ,0.02839525480504811,-0.05983413717431954,0.003282937246496291,0.016751504915656655,0.009668749960046772,0.05655421558304924, ,0.8288619518280029
0.010756399034673713,0.021778422265653276,-0.0823013462839546, ,0.010997402108233068,0.02225118612821783,-0.08239563807062072, ,0.0005389611231292152, ,0.002621909125862471,0.005589392928603829,-0.001452019616423054,0.005266366175156626,-0.011466769056424046,0.0004075240315359207, ,0.006342245796331513, ,0.012618296449114807, ,5.082634804934131e-05, ,0.14826874845223637,-0.2533056382745639,0.09242936587000002,-4.526367120056943,0.17079562470680054,-1.2652138124581773, ,0.02938895681587822,-0.057478462482417184,0.0031504769620253163,0.014254267269758529,0.007302362554715571,0.05530517436345566, ,0.8420069217681885
0.01080804566260383,0.021896781230314515,-0.08233326905209663, ,0.01102880987857394,0.022330857193872632,-0.08241596483789357, ,0.0004939609034937667, ,0.002463718132017661,0.005919056289697657,-0.0019481628304336232,0.0067318987284962,-0.007280507726818198,0.003953610953997288, ,0.006700781507296379, ,0.009915858673000828, ,5.126284415834297e-05, ,0.14884023068492896,-0.25451810733581715,0.09249677295000001,-4.525947740169974,0.17093226120656602,-1.2641000492597652, ,0.026844962251335442,-0.05972117152830131,0.0037009320446096663,0.011638773688814181,0.009599050328081934,0.056030071560062976, ,0.8535311222076416
0.010833103055634003,0.02195786808553106,-0.08235291782377523, ,0.011060075075510517,0.022410353874283823,-0.08243640936816599, ,0.0005130599622020699, ,0.002557690005205194,0.006296570188483953,-0.0020481630645797426,0.003966449449603827,-0.004869603874986664,-0.0035063641191469723, ,0.007098136814709904, ,0.006280586206677247, ,5.1730914539327055e-05, ,0.1491028036026526,-0.25513592596575513,0.09253436536000001,-4.525738050226489,0.17093226120656602,-1.2633649405985001, ,0.027739532756056937,-0.06343378446421843,0.003908910802453988,0.02055570293640047,0.009599050328081934,0.06383639333779728, ,0.8651680946350098
0.010858669493823202,0.02202111620989808,-0.08237574085355678, ,0.011091198390673856,0.02248967661926826,-0.0824569713210934, ,0.0005293552058457069, ,0.002508548421869438,0.006195104703380715,-0.002257358702650649,-0.011166422826359143,-0.005871266747146792,-0.002334933994553585, ,0.007054630095415785, ,0.01261589362251331, ,5.222298132271974e-05, ,0.14938082198612468,-0.25576919006144155,0.09257584664000001,-4.525738050226489,0.17106889770633144,-1.2626595711007909, ,0.026360261544019662,-0.06174166659627246,0.004075949723643808,0.018854033328559328,0.005746410705488821,0.07662754708675781, ,0.87693190574646
0.010885648013467138,0.022087610764019418,-0.08239881759826417, ,0.01112218051424658,0.02256882587782232,-0.08247765035696851, ,0.0005419688307663567, ,0.0025700590178168708,0.006422699075816534,-0.0023947399413097007,-0.008970925001373985,-0.005682737393090982,0.0075996014861576065, ,0.007320590560881025, ,0.010619369076378966, ,5.2729923546289665e-05, ,0.14967428583534523,-0.25643334508862486,0.09261862421000001,-4.525528360283005,0.17120553420609688,-1.2618725228629413, ,0.02724574836591179,-0.06390366434913858,0.004283089948910998,0.009819025059179006,0.009391881474035033,0.07579397792004335, ,0.8883030414581299
0.010909302880475692,0.022149306759358035,-0.08242087089507596, ,0.011153022134964143,0.02264780209812219,-0.08249844613672176, ,0.000560280818781438, ,0.0025536833101289106,0.006284173158586152,-0.002197286046988673,-0.007884001568400544,0.0003481287237381399,-0.002200760218861393, ,0.007130231181933493, ,0.007891683868960702, ,5.326362437233715e-05, ,0.14992913602019464,-0.2570434409856886,0.09265880920000001,-4.525108980396035,0.17134217070586233,-1.261167153365232, ,0.027763879917633346,-0.06259692714938705,0.004065546584992343,0.02100343936901047,0.013296210441555953,0.07560654312948906, ,0.8995161056518555
0.010931660431591331,0.022211541844437434,-0.08244271285793581, ,0.011183723940116092,0.022726605727525058,-0.08251935832191924, ,0.0005785337873800884, ,0.0022322385351563295,0.006623903651700668,-0.0021585943724464762,0.002885467312308074,0.012697983892075665,-0.0008859014182125394, ,0.007315635182922117, ,0.013021701750806063, ,5.382291603787941e-05, ,0.15018398620504403,-0.2576612596156265,0.09269899419000001,-4.524899290452551,0.1716154437053932,-1.2605732017712192, ,0.02509173494406948,-0.0663614975933362,0.004093757779491134,0.0229006754392479,0.02371215506422806,0.07030763600602846, ,0.9111080169677734
0.010985876024602752,0.022345498920380256,-0.0824913607244197, ,0.011214286615547246,0.02280523721256929,-0.08254038657476358, ,0.0005156881124889757, ,0.002582195856194856,0.006626395585488561,-0.002259070136342241,0.004093777441294239,0.0051741123898531175,-0.009833785356863836, ,0.007461920113217879, ,0.006597761188679415, ,5.423389816210478e-05, ,0.1507400229719882,-0.2589972924028674,0.09278714191000001,-4.524689600509067,0.1716154437053932,-1.2586129120078455, ,0.028344367251634046,-0.06580925212099221,0.004235259643711779,0.03030688743131233,0.017430180662467997,0.06868883416841964, ,0.9242100715637207
0.011011476023679419,0.022410596563226547,-0.0825134193280229, ,0.011244710845659018,0.022883696998975342,-0.08256153055809233, ,0.0005296576204949275, ,0.0025601600762312324,0.006518217635500806,-0.0021892157370675984,0.0034214299945638025,-0.01283563545963658,0.007009661850069464, ,0.007337182449899039, ,0.013283814241779178, ,5.466390707057278e-05, ,0.1510180413554603,-0.25964600196430226,0.09282862319000001,-4.524479910565582,0.17175208020515864,-1.2580708999904175, ,0.02679190896625375,-0.06540106241107566,0.004122363229813665,0.00826200069875999,0.0034806733896813854,0.06365474478365213, ,0.9358649253845215
0.011035259701929664,0.022475545451442307,-0.08253145419848716, ,0.011274997313410492,0.02296198553164626,-0.08258278993537818, ,0.0005447324406252156, ,0.002490757133435184,0.006578351412695619,-0.0016951520461344787,0.021555256027006295,-0.005580585749903362,0.005952979635695872, ,0.007235476409068488, ,0.022265938104823215, ,5.51145286884559e-05, ,0.15129605973893237,-0.2603024342586113,0.09286621560000001,-4.524270220622098,0.17202535320468954,-1.257640305876686, ,0.027886259641043427,-0.06725509678134002,0.0036744663252595154,0.011604677393774429,0.013415822697034872,0.049137064330385435, ,0.9494540691375732
0.01105965669360636,0.022540648476982887,-0.08254545445759802, ,0.011305146700319842,0.02304010325466861,-0.08260416437072779, ,0.0005596135025613521, ,0.0024365097446936374,0.006236257639217834,-0.001173774362444716,0.0036001728796277916,3.987240670961541e-05,0.0011662008109495719, ,0.006797443293814399, ,0.0036003936687251633, ,5.558460328892944e-05, ,0.15157407812240445,-0.26097431201866883,0.09289991914000001,-4.524060530678613,0.17216198970445498,-1.2570166151191173, ,0.02839525480504811,-0.06477606932318823,0.0030869789767441866,0.01807396520831444,0.01571298459584115,0.06611180395872412, ,0.9615240097045898
0.011084958457324542,0.02260366139013912,-0.08255734761862683, ,0.011335159686465422,0.02311805061131281,-0.08262565352888171, ,0.0005760751889285207, ,0.0025165735143708773,0.006484656953083338,-0.001631585645126542,0.0075548121400023675,-0.0024603659644429586,0.003004791059757718, ,0.007144647630904414, ,0.007945350032450052, ,5.607662675585631e-05, ,0.15185209650587653,-0.26163074431297795,0.0929310301,-4.523850840735128,0.17216198970445498,-1.2561998277177118, ,0.02733994282871529,-0.06754230715905395,0.0030911724277120126,0.01571705498385232,0.01571298459584115,0.06445833602578716, ,0.973438024520874
0.011138899186318524,0.022738289856214462,-0.08259037874420677, ,0.011365036950487045,0.023195828044034035,-0.08264725707521328, ,0.0005135315240902379, ,0.0026214074059085243,0.00688645540248287,-0.001960389887585624,0.011622993975513305,-0.003494338602640025,-0.003413954599592239, ,0.007624839231714039, ,0.012136902042768764, ,5.643147998943366e-05, ,0.15243130147144338,-0.26301311349746415,0.09300491863,-4.523641150791644,0.17216198970445498,-1.2547296103951815, ,0.02866977086358634,-0.06947067464016894,0.0040418197208830255,0.02224895772268698,0.011588995289933164,0.06269922647743031, ,0.985724925994873
0.011163050700268743,0.022804741737530616,-0.08261042779528807, ,0.011394779169587265,0.02327343599447263,-0.08266897467572906, ,0.0005261179783969602, ,0.002546823835578492,0.006372430367241279,-0.002023104676795377,-0.001721446501108003,-0.0044956527990205105,-0.0019281979889841216, ,0.007154518360314752, ,0.004813966359627615, ,5.6802824738860114e-05, ,0.15270931985491545,-0.26367726852464746,0.09304510362000001,-4.523431460848159,0.17243526270398585,-1.254135658801169, ,0.027387284721059387,-0.06360384822953806,0.003957468700621119,0.019483792890857273,0.008964512115191817,0.069532858168763, ,0.9991629123687744
0.011177217851261462,0.02284186479706439,-0.08262110861664486, ,0.011424387019532547,0.023350874903455138,-0.08269080599706702, ,0.0005701242066334767, ,0.00265454848990251,0.006591748373068183,-0.0017680520069359592,0.02606282858783117,-0.010597498392488853,0.0026991613824308095, ,0.007322826107338682, ,0.02813499611089712, ,5.7363824901485944e-05, ,0.15287149724527416,-0.2640479597026102,0.09306714055000001,-4.523221770904676,0.1725718992037513,-1.2540020404844434, ,0.02921703865716465,-0.06682883208343011,0.0037889656327307333,0.013654161015088153,0.009674467903034268,0.04390172774796866, ,1.0098190307617188
0.011212416168667009,0.02293282997693214,-0.08264519620028007, ,0.011453861174654521,0.023428145210994594,-0.08271275070649736, ,0.0005551544679824834, ,0.002535868524822452,0.006440729562805254,-0.0016398635898906622,0.043807662859796336,-0.007149072857832047,-0.012067020169148393, ,0.0071135630361885355, ,0.04438716670336496, ,5.788486440337926e-05, ,0.1532576338889854,-0.26496696491464294,0.09311899215000001,-4.522802391017706,0.1727085357035167,-1.2534600284670154, ,0.028067714155122974,-0.06522126567592494,0.0036185396456156296,0.028017454730208252,0.010560322233747798,0.026625459542877594, ,1.0194060802459717
0.011239223201959827,0.02300058681614325,-0.08265800042332574, ,0.011483202307851152,0.023505247356291354,-0.08273480847192005, ,0.0005657804708745008, ,0.002351184747859736,0.0064972228737844116,-0.0007906334499711001,0.014445310099744452,-0.0035648408896517547,-0.004452794174001873, ,0.0069546442067447865, ,0.014878678518134708, ,5.8416318535797726e-05, ,0.15355109773820594,-0.26566973360619733,0.09315269569000001,-4.522592701074221,0.1727085357035167,-1.252806598545891, ,0.027442724568672867,-0.06851764733463594,0.0028028878268520152,0.022757367884348557,0.010560322233747798,0.05883161539299898, ,1.0295100212097168
0.01126584527812299,0.02306643752202333,-0.08266995211883127, ,0.011512411090588147,0.0235821817777338,-0.08275697896186662, ,0.0005782391448039917, ,0.002554813551926145,0.006524360318112596,-0.001640782040069074,-0.023442936350885176,0.0003224571890366604,-0.0021980083654017223, ,0.0071962848434925794, ,0.023445153942308054, ,5.8961380539845356e-05, ,0.15384456158742646,-0.26635705683200334,0.09318510294000001,-4.522592701074221,0.1727085357035167,-1.2519081324043446, ,0.028285228482405594,-0.06613027286304585,0.0036533971376146793,0.022435528516432823,0.010560322233747798,0.0947098217239614, ,1.0392940044403076
0.011291106426883536,0.023126577067343865,-0.0826890668757008, ,0.011541488192899954,0.02365894891289878,-0.08277926184549779, ,0.0005951856376541077, ,0.002882112215946704,0.006941394752564931,-0.0025735246631224096,-0.011028760595343946,-0.003773299653257429,-0.002540193358618276, ,0.007944341453383314, ,0.011656386679833403, ,5.9528132869948906e-05, ,0.1541071345051501,-0.2669517072633186,0.09322269535000001,-4.522173321187252,0.1727085357035167,-1.2510096662627985, ,0.030376741856104606,-0.06778352968462198,0.004701538229043684,0.02218999550152544,0.01003649498529082,0.08370151912947818, ,1.0497429370880127
0.011321960718027962,0.023203613763353576,-0.08271873082655817, ,0.011570434283391176,0.023735549198552582,-0.0828016567926037, ,0.0005929343435400314, ,0.0026902733038778946,0.006961715179508168,-0.002695494894798533,-0.016885607524608656,-0.0022088160919854515,-0.006014625484601313, ,0.007935284583304966, ,0.01702946299391259, ,6.0080083672173744e-05, ,0.15440832108724484,-0.2676544759548731,0.09327195437000001,-4.521963631243768,0.17284517220328216,-1.2499775818045271, ,0.027292764325128206,-0.06749426853376299,0.0047463681525625745,0.025313753275641504,0.006966054441445701,0.08949398861954719, ,1.0609219074249268
0.011347102867868816,0.023272068312084917,-0.08274454083332677, ,0.011599250029237767,0.02381198307065136,-0.08282416347360311, ,0.0006011870776628988, ,0.0027970676867273255,0.00673542311651656,-0.0028220839274561847,-0.011981436313451992,-0.0009668302526038533,-0.012839850748127622, ,0.007820081194990646, ,0.012020381719881339, ,6.063709600421454e-05, ,0.1547095076693396,-0.2683649673793017,0.09332250968000001,-4.521753941300283,0.17311844520281303,-1.2491385939900925, ,0.028678435043357743,-0.06446803095004808,0.004880150588235295,0.03203153404768433,0.008579687394662649,0.08261991757425675, ,1.0702769756317139
0.011373663019448145,0.023341950510566544,-0.08277513971092113, ,0.011627936096188144,0.02388825096434175,-0.08284678155954335, ,0.0006068208449153914, ,0.0026440737936667394,0.007376857571152312,-0.002851010973849181,0.023531506860231484,0.019164691039274904,-0.003485375804190395, ,0.008338909846282718, ,0.030348265149026603, ,6.119422511411237e-05, ,0.15498752605281169,-0.26900595420786233,0.09337176870000001,-4.521544251356799,0.17339171820234395,-1.2486263211362205, ,0.029452806194435372,-0.07066041813735724,0.005089077162939298,0.02992274190276197,0.035144494115356716,0.05254911401331119, ,1.0802180767059326
0.01140277745484192,0.02341473638698904,-0.0828022045622182, ,0.01165649314856463,0.023964353313962013,-0.08286951072209862, ,0.0006090817176818384, ,0.0026962154312540265,0.00721105062756282,-0.002596630220870265,0.007846465194423407,0.007724960509269465,0.012750244462111468, ,0.008124734906995012, ,0.011010995904050863, ,6.174533528158742e-05, ,0.15528871263490643,-0.26973961383091366,0.09342362030000001,-4.5213345614133145,0.17339171820234395,-1.2476461762545337, ,0.02987938965946813,-0.07034613903518962,0.004815239274486094,0.01078029167337077,0.027051540610835624,0.06799720399712106, ,1.0903360843658447
0.011434432459766103,0.02348847556153373,-0.08282451760743643, ,0.011684921849264398,0.024040290553041757,-0.08289235063357098, ,0.0006097917993371186, ,0.00281031353305404,0.007220115039006629,-0.002039281261253576,0.004114145399054626,0.0027176871942698752,0.0036910121075033023, ,0.008011653474349496, ,0.004930721652577077, ,6.228779496254089e-05, ,0.15562079014849808,-0.270473273453965,0.09346899045000001,-4.52112487146983,0.17339171820234395,-1.2467477101129876, ,0.031506288698031466,-0.07200071438427222,0.004296954820609658,0.01895330907778403,0.020361624876724996,0.07366255953524098, ,1.1000170707702637
0.011463329964284102,0.023560112914413893,-0.08284483058054591, ,0.011713222859761084,0.024116063114303598,-0.08291530096688841, ,0.000613590383984735, ,0.003130289457492184,0.00716698587985326,-0.002123897814955916,0.0032805607757760455,-0.016020990408081727,-0.010097442233205769, ,0.008104032367783167, ,0.016353415931119365, ,6.282735105034809e-05, ,0.15579841300460526,-0.2708825782962989,0.09349361996000001,-4.520915181526345,0.17339171820234395,-1.2462576376721441, ,0.03151675242725698,-0.07066041813735724,0.004272749871244636,0.02334793361048468,0.01801726711346707,0.06543695505674516, ,1.1107051372528076
0.01148851944274133,0.023622987661649615,-0.08286266230751452, ,0.01174139684010564,0.024191671429663244,-0.08293836139560526, ,0.000626959773859293, ,0.002916411190685895,0.007383860380134096,-0.0018183090491721047,0.015445501737528889,-0.0052936707103919236,-0.02476625759564271, ,0.008144513254011753, ,0.016327476029509055, ,6.338102010983048e-05, ,0.15621544057981337,-0.27180930624120586,0.09354936043,-4.520495801639376,0.1736649912018748,-1.24550032859785, ,0.031506288698031466,-0.0741382355925553,0.004134132239813133,0.044325635854530296,0.005741271726929226,0.06601547665172566, ,1.120419979095459
0.011520648483169329,0.023707078358192392,-0.08288294135124663, ,0.011769444448927836,0.02426711593023031,-0.0829615315939009, ,0.0006178332630348504, ,0.0027185439667519315,0.007364341609381712,-0.001885168998200802,0.005982342261161411,-0.008813636690096448,0.00256858549068749, ,0.008073281290194934, ,0.010652164597436642, ,6.390896425454223e-05, ,0.15657068629202772,-0.27265880685737054,0.09359602687000002,-4.520286111695891,0.17380162770164026,-1.244794959100141, ,0.02923504052941182,-0.07419620137487942,0.004174216855345912,0.016327635832023436,0.0067681637439151385,0.07155304141394464, ,1.1306180953979492
0.011550045836541957,0.023782939337364948,-0.08290336715067699, ,0.011797366343437317,0.024342397046308886,-0.08298481123657997, ,0.0006170846784326677, ,0.002952160424078449,0.007595518830997676,-0.0022991399828797563,-0.007851595845293559,-0.010456672002281382,0.006049388602596846, ,0.008467183837759263, ,0.01307629712942021, ,6.453866603400999e-05, ,0.15687959560699669,-0.27342335741191875,0.09364010073000001,-4.520286111695891,0.17380162770164026,-1.2438964929585947, ,0.031103553444270987,-0.07537485429584652,0.0046670997714620575,0.013536317954355354,0.005732116557078685,0.08613755042922966, ,1.1383469104766846
0.011577568048108427,0.02385711159151863,-0.08292699812954653, ,0.011825163179424933,0.024417515207398318,-0.08300819999907091, ,0.0006180204732506219, ,0.003013596180180654,0.007789133156745127,-0.002382128238743701,-0.012997848711437564,-0.010911311942842318,-0.0011777308164390124, ,0.008684865699394891, ,0.01697058629991101, ,6.516127124009059e-05, ,0.15717305945621723,-0.2741492943020959,0.09368676717,-4.519866731808922,0.17393826420140568,-1.2431094447207451, ,0.03125722712729604,-0.07708931077048803,0.00480797208572291,0.020876821480309858,0.0022143219978266906,0.09365217759068767, ,1.1473610401153564
0.011608782241498635,0.02394081745129467,-0.08295274958855563, ,0.011852835611263934,0.024492470842194004,-0.08303169755742633, ,0.0006083718375905802, ,0.003004028113790155,0.008118688990447313,-0.0026644457743137838,-0.0026142440206378403,0.009457978887810182,-0.03337588918999638, ,0.009057403994319268, ,0.009812626371538695, ,6.575873988722156e-05, ,0.15750513696980886,-0.2749679039867637,0.09373861877,-4.519237661978469,0.17407490070117113,-1.2420773602624737, ,0.0316428614733147,-0.07888357569282692,0.005188537954397395,0.05848922304584507,0.013504457411823819,0.0923809744230599, ,1.155121088027954
0.011608782241498635,0.02394081745129467,-0.08295274958855563, ,0.011880384291911279,0.024567264378587406,-0.0830553035883218, ,0.0006904496718595083, ,0.003004028113790155,0.008118688990447313,-0.0026644457743137838,-0.0026142440206378403,0.009457978887810182,-0.03337588918999638, ,0.009057403994319268, ,0.009812626371538695, ,6.648811652938985e-05, ,0.15750513696980886,-0.2749679039867637,0.09373861877,-4.519237661978469,0.17407490070117113,-1.2420773602624737, ,0.0316428614733147,-0.07888357569282692,0.005188537954397395,0.05848922304584507,0.013504457411823819,0.0923809744230599, ,1.1627850532531738
0.011640580713183817,0.024023082705484616,-0.08298284844435187, ,0.011907809872908678,0.02464189624366758,-0.08307901776905555, ,0.0006808745536879264, ,0.003257213724953552,0.008429611687630525,-0.003338702400706417,-0.010179118713321514,0.0016797554103948672,-0.012837802055358335, ,0.009634040075417257, ,0.010316784169681728, ,6.719137430493285e-05, ,0.15783721448340052,-0.2757633454728088,0.09379435924000001,-4.519027972034984,0.17421153720093657,-1.2412086332844832, ,0.03328549335618056,-0.08042113691395829,0.005954695895327104,0.03719033772623634,0.012283894697741875,0.09813874987599845, ,1.171133041381836
0.011671398174275297,0.02410687521746835,-0.08301938341307014, ,0.011935113004384077,0.02471636686372128,-0.08310283977754797, ,0.0006693209568236051, ,0.00323363147281544,0.008597739872598787,-0.00386616385419516,-0.019100930277396618,-0.000431344450458177,-0.0022859079284202216, ,0.009966179125740353, ,0.019105800025990317, ,6.786571009551177e-05, ,0.1581461237983695,-0.27655878695885394,0.09385658116000001,-4.519027972034984,0.17434817370070202,-1.240176548826212, ,0.031855300959540374,-0.08076335451784747,0.006504210502245815,0.026170678216091932,0.010654542501930616,0.10557130352345243, ,1.1790940761566162
0.011705400128292555,0.02419743071000853,-0.0830629694719047, ,0.01196229433505266,0.024790676664233773,-0.0831267692923409, ,0.0006496197447424262, ,0.0031981632918987447,0.008959088592779394,-0.004282025143628147,-0.00835917925738447,-0.00276006216449785,0.024190020436867903, ,0.010432126158438753, ,0.008803057398958916, ,6.849807950079667e-05, ,0.15847820131196116,-0.27740056484214437,0.09392787711000002,-4.5188182820915,0.17448481020046747,-1.2391444643679406, ,0.03136052265646754,-0.08368336998101479,0.007010920563380283,0.0,0.01681619102551889,0.09452888033633766, ,1.1871061325073242
0.011705400128292555,0.02419743071000853,-0.0830629694719047, ,0.011989354512218256,0.02486482606988952,-0.08315080599259728, ,0.0007305901127914885, ,0.0031981632918987447,0.008959088592779394,-0.004282025143628147,-0.00835917925738447,-0.00276006216449785,0.024190020436867903, ,0.010432126158438753, ,0.008803057398958916, ,6.925654759845167e-05, ,0.15879483335980438,-0.2782577881911833,0.0939939879,-4.518398902204531,0.17475808319999833,-1.2382237978133652, ,0.031123955906353157,-0.08682245339292843,0.0062514958869701745,0.023683549322590477,0.018167276163038804,0.09313397968344299, ,1.194817066192627
0.011736105840508708,0.024288436560602703,-0.08310116020892491, ,0.012016294181774407,0.024938815504572682,-0.08317494955810023, ,0.0007119993998539924, ,0.0030455681388924637,0.009060221415799203,-0.0034662184353486634,-7.798685667701432e-05,0.005074844088691509,0.002570681193735567, ,0.010167485806899086, ,0.005075443229313565, ,6.997432517181831e-05, ,0.15879483335980438,-0.2782577881911833,0.0939939879,-4.518398902204531,0.17475808319999833,-1.2382237978133652, ,0.031123955906353157,-0.08682245339292843,0.0062514958869701745,0.023683549322590477,0.018167276163038804,0.09313397968344299, ,1.2027480602264404
0.011768540802503885,0.02437808277960734,-0.08313438375519125, ,0.012043113988205801,0.025012645391368087,-0.08319919966925293, ,0.0006944503187894524, ,0.0032427848184458747,0.008855313275285796,-0.003342582584039617,0.0017941608179857867,0.016182804830100598,-0.04919232409345879, ,0.010005252866035963, ,0.016281958874553727, ,7.065392028346123e-05, ,0.15911146540764756,-0.2791150115402222,0.09405491353,-4.517769832374077,0.17475808319999833,-1.2372436529316786, ,0.03322722043363823,-0.08383122045801306,0.0061076731288343565,0.0773042285664657,0.016018058862368446,0.0962056067013399, ,1.2111990451812744
0.011799962823372421,0.024465339784090046,-0.08316544489758493, ,0.012069814574589256,0.02508631615256151,-0.08322355600707768, ,0.0006795649482435642, ,0.00317166958445504,0.009314347154750869,-0.0030997608496139825,0.005103913915992604,-0.00010989010692903168,-0.020021216673495733, ,0.010316252623747269, ,0.005105096748474286, ,7.130041746116436e-05, ,0.159435820188365,-0.2799567894235127,0.09411324658,-4.517560142430592,0.17489471969976378,-1.2362932472135477, ,0.03203813016828858,-0.09029204715363537,0.0059905270853704414,0.044783849579836416,0.007406017112908005,0.09301722443064583, ,1.2193689346313477
0.011834253363647056,0.024563530646446542,-0.08319825158898442, ,0.012096396582595214,0.02515982820964061,-0.08324801825321594, ,0.0006532737343414452, ,0.003313854103319535,0.009282169051452297,-0.003200358183099234,0.011302021899997655,-0.002810505421549036,-0.0038134435691827705, ,0.010362556818563495, ,0.01164622854905617, ,7.189600332604589e-05, ,0.15979106590057934,-0.28091440829991654,0.09417676479,-4.517560142430592,0.1750313561995292,-1.2353428414954166, ,0.0340987932297775,-0.08960995425729064,0.006112360521872602,0.02871180977333279,0.012674281776932523,0.0843733894520073, ,1.2273690700531006
0.011834253363647056,0.024563530646446542,-0.08319825158898442, ,0.012122860652488776,0.025233181983295532,-0.08327258608992671, ,0.0007329752370623086, ,0.003313854103319535,0.009282169051452297,-0.003200358183099234,0.011302021899997655,-0.002810505421549036,-0.0038134435691827705, ,0.010362556818563495, ,0.01164622854905617, ,7.272899402988514e-05, ,0.15979106590057934,-0.28091440829991654,0.09417676479,-4.517560142430592,0.1750313561995292,-1.2353428414954166, ,0.0340987932297775,-0.08960995425729064,0.006112360521872602,0.02871180977333279,0.012674281776932523,0.0843733894520073, ,1.2329480648040771
0.011868889775826444,0.02466054171195752,-0.08323262796327552, ,0.012149207423130953,0.02530637789341943,-0.08329725920008738, ,0.0007070074635019554, ,0.003486725395056911,0.009572812617558272,-0.0032153779587294194,-0.0033633677395052434,-0.014516446838144082,0.02362969921008511, ,0.010683381993025457, ,0.014900988927320337, ,7.351236018599459e-05, ,0.16014631161279366,-0.2818488589776977,0.09424157929000002,-4.517350452487108,0.17516799269929464,-1.2344741145174267, ,0.0357427275173148,-0.09312751870311164,0.006234368500978474,0.0,0.008551926319868909,0.097654605400823, ,1.2400031089782715
0.01190123133772246,0.0247517261929947,-0.08326098919780295, ,0.012175437531980058,0.025379416359109425,-0.08332203726719194, ,0.0006876851375320623, ,0.0033265738703005107,0.009536513832431821,-0.0029733073040733153,-0.008966967049354176,-0.0075024007574423296,0.006315430874450438, ,0.010528615583978043, ,0.011691557422221157, ,7.425741290844129e-05, ,0.1604706663935111,-0.28273697325823355,0.09429861605,-4.51693107260014,0.17516799269929464,-1.2334122908955991, ,0.03412331591458856,-0.09312751870311164,0.005979283603603605,0.01854571953637955,0.00756545632501097,0.1060507104266876, ,1.245758056640625
0.01190123133772246,0.0247517261929947,-0.08326098919780295, ,0.012201551615092766,0.02545229779866677,-0.08334691997535103, ,0.000767057326543291, ,0.0033265738703005107,0.009536513832431821,-0.0029733073040733153,-0.008966967049354176,-0.0075024007574423296,0.006315430874450438, ,0.010528615583978043, ,0.011691557422221157, ,7.512135749227934e-05, ,0.1604706663935111,-0.28273697325823355,0.09429861605,-4.51693107260014,0.17516799269929464,-1.2334122908955991, ,0.03412331591458856,-0.09312751870311164,0.005979283603603605,0.01854571953637955,0.00756545632501097,0.1060507104266876, ,1.2515170574188232
0.01190123133772246,0.0247517261929947,-0.08326098919780295, ,0.012227550307125414,0.02552502262959812,-0.08337190700929137, ,0.0008466251883573624, ,0.0033265738703005107,0.009536513832431821,-0.0029733073040733153,-0.008966967049354176,-0.0075024007574423296,0.006315430874450438, ,0.010528615583978043, ,0.011691557422221157, ,7.610281265164826e-05, ,0.1604706663935111,-0.28273697325823355,0.09429861605,-4.51693107260014,0.17516799269929464,-1.2334122908955991, ,0.03412331591458856,-0.09312751870311164,0.005979283603603605,0.01854571953637955,0.00756545632501097,0.1060507104266876, ,1.2575879096984863
0.01194175421637299,0.024871199016683047,-0.08330108701444588, ,0.012253434241335178,0.02559759126861571,-0.08339699805435513, ,0.0007962343054683758, ,0.0036611086495067077,0.010572403005670541,-0.003934402793435989,0.0029628466201332107,0.011462192988373606,-0.03469151469884961, ,0.011859972478838273, ,0.011838932690678294, ,7.699577785214106e-05, ,0.16089541670159344,-0.28387993772361875,0.09437639345000001,-4.516092312826201,0.1754412656988255,-1.2322465881206024, ,0.036881827267186466,-0.10010225902792276,0.007253557158469946,0.06599842060326105,0.015943118749234986,0.10959980292842686, ,1.2636339664459229
0.01198520142219276,0.024984983040098333,-0.08335366850647542, ,0.01227920404958141,0.02567000413163815,-0.08342219279649911, ,0.0007485900206983014, ,0.0041459142764754195,0.010894650683992427,-0.005529077861676275,-0.027313907816321686,0.003805318047663984,-0.00896738611150188, ,0.012901655735392184, ,0.0275777083978183, ,7.78057977068232e-05, ,0.16128155334530467,-0.28486844753151946,0.09445935601000001,-4.516092312826201,0.1754412656988255,-1.230858049538213, ,0.0392622844677165,-0.09864546939549977,0.00893371369601795,0.04126681292440594,0.014904037199964961,0.13406332731044177, ,1.2701060771942139
0.01198520142219276,0.024984983040098333,-0.08335366850647542, ,0.012304860362326782,0.0257422616337912,-0.08344749092229463, ,0.0008273181686529085, ,0.0041459142764754195,0.010894650683992427,-0.005529077861676275,-0.027313907816321686,0.003805318047663984,-0.00896738611150188, ,0.012901655735392184, ,0.0275777083978183, ,7.873087679643759e-05, ,0.16128155334530467,-0.28486844753151946,0.09445935601000001,-4.516092312826201,0.1754412656988255,-1.230858049538213, ,0.0392622844677165,-0.09864546939549977,0.00893371369601795,0.04126681292440594,0.014904037199964961,0.13406332731044177, ,1.275982141494751
0.012026204036270213,0.025096394823173784,-0.08340951994125184, ,0.012330403808638575,0.0258143641894084,-0.08347289211892701, ,0.0007823257283661298, ,0.004238963201573643,0.011261260509336582,-0.005082370656584549,-0.03052069380801323,-0.008619398810690973,0.030203822051420734, ,0.013061978746512748, ,0.03171445700290654, ,7.9577594777797e-05, ,0.161706303653387,-0.28594963013391095,0.09455528147000002,-4.5158826228827165,0.17571453869835643,-1.2296106680230756, ,0.04153039017876183,-0.10451205017452729,0.008638184121475054,0.0,0.015235897238985985,0.13746780684755466, ,1.2815909385681152
0.012026204036270213,0.025096394823173784,-0.08340951994125184, ,0.012355835016189838,0.025886312212031536,-0.08349839607419426, ,0.0008605376407510724, ,0.004238963201573643,0.011261260509336582,-0.005082370656584549,-0.03052069380801323,-0.008619398810690973,0.030203822051420734, ,0.013061978746512748, ,0.03171445700290654, ,8.053717017350329e-05, ,0.1621387766943436,-0.2870308127363024,0.09463954032,-4.5154632429957475,0.17612444819765274,-1.228229668191213, ,0.04223272877546541,-0.10626757173400983,0.008423485732416712,0.021761742739755584,0.042589096290585965,0.14858320172064576, ,1.2874329090118408
0.012067343177416407,0.025212464298612437,-0.08345679523037186, ,0.01238115461126066,0.025958106114411503,-0.0835240024765074, ,0.0008117734581843858, ,0.004018216480457784,0.011429220200932204,-0.0047838068652337334,-0.03235690662387287,0.024065546344129853,0.01905072413313178, ,0.01302528104146228, ,0.040325177304038486, ,8.141299497790249e-05, ,0.1621387766943436,-0.2870308127363024,0.09463954032,-4.5154632429957475,0.17612444819765274,-1.228229668191213, ,0.04223272877546541,-0.10626757173400983,0.008423485732416712,0.021761742739755584,0.042589096290585965,0.14858320172064576, ,1.2932729721069336
0.012108833932857083,0.025329026120147178,-0.0835051114678245, ,0.012406363218739431,0.02602974630850891,-0.08354971101488957, ,0.0007625756211247317, ,0.004071381127222009,0.01187045203348774,-0.004971866125223464,0.03356663237338198,0.03476530604692133,-0.03444988936254293, ,0.013498267612163325, ,0.04832541060754491, ,8.220555864180314e-05, ,0.16257124973530016,-0.28810427260581956,0.09472509546,-4.51462448322181,0.17653435769694906,-1.2270120258396315, ,0.042554682313215596,-0.10920246439409755,0.008752094241758242,0.07626105565580818,0.04565996718983883,0.09388633942639268, ,1.2997329235076904
0.012108833932857083,0.025329026120147178,-0.0835051114678245, ,0.012431461462124,0.026101233205494758,-0.0835755213789754, ,0.000839851094474586, ,0.004071381127222009,0.01187045203348774,-0.004971866125223464,0.03356663237338198,0.03476530604692133,-0.03444988936254293, ,0.013498267612163325, ,0.04832541060754491, ,8.310850296227372e-05, ,0.16257124973530016,-0.28810427260581956,0.09472509546,-4.51462448322181,0.17653435769694906,-1.2270120258396315, ,0.042554682313215596,-0.10920246439409755,0.008752094241758242,0.07626105565580818,0.04565996718983883,0.09388633942639268, ,1.3055830001831055
0.012147786164074527,0.025433391651547652,-0.08354822359810396, ,0.012456449963523013,0.026172567215751008,-0.08360143325901022, ,0.0008027983083060673, ,0.00436325156488134,0.011683128880310513,-0.004786862151469359,0.01857135019881624,0.008773507841859448,-0.008162718594914608, ,0.013358424828906847, ,0.020539461666384585, ,8.407448369426389e-05, ,0.1629573863790114,-0.28907733694797183,0.09480157657,-4.514414793278324,0.1766709941967145,-1.2258982626412198, ,0.04467840939664349,-0.10832984196172464,0.008550086698872786,0.04352053947977868,0.029176934834004395,0.10056660705163212, ,1.310063123703003
0.012147786164074527,0.025433391651547652,-0.08354822359810396, ,0.012481329343657059,0.026243748748871205,-0.0836274463458505, ,0.0008798897212657905, ,0.00436325156488134,0.011683128880310513,-0.004786862151469359,0.01857135019881624,0.008773507841859448,-0.008162718594914608, ,0.013358424828906847, ,0.020539461666384585, ,8.515124731586338e-05, ,0.1629573863790114,-0.28907733694797183,0.09480157657,-4.514414793278324,0.1766709941967145,-1.2258982626412198, ,0.04467840939664349,-0.10832984196172464,0.008550086698872786,0.04352053947977868,0.029176934834004395,0.10056660705163212, ,1.3138909339904785
0.012195071912447826,0.025560747966387933,-0.08359393925319353, ,0.012506100221859868,0.02631477821366148,-0.08365356033096191, ,0.0008178354944445644, ,0.00436325156488134,0.011683128880310513,-0.004786862151469359,0.01857135019881624,0.008773507841859448,-0.008162718594914608, ,0.013358424828906847, ,0.020539461666384585, ,8.612791850713463e-05, ,0.1634361958172133,-0.2902898060092251,0.09488842800000001,-4.514414793278324,0.17680763069647995,-1.2247028207026671, ,0.04588826961241333,-0.11730153468290579,0.00773243277669903,0.02567134934415533,-0.00439170670445287,0.12669929062650334, ,1.3179280757904053
0.012195071912447826,0.025560747966387933,-0.08359393925319353, ,0.012530763216079665,0.026385656018140753,-0.08367977490641991, ,0.0008947232558425407, ,0.004599255426919092,0.012154260956170773,-0.0037820651260246085,-0.006186131554803853,-0.02553978196264298,0.001558115828964762, ,0.013534519810109022, ,0.026278293048424103, ,8.721433567830497e-05, ,0.1634361958172133,-0.2902898060092251,0.09488842800000001,-4.514414793278324,0.17680763069647995,-1.2247028207026671, ,0.04588826961241333,-0.11730153468290579,0.00773243277669903,0.02567134934415533,-0.00439170670445287,0.12669929062650334, ,1.3222270011901855
0.012195071912447826,0.025560747966387933,-0.08359393925319353, ,0.012555318942880336,0.026456382569541755,-0.08370608976490834, ,0.0009718626459432627, ,0.004599255426919092,0.012154260956170773,-0.0037820651260246085,-0.006186131554803853,-0.02553978196264298,0.001558115828964762, ,0.013534519810109022, ,0.026278293048424103, ,8.84098888635923e-05, ,0.1634361958172133,-0.2902898060092251,0.09488842800000001,-4.514414793278324,0.17680763069647995,-1.2247028207026671, ,0.04588826961241333,-0.11730153468290579,0.00773243277669903,0.02567134934415533,-0.00439170670445287,0.12669929062650334, ,1.326188087463379
0.012245261389497874,0.025693241760585128,-0.08363633427633281, ,0.012579768017442556,0.026526958274311393,-0.08373250459971993, ,0.00090345262216631, ,0.004919165431045697,0.013138537126552522,-0.004623017390893277,-0.015968844430183312,-0.02498495174816211,0.0024226998522952985, ,0.014771311253923792, ,0.029652180428793223, ,8.949603661312762e-05, ,0.16393817345403788,-0.2915563342005979,0.09497398314000001,-4.513785723447872,0.17680763069647995,-1.2233959608604181, ,0.047903554547436035,-0.12486439678746157,0.008873989704735376,0.027187960875166988,-0.004738321838412645,0.14433174099861723, ,1.3300929069519043
0.012245261389497874,0.025693241760585128,-0.08363633427633281, ,0.012604111053565294,0.026597383538111644,-0.08375901910475417, ,0.0009804575474720394, ,0.004919165431045697,0.013138537126552522,-0.004623017390893277,-0.015968844430183312,-0.02498495174816211,0.0024226998522952985, ,0.014771311253923792, ,0.029652180428793223, ,9.069047100097528e-05, ,0.16393817345403788,-0.2915563342005979,0.09497398314000001,-4.513785723447872,0.17680763069647995,-1.2233959608604181, ,0.047903554547436035,-0.12486439678746157,0.008873989704735376,0.027187960875166988,-0.004738321838412645,0.14433174099861723, ,1.3341140747070312
0.012245261389497874,0.025693241760585128,-0.08363633427633281, ,0.012628348663666683,0.026667658765819998,-0.08378563297451856, ,0.0010576078956782335, ,0.004919165431045697,0.013138537126552522,-0.004623017390893277,-0.015968844430183312,-0.02498495174816211,0.0024226998522952985, ,0.014771311253923792, ,0.029652180428793223, ,9.199244270034568e-05, ,0.16393817345403788,-0.2915563342005979,0.09497398314000001,-4.513785723447872,0.17680763069647995,-1.2233959608604181, ,0.047903554547436035,-0.12486439678746157,0.008873989704735376,0.027187960875166988,-0.004738321838412645,0.14433174099861723, ,1.3379409313201904
0.012294607182220115,0.025817842088095663,-0.08368954063864988, ,0.01265248145878562,0.026737784361530355,-0.08381234590412646, ,0.0009947104691860082, ,0.005634550287932497,0.014096692024036905,-0.006642473700019072,-0.01579985623239859,-0.0013401070967941414,-0.0659610495621052, ,0.01657067710817005, ,0.01585658636226074, ,9.31935176392869e-05, ,0.16439381469361714,-0.29269929866598315,0.09506731602000001,-4.512946963673933,0.1766709941967145,-1.2218143256341913, ,0.052487246437207286,-0.12669818632639623,0.011185963146067417,0.10246816867781003,0.0,0.15864523078594206, ,1.3430449962615967
0.012294607182220115,0.025817842088095663,-0.08368954063864988, ,0.012676510048582659,0.026807760728553637,-0.08383915758929773, ,0.0010715287891527947, ,0.005634550287932497,0.014096692024036905,-0.006642473700019072,-0.01579985623239859,-0.0013401070967941414,-0.0659610495621052, ,0.01657067710817005, ,0.01585658636226074, ,9.450096483851028e-05, ,0.16439381469361714,-0.29269929866598315,0.09506731602000001,-4.512946963673933,0.1766709941967145,-1.2218143256341913, ,0.052487246437207286,-0.12669818632639623,0.011185963146067417,0.10246816867781003,0.0,0.15864523078594206, ,1.3468749523162842
0.012358508616386918,0.02598256001891381,-0.08377029324260758, ,0.012700435041341485,0.02687758826941814,-0.08386606772635757, ,0.0009628925178962776, ,0.005569118661880172,0.014677680384338547,-0.0073630942337731715,-0.015214152395287988,-0.015812558907069226,-0.01321655534373347, ,0.01733968110520843, ,0.021943277573196814, ,9.564071533662405e-05, ,0.1649807423920582,-0.29418206337783426,0.09520083389,-4.512527583786964,0.1766709941967145,-1.2200173933510992, ,0.05018346988813896,-0.13071204071414708,0.012012678371040725,0.048354505242577915,0.0,0.15384205031756704, ,1.350693941116333
0.012358508616386918,0.02598256001891381,-0.08377029324260758, ,0.012724257043970085,0.026947267385870673,-0.08389307601223592, ,0.0010389936595850851, ,0.005569118661880172,0.014677680384338547,-0.0073630942337731715,-0.015214152395287988,-0.015812558907069226,-0.01321655534373347, ,0.01733968110520843, ,0.021943277573196814, ,9.688552037173689e-05, ,0.1649807423920582,-0.29418206337783426,0.09520083389,-4.512527583786964,0.1766709941967145,-1.2200173933510992, ,0.05018346988813896,-0.13071204071414708,0.012012678371040725,0.048354505242577915,0.0,0.15384205031756704, ,1.3545889854431152
0.012413837686083158,0.026135640125053212,-0.08384980587870415, ,0.012747976662001833,0.0270167984788767,-0.08392018214446713, ,0.0009450088457383038, ,0.005987703336245815,0.016030782962723814,-0.008817501104671622,-0.01894667629342181,-0.023233621511280566,0.03627044949463005, ,0.019250634258946655, ,0.029979620708026, ,9.798542931023591e-05, ,0.16549816549463126,-0.29554126436369776,0.09532916660000001,-4.51231789384348,0.1769442671962454,-1.2186883330958214, ,0.053463065666744095,-0.14121568684296246,0.013911625781659389,0.0,0.008853430415763804,0.16137592086207286, ,1.3587980270385742
0.012413837686083158,0.026135640125053212,-0.08384980587870415, ,0.012771594499596974,0.02708618194862156,-0.08394738582118942, ,0.0010203144324881564, ,0.005987703336245815,0.016030782962723814,-0.008817501104671622,-0.01894667629342181,-0.023233621511280566,0.03627044949463005, ,0.019250634258946655, ,0.029979620708026, ,9.918885058595514e-05, ,0.16549816549463126,-0.29554126436369776,0.09532916660000001,-4.51231789384348,0.1769442671962454,-1.2186883330958214, ,0.053463065666744095,-0.14121568684296246,0.013911625781659389,0.0,0.008853430415763804,0.16137592086207286, ,1.3628151416778564
0.012413837686083158,0.026135640125053212,-0.08384980587870415, ,0.012795111159543694,0.027155418194510634,-0.08397468674114446, ,0.001095861306149096, ,0.005987703336245815,0.016030782962723814,-0.008817501104671622,-0.01894667629342181,-0.023233621511280566,0.03627044949463005, ,0.019250634258946655, ,0.029979620708026, ,0.00010049523137922617, ,0.16549816549463126,-0.29554126436369776,0.09532916660000001,-4.51231789384348,0.1769442671962454,-1.2186883330958214, ,0.053463065666744095,-0.14121568684296246,0.013911625781659389,0.0,0.008853430415763804,0.16137592086207286, ,1.366805076599121
0.012475254576199149,0.0262995723829502,-0.08394581099949541, ,0.012818527243259274,0.027224507615170413,-0.08400208460367611, ,0.0009881842066539607, ,0.006047358366565813,0.016676383244963948,-0.01007157265285535,-0.04394627049304568,-0.005686518264093117,0.0029377048347007596, ,0.02039874694799491, ,0.04431265142806933, ,0.00010163774769837784, ,0.1660233113300785,-0.29695452447968085,0.09547694366000001,-4.511688824013026,0.1769442671962454,-1.2168097220725884, ,0.05143465667125787,-0.14291708066034756,0.015316164923076924,0.03788796048345098,0.008746013498620545,0.1943933047029302, ,1.370995044708252
0.012475254576199149,0.0262995723829502,-0.08394581099949541, ,0.012841843350791582,0.027293450608448646,-0.08402957910873049, ,0.0010626374512983918, ,0.006047358366565813,0.016676383244963948,-0.01007157265285535,-0.04394627049304568,-0.005686518264093117,0.0029377048347007596, ,0.02039874694799491, ,0.04431265142806933, ,0.00010288139741748296, ,0.1660233113300785,-0.29695452447968085,0.09547694366000001,-4.511688824013026,0.1769442671962454,-1.2168097220725884, ,0.05143465667125787,-0.14291708066034756,0.015316164923076924,0.03788796048345098,0.008746013498620545,0.1943933047029302, ,1.3750410079956055
0.012539038363622902,0.026473182791784657,-0.08404622721659732, ,0.012865060080820053,0.027362247571415577,-0.08405716995685578, ,0.0009470195805941507, ,0.0066285666749729254,0.017424337056737054,-0.009792770701972832,-0.03964007309735707,-0.0013290909146312958,-0.03427161134957073, ,0.021058104759278773, ,0.03966234722963329, ,0.00010395103202896808, ,0.1660233113300785,-0.29695452447968085,0.09547694366000001,-4.511688824013026,0.1769442671962454,-1.2168097220725884, ,0.05143465667125787,-0.14291708066034756,0.015316164923076924,0.03788796048345098,0.008746013498620545,0.1943933047029302, ,1.378830909729004
0.012539038363622902,0.026473182791784657,-0.08404622721659732, ,0.01288817803065703,0.027430898900364264,-0.08408485684920072, ,0.0010201033772342107, ,0.0066285666749729254,0.017424337056737054,-0.009792770701972832,-0.03964007309735707,-0.0013290909146312958,-0.03427161134957073, ,0.021058104759278773, ,0.03966234722963329, ,0.00010511966701195552, ,0.16657934809702268,-0.2984450119244062,0.09563249846,-4.510850064239088,0.17708090369601082,-1.2148791714727707, ,0.05818328728293733,-0.15039134953798858,0.015375300694980696,0.07861623238230729,0.006330364169279468,0.20367550293417652, ,1.3828790187835693
0.012539038363622902,0.026473182791784657,-0.08404622721659732, ,0.012911197796248998,0.02749940499081118,-0.0841126394875146, ,0.00109363853022642, ,0.0066285666749729254,0.017424337056737054,-0.009792770701972832,-0.03964007309735707,-0.0013290909146312958,-0.03427161134957073, ,0.021058104759278773, ,0.03966234722963329, ,0.00010653995273496482, ,0.16657934809702268,-0.2984450119244062,0.09563249846,-4.510850064239088,0.17708090369601082,-1.2148791714727707, ,0.05818328728293733,-0.15039134953798858,0.015375300694980696,0.07861623238230729,0.006330364169279468,0.20367550293417652, ,1.3848271369934082
0.012539038363622902,0.026473182791784657,-0.08404622721659732, ,0.012934119972177778,0.027567766237497127,-0.08414051757414659, ,0.0011675157680189425, ,0.0066285666749729254,0.017424337056737054,-0.009792770701972832,-0.03964007309735707,-0.0013290909146312958,-0.03427161134957073, ,0.021058104759278773, ,0.03966234722963329, ,0.0001080621562002216, ,0.16657934809702268,-0.2984450119244062,0.09563249846,-4.510850064239088,0.17708090369601082,-1.2148791714727707, ,0.05818328728293733,-0.15039134953798858,0.015375300694980696,0.07861623238230729,0.006330364169279468,0.20367550293417652, ,1.38680100440979
0.012598111032047953,0.026640388064787534,-0.084133613098025, ,0.012956945151661799,0.027635983034387735,-0.08416849081204546, ,0.001058861522498368, ,0.006197119719041156,0.017297388984883613,-0.008680185991829827,-0.022127507397688997,0.0003204423444819319,0.010783719217000333, ,0.020321161073109488, ,0.02212982642620174, ,0.0001094243329427691, ,0.16713538486396684,-0.29991233117050886,0.09577379407000002,-4.510640374295604,0.17749081319530713,-1.213171456680346, ,0.057132415146580844,-0.15281311040011397,0.014273128602150539,0.035797117986637046,0.023284500072491283,0.1840704650514458, ,1.3898639678955078
0.012598111032047953,0.026640388064787534,-0.084133613098025, ,0.012979673926557305,0.027704055774674188,-0.0841965589047582, ,0.0011317868236143975, ,0.006197119719041156,0.017297388984883613,-0.008680185991829827,-0.022127507397688997,0.0003204423444819319,0.010783719217000333, ,0.020321161073109488, ,0.02212982642620174, ,0.00011088694022556113, ,0.16713538486396684,-0.29991233117050886,0.09577379407000002,-4.510640374295604,0.17749081319530713,-1.213171456680346, ,0.057132415146580844,-0.15281311040011397,0.014273128602150539,0.035797117986637046,0.023284500072491283,0.1840704650514458, ,1.3918540477752686
0.012598111032047953,0.026640388064787534,-0.084133613098025, ,0.013002306887359599,0.02777198485077368,-0.08422472155643104, ,0.0012050669386795135, ,0.006197119719041156,0.017297388984883613,-0.008680185991829827,-0.022127507397688997,0.0003204423444819319,0.010783719217000333, ,0.020321161073109488, ,0.02212982642620174, ,0.00011245005450906677, ,0.16713538486396684,-0.29991233117050886,0.09577379407000002,-4.510640374295604,0.17749081319530713,-1.213171456680346, ,0.057132415146580844,-0.15281311040011397,0.014273128602150539,0.035797117986637046,0.023284500072491283,0.1840704650514458, ,1.3938319683074951
0.012598111032047953,0.026640388064787534,-0.084133613098025, ,0.013024844623204197,0.027839770654330485,-0.08425297847180695, ,0.0012786196644733587, ,0.006197119719041156,0.017297388984883613,-0.008680185991829827,-0.022127507397688997,0.0003204423444819319,0.010783719217000333, ,0.020321161073109488, ,0.02212982642620174, ,0.00011411363455181185, ,0.16713538486396684,-0.29991233117050886,0.09577379407000002,-4.510640374295604,0.17749081319530713,-1.213171456680346, ,0.057132415146580844,-0.15281311040011397,0.014273128602150539,0.035797117986637046,0.023284500072491283,0.1840704650514458, ,1.3957669734954834
0.012598111032047953,0.026640388064787534,-0.084133613098025, ,0.01304728772186824,0.02790741357621628,-0.0842813293562267, ,0.0013523806558163622, ,0.006197119719041156,0.017297388984883613,-0.008680185991829827,-0.022127507397688997,0.0003204423444819319,0.010783719217000333, ,0.020321161073109488, ,0.02212982642620174, ,0.0006355159255987224, ,0.16713538486396684,-0.29991233117050886,0.09577379407000002,-4.510640374295604,0.17749081319530713,-1.213171456680346, ,0.057132415146580844,-0.15281311040011397,0.014273128602150539,0.035797117986637046,0.023284500072491283,0.1840704650514458, ,1.397676944732666
0.012667621768586254,0.026839387059449177,-0.08422714660097488, ,0.013069636769771497,0.0279749140065307,-0.0843097739156271, ,0.001207420714520374, ,0.0067133493783029675,0.019867233479962654,-0.009480879248879645,-0.013496624070349805,0.009700779336739919,0.035143561417110974, ,0.02301441064538361, ,0.01662118841821915, ,0.0006399492960554794, ,0.1677840944254017,-0.3016885597315805,0.09593194145000002,-4.510220994408634,0.17776408619483802,-1.2111072877638032, ,0.06339141052670058,-0.17671683716661224,0.015928811520000002,0.02180518652692057,0.04213464992484047,0.19976760714690978, ,1.39957594871521
0.012667621768586254,0.026839387059449177,-0.08422714660097488, ,0.013091892351977781,0.028042272334602453,-0.08433831185654153, ,0.001280350040870526, ,0.0067133493783029675,0.019867233479962654,-0.009480879248879645,-0.013496624070349805,0.009700779336739919,0.035143561417110974, ,0.02301441064538361, ,0.01662118841821915, ,0.0006448754556309797, ,0.1677840944254017,-0.3016885597315805,0.09593194145000002,-4.510220994408634,0.17776408619483802,-1.2111072877638032, ,0.06339141052670058,-0.17671683716661224,0.015928811520000002,0.02180518652692057,0.04213464992484047,0.19976760714690978, ,1.4015109539031982
0.012667621768586254,0.026839387059449177,-0.08422714660097488, ,0.013114055052196129,0.028109488948989653,-0.08436694288609836, ,0.0013535156031103982, ,0.0067133493783029675,0.019867233479962654,-0.009480879248879645,-0.013496624070349805,0.009700779336739919,0.035143561417110974, ,0.02301441064538361, ,0.01662118841821915, ,0.0006502849224056318, ,0.1677840944254017,-0.3016885597315805,0.09593194145000002,-4.510220994408634,0.17776408619483802,-1.2111072877638032, ,0.06339141052670058,-0.17671683716661224,0.015928811520000002,0.02180518652692057,0.04213464992484047,0.19976760714690978, ,1.4035310745239258
0.012667621768586254,0.026839387059449177,-0.08422714660097488, ,0.013136125452781925,0.02817656423748044,-0.08439566671202128, ,0.0014268628299103094, ,0.0067133493783029675,0.019867233479962654,-0.009480879248879645,-0.013496624070349805,0.009700779336739919,0.035143561417110974, ,0.02301441064538361, ,0.01662118841821915, ,0.0006561680883715763, ,0.1677840944254017,-0.3016885597315805,0.09593194145000002,-4.510220994408634,0.17776408619483802,-1.2111072877638032, ,0.06339141052670058,-0.17671683716661224,0.015928811520000002,0.02180518652692057,0.04213464992484047,0.19976760714690978, ,1.4056460857391357
0.012667621768586254,0.026839387059449177,-0.08422714660097488, ,0.013158104134738245,0.028243498587093845,-0.08442448304262802, ,0.0015003478945814594, ,0.0067133493783029675,0.019867233479962654,-0.009480879248879645,-0.013496624070349805,0.009700779336739919,0.035143561417110974, ,0.02301441064538361, ,0.01662118841821915, ,0.0006625153049596205, ,0.1677840944254017,-0.3016885597315805,0.09593194145000002,-4.510220994408634,0.17776408619483802,-1.2111072877638032, ,0.06339141052670058,-0.17671683716661224,0.015928811520000002,0.02180518652692057,0.04213464992484047,0.19976760714690978, ,1.4078819751739502
0.012744120744265775,0.027054031210056256,-0.08433648221300738, ,0.013179991677717147,0.028310292384080334,-0.08445339158683048, ,0.0013348570746247828, ,0.008014387251470993,0.022092639090006902,-0.011601096449290355,-0.08446217540851622,0.005412696492020504,-0.0927840865766921, ,0.02620878753020786, ,0.08463543080719946, ,0.0006675327808526441, ,0.16846369491833346,-0.3035574610871428,0.09611082947,-4.508962854747727,0.17790072269460347,-1.208523307242861, ,0.06797775183271546,-0.1909395202383718,0.01873977825882353,0.1484408605277129,-0.012581533525978782,0.2979711462266863, ,1.4098920822143555
0.012744120744265775,0.027054031210056256,-0.08433648221300738, ,0.013201788660020699,0.028376946013922388,-0.08448239205413341, ,0.0014074278600116753, ,0.008014387251470993,0.022092639090006902,-0.011601096449290355,-0.08446217540851622,0.005412696492020504,-0.0927840865766921, ,0.02620878753020786, ,0.08463543080719946, ,0.000673013485142711, ,0.16846369491833346,-0.3035574610871428,0.09611082947,-4.508962854747727,0.17790072269460347,-1.208523307242861, ,0.06797775183271546,-0.1909395202383718,0.01873977825882353,0.1484408605277129,-0.012581533525978782,0.2979711462266863, ,1.4119250774383545
0.012744120744265775,0.027054031210056256,-0.08433648221300738, ,0.013223495658602454,0.028443459861335306,-0.08451148415463464, ,0.0014801817337961331, ,0.008014387251470993,0.022092639090006902,-0.011601096449290355,-0.08446217540851622,0.005412696492020504,-0.0927840865766921, ,0.02620878753020786, ,0.08463543080719946, ,0.0006789485457945744, ,0.16846369491833346,-0.3035574610871428,0.09611082947,-4.508962854747727,0.17790072269460347,-1.208523307242861, ,0.06797775183271546,-0.1909395202383718,0.01873977825882353,0.1484408605277129,-0.012581533525978782,0.2979711462266863, ,1.4138131141662598
0.012744120744265775,0.027054031210056256,-0.08433648221300738, ,0.013245113249068399,0.028509834310267993,-0.08454066759902408, ,0.0015530768906648828, ,0.008014387251470993,0.022092639090006902,-0.011601096449290355,-0.08446217540851622,0.005412696492020504,-0.0927840865766921, ,0.02620878753020786, ,0.08463543080719946, ,0.000685329044662241, ,0.16846369491833346,-0.3035574610871428,0.09611082947,-4.508962854747727,0.17790072269460347,-1.208523307242861, ,0.06797775183271546,-0.1909395202383718,0.01873977825882353,0.1484408605277129,-0.012581533525978782,0.2979711462266863, ,1.4157121181488037
0.012744120744265775,0.027054031210056256,-0.08433648221300738, ,0.013266642005678505,0.02857606974390316,-0.0845699420985831, ,0.0016260791141012203, ,0.008014387251470993,0.022092639090006902,-0.011601096449290355,-0.08446217540851622,0.005412696492020504,-0.0927840865766921, ,0.02620878753020786, ,0.08463543080719946, ,0.0006921460741509292, ,0.16846369491833346,-0.3035574610871428,0.09611082947,-4.508962854747727,0.17790072269460347,-1.208523307242861, ,0.06797775183271546,-0.1909395202383718,0.01873977825882353,0.1484408605277129,-0.012581533525978782,0.2979711462266863, ,1.4175970554351807
0.012824053228339287,0.027269160697825392,-0.08445894284080555, ,0.013288082501347645,0.028642166544658402,-0.08459930736518402, ,0.0014560804996119863, ,0.008519916266575367,0.02342894947892908,-0.013622437278307302,-0.11165314143746012,0.0034918663089100518,-0.028864558815274107, ,0.028409073273816646, ,0.11170772871231172, ,0.0006976420052693541, ,0.16912784994551677,-0.305387748778334,0.09630268039,-4.507914405030304,0.17776408619483802,-1.2053080972138233, ,0.071512390021455,-0.19811470053960498,0.02118193021276596,0.08933347229433533,0.0036377801877881147,0.32557805409453544, ,1.419482946395874
0.012824053228339287,0.027269160697825392,-0.08445894284080555, ,0.013309435307647069,0.028708125094186635,-0.08462876311128992, ,0.0015280880933950794, ,0.008519916266575367,0.02342894947892908,-0.013622437278307302,-0.11165314143746012,0.0034918663089100518,-0.028864558815274107, ,0.028409073273816646, ,0.11170772871231172, ,0.0007035737630416807, ,0.16912784994551677,-0.305387748778334,0.09630268039,-4.507914405030304,0.17776408619483802,-1.2053080972138233, ,0.071512390021455,-0.19811470053960498,0.02118193021276596,0.08933347229433533,0.0036377801877881147,0.32557805409453544, ,1.421389102935791
0.012824053228339287,0.027269160697825392,-0.08445894284080555, ,0.01333070099480554,0.02877394577337696,-0.08465830904995379, ,0.0016002552822028486, ,0.008519916266575367,0.02342894947892908,-0.013622437278307302,-0.11165314143746012,0.0034918663089100518,-0.028864558815274107, ,0.028409073273816646, ,0.11170772871231172, ,0.0007099332064399869, ,0.16912784994551677,-0.305387748778334,0.09630268039,-4.507914405030304,0.17776408619483802,-1.2053080972138233, ,0.071512390021455,-0.19811470053960498,0.02118193021276596,0.08933347229433533,0.0036377801877881147,0.32557805409453544, ,1.4234740734100342
0.012824053228339287,0.027269160697825392,-0.08445894284080555, ,0.013351880131710502,0.028839628962355063,-0.08468794489481776, ,0.0016725470847061665, ,0.008519916266575367,0.02342894947892908,-0.013622437278307302,-0.11165314143746012,0.0034918663089100518,-0.028864558815274107, ,0.028409073273816646, ,0.11170772871231172, ,0.0007167121774136925, ,0.16912784994551677,-0.305387748778334,0.09630268039,-4.507914405030304,0.17776408619483802,-1.2053080972138233, ,0.071512390021455,-0.19811470053960498,0.02118193021276596,0.08933347229433533,0.0036377801877881147,0.32557805409453544, ,1.4254341125488281
0.012824053228339287,0.027269160697825392,-0.08445894284080555, ,0.013372973285909463,0.028905175040484125,-0.08471767036011296, ,0.0017449344080036075, ,0.008519916266575367,0.02342894947892908,-0.013622437278307302,-0.11165314143746012,0.0034918663089100518,-0.028864558815274107, ,0.028409073273816646, ,0.11170772871231172, ,0.000723902542662573, ,0.16912784994551677,-0.305387748778334,0.09630268039,-4.507914405030304,0.17776408619483802,-1.2053080972138233, ,0.071512390021455,-0.19811470053960498,0.02118193021276596,0.08933347229433533,0.0036377801877881147,0.32557805409453544, ,1.4273569583892822
0.012916765864134339,0.027531495170714945,-0.08462253748818982, ,0.013393981023611015,0.02897058438636522,-0.08474748516065884, ,0.0015212902418311584, ,0.009602336429352456,0.026566373852768825,-0.018282900050638838,-0.11686693980938079,-0.005705327382808316,-0.0019021707118846449, ,0.03364879669244055, ,0.11700611239656007, ,0.0007294399572401326, ,0.16988467776719077,-0.3075655594488653,0.09655027178000002,-4.507075645256367,0.17790072269460347,-1.2019073292914753, ,0.07442897377134963,-0.2146989628019701,0.026726193825503362,0.06448325760602142,0.00210333665063625,0.34314256957476696, ,1.429440975189209
0.012916765864134339,0.027531495170714945,-0.08462253748818982, ,0.013414903909686318,0.029035857377838356,-0.08477738901186242, ,0.0015922393529338773, ,0.009602336429352456,0.026566373852768825,-0.018282900050638838,-0.11686693980938079,-0.005705327382808316,-0.0019021707118846449, ,0.03364879669244055, ,0.11700611239656007, ,0.0007353902979000894, ,0.16988467776719077,-0.3075655594488653,0.09655027178000002,-4.507075645256367,0.17790072269460347,-1.2019073292914753, ,0.07442897377134963,-0.2146989628019701,0.026726193825503362,0.06448325760602142,0.00210333665063625,0.34314256957476696, ,1.4313631057739258
0.012916765864134339,0.027531495170714945,-0.08462253748818982, ,0.013435742507670108,0.029100994391982517,-0.08480738162971796, ,0.0016633796676503061, ,0.009602336429352456,0.026566373852768825,-0.018282900050638838,-0.11686693980938079,-0.005705327382808316,-0.0019021707118846449, ,0.03364879669244055, ,0.11700611239656007, ,0.000741746389473721, ,0.16988467776719077,-0.3075655594488653,0.09655027178000002,-4.507075645256367,0.17790072269460347,-1.2019073292914753, ,0.07442897377134963,-0.2146989628019701,0.026726193825503362,0.06448325760602142,0.00210333665063625,0.34314256957476696, ,1.433218002319336
0.012916765864134339,0.027531495170714945,-0.08462253748818982, ,0.013456497379762062,0.029165995805117157,-0.08483746273080638, ,0.0017346744053962453, ,0.009602336429352456,0.026566373852768825,-0.018282900050638838,-0.11686693980938079,-0.005705327382808316,-0.0019021707118846449, ,0.03364879669244055, ,0.11700611239656007, ,0.0007485010018269355, ,0.16988467776719077,-0.3075655594488653,0.09655027178000002,-4.507075645256367,0.17790072269460347,-1.2019073292914753, ,0.07442897377134963,-0.2146989628019701,0.026726193825503362,0.06448325760602142,0.00210333665063625,0.34314256957476696, ,1.4350829124450684
0.012916765864134339,0.027531495170714945,-0.08462253748818982, ,0.01347716908682794,0.02923086199280199,-0.0848676320322944, ,0.0018060926619543718, ,0.009602336429352456,0.026566373852768825,-0.018282900050638838,-0.11686693980938079,-0.005705327382808316,-0.0019021707118846449, ,0.03364879669244055, ,0.11700611239656007, ,0.0007556468914223912, ,0.16988467776719077,-0.3075655594488653,0.09655027178000002,-4.507075645256367,0.17790072269460347,-1.2019073292914753, ,0.07442897377134963,-0.2146989628019701,0.026726193825503362,0.06448325760602142,0.00210333665063625,0.34314256957476696, ,1.4370460510253906
0.012916765864134339,0.027531495170714945,-0.08462253748818982, ,0.013497758188400977,0.029295593329838387,-0.08489788925193462, ,0.0018776083163633567, ,0.009602336429352456,0.026566373852768825,-0.018282900050638838,-0.11686693980938079,-0.005705327382808316,-0.0019021707118846449, ,0.03364879669244055, ,0.11700611239656007, ,0.0007631768338716594, ,0.17060289192449365,-0.30963525185915747,0.09682119639,-4.506446575425913,0.17844726869366523,-1.199004172560498, ,0.07537485429584652,-0.22648434739491832,0.030168203636363643,0.08115389239422122,0.07103471235706778,0.3071066810106015, ,1.4391939640045166
0.013014105623576975,0.027813312580089712,-0.08482475909519295, ,0.013518265242682856,0.029360190190269496,-0.08492823410806445, ,0.0016302497786232833, ,0.009679274478199296,0.02875111760856927,-0.021178824222382053,-0.05482689230682385,0.05941483126094907,-0.003166866053346931, ,0.03699807716096418, ,0.0808461874970844, ,0.0007689573201700035, ,0.17060289192449365,-0.30963525185915747,0.09682119639,-4.506446575425913,0.17844726869366523,-1.199004172560498, ,0.07537485429584652,-0.22648434739491832,0.030168203636363643,0.08115389239422122,0.07103471235706778,0.3071066810106015, ,1.441680908203125
0.013014105623576975,0.027813312580089712,-0.08482475909519295, ,0.013538690806545142,0.029424652947381197,-0.08495866631960541, ,0.001699864270523577, ,0.009679274478199296,0.02875111760856927,-0.021178824222382053,-0.05482689230682385,0.05941483126094907,-0.003166866053346931, ,0.03699807716096418, ,0.0808461874970844, ,0.0007751222668610868, ,0.17060289192449365,-0.30963525185915747,0.09682119639,-4.506446575425913,0.17844726869366523,-1.199004172560498, ,0.07537485429584652,-0.22648434739491832,0.030168203636363643,0.08115389239422122,0.07103471235706778,0.3071066810106015, ,1.4436540603637695
0.013014105623576975,0.027813312580089712,-0.08482475909519295, ,0.0135590354355305,0.02948898197370266,-0.08498918560606303, ,0.0017697040696466174, ,0.009679274478199296,0.02875111760856927,-0.021178824222382053,-0.05482689230682385,0.05941483126094907,-0.003166866053346931, ,0.03699807716096418, ,0.0808461874970844, ,0.0007816655681952021, ,0.17060289192449365,-0.30963525185915747,0.09682119639,-4.506446575425913,0.17844726869366523,-1.199004172560498, ,0.07537485429584652,-0.22648434739491832,0.030168203636363643,0.08115389239422122,0.07103471235706778,0.3071066810106015, ,1.4455840587615967
0.013014105623576975,0.027813312580089712,-0.08482475909519295, ,0.013579299683853805,0.02955317764100706,-0.08501979168752662, ,0.0018397316293540004, ,0.009679274478199296,0.02875111760856927,-0.021178824222382053,-0.05482689230682385,0.05941483126094907,-0.003166866053346931, ,0.03699807716096418, ,0.0808461874970844, ,0.0007885810326472203, ,0.17060289192449365,-0.30963525185915747,0.09682119639,-4.506446575425913,0.17844726869366523,-1.199004172560498, ,0.07537485429584652,-0.22648434739491832,0.030168203636363643,0.08115389239422122,0.07103471235706778,0.3071066810106015, ,1.447472095489502
0.013110780675693077,0.0281027760214903,-0.08503208696108111, ,0.013599484104403502,0.029617240320312082,-0.08505048428466735, ,0.00159146838333478, ,0.010568216477403854,0.031048959386291364,-0.02120079850643248,-0.05650850080034337,0.041898415429077455,-0.013984138509536868, ,0.03905379540832351, ,0.07034688049261018, ,0.0007937945868724643, ,0.17142150160916145,-0.31207563544741246,0.09714138002000001,-4.50539812570849,0.17913045119249243,-1.1958040400325143, ,0.08405397835116987,-0.24712745197518432,0.031171842504892373,0.10110606115649633,0.053343864739920366,0.3283051534516019, ,1.4493989944458008
0.013110780675693077,0.0281027760214903,-0.08503208696108111, ,0.013619589248742674,0.02968117038188094,-0.08508126311873893, ,0.0016591061495286354, ,0.010568216477403854,0.031048959386291364,-0.02120079850643248,-0.05650850080034337,0.041898415429077455,-0.013984138509536868, ,0.03905379540832351, ,0.07034688049261018, ,0.0007993772421154072, ,0.17142150160916145,-0.31207563544741246,0.09714138002000001,-4.50539812570849,0.17913045119249243,-1.1958040400325143, ,0.08405397835116987,-0.24712745197518432,0.031171842504892373,0.10110606115649633,0.053343864739920366,0.3283051534516019, ,1.4513320922851562
0.013110780675693077,0.0281027760214903,-0.08503208696108111, ,0.013639615667110541,0.029744968195222456,-0.08511212791157705, ,0.0017270981840564108, ,0.010568216477403854,0.031048959386291364,-0.02120079850643248,-0.05650850080034337,0.041898415429077455,-0.013984138509536868, ,0.03905379540832351, ,0.07034688049261018, ,0.0008053241712304137, ,0.17142150160916145,-0.31207563544741246,0.09714138002000001,-4.50539812570849,0.17913045119249243,-1.1958040400325143, ,0.08405397835116987,-0.24712745197518432,0.031171842504892373,0.10110606115649633,0.053343864739920366,0.3283051534516019, ,1.4532639980316162
0.013110780675693077,0.0281027760214903,-0.08503208696108111, ,0.013659563908423438,0.029808634129092314,-0.08514307838559777, ,0.0017953924406975074, ,0.010568216477403854,0.031048959386291364,-0.02120079850643248,-0.05650850080034337,0.041898415429077455,-0.013984138509536868, ,0.03905379540832351, ,0.07034688049261018, ,0.0008116303385518601, ,0.17142150160916145,-0.31207563544741246,0.09714138002000001,-4.50539812570849,0.17913045119249243,-1.1958040400325143, ,0.08405397835116987,-0.24712745197518432,0.031171842504892373,0.10110606115649633,0.053343864739920366,0.3283051534516019, ,1.4552381038665771
0.013110780675693077,0.0281027760214903,-0.08503208696108111, ,0.013679434520276132,0.029872168551493453,-0.08517411426379828, ,0.0018639444398659438, ,0.010568216477403854,0.031048959386291364,-0.02120079850643248,-0.05650850080034337,0.041898415429077455,-0.013984138509536868, ,0.03905379540832351, ,0.07034688049261018, ,0.000818290554382962, ,0.17142150160916145,-0.31207563544741246,0.09714138002000001,-4.50539812570849,0.17913045119249243,-1.1958040400325143, ,0.08405397835116987,-0.24712745197518432,0.031171842504892373,0.10110606115649633,0.053343864739920366,0.3283051534516019, ,1.4572110176086426
0.013217522431457148,0.02840712847928897,-0.08523159569679335, ,0.013699228048943092,0.029935571829676516,-0.08520523526975554, ,0.0016027708037567433, ,0.010568216477403854,0.031048959386291364,-0.02120079850643248,-0.05650850080034337,0.041898415429077455,-0.013984138509536868, ,0.03905379540832351, ,0.07034688049261018, ,0.0008232243924293379, ,0.17227100222532613,-0.3145237417685416,0.09743952672000002,-4.504559365934552,0.1794037241920233,-1.1923513325335817, ,0.08650587197672815,-0.25509930526470637,0.02890891382940109,0.07124884855522269,0.014183846950244994,0.36180232142807955, ,1.4596939086914062
0.013217522431457148,0.02840712847928897,-0.08523159569679335, ,0.013718945039379652,0.029998844330140863,-0.08523644112762545, ,0.0016688341618593858, ,0.01073329243717864,0.031067589933510872,-0.018754165341600702,-0.0925134438716703,-0.0013872249096731088,0.004870282209340876, ,0.03784332739703103, ,0.09252383136221108, ,0.0008285094534882757, ,0.17227100222532613,-0.3145237417685416,0.09743952672000002,-4.504559365934552,0.1794037241920233,-1.1923513325335817, ,0.08650587197672815,-0.25509930526470637,0.02890891382940109,0.07124884855522269,0.014183846950244994,0.36180232142807955, ,1.4617609977722168
0.013217522431457148,0.02840712847928897,-0.08523159569679335, ,0.013738586035223337,0.03006198641863529,-0.08526773156214347, ,0.0017353293287880411, ,0.01073329243717864,0.031067589933510872,-0.018754165341600702,-0.0925134438716703,-0.0013872249096731088,0.004870282209340876, ,0.03784332739703103, ,0.09252383136221108, ,0.0008341418750739886, ,0.17227100222532613,-0.3145237417685416,0.09743952672000002,-4.504559365934552,0.1794037241920233,-1.1923513325335817, ,0.08650587197672815,-0.25509930526470637,0.02890891382940109,0.07124884855522269,0.014183846950244994,0.36180232142807955, ,1.4638099670410156
0.013217522431457148,0.02840712847928897,-0.08523159569679335, ,0.013758151578794934,0.030124998460158165,-0.085299106298623, ,0.0018021972221380518, ,0.01073329243717864,0.031067589933510872,-0.018754165341600702,-0.0925134438716703,-0.0013872249096731088,0.004870282209340876, ,0.03784332739703103, ,0.09252383136221108, ,0.0008401175253645076, ,0.17227100222532613,-0.3145237417685416,0.09743952672000002,-4.504559365934552,0.1794037241920233,-1.1923513325335817, ,0.08650587197672815,-0.25509930526470637,0.02890891382940109,0.07124884855522269,0.014183846950244994,0.36180232142807955, ,1.465698003768921
