NicholasDascanio/dvrk_moveit_final/test/execution/first_exp_nosummary/yes_joints_yes_smoothramp/600vel5.csv
Current Position (x),Current Position (y),Current Position (z), ,Planned Position (x),Planned Position (y),Planned Position (z), ,Position Error,,Cartesian linear Velocity(x),Cartesian linear Velocity(y),Cartesian linear Velocity(z),Cartesian Angular Velocity(x),Cartesian Angular Velocity(y),Cartesian Angular Velocity(z), ,Total Linear Velocity, ,Total Angular Velocity, ,MSE, ,Joint 1 Position,Joint 2 Position,Joint 3 Position,Joint 4 Position,Joint 5 Position,Joint 6 Position, ,Joint 1 Velocity,Joint 2 Velocity,Joint 3 Velocity,Joint 4 Velocity,Joint 5 Velocity,Joint 6 Velocity, ,Time Stamp
0.010056681243232037,0.018486303435651736,-0.08141631365642148, ,0.010160251076970155,0.018534488570933125,-0.08148076492079992, ,0.00013115823726555319, ,-5.040866490178442e-07,1.3295721469552775e-05,2.9566470394343905e-06,-0.041958074744702006,0.005993317293617146,0.014033095637565616, ,1.3629822979827757e-05, ,0.0423839579140973, ,1.0929853105462766e-05, ,0.16885755429491892,-0.21018962063776847,0.09137677839000001,-4.456959748763565,0.4424289862404962,-0.7578932067324261, ,0.00011834785694424665,-0.000552147218679001,0.0,0.0,0.0,0.43178919056150944, ,0.021335124969482422
0.010052883365756332,0.018493504372594363,-0.08141098527963472, ,0.010185835708924772,0.018623155800667715,-0.08149784220344512, ,0.00020501205713138908, ,-0.0037677370701002127,0.001286344075319849,0.0010165949407814788,-0.27918728698065803,0.4835847518495344,0.2383263846256782, ,0.0041090131398111044, ,0.558390323548857, ,1.528046792713374e-05, ,0.16888072249354158,-0.2102900161651334,0.09137937097000001,-4.456540368876596,0.44611817173416307,-0.7464443531273499, ,0.0007019578904847676,-0.0077254363173423195,0.00045540174297305973,0.0022687215272400884,0.45365828400911434,0.4098329464608952, ,0.041584014892578125
0.009951515144842812,0.01853967555019649,-0.08139140791787508, ,0.01021130124322434,0.018711822320697808,-0.08151515281633111, ,0.0003353149674563046, ,-0.00218219248902619,0.0019429941960607692,-0.00016331734369554713,-0.03784677196779632,0.31286294459584896,0.11879083792495346, ,0.0029264078765339468, ,0.31514377710747776, ,2.0983914432913964e-05, ,0.1689502270894096,-0.2105139754184859,0.09140140790000001,-4.456330678933111,0.4559559997172748,-0.7406627351097372, ,0.003899364432596187,-0.015261650298885618,0.0014729969685355912,0.002599010615202204,0.31637258509849864,0.12977923707252104, ,0.06408214569091797
0.009956346980205238,0.01857357950092002,-0.0814077959847047, ,0.010236648709010475,0.018800487041176477,-0.08153269579437608, ,0.000381649123479129, ,0.0017353303320603302,0.001709475829397643,-0.0006485077753083903,0.48649095488006494,-0.22621279730769128,-0.21204471189902058, ,0.0025207620489246527, ,0.5365125150878476, ,2.5074628222199424e-05, ,0.16902745441815184,-0.21085377566495178,0.09142733370000002,-4.456330678933111,0.4565025457163365,-0.7431503752280371, ,0.0038673040774499182,-0.021494210998521127,0.000624698772643491,0.002599010615202204,-0.1622457272440957,-0.5337607351041291, ,0.08351516723632812
0.010040791231694317,0.018617819750701283,-0.08144762802260194, ,0.01026187913236564,0.018889148875890445,-0.08155047017492864, ,0.00036479564456604605, ,0.004051376871133992,0.0029274776758033494,-0.002915668589856809,-0.11068653442077148,-0.3225824959041601,-0.12805538756057488, ,0.005786614158570107, ,0.3410439496100574, ,2.7267885190354266e-05, ,0.16914329541126522,-0.2113943669661475,0.09145585208000001,-4.455282229215689,0.44816771923064463,-0.7454202232581577, ,0.006855102472878011,-0.03087083329813623,0.0026712747811504277,0.07356234064563616,-0.3614616381308358,0.07987546194072623, ,0.10354208946228027
0.010068671706406077,0.01868772632347439,-0.08148035707970086, ,0.010286993536316725,0.018977806742255493,-0.08156847499776435, ,0.0003735984987384132, ,0.00017107224739179935,0.004027193630258942,-0.0013712012951652042,0.00904766109617224,0.09310240804247244,0.048672436385944325, ,0.004257669226382976, ,0.09354099932443195, ,2.889562142962637e-05, ,0.16930547280162392,-0.21214347205494727,0.09150251852,-4.455282229215689,0.44707462723252117,-0.744610558768727, ,0.008893772761731464,-0.04093914648769231,0.002598077233730224,0.00045911255565738205,0.09983454870082924,0.05642359880483114, ,0.12258195877075195
0.010080400729066033,0.018769494689514478,-0.08149926077344664, ,0.01031199294083854,0.01906645956131282,-0.08158670930508417, ,0.0003866139331703494, ,0.0004662728075203652,0.004077430410438081,-0.0007489701012248918,-0.0054542259175663944,0.057351254963755496,0.040095212788102866, ,0.00417178682287662, ,0.057610025397297884, ,3.0251978636210893e-05, ,0.16953715478785067,-0.2130006954039862,0.09154529609,-4.455072539272204,0.44844099223017553,-0.7431110181211931, ,0.013065804978448408,-0.04474160375222573,0.0013595551777538537,0.0,0.09417635772486682,0.028928558155377516, ,0.14200997352600098
0.010097781416640254,0.01886201695508037,-0.08151288988404745, ,0.01033687836285724,0.01915510625772429,-0.08160517214151095, ,0.00038933880368792733, ,0.001314438188559409,0.004742105783976655,-0.001017643684450578,-0.0018379772489260254,-0.0025890645369088276,0.012960390222846337, ,0.0050250287249398225, ,0.0031751244924817065, ,3.1310747140184285e-05, ,0.16979200497270008,-0.21399692794476116,0.09158418479000001,-4.454653159385235,0.4492608112287682,-0.7417375570398576, ,0.013510384618233314,-0.05140679391033087,0.0022055956134034893,0.014976379137038713,0.0,0.0585847016965956, ,0.1621241569519043
0.010126866616439937,0.018960611371509745,-0.08153109799651201, ,0.01036165081625394,0.01924374575976873,-0.0816238625540873, ,0.00037933358069017507, ,0.0014650671129878756,0.004934035927087877,-0.0008790320038480914,0.02565017794089862,-0.010252454114382225,0.0005906180027106713, ,0.0052214777064679445, ,0.027623259108344733, ,3.20305961541879e-05, ,0.1700854688219206,-0.21507038781427837,0.09162696236000001,-4.454233779498266,0.44912417472900273,-0.7408910304748961, ,0.015237145401167433,-0.05463266641247599,0.002076202833855716,0.020571065944814095,0.0,0.02488115223233117, ,0.18185901641845703
0.010136259373396472,0.01899268443490919,-0.08153585770230108, ,0.010386311311868091,0.019332376999337562,-0.08164277959227227, ,0.00043514285104589366, ,0.001509751059104652,0.005118840457249165,-0.0007281462121874686,0.04093083416097947,-0.010189320245239355,-0.0015248065522312738, ,0.005386285621238575, ,0.04218003594324505, ,3.3156448012070393e-05, ,0.1701858643492855,-0.21541791079361847,0.09163992526,-4.454024089554782,0.44912417472900273,-0.7409727092150367, ,0.016409638865376237,-0.05625189185445807,0.0020405856418139897,0.017631227362918608,0.0,0.018567112365791612, ,0.2022559642791748
0.010173614678685126,0.019116459496112563,-0.08154966816195816, ,0.010410860857501038,0.019420998911930533,-0.08166192230793963, ,0.000402033578746267, ,0.0015089513599216746,0.004994716731978427,-0.0008393687178317127,0.012611833862068919,-0.01361675177718745,0.0354801684709192, ,0.005284758204855656, ,0.018560018381605908, ,3.409001149529232e-05, ,0.1707419011162297,-0.21734087127930038,0.09170603605000001,-4.452765949893875,0.4489875382292373,-0.7401261826500752, ,0.016532568215761462,-0.05582173032851222,0.0021300897994116076,-0.012793739453559204,0.0,0.04291344268665562, ,0.22229814529418945
0.010202699195731668,0.01921670771142696,-0.08156535414193139, ,0.01043530045791954,0.019509610436651673,-0.08168128975537432, ,0.00039158194554887927, ,0.0014407522864319938,0.004991804538191815,-0.0009245648217018733,0.008596435662588586,-0.0065607967804671395,0.015704435032464017, ,0.005277186732331919, ,0.010814007605644507, ,3.479644351271939e-05, ,0.17089635577371418,-0.21787373984762187,0.09172677669000001,-4.4529756398373594,0.4489875382292373,-0.739799467689513, ,0.015254290557542322,-0.05453847216004068,0.0022062065817174516,0.009829113023380645,0.0,0.04983824538212048, ,0.23982000350952148
0.010235249631890918,0.019319024659963047,-0.08158687327759848, ,0.010459631114859202,0.01959821051620509,-0.08170088099127007, ,0.0003758850236458931, ,0.001573042115254958,0.005260577728902757,-0.0011762257527967743,0.026883692454178352,0.0021127047756173446,-0.07265264749725744, ,0.005615304672031235, ,0.026966580084198867, ,3.5282622055598606e-05, ,0.1711898196229347,-0.2189549224500133,0.09177344313000001,-4.451927190119936,0.448577628729941,-0.7385667478368775, ,0.01421464073673918,-0.05325305362428214,0.0024947238089271734,0.09602533836794451,-0.010666649811114658,0.04179792858254048, ,0.2572510242462158
0.01026602520265371,0.0194254036147638,-0.08161322743145696, ,0.010483853827027982,0.019686798096890855,-0.08172069507472648, ,0.000356827240038039, ,0.0014834441627341872,0.004750316483441623,-0.0010962241743550317,0.01530840931327265,-0.023408761609767105,0.016229476578670434, ,0.005095863098362012, ,0.027969939503045337, ,3.5567286124712024e-05, ,0.17145239254065833,-0.21998976865515937,0.09182270215,-4.451298120289483,0.44844099223017553,-0.7378019000120566, ,0.0136248300873612,-0.05277916660649098,0.0023041821958628677,0.0,-0.014772429661886214,0.03229164378052754, ,0.2744300365447998
0.010292931727572344,0.019513638094380642,-0.08163808153444865, ,0.01050796959010974,0.01977537212860058,-0.08174073106724715, ,0.00035395326467973896, ,0.0014938778604974773,0.004859636481158856,-0.0013621382686061956,0.018553869222783344,-0.011723076584986216,-0.030956576293874695, ,0.0052633789958444034, ,0.021947131651970146, ,3.579754251625849e-05, ,0.1717226881912562,-0.22100144666168278,0.09187196117,-4.450878740402514,0.4483043557304101,-0.7371187309273761, ,0.01295521386463765,-0.05039667634544386,0.0025231762268335184,0.0496656087736271,-0.00970355458538954,0.03405591415285407, ,0.2928431034088135
0.010309789223629443,0.019560530246471107,-0.08165307178988344, ,0.010531979396767676,0.019863931564813576,-0.0817609880327362, ,0.0003912374579237017, ,0.001646575818059073,0.004648489193706703,-0.0015130106649549426,-0.03896411320922865,-0.028370668201484997,-0.04882906344352721, ,0.005158378134733077, ,0.04819851587313047, ,3.624023210136987e-05, ,0.1718462519172438,-0.22149570156563317,0.09189918326,-4.4502496705720604,0.4477578097313484,-0.7363463443520284, ,0.01085445246966141,-0.04695543867316713,0.002562550115830116,0.07678933506731235,-0.0495799643970398,0.0928607922185932, ,0.31020212173461914
0.010336643157232019,0.019648354046383546,-0.08168108792155049, ,0.0105558842366478,0.019952475362592422,-0.08178146503749562, ,0.0003881133742625699, ,0.0011208932490177187,0.00446530685578209,-0.0013723261777893877,0.03756354303113227,0.005977522701818331,0.002631786736318831, ,0.004804023951879722, ,0.03803617413328544, ,3.6615694436825875e-05, ,0.1720702111705963,-0.22243787497628856,0.09194844228000001,-4.4502496705720604,0.447347900232052,-0.7356036969402362, ,0.011693723696175556,-0.04663240371423625,0.0025482021308590626,0.013931243298464265,0.013451908276962802,0.0145372367268902, ,0.3288271427154541
0.010361552391921032,0.019742849479581576,-0.08170698761582115, ,0.01057968509638256,0.02004100248257896,-0.08180216115022336, ,0.00038149061797463355, ,0.0012647841792965586,0.0045474459222424905,-0.0012356368332196027,-0.007599341286578595,0.004717288887907869,-0.020519902223589872, ,0.004879112810699061, ,0.008944428569729688, ,3.691425402328105e-05, ,0.17231733862257148,-0.22341093931844083,0.09199899759,-4.449410910798123,0.44748453673181743,-0.7348166487023864, ,0.011592169736411927,-0.046609499783138886,0.002396391081690989,0.050219568672269024,-0.0036663668941400982,0.06508764045855481, ,0.3463151454925537
0.010388966182683094,0.019834316751003833,-0.08173169655149429, ,0.010603382959594176,0.02012951188898987,-0.08182307544200913, ,0.0003761181002600868, ,0.001364503977707049,0.004483374519820886,-0.0010259041419825982,-0.016296100575856596,-0.012740898588106222,-0.01694705545934696, ,0.004797394865830263, ,0.0206855841302513, ,3.715408907273765e-05, ,0.17253357514304976,-0.2243762809277189,0.09204566403000002,-4.448781840967668,0.4469379907327557,-0.7335541896861952, ,0.01160704024551198,-0.04707189561432083,0.0021329420889126946,0.04332898907449496,-0.021259229036404054,0.06948582270677454, ,0.3635389804840088
0.010400725460837234,0.019874713438480695,-0.08174103122936584, ,0.010626978806898262,0.020218002549612875,-0.08184420698633398, ,0.00042389058405640687, ,0.001469673684798251,0.004553800151211398,-0.0010260897862608336,-0.006875677406846139,-0.025666914855327252,-0.010164295274872207, ,0.004893863178147732, ,0.026571892254645617, ,3.7620254606080186e-05, ,0.17264169340328891,-0.2248164767015497,0.09206510838000001,-4.448781840967668,0.4468013542329903,-0.7331160568219365, ,0.012240028577127663,-0.048615236454134625,0.002135515688430085,0.03016502095488389,-0.02942508496179111,0.05681480881599242, ,0.3807821273803711
0.010427708959439437,0.019972679453846752,-0.08176609472871475, ,0.0106504736159072,0.02030647343580224,-0.08186555485906503, ,0.0004134426587692623, ,0.0014852276984537807,0.005061413609615909,-0.0014161855428661623,0.03851111870333395,0.011646804095822229,-0.08548879187869718, ,0.00546162892694868, ,0.04023374590344582, ,3.818265771568329e-05, ,0.17289654358813833,-0.22581270924232466,0.09211566369000002,-4.4475237013067614,0.4468013542329903,-0.7325443056409525, ,0.013178300452502538,-0.0492971124979069,0.002731746101869319,0.10662911421156951,-0.0031027777830291716,0.029016365034866928, ,0.3961470127105713
0.010440117428428252,0.02001742310943551,-0.08178043573126088, ,0.01067386836123376,0.020394923522474642,-0.08188711813845512, ,0.00045664778159640464, ,0.001398599360399757,0.004813935240036786,-0.0013897401118788057,0.01943561374588658,0.0036570355507270953,-0.03998094667924844, ,0.005202060192341449, ,0.019776677948871824, ,3.890951598429357e-05, ,0.17301238458125168,-0.22627607321477813,0.09214158949000001,-4.447314011363277,0.4468013542329903,-0.7322175906803903, ,0.012715656111278409,-0.04849102787862584,0.0026385309789630613,0.06286456925334517,-0.0033449407057721194,0.04061894015569467, ,0.4121429920196533
0.010473150234613005,0.02011549263993459,-0.08181109527170216, ,0.010697164014494484,0.020483351788105165,-0.0819088959051384, ,0.0004416644545014903, ,0.0018237752799204962,0.004878643175201678,-0.0016135468348853345,-0.030878901908166053,-0.05589374757957717,0.018147807609799824, ,0.005452600195407643, ,0.06385622602012032, ,3.951316564460441e-05, ,0.1732749574989753,-0.22731864215279846,0.09219603367000001,-4.4471043214197925,0.44611817173416307,-0.7308437137605026, ,0.013024559642941365,-0.05254537184854417,0.0027397336635706917,0.0,-0.05619049518867629,0.07477922228288174, ,0.42919206619262695
0.010502486872090051,0.020219582306117354,-0.08184047425592969, ,0.010720361544313262,0.02057175721472295,-0.08193088724212881, ,0.0004238762167439625, ,0.0013721155207301904,0.005395201479921023,-0.0013530339383455048,0.04568979357963931,0.015247369815445434,-0.08425815915915988, ,0.0057290139508894035, ,0.048166788595820575, ,3.999428569633266e-05, ,0.1735220849509505,-0.2283766565565672,0.09225177414,-4.445846181758886,0.4458448987346322,-0.7299674480319852, ,0.012233716843943634,-0.053133785867004915,0.002760147551550858,0.10597865351158989,0.0,0.026054893112352293, ,0.4458320140838623
0.010516856663854839,0.02027752440920727,-0.0818573992085828, ,0.010743461916324774,0.020660138787907123,-0.08195309123481666, ,0.0004548633499410327, ,0.0015122971313528879,0.005372357348048454,-0.0017297887115524792,0.005614949928777533,-0.0033794416500213045,-0.01777671895926003, ,0.0058430672660207145, ,0.006553494377283818, ,4.057579028413598e-05, ,0.17366881687556077,-0.2289790297207567,0.09228418139000001,-4.4456364918154,0.4459815352343976,-0.7297521509751194, ,0.013037084978495778,-0.05472718659658061,0.0031074544518142804,0.044952050761030475,-0.008751357239991094,0.05740868968885536, ,0.4622809886932373
0.010547435453657654,0.02038005247823778,-0.08188279547885187, ,0.010766466093178027,0.020748495496782454,-0.08197550697096642, ,0.0004385431560669058, ,0.0014301806688757721,0.00527431695974102,-0.0010380476095416913,-0.006201305176032177,-0.013613946324797316,0.02529603800619292, ,0.005562497548503993, ,0.014959803488667241, ,4.105052709161022e-05, ,0.1739545579919071,-0.23008338052177083,0.09233603299000001,-4.4456364918154,0.44570826223486676,-0.7286308490261804, ,0.013951329249995703,-0.057304916400042746,0.0024098050711043877,0.0027691945426923967,-0.009527416758165739,0.06493941976785274, ,0.4784121513366699
0.01058083617943122,0.02049019609157562,-0.08190412210943097, ,0.010789375034539793,0.020836826334015453,-0.0819981335407135, ,0.0004153060657824316, ,0.001653587089816689,0.005524971311455295,-0.0009031162352959861,0.0011270260399925363,-0.016735517989052935,-0.057968704770373816, ,0.00583740329174434, ,0.016773423921672487, ,4.1400937773261636e-05, ,0.1742402991082534,-0.23123406772003027,0.09238529201000001,-4.4443783521544935,0.44516171623580497,-0.7273683900099891, ,0.013609198559941315,-0.05737420892289647,0.002290596997411562,0.08351052877984416,-0.03315560511979001,0.06610644031107911, ,0.49486804008483887
0.010595697196604793,0.020543602021428464,-0.08191488783255033, ,0.010812189697098224,0.020925130295809977,-0.08202097003656228, ,0.0004513161429978629, ,0.0014085540207810319,0.005475816302371268,-0.001196952141895384,0.055869835673759846,0.0018132132971797462,-0.020670589825378578, ,0.005779384312949028, ,0.055899251163781624, ,4.187011215143261e-05, ,0.17437930829998943,-0.23180554995272287,0.09240992152000001,-4.444168662211009,0.4450250797360395,-0.727175293366152, ,0.014519115905518786,-0.057166832264139024,0.0026771111798319334,0.036770831475983506,0.007151474810860519,0.008762146900831571, ,0.5116159915924072
0.010623685931578232,0.020653147050663297,-0.08194024096746522, ,0.010834911034566097,0.021013406381903087,-0.08204401555338299, ,0.00043031615651748536, ,0.001406161419194108,0.0055258833350128244,-0.0014810962194112996,0.0350981175099692,-0.008758685784807263,0.00907218098924047, ,0.0058912072260409315, ,0.03617447206820666, ,4.223130631547058e-05, ,0.1746573266834615,-0.2329716826167308,0.09246436570000001,-4.443958972267525,0.4450250797360395,-0.7263585059647464, ,0.013462468656330086,-0.05832633162782469,0.0029405227099870783,0.009191360653147228,-0.000840154747499577,0.025236625847823692, ,0.5271561145782471
0.010639959478727125,0.0207082169722505,-0.08195754121051141, ,0.010857539997684663,0.021101653595560946,-0.08206726918840909, ,0.000462789247849679, ,0.0016348937318985493,0.005619563833640973,-0.0016993685132676666,-0.0078256704687306,-0.009092103451376819,-0.036397013663937355, ,0.006094278344386015, ,0.01199614369043353, ,4.269064012916879e-05, ,0.1747808904094491,-0.23352771938367495,0.09249547666,-4.443329902437071,0.44475180673650866,-0.7257272764566508, ,0.012884852893207165,-0.05668873450326809,0.0031269751707891638,0.06637398555908776,-0.022935706005074243,0.07426406116814943, ,0.5428481101989746
0.010673398349349352,0.020819782402235382,-0.08199241316512805, ,0.010880077534226762,0.021189870943574485,-0.0820907300412345, ,0.0004351413816444341, ,0.0013972411655071072,0.005550591662439282,-0.0016676334940750304,0.047822694659499836,0.01222409189980942,-0.01448068672277985, ,0.005961740697840608, ,0.0493602932249986, ,4.3179195328954645e-05, ,0.1750589087929212,-0.2346784065819344,0.09255899487000001,-4.442700832606618,0.44434189723721235,-0.7244945566040153, ,0.01428095433536054,-0.056352103063224926,0.003195989470304976,0.03614312192711543,0.016644744448095466,0.01863481266804028, ,0.5572819709777832
0.010688390539000872,0.02087819479095575,-0.08201012206144617, ,0.010902524589000675,0.02127805743625549,-0.08211439721381124, ,0.0004654211360436693, ,0.0015887906052956887,0.0055569999366131525,-0.0017592861392893397,0.005321690676922746,-0.007428054725746007,0.0027184820117910928, ,0.006041489187517429, ,0.009137635834977823, ,4.374970850637068e-05, ,0.17520564071753145,-0.2352421660817528,0.09259140212000001,-4.442700832606618,0.44447853373697777,-0.7242792595471494, ,0.014197627402524055,-0.057304916400042746,0.003227068784440843,0.02494097077042288,-0.006918495065093165,0.05757399969864024, ,0.5709631443023682
0.010721594229000908,0.020988878865526757,-0.08204589966081115, ,0.010924882103853284,0.021366212087432113,-0.08213826981044631, ,0.0004988693359461408, ,0.0016912991278718215,0.005889275682615438,-0.00195944610315292,-0.019618588363720338,0.012398358839460305,-0.0784110403911332, ,0.006038180565914115, ,0.01735971200033309, ,4.4407119347331595e-05, ,0.17549138183387775,-0.23639285328001225,0.09265751291,-4.441442692945711,0.44420526073744687,-0.7229946001179295, ,0.012877858808314666,-0.05631865967861767,0.003487806332384498,0.11953958227560839,-0.01688004370714365,0.09747940291069, ,0.5854160785675049
0.010740120537244003,0.021044900677800318,-0.08206836094748836, ,0.010947151017673896,0.021454333914444974,-0.08216234693779918, ,0.0004683274084132353, ,0.002036517734106314,0.00567974247367101,-0.0022120329361408585,-0.00899644012752645,-0.037980077435435314,-0.035656611270548845, ,0.00642650517459715, ,0.03903104170934808, ,4.493204459060464e-05, ,0.17562266829273956,-0.23696433551270485,0.09269380903,-4.441233003002226,0.44379535123815056,-0.7220885952258561, ,0.014165836924685888,-0.05668873450326809,0.0036119754013605445,0.05593560146113832,-0.04911321122157159,0.06737158347695064, ,0.5988240242004395
0.010759662814992785,0.02111479494545218,-0.0820955216033897, ,0.010969332266397437,0.021542421938142833,-0.0821866277048795, ,0.00048489838673545626, ,0.0017024405789036814,0.00579426131835306,-0.00218544913703105,0.0056735379928845074,-0.02706341594414754,0.007935995119218883, ,0.006422457168452756, ,0.027651718135999953, ,4.548700900298648e-05, ,0.1757848456830983,-0.23768254967000774,0.09273917918,-4.441233003002226,0.44365871473838514,-0.7216504623615975, ,0.013029924695657115,-0.05945923656545788,0.00365927211578222,0.012566741514367446,-0.025651071980394874,0.052419396467653506, ,0.6125941276550293
0.010775288452195332,0.021172031971980504,-0.08211647494815255, ,0.01099142678300814,0.021630475182878334,-0.08221111122304388, ,0.0005155986619359725, ,0.0016852757882626279,0.005583537687341061,-0.002117150453619992,0.0208669270353413,-0.024181511625397265,0.011745455899386845, ,0.00620470576512098, ,0.03194016512707698, ,4.6115001356219175e-05, ,0.17592385487483433,-0.23826175463557459,0.09277547530000001,-4.441023313058741,0.44365871473838514,-0.721732141101738, ,0.013873821865273505,-0.05733954172717268,0.003572283363982956,0.004746269107049424,-0.017162601554788222,0.034636611990512524, ,0.6259410381317139
0.010816187597329864,0.021291942513054996,-0.08215691970798718, ,0.01101343549754295,0.021718492676504143,-0.08223579660599352, ,0.0004765221307726105, ,0.0022761018010816077,0.006008731215917992,-0.002133994138583134,-0.07707462084003262,-0.05842319929279873,-0.022097111520954244, ,0.00677048160898037, ,0.09671487679357615, ,4.659387089291411e-05, ,0.17620959599118063,-0.23948966916257627,0.09284547496000001,-4.440184553284803,0.4425656227402616,-0.71986065299048, ,0.014065057293385322,-0.06114493657117962,0.003549991424114108,0.05606209510565482,-0.08127055286661355,0.13677814315713305, ,0.6398470401763916
0.010832517247485319,0.02134932009313755,-0.08217679469876377, ,0.011035359337095032,0.021806473450368163,-0.08226068296977114, ,0.0005071206437890896, ,0.0018927077429995672,0.006175834338444011,-0.00211226259231197,-0.003856632972132423,-0.026822214531804493,-0.013188079565236651, ,0.0067959492078145485, ,0.027098059159833487, ,4.714558902565403e-05, ,0.17634860518291667,-0.24008431959389157,0.09288047479000001,-4.440184553284803,0.4424289862404962,-0.7194225201262212, ,0.014387043899101089,-0.0627625274857611,0.0036957799350348032,0.03851285442155262,-0.03296935091629931,0.06894094454548154, ,0.6537261009216309
0.01085075865331261,0.02141289970968406,-0.08219881610872842, ,0.01105719922581734,0.021894416539310284,-0.0822857694327589, ,0.0005310716032225041, ,0.0015258460535719752,0.006073784333961671,-0.002126941717837831,0.041934075116750735,-0.01082942812776666,0.017514970866831132, ,0.00661384482625336, ,0.04330985072045652, ,4.7745745682498575e-05, ,0.17650305984040116,-0.2407330291553264,0.09291936349,-4.439974863341319,0.44229234974073073,-0.7189843872619627, ,0.013626786553485176,-0.06251445425459208,0.0037576814154281677,0.0,0.0,0.0208587334757647, ,0.6675460338592529
0.010883232933189584,0.02154485220218642,-0.0822459088862277, ,0.011078956084925998,0.02198232098165719,-0.08231105511567513, ,0.00048366363967999225, ,0.001639306153999015,0.006683305011258476,-0.002375054926877166,0.00470880276846449,0.010290546040672794,-0.023944874496543072, ,0.007279751125260753, ,0.011316720428283633, ,4.818271474654098e-05, ,0.17678880095674748,-0.24203817101107036,0.09300232605000001,-4.4389264136238955,0.4424289862404962,-0.7179523028036912, ,0.01355283369872476,-0.06590065386004916,0.004167663924646782,0.06148354940625936,-0.001025800208503419,0.07493026719204454, ,0.6817800998687744
0.010899628659942739,0.02161074724140674,-0.08226964280548975, ,0.011100630832703852,0.022070185819219084,-0.08233653914157218, ,0.0005059256862605127, ,0.0017088495407649618,0.006538379778178136,-0.002182920308726302,-0.013737063664932988,0.0011226447540731562,0.01611558977148517, ,0.007101810892364786, ,0.013782860709181657, ,4.880578772867105e-05, ,0.17692781014848352,-0.24269460330537945,0.09304380733,-4.4385070337369275,0.4424289862404962,-0.7171355154022855, ,0.01522492243838774,-0.0663614975933362,0.003958452166998013,0.02391947753366948,-0.0013323073924236038,0.08814293907293091, ,0.6937680244445801
0.010916860008017863,0.021677379553260726,-0.08228948055687246, ,0.01112222438450397,0.022158010097284672,-0.08236222063583358, ,0.0005277038620908058, ,0.0014591647403389286,0.006419259411502454,-0.0016029195995605895,-0.006935614435345541,0.0024404170884275165,0.016669526809380112, ,0.006775352712166849, ,0.007352440625444092, ,4.9469259863469864e-05, ,0.17707454207309378,-0.24338192653118543,0.09308139974000001,-4.438297343793443,0.44229234974073073,-0.7162073100971835, ,0.013642458533420181,-0.0667348393519485,0.003348499373554762,0.021508592307027254,0.0,0.08117530582595923, ,0.7071499824523926
0.010948641709325472,0.021812128608156133,-0.08232257991369607, ,0.01114373765275312,0.02224579286461777,-0.08238809872617073, ,0.0004800206550372991, ,0.0015399337703888285,0.006626192325744615,-0.0016210881381737681,0.01797808312444182,0.0067045326185853306,-0.01872794096527574, ,0.006993264438491403, ,0.019187554050785607, ,4.9978162907515645e-05, ,0.1773680059223143,-0.24475657298279738,0.09315139940000002,-4.43724889407602,0.44229234974073073,-0.7147370927746534, ,0.014157383493729789,-0.06754230715905395,0.003437378403107467,0.052172436595538205,0.0,0.061108147655952905, ,0.7202939987182617
0.01096293531971982,0.021874252751276003,-0.08233931635409392, ,0.01116517154695517,0.022333533173452456,-0.08241417254262114, ,0.0005073868807545103, ,0.0016573997323398233,0.006701004160747676,-0.001906889858928424,0.015620455380273722,-0.0010823902441201624,0.006764897152253889, ,0.007161470489306078, ,0.015657911575381808, ,5.0545151714371966e-05, ,0.17749929238117612,-0.24539755981135802,0.09318510294000001,-4.437039204132535,0.44229234974073073,-0.7141653415936694, ,0.015278850677583446,-0.06866638318268507,0.003749720225988701,0.02530313885869138,0.0,0.05990008731437438, ,0.7321591377258301
0.010978276036674466,0.021937682001265082,-0.0823582289951506, ,0.011186526973694853,0.02242123007948948,-0.08244044121754515, ,0.000532865880156939, ,0.001625961284553582,0.006662245991312449,-0.001991213385434136,0.016038465223511773,-0.002717734641263218,0.013112972956031413, ,0.007141022510394292, ,0.016267097106577297, ,5.11623424935943e-05, ,0.17763830157291216,-0.2460462693727929,0.09322139906000002,-4.436829514189051,0.44229234974073073,-0.7136752691528261, ,0.01481375921924302,-0.0682711809773171,0.0038207751307267938,0.017867153039752615,0.0,0.05768564500226474, ,0.7441949844360352
0.010998091689512648,0.022010347552442716,-0.08237639150298516, ,0.011207804836640967,0.022508882641891555,-0.08246690388562385, ,0.0005483697027564132, ,0.0015576644356054023,0.006890357593719167,-0.0015448936901777878,0.006898417886162365,0.00218187467949051,-0.01700582968395442, ,0.007231185433746284, ,0.007235243357367217, ,5.1800955318448384e-05, ,0.1778004789632709,-0.24678765172871844,0.09325899147000001,-4.436200444358597,0.44201907674119983,-0.7127173246841683, ,0.013771142295526163,-0.070713071206014,0.0034204018724500753,0.05321561091658491,-0.007588854203050243,0.07458504288050355, ,0.7563650608062744
0.011030967278164074,0.022145154557341826,-0.08240902223240898, ,0.011229006036549992,0.02259648992327956,-0.08249355968385563, ,0.0005000695382307153, ,0.0016185390477663436,0.006841932314322411,-0.001567089928097468,-0.005582140017790647,0.004355488944777969,-0.03511583947576984, ,0.007203296279180674, ,0.007080294564271464, ,5.2293829814073455e-05, ,0.17807077461386875,-0.24817774364607884,0.09332769484,-4.4353616845846595,0.4416091672419035,-0.7109945323906892, ,0.013326350450564638,-0.07060784342148123,0.0034673076882890735,0.03558946873465262,0.02843264100263062,0.04316156157411395, ,0.7686150074005127
0.011048002350122528,0.022219632016711198,-0.08242996660586482, ,0.011250131471269638,0.02268405098972835,-0.08252040775155409, ,0.0005145102185064884, ,0.0013935672599064753,0.006986527066138822,-0.0020874758695618094,0.03498532694081943,0.012652543565177796,0.03174590573210922, ,0.0074236881440276304, ,0.0372029563312529, ,5.280856632592486e-05, ,0.17822522927135323,-0.24894229420062708,0.09336917612000001,-4.435151994641175,0.4416091672419035,-0.7102594237294243, ,0.01416372262066728,-0.07167442715896584,0.004063472326530613,0.000874618065315936,0.0222781251195757,0.043370568942877295, ,0.780627965927124
0.011064612160000018,0.02229455902955472,-0.0824557003797381, ,0.011271182035742181,0.022771564910762095,-0.08254744723034493, ,0.0005278477137080661, ,0.0017294878019583958,0.0072863087513428335,-0.002894851400804854,0.005510920464037082,0.0038840530530837984,-0.0014769791383050764, ,0.00802879741367036, ,0.006742114822280548, ,5.334138530509788e-05, ,0.1783719611959635,-0.2496759538236784,0.09341584256,-4.434522924810721,0.441745803741669,-0.7096357329718557, ,0.013558642885908098,-0.071512390021455,0.0048756692745638205,0.03895503675160439,-0.00252455444154763,0.07552740170711233, ,0.7924230098724365
0.011081998299692596,0.02236584093654275,-0.08248682531467563, ,0.011292158622008122,0.02285903075935072,-0.08257467726416352, ,0.0005432508881041472, ,0.0019154215794630757,0.00757533176513606,-0.0032873377255892757,0.009973781617232148,0.011906833413495242,-0.03478451388918123, ,0.008477091511894555, ,0.015532192417719451, ,5.38966155943356e-05, ,0.1785032476548253,-0.25035555431661016,0.09346639787000001,-4.433893854980268,0.441745803741669,-0.70881894557045, ,0.014422027592472762,-0.07194612703447369,0.005354222359663867,0.07461847046510615,-0.002829136573172494,0.07769352598392468, ,0.8044331073760986
0.01110057791535333,0.022439514437694905,-0.08251979988543029, ,0.011313062119209617,0.022946447611905587,-0.08260209699925238, ,0.0005557909633551113, ,0.0018038235865279267,0.00723416484291785,-0.0032327006715735336,0.002821463896882467,0.0014048241550102432,0.00623448938429197, ,0.008126332145427916, ,0.003151854862595762, ,5.4600074772181874e-05, ,0.17864997957943557,-0.25107376847391305,0.09351954576,-4.433684165036783,0.441745803741669,-0.7081655156493255, ,0.013781141672737552,-0.07013816818807891,0.005203793374714146,0.03053464314968936,-0.0027391917577597766,0.07536331361796257, ,0.8143479824066162
0.011119593410063057,0.022513399036633724,-0.08254905063517544, ,0.011333893413593915,0.023033814548274915,-0.08262970558415811, ,0.0005685613573445575, ,0.0017370036469095207,0.007155685671934667,-0.0022879745677830948,0.008606785974417872,-0.006576136070643352,0.03417482985874542, ,0.0077107617475662095, ,0.01083154330491987, ,5.531745580005481e-05, ,0.17879671150404586,-0.2518074280969644,0.09356880478000001,-4.433474475093298,0.4416091672419035,-0.7072373103442234, ,0.015651812891055713,-0.07316649310599135,0.004284241936525013,0.0,0.0,0.06744563937367294, ,0.8236920833587646
0.011138521872332179,0.022587709878538125,-0.08256917034035605, ,0.01135465338851691,0.023121130651739985,-0.08265750216972892, ,0.0005822826338230769, ,0.001751274068344405,0.007365614136425631,-0.0019106323234909532,0.016132161437921986,-0.005737142354168197,-0.006148937828837821, ,0.007808312771958939, ,0.017121957686716382, ,5.6050538185721e-05, ,0.17894344342865612,-0.25255653318576415,0.09360898977000001,-4.432845405262845,0.44133589424237263,-0.7064427233558468, ,0.015161677833275409,-0.07507669427094206,0.0039496185271510045,0.03927196056933041,-0.010008507418908196,0.06620196490573627, ,0.8332760334014893
0.011158316900917413,0.022665893489872642,-0.08259161503350852, ,0.011375342924446682,0.02320839500901107,-0.08268548590911207, ,0.00059179382764862, ,0.0020221450142565616,0.007993141857205026,-0.0025291107532776193,0.024864715694529534,0.003836100862559793,-0.06101689338085624, ,0.008624139864962197, ,0.02515889020394261, ,5.678878732486796e-05, ,0.17910562081901482,-0.2533288064731866,0.09365306363,-4.432006645488907,0.4411992577426072,-0.705841233011307, ,0.015810886630868173,-0.07778437832661539,0.004729457102137767,0.09683935347994949,-0.015012420046529829,0.06908892614967821, ,0.8429300785064697
0.011178938152161587,0.022745041824912604,-0.08262225037836743, ,0.011395962898966869,0.023295606710222707,-0.08271365595775088, ,0.0005988125028795301, ,0.0020481576889388588,0.00784805481826321,-0.003175519946566851,0.014944046770080831,-0.01754100265066679,-0.007762167717652828, ,0.008710386976493508, ,0.023043682594892645, ,5.752618443553585e-05, ,0.17925235274362508,-0.2541088024934833,0.09370491523,-4.431587265601937,0.44092598474307637,-0.7050466460229301, ,0.01475846680536093,-0.07696426728180923,0.005291963960132891,0.03743865306375173,-0.02271342933529555,0.06599915227893785, ,0.85288405418396
0.011195460833198877,0.022815130923247464,-0.08265081539543431, ,0.011416514186780245,0.023382764848930152,-0.08274201147338225, ,0.0006159460880211804, ,0.002023252525676716,0.008089218893403388,-0.0034662188137699404,0.010997604246701261,-0.023173372260496775,0.02831914250131616, ,0.009030154259644972, ,0.02565058441030664, ,5.828617324535877e-05, ,0.1793836392024869,-0.2547961257192892,0.09375287796000001,-4.431377575658453,0.44092598474307637,-0.7045565735820869, ,0.014592794334687189,-0.08021719489304377,0.005646512414037576,0.00171185317142909,-0.019549306904736715,0.06781287357582544, ,0.8636431694030762
0.011219530028314766,0.022908419728531172,-0.0826918633512184, ,0.011436997659712195,0.02346986852210482,-0.08277055161603393, ,0.0006072139339068151, ,0.0020276735513412845,0.008272831718662294,-0.003526671608436672,0.004010122422297228,-0.005470492067054825,-0.0035848699168681943, ,0.00921892712357936, ,0.0067828728981149744, ,5.900878896087369e-05, ,0.17954581659284563,-0.2556919627326993,0.09381898875000001,-4.430748505828,0.4406527117435454,-0.7036803078535694, ,0.014505799687935,-0.08008180722233821,0.005779684876632802,0.04217490952837642,-0.013972406786661956,0.08389695547608578, ,0.8730840682983398
0.01124031282497832,0.022992898391180794,-0.08272438225008769, ,0.011457414186714206,0.02355691683013012,-0.08279927554802206, ,0.0006089817787240433, ,0.0020556000481664004,0.00842526250083094,-0.0031284205058826524,0.004388626801964628,0.0025126539037726315,-0.031751759919320596, ,0.009219411837398132, ,0.005057022300465789, ,5.971905555345214e-05, ,0.1797002712503301,-0.2565105724173671,0.09387472922000001,-4.430119435997546,0.44051607524378,-0.7026704238083268, ,0.015220038742336935,-0.08145660219611225,0.005447609958960329,0.07415540947761455,-0.014396473495601823,0.09071094924382482, ,0.883059024810791
0.011260987044238915,0.023077724208816167,-0.08275760713493763, ,0.01147776463386739,0.023643908876797487,-0.08282818243394814, ,0.0006103592994725921, ,0.002251785084073462,0.008711115758491494,-0.0034909515396559163,0.007465061756077432,-0.008265550119832765,0.004772033908280257, ,0.0096509489934887, ,0.011137614883225795, ,6.0416514214985315e-05, ,0.17987017137356306,-0.2573446275677833,0.09393176598000001,-4.4299097460540615,0.44051607524378,-0.7020169938872023, ,0.017469981877479893,-0.08503310175490213,0.005910505202226346,0.03516068418931083,-0.01204702656624349,0.0845839906804047, ,0.8927431106567383
0.011284168816041907,0.023169066849996322,-0.08279724025604225, ,0.011498049864385872,0.023730843769302012,-0.08285727144069599, ,0.0006041044222948853, ,0.002222288067421133,0.00875788770247962,-0.004001206522931621,0.03144583237442668,-0.00865253330133257,0.014916744040035337, ,0.009881741491407102, ,0.03261451678663452, ,6.108470415131266e-05, ,0.180040071496796,-0.25822501911544493,0.09399658048000001,-4.429490366167093,0.44037943874401453,-0.7011704673222409, ,0.016973160715162007,-0.08450306461128297,0.006441088362312981,0.017772311171473626,-0.004263807112859321,0.05722102358188087, ,0.9034459590911865
0.01130670225481748,0.023253790329227104,-0.08283196236565725, ,0.01151827073862041,0.02381772061823827,-0.08288654173743042, ,0.0006047788868884578, ,0.0022008139030916807,0.00880521965923453,-0.0030050745615330136,0.0492790758996853,-0.005809170978137926,-0.03219975959426169, ,0.009560645804744819, ,0.04962029613711633, ,6.187514290193372e-05, ,0.18020997162002894,-0.25903590606723853,0.09405491353,-4.428861296336639,0.4402428022442491,-0.7006506557178416, ,0.017615916383603263,-0.08611337709480106,0.005481352897453545,0.06195033064429902,-0.011147499756302295,0.04638334408851877, ,0.9113819599151611
0.011329516880603522,0.023342392405520575,-0.08285970643886091, ,0.011538428114061867,0.02390453853759643,-0.08291599249559331, ,0.0006023456627679931, ,0.002242326645814085,0.008772845362042998,-0.0025816142767578544,0.004839911870169722,-0.018064150086001436,-0.03175473592139277, ,0.009415709044294389, ,0.01870129046686147, ,6.264654527402124e-05, ,0.18037214901038764,-0.2599162976149001,0.09410676513,-4.428232226506185,0.4398328927449528,-0.6996629720856278, ,0.016760321716437793,-0.08714136047609806,0.005001196709576139,0.06922379592728742,-0.033822560294941274,0.09049059687663713, ,0.9216101169586182
0.011352025655383869,0.023431791851567053,-0.08288940319999244, ,0.0115585228453446,0.02399129664475757,-0.08294562288890131, ,0.0005990386936466209, ,0.002242326645814085,0.008772845362042998,-0.0025816142767578544,0.004839911870169722,-0.018064150086001436,-0.03175473592139277, ,0.009415709044294389, ,0.01870129046686147, ,6.339752051658706e-05, ,0.18037214901038764,-0.2599162976149001,0.09410676513,-4.428232226506185,0.4398328927449528,-0.6996629720856278, ,0.016760321716437793,-0.08714136047609806,0.005001196709576139,0.06922379592728742,-0.033822560294941274,0.09049059687663713, ,0.9293069839477539
0.011352025655383869,0.023431791851567053,-0.08288940319999244, ,0.011578555784250068,0.024077994060489837,-0.08297543209334295, ,0.0006901406846375129, ,0.0022952249714488864,0.008975656503279056,-0.0031000747552159293,-0.022888452465815484,-0.03768899828204925,0.01236622431387763, ,0.009769387433321767, ,0.044094691829038565, ,6.433032094943142e-05, ,0.1805420491336206,-0.2608044118954359,0.09416120931000001,-4.427812846619216,0.4395596197454219,-0.6987867063571105, ,0.015526332061268125,-0.08994970763836094,0.005517426920678906,0.026044015597574834,-0.04747550087571945,0.11158526917989574, ,0.9375460147857666
0.011371967936310345,0.023522919451401808,-0.0829205976959242, ,0.011598527779710287,0.024164629908944475,-0.08300541928717663, ,0.0006857961623570213, ,0.0023222533331456957,0.009207620704155733,-0.0034351794169656877,-0.0031439201116927338,-0.020194415228263353,0.006347174229973762, ,0.01009819772046717, ,0.020437676961970738, ,6.523810670909095e-05, ,0.1807042265239793,-0.26170024890884597,0.09421824607000001,-4.427393466732248,0.4395596197454219,-0.6981332764359859, ,0.01690663487590785,-0.09055051675426601,0.005981528922268119,0.03412897775677222,-0.02736451883227474,0.09765678910733261, ,0.9450840950012207
0.011395089056082934,0.023619958830634998,-0.08295824584638116, ,0.011618439677811315,0.024251203317651033,-0.083035583650927, ,0.0006740446859270996, ,0.002323623852136033,0.009968086059182006,-0.004156126867801977,0.0033267101969260537,0.02093654220204416,-0.03293115184433733, ,0.011046961484079666, ,0.02119919335428224, ,6.610594758953367e-05, ,0.18087412664721225,-0.2626346995866271,0.09428306057000001,-4.426764396901794,0.43942298324565643,-0.6969600349104623, ,0.01722580169876035,-0.09367911308832258,0.0069801978615249794,0.08896344086141046,0.0,0.11093750395061994, ,0.9534790515899658
0.011395089056082934,0.023619958830634998,-0.08295824584638116, ,0.011638292321796728,0.024337713417513708,-0.08306592436738336, ,0.0007654502853383117, ,0.002323623852136033,0.009968086059182006,-0.004156126867801977,0.0033267101969260537,0.02093654220204416,-0.03293115184433733, ,0.011046961484079666, ,0.02119919335428224, ,6.714975278740905e-05, ,0.18087412664721225,-0.2626346995866271,0.09428306057000001,-4.426764396901794,0.43942298324565643,-0.6969600349104623, ,0.01722580169876035,-0.09367911308832258,0.0069801978615249794,0.08896344086141046,0.0,0.11093750395061994, ,0.9614269733428955
0.011424319546692922,0.023735839919940258,-0.08300996097102381, ,0.011658086552071173,0.024424159342807002,-0.08309644062159571, ,0.0007320583109713066, ,0.002459109385404698,0.010201756628459915,-0.0047085937786316544,-0.02043701346901484,0.01573362650367204,-0.0003516313597671048, ,0.011501909087098541, ,0.025791830492914825, ,6.810731332423067e-05, ,0.1810826404348163,-0.2637236049218928,0.09436731942000001,-4.425925637127856,0.43928634674589107,-0.6954600784243763, ,0.017884836328396304,-0.09556590287862111,0.007595999771101576,0.062135915399982165,-0.0007340397431123214,0.13306607262982678, ,0.9694781303405762
0.011450212691296882,0.023841414509222995,-0.08305903912472007, ,0.011677823206203811,0.024510540231171562,-0.08312713160087325, ,0.0007100509584375327, ,0.002426941821580895,0.009929600958879868,-0.004225544509885389,-0.0281212210231676,0.0030939975302121357,0.04010192837088402, ,0.011060843015473502, ,0.028290915347575097, ,6.900407911345323e-05, ,0.18127570875667193,-0.26471983746266775,0.09444639311000001,-4.425506257240887,0.43928634674589107,-0.6940715398419867, ,0.019036497805109485,-0.0956622394742649,0.007063774509977828,0.01953794461837196,-0.0011924768150134784,0.13334825498612524, ,0.9772441387176514
0.011474262676906861,0.023946472183615418,-0.0831002677035796, ,0.011697503118931803,0.024596855223609822,-0.08315799649478062, ,0.0006900485540897721, ,0.0024441229718701945,0.010438049934794559,-0.004284360051073777,0.003001164669019776,0.009393368420153585,0.0007718452447470518, ,0.01154479816151522, ,0.009861153999597003, ,6.984560805173771e-05, ,0.1814610543456533,-0.2657237927363169,0.09451768906,-4.4248771874104325,0.43928634674589107,-0.6927646799997378, ,0.018621848814456592,-0.09947268507177229,0.007270110232770426,0.054187853084866344,-0.0013534950783238842,0.11060833058539288, ,0.9857840538024902
0.011501105379930016,0.024055329178948492,-0.08314943164173921, ,0.011717127122163828,0.024683103464482107,-0.08318903449513632, ,0.0006650821999513785, ,0.0026631479615913563,0.010863049830572812,-0.005121356233575018,0.022547759590266506,0.015129127873359934,-0.03241302135495806, ,0.012301483583617623, ,0.02715312080085514, ,7.076590174021481e-05, ,0.1816463999346347,-0.26667368887984655,0.09459287388000001,-4.42424811757998,0.43928634674589107,-0.691784535118051, ,0.019202133055133706,-0.10010225902792276,0.008177007967145792,0.08454092450881716,-0.0013646048029875195,0.09610598937796211, ,0.9918069839477539
0.011501105379930016,0.024055329178948492,-0.08314943164173921, ,0.011736696044983563,0.02476928410150234,-0.08322024479600955, ,0.0007551483931764401, ,0.0026631479615913563,0.010863049830572812,-0.005121356233575018,0.022547759590266506,0.015129127873359934,-0.03241302135495806, ,0.012301483583617623, ,0.02715312080085514, ,7.185596336261601e-05, ,0.1816463999346347,-0.26667368887984655,0.09459287388000001,-4.42424811757998,0.43928634674589107,-0.691784535118051, ,0.019202133055133706,-0.10010225902792276,0.008177007967145792,0.08454092450881716,-0.0013646048029875195,0.09610598937796211, ,0.9974820613861084
0.0115274104362069,0.02416281444747948,-0.0831967476737462, ,0.011756210713653226,0.02485539628573376,-0.08325162659371683, ,0.0007314580408310111, ,0.002682671643291942,0.011303993935677338,-0.004600487628640149,0.021043110778581425,0.00554222140740101,0.0044762654660327455, ,0.01249565894480254, ,0.021760715229688157, ,7.28856842223828e-05, ,0.18184719098936453,-0.267754871482238,0.09467583644000001,-4.423619047749526,0.4391497102461256,-0.6906929723326678, ,0.020888606990638513,-0.10783743358917133,0.007866079762962965,0.04872221266211886,0.0,0.09950199116646444, ,1.003744125366211
0.0115274104362069,0.02416281444747948,-0.0831967476737462, ,0.011775671951616981,0.024941439171585,-0.08328317908682054, ,0.0008218032794946333, ,0.002682671643291942,0.011303993935677338,-0.004600487628640149,0.021043110778581425,0.00554222140740101,0.0044762654660327455, ,0.01249565894480254, ,0.021760715229688157, ,7.408240292640558e-05, ,0.18184719098936453,-0.267754871482238,0.09467583644000001,-4.423619047749526,0.4391497102461256,-0.6906929723326678, ,0.020888606990638513,-0.10783743358917133,0.007866079762962965,0.04872221266211886,0.0,0.09950199116646444, ,1.0098321437835693
0.011557478762893812,0.02427492909674077,-0.08324173482951995, ,0.011795080579504482,0.025027411916805596,-0.08331490147612557, ,0.0007924887229007847, ,0.0028459205624717316,0.011409864795786649,-0.004752090707099632,-0.004865969851780218,-0.0022835904426283544,-0.006785791826178021, ,0.012683321512700591, ,0.005375169344746814, ,7.52071396406493e-05, ,0.18205570477696859,-0.26882833135175516,0.09475231755,-4.422989977919072,0.4387398007468293,-0.6892968949997513, ,0.020643232881981895,-0.10808307694586651,0.00801248064386318,0.06393750536345845,-0.01707107371533706,0.12588761710188498, ,1.0157301425933838
0.011589648438125032,0.02439574208203516,-0.08329551853002663, ,0.011814437415134379,0.025113313682481906,-0.08334679296467637, ,0.000753702961120136, ,0.003407316624084017,0.012345091590947495,-0.0058857851200323896,-0.030470332600403327,-0.01909411737370619,-0.028625619580636363, ,0.01409445137083514, ,0.03595867739498405, ,7.624259364495948e-05, ,0.18227194129744687,-0.26991723668702083,0.09483657640000001,-4.422151218145134,0.43846652774729844,-0.6879305568303905, ,0.021900978896485294,-0.11378530162886184,0.009287936746355686,0.08912308847977429,-0.04704224486700166,0.1524152735220929, ,1.0218160152435303
0.011589648438125032,0.02439574208203516,-0.08329551853002663, ,0.011833743273517766,0.025199143633033282,-0.08337885275775495, ,0.0008437896268162265, ,0.003407316624084017,0.012345091590947495,-0.0058857851200323896,-0.030470332600403327,-0.01909411737370619,-0.028625619580636363, ,0.01409445137083514, ,0.03595867739498405, ,7.744154461158979e-05, ,0.18227194129744687,-0.26991723668702083,0.09483657640000001,-4.422151218145134,0.43846652774729844,-0.6879305568303905, ,0.021900978896485294,-0.11378530162886184,0.009287936746355686,0.08912308847977429,-0.04704224486700166,0.1524152735220929, ,1.0277891159057617
0.01162021884125333,0.02452550306738441,-0.08335715870743214, ,0.011852998966861731,0.02528490093620723,-0.08341108006287792, ,0.0007961025201718749, ,0.0029703312152090638,0.012513878566594572,-0.005435834323162993,0.0008536170201102423,0.0015374250790059912,-0.015428285719616514, ,0.013963105639376838, ,0.0017585030976777223, ,7.853413741456867e-05, ,0.1824727323521767,-0.2711142602825256,0.09493509444,-4.4213124583711965,0.43832989124753297,-0.686348921604164, ,0.020203734630289714,-0.11730153468290579,0.009170300241796202,0.07638647191236744,-0.018243719858232282,0.13233559295061703, ,1.0337591171264648
0.01162021884125333,0.02452550306738441,-0.08335715870743214, ,0.011872205304572806,0.025370584763075937,-0.08344347408979354, ,0.0008860646676858957, ,0.0029703312152090638,0.012513878566594572,-0.005435834323162993,0.0008536170201102423,0.0015374250790059912,-0.015428285719616514, ,0.013963105639376838, ,0.0017585030976777223, ,7.978743655800257e-05, ,0.1824727323521767,-0.2711142602825256,0.09493509444,-4.4213124583711965,0.43832989124753297,-0.686348921604164, ,0.020203734630289714,-0.11730153468290579,0.009170300241796202,0.07638647191236744,-0.018243719858232282,0.13233559295061703, ,1.0393381118774414
0.011647955992417386,0.0246530373148932,-0.0834069468360608, ,0.011891363093260459,0.025456194288031433,-0.08347603405047925, ,0.0008420695834890952, ,0.0026697069595559694,0.012566662388098688,-0.004313278476447991,0.027439644446040353,0.0008533061852877342,-0.010535234546287579, ,0.01355185264241555, ,0.027452909085888152, ,8.094204819366367e-05, ,0.182688968872655,-0.27236534300815,0.09502583474000001,-4.420683388540742,0.43832989124753297,-0.6852054192421961, ,0.01984461345848406,-0.12135158767067875,0.007948508742514971,0.0657029243549797,-0.012550438340390201,0.10686348929846687, ,1.0457820892333984
0.011647955992417386,0.0246530373148932,-0.0834069468360608, ,0.011910473136740589,0.025541728688781976,-0.08350875915913922, ,0.0009322303139345723, ,0.0026697069595559694,0.012566662388098688,-0.004313278476447991,0.027439644446040353,0.0008533061852877342,-0.010535234546287579, ,0.01355185264241555, ,0.027452909085888152, ,8.241217456302863e-05, ,0.182688968872655,-0.27236534300815,0.09502583474000001,-4.420683388540742,0.43832989124753297,-0.6852054192421961, ,0.01984461345848406,-0.12135158767067875,0.007948508742514971,0.0657029243549797,-0.012550438340390201,0.10686348929846687, ,1.04960298538208
0.011678470548992157,0.024779141931992574,-0.08345490665487489, ,0.011929536236039035,0.025627187146347496,-0.08354164863220115, ,0.0008886725130401384, ,0.0032258379617647465,0.013443358018395095,-0.005626641956790427,-0.002764777906738928,0.0034225188862344238,-0.0009015460737997501, ,0.014926118218620159, ,0.0043997303054446055, ,8.378831175678165e-05, ,0.1829052053931333,-0.2735623666036548,0.09511009359000001,-4.419844628766804,0.43805661824800207,-0.6838390810728354, ,0.023425559505917248,-0.12636077437878931,0.009532502405745064,0.06906673230176835,-0.012620245258732137,0.14485442662015408, ,1.0542819499969482
0.011678470548992157,0.024779141931992574,-0.08345490665487489, ,0.01194855318939515,0.025712568845055645,-0.0835747016883145, ,0.0009790716443214484, ,0.0032258379617647465,0.013443358018395095,-0.005626641956790427,-0.002764777906738928,0.0034225188862344238,-0.0009015460737997501, ,0.014926118218620159, ,0.0043997303054446055, ,8.532523414467537e-05, ,0.1829052053931333,-0.2735623666036548,0.09511009359000001,-4.419844628766804,0.43805661824800207,-0.6838390810728354, ,0.023425559505917248,-0.12636077437878931,0.009532502405745064,0.06906673230176835,-0.012620245258732137,0.14485442662015408, ,1.0585579872131348
0.011715589843543227,0.024918144619061906,-0.0835194084330896, ,0.011967524792265063,0.02579787297253751,-0.08360791754834607, ,0.0009193623103977303, ,0.00392233150781548,0.014458593376466567,-0.006672033979228647,-0.06193879161458826,-0.027116523262903033,-0.02086103898530469, ,0.016399745251167365, ,0.0676144934708612, ,8.673789799771004e-05, ,0.18313688737936,-0.2748520629936503,0.09521379679000001,-4.419005868992866,0.43751007224894034,-0.6819231921355197, ,0.024226944487738267,-0.1338461799132169,0.010748185910931175,0.09628644893076131,-0.06247952289170954,0.2081401846779899, ,1.0626471042633057
0.011715589843543227,0.024918144619061906,-0.0835194084330896, ,0.011986451837325399,0.025883098719723323,-0.08364129543537946, ,0.0010096331399999442, ,0.00392233150781548,0.014458593376466567,-0.006672033979228647,-0.06193879161458826,-0.027116523262903033,-0.02086103898530469, ,0.016399745251167365, ,0.0676144934708612, ,8.830962232854561e-05, ,0.18313688737936,-0.2748520629936503,0.09521379679000001,-4.419005868992866,0.43751007224894034,-0.6819231921355197, ,0.024226944487738267,-0.1338461799132169,0.010748185910931175,0.09628644893076131,-0.06247952289170954,0.2081401846779899, ,1.0665559768676758
0.011715589843543227,0.024918144619061906,-0.0835194084330896, ,0.012005335114476648,0.025968245280838662,-0.083674834574711, ,0.0011003731218961967, ,0.00392233150781548,0.014458593376466567,-0.006672033979228647,-0.06193879161458826,-0.027116523262903033,-0.02086103898530469, ,0.016399745251167365, ,0.0676144934708612, ,9.003949850315067e-05, ,0.18313688737936,-0.2748520629936503,0.09521379679000001,-4.419005868992866,0.43751007224894034,-0.6819231921355197, ,0.024226944487738267,-0.1338461799132169,0.010748185910931175,0.09628644893076131,-0.06247952289170954,0.2081401846779899, ,1.070539951324463
0.0117541834866235,0.025075175131004702,-0.08359026689275378, ,0.012024175410846785,0.02605331185339984,-0.0837085341938473, ,0.0010215841822148772, ,0.004116961872984416,0.016038998769043324,-0.007889561454823432,-0.021701823318335745,-0.002166046422803977,-0.02534184897443781, ,0.01834241087006875, ,0.021809650659242424, ,9.160947086361444e-05, ,0.18340718302995787,-0.2762962140411303,0.09533046289000001,-4.417957419275444,0.43737343574917487,-0.6801781994290119, ,0.026448422953865878,-0.14577103157983223,0.012502991773940349,0.10602304631152717,-0.03295095933390624,0.18707006756173505, ,1.0744869709014893
0.0117541834866235,0.025075175131004702,-0.08359026689275378, ,0.012042973510794534,0.026138297638209827,-0.08374239352250312, ,0.0011121023580883682, ,0.004116961872984416,0.016038998769043324,-0.007889561454823432,-0.021701823318335745,-0.002166046422803977,-0.02534184897443781, ,0.01834241087006875, ,0.021809650659242424, ,9.333601996465744e-05, ,0.18340718302995787,-0.2762962140411303,0.09533046289000001,-4.417957419275444,0.43737343574917487,-0.6801781994290119, ,0.026448422953865878,-0.14577103157983223,0.012502991773940349,0.10602304631152717,-0.03295095933390624,0.18707006756173505, ,1.078416109085083
0.011795694688399257,0.025239463615405865,-0.08368015546068906, ,0.012061730195913181,0.026223201839354497,-0.08377641179259773, ,0.0010236117750144886, ,0.004331530740229772,0.017501225083179434,-0.010474039413116344,-0.012112252982802435,0.034824672029244025,-0.02907552715842357, ,0.020850912200505257, ,0.03687091439340285, ,9.488590836296332e-05, ,0.1836697559476815,-0.2777558105543587,0.09546786963000001,-4.416908969558021,0.43723679924940945,-0.6782698492422232, ,0.026128012543631823,-0.15159255840011304,0.01554030392195122,0.12455439693063568,0.0,0.19478262956906783, ,1.082158088684082
0.011795694688399257,0.025239463615405865,-0.08368015546068906, ,0.012080446245033686,0.026308023664197665,-0.08381058823825302, ,0.0011135154854525885, ,0.004331530740229772,0.017501225083179434,-0.010474039413116344,-0.012112252982802435,0.034824672029244025,-0.02907552715842357, ,0.020850912200505257, ,0.03687091439340285, ,9.659023247500514e-05, ,0.1836697559476815,-0.2777558105543587,0.09546786963000001,-4.416908969558021,0.43723679924940945,-0.6782698492422232, ,0.026128012543631823,-0.15159255840011304,0.01554030392195122,0.12455439693063568,0.0,0.19478262956906783, ,1.0864930152893066
0.011795694688399257,0.025239463615405865,-0.08368015546068906, ,0.012099122434228577,0.026392762323377842,-0.0838449220957909, ,0.0012038747238777286, ,0.004331530740229772,0.017501225083179434,-0.010474039413116344,-0.012112252982802435,0.034824672029244025,-0.02907552715842357, ,0.020850912200505257, ,0.03687091439340285, ,9.844812633332815e-05, ,0.1836697559476815,-0.2777558105543587,0.09546786963000001,-4.416908969558021,0.43723679924940945,-0.6782698492422232, ,0.026128012543631823,-0.15159255840011304,0.01554030392195122,0.12455439693063568,0.0,0.19478262956906783, ,1.0903761386871338
0.011845215999350017,0.025430806894904453,-0.08379973584912287, ,0.012117759536815091,0.026477417030803082,-0.08387941260372941, ,0.0010844450846420738, ,0.004801256685841301,0.01870317010417967,-0.011795920417243005,-0.06077790504944002,0.01913958980346928,0.0028847610357605503, ,0.02262751369901577, ,0.06372030611714945, ,0.00010007367364463845, ,0.18393232886540514,-0.27940847538944275,0.09564157249,-4.415650829897114,0.43682688975011313,-0.6756485908071981, ,0.027230112355371816,-0.16111535069349878,0.017164667586206897,0.1043693134835692,-0.018124901614472264,0.24817169318021187, ,1.094292163848877
0.011845215999350017,0.025430806894904453,-0.08379973584912287, ,0.012136358323358873,0.026561987003647636,-0.08391405900278204, ,0.0011736277411121875, ,0.004801256685841301,0.01870317010417967,-0.011795920417243005,-0.06077790504944002,0.01913958980346928,0.0028847610357605503, ,0.02262751369901577, ,0.06372030611714945, ,0.00010185009772095762, ,0.18393232886540514,-0.27940847538944275,0.09564157249,-4.415650829897114,0.43682688975011313,-0.6756485908071981, ,0.027230112355371816,-0.16111535069349878,0.017164667586206897,0.1043693134835692,-0.018124901614472264,0.24817169318021187, ,1.0981040000915527
0.011845215999350017,0.025430806894904453,-0.08379973584912287, ,0.012154919561677469,0.02664647146234725,-0.0839488605358531, ,0.001263326881391583, ,0.004801256685841301,0.01870317010417967,-0.011795920417243005,-0.06077790504944002,0.01913958980346928,0.0028847610357605503, ,0.02262751369901577, ,0.06372030611714945, ,0.00010377669169541156, ,0.18419490178312878,-0.2809066855670423,0.09580360874,-4.414812070123176,0.43669025325034766,-0.6733318469197065, ,0.025766207319704255,-0.1650381592321231,0.017639879867109635,0.07937071700177989,-0.04129463101852394,0.25721071285804514, ,1.1020281314849854
0.01189367703952877,0.025619229493406982,-0.08392044847011318, ,0.012173444016843678,0.026730869630595275,-0.08398381644803604, ,0.0011480543788645024, ,0.004900360939213006,0.01925467713014241,-0.012215251617664222,-0.07416768367084106,-0.005920237364724134,0.023338246720565232, ,0.023323132311150706, ,0.07440359023318836, ,0.000105480497846632, ,0.18419490178312878,-0.2809066855670423,0.09580360874,-4.414812070123176,0.43669025325034766,-0.6733318469197065, ,0.025766207319704255,-0.1650381592321231,0.017639879867109635,0.07937071700177989,-0.04129463101852394,0.25721071285804514, ,1.106274127960205
0.01189367703952877,0.025619229493406982,-0.08392044847011318, ,0.01219193245118917,0.026815180735338322,-0.08401892598661047, ,0.001236508586673503, ,0.004900360939213006,0.01925467713014241,-0.012215251617664222,-0.07416768367084106,-0.005920237364724134,0.023338246720565232, ,0.023323132311150706, ,0.07440359023318836, ,0.000107525756596771, ,0.18419490178312878,-0.2809066855670423,0.09580360874,-4.414812070123176,0.43669025325034766,-0.6733318469197065, ,0.025766207319704255,-0.1650381592321231,0.017639879867109635,0.07937071700177989,-0.04129463101852394,0.25721071285804514, ,1.1085691452026367
0.01189367703952877,0.025619229493406982,-0.08392044847011318, ,0.012210385624307993,0.02689940400677214,-0.08405418840104033, ,0.001325532904709263, ,0.004900360939213006,0.01925467713014241,-0.012215251617664222,-0.07416768367084106,-0.005920237364724134,0.023338246720565232, ,0.023323132311150706, ,0.07440359023318836, ,0.00010972432545617984, ,0.18419490178312878,-0.2809066855670423,0.09580360874,-4.414812070123176,0.43669025325034766,-0.6733318469197065, ,0.025766207319704255,-0.1650381592321231,0.017639879867109635,0.07937071700177989,-0.04129463101852394,0.25721071285804514, ,1.1105880737304688
0.011941344971842117,0.025821843848540204,-0.08403752135047585, ,0.012228804293059909,0.02698353867833752,-0.08408960294296938, ,0.0011978648635006667, ,0.0051255997658224885,0.020394058605692534,-0.011391770151270667,-0.027646869185711295,0.00501959676629723,-0.0056519141368470555, ,0.023915723416848642, ,0.028098852923573014, ,0.00011168493903824198, ,0.18449608836522355,-0.2827987551212273,0.09599286708000002,-4.413763620405753,0.43669025325034766,-0.6710448421957708, ,0.030691119520850834,-0.1793893035131773,0.01733276552774755,0.10772852020871022,-0.028433048323926725,0.23005359663328412, ,1.112555980682373
0.011941344971842117,0.025821843848540204,-0.08403752135047585, ,0.012247189211574049,0.02706758398671593,-0.0841251688662204, ,0.0012857259730811512, ,0.0051255997658224885,0.020394058605692534,-0.011391770151270667,-0.027646869185711295,0.00501959676629723,-0.0056519141368470555, ,0.023915723416848642, ,0.028098852923573014, ,0.00011379652363184434, ,0.18449608836522355,-0.2827987551212273,0.09599286708000002,-4.413763620405753,0.43669025325034766,-0.6710448421957708, ,0.030691119520850834,-0.1793893035131773,0.01733276552774755,0.10772852020871022,-0.028433048323926725,0.23005359663328412, ,1.1144890785217285
0.011941344971842117,0.025821843848540204,-0.08403752135047585, ,0.012265541131252385,0.02715153917182541,-0.08416088542679148, ,0.001374194854403162, ,0.0051255997658224885,0.020394058605692534,-0.011391770151270667,-0.027646869185711295,0.00501959676629723,-0.0056519141368470555, ,0.023915723416848642, ,0.028098852923573014, ,0.00011605935725980004, ,0.18449608836522355,-0.2827987551212273,0.09599286708000002,-4.413763620405753,0.43669025325034766,-0.6710448421957708, ,0.030691119520850834,-0.1793893035131773,0.01733276552774755,0.10772852020871022,-0.028433048323926725,0.23005359663328412, ,1.1164741516113281
0.011941344971842117,0.025821843848540204,-0.08403752135047585, ,0.012283860800773106,0.027235403476816553,-0.0841967518828535, ,0.00146315490574386, ,0.0051255997658224885,0.020394058605692534,-0.011391770151270667,-0.027646869185711295,0.00501959676629723,-0.0056519141368470555, ,0.023915723416848642, ,0.028098852923573014, ,0.0006481197735240439, ,0.18449608836522355,-0.2827987551212273,0.09599286708000002,-4.413763620405753,0.43669025325034766,-0.6710448421957708, ,0.030691119520850834,-0.1793893035131773,0.01733276552774755,0.10772852020871022,-0.028433048323926725,0.23005359663328412, ,1.1185710430145264
0.011941344971842117,0.025821843848540204,-0.08403752135047585, ,0.012302148966094257,0.02731917614806824,-0.08423276749474766, ,0.001552515569754848, ,0.0051255997658224885,0.020394058605692534,-0.011391770151270667,-0.027646869185711295,0.00501959676629723,-0.0056519141368470555, ,0.023915723416848642, ,0.028098852923573014, ,0.0006569003152350226, ,0.18449608836522355,-0.2827987551212273,0.09599286708000002,-4.413763620405753,0.43669025325034766,-0.6710448421957708, ,0.030691119520850834,-0.1793893035131773,0.01733276552774755,0.10772852020871022,-0.028433048323926725,0.23005359663328412, ,1.1205329895019531
0.011941344971842117,0.025821843848540204,-0.08403752135047585, ,0.012320406370457124,0.02740285643518323,-0.0842689315249825, ,0.0016422055327847463, ,0.0051255997658224885,0.020394058605692534,-0.011391770151270667,-0.027646869185711295,0.00501959676629723,-0.0056519141368470555, ,0.023915723416848642, ,0.028098852923573014, ,0.0006663744038653083, ,0.18449608836522355,-0.2827987551212273,0.09599286708000002,-4.413763620405753,0.43669025325034766,-0.6710448421957708, ,0.030691119520850834,-0.1793893035131773,0.01733276552774755,0.10772852020871022,-0.028433048323926725,0.23005359663328412, ,1.1224780082702637
0.01199723410943872,0.026054827523039784,-0.08416114216273862, ,0.012338633754389792,0.02748644359098434,-0.08430524323823153, ,0.0014787979589950633, ,0.005587912842924371,0.023909397692420044,-0.012594090513621495,-0.020499194990378555,0.041318952103452336,-0.057886188841293235, ,0.02759520218841875, ,0.046124532315735114, ,0.0006741117710570203, ,0.1848281658788152,-0.28484527933289683,0.09618471800000002,-4.412086100857877,0.43641698025081677,-0.6682899654440205, ,0.03336741967597425,-0.20902410034905458,0.01964095131935882,0.18665313327792585,-0.016732563432000587,0.27129351948515773, ,1.1245250701904297
0.01199723410943872,0.026054827523039784,-0.08416114216273862, ,0.012356831855710565,0.027569936871509982,-0.08434170190133032, ,0.001567631556248432, ,0.005587912842924371,0.023909397692420044,-0.012594090513621495,-0.020499194990378555,0.041318952103452336,-0.057886188841293235, ,0.02759520218841875, ,0.046124532315735114, ,0.0006825412029927884, ,0.1848281658788152,-0.28484527933289683,0.09618471800000002,-4.412086100857877,0.43641698025081677,-0.6682899654440205, ,0.03336741967597425,-0.20902410034905458,0.01964095131935882,0.18665313327792585,-0.016732563432000587,0.27129351948515773, ,1.1264331340789795
0.01199723410943872,0.026054827523039784,-0.08416114216273862, ,0.012375001409531615,0.027653335536010255,-0.08437830678327399, ,0.0016568332664944133, ,0.005587912842924371,0.023909397692420044,-0.012594090513621495,-0.020499194990378555,0.041318952103452336,-0.057886188841293235, ,0.02759520218841875, ,0.046124532315735114, ,0.0006916467362965419, ,0.1848281658788152,-0.28484527933289683,0.09618471800000002,-4.412086100857877,0.43641698025081677,-0.6682899654440205, ,0.03336741967597425,-0.20902410034905458,0.01964095131935882,0.18665313327792585,-0.016732563432000587,0.27129351948515773, ,1.1283619403839111
0.01199723410943872,0.026054827523039784,-0.08416114216273862, ,0.012393143148262266,0.027736638846942538,-0.08441505715521416, ,0.0017463407799262925, ,0.005587912842924371,0.023909397692420044,-0.012594090513621495,-0.020499194990378555,0.041318952103452336,-0.057886188841293235, ,0.02759520218841875, ,0.046124532315735114, ,0.0007014124218857063, ,0.1848281658788152,-0.28484527933289683,0.09618471800000002,-4.412086100857877,0.43641698025081677,-0.6682899654440205, ,0.03336741967597425,-0.20902410034905458,0.01964095131935882,0.18665313327792585,-0.016732563432000587,0.27129351948515773, ,1.130298137664795
0.012059737172537381,0.026284156363648923,-0.08429389628524976, ,0.01241125780161257,0.027819846069967326,-0.08445195229045703, ,0.0015833165594851205, ,0.007620980121748942,0.026492905196378036,-0.01659326561708428,-0.17666124573586808,-0.053354049453897115,-0.057414730970568074, ,0.03217591999616294, ,0.18454226908797727, ,0.0007095032855334074, ,0.1851525206595326,-0.2868300216815725,0.09638305037000001,-4.410408581310001,0.4354605247524587,-0.664814641693507, ,0.03616499297197819,-0.2254084122528997,0.02406164882175227,0.19680191494291704,-0.14402496443771456,0.4237111632661519, ,1.1325390338897705
0.012059737172537381,0.026284156363648923,-0.08429389628524976, ,0.012429346096596919,0.027902956473944265,-0.08448899146445976, ,0.0016718811808222628, ,0.007620980121748942,0.026492905196378036,-0.01659326561708428,-0.17666124573586808,-0.053354049453897115,-0.057414730970568074, ,0.03217591999616294, ,0.18454226908797727, ,0.0007182521754905788, ,0.1851525206595326,-0.2868300216815725,0.09638305037000001,-4.410408581310001,0.4354605247524587,-0.664814641693507, ,0.03616499297197819,-0.2254084122528997,0.02406164882175227,0.19680191494291704,-0.14402496443771456,0.4237111632661519, ,1.1344959735870361
0.012059737172537381,0.026284156363648923,-0.08429389628524976, ,0.01244740875753736,0.027985969330927635,-0.08452617395482856, ,0.0017607979864820748, ,0.007620980121748942,0.026492905196378036,-0.01659326561708428,-0.17666124573586808,-0.053354049453897115,-0.057414730970568074, ,0.03217591999616294, ,0.18454226908797727, ,0.0007276444800941058, ,0.1851525206595326,-0.2868300216815725,0.09638305037000001,-4.410408581310001,0.4354605247524587,-0.664814641693507, ,0.03616499297197819,-0.2254084122528997,0.02406164882175227,0.19680191494291704,-0.14402496443771456,0.4237111632661519, ,1.1363999843597412
0.012059737172537381,0.026284156363648923,-0.08429389628524976, ,0.012465446506067238,0.0280688839161626,-0.08456349904131541, ,0.0018500103097261091, ,0.007620980121748942,0.026492905196378036,-0.01659326561708428,-0.17666124573586808,-0.053354049453897115,-0.057414730970568074, ,0.03217591999616294, ,0.18454226908797727, ,0.0007376656035729629, ,0.1851525206595326,-0.2868300216815725,0.09638305037000001,-4.410408581310001,0.4354605247524587,-0.664814641693507, ,0.03616499297197819,-0.2254084122528997,0.02406164882175227,0.19680191494291704,-0.14402496443771456,0.4237111632661519, ,1.1382689476013184
0.012059737172537381,0.026284156363648923,-0.08429389628524976, ,0.012483460061134486,0.028151699508080618,-0.08460096600581564, ,0.0019394716538076301, ,0.007620980121748942,0.026492905196378036,-0.01659326561708428,-0.17666124573586808,-0.053354049453897115,-0.057414730970568074, ,0.03217591999616294, ,0.18454226908797727, ,0.0007483010553449511, ,0.1851525206595326,-0.2868300216815725,0.09638305037000001,-4.410408581310001,0.4354605247524587,-0.664814641693507, ,0.03616499297197819,-0.2254084122528997,0.02406164882175227,0.19680191494291704,-0.14402496443771456,0.4237111632661519, ,1.1401569843292236
0.012143120681919233,0.02657653028971801,-0.08448254140168286, ,0.01250145013900537,0.02823441538829552,-0.08463857413236565, ,0.0017033288622416195, ,0.008407356346611128,0.030544727548773843,-0.02084084085484145,-0.10637030017045682,0.00841622793114423,-0.08043443454147688, ,0.037921032017925814, ,0.10670271655061064, ,0.0007566784922475534, ,0.18553093457036962,-0.2891005051465945,0.09663453063,-4.408311681875156,0.43423079625456973,-0.6607897671750385, ,0.041331420539403654,-0.2510501099430444,0.02949779911111111,0.2377761857006438,-0.08173379523197132,0.39791202609977355, ,1.1425890922546387
0.012143120681919233,0.02657653028971801,-0.08448254140168286, ,0.012519417453267782,0.02831703084159924,-0.08467632270713962, ,0.0017912265701386682, ,0.008407356346611128,0.030544727548773843,-0.02084084085484145,-0.10637030017045682,0.00841622793114423,-0.08043443454147688, ,0.037921032017925814, ,0.10670271655061064, ,0.0007656745624900848, ,0.18553093457036962,-0.2891005051465945,0.09663453063,-4.408311681875156,0.43423079625456973,-0.6607897671750385, ,0.041331420539403654,-0.2510501099430444,0.02949779911111111,0.2377761857006438,-0.08173379523197132,0.39791202609977355, ,1.144516944885254
0.012143120681919233,0.02657653028971801,-0.08448254140168286, ,0.012537362714834861,0.02839954515595758,-0.08471421101844682, ,0.001879489503663023, ,0.008407356346611128,0.030544727548773843,-0.02084084085484145,-0.10637030017045682,0.00841622793114423,-0.08043443454147688, ,0.037921032017925814, ,0.10670271655061064, ,0.0007752764154312308, ,0.18553093457036962,-0.2891005051465945,0.09663453063,-4.408311681875156,0.43423079625456973,-0.6607897671750385, ,0.041331420539403654,-0.2510501099430444,0.02949779911111111,0.2377761857006438,-0.08173379523197132,0.39791202609977355, ,1.1464331150054932
0.012143120681919233,0.02657653028971801,-0.08448254140168286, ,0.012555286631948376,0.02848195762250617,-0.08475223835672949, ,0.0019680626358073686, ,0.008407356346611128,0.030544727548773843,-0.02084084085484145,-0.10637030017045682,0.00841622793114423,-0.08043443454147688, ,0.037921032017925814, ,0.10670271655061064, ,0.0007854711694515398, ,0.18553093457036962,-0.2891005051465945,0.09663453063,-4.408311681875156,0.43423079625456973,-0.6607897671750385, ,0.041331420539403654,-0.2510501099430444,0.02949779911111111,0.2377761857006438,-0.08173379523197132,0.39791202609977355, ,1.1484971046447754
0.012143120681919233,0.02657653028971801,-0.08448254140168286, ,0.012573189910182333,0.02856426753554628,-0.08479040401455949, ,0.002056900164801148, ,0.008407356346611128,0.030544727548773843,-0.02084084085484145,-0.10637030017045682,0.00841622793114423,-0.08043443454147688, ,0.037921032017925814, ,0.10670271655061064, ,0.0007962459914460279, ,0.18553093457036962,-0.2891005051465945,0.09663453063,-4.408311681875156,0.43423079625456973,-0.6607897671750385, ,0.041331420539403654,-0.2510501099430444,0.02949779911111111,0.2377761857006438,-0.08173379523197132,0.39791202609977355, ,1.1506521701812744
0.01221271807900971,0.02683660379595764,-0.08467019197480252, ,0.01259107325244639,0.02864647419254055,-0.08482870728663645, ,0.0018557776250885478, ,0.008339376171549675,0.03209160624834832,-0.024073522814896754,-0.04609894667655044,0.054981143754123184,-0.033579564946345564, ,0.037921032017925814, ,0.07174978026349564, ,0.0008051496186194945, ,0.18589390301545816,-0.29137098861161653,0.09691841814,-4.40621478244031,0.43382088675527347,-0.6574334000787484, ,0.040024015840772156,-0.25509930526470637,0.03346388974789917,0.19789666991571295,-0.012353265424235907,0.3500898136928317, ,1.153120994567871
0.01221271807900971,0.02683660379595764,-0.08467019197480252, ,0.012608937358989327,0.028728576894108668,-0.08486714746978415, ,0.0019430242893382003, ,0.008339376171549675,0.03209160624834832,-0.024073522814896754,-0.04609894667655044,0.054981143754123184,-0.033579564946345564, ,0.040975003200109626, ,0.07174978026349564, ,0.0008146319075421504, ,0.18589390301545816,-0.29137098861161653,0.09691841814,-4.40621478244031,0.43382088675527347,-0.6574334000787484, ,0.040024015840772156,-0.25509930526470637,0.03346388974789917,0.19789666991571295,-0.012353265424235907,0.3500898136928317, ,1.15529203414917
0.01221271807900971,0.02683660379595764,-0.08467019197480252, ,0.01262678292740264,0.028810574944023636,-0.08490572386294862, ,0.0020306371075121494, ,0.008339376171549675,0.03209160624834832,-0.024073522814896754,-0.04609894667655044,0.054981143754123184,-0.033579564946345564, ,0.040975003200109626, ,0.07174978026349564, ,0.0008246815372939686, ,0.18589390301545816,-0.29137098861161653,0.09691841814,-4.40621478244031,0.43382088675527347,-0.6574334000787484, ,0.040024015840772156,-0.25509930526470637,0.03346388974789917,0.19789666991571295,-0.012353265424235907,0.3500898136928317, ,1.1571810245513916
0.01221271807900971,0.02683660379595764,-0.08467019197480252, ,0.012644610652623957,0.028892467649207148,-0.0849444357671945, ,0.002118564852891359, ,0.008339376171549675,0.03209160624834832,-0.024073522814896754,-0.04609894667655044,0.054981143754123184,-0.033579564946345564, ,0.040975003200109626, ,0.07174978026349564, ,0.0008352871382414881, ,0.18589390301545816,-0.29137098861161653,0.09691841814,-4.40621478244031,0.43382088675527347,-0.6574334000787484, ,0.040024015840772156,-0.25509930526470637,0.03346388974789917,0.19789666991571295,-0.012353265424235907,0.3500898136928317, ,1.159127950668335
0.01221271807900971,0.02683660379595764,-0.08467019197480252, ,0.012662421226940529,0.0289742543197257,-0.08498328248570372, ,0.002206764226427716, ,0.008339376171549675,0.03209160624834832,-0.024073522814896754,-0.04609894667655044,0.054981143754123184,-0.033579564946345564, ,0.040975003200109626, ,0.07174978026349564, ,0.0008464373584706445, ,0.18589390301545816,-0.29137098861161653,0.09691841814,-4.40621478244031,0.43382088675527347,-0.6574334000787484, ,0.040024015840772156,-0.25509930526470637,0.03346388974789917,0.19789666991571295,-0.012353265424235907,0.3500898136928317, ,1.1614530086517334
0.012315507690327222,0.027239468133126752,-0.08497199357960265, ,0.01268021533999274,0.02905593426878618,-0.08502226332377166, ,0.0018533990231196457, ,0.008634118740354395,0.0356595113751206,-0.02636956747103311,-0.047399714771566105,0.05556441190612654,0.03369499774297115, ,0.04518299289051426, ,0.07303508801088164, ,0.0008545580170565236, ,0.18638043518653433,-0.2945759227544197,0.0973384161,-4.4041178830054655,0.433684250255508,-0.6529930089476021, ,0.039973437893205885,-0.2849758004758882,0.036872248888888896,0.14574675123671899,0.0,0.37623443651513105, ,1.1633751392364502
0.012315507690327222,0.027239468133126752,-0.08497199357960265, ,0.012697993678777653,0.029137506812732004,-0.08506137758880514, ,0.0019382558813891577, ,0.008634118740354395,0.0356595113751206,-0.02636956747103311,-0.047399714771566105,0.05556441190612654,0.03369499774297115, ,0.04518299289051426, ,0.07303508801088164, ,0.0008632275999711845, ,0.18638043518653433,-0.2945759227544197,0.0973384161,-4.4041178830054655,0.433684250255508,-0.6529930089476021, ,0.039973437893205885,-0.2849758004758882,0.036872248888888896,0.14574675123671899,0.0,0.37623443651513105, ,1.1653900146484375
0.012315507690327222,0.027239468133126752,-0.08497199357960265, ,0.012715756927652394,0.029218971271038497,-0.08510062459031897, ,0.0020236546300937143, ,0.008634118740354395,0.0356595113751206,-0.02636956747103311,-0.047399714771566105,0.05556441190612654,0.03369499774297115, ,0.04518299289051426, ,0.07303508801088164, ,0.0008724373383054904, ,0.18638043518653433,-0.2945759227544197,0.0973384161,-4.4041178830054655,0.433684250255508,-0.6529930089476021, ,0.039973437893205885,-0.2849758004758882,0.036872248888888896,0.14574675123671899,0.0,0.37623443651513105, ,1.1673800945281982
0.012315507690327222,0.027239468133126752,-0.08497199357960265, ,0.012733505768337715,0.029300326966309125,-0.08514000363993425, ,0.0021095233831126175, ,0.008634118740354395,0.0356595113751206,-0.02636956747103311,-0.047399714771566105,0.05556441190612654,0.03369499774297115, ,0.04518299289051426, ,0.07303508801088164, ,0.0008821781733039716, ,0.18638043518653433,-0.2945759227544197,0.0973384161,-4.4041178830054655,0.433684250255508,-0.6529930089476021, ,0.039973437893205885,-0.2849758004758882,0.036872248888888896,0.14574675123671899,0.0,0.37623443651513105, ,1.1694531440734863
0.012315507690327222,0.027239468133126752,-0.08497199357960265, ,0.012751240879921502,0.02938157322427119,-0.08517951405137517, ,0.0021958010793843804, ,0.008634118740354395,0.0356595113751206,-0.02636956747103311,-0.047399714771566105,0.05556441190612654,0.03369499774297115, ,0.04518299289051426, ,0.07303508801088164, ,0.0008924408522577249, ,0.18638043518653433,-0.2945759227544197,0.0973384161,-4.4041178830054655,0.433684250255508,-0.6529930089476021, ,0.039973437893205885,-0.2849758004758882,0.036872248888888896,0.14574675123671899,0.0,0.37623443651513105, ,1.171515941619873
0.012406623051409625,0.02760737923458116,-0.08522995104825483, ,0.012768962938862191,0.029462709373771503,-0.08521915514046614, ,0.0018904117728823458, ,0.008919058889943812,0.03717516649056641,-0.024505239305167195,-0.04703818786712064,0.04353743856741679,0.019055029034107038, ,0.04540979375076624, ,0.06409439006683773, ,0.0009001770609447375, ,0.1868206309603651,-0.29755689764387033,0.09770526617000001,-4.402650053401073,0.4334109772559771,-0.6488495936134623, ,0.0451245561381221,-0.3041568639694576,0.03563492510067114,0.1656948855277765,-0.017319565979774673,0.39516036447782604, ,1.1735291481018066
0.012406623051409625,0.02760737923458116,-0.08522995104825483, ,0.012786672618992348,0.029543734746772427,-0.08525892622512941, ,0.0019735120735096165, ,0.008919058889943812,0.03717516649056641,-0.024505239305167195,-0.04703818786712064,0.04353743856741679,0.019055029034107038, ,0.04540979375076624, ,0.06409439006683773, ,0.0009084334841183134, ,0.1868206309603651,-0.29755689764387033,0.09770526617000001,-4.402650053401073,0.4334109772559771,-0.6488495936134623, ,0.0451245561381221,-0.3041568639694576,0.03563492510067114,0.1656948855277765,-0.017319565979774673,0.39516036447782604, ,1.1754541397094727
0.012406623051409625,0.02760737923458116,-0.08522995104825483, ,0.012804370591522127,0.029624648678347475,-0.08529882662538278, ,0.0020572610333993856, ,0.008919058889943812,0.03717516649056641,-0.024505239305167195,-0.04703818786712064,0.04353743856741679,0.019055029034107038, ,0.04540979375076624, ,0.06409439006683773, ,0.0009172031600670239, ,0.1868206309603651,-0.29755689764387033,0.09770526617000001,-4.402650053401073,0.4334109772559771,-0.6488495936134623, ,0.0451245561381221,-0.3041568639694576,0.03563492510067114,0.1656948855277765,-0.017319565979774673,0.39516036447782604, ,1.1773929595947266
0.012406623051409625,0.02760737923458116,-0.08522995104825483, ,0.012822057525042698,0.029705450506677333,-0.0853388556633355, ,0.0021415763072708633, ,0.008919058889943812,0.03717516649056641,-0.024505239305167195,-0.04703818786712064,0.04353743856741679,0.019055029034107038, ,0.04540979375076624, ,0.06409439006683773, ,0.0009264787142125076, ,0.1868206309603651,-0.29755689764387033,0.09770526617000001,-4.402650053401073,0.4334109772559771,-0.6488495936134623, ,0.0451245561381221,-0.3041568639694576,0.03563492510067114,0.1656948855277765,-0.017319565979774673,0.39516036447782604, ,1.1794321537017822
0.012406623051409625,0.02760737923458116,-0.08522995104825483, ,0.012839734085529856,0.029786139573045628,-0.0853790126631875, ,0.0022263874652424785, ,0.008919058889943812,0.03717516649056641,-0.024505239305167195,-0.04703818786712064,0.04353743856741679,0.019055029034107038, ,0.04540979375076624, ,0.06409439006683773, ,0.0009362524642202517, ,0.1868206309603651,-0.29755689764387033,0.09770526617000001,-4.402650053401073,0.4334109772559771,-0.6488495936134623, ,0.0451245561381221,-0.3041568639694576,0.03563492510067114,0.1656948855277765,-0.017319565979774673,0.39516036447782604, ,1.1815299987792969
0.01249884740067097,0.02799054180564503,-0.08545899036818447, ,0.012857400936347465,0.029866715221834608,-0.08541929695122516, ,0.0019105399480022632, ,0.009227145977608982,0.03891723797447307,-0.02160367384957177,-0.024646289741712683,0.013756553250569906,-0.0028504958711761553, ,0.04545778655249885, ,0.028225478729658873, ,0.000943523266338028, ,0.1873148858643155,-0.3007541090537993,0.09805007931000001,-4.400762843909713,0.4330010677566808,-0.6449214753361883, ,0.05151842647039673,-0.3295032693002457,0.03346388974789917,0.18240591908104606,-0.0487685937485006,0.3927072890631519, ,1.1834659576416016
0.01249884740067097,0.02799054180564503,-0.08545899036818447, ,0.0128750587382509,0.029947176800521242,-0.08545970785581931, ,0.001992474840113776, ,0.009227145977608982,0.03891723797447307,-0.02160367384957177,-0.024646289741712683,0.013756553250569906,-0.0028504958711761553, ,0.04545778655249885, ,0.028225478729658873, ,0.0009512932779956261, ,0.1873148858643155,-0.3007541090537993,0.09805007931000001,-4.400762843909713,0.4330010677566808,-0.6449214753361883, ,0.05151842647039673,-0.3295032693002457,0.03346388974789917,0.18240591908104606,-0.0487685937485006,0.3927072890631519, ,1.1854400634765625
0.01249884740067097,0.02799054180564503,-0.08545899036818447, ,0.012892708149390595,0.030027523659672747,-0.08550024470742273, ,0.002075120064845927, ,0.009227145977608982,0.03891723797447307,-0.02160367384957177,-0.024646289741712683,0.013756553250569906,-0.0028504958711761553, ,0.04545778655249885, ,0.028225478729658873, ,0.0009595567102518782, ,0.1873148858643155,-0.3007541090537993,0.09805007931000001,-4.400762843909713,0.4330010677566808,-0.6449214753361883, ,0.05151842647039673,-0.3295032693002457,0.03346388974789917,0.18240591908104606,-0.0487685937485006,0.3927072890631519, ,1.1873950958251953
0.01249884740067097,0.02799054180564503,-0.08545899036818447, ,0.012910349825315519,0.030107755152942478,-0.08554090683856702, ,0.002158387572143321, ,0.009227145977608982,0.03891723797447307,-0.02160367384957177,-0.024646289741712683,0.013756553250569906,-0.0028504958711761553, ,0.04545778655249885, ,0.028225478729658873, ,0.0009683073004846625, ,0.1873148858643155,-0.3007541090537993,0.09805007931000001,-4.400762843909713,0.4330010677566808,-0.6449214753361883, ,0.05151842647039673,-0.3295032693002457,0.03346388974789917,0.18240591908104606,-0.0487685937485006,0.3927072890631519, ,1.1893880367279053
0.01249884740067097,0.02799054180564503,-0.08545899036818447, ,0.01292798441897671,0.030187870637066096,-0.08558169358385993, ,0.0022422017422639978, ,0.009227145977608982,0.03891723797447307,-0.02160367384957177,-0.024646289741712683,0.013756553250569906,-0.0028504958711761553, ,0.04545778655249885, ,0.028225478729658873, ,0.000977538419627991, ,0.1873148858643155,-0.3007541090537993,0.09805007931000001,-4.400762843909713,0.4330010677566808,-0.6449214753361883, ,0.05151842647039673,-0.3295032693002457,0.03346388974789917,0.18240591908104606,-0.0487685937485006,0.3927072890631519, ,1.1912970542907715
0.01249884740067097,0.02799054180564503,-0.08545899036818447, ,0.012945612580730652,0.030267869471856806,-0.08562260427998297, ,0.0023264973538651063, ,0.009227145977608982,0.03891723797447307,-0.02160367384957177,-0.024646289741712683,0.013756553250569906,-0.0028504958711761553, ,0.04545778655249885, ,0.028225478729658873, ,0.000987243160162071, ,0.18787092263125965,-0.3042370615800746,0.09838711471000001,-4.398875634418352,0.4327277947571499,-0.6411864537027513, ,0.0565536004520088,-0.35541925677329883,0.032375633170731714,0.1700197927282904,-0.022057358842228644,0.3514974906049929, ,1.1932859420776367
0.012592243076155692,0.02839807665125206,-0.08566998747627151, ,0.012963234958342933,0.030347751020201624,-0.0856636382656888, ,0.001984667587799714, ,0.009079429717883104,0.041008032892072825,-0.01956153312948244,0.04397764944612588,0.024095714573014498,0.01000294820266251, ,0.04633301613380187, ,0.050146128936511804, ,0.0009943676203594829, ,0.18787092263125965,-0.3042370615800746,0.09838711471000001,-4.398875634418352,0.4327277947571499,-0.6411864537027513, ,0.0565536004520088,-0.35541925677329883,0.032375633170731714,0.1700197927282904,-0.022057358842228644,0.3514974906049929, ,1.1954431533813477
0.012592243076155692,0.02839807665125206,-0.08566998747627151, ,0.012980852196991592,0.030427514648057156,-0.08570479488179811, ,0.002066602813109627, ,0.009079429717883104,0.041008032892072825,-0.01956153312948244,0.04397764944612588,0.024095714573014498,0.01000294820266251, ,0.04633301613380187, ,0.050146128936511804, ,0.0010019721252726044, ,0.18787092263125965,-0.3042370615800746,0.09838711471000001,-4.398875634418352,0.4327277947571499,-0.6411864537027513, ,0.0565536004520088,-0.35541925677329883,0.032375633170731714,0.1700197927282904,-0.022057358842228644,0.3514974906049929, ,1.197402000427246
0.012592243076155692,0.02839807665125206,-0.08566998747627151, ,0.012998464939270694,0.030507159724444986,-0.08574607347119692, ,0.002149194428227778, ,0.009079429717883104,0.041008032892072825,-0.01956153312948244,0.04397764944612588,0.024095714573014498,0.01000294820266251, ,0.04633301613380187, ,0.050146128936511804, ,0.0010100511555751056, ,0.18787092263125965,-0.3042370615800746,0.09838711471000001,-4.398875634418352,0.4327277947571499,-0.6411864537027513, ,0.0565536004520088,-0.35541925677329883,0.032375633170731714,0.1700197927282904,-0.022057358842228644,0.3514974906049929, ,1.1994049549102783
0.012592243076155692,0.02839807665125206,-0.08566998747627151, ,0.013016073825193748,0.03058668562144815,-0.08578747337883473, ,0.0022323630227975995, ,0.009079429717883104,0.041008032892072825,-0.01956153312948244,0.04397764944612588,0.024095714573014498,0.01000294820266251, ,0.04633301613380187, ,0.050146128936511804, ,0.0010185987910102281, ,0.18787092263125965,-0.3042370615800746,0.09838711471000001,-4.398875634418352,0.4327277947571499,-0.6411864537027513, ,0.0565536004520088,-0.35541925677329883,0.032375633170731714,0.1700197927282904,-0.022057358842228644,0.3514974906049929, ,1.2013781070709229
0.012592243076155692,0.02839807665125206,-0.08566998747627151, ,0.013033679492197359,0.030666091714206572,-0.08582899395172101, ,0.002316040045947207, ,0.009079429717883104,0.041008032892072825,-0.01956153312948244,0.04397764944612588,0.024095714573014498,0.01000294820266251, ,0.04633301613380187, ,0.050146128936511804, ,0.0010276087997250682, ,0.18851190945982027,-0.3080984280171868,0.09872026124000001,-4.397198114870475,0.43231788525785353,-0.6373400141656178, ,0.05886907044570147,-0.36781760293980925,0.02999776180790961,0.14984849655890564,-0.02910514118414303,0.34266694025949473, ,1.2038719654083252
0.01269107556895693,0.028838229497901637,-0.08586437563777112, ,0.013051282575144478,0.03074537738091292,-0.08587063453892262, ,0.0019408764280150967, ,0.008815594519593606,0.0414747362174854,-0.016800602715232607,0.0590784983606281,0.008578293514496176,0.026412933353692176, ,0.04560842797815954, ,0.05969802969654267, ,0.0010339071971615513, ,0.18851190945982027,-0.3080984280171868,0.09872026124000001,-4.397198114870475,0.43231788525785353,-0.6373400141656178, ,0.05886907044570147,-0.36781760293980925,0.02999776180790961,0.14984849655890564,-0.02910514118414303,0.34266694025949473, ,1.2064969539642334
0.01269107556895693,0.028838229497901637,-0.08586437563777112, ,0.013068883706328128,0.030824542002808365,-0.08591239449156132, ,0.0020224940460065784, ,0.008815594519593606,0.0414747362174854,-0.016800602715232607,0.0590784983606281,0.008578293514496176,0.026412933353692176, ,0.04560842797815954, ,0.05969802969654267, ,0.0010406783399618596, ,0.18851190945982027,-0.3080984280171868,0.09872026124000001,-4.397198114870475,0.43231788525785353,-0.6373400141656178, ,0.05886907044570147,-0.36781760293980925,0.02999776180790961,0.14984849655890564,-0.02910514118414303,0.34266694025949473, ,1.208528995513916
0.01269107556895693,0.028838229497901637,-0.08586437563777112, ,0.013086483515474763,0.030903584964178683,-0.08595427316281114, ,0.00210478554994523, ,0.008815594519593606,0.0414747362174854,-0.016800602715232607,0.0590784983606281,0.008578293514496176,0.026412933353692176, ,0.04560842797815954, ,0.05969802969654267, ,0.0010479171645195696, ,0.18851190945982027,-0.3080984280171868,0.09872026124000001,-4.397198114870475,0.43231788525785353,-0.6373400141656178, ,0.05886907044570147,-0.36781760293980925,0.02999776180790961,0.14984849655890564,-0.02910514118414303,0.34266694025949473, ,1.2106730937957764
0.01269107556895693,0.028838229497901637,-0.08586437563777112, ,0.013104082629747747,0.030982505652349737,-0.08599626990789577, ,0.0021876679723599555, ,0.008815594519593606,0.0414747362174854,-0.016800602715232607,0.0590784983606281,0.008578293514496176,0.026412933353692176, ,0.04560842797815954, ,0.05969802969654267, ,0.0010556181834914641, ,0.18851190945982027,-0.3080984280171868,0.09872026124000001,-4.397198114870475,0.43231788525785353,-0.6373400141656178, ,0.05886907044570147,-0.36781760293980925,0.02999776180790961,0.14984849655890564,-0.02910514118414303,0.34266694025949473, ,1.212684154510498
0.012773661276922815,0.029238529411538053,-0.08601658609798246, ,0.013121681673750966,0.031061303457683646,-0.08603838408408514, ,0.0018558282711793497, ,0.00872094166569472,0.043248050546191845,-0.015758955731163232,0.07601035256806787,-0.006682905143084677,0.0023289604764153054, ,0.046848622021561925, ,0.07630356444320638, ,0.001060988720992725, ,0.18906022349389023,-0.3116740533379528,0.09900025988000001,-4.395730285266084,0.43190797575855727,-0.6342286832897495, ,0.05720129087309873,-0.38733445534069705,0.02960745635687733,0.17005003110130254,-0.05503222496730608,0.34194479040691966, ,1.2151501178741455
0.012773661276922815,0.029238529411538053,-0.08601658609798246, ,0.01313928126953219,0.031139977773574204,-0.08608061505069392, ,0.0019373392989538427, ,0.00872094166569472,0.043248050546191845,-0.015758955731163232,0.07601035256806787,-0.006682905143084677,0.0023289604764153054, ,0.046848622021561925, ,0.07630356444320638, ,0.0010668310581791326, ,0.18906022349389023,-0.3116740533379528,0.09900025988000001,-4.395730285266084,0.43190797575855727,-0.6342286832897495, ,0.05720129087309873,-0.38733445534069705,0.02960745635687733,0.17005003110130254,-0.05503222496730608,0.34194479040691966, ,1.2171101570129395
0.012773661276922815,0.029238529411538053,-0.08601658609798246, ,0.013156882036586662,0.031218527996443046,-0.0861229621690777, ,0.002019546586579465, ,0.00872094166569472,0.043248050546191845,-0.015758955731163232,0.07601035256806787,-0.006682905143084677,0.0023289604764153054, ,0.046848622021561925, ,0.07630356444320638, ,0.0010731404325393997, ,0.18906022349389023,-0.3116740533379528,0.09900025988000001,-4.395730285266084,0.43190797575855727,-0.6342286832897495, ,0.05720129087309873,-0.38733445534069705,0.02960745635687733,0.17005003110130254,-0.05503222496730608,0.34194479040691966, ,1.219069004058838
0.012773661276922815,0.029238529411538053,-0.08601658609798246, ,0.013174484591860562,0.031296953525735284,-0.08616542480263145, ,0.0021023610830939415, ,0.00872094166569472,0.043248050546191845,-0.015758955731163232,0.07601035256806787,-0.006682905143084677,0.0023289604764153054, ,0.046848622021561925, ,0.07630356444320638, ,0.00107991162102989, ,0.18906022349389023,-0.3116740533379528,0.09900025988000001,-4.395730285266084,0.43190797575855727,-0.6342286832897495, ,0.05720129087309873,-0.38733445534069705,0.02960745635687733,0.17005003110130254,-0.05503222496730608,0.34194479040691966, ,1.221269130706787
0.012773661276922815,0.029238529411538053,-0.08601658609798246, ,0.013192089549754421,0.03137525376391539,-0.08620800231678556, ,0.002185706601163125, ,0.00872094166569472,0.043248050546191845,-0.015758955731163232,0.07601035256806787,-0.006682905143084677,0.0023289604764153054, ,0.046848622021561925, ,0.07630356444320638, ,0.0010871390392006956, ,0.18906022349389023,-0.3116740533379528,0.09900025988000001,-4.395730285266084,0.43190797575855727,-0.6342286832897495, ,0.05720129087309873,-0.38733445534069705,0.02960745635687733,0.17005003110130254,-0.05828170549026439,0.32305975207794024, ,1.2241311073303223
0.01286584597844862,0.029710251020429086,-0.08618952680548592, ,0.013209697522126737,0.03145342811646312,-0.0862506940790042, ,0.0017778193686584535, ,0.008402686240623234,0.04395352734581176,-0.01637893739913022,0.09557921956968649,-0.00993781147420314,0.005955816813174081, ,0.047652778434441864, ,0.09609446462558804, ,0.0010916239764049668, ,0.18960081479508595,-0.315604924370933,0.09930229545000001,-4.394052765718208,0.43122479325973007,-0.6307311591262071, ,0.05208394157984127,-0.3905223932447357,0.030398495267175574,0.1608284028933649,-0.05828170549026439,0.32305975207794024, ,1.2260711193084717
0.01286584597844862,0.029710251020429086,-0.08618952680548592, ,0.013227309118297408,0.03153147599186901,-0.08629349945878202, ,0.0018596575788835748, ,0.008402686240623234,0.04395352734581176,-0.01637893739913022,0.09557921956968649,-0.00993781147420314,0.005955816813174081, ,0.047652778434441864, ,0.09609446462558804, ,0.0010965790319048287, ,0.18960081479508595,-0.315604924370933,0.09930229545000001,-4.394052765718208,0.43122479325973007,-0.6307311591262071, ,0.05208394157984127,-0.3905223932447357,0.030398495267175574,0.1608284028933649,-0.05828170549026439,0.32305975207794024, ,1.2280290126800537
0.01286584597844862,0.029710251020429086,-0.08618952680548592, ,0.013244924945051209,0.03160939680163059,-0.08633641782764208, ,0.0019421721173897163, ,0.008402686240623234,0.04395352734581176,-0.01637893739913022,0.09557921956968649,-0.00993781147420314,0.005955816813174081, ,0.047652778434441864, ,0.09609446462558804, ,0.0011019995004015266, ,0.18960081479508595,-0.315604924370933,0.09930229545000001,-4.394052765718208,0.43122479325973007,-0.6307311591262071, ,0.05208394157984127,-0.3905223932447357,0.030398495267175574,0.1608284028933649,-0.05828170549026439,0.32305975207794024, ,1.2299630641937256
0.01286584597844862,0.029710251020429086,-0.08618952680548592, ,0.013262545606641332,0.03168718996024808,-0.08637944855913243, ,0.0020252724358192043, ,0.008402686240623234,0.04395352734581176,-0.01637893739913022,0.09557921956968649,-0.00993781147420314,0.005955816813174081, ,0.047652778434441864, ,0.09609446462558804, ,0.0011078802197353973, ,0.18960081479508595,-0.315604924370933,0.09930229545000001,-4.394052765718208,0.43122479325973007,-0.6307311591262071, ,0.05208394157984127,-0.3905223932447357,0.030398495267175574,0.1608284028933649,-0.05828170549026439,0.32305975207794024, ,1.2318589687347412
0.012946628754833944,0.030134432685225337,-0.08634246088226338, ,0.013280171704792792,0.03176485488521997,-0.08642259102882381, ,0.0016661177299609955, ,0.008275214280066848,0.04572481606330285,-0.016228914244052654,0.14373956247961023,-0.010462220711574568,0.01947523735115311, ,0.04922007347561273, ,0.14411980696033266, ,0.0011114133685342935, ,0.19014912882915588,-0.3196593591299009,0.09961470134000001,-4.392375246170332,0.43067824726066833,-0.6276717678269235, ,0.051771381101184274,-0.4072830109805613,0.031110960000000003,0.14037943974784306,-0.04773636443471296,0.28686570281063023, ,1.2341489791870117
0.012946628754833944,0.030134432685225337,-0.08634246088226338, ,0.013297803838706062,0.031842390997039116,-0.08646584461430701, ,0.0017480472189730389, ,0.008275214280066848,0.04572481606330285,-0.016228914244052654,0.14373956247961023,-0.010462220711574568,0.01947523735115311, ,0.04922007347561273, ,0.14411980696033266, ,0.0011154173550150404, ,0.19014912882915588,-0.3196593591299009,0.09961470134000001,-4.392375246170332,0.43067824726066833,-0.6276717678269235, ,0.051771381101184274,-0.4072830109805613,0.031110960000000003,0.14037943974784306,-0.04773636443471296,0.28686570281063023, ,1.2360529899597168
0.012946628754833944,0.030134432685225337,-0.08634246088226338, ,0.013315442605060377,0.03191979771918867,-0.08650920869519046, ,0.0018306711320534039, ,0.008275214280066848,0.04572481606330285,-0.016228914244052654,0.14373956247961023,-0.010462220711574568,0.01947523735115311, ,0.04922007347561273, ,0.14411980696033266, ,0.0011198876911215302, ,0.19014912882915588,-0.3196593591299009,0.09961470134000001,-4.392375246170332,0.43067824726066833,-0.6276717678269235, ,0.051771381101184274,-0.4072830109805613,0.031110960000000003,0.14037943974784306,-0.04773636443471296,0.28686570281063023, ,1.2379021644592285
0.012946628754833944,0.030134432685225337,-0.08634246088226338, ,0.01333308859801744,0.031997074478137426,-0.0865526826530964, ,0.001913891024073299, ,0.008275214280066848,0.04572481606330285,-0.016228914244052654,0.14373956247961023,-0.010462220711574568,0.01947523735115311, ,0.04922007347561273, ,0.14411980696033266, ,0.0011248193888417275, ,0.19014912882915588,-0.3196593591299009,0.09961470134000001,-4.392375246170332,0.43067824726066833,-0.6276717678269235, ,0.051771381101184274,-0.4072830109805613,0.031110960000000003,0.14037943974784306,-0.04773636443471296,0.28686570281063023, ,1.2397961616516113
0.012946628754833944,0.030134432685225337,-0.08634246088226338, ,0.013350742409224747,0.03207422070333609,-0.08659626587165985, ,0.0019976241822509243, ,0.008275214280066848,0.04572481606330285,-0.016228914244052654,0.14373956247961023,-0.010462220711574568,0.01947523735115311, ,0.04922007347561273, ,0.14411980696033266, ,0.0011302070727516606, ,0.19014912882915588,-0.3196593591299009,0.09961470134000001,-4.392375246170332,0.43067824726066833,-0.6276717678269235, ,0.051771381101184274,-0.4072830109805613,0.031110960000000003,0.14037943974784306,-0.04773636443471296,0.28686570281063023, ,1.2416939735412598
0.012946628754833944,0.030134432685225337,-0.08634246088226338, ,0.013368404627819125,0.03215123582721289,-0.08663995773652455, ,0.0020818007058454376, ,0.008275214280066848,0.04572481606330285,-0.016228914244052654,0.14373956247961023,-0.010462220711574568,0.01947523735115311, ,0.04922007347561273, ,0.14411980696033266, ,0.0011360450705007023, ,0.19014912882915588,-0.3196593591299009,0.09961470134000001,-4.392375246170332,0.43067824726066833,-0.6276717678269235, ,0.051771381101184274,-0.4072830109805613,0.031110960000000003,0.14037943974784306,-0.04773636443471296,0.28686570281063023, ,1.2437210083007812
