NicholasDascanio/dvrk_moveit_final/test/execution/first_exp_nosummary/yes_joints_yes_smoothramp/700vel4.csv
Current Position (x),Current Position (y),Current Position (z), ,Planned Position (x),Planned Position (y),Planned Position (z), ,Position Error,,Cartesian linear Velocity(x),Cartesian linear Velocity(y),Cartesian linear Velocity(z),Cartesian Angular Velocity(x),Cartesian Angular Velocity(y),Cartesian Angular Velocity(z), ,Total Linear Velocity, ,Total Angular Velocity, ,MSE, ,Joint 1 Position,Joint 2 Position,Joint 3 Position,Joint 4 Position,Joint 5 Position,Joint 6 Position, ,Joint 1 Velocity,Joint 2 Velocity,Joint 3 Velocity,Joint 4 Velocity,Joint 5 Velocity,Joint 6 Velocity, ,Time Stamp
0.010806562282186984,0.01880324490188418,-0.08049919951117573, ,0.010991272692191498,0.018825875652326192,-0.08059284789958067, ,0.0002083269235611325, ,2.6216625088562344e-05,2.7632778429094698e-05,6.863311706260543e-06,0.1204511707233446,-0.01596204292753006,-0.00915135261170073, ,3.870383601560665e-05, ,0.12150420298510098, ,1.7360576963427707e-05, ,0.15471723040221383,-0.22371984863340982,0.09002215534,-4.5299318490961795,0.19429710266645633,-1.280947184808058, ,0.00036448661086185765,-0.0003263982336169116,3.475242812235271e-06,0.0,0.0003002382504360657,-0.1214856441099692, ,0.017286062240600586
0.010815128231614327,0.018807058825372754,-0.08050005023544105, ,0.010993086460978452,0.01888620032583305,-0.08062160453481786, ,0.00022958213386609408, ,0.0011480199165328012,0.0003276447386175084,-0.0006385778363959956,0.2690371930787806,-0.1553131357664607,-0.051043509084165266, ,0.0013539137552428908, ,0.310649611944583, ,1.9904957155783026e-05, ,0.15471723040221383,-0.22378163049640362,0.09002345163000001,-4.530141539039664,0.19334064716809823,-1.2869465949138497, ,-0.0006063606385195197,-0.0040783091063013605,0.000646711867147649,0.0,-0.12355610252971345,-0.2862582793743167, ,0.034113168716430664
0.010833116709389438,0.018811469932565217,-0.08051041620869229, ,0.010994922389702356,0.01894646871591556,-0.08065039272897788, ,0.00025298058407486956, ,0.002380671327124527,0.000776315383643144,-0.0023797620123277735,0.07658986988711936,-0.2347191388490224,-0.06301987850094962, ,0.0034544939973883576, ,0.24689893136924712, ,2.1590301296940503e-05, ,0.1547095076693396,-0.2238356896265232,0.09003382195000001,-4.530141539039664,0.19142773617138206,-1.2890622875684252, ,-0.0005361333366631979,-0.006325201487984304,0.002425727315474785,0.0,-0.2309476353669508,-0.10512508852375735, ,0.050504207611083984
0.010861674299540675,0.018832411469947203,-0.08055031578891289, ,0.010996780643625303,0.01900668088106394,-0.08067921231652311, ,0.00025541704464044816, ,0.0007377078271789883,0.0016520309190250957,-0.003255728441810697,0.11806756800263395,-0.048474251947592445,-0.015138977697900171, ,0.003724672694682199, ,0.12763112361634002, ,2.2531111574822483e-05, ,0.15468633947071692,-0.22402103521550457,0.09007659952000001,-4.5303512289831485,0.18869500617607327,-1.2911629027219464, ,-0.0011092009158661209,-0.011135524707635623,0.0035579208219790044,0.0,-0.03610739601700565,-0.11358596208580996, ,0.06792807579040527
0.010876100511406825,0.01886525662261867,-0.08058783469184705, ,0.010998661387532421,0.019066836879675295,-0.08070806313229995, ,0.0002647841503667181, ,0.001237653821768758,0.0016458325280727607,-0.001695301846348763,0.10770152081908997,-0.12586159304846306,-0.03473348066722206, ,0.002667320761219901, ,0.165652522442092, ,2.3290208394408892e-05, ,0.15468633947071692,-0.22431449906472511,0.09012067338,-4.530141539039664,0.18773855067771517,-1.2947119506235214, ,-0.0008619072590691265,-0.016506686651325583,0.001992346656660413,0.0010073108150031606,-0.11731483416200812,-0.10952588472686131, ,0.08482503890991211
0.010890176349882525,0.01888278424360293,-0.0806079203171833, ,0.01100056478573235,0.019126936770053612,-0.08073694501153925, ,0.00029739440932080276, ,0.0012815119862005296,0.0022152489794533413,-0.002490200595956218,-0.09530478309156096,-0.08810243659524108,-0.016859263664112518, ,0.0035708122353108125, ,0.12978844715170992, ,2.4330407190807503e-05, ,0.15468633947071692,-0.22448439918795804,0.0901440066,-4.530141539039664,0.1865088221798262,-1.2944442981515185, ,-0.0007111278060684148,-0.020833576631936506,0.002911499089745934,0.0010007003829584902,-0.10689674656387037,0.10164065550368445, ,0.10144901275634766
0.01089878514198818,0.018934967253154165,-0.08065155001257258, ,0.011002491002057602,0.019186980610409958,-0.0807658577898561, ,0.0002955197211618391, ,0.00022867542928283613,0.0027956055616538363,-0.001959775357758598,-0.07721053385480767,0.024732296965714815,0.01428717872245536, ,0.0034217572037164457, ,0.08107498412775545, ,2.505562454155423e-05, ,0.15466317127209425,-0.22497865409190843,0.09019845078000001,-4.5299318490961795,0.1860989126805299,-1.291578003496072, ,0.0002907297592758415,-0.02713667187831592,0.0025724824806201553,0.0,0.01132710842120851,0.10686831216259543, ,0.11818313598632812
0.010901168259688693,0.018996795847220787,-0.08068573722640104, ,0.011004440199865038,0.019246968458862552,-0.08079480130324876, ,0.0002917985642563927, ,0.0001063180635997993,0.0031954465847687254,-0.0012558352869784348,-0.0019600157011727243,0.022430766197163877,0.0011579872397055272, ,0.0034350115974735706, ,0.022516237113193435, ,2.555857964936948e-05, ,0.15467089400496847,-0.22559647272184638,0.09024641351000001,-4.529722159152695,0.1865088221798262,-1.2894618950029444, ,0.0006019713183525466,-0.03336741967597425,0.001976431849567469,0.011041204530203264,0.01601303446171434,0.03936052272011323, ,0.13515710830688477
0.010903413836485697,0.01903127818473404,-0.08070013933734521, ,0.01100641254203614,0.01930690037343662,-0.08082377538809933, ,0.00031915857703709486, ,0.00011060593562760437,0.003304314332825697,-0.0009831079669874031,0.06176249762193525,0.01048676796559642,-0.002851074700433746, ,0.003449235880288197, ,0.06264645572466888, ,2.624958813353687e-05, ,0.15467089400496847,-0.22595944116693492,0.09026845044000001,-4.529722159152695,0.1865088221798262,-1.289135180042382, ,0.0008137127463485422,-0.03542252391133661,0.0017345443155420154,0.010163909655123099,0.012684004444039694,-0.023656311858743118, ,0.15209221839904785
0.010906319346520492,0.019098989812473863,-0.08072249043387307, ,0.011008408190977738,0.01936677641206473,-0.08085277988117241, ,0.00031481285736231025, ,0.0002063874887802573,0.003696666772264628,-0.0014128270140696425,0.04089370822459669,0.0020282848450393137,-0.0024503224952243195, ,0.00396282994744606, ,0.04094397772280355, ,2.6762499663212768e-05, ,0.1546786167378427,-0.22668537805711203,0.09030604285,-4.529722159152695,0.18664545867959165,-1.289328276686219, ,-0.00020163244541472012,-0.039052239324473575,0.0022343682872773183,0.008721450394499146,0.0,-0.0010097519766603998, ,0.16913604736328125
0.01091176832505535,0.019176261649215556,-0.08075738799069257, ,0.011010427308621909,0.01942659663258685,-0.08088181461961551, ,0.00029645098232763256, ,0.0002935284618751322,0.003931442219534299,-0.002044014128962143,0.02035345966170034,-0.0015503237862050478,0.005291819198148212, ,0.0044407646461915124, ,0.0204124183772246, ,2.701987453549406e-05, ,0.15466317127209425,-0.22748854227603138,0.09035789445,-4.529512469209211,0.1865088221798262,-1.2890535013022415, ,-0.0008907511825004868,-0.040278837673374694,0.002903009207217059,0.0009357942705264852,-0.005393848474579186,0.01901349571228236, ,0.18553400039672852
0.010913859058545798,0.019216053582950348,-0.08077855067262145, ,0.011012470056426919,0.01948636109275016,-0.08091087944095843, ,0.0003167036180514313, ,0.0002272904466313955,0.004012603685649102,-0.0019625617443412096,0.027645098976382513,0.0009284411726872281,-0.002690263933667113, ,0.0044726164474014835, ,0.02766068510351852, ,2.740106201661284e-05, ,0.1546477258063458,-0.22789012438549106,0.09038770912,-4.529302779265726,0.1865088221798262,-1.2888901438219604, ,-0.0014948012689266175,-0.04125953980803077,0.002836831971504898,0.009201252623634595,-0.0046932258671298355,0.013976213773822995, ,0.20264601707458496
0.010917205006831552,0.019297499985980338,-0.08081265158941553, ,0.011014536595377326,0.019546069850209433,-0.08093997418311291, ,0.00029575574110664906, ,0.00012430269015721351,0.0038911233859289956,-0.0015233536262437342,-0.002059432620595757,0.006844809516196776,-0.00020305941627015055, ,0.00418053807946941, ,0.007147914382782453, ,2.7565797781313753e-05, ,0.15460911214197468,-0.22874734773452998,0.09043956072,-4.529302779265726,0.18637218568006078,-1.2881252959971394, ,-0.0017184424564152926,-0.04097449980935698,0.002377434555223881,0.009201252623634595,-0.0029008379929525855,0.04399697520721126, ,0.21963906288146973
0.010919463118705359,0.019375148986420204,-0.08084350054438381, ,0.011016627085984478,0.019605722962526922,-0.08096909868437253, ,0.00027996444017714967, ,0.00012539380531463535,0.003940036039575623,-0.0015365564870020677,0.0003180112180758912,0.006904606965068068,0.0001388365200106345, ,0.004230911655578993, ,0.0069119265381168, ,2.759612498106032e-05, ,0.1545782212104778,-0.22956595741919777,0.09048752345000001,-4.529302779265726,0.18637218568006078,-1.287063472375312, ,-0.0016808617018407334,-0.04145781632086971,0.00240507496904726,0.008902391008850334,-0.0024654995373221966,0.042093598491375145, ,0.23612403869628906
0.010919269588483214,0.019414818032005815,-0.0808582069752619, ,0.01101874168828695,0.019665320487172632,-0.080998252783412, ,0.0003037416781812805, ,-2.5216425060866114e-05,0.00361714755229123,-0.0012507176900192524,-0.0019005079548542136,0.007390215421250298,0.003029709672288289, ,0.003827360320542917, ,0.007630675884604806, ,2.77788909571832e-05, ,0.15454733027898088,-0.2299829849944059,0.09051085667000001,-4.529093089322242,0.18637218568006078,-1.2868184361548904, ,-0.0029321445643314147,-0.0385759925034434,0.00203681019178902,0.005405178060443455,-0.002284013610728188,0.040954518185587645, ,0.2536630630493164
0.010922433066113634,0.01948591533507252,-0.08088257059947633, ,0.011020880561850875,0.019724862481524153,-0.08102743631928687, ,0.000296266307552069, ,0.00015981340452455635,0.00352212484206467,-0.0012228405343183205,-0.0008489914836848185,0.006739979419029752,0.0034854737227125406, ,0.00373178813703655, ,0.006793239956425775, ,2.806619709965165e-05, ,0.1545241620803582,-0.23073981281607991,0.09055104166000001,-4.528883399378757,0.18623554918029533,-1.2861352670702102, ,-0.00039094260497296297,-0.0374051799599806,0.002017837790727135,0.005198165788275353,0.0,0.03902632134702253, ,0.2685971260070801
0.010923414697237576,0.019520319397227648,-0.08089296727269064, ,0.011023043865770448,0.019784349002866908,-0.0810566491314343, ,0.00032623512189577854, ,0.00014778326509331277,0.0035005398459206165,-0.0012337859258231844,0.013807918396568957,0.004907291997775815,0.002385122026289975, ,0.003714545304216782, ,0.0146540139618769, ,2.8499369734939374e-05, ,0.154516439347484,-0.23111050399404268,0.09056918972000001,-4.528883399378757,0.18623554918029533,-1.2859719095899291, ,-0.0005570706330638235,-0.03711260913510785,0.002022963108966218,0.005198165788275353,0.0,0.023910059078517204, ,0.28339409828186035
0.010932115916883974,0.019590949322251736,-0.0809331870026101, ,0.011025231758668276,0.01984378010839408,-0.08108589105967076, ,0.00030969742565178357, ,0.000382765185499154,0.003684867825740642,-0.002367650649120855,0.03947628082536135,-0.0058804454308037865,-0.0053211945801554935, ,0.004396649824206059, ,0.03991185771413116, ,2.8796593746321098e-05, ,0.15450099388173555,-0.23182099541847134,0.09062493019000001,-4.528673709435273,0.185825639680999,-1.285229262178137, ,-0.000785812955125481,-0.03613744918449001,0.003178769012173219,0.008806999585845545,-0.008564246248153115,-0.00374050662379714, ,0.2985670566558838
0.01093822016049151,0.019630500441599218,-0.08096086517190357, ,0.01102744439869584,0.019903155855207005,-0.0811151619441932, ,0.0003257444292567033, ,0.0006865903561767306,0.003687678710685819,-0.0027805749115507603,-0.004260347172729386,-0.023542338490478598,-0.008498359485399776, ,0.004669258766569468, ,0.023924720676869713, ,2.915071654174564e-05, ,0.15449327114886133,-0.23220713206218255,0.09066122631000001,-4.528673709435273,0.18555236668146813,-1.284843068890463, ,-0.00042678315276978854,-0.035356535603007,0.0035827286369770586,0.008700031795695656,-0.03215182399190798,0.036221084575703416, ,0.3137052059173584
0.01094459765347143,0.019701230409304143,-0.0810141208480637, ,0.011029681943533851,0.019962476300314745,-0.0811444616255784, ,0.0003041010856088576, ,0.00047165581468508336,0.003430525920982219,-0.002262858479176883,0.012836613416834904,-0.015245823336782195,-0.0060447841584196004, ,0.004136604380266485, ,0.019930222607143822, ,2.9362618251050955e-05, ,0.15447010295023864,-0.23287900982224008,0.09072992968000002,-4.528673709435273,0.18555236668146813,-1.2845163539299007, ,-0.000868116303992621,-0.03362754839067001,0.003013966228949858,0.0074507186677467176,-0.02121445265476256,0.01862608209969275, ,0.3287050724029541
0.010949069753753076,0.01973702830468266,-0.08103461380343373, ,0.011031944550392688,0.020021741500634554,-0.08117378994478217, ,0.00032756653398636153, ,0.0001461353514810225,0.003453029141662012,-0.0018517798189289867,0.011516902710188508,0.004293755788856402,0.004353771881967422, ,0.003920950687258415, ,0.012291272789606079, ,2.9669914220599028e-05, ,0.15447010295023864,-0.23323425553445443,0.09075844806000001,-4.528464019491787,0.18541573018170268,-1.2843232572860637, ,-0.001864020835848337,-0.03482456570953056,0.0026117087260206597,0.002401058654509023,-0.001266347360819638,0.023329943281905102, ,0.34385204315185547
0.010958136508929928,0.019802778310244837,-0.08106529166393583, ,0.011034232376012903,0.020080951512992006,-0.08120314674313983, ,0.0003196481418310887, ,0.000532833934392236,0.0033692518756761256,-0.0015561279805140949,-0.04070556953733137,-0.018292264515858588,-0.009487837166969422, ,0.0037493072020209116, ,0.04462678940353579, ,2.9914653354765064e-05, ,0.15446238021736441,-0.23391385602738618,0.09080381821000001,-4.528254329548303,0.18486918418264095,-1.2833875132304349, ,0.0,-0.03487575948492127,0.0023132168922451353,0.01222762624129693,-0.03221963142134384,0.0731179796910093, ,0.35883402824401855
0.01095917787527139,0.019840045703021305,-0.08108429845143375, ,0.01103654557666544,0.020140106394120706,-0.08123253186236527, ,0.00034350447402973166, ,0.00046219882405856665,0.003399861413506887,-0.0018044864136297154,0.00487763142639959,-0.017985146710944235,-0.010077400894118344, ,0.0038767069274048046, ,0.018634827354361422, ,3.0246227434393843e-05, ,0.15444693475161597,-0.23426137900672628,0.09082974401,-4.528254329548303,0.18486918418264095,-1.2830607982698725, ,-0.0009906257121638732,-0.03444535083792043,0.0025461655242966755,0.011194239858461547,-0.026636154063534326,0.04612474673416116, ,0.37384700775146484
0.010963065987036629,0.019899384111060407,-0.08111789634214851, ,0.01103888430815217,0.020199206200662637,-0.08126194514455039, ,0.0003411623670682939, ,0.00013771889412439589,0.0034765763868007614,-0.0019561149349916884,0.009101619079633957,0.007862553958359279,-0.0021978469087316098, ,0.0039914828705578855, ,0.012027436326592136, ,3.054213438786487e-05, ,0.15440832108724484,-0.23488692036953845,0.09087770674000001,-4.528254329548303,0.18473254768287548,-1.2827043441457544, ,-0.002049777819294546,-0.03454566492845678,0.002723339292186699,0.009747332564431667,0.0,0.02679139007012486, ,0.3891291618347168
0.010968426316721631,0.01994324380624095,-0.08114451342390838, ,0.011041248725806356,0.02025825098916822,-0.08129138643216588, ,0.00035511168541078235, ,0.0003039443462182856,0.003519727117615361,-0.002210228422352767,-0.01246549005584376,-0.00213012704083895,0.005421388072083963, ,0.0041672497917752665, ,0.012646180589004232, ,3.087367354455908e-05, ,0.1543928756214964,-0.23531939341049504,0.09091400286000001,-4.528044639604819,0.1844592746833446,-1.2820731146376585, ,-0.0015966971412140758,-0.034633920276814154,0.0029857191227741337,0.0004503411608562915,-0.010348894443588285,0.04575882949571193, ,0.40444207191467285
0.01097475233347792,0.020015023543685624,-0.08118968292607663, ,0.01104363898449291,0.020317240816096285,-0.08132085556805967, ,0.00033658121224484585, ,0.0003614080495346341,0.003532226816767264,-0.0022211200354995773,-0.016449638329752526,-0.009978339427597266,-0.004890353946572911, ,0.004188151892596049, ,0.019239486969717973, ,3.11076103985185e-05, ,0.1543542619571253,-0.23602216210204946,0.09097492849000001,-4.527834949661335,0.18418600168381372,-1.2811968489091412, ,-0.0021629002179009266,-0.03473533732008447,0.00299188796393689,0.008453592216627708,-0.021628527704171587,0.04943363484860187, ,0.41974902153015137
0.010976836623416,0.02005173598386789,-0.0812113096002115, ,0.011046055238608993,0.020376175737814153,-0.0813503523954571, ,0.00035970163961213195, ,0.0002971436875305055,0.003540102571722659,-0.001993027965550496,-0.009389726906798936,-0.008514563128645894,-0.0046331166864546965, ,0.004073423751688862, ,0.012675360216755732, ,3.141427634477029e-05, ,0.15433881649137682,-0.23638513054713803,0.09100474316000001,-4.527834949661335,0.18418600168381372,-1.2811968489091412, ,-0.002264888628119009,-0.035409306551668206,0.002770228090434783,0.008453592216627708,-0.019354546741335826,0.04330329842189708, ,0.43448901176452637
0.010979930439114379,0.02012542811169863,-0.08124808583339004, ,0.011048497642084211,0.020435055810597888,-0.08137987675796095, ,0.0003434233845386938, ,5.106123325902172e-05,0.0036062730948894796,-0.001638815002134241,0.011567517941001379,0.007390021617841894,-0.0008109200193438991, ,0.003961505710671882, ,0.013726612503299509, ,3.163990793375081e-05, ,0.1542924800941315,-0.2371342356359378,0.09105789105,-4.527834949661335,0.1840493651840483,-1.280513679824461, ,-0.002560042215616726,-0.036838874828598905,0.0024430692515337426,0.008453592216627708,-0.0006660879066537507,0.02629422970350956, ,0.45123720169067383
0.010986819197904351,0.02019667802839491,-0.08128171040663446, ,0.011050966348381243,0.020493881090632167,-0.08140942849955066, ,0.00032978239549081293, ,0.0003293431458452709,0.0035539486748030606,-0.001842472271346073,-0.017437572225346164,-0.019701450040836975,-0.004478137401160296, ,0.004016680490346331, ,0.026309999217113758, ,3.180186197722943e-05, ,0.1542384209640119,-0.23786789525898913,0.09110715007,-4.52762525971785,0.18336618268522106,-1.2795481966052762, ,-0.0029318526399917115,-0.036178780617030414,0.002618578254150913,0.005461621068842732,-0.031964479093139424,0.04989646272846121, ,0.4663090705871582
0.010988428438370664,0.020234766214152697,-0.08130030704272938, ,0.0110534615104961,0.020552651634010502,-0.08143900746458178, ,0.00035287143218214846, ,0.00037850695178055647,0.0038272759473099664,-0.0018100248046230012,0.010894817243945244,-0.015812000756535383,-0.003286351635106267, ,0.00425058801611661, ,0.019201989758465512, ,3.203410822944924e-05, ,0.15422297549826347,-0.23825403190270034,0.09113437216,-4.52762525971785,0.18336618268522106,-1.2792214816447138, ,-0.0012947428152185294,-0.039197414935345225,0.002673965338257512,0.005413530713127766,-0.022798274712075555,0.02560615647497324, ,0.481342077255249
0.010989406462009054,0.020272871811885692,-0.08131897163119588, ,0.011055983280958618,0.020611367496735093,-0.08146861349778642, ,0.00037603788335726095, ,0.00032786262565390504,0.0037181933207912875,-0.0019032573188768624,-0.0038436253346267896,-0.007295812413955386,-0.00040586203124969245, ,0.004189850103993692, ,0.008246352797912325, ,3.244009133969218e-05, ,0.15419980729964078,-0.23864016854641157,0.09116159425,-4.52762525971785,0.18336618268522106,-1.2791398029045733, ,-0.0013268233777361622,-0.03755320204134183,0.002742563966942149,0.005043123104524193,-0.015799938705525682,0.03984566664039198, ,0.4947080612182617
0.010995194199795198,0.02035272242374773,-0.0813644760726752, ,0.011058531811832835,0.020670028734717374,-0.08149824644427253, ,0.00035012777724293846, ,0.00021384347586088078,0.003999193223533309,-0.002469657160582379,0.010277453143697327,0.006333782427619143,0.006099583186287252, ,0.004705154828710615, ,0.0120724000459494, ,3.273912449654169e-05, ,0.1541689163681439,-0.23942788729958248,0.09122511246000001,-4.527415569774365,0.18322954618545564,-1.2784566338198928, ,-0.0020530834924783067,-0.0389560515428862,0.0033661900929839394,0.001945976258517794,0.0,0.02882999066204591, ,0.5084850788116455
0.011001858381360308,0.02039351063629958,-0.0813917243096597, ,0.011061107254717404,0.020728635403777382,-0.08152790614952292, ,0.000366557679335283, ,0.00038083447885846957,0.004090803647750905,-0.00260283089825861,0.005491607449234714,-0.004556544653256874,-0.005515517707975388, ,0.004863582842891568, ,0.007135814700099212, ,3.307560257809458e-05, ,0.15415347090239545,-0.23982174667616793,0.09126140858000001,-4.5272058798308805,0.18281963668615933,-1.2777956651482414, ,-0.0018254059525161907,-0.03963949104363859,0.0035186241484426776,0.010706428506019145,-0.014018076313000668,0.03360374887491378, ,0.5219020843505859
0.01100989147780756,0.020471709312743062,-0.0814401644536116, ,0.011063709760746027,0.020787187559644503,-0.08155759245939616, ,0.00034089920561507524, ,0.0006015151736179292,0.0038983052130325225,-0.002490835746411019,-0.028628100752306335,-0.021751774687564007,-0.009333705410074845, ,0.004665068783378021, ,0.0359542466844582, ,3.331476992916141e-05, ,0.15413030270377276,-0.24058629723071615,0.09132751937000001,-4.5272058798308805,0.18254636368662844,-1.277082756900005, ,-0.0012807723667092772,-0.040798341168732065,0.0032323075324675325,0.01027101424252025,-0.022524749240974067,0.06158236391335108, ,0.5367271900177002
0.011012442174012099,0.020516865298837787,-0.08146485053954798, ,0.01106633948058785,0.020845685257957224,-0.08158730522012539, ,0.00035499666754315346, ,0.000414413086980519,0.004100892040730294,-0.002340769123138728,0.0041833652026446785,-0.007010638141064843,-0.004600809232079359, ,0.004740068968298399, ,0.008163920105768904, ,3.35853464065616e-05, ,0.15411485723802432,-0.24103421573742118,0.0913625192,-4.5272058798308805,0.18254636368662844,-1.2769193994197239, ,-0.0011141322189861746,-0.04043329423028154,0.0032748378947368424,0.009503112629604384,-0.01578610238866797,0.03527843010647368, ,0.5504951477050781
0.011014748258669528,0.02055761818019806,-0.08148796687697178, ,0.0110689965644479,0.02090412855426321,-0.0816170442783183, ,0.00037372890382329587, ,0.00037798172697794377,0.004156812239015639,-0.0022237333757260487,0.008993583751768881,-0.0045338599669296435,-0.003242859570633703, ,0.004729370814672646, ,0.010071764236986075, ,3.389891695154907e-05, ,0.15409941177227587,-0.24143579784688085,0.09139492645000001,-4.5272058798308805,0.18254636368662844,-1.2767560419394428, ,-0.0009675286186246387,-0.041331420539403654,0.003177500801915021,0.008894770877182562,-0.012393522498920723,0.03172055472647594, ,0.56392502784729
0.011024971941079495,0.020640038246417504,-0.0815220799147931, ,0.011071681162067448,0.020962517504019444,-0.08164680948095643, ,0.0003489012576418894, ,0.0005182541229255278,0.003951264417693298,-0.0014324812448665409,-0.04431726548154622,-0.02479199572178605,-0.009815922016257273, ,0.004234746787158927, ,0.05078053831562713, ,3.412547649099367e-05, ,0.15408396630652743,-0.24228529846304556,0.09144807434,-4.526786499943912,0.18186318118780123,-1.2754638437596957, ,-0.0008982792925273146,-0.041584987536577904,0.002345576722132234,0.011482300201772072,-0.04122829910419523,0.08201330218860652, ,0.5785729885101318
0.011026396896521571,0.020682149186351483,-0.08153953319870477, ,0.011074393422724463,0.021020852162592304,-0.08167660067539578, ,0.0003685252580331171, ,0.00045237239530448856,0.004213322494009579,-0.001744996526343744,-0.014720134146678658,-0.019145068161834033,-0.00893289180622581, ,0.004582765551445148, ,0.02414986509695875, ,3.4397617363088165e-05, ,0.15406852084077896,-0.24271777150400212,0.09147529643,-4.526786499943912,0.18186318118780123,-1.275218807539274, ,-0.0012869435733307835,-0.0435307071369132,0.002716373042291951,0.011482300201772072,-0.03201429791988154,0.05538846835857254, ,0.5921080112457275
0.0110280861436971,0.020724284952813542,-0.0815582766890213, ,0.011077133495234055,0.02107913258525772,-0.08170641770936524, ,0.00038764448513112107, ,0.00033432976278622824,0.004117441274367275,-0.001981971210071817,0.015527048799559122,-0.01417695846788268,-0.009188991524996897, ,0.004581845579643802, ,0.02102558907125737, ,3.4710886294080964e-05, ,0.15405307537503052,-0.24314252181208446,0.09150381481000001,-4.526576810000427,0.18186318118780123,-1.2748920925787117, ,-0.0022338180720446205,-0.04162146559582052,0.00291950357771261,0.011543688473549842,-0.02348139826720302,0.024157636170173438, ,0.6062231063842773
0.0110321447608733,0.020808105564179533,-0.08159729653860125, ,0.011079901527948795,0.021137358827201,-0.08173626043096724, ,0.00036055427246573256, ,0.00015462058054591105,0.004263669205328895,-0.001976287912332951,-0.005081552551469342,0.01087429754649617,0.0002871280423680558, ,0.004701967304100659, ,0.012003021429328938, ,3.493668243062888e-05, ,0.15401446171065938,-0.24399202242824916,0.09156214786000001,-4.526576810000427,0.1817265446880358,-1.2742089234940315, ,-0.0018640963579982294,-0.04290096815482405,0.0029640512690733162,0.010096637956321848,0.0,0.04953252020208779, ,0.6192760467529297
0.011036879301106294,0.020854076810404205,-0.08162041495519672, ,0.011082697668759167,0.021195530943516977,-0.0817661286886769, ,0.00037406248135692923, ,0.00025837292591267475,0.004363630418237966,-0.0021871859553696167,0.006031982568194825,0.0011209008750264612,-0.0017747162825020532, ,0.004887924856130915, ,0.006135245098982478, ,3.518886648906061e-05, ,0.15399901624491094,-0.24442449546920572,0.09159325882000001,-4.526576810000427,0.18145327168850492,-1.2734960152457953, ,-0.0019025222337962669,-0.0435307071369132,0.0031883129543634914,0.009244133364628789,-0.00837743263317174,0.038806284840344964, ,0.6328110694885254
0.011039779973444932,0.020895799953045475,-0.08164329171434961, ,0.011085522065094052,0.021253648989210533,-0.08179602233134203, ,0.00039175874336073486, ,0.00026933085601436695,0.004324636221071467,-0.0025165282365593247,-0.027550191820824008,0.004135348784710552,0.006919574347771098, ,0.005010781567780132, ,0.027858825869632012, ,3.547671978265917e-05, ,0.15397584804628828,-0.24486469124303653,0.09162825865,-4.526367120056943,0.1813166351887395,-1.2730578823815364, ,-0.002351168166009573,-0.04227035258729211,0.0035039180642322926,0.002178244699724945,-0.008319958944996653,0.06920326966027265, ,0.6458621025085449
0.01104500898817972,0.020984558097554614,-0.08169695165619292, ,0.011088374863921072,0.02131171301919594,-0.0818259412081824, ,0.0003543292909927181, ,0.00039692209247262235,0.004291783458326302,-0.0027666148258108586,-0.01430385839543817,-0.012951542199062135,0.020546613309789585, ,0.005121631575489647, ,0.019296186415163723, ,3.5657066413685885e-05, ,0.1539217889161687,-0.24571419185920124,0.09170214718000001,-4.525738050226489,0.18117999868897403,-1.2721296770764345, ,-0.0023513561502794722,-0.04162146559582052,0.0037400355764263915,-0.016392751980822292,-0.018970145118121527,0.05078461323141139, ,0.6593210697174072
0.0110472879839174,0.021029999457801377,-0.08172409978642842, ,0.011091256211746923,0.021369723088297595,-0.08185588516878989, ,0.0003670323380577776, ,0.00034064233240519885,0.004387328614069068,-0.002517658453009342,0.0035563055218701175,-0.011789239687168773,0.02068023975228648, ,0.0050698415806083195, ,0.012313954737014625, ,3.5862018310298146e-05, ,0.15389862071754604,-0.24615438763303202,0.09173973959000001,-4.525738050226489,0.18117999868897403,-1.2719663195961535, ,-0.002174808827526061,-0.04333193678468985,0.003524073345132744,-0.016392751980822292,-0.015345764336647853,0.0349695847859606, ,0.672537088394165
0.01104884123100088,0.021072929260933262,-0.08174657706746515, ,0.011094166254618024,0.021427679251249502,-0.08188585406312772, ,0.0003837968146246914, ,0.00021595816931553737,0.004227534278330757,-0.0022194641634637534,-0.018091683735704488,-0.0059912561716421115,0.022617285027199424, ,0.0047796134967438035, ,0.0190579162253678, ,3.610010349000897e-05, ,0.15387545251892334,-0.24657913794111436,0.09177214684000001,-4.525738050226489,0.18117999868897403,-1.2716396046355911, ,-0.0028560244356621023,-0.0423269141652412,0.0031870371188475397,-0.016392751980822292,-0.012933706934667711,0.05621875458108601, ,0.6855649948120117
0.011056989810228008,0.021157707037623253,-0.08178942425810683, ,0.011097105138120667,0.02148558156269605,-0.08191584774153049, ,0.0003536860767469093, ,0.00044664863924696424,0.00417996903189519,-0.0018131213003192653,-0.06323455250919867,-0.021990886079452737,-0.009929518517899362, ,0.004578104953385779, ,0.066949292017007, ,3.634402946178879e-05, ,0.1538213933888038,-0.24743636129015328,0.09183436876,-4.525947740169974,0.18049681619014685,-1.2702657277157035, ,-0.002683856676186227,-0.04282352958414746,0.002773604652620582,0.012423046249474828,-0.04334120840293547,0.1022015642369909, ,0.6979751586914062
0.011058391661062261,0.021199433115467757,-0.08180678561794398, ,0.011100073007381571,0.021543430077191297,-0.08194586605470369, ,0.0003733826618836086, ,0.0004163971021541523,0.0038804839084131946,-0.0018345331082966652,-0.013173957197142932,-0.015983446345018932,-0.009295658037208469, ,0.004312430131094618, ,0.020712887420045373, ,3.6626629118917265e-05, ,0.15380594792305533,-0.24786111159823565,0.09186159085000001,-4.525947740169974,0.18049681619014685,-1.269939012755141, ,-0.0014766845480769163,-0.03906831682110777,0.0027392625141874466,0.011628368715049707,-0.02828011524694061,0.049931156198927386, ,0.7098162174224854
0.011058894353189616,0.02123703352553339,-0.08182667387049597, ,0.011103070007068314,0.021601224849199685,-0.08197590885372316, ,0.0003960528864283644, ,0.000293043191493168,0.004398552729650548,-0.002224969118566458,-0.034265830435632076,-0.005215314225003661,-0.0038128690538700542, ,0.004937978129373519, ,0.03466044774457605, ,3.695295267638443e-05, ,0.15377505699155844,-0.2482318027761984,0.09189010923,-4.525947740169974,0.18049681619014685,-1.2696122977945787, ,-0.0029989194732551296,-0.043771652010364745,0.003237563317073171,0.010315082992511963,-0.021965520144498818,0.07669910753035016, ,0.7212831974029541
0.011060513257572928,0.02128582759851992,-0.08185294266400035, ,0.011106096281389642,0.021658965933095783,-0.08200597599003537, ,0.0004058684856793669, ,0.0003037798707463089,0.004211715762096772,-0.002528655326476381,0.001561846195216684,-0.005321327676497687,-0.007895172935832114, ,0.004921882732317219, ,0.0055457994621867035, ,3.7291338462464143e-05, ,0.15374416606006153,-0.2487028894815261,0.09192770164000001,-4.525528360283005,0.18049681619014685,-1.2691222253537355, ,-0.0029429916565270617,-0.04060630789836148,0.003492394545055909,0.012641770290439544,-0.017297028987105688,0.038337940346008306, ,0.7328870296478271
0.01106336539171249,0.021329062082446826,-0.08187933036787688, ,0.01110915197409597,0.02171665338316455,-0.08203606731545626, ,0.00042058280784515955, ,0.0001932855439939454,0.004419914576214096,-0.0027471998809317365,-0.016358501348025023,0.0179238486985743,-0.015484333500532918, ,0.005207697317273558, ,0.024266539068566056, ,3.7652296468364396e-05, ,0.15371327512856464,-0.24911219432386,0.09196399776000001,-4.525108980396035,0.1803601796903814,-1.2686024137493364, ,-0.0028801209658484554,-0.041749644328407734,0.0037665669236226066,0.027299090676379208,0.0,0.062370670934160294, ,0.7443010807037354
0.01106884912706503,0.02137214935426188,-0.08190694425919683, ,0.011112237228479758,0.021774287253601195,-0.08206618268217172, ,0.0004346887309109176, ,0.0003315265544613797,0.004170281857811519,-0.0027344940615531325,8.012606014149706e-05,-0.011611921597710923,0.050799752070099936, ,0.004997861382889113, ,0.011612198035858981, ,3.8033415968659196e-05, ,0.1536978296628162,-0.2495214991661939,0.09200159017000001,-4.524899290452551,0.1800869066908505,-1.2679711842412407, ,-0.001621981277881538,-0.040364500875572425,0.003701792126423426,-0.046102345123974806,-0.006482009333359267,0.032381784490510504, ,0.7564680576324463
0.011071408743478412,0.0214189364086713,-0.08193646540195369, ,0.01111535218737591,0.021831867598511506,-0.0820963219427365, ,0.00044496888367105496, ,0.00016367503084095675,0.004454940472863755,-0.002793152729128005,-0.02706406042013373,-0.001418036636797364,0.04254862232075727, ,0.005260702072985653, ,0.027101184368177326, ,3.842537862631367e-05, ,0.15365921599844506,-0.24996941767289893,0.09204177516,-4.524899290452551,0.17995027019108506,-1.267369693896701, ,-0.0036674387912498736,-0.043213543514786325,0.003810720459330144,-0.03445220514306699,-0.005440953177520767,0.06458862938078097, ,0.7680439949035645
0.011075732505057837,0.021507014193309977,-0.08199409400585599, ,0.011118496993162277,0.021889394471911617,-0.08212648495007491, ,0.0004069039702650738, ,0.0002390856674395073,0.004429969652716847,-0.0025555076510237517,-0.01984050482243086,-0.011559322081582963,0.02743187183743656, ,0.005119805898157483, ,0.02296222024294872, ,3.872327564549483e-05, ,0.15358971140257704,-0.25080347282331517,0.09211955256000001,-4.524899290452551,0.1798136336913196,-1.2663598098514584, ,-0.0037196465985163936,-0.0435307071369132,0.0035706818022864834,-0.022715108284974653,-0.018177422087689618,0.05747015356228312, ,0.7799601554870605
0.011076769165672885,0.021551166647625193,-0.08201749797036391, ,0.011121671787759914,0.021946867927728462,-0.08215667155747915, ,0.00042185902372259237, ,0.0002594280039667207,0.004552626349550088,-0.0024940249017936216,0.0016643561025789463,-0.01095184834746411,0.02413191908636974, ,0.00519748687142417, ,0.011077592850685086, ,3.9044118399120634e-05, ,0.15355882047108016,-0.2512359458642717,0.09215325610000001,-4.524899290452551,0.1798136336913196,-1.2661147736310365, ,-0.0030264951995114297,-0.04493226399548806,0.0035515744749163884,-0.01951633513802781,-0.014920058506142829,0.03808600769958401, ,0.7964310646057129
0.011081184720049004,0.021644349919409986,-0.08207253050790209, ,0.011124876712633645,0.0220042880197996,-0.08218688161861025, ,0.00043115852344650013, ,0.00020308812635141097,0.00451175916289908,-0.002491732690964971,-0.019433684220128925,0.0023244532421251257,0.00836565918525074, ,0.005158095320396112, ,0.019572203890887246, ,3.937504019084528e-05, ,0.15348159314233792,-0.25213950561055604,0.09222973721000001,-4.525108980396035,0.17954036069178875,-1.2649934716820974, ,-0.0031963392826914847,-0.04395411836890726,0.0035428851245551604,0.0,-0.009596153975412806,0.062162339689435075, ,0.8087790012359619
0.011082187318072707,0.021683281449567073,-0.08209206708470948, ,0.011128111908792315,0.022061654801873165,-0.08221711498749686, ,0.0004011389282525873, ,-2.9922643323879346e-05,0.00456838480236507,-0.002096269409834411,-0.005539432333008303,0.0027089217731228006,0.007793867638060511, ,0.005026467995090702, ,0.006166325299917046, ,3.963436590761526e-05, ,0.15344297947796678,-0.25252564225426727,0.09225825559,-4.525108980396035,0.1794037241920233,-1.2645553388178388, ,-0.005250026804767678,-0.04579968221933918,0.0031492312218268093,0.0,-0.009643612090408834,0.049948241448184647, ,0.8205881118774414
0.011081651909019337,0.021736173493269104,-0.0821133046844542, ,0.01113137751678941,0.022118968327608374,-0.0822473715185351, ,0.00040862995150307927, ,-3.000201795223432e-05,0.004321118101659347,-0.0016306572858167953,0.014225034405701928,0.0010537739616722302,0.002607855106033965, ,0.004618658349927681, ,0.014264012177300342, ,3.9901554074926405e-05, ,0.15339664308072143,-0.25305851082258873,0.09229195913,-4.524899290452551,0.1794037241920233,-1.2643103025974172, ,-0.004285173530519804,-0.04422038283246542,0.0026437861443983405,0.00400090837928707,-0.008522152285748343,0.029145778440993773, ,0.8323400020599365
0.011083499803405355,0.021782341376775618,-0.08212963160503717, ,0.011134673676723297,0.022176228650575263,-0.08227765106648927, ,0.0004238817178650744, ,8.373656318450321e-05,0.004519789259820683,-0.0014961743499232343,-0.007747164848352024,-0.0033598562437938064,-0.0018237415716943776, ,0.004761727044946251, ,0.008444358895677283, ,4.0191856965168555e-05, ,0.15335802941635032,-0.25352959752791643,0.09231918122,-4.524479910565582,0.17913045119249243,-1.2636790730893215, ,-0.00359543288340789,-0.046862687189368285,0.002569577596386515,0.008368926029721295,-0.01700338095172431,0.05340060158729395, ,0.8437240123748779
0.011084699226293746,0.021826767435336465,-0.08214628158205914, ,0.011138000528237697,0.022233435824254712,-0.08230795348648956, ,0.00044086053578931553, ,0.00020362988773527037,0.004644125379951297,-0.0019621274192853995,-0.023284705237828034,0.0001470096347305468,-0.00012403845657373713, ,0.005045721919150761, ,0.02328516931044645, ,4.050773327612526e-05, ,0.1533271384848534,-0.2539852387674957,0.09234640331,-4.524479910565582,0.178993814692727,-1.2631592614849223, ,-0.0027784797334296056,-0.04679336368760887,0.0030685439260258146,0.008368926029721295,-0.014698075826674066,0.06938864681626242, ,0.8559780120849609
0.01108690622069758,0.02187607046934086,-0.08217365186277448, ,0.011141358210522107,0.022290589902038867,-0.08233827863403341, ,0.00044932544229686096, ,0.00022011982362048953,0.00483527190622756,-0.0028234266260701484,0.0033800338601385972,-0.003353779728665732,-0.0024652650699301384, ,0.005603574310804317, ,0.004761561422964928, ,4.083150536472679e-05, ,0.1532885248204823,-0.25446404820569757,0.09238529201000001,-4.524479910565582,0.17885717819296154,-1.2626394498805231, ,-0.004320006378996249,-0.046427075126453415,0.003944727964338782,0.008368926029721295,-0.01614521296476293,0.041839250475141754, ,0.8674612045288086
0.011091193064521625,0.02197302788330985,-0.08223128850143571, ,0.01114474686231218,0.022347690937230942,-0.08236862636498456, ,0.00040261905319474245, ,0.00036885348740881696,0.004972715059063984,-0.0028810267079376634,0.005931137495407837,-0.0062463389104465,-0.0027209573741101465, ,0.005758842144534394, ,0.00861366017295213, ,4.105655067424828e-05, ,0.15321902022461428,-0.2553907761506045,0.09246566199,-4.524479910565582,0.1787205416931961,-1.2617929233155616, ,-0.0027776656051152196,-0.047686905305764214,0.004056229060351414,0.008368926029721295,-0.01736039032174514,0.04033879397655071, ,0.8791460990905762
0.0110937433390771,0.022019713623641475,-0.08226040008301932, ,0.011148166621890176,0.022404738983045208,-0.08239899653557248, ,0.00041281399898313064, ,0.00042136627547315975,0.004989523118328139,-0.003256313542846886,-0.01748856097396027,-0.0004070019775744998,-0.00042275015197645426, ,0.005972978183098036, ,0.017493296292681645, ,4.137364533127236e-05, ,0.15321902022461428,-0.2553907761506045,0.09246566199,-4.524479910565582,0.1787205416931961,-1.2617929233155616, ,-0.0027776656051152196,-0.047686905305764214,0.004056229060351414,0.008368926029721295,-0.01736039032174514,0.04033879397655071, ,0.8893630504608154
0.011099571284306341,0.022077072769863103,-0.08229878161606208, ,0.01115161762708537,0.02246173409260752,-0.0824293890023923, ,0.0004095502952949344, ,0.00039626795341667146,0.0051651677435279614,-0.003444723790367066,0.0070668697521193745,0.0004672596153047667,-0.0016433641220684476, ,0.006221101839835739, ,0.007082300414164927, ,4.167742767271737e-05, ,0.1531649610944947,-0.25636384049275684,0.09255769858000001,-4.524270220622098,0.17844726869366523,-1.2606716213666225, ,-0.0027662655141176946,-0.04795196642671591,0.004663001030444965,0.009236029777950738,-0.010566100214553323,0.04059189367375212, ,0.899691104888916
0.011105631919271417,0.022126883864247684,-0.08233122053903552, ,0.011155100015274411,0.02251867631895479,-0.0824598036224051, ,0.00041530955854207066, ,0.0006728970459926229,0.0050450890158663,-0.0033494810094375025,-0.06289712305057792,-0.022476463559090075,-0.006493758847771586, ,0.006093007192274013, ,0.06679251082075786, ,4.1985146466955296e-05, ,0.1531340701629978,-0.25683492719808454,0.09260177244000001,-4.524270220622098,0.17803735919436892,-1.25984729521469, ,-0.0028302650334772203,-0.047353763252729934,0.004530378703071673,0.009236029777950738,-0.04391784726070555,0.10580164167992442, ,0.9097661972045898
0.011110688013786186,0.022178995414951268,-0.08236409730774191, ,0.011158613923381824,0.02257556571503558,-0.08249024025293593, ,0.00041889967574796776, ,0.0006613688967856839,0.005157498002786258,-0.003212200702379083,-0.00471870761987543,-0.020260698346292343,-0.00825938239457521, ,0.006111908688678556, ,0.020802934858796578, ,4.229267647974763e-05, ,0.15311862469724935,-0.2573214593691607,0.09264714259000001,-4.524060530678613,0.17790072269460347,-1.2594908410905719, ,-0.0015417974135700392,-0.04874008297815653,0.004444422857142858,0.010530410182888458,-0.032806457086301755,0.0501868270904339, ,0.9197251796722412
0.011113796840452694,0.02223163099302172,-0.0823968682566081, ,0.011162159487880383,0.02263240233370993,-0.08252069875167557, ,0.0004222447213310052, ,0.0005218733201960615,0.005083453279769456,-0.0031388451399499626,-0.027892235046390004,-0.006056278731938227,-0.0025512761640560174, ,0.005997182490346513, ,0.02854216683535625, ,4.2599577504251305e-05, ,0.1530954564986267,-0.257815714273111,0.09269251274000001,-4.524060530678613,0.17790072269460347,-1.258919089909588, ,-0.001839609971337316,-0.04792774826185393,0.004355704544708779,0.00947202403512832,-0.021272634162886054,0.07436806446694896, ,0.9300191402435303
0.011117753246879913,0.022283993405408507,-0.08243093087588273, ,0.011165736844791415,0.0226891862277494,-0.08255117897667835, ,0.0004253742525001544, ,0.0005253245960300612,0.005276458571509797,-0.003439795123900414,0.043874420471195906,-0.01044668334771428,-0.00481432786952768, ,0.006320535695845917, ,0.04510097520197464, ,4.290548162582725e-05, ,0.15308001103287824,-0.2583022464441872,0.09273917918,-4.524060530678613,0.17790072269460347,-1.2584290174687445, ,-0.0017525757075247082,-0.04906770504574497,0.004704315274660367,0.008594313985311608,-0.0156644405247041,0.003628240194011683, ,0.9400050640106201
0.011122563315813867,0.022336238876505998,-0.08246644889696536, ,0.01116934612968546,0.022745917449837248,-0.08258168078636319, ,0.00042813964247038144, ,0.00038975692940385265,0.005377714768519717,-0.003791629409422916,0.012207274987982807,0.00737826957471697,0.00935396233529076, ,0.006591523357614245, ,0.014263815189694573, ,4.320977173761943e-05, ,0.15305684283425555,-0.2587810558823891,0.09278714191000001,-4.523850840735128,0.17776408619483802,-1.2579092058643453, ,-0.002320754295312222,-0.04901701526780516,0.005074485989168526,0.0006543482871322352,0.0,0.036746266619224977, ,0.9497940540313721
0.011126291608008144,0.02237039608825658,-0.08249074824563733, ,0.011172987477682398,0.022802596052568604,-0.08261220403951242, ,0.000451363294101078, ,0.0004129888164702291,0.00533817013668019,-0.0037485351850501804,0.01211101555981019,0.0013405376686613287,0.0019526468016823541, ,0.006535911275731401, ,0.012184980032438895, ,4.354858066826381e-05, ,0.1530413973685071,-0.25908996519735805,0.09281954916000001,-4.523641150791644,0.17762744969507258,-1.2577161092205082, ,-0.002856451370890377,-0.04871506240167905,0.005015368866498741,0.005909020990992614,-0.008256966917114573,0.03609763956644504, ,0.9602031707763672
0.011136930685673323,0.022444563237424924,-0.08254041953988046, ,0.011176661023452076,0.022859222088450166,-0.08264274859527174, ,0.00042894253467202055, ,0.0008481811826108005,0.005304214628552802,-0.003279583799762389,-0.04075175107881947,-0.030050436113932648,-0.018853708893803566, ,0.006293629639878129, ,0.05063332821618795, ,4.3841165398913786e-05, ,0.15301822916988445,-0.25977728842316405,0.09288695624000001,-4.523431460848159,0.17708090369601082,-1.2566986864247387, ,-0.0013608778191394639,-0.05002474515470257,0.0045680560711213085,0.019192684928623596,-0.05042669462759737,0.08672109614389013, ,0.9700150489807129
0.011136930685673323,0.022444563237424924,-0.08254041953988046, ,0.011180366901214638,0.02291579560990075,-0.0826733143131503, ,0.000491536035761558, ,0.0008481811826108005,0.005304214628552802,-0.003279583799762389,-0.04075175107881947,-0.030050436113932648,-0.018853708893803566, ,0.006293629639878129, ,0.05063332821618795, ,4.423579241682065e-05, ,0.15301822916988445,-0.25977728842316405,0.09288695624000001,-4.523431460848159,0.17708090369601082,-1.2566986864247387, ,-0.0013608778191394639,-0.05002474515470257,0.0045680560711213085,0.019192684928623596,-0.05042669462759737,0.08672109614389013, ,0.979902982711792
0.011143558726379545,0.022539652719290752,-0.0825923953086121, ,0.011184105244740934,0.022972316669251133,-0.08270390105301917, ,0.00044863754276957873, ,0.0005112965962331784,0.005202194670178567,-0.002814733926795339,0.010550607675158606,-0.008694842895810231,-0.010694408674041773, ,0.005936916764988931, ,0.013671708566278671, ,4.454899376428844e-05, ,0.15298733823838753,-0.26068857090232256,0.09296214106,-4.523431460848159,0.1769442671962454,-1.2563422323006206, ,-0.0012790654928822578,-0.049788531772545004,0.004088503983572896,0.01596518829826896,-0.02024775028124829,0.03846212501973077, ,0.9902341365814209
0.011148887988755823,0.022607577711354822,-0.08262751698526834, ,0.011187876187352945,0.02302878531874394,-0.08273450867511256, ,0.000436329176021999, ,0.0003264828792207369,0.005559378564175935,-0.0028097090966529587,0.03498356319517054,0.007610993701746364,-0.0038383322719427655, ,0.00623760741775703, ,0.03580191222244149, ,4.4835009353859105e-05, ,0.1529718927726391,-0.2613450031966316,0.09301399266,-4.523431460848159,0.17680763069647995,-1.255904099436362, ,-0.0013156692868502517,-0.053463065666744095,0.004185184319495534,0.013983329212927458,0.0,0.02013977253672689, ,1.0001201629638672
0.011153699788216433,0.022662403633644933,-0.08265562507790733, ,0.011191679861924205,0.023085201610534182,-0.08276513704002647, ,0.0004383987740718193, ,0.0003555231858690988,0.005517469228403717,-0.0028007938979605477,-0.006403108382537071,0.0014186297393170568,-0.0036024720905534478, ,0.006197847197287575, ,0.006558376866530581, ,4.511874254975302e-05, ,0.15294872457401643,-0.26187787176495314,0.09305547394000001,-4.523431460848159,0.17653435769694906,-1.2553545486684068, ,-0.002298015638921628,-0.05322318651624834,0.004153536250325946,0.01274850519155243,-0.01278055166255218,0.05967278295737569, ,1.0104660987854004
0.011162486646573506,0.022716133923037007,-0.08268543984273705, ,0.011195516400880144,0.02314156559668885,-0.0827957860087186, ,0.0004407486244591071, ,0.0010990755388576461,0.00563351762182192,-0.003386534741114536,-0.06359992353754393,-0.07047193745071333,-0.010532911867100515, ,0.006664315822968552, ,0.09492757366325791, ,4.540072624653675e-05, ,0.15292555637539373,-0.26239529486752616,0.09309825151000001,-4.523221770904676,0.17585117519812185,-1.2544707441893626, ,-0.0028742286854531065,-0.05416492098086232,0.004729457102137767,0.0,-0.09206253205003383,0.10477145867047377, ,1.0203971862792969
0.011162486646573506,0.022716133923037007,-0.08268543984273705, ,0.011199385936198647,0.023197877329187468,-0.08282645544250848, ,0.000503312692392299, ,0.0005919746426410731,0.005808962327932671,-0.002963161321656057,-0.005719329334908135,-0.02105427179396879,-0.011524978313064387, ,0.006547885332153385, ,0.021817265836648923, ,4.5779886073980224e-05, ,0.15289466544389685,-0.2629822225659672,0.09314751053,-4.52301208096119,0.1754412656988255,-1.2538914542578514, ,-0.002333362163245996,-0.056218567273975575,0.004386893836408704,0.01430975823073658,-0.036843054089563045,0.05862270133081046, ,1.0304679870605469
0.011168881339971841,0.022777716050693668,-0.082719760249688, ,0.011203288599410326,0.023254136859921674,-0.08285714520307591, ,0.0004970264302679834, ,0.0005919746426410731,0.005808962327932671,-0.002963161321656057,-0.005719329334908135,-0.02105427179396879,-0.011524978313064387, ,0.006547885332153385, ,0.021817265836648923, ,4.6216574998895664e-05, ,0.15289466544389685,-0.2629822225659672,0.09314751053,-4.52301208096119,0.1754412656988255,-1.2538914542578514, ,-0.002333362163245996,-0.056218567273975575,0.004386893836408704,0.01430975823073658,-0.036843054089563045,0.05862270133081046, ,1.0387210845947266
0.011171810123647447,0.022829853660560548,-0.08274315809186363, ,0.011207224521598958,0.023310344240695613,-0.08288785515246204, ,0.0005030532939228413, ,0.00019751836501027248,0.005462602093045154,-0.002535642437556088,0.03276375140545347,0.007533148391094288,0.000864830475698471, ,0.006025654960466372, ,0.033618621785191934, ,4.665594562721289e-05, ,0.15287149724527416,-0.26349192293566603,0.09318380665,-4.522802391017706,0.1753046291990601,-1.2535350001337333, ,-0.0023194490465641656,-0.053133785867004915,0.0038907697899364926,0.009068684168202378,0.0,0.021323465347906165, ,1.047255039215088
0.011173725860984442,0.022880275237444486,-0.08276829622471508, ,0.011211193833401993,0.023366499523226097,-0.08291858515306853, ,0.0005102986057462311, ,0.00024729913572166305,0.006011501361691478,-0.0031313588556898604,0.0384219355431309,0.008009500817379868,0.0017684207386387493, ,0.006782677477755705, ,0.039247894643191325, ,4.709988613620354e-05, ,0.1528483290466515,-0.26397845510674217,0.09322139906000002,-4.522802391017706,0.1753046291990601,-1.2533716426534522, ,-0.002783308272108946,-0.05740891806320072,0.0046143718192352265,0.008790228984969065,0.0002917196094852817,0.01987596134373222, ,1.0559041500091553
0.011175595932046917,0.02295078213715164,-0.08280528175636326, ,0.011215196665010866,0.023422602759142118,-0.0829493350676568, ,0.0004949083489711971, ,0.00026537179842378155,0.005885922032414196,-0.0030433059127750756,0.0188594918867504,0.009569338724542503,0.003735424123296105, ,0.006631456193159183, ,0.021148349287601155, ,4.751230095065534e-05, ,0.1528174381151546,-0.26465033286679973,0.09327584324,-4.522802391017706,0.1754412656988255,-1.2530746668564459, ,-0.002433704154417115,-0.056218567273975575,0.004502207891464105,0.007754248239729607,0.0,0.038272959856519496, ,1.0639581680297852
0.011180116760549988,0.023011912601222186,-0.0828394548123319, ,0.011219233146171428,0.023478653999985877,-0.08298010475934822, ,0.000489039908943704, ,0.00039643655175409734,0.006328575286497522,-0.003744611320373778,-0.017484282693016617,0.014357605779501282,0.007473357363755498, ,0.007364111693687523, ,0.02262390294075328, ,4.79089545850251e-05, ,0.15279426991653192,-0.2652295378323666,0.09332510226000001,-4.522802391017706,0.1753046291990601,-1.252309819031625, ,-0.002156530770158884,-0.05894219972575825,0.0053096038400000005,0.007043871067133957,0.0,0.07764518894211374, ,1.0722970962524414
0.011180116760549988,0.023011912601222186,-0.0828394548123319, ,0.011223303406184378,0.023534653297211956,-0.08301089409162357, ,0.0005518281871099612, ,0.0004721741863183296,0.0063221371280420225,-0.004511275689953984,-0.027626974664387238,0.013647368960264843,0.007470284815184758, ,0.007781000878984824, ,0.030813964476772194, ,4.8397661023499024e-05, ,0.15277110171790925,-0.2658087427979334,0.09338343531000001,-4.522802391017706,0.17516799269929464,-1.2513816137265228, ,-0.002906561155348386,-0.056519917545247635,0.006049681549563237,0.006459891816944643,-0.0024155158891157524,0.08503458446692651, ,1.0805621147155762
0.011185961900676457,0.02307547436161236,-0.08288223902221059, ,0.011227407573905644,0.023590600702187745,-0.08304170292832308, ,0.0005408341963454797, ,0.0004721741863183296,0.0063221371280420225,-0.004511275689953984,-0.027626974664387238,0.013647368960264843,0.007470284815184758, ,0.007781000878984824, ,0.030813964476772194, ,4.886170743844931e-05, ,0.15277110171790925,-0.2658087427979334,0.09338343531000001,-4.522802391017706,0.17516799269929464,-1.2513816137265228, ,-0.002906561155348386,-0.056519917545247635,0.006049681549563237,0.006459891816944643,-0.0024155158891157524,0.08503458446692651, ,1.0895872116088867
0.011189309538367952,0.023140220574877315,-0.08292479640286064, ,0.011231545777746897,0.023646496266193674,-0.08307253113364504, ,0.0005290789413827319, ,0.00030099196138960195,0.006480722657215014,-0.0038782840427900324,0.01578590401420965,0.007397912132592974,0.011472823553045915, ,0.007558534873712034, ,0.01743341241954672, ,4.930049080392001e-05, ,0.15273248805353812,-0.26639567049637447,0.09344176836000001,-4.522592701074221,0.17516799269929464,-1.2507281838053985, ,-0.0037417722177242345,-0.06029030594566124,0.0054681810916580855,0.0,-0.0023270389541286693,0.0439534342503905, ,1.097870111465454
0.011191261567521723,0.023199057041320883,-0.08295830641715152, ,0.011235718145675852,0.023702340040423008,-0.083103378572147, ,0.0005256577733482473, ,0.00032232385331339966,0.006389589399858967,-0.0035592318168288185,-0.0037769597012061776,0.013899600260518018,-0.002306180646290761, ,0.007321125356878643, ,0.014403621468767395, ,4.972733379983537e-05, ,0.152693874389167,-0.2669439845304444,0.09348973109000001,-4.522383011130737,0.17516799269929464,-1.2501564326244146, ,-0.0029446874540569536,-0.05987188741859355,0.005144964961240311,0.01598746427687065,-0.002143876409248878,0.06572112558638742, ,1.106693983078003
0.01119503793463659,0.02327330792318755,-0.08299943783032396, ,0.011239924805216642,0.02375813207598217,-0.0831342451087442, ,0.0005052150953787545, ,0.00034202009210670666,0.006502202554825249,-0.0035000807658244464,0.013630440942392975,0.011296857577821211,-0.00217417766217559, ,0.007392305538509276, ,0.017703330502827987, ,5.0116678908150366e-05, ,0.1526629834576701,-0.26762358502337613,0.09354676785,-4.522173321187252,0.17516799269929464,-1.2495030027032898, ,-0.0025758204196240763,-0.06118435948321777,0.00512345175940817,0.01497792497194287,-0.0019351405455006446,0.049889719967477486, ,1.1159281730651855
0.01119959513188194,0.02333762465129592,-0.083033912600326, ,0.011244165883592868,0.023813872423792213,-0.08316513060910066, ,0.0004960006638529273, ,0.00037888899426851504,0.006488164944217741,-0.003598466757930477,0.01889049715839103,0.011473171248690956,-0.0006180496930488485, ,0.007428916759614721, ,0.02210168637886243, ,5.048628322940364e-05, ,0.15263981525904743,-0.26824912638618836,0.09359991574000001,-4.522173321187252,0.1750313561995292,-1.2489015123587501, ,-0.002109190622445721,-0.06067579383533937,0.0052259880314960636,0.013421907227767791,0.0,0.04353736056533279, ,1.1242001056671143
0.011203131594302558,0.023401855263837625,-0.08306967027960528, ,0.011248441507155349,0.0238695611349829,-0.08319603493806563, ,0.0004865899680575926, ,0.00034397673222614383,0.006634149463869876,-0.0034738605502389794,0.004584235472402792,0.013429716769185756,0.0021646227454035307, ,0.0074965302789880475, ,0.014190578101722579, ,5.083629601252857e-05, ,0.15261664706042477,-0.26885149955037785,0.09365176734000001,-4.522173321187252,0.1750313561995292,-1.2484931186580472, ,-0.0022878079083888895,-0.06263824525311602,0.005144964961240311,0.011973902261651553,0.0,0.05975238492055969, ,1.1327400207519531
0.011203131594302558,0.023401855263837625,-0.08306967027960528, ,0.01125275180224529,0.023925198260301716,-0.08322695796201757, ,0.0005487162035359642, ,0.00034397673222614383,0.006634149463869876,-0.0034738605502389794,0.004584235472402792,0.013429716769185756,0.0021646227454035307, ,0.0074965302789880475, ,0.014190578101722579, ,5.127329115121302e-05, ,0.15261664706042477,-0.26885149955037785,0.09365176734000001,-4.522173321187252,0.1750313561995292,-1.2484931186580472, ,-0.0022878079083888895,-0.06263824525311602,0.005144964961240311,0.011973902261651553,0.0,0.05975238492055969, ,1.1408541202545166
0.011207208708140022,0.023467526702699342,-0.0831010446094036, ,0.011257096894617052,0.023980783850507746,-0.08325789954730117, ,0.0005390038983803711, ,0.0002616340687783725,0.006360888040781848,-0.002829590966961621,0.02430440969341271,0.004976643386805388,-6.843421796810448e-05, ,0.006966773578466423, ,0.024808694237369595, ,5.1689546589540426e-05, ,0.15259347886180208,-0.2694847636460643,0.09369973007000001,-4.522173321187252,0.17489471969976378,-1.2478099495733672, ,-0.0027095446108485236,-0.061661430512326684,0.004440705748536382,0.010801993991112355,-0.005956159581396973,0.037770748720608545, ,1.1494522094726562
0.011210462666132641,0.0235387431694407,-0.08313092390231529, ,0.011261476909583455,0.024036317956273742,-0.08328885956061768, ,0.0005245253031934868, ,0.00029570789151205654,0.0064356499750703134,-0.0027747666444961953,0.028292919287574242,-0.0013427983530749886,0.0082398503998995, ,0.00701458221778986, ,0.028324766355006782, ,5.20785488852214e-05, ,0.1525625879303052,-0.27017980960474447,0.0937476928,-4.521963631243768,0.17475808319999833,-1.247208459228827, ,-0.0024884152587068007,-0.0628040645655002,0.004412413163434903,0.0010063314678468646,-0.008975283495961517,0.03297804134682712, ,1.1579530239105225
0.011216924408797142,0.02360547982117634,-0.08316200413443195, ,0.011265891972016322,0.02409180062818602,-0.0833198378690245, ,0.0005136314216961438, ,0.0006336708600713941,0.006579746846760116,-0.0034071695890139104,-0.03400501587473911,-0.018313064907855184,0.004664253851851575, ,0.007436626381273603, ,0.03862265462784, ,5.2522323923237764e-05, ,0.1525394197316825,-0.27082851916617934,0.09379565553000001,-4.521963631243768,0.17434817370070202,-1.246465811817035, ,-0.0023940403763405196,-0.0627625274857611,0.005064804934817171,0.0010063314678468646,-0.03513012861297228,0.09204869987406901, ,1.1647191047668457
0.011216924408797142,0.02360547982117634,-0.08316200413443195, ,0.011270342206346859,0.02414723191674426,-0.08335083433993494, ,0.0005761993063668113, ,0.0006336708600713941,0.006579746846760116,-0.0034071695890139104,-0.03400501587473911,-0.018313064907855184,0.004664253851851575, ,0.007436626381273603, ,0.03862265462784, ,5.305138463230404e-05, ,0.1525394197316825,-0.27082851916617934,0.09379565553000001,-4.521963631243768,0.17434817370070202,-1.246465811817035, ,-0.0023940403763405196,-0.0627625274857611,0.005064804934817171,0.0010063314678468646,-0.03513012861297228,0.09204869987406901, ,1.1714661121368408
0.011224384311187632,0.0236748779187613,-0.08320282186601892, ,0.011274827736566137,0.024202611872361945,-0.08338184884111795, ,0.0005595518946085278, ,0.0009069467919837534,0.007141763568212626,-0.004342947910369971,-0.0015869473802792766,-0.026665686796015328,-0.01043085422872612, ,0.008407647465250054, ,0.026712866801337155, ,5.3550445488739824e-05, ,0.15252397426593406,-0.27146950599473996,0.09385398858,-4.521753941300283,0.17407490070117113,-1.24591626104908, ,-0.0016886522707719328,-0.06585492127582983,0.006138270335260117,0.013011835269585499,-0.042547925259504696,0.06302307192536404, ,1.178157091140747
0.011229842400544834,0.023745945439639926,-0.08325134784313636, ,0.011279348686225182,0.024257940545366407,-0.08341288124069722, ,0.0005391501638108728, ,0.0007564537455680768,0.007504555594175982,-0.005678698584508131,-0.014433484526242983,-0.006660247792628338,0.00012297563772219362, ,0.009441302587511783, ,0.015896048890311626, ,5.4014657462819696e-05, ,0.15248536060156295,-0.2721027700904264,0.09392009937000001,-4.521544251356799,0.17393826420140568,-1.2454781281848213, ,-0.0039721080403822065,-0.06549133302862027,0.007520685325779038,0.008349498459222499,-0.02457010189245449,0.07763772392585938, ,1.1847550868988037
0.011229842400544834,0.023745945439639926,-0.08325134784313636, ,0.011283905178435815,0.02431321798599857,-0.08344393140715164, ,0.0006015059059845873, ,0.0007564537455680768,0.007504555594175982,-0.005678698584508131,-0.014433484526242983,-0.006660247792628338,0.00012297563772219362, ,0.009441302587511783, ,0.015896048890311626, ,5.456216779823633e-05, ,0.15248536060156295,-0.2721027700904264,0.09392009937000001,-4.521544251356799,0.17393826420140568,-1.2454781281848213, ,-0.0039721080403822065,-0.06549133302862027,0.007520685325779038,0.008349498459222499,-0.02457010189245449,0.07763772392585938, ,1.1912131309509277
0.011237790226184029,0.023822124379584524,-0.08330755502274201, ,0.011288497335871095,0.02436844424441323,-0.08347499920931516, ,0.0005736498594930658, ,0.0007230144366901745,0.007501859262563986,-0.0053727222140074115,0.03142966471482588,0.0021524351345305944,0.004910328127355422, ,0.009255635378506879, ,0.03150328231498885, ,5.506414687775627e-05, ,0.15246219240294026,-0.2727669251176097,0.09399528419000001,-4.5213345614133145,0.17380162770164026,-1.2448766378402816, ,-0.0018770665776897092,-0.0659923098459463,0.007253557158469946,0.005898763585150851,-0.006209354809384433,0.03412811926737108, ,1.1981041431427002
0.011247216252514586,0.023895345362271923,-0.08335797676718905, ,0.011293125280765145,0.024423619370679207,-0.08350608451637516, ,0.0005505605981203028, ,0.0008157433333693582,0.007590410484163084,-0.005196891471406475,-0.006082606544634847,-0.00874063570867138,0.002651796495345145, ,0.009235120436118132, ,0.01064879388371501, ,5.552805700501649e-05, ,0.1524390242043176,-0.27342335741191875,0.09406398756,-4.5213345614133145,0.17339171820234395,-1.2440523116883488, ,-0.002264111943375025,-0.06768683420718315,0.007101565546143559,0.005898763585150851,-0.023381895156618513,0.07119979406987224, ,1.2059581279754639
0.01125784746305957,0.023975165074471557,-0.08341561716459545, ,0.011297789134914084,0.024478743414779534,-0.08353718719787288, ,0.0005195822889292399, ,0.0010922749864766643,0.007551627467174762,-0.005301532978564419,-0.03147808825475916,-0.02040143610443857,9.591596480003394e-06, ,0.009291199813365174, ,0.03751118008154222, ,5.5943517983939916e-05, ,0.15243130147144338,-0.2741261261034732,0.09414176496000001,-4.5213345614133145,0.17311844520281303,-1.243094367219691, ,-0.0006536970523640591,-0.06697031867217415,0.007210869859665008,0.005898763585150851,-0.037252437708651255,0.09410106088714047, ,1.212651014328003
0.01125784746305957,0.023975165074471557,-0.08341561716459545, ,0.011302489019676308,0.024533816426611108,-0.08356830712370385, ,0.0005808600738878845, ,0.0010922749864766643,0.007551627467174762,-0.005301532978564419,-0.03147808825475916,-0.02040143610443857,9.591596480003394e-06, ,0.009291199813365174, ,0.03751118008154222, ,5.643947076442898e-05, ,0.15243130147144338,-0.2741261261034732,0.09414176496000001,-4.5213345614133145,0.17311844520281303,-1.243094367219691, ,-0.0006536970523640591,-0.06697031867217415,0.007210869859665008,0.005898763585150851,-0.037252437708651255,0.09410106088714047, ,1.2195711135864258
0.011264472753636108,0.024052350667847573,-0.08346730876000322, ,0.011307225055973043,0.024588838455984984,-0.08359944416411655, ,0.0005541720591981107, ,0.0009560972582334901,0.007789030268124071,-0.005187504947370174,0.005067557064717601,-0.014496786495895758,0.0012947322256954552, ,0.009407088926120799, ,0.015356983738845824, ,5.689308150495439e-05, ,0.15241585600569493,-0.2748134493292792,0.09421306091000001,-4.5213345614133145,0.17311844520281303,-1.2426042947788476, ,-0.0009417341853325621,-0.06967470011635153,0.007168682052205221,0.005898763585150851,-0.026695204430196847,0.06141891644922106, ,1.2259821891784668
0.011270812600560724,0.024127923062959095,-0.08351674118931197, ,0.01131199736428832,0.02464380955262677,-0.08363059818971176, ,0.0005299042097633974, ,0.0007799239357883134,0.007799727413552719,-0.005069712757417311,0.003370045902979109,-0.00433220646173182,-0.0015167072637655174, ,0.009335203078351385, ,0.005488644538157369, ,5.730837255405271e-05, ,0.15240041053994646,-0.2754853270893367,0.09428176428000001,-4.52112487146983,0.17311844520281303,-1.2420325435978639, ,-0.002036315012243144,-0.06987992750991957,0.0070512667197875165,0.01144509090573121,-0.019248344996107277,0.06526804201870205, ,1.2328240871429443
0.011270812600560724,0.024127923062959095,-0.08351674118931197, ,0.011316806064670023,0.02469872976617605,-0.08366176907144426, ,0.0005907357935439141, ,0.0007799239357883134,0.007799727413552719,-0.005069712757417311,0.003370045902979109,-0.00433220646173182,-0.0015167072637655174, ,0.009335203078351385, ,0.005488644538157369, ,5.780222815969165e-05, ,0.15240041053994646,-0.2754853270893367,0.09428176428000001,-4.52112487146983,0.17311844520281303,-1.2420325435978639, ,-0.002036315012243144,-0.06987992750991957,0.0070512667197875165,0.01144509090573121,-0.019248344996107277,0.06526804201870205, ,1.2396290302276611
0.01127475392596554,0.024191873272617168,-0.08355485446195847, ,0.01132165127672954,0.024753599146187112,-0.08369295668061966, ,0.0005803512224039348, ,0.000606824242605401,0.007674564864297909,-0.004298769811252986,-0.005219715042299709,0.003015624970031977,-0.0067980741799044, ,0.00881740343910097, ,0.006028218444508084, ,5.827660629795954e-05, ,0.1523772423413238,-0.27606453205490356,0.09433620846000002,-4.520915181526345,0.17311844520281303,-1.2415424711570204, ,-0.002316295360382318,-0.07066041813735724,0.0062687176387249115,0.019054870489431653,-0.015550778433473982,0.0764097606720506, ,1.2463350296020508
0.0112833880004905,0.02428460321938713,-0.08360340396011699, ,0.011326533119642821,0.024808417742128844,-0.08372416088889544, ,0.0005392822928576471, ,0.0006036670674639756,0.007835580149663308,-0.004056567789145272,0.012477608257870518,0.005669791177774728,-0.00038070771303716543, ,0.008844007713591681, ,0.013705372623098096, ,5.869035747048091e-05, ,0.15236179687557536,-0.2769294781368167,0.0944088007,-4.52070549158286,0.17284517220328216,-1.2405028479482219, ,-0.0010946391980561376,-0.07299764735266984,0.006098319877488516,0.013967182873966566,-0.007857395895237141,0.0612429235562534, ,1.2529401779174805
0.0112833880004905,0.02428460321938713,-0.08360340396011699, ,0.01133145171215073,0.02486318560338414,-0.08375538156828258, ,0.0006001373916312465, ,0.0006036670674639756,0.007835580149663308,-0.004056567789145272,0.012477608257870518,0.005669791177774728,-0.00038070771303716543, ,0.008844007713591681, ,0.013705372623098096, ,5.918145419326226e-05, ,0.15236179687557536,-0.2769294781368167,0.0944088007,-4.52070549158286,0.17284517220328216,-1.2405028479482219, ,-0.0010946391980561376,-0.07299764735266984,0.006098319877488516,0.013967182873966566,-0.007857395895237141,0.0612429235562534, ,1.259491205215454
0.011292068024957377,0.024361306759256112,-0.08364837985387323, ,0.01133640717255895,0.02491790277925109,-0.08378661859114109, ,0.000575217383226285, ,0.0007712582783082548,0.008177661392439094,-0.004892930988001187,0.007183117201183518,0.0026156798564332443,0.0009264280557548069, ,0.009560845089979765, ,0.007644537332818364, ,5.9633983025419e-05, ,0.15235407414270113,-0.2776322468283711,0.09447361520000001,-4.52070549158286,0.1725718992037513,-1.239544903479564, ,-0.0009807537740324148,-0.07408036031106227,0.007010920563380283,0.012103461033752516,-0.011237205747902948,0.06689976661518496, ,1.2664589881896973
0.011292068024957377,0.024361306759256112,-0.08364837985387323, ,0.011341399618738967,0.024972569318942248,-0.08381787183018363, ,0.0006362413481161719, ,0.0007712582783082548,0.008177661392439094,-0.004892930988001187,0.007183117201183518,0.0026156798564332443,0.0009264280557548069, ,0.009560845089979765, ,0.007644537332818364, ,6.02429569256053e-05, ,0.15235407414270113,-0.2776322468283711,0.09447361520000001,-4.52070549158286,0.1725718992037513,-1.239544903479564, ,-0.0009807537740324148,-0.07408036031106227,0.007010920563380283,0.012103461033752516,-0.011237205747902948,0.06689976661518496, ,1.271496057510376
0.011300046579910974,0.024447692926086066,-0.08369738514774763, ,0.01134642916812815,0.02502718527158506,-0.08384914115847245, ,0.0006008266054135419, ,0.000786739925986986,0.008167734087064752,-0.004367381000313788,-0.02167131808954508,-0.011157740876159167,-0.0010794625313378552, ,0.009295421272327756, ,0.024375011950947323, ,6.080011572485825e-05, ,0.15233090594407844,-0.2784276883144162,0.09454491115000001,-4.52070549158286,0.1722986262042204,-1.2386686377510467, ,-0.001826112125473004,-0.07585686775257457,0.006488314264765784,0.010547922775844326,-0.030219428438568483,0.0947979825625812, ,1.2764801979064941
0.011300046579910974,0.024447692926086066,-0.08369738514774763, ,0.01135149593773036,0.02508175068622158,-0.08388042644942097, ,0.0006619519602859112, ,0.000786739925986986,0.008167734087064752,-0.004367381000313788,-0.02167131808954508,-0.011157740876159167,-0.0010794625313378552, ,0.009295421272327756, ,0.024375011950947323, ,6.143360530624708e-05, ,0.15233090594407844,-0.2784276883144162,0.09454491115000001,-4.52070549158286,0.1722986262042204,-1.2386686377510467, ,-0.001826112125473004,-0.07585686775257457,0.006488314264765784,0.010547922775844326,-0.030219428438568483,0.0947979825625812, ,1.2813360691070557
0.011307859151461864,0.024531322933778247,-0.08374423791374891, ,0.011356600044116046,0.02513626561180944,-0.08391172757679119, ,0.0006295904268223084, ,0.0007173314658152055,0.008453963636437321,-0.0050196497668455985,0.030152856842271165,0.00109409834411174,0.0109588757766724, ,0.009858039834563776, ,0.030172699974483505, ,6.201951268901493e-05, ,0.15232318321120422,-0.2791922388689645,0.09461361452000001,-4.520495801639376,0.17216198970445498,-1.2380671474065068, ,-0.0013769142749235038,-0.07659155896567456,0.007217404404168555,0.0016581558024131619,-0.007180431354089143,0.04524249194012124, ,1.2899510860443115
0.01131761997576503,0.024619160620528335,-0.083799072640802, ,0.01136174160342312,0.025190730097220643,-0.08394304441469654, ,0.0005910721245261513, ,0.00092294551170583,0.008906797215696849,-0.005897326776700626,0.0179624567010167,0.00433919814568212,-0.004133407190006098, ,0.010722002059798034, ,0.018479136455752727, ,6.255032997139907e-05, ,0.15232318321120422,-0.27997223488926115,0.09469139192,-4.520076421752408,0.17202535320468954,-1.2373022995816858, ,-0.0009335552926538711,-0.0783624620631468,0.00820649743431221,0.017976004783606673,-0.010338588393939325,0.061276554545959955, ,1.2949612140655518
0.01131761997576503,0.024619160620528335,-0.083799072640802, ,0.011366920731356952,0.0252451441912426,-0.0839743768375981, ,0.0006519337057711031, ,0.00092294551170583,0.008906797215696849,-0.005897326776700626,0.0179624567010167,0.00433919814568212,-0.004133407190006098, ,0.010722002059798034, ,0.018479136455752727, ,6.315644317747859e-05, ,0.15232318321120422,-0.27997223488926115,0.09469139192,-4.520076421752408,0.17202535320468954,-1.2373022995816858, ,-0.0009335552926538711,-0.0783624620631468,0.00820649743431221,0.017976004783606673,-0.010338588393939325,0.061276554545959955, ,1.3001031875610352
0.011322535117923905,0.024661401178332498,-0.08382705822815148, ,0.01137213754319113,0.025299507942577865,-0.08400572472030757, ,0.0006645015865951302, ,0.0010188906825404664,0.008921650124781738,-0.005831685245958751,0.023543604229595293,-0.0014287612011337379,-0.007474640713503584, ,0.010707125290194318, ,0.023586916965658362, ,6.37741704298358e-05, ,0.15231546047833,-0.28034292606722394,0.09473028062000001,-4.519866731808922,0.17188871670492406,-1.236945845457568, ,-0.00022092510728111906,-0.078687347892596,0.008156073486943164,0.019558333824516418,-0.015352673538352166,0.05543906335549256, ,1.305185079574585
0.011322535117923905,0.024661401178332498,-0.08382705822815148, ,0.011377392153767542,0.0253538213998442,-0.08403708793798394, ,0.0007256497340674586, ,0.0010188906825404664,0.008921650124781738,-0.005831685245958751,0.023543604229595293,-0.0014287612011337379,-0.007474640713503584, ,0.010707125290194318, ,0.023586916965658362, ,6.44663041380974e-05, ,0.15231546047833,-0.28034292606722394,0.09473028062000001,-4.519866731808922,0.17188871670492406,-1.236945845457568, ,-0.00022092510728111906,-0.078687347892596,0.008156073486943164,0.019558333824516418,-0.015352673538352166,0.05543906335549256, ,1.3100521564483643
0.011340527579850322,0.02479950729641277,-0.08391687533030331, ,0.011382684677496938,0.025408084611574806,-0.08406846636613505, ,0.000628588427793858, ,0.0012317138333822375,0.008971977214745554,-0.005479267956204452,-0.026415798013793162,-0.021873307905670526,-0.012466600419798739, ,0.01058469987506247, ,0.03429629686282598, ,6.502783899665167e-05, ,0.15230773774545578,-0.2815708405942256,0.09485602075,-4.519866731808922,0.17134217070586233,-1.2355200289610955, ,-5.187636873033855e-05,-0.08055767534674939,0.007831274100294987,0.019558333824516418,-0.04371143046551322,0.10359852718072557, ,1.3149640560150146
0.011340527579850322,0.02479950729641277,-0.08391687533030331, ,0.011388015228359602,0.02546229762621805,-0.0840998598806174, ,0.0006892237979771014, ,0.0012317138333822375,0.008971977214745554,-0.005479267956204452,-0.026415798013793162,-0.021873307905670526,-0.012466600419798739, ,0.01058469987506247, ,0.03429629686282598, ,6.566298074599248e-05, ,0.15230773774545578,-0.2815708405942256,0.09485602075,-4.519866731808922,0.17134217070586233,-1.2355200289610955, ,-5.187636873033855e-05,-0.08055767534674939,0.007831274100294987,0.019558333824516418,-0.04371143046551322,0.10359852718072557, ,1.3200600147247314
0.011350005785970098,0.024890314337999264,-0.08397069645662668, ,0.011393383919905152,0.02551646049213818,-0.08413126835763397, ,0.0006478610994956691, ,0.001090359216466607,0.0094293727970819,-0.0054252353769978735,-0.03475195800841967,-0.0059180757906233785,-0.006339459151823827, ,0.010933212403640162, ,0.03525226520072972, ,6.624028184363357e-05, ,0.15230773774545578,-0.2823894502788934,0.09493379815000001,-4.519866731808922,0.17120553420609688,-1.2347551811362747, ,-7.67475162715162e-05,-0.08533897622164638,0.007916904333996026,0.019558333824516418,-0.029007378896866765,0.11900664769499855, ,1.324904203414917
0.011350005785970098,0.024890314337999264,-0.08397069645662668, ,0.011398790865253541,0.025570573257614613,-0.08416269167373604, ,0.000708515592679373, ,0.001090359216466607,0.0094293727970819,-0.0054252353769978735,-0.03475195800841967,-0.0059180757906233785,-0.006339459151823827, ,0.010933212403640162, ,0.03525226520072972, ,6.689053024560866e-05, ,0.15230773774545578,-0.2823894502788934,0.09493379815000001,-4.519866731808922,0.17120553420609688,-1.2347551811362747, ,-7.67475162715162e-05,-0.08533897622164638,0.007916904333996026,0.019558333824516418,-0.029007378896866765,0.11900664769499855, ,1.3297200202941895
0.011359807767770668,0.02498667455129103,-0.08403094207965364, ,0.01140423617709515,0.025624635970842663,-0.08419412970582096, ,0.0006599991346400108, ,0.0011167788271089466,0.010198835585560069,-0.006897472583022736,0.03306489050347804,0.005378042610541661,-0.0038604787698426866, ,0.012362789745179506, ,0.03349940761739085, ,6.74741738846216e-05, ,0.15230001501258156,-0.2832466736279323,0.09501935329000001,-4.519866731808922,0.17106889770633144,-1.2339086545713127, ,-0.00026331310440164915,-0.0885232663791705,0.009572603076923078,0.019558333824516418,-0.008399060900042202,0.056678946780386354, ,1.3350942134857178
0.011359807767770668,0.02498667455129103,-0.08403094207965364, ,0.011409719967691375,0.02567864867993323,-0.08422558233113439, ,0.0007205582904300972, ,0.0011167788271089466,0.010198835585560069,-0.006897472583022736,0.03306489050347804,0.005378042610541661,-0.0038604787698426866, ,0.012362789745179506, ,0.03349940761739085, ,6.813004194636366e-05, ,0.15230001501258156,-0.2832466736279323,0.09501935329000001,-4.519866731808922,0.17106889770633144,-1.2339086545713127, ,-0.00026331310440164915,-0.0885232663791705,0.009572603076923078,0.019558333824516418,-0.008399060900042202,0.056678946780386354, ,1.3402340412139893
0.011372131919468694,0.025092702840644007,-0.08410289734101571, ,0.011415242348874994,0.02573261143291284,-0.0842570494272673, ,0.0006596244244104319, ,0.0010031261176955244,0.009932965848202299,-0.0066387678222221205,0.01846946838881651,0.01288085718922494,0.006236044153073497, ,0.011989299843899473, ,0.022517498342383053, ,6.870410789664279e-05, ,0.15230001501258156,-0.2841656788399651,0.09511916762000001,-4.519657041865438,0.17093226120656602,-1.2330621280063516, ,-0.00022723996878023977,-0.08626994687133707,0.009255555793143523,0.012115869534818129,0.0,0.0693439234892044, ,1.3451361656188965
0.011372131919468694,0.025092702840644007,-0.08410289734101571, ,0.011420803432050335,0.025786524277724328,-0.08428853087215651, ,0.0007198728433362307, ,0.0010031261176955244,0.009932965848202299,-0.0066387678222221205,0.01846946838881651,0.01288085718922494,0.006236044153073497, ,0.011989299843899473, ,0.022517498342383053, ,6.943676780550184e-05, ,0.15230001501258156,-0.2841656788399651,0.09511916762000001,-4.519657041865438,0.17093226120656602,-1.2330621280063516, ,-0.00022723996878023977,-0.08626994687133707,0.009255555793143523,0.012115869534818129,0.0,0.0693439234892044, ,1.3485360145568848
0.011372131919468694,0.025092702840644007,-0.08410289734101571, ,0.011426403328194057,0.025840387262226205,-0.0843200265440847, ,0.0007804629849692525, ,0.0010031261176955244,0.009932965848202299,-0.0066387678222221205,0.01846946838881651,0.01288085718922494,0.006236044153073497, ,0.011989299843899473, ,0.022517498342383053, ,7.024177338813452e-05, ,0.15230001501258156,-0.2841656788399651,0.09511916762000001,-4.519657041865438,0.17093226120656602,-1.2330621280063516, ,-0.00022723996878023977,-0.08626994687133707,0.009255555793143523,0.012115869534818129,0.0,0.0693439234892044, ,1.3518881797790527
0.011384232329583204,0.025197917314615525,-0.08416979120346434, ,0.01143204214785539,0.02589420043419285,-0.08435153632168088, ,0.0007211984812290569, ,0.001173426243842265,0.010929869521053771,-0.006686760065934148,0.005731364421968626,-0.0014177522785029976,0.006901087903158443, ,0.012866690991718485, ,0.005904112659175019, ,7.096857555891398e-05, ,0.15229229227970734,-0.285092406784872,0.09521379679000001,-4.519447351921953,0.17065898820703512,-1.2321041835376936, ,-9.161827264918787e-05,-0.09703163758534844,0.009589892546658641,0.00914757577155154,-0.017097212731067964,0.0899942479904038, ,1.3552231788635254
0.011384232329583204,0.025197917314615525,-0.08416979120346434, ,0.01143772000115653,0.025947963841315043,-0.08438306008391748, ,0.0007816100937130252, ,0.001173426243842265,0.010929869521053771,-0.006686760065934148,0.005731364421968626,-0.0014177522785029976,0.006901087903158443, ,0.012866690991718485, ,0.005904112659175019, ,7.176716849598663e-05, ,0.15229229227970734,-0.285092406784872,0.09521379679000001,-4.519447351921953,0.17065898820703512,-1.2321041835376936, ,-9.161827264918787e-05,-0.09703163758534844,0.009589892546658641,0.00914757577155154,-0.017097212731067964,0.0899942479904038, ,1.3586220741271973
0.011384232329583204,0.025197917314615525,-0.08416979120346434, ,0.011443436997793065,0.026001677531199602,-0.08441459771011312, ,0.0008422979901428602, ,0.001173426243842265,0.010929869521053771,-0.006686760065934148,0.005731364421968626,-0.0014177522785029976,0.006901087903158443, ,0.012866690991718485, ,0.005904112659175019, ,7.263735984486695e-05, ,0.15229229227970734,-0.285092406784872,0.09521379679000001,-4.519447351921953,0.17065898820703512,-1.2321041835376936, ,-9.161827264918787e-05,-0.09703163758534844,0.009589892546658641,0.00914757577155154,-0.017097212731067964,0.0899942479904038, ,1.3618221282958984
0.01140205775894038,0.02531176346046444,-0.08425021106603924, ,0.011449193247034521,0.026055341551369317,-0.08444614907993107, ,0.0007704036843106969, ,0.0019043538437101258,0.011892357474317251,-0.009414269908595015,-0.03876341830284605,-0.03280485034033802,-0.0018102222080361484, ,0.015286700355893698, ,0.0507814998835623, ,7.341391756489299e-05, ,0.15228456954683312,-0.2860731938598985,0.09532398144000001,-4.519237661978469,0.16997580570820792,-1.2305669491375246, ,-0.0005591815575802194,-0.09905735026980249,0.012502991773940349,0.008828393893318184,-0.056701477097045,0.13105322396377628, ,1.3655741214752197
0.01140205775894038,0.02531176346046444,-0.08425021106603924, ,0.011454988857724422,0.026108955949263903,-0.08447771407337651, ,0.0008307076403670996, ,0.0019043538437101258,0.011892357474317251,-0.009414269908595015,-0.03876341830284605,-0.03280485034033802,-0.0018102222080361484, ,0.015286700355893698, ,0.0507814998835623, ,7.426135226778929e-05, ,0.15228456954683312,-0.2860731938598985,0.09532398144000001,-4.519237661978469,0.16997580570820792,-1.2305669491375246, ,-0.0005591815575802194,-0.09905735026980249,0.012502991773940349,0.008828393893318184,-0.056701477097045,0.13105322396377628, ,1.3690030574798584
0.01140205775894038,0.02531176346046444,-0.08425021106603924, ,0.011460823938281219,0.026162520772238924,-0.08450929257080116, ,0.0008912713915984119, ,0.0019043538437101258,0.011892357474317251,-0.009414269908595015,-0.03876341830284605,-0.03280485034033802,-0.0018102222080361484, ,0.015286700355893698, ,0.0507814998835623, ,7.51794594211426e-05, ,0.15228456954683312,-0.2860731938598985,0.09532398144000001,-4.519237661978469,0.16997580570820792,-1.2305669491375246, ,-0.0005591815575802194,-0.09905735026980249,0.012502991773940349,0.008828393893318184,-0.056701477097045,0.13105322396377628, ,1.372277021408081
0.011418505699054681,0.02543839853212095,-0.08435337643071594, ,0.011466698596698176,0.026216036067566676,-0.084540884452898, ,0.0008013750372328834, ,0.0018284442026605535,0.012835206603823115,-0.01063807156311336,-0.01311365972043383,-0.009503766805575641,0.008800140284825063, ,0.016770638131776282, ,0.016195354843750214, ,7.598219199622349e-05, ,0.1522768468139589,-0.2871080400650446,0.09546009189000002,-4.519027972034984,0.1698391692084425,-1.2294753863521417, ,-0.0007481743063743761,-0.10462727845476381,0.01397264168421053,0.006187110010734085,-0.029018145417007802,0.11442626064370458, ,1.375563144683838
0.011418505699054681,0.02543839853212095,-0.08435337643071594, ,0.011472612940544209,0.026269501882435996,-0.0845724896007046, ,0.0008612032011952695, ,0.0018284442026605535,0.012835206603823115,-0.01063807156311336,-0.01311365972043383,-0.009503766805575641,0.008800140284825063, ,0.016770638131776282, ,0.016195354843750214, ,7.685456446510765e-05, ,0.1522768468139589,-0.2871080400650446,0.09546009189000002,-4.519027972034984,0.1698391692084425,-1.2294753863521417, ,-0.0007481743063743761,-0.10462727845476381,0.01397264168421053,0.006187110010734085,-0.029018145417007802,0.11442626064370458, ,1.3788950443267822
0.011418505699054681,0.02543839853212095,-0.08435337643071594, ,0.011478567076964014,0.026322918263952434,-0.08460410789560018, ,0.0009213299043223345, ,0.0018284442026605535,0.012835206603823115,-0.01063807156311336,-0.01311365972043383,-0.009503766805575641,0.008800140284825063, ,0.016770638131776282, ,0.016195354843750214, ,7.779643044718386e-05, ,0.1522768468139589,-0.2871080400650446,0.09546009189000002,-4.519027972034984,0.1698391692084425,-1.2294753863521417, ,-0.0007481743063743761,-0.10462727845476381,0.01397264168421053,0.006187110010734085,-0.029018145417007802,0.11442626064370458, ,1.382220983505249
0.011435907757539719,0.025565709892689567,-0.08445883966776294, ,0.011484561112678602,0.02637628525913783,-0.08463573921930728, ,0.0008310794336256881, ,0.0017577188999983917,0.013565032804372285,-0.011450295185946471,-0.009451550517704466,0.012084695911668213,0.01657813184116613, ,0.017838412220834474, ,0.015341821457694667, ,7.86232193978954e-05, ,0.1522768468139589,-0.2881428862701907,0.09559879492000001,-4.519027972034984,0.16970253270867705,-1.228302144826618, ,-0.0006992929495603303,-0.10920246439409755,0.014984770950141113,0.006187110010734085,-0.006613887111459994,0.11864243177190958, ,1.3854801654815674
0.011435907757539719,0.025565709892689567,-0.08445883966776294, ,0.011490595153985712,0.02642960291493142,-0.08466738345389008, ,0.000890388890283591, ,0.0017577188999983917,0.013565032804372285,-0.011450295185946471,-0.009451550517704466,0.012084695911668213,0.01657813184116613, ,0.017838412220834474, ,0.015341821457694667, ,7.951838722632982e-05, ,0.1522768468139589,-0.2881428862701907,0.09559879492000001,-4.519027972034984,0.16970253270867705,-1.228302144826618, ,-0.0006992929495603303,-0.10920246439409755,0.014984770950141113,0.006187110010734085,-0.006613887111459994,0.11864243177190958, ,1.3888030052185059
0.011435907757539719,0.025565709892689567,-0.08445883966776294, ,0.01149666930676025,0.026482871278188654,-0.08469904048175535, ,0.000950038632876001, ,0.0017577188999983917,0.013565032804372285,-0.011450295185946471,-0.009451550517704466,0.012084695911668213,0.01657813184116613, ,0.017838412220834474, ,0.015341821457694667, ,8.048184868604157e-05, ,0.1522768468139589,-0.2881428862701907,0.09559879492000001,-4.519027972034984,0.16970253270867705,-1.228302144826618, ,-0.0006992929495603303,-0.10920246439409755,0.014984770950141113,0.006187110010734085,-0.006613887111459994,0.11864243177190958, ,1.392322063446045
0.011456501442294133,0.025708547880156477,-0.08458110746503801, ,0.011502783676454529,0.026536090395682534,-0.08473071018565001, ,0.0008422289678089819, ,0.0019375080174338245,0.01397608047759024,-0.011965948197896087,-0.03286204846669559,0.013126544118214904,0.0006634668631906789, ,0.0185005048338804, ,0.035386722716202516, ,8.130963151767815e-05, ,0.15226912408108464,-0.2892858507355759,0.09575823859,-4.5188182820915,0.16942925970914616,-1.2268541279171166, ,-0.0003575617161853597,-0.11138138680571688,0.015616481882352944,0.022825723495209106,-0.014065921945413023,0.14582935197822647, ,1.3963119983673096
0.011456501442294133,0.025708547880156477,-0.08458110746503801, ,0.011508938368098888,0.0265892603141025,-0.08476239244866354, ,0.0009007043176220995, ,0.0019375080174338245,0.01397608047759024,-0.011965948197896087,-0.03286204846669559,0.013126544118214904,0.0006634668631906789, ,0.0185005048338804, ,0.035386722716202516, ,8.220428006869237e-05, ,0.15226912408108464,-0.2892858507355759,0.09575823859,-4.5188182820915,0.16942925970914616,-1.2268541279171166, ,-0.0003575617161853597,-0.11138138680571688,0.015616481882352944,0.022825723495209106,-0.014065921945413023,0.14582935197822647, ,1.399604082107544
0.01147733939900051,0.025846214493229935,-0.08469269947103374, ,0.011515133486302068,0.02664238108005561,-0.08479408715422475, ,0.0008034855874970286, ,0.002096903380855119,0.014468034721408079,-0.010962616506238804,-0.0570071798177127,-0.017294664548227315,-0.003971286035679198, ,0.01827293061201106, ,0.059572844604499645, ,8.297704551894587e-05, ,0.15226912408108464,-0.2892858507355759,0.09575823859,-4.5188182820915,0.16942925970914616,-1.2268541279171166, ,-0.0003575617161853597,-0.11138138680571688,0.015616481882352944,0.022825723495209106,-0.014065921945413023,0.14582935197822647, ,1.4035460948944092
0.01147733939900051,0.025846214493229935,-0.08469269947103374, ,0.011521369135251454,0.02669545274006559,-0.08482579418610484, ,0.0008607313290119522, ,0.002096903380855119,0.014468034721408079,-0.010962616506238804,-0.0570071798177127,-0.017294664548227315,-0.003971286035679198, ,0.01827293061201106, ,0.059572844604499645, ,8.381513627645378e-05, ,0.15226912408108464,-0.29040564700233845,0.09590601565000001,-4.5186085921480155,0.16901935020984984,-1.225131335623638, ,-0.0003575617161853597,-0.12012271083350731,0.01478998284122563,0.01956072444015448,-0.04936861646340066,0.1732302228071464, ,1.407379150390625
0.01147733939900051,0.025846214493229935,-0.08469269947103374, ,0.011527645418713789,0.02674847534057383,-0.08485751342841324, ,0.00091856898097868, ,0.002096903380855119,0.014468034721408079,-0.010962616506238804,-0.0570071798177127,-0.017294664548227315,-0.003971286035679198, ,0.01827293061201106, ,0.059572844604499645, ,8.471879296529347e-05, ,0.15226912408108464,-0.29040564700233845,0.09590601565000001,-4.5186085921480155,0.16901935020984984,-1.225131335623638, ,-0.0003575617161853597,-0.12012271083350731,0.01478998284122563,0.01956072444015448,-0.04936861646340066,0.1732302228071464, ,1.4109280109405518
0.011494430416180496,0.025992617679102045,-0.08479614084388441, ,0.011533962440035257,0.026801448927938832,-0.0848892447656002, ,0.0008151313453939735, ,0.0016052355936835624,0.014265980088243079,-0.009213041907654415,-0.009192398261857563,-0.00019252481527646213,0.0037853442713128554, ,0.017057992565995952, ,0.009194410542958366, ,8.549393553367688e-05, ,0.15226912408108464,-0.29164128426221436,0.09604860755000001,-4.5186085921480155,0.1688827137100844,-1.2238764153579735, ,-0.0003551331313774592,-0.12292349942807097,0.013056402885245903,0.01694546561976765,-0.024376131438813266,0.13102262644160062, ,1.4144229888916016
0.011494430416180496,0.025992617679102045,-0.08479614084388441, ,0.011540320302142195,0.026854373548436533,-0.08492098808245527, ,0.0008719609469149326, ,0.0016052355936835624,0.014265980088243079,-0.009213041907654415,-0.009192398261857563,-0.00019252481527646213,0.0037853442713128554, ,0.017057992565995952, ,0.009194410542958366, ,8.63334242472668e-05, ,0.15226912408108464,-0.29164128426221436,0.09604860755000001,-4.5186085921480155,0.1688827137100844,-1.2238764153579735, ,-0.0003551331313774592,-0.12292349942807097,0.013056402885245903,0.01694546561976765,-0.024376131438813266,0.13102262644160062, ,1.4177730083465576
0.011494430416180496,0.025992617679102045,-0.08479614084388441, ,0.011546719107541131,0.026907249248260105,-0.08495274326410875, ,0.0009294134346806385, ,0.0016052355936835624,0.014265980088243079,-0.009213041907654415,-0.009192398261857563,-0.00019252481527646213,0.0037853442713128554, ,0.017057992565995952, ,0.009194410542958366, ,8.723754203243538e-05, ,0.15226912408108464,-0.29164128426221436,0.09604860755000001,-4.5186085921480155,0.1688827137100844,-1.2238764153579735, ,-0.0003551331313774592,-0.12292349942807097,0.013056402885245903,0.01694546561976765,-0.024376131438813266,0.13102262644160062, ,1.4212892055511475
0.011506864443003098,0.02614219656730727,-0.08488111802507149, ,0.011553158958319674,0.026960076073520613,-0.08498451019602676, ,0.0008256875982155854, ,0.0012741659835519452,0.014268814462827463,-0.007149536044015024,-0.009483836557159874,0.00594952598559523,0.014566818755574196, ,0.016010572468619137, ,0.011195534673058736, ,8.801371904572586e-05, ,0.15226140134821042,-0.2929155351864614,0.09617045881000001,-4.518398902204531,0.1688827137100844,-1.222651234255865, ,0.0003781292363397472,-0.12911148511356568,0.011077059471488179,0.009843936854710538,-0.01587246311100192,0.13790394909044928, ,1.425171136856079
0.011506864443003098,0.02614219656730727,-0.08488111802507149, ,0.011559639956146612,0.02701285407024659,-0.0850162887640164, ,0.000882666908226996, ,0.0012741659835519452,0.014268814462827463,-0.007149536044015024,-0.009483836557159874,0.00594952598559523,0.014566818755574196, ,0.016010572468619137, ,0.011195534673058736, ,8.895973474713213e-05, ,0.15226140134821042,-0.2929155351864614,0.09617045881000001,-4.518398902204531,0.1688827137100844,-1.222651234255865, ,0.0003781292363397472,-0.12911148511356568,0.011077059471488179,0.009843936854710538,-0.01587246311100192,0.13790394909044928, ,1.4270811080932617
0.011506864443003098,0.02614219656730727,-0.08488111802507149, ,0.011566162202272268,0.02706558328438431,-0.08504807885422214, ,0.0009402314459745142, ,0.0012741659835519452,0.014268814462827463,-0.007149536044015024,-0.009483836557159874,0.00594952598559523,0.014566818755574196, ,0.016010572468619137, ,0.011195534673058736, ,8.997194843467956e-05, ,0.15226140134821042,-0.2929155351864614,0.09617045881000001,-4.518398902204531,0.1688827137100844,-1.222651234255865, ,0.0003781292363397472,-0.12911148511356568,0.011077059471488179,0.009843936854710538,-0.01587246311100192,0.13790394909044928, ,1.4289040565490723
0.011506864443003098,0.02614219656730727,-0.08488111802507149, ,0.01157272579752922,0.027118263761797618,-0.08507988035312596, ,0.0009982741853989338, ,0.0012741659835519452,0.014268814462827463,-0.007149536044015024,-0.009483836557159874,0.00594952598559523,0.014566818755574196, ,0.016010572468619137, ,0.011195534673058736, ,9.10506921840433e-05, ,0.15226140134821042,-0.2929155351864614,0.09617045881000001,-4.518398902204531,0.1688827137100844,-1.222651234255865, ,0.0003781292363397472,-0.12911148511356568,0.011077059471488179,0.009843936854710538,-0.01587246311100192,0.13790394909044928, ,1.4306700229644775
0.011506864443003098,0.02614219656730727,-0.08488111802507149, ,0.011579330842332352,0.027170895548268438,-0.08511169314754824, ,0.0010567108684817524, ,0.0012741659835519452,0.014268814462827463,-0.007149536044015024,-0.009483836557159874,0.00594952598559523,0.014566818755574196, ,0.016010572468619137, ,0.011195534673058736, ,9.219619654501328e-05, ,0.15226140134821042,-0.2929155351864614,0.09617045881000001,-4.518398902204531,0.1688827137100844,-1.222651234255865, ,0.0003781292363397472,-0.12911148511356568,0.011077059471488179,0.009843936854710538,-0.01587246311100192,0.13790394909044928, ,1.4324910640716553
0.01151850231810714,0.026287911589359645,-0.08495218597139996, ,0.011585977436679622,0.02722347868949668,-0.0851435171246462, ,0.0009573120184598793, ,0.0013498057806671795,0.015362974113967117,-0.007748599222111709,0.04460173724170627,0.004967754255714899,0.009828043587977765, ,0.017259308768802314, ,0.04487753914142891, ,9.322121529135791e-05, ,0.15226912408108464,-0.29428245890519916,0.09628582862000001,-4.5181892122610465,0.1688827137100844,-1.2215894106340377, ,0.0005822181814147773,-0.13853568110725661,0.012003625862848533,0.014542485348400943,-0.011888603762474607,0.09373542188014443, ,1.4342319965362549
0.01151850231810714,0.026287911589359645,-0.08495218597139996, ,0.01159266568015225,0.02727601323110015,-0.08517535217191323, ,0.0010157008475587912, ,0.0013498057806671795,0.015362974113967117,-0.007748599222111709,0.04460173724170627,0.004967754255714899,0.009828043587977765, ,0.017259308768802314, ,0.04487753914142891, ,9.431290716386375e-05, ,0.15226912408108464,-0.29428245890519916,0.09628582862000001,-4.5181892122610465,0.1688827137100844,-1.2215894106340377, ,0.0005822181814147773,-0.13853568110725661,0.012003625862848533,0.014542485348400943,-0.011888603762474607,0.09373542188014443, ,1.4359040260314941
0.01151850231810714,0.026287911589359645,-0.08495218597139996, ,0.011599395671915015,0.027328499218614466,-0.08520719817718075, ,0.001074428952488549, ,0.0013498057806671795,0.015362974113967117,-0.007748599222111709,0.04460173724170627,0.004967754255714899,0.009828043587977765, ,0.017259308768802314, ,0.04487753914142891, ,9.547143676826645e-05, ,0.15226912408108464,-0.29428245890519916,0.09628582862000001,-4.5181892122610465,0.1688827137100844,-1.2215894106340377, ,0.0005822181814147773,-0.13853568110725661,0.012003625862848533,0.014542485348400943,-0.011888603762474607,0.09373542188014443, ,1.437596082687378
0.01151850231810714,0.026287911589359645,-0.08495218597139996, ,0.011606167510717044,0.02738093669749392,-0.08523905502861566, ,0.0011334385422223368, ,0.0013498057806671795,0.015362974113967117,-0.007748599222111709,0.04460173724170627,0.004967754255714899,0.009828043587977765, ,0.017259308768802314, ,0.04487753914142891, ,0.0005318329483647776, ,0.15226912408108464,-0.29428245890519916,0.09628582862000001,-4.5181892122610465,0.1688827137100844,-1.2215894106340377, ,0.0005822181814147773,-0.13853568110725661,0.012003625862848533,0.014542485348400943,-0.011888603762474607,0.09373542188014443, ,1.4393022060394287
0.01151850231810714,0.026287911589359645,-0.08495218597139996, ,0.011612981294891831,0.027433325713110395,-0.0852709226147212, ,0.00119268304244576, ,0.0013498057806671795,0.015362974113967117,-0.007748599222111709,0.04460173724170627,0.004967754255714899,0.009828043587977765, ,0.017259308768802314, ,0.04487753914142891, ,0.0005360964973588485, ,0.15226912408108464,-0.29428245890519916,0.09628582862000001,-4.5181892122610465,0.1688827137100844,-1.2215894106340377, ,0.0005822181814147773,-0.13853568110725661,0.012003625862848533,0.014542485348400943,-0.011888603762474607,0.09373542188014443, ,1.4409940242767334
0.01151850231810714,0.026287911589359645,-0.08495218597139996, ,0.011619837122358107,0.027485666310754872,-0.08530280082433458, ,0.0012521245506240616, ,0.0013498057806671795,0.015362974113967117,-0.007748599222111709,0.04460173724170627,0.004967754255714899,0.009828043587977765, ,0.017259308768802314, ,0.04487753914142891, ,0.0005406864207772152, ,0.15226912408108464,-0.29428245890519916,0.09628582862000001,-4.5181892122610465,0.1688827137100844,-1.2215894106340377, ,0.0005822181814147773,-0.13853568110725661,0.012003625862848533,0.014542485348400943,-0.011888603762474607,0.09373542188014443, ,1.4426510334014893
0.011538182322287061,0.026454968815186226,-0.08504352789607313, ,0.011626735090619572,0.027537958535635912,-0.08533468954663058, ,0.0011249370800779836, ,0.0020016956075597264,0.01824996379537297,-0.01094170925486692,0.008361295318088748,-0.009191777710931786,0.001411301666927873, ,0.02137262186199411, ,0.01242577482713506, ,0.000544407762556201, ,0.1522768468139589,-0.29576522361705027,0.09642323536000001,-4.517769832374077,0.1683361677110226,-1.2201635941375653, ,-0.00024509777583004534,-0.15869053772319527,0.01594475627627628,0.021877990042792575,-0.037870396946948,0.1477255097104092, ,1.444411039352417
0.011538182322287061,0.026454968815186226,-0.08504352789607313, ,0.011633675296766057,0.027590202432881097,-0.08536658867111786, ,0.0011841632232475112, ,0.0020016956075597264,0.01824996379537297,-0.01094170925486692,0.008361295318088748,-0.009191777710931786,0.001411301666927873, ,0.02137262186199411, ,0.01242577482713506, ,0.0005484568477504497, ,0.1522768468139589,-0.29576522361705027,0.09642323536000001,-4.517769832374077,0.1683361677110226,-1.2201635941375653, ,-0.00024509777583004534,-0.15869053772319527,0.01594475627627628,0.021877990042792575,-0.037870396946948,0.1477255097104092, ,1.4461030960083008
0.011538182322287061,0.026454968815186226,-0.08504352789607313, ,0.011640657837473459,0.027642398047536286,-0.08539849808763944, ,0.001243580817620148, ,0.0020016956075597264,0.01824996379537297,-0.01094170925486692,0.008361295318088748,-0.009191777710931786,0.001411301666927873, ,0.02137262186199411, ,0.01242577482713506, ,0.0005528286966175548, ,0.1522768468139589,-0.29576522361705027,0.09642323536000001,-4.517769832374077,0.1683361677110226,-1.2201635941375653, ,-0.00024509777583004534,-0.15869053772319527,0.01594475627627628,0.021877990042792575,-0.037870396946948,0.1477255097104092, ,1.4479091167449951
0.011538182322287061,0.026454968815186226,-0.08504352789607313, ,0.011647682809004346,0.027694545424566137,-0.08543041768637266, ,0.0013031593290734388, ,0.0020016956075597264,0.01824996379537297,-0.01094170925486692,0.008361295318088748,-0.009191777710931786,0.001411301666927873, ,0.02137262186199411, ,0.01242577482713506, ,0.000557518263070404, ,0.1522768468139589,-0.29576522361705027,0.09642323536000001,-4.517769832374077,0.1683361677110226,-1.2201635941375653, ,-0.00024509777583004534,-0.15869053772319527,0.01594475627627628,0.021877990042792575,-0.037870396946948,0.1477255097104092, ,1.4496312141418457
0.011538182322287061,0.026454968815186226,-0.08504352789607313, ,0.011654750307208184,0.027746644608853805,-0.08546234735782948, ,0.0013628735057228255, ,0.0020016956075597264,0.01824996379537297,-0.01094170925486692,0.008361295318088748,-0.009191777710931786,0.001411301666927873, ,0.02137262186199411, ,0.01242577482713506, ,0.000562520469546506, ,0.1522768468139589,-0.29576522361705027,0.09642323536000001,-4.517769832374077,0.1683361677110226,-1.2201635941375653, ,-0.00024509777583004534,-0.15869053772319527,0.01594475627627628,0.021877990042792575,-0.037870396946948,0.1477255097104092, ,1.4513180255889893
