NicholasDascanio/dvrk_moveit_final/test/execution/third_experiment_notsharpbends/thirdexp_700vel3.0/thirdexp_700vel3.0_13.csv
Current Position (x),Current Position (y),Current Position (z), ,Planned Position (x),Planned Position (y),Planned Position (z), ,Position Error,,Cartesian linear Velocity(x),Cartesian linear Velocity(y),Cartesian linear Velocity(z),Cartesian Angular Velocity(x),Cartesian Angular Velocity(y),Cartesian Angular Velocity(z), ,Total Linear Velocity, ,Total Angular Velocity, ,MSE, ,Joint 1 Position,Joint 2 Position,Joint 3 Position,Joint 4 Position,Joint 5 Position,Joint 6 Position, ,Joint 1 Velocity,Joint 2 Velocity,Joint 3 Velocity,Joint 4 Velocity,Joint 5 Velocity,Joint 6 Velocity, ,Time Stamp
0.08951003274574877,0.08007162465701612,-0.13943718234053978, ,0.007187442029572082,0.02021999197928746,-0.07305834777370877, ,0.12151286579973174, ,-7.767316565657775e-06,3.167308809381878e-05,1.3202094524130593e-05,-0.0006146511255719614,-0.0006973319842619058,0.001311342489388031, ,3.5182538507816995e-05, ,0.0009295525280701064, ,0.010126072149977645, ,0.0,0.0,0.0,0.0,0.0,0.0, ,0.0,0.0,0.0,0.0,0.0,0.0, ,0.017066001892089844
0.08951003274574877,0.08007162465701612,-0.13943718234053978, ,0.007246694957710524,0.02022217495613674,-0.07320960986932239, ,0.12138906346519576, ,-7.767316565657775e-06,3.167308809381878e-05,1.3202094524130593e-05,-0.0006146511255719614,-0.0006973319842619058,0.001311342489388031, ,3.5182538507816995e-05, ,0.0009295525280701064, ,0.01104099678476943, ,0.0,0.0,0.0,0.0,0.0,0.0, ,0.0,0.0,0.0,0.0,0.0,0.0, ,0.033757925033569336
0.08951003274574877,0.08007162465701612,-0.13943718234053978, ,0.007305857448831462,0.02022435092504984,-0.07336051883788752, ,0.1212656095891904, ,-7.767316565657775e-06,3.167308809381878e-05,1.3202094524130593e-05,-0.0006146511255719614,-0.0006973319842619058,0.001311342489388031, ,3.5182538507816995e-05, ,0.0009295525280701064, ,0.011380235589191184, ,0.0,0.0,0.0,0.0,0.0,0.0, ,0.0,0.0,0.0,0.0,0.0,0.0, ,0.05158805847167969
0.08951003274574877,0.08007162465701612,-0.13943718234053978, ,0.007364929555254788,0.02022651989657281,-0.07351107512914361, ,0.12114250349903555, ,-7.767316565657775e-06,3.167308809381878e-05,1.3202094524130593e-05,-0.0006146511255719614,-0.0006973319842619058,0.001311342489388031, ,3.5182538507816995e-05, ,0.0009295525280701064, ,0.011555001008408415, ,0.0,0.0,0.0,0.0,0.0,0.0, ,0.0,0.0,0.0,0.0,0.0,0.0, ,0.06776785850524902
0.08951003274574877,0.08007162465701612,-0.13943718234053978, ,0.007423911329342661,0.02022868188126682,-0.073661279192502, ,0.12101974452208457, ,-7.767316565657775e-06,3.167308809381878e-05,1.3202094524130593e-05,-0.0006146511255719614,-0.0006973319842619058,0.001311342489388031, ,3.5182538507816995e-05, ,0.0009295525280701064, ,0.011660188209139192, ,0.0,0.0,0.0,0.0,0.0,0.0, ,0.0,0.0,0.0,0.0,0.0,0.0, ,0.08984899520874023
0.08951003274574877,0.08007162465701612,-0.13943718234053978, ,0.007482802823499408,0.02023083688970752,-0.07381113147704582, ,0.12089733198572881, ,-7.767316565657775e-06,3.167308809381878e-05,1.3202094524130593e-05,-0.0006146511255719614,-0.0006973319842619058,0.001311342489388031, ,3.5182538507816995e-05, ,0.0009295525280701064, ,0.011729469659047852, ,0.0,0.0,0.0,0.0,0.0,0.0, ,0.0,0.0,0.0,0.0,0.0,0.0, ,0.1070859432220459
0.08951003274574877,0.08007162465701612,-0.13943718234053978, ,0.007541604090171617,0.020232984932485376,-0.07396063243153059, ,0.12077526521740121, ,-7.767316565657775e-06,3.167308809381878e-05,1.3202094524130593e-05,-0.0006146511255719614,-0.0006973319842619058,0.001311342489388031, ,3.5182538507816995e-05, ,0.0009295525280701064, ,0.011777810889977335, ,0.0,0.0,0.0,0.0,0.0,0.0, ,0.0,0.0,0.0,0.0,0.0,0.0, ,0.12401604652404785
0.08951003274574877,0.08007162465701612,-0.13943718234053978, ,0.007600315181847729,0.02023512602020499,-0.07410978250438535, ,0.12065354354458029, ,-7.767316565657775e-06,3.167308809381878e-05,1.3202094524130593e-05,-0.0006146511255719614,-0.0006973319842619058,0.001311342489388031, ,3.5182538507816995e-05, ,0.0009295525280701064, ,0.011812877166133516, ,0.0,0.0,0.0,0.0,0.0,0.0, ,0.0,0.0,0.0,0.0,0.0,0.0, ,0.1424398422241211
0.08951003274574877,0.08007162465701612,-0.13943718234053978, ,0.0076589361510583315,0.020237260163485645,-0.07425858214371225, ,0.12053216629479406, ,-7.767316565657775e-06,3.167308809381878e-05,1.3202094524130593e-05,-0.0006146511255719614,-0.0006973319842619058,0.001311342489388031, ,3.5182538507816995e-05, ,0.0009295525280701064, ,0.011839001020845025, ,0.0,0.0,0.0,0.0,0.0,0.0, ,0.0,0.0,0.0,0.0,0.0,0.0, ,0.1589488983154297
0.08951003274574877,0.08007162465701612,-0.13943718234053978, ,0.007717467050375905,0.02023938737296069,-0.07440703179728778, ,0.1204111327956241, ,-7.767316565657775e-06,3.167308809381878e-05,1.3202094524130593e-05,-0.0006146511255719614,-0.0006973319842619058,0.001311342489388031, ,3.5182538507816995e-05, ,0.0009295525280701064, ,0.01185881594817026, ,0.0,0.0,0.0,0.0,0.0,0.0, ,0.0,0.0,0.0,0.0,0.0,0.0, ,0.1781609058380127
0.08951003274574877,0.08007162465701612,-0.13943718234053978, ,0.007775907932414694,0.020241507659277454,-0.07455513191256317, ,0.12029044237470934, ,-7.767316565657775e-06,3.167308809381878e-05,1.3202094524130593e-05,-0.0006146511255719614,-0.0006973319842619058,0.001311342489388031, ,3.5182538507816995e-05, ,0.0009295525280701064, ,0.011874014902572104, ,0.0,0.0,0.0,0.0,0.0,0.0, ,0.0,0.0,0.0,0.0,0.0,0.0, ,0.19541597366333008
0.08951003274574877,0.08007162465701612,-0.13943718234053978, ,0.007834258849830817,0.02024362103309746,-0.07470288293666484, ,0.12017009435975018, ,-7.767316565657775e-06,3.167308809381878e-05,1.3202094524130593e-05,-0.0006146511255719614,-0.0006973319842619058,0.001311342489388031, ,3.5182538507816995e-05, ,0.0009295525280701064, ,0.011885735765965785, ,0.0,0.0,0.0,0.0,0.0,0.0, ,0.0,0.0,0.0,0.0,0.0,0.0, ,0.21234583854675293
0.08951003274574877,0.08007162465701612,-0.13943718234053978, ,0.007892519855322012,0.020245727505095696,-0.07485028531639404, ,0.12005008807851307, ,-7.767316565657775e-06,3.167308809381878e-05,1.3202094524130593e-05,-0.0006146511255719614,-0.0006973319842619058,0.001311342489388031, ,3.5182538507816995e-05, ,0.0009295525280701064, ,0.011894771602472265, ,0.0,0.0,0.0,0.0,0.0,0.0, ,0.0,0.0,0.0,0.0,0.0,0.0, ,0.23416805267333984
0.08951003274574877,0.08007162465701612,-0.13943718234053978, ,0.00795069100162784,0.020247827085961366,-0.07499733949822907, ,0.11993042285883324, ,-7.767316565657775e-06,3.167308809381878e-05,1.3202094524130593e-05,-0.0006146511255719614,-0.0006973319842619058,0.001311342489388031, ,3.5182538507816995e-05, ,0.0009295525280701064, ,0.011901692073135016, ,0.0,0.0,0.0,0.0,0.0,0.0, ,0.0,0.0,0.0,0.0,0.0,0.0, ,0.25034189224243164
0.08951003274574877,0.08007162465701612,-0.13943718234053978, ,0.008008772341529292,0.02024991978639694,-0.07514404592832395, ,0.11981109802862024, ,-7.767316565657775e-06,3.167308809381878e-05,1.3202094524130593e-05,-0.0006146511255719614,-0.0006973319842619058,0.001311342489388031, ,3.5182538507816995e-05, ,0.0009295525280701064, ,0.011906916923774949, ,0.0,0.0,0.0,0.0,0.0,0.0, ,0.0,0.0,0.0,0.0,0.0,0.0, ,0.2672848701477051
0.08951003274574877,0.08007162465701612,-0.13943718234053978, ,0.0080667639278489,0.020252005617118624,-0.07529040505251007, ,0.11969211291586114, ,-7.767316565657775e-06,3.167308809381878e-05,1.3202094524130593e-05,-0.0006146511255719614,-0.0006973319842619058,0.001311342489388031, ,3.5182538507816995e-05, ,0.0009295525280701064, ,0.011910762255121318, ,0.0,0.0,0.0,0.0,0.0,0.0, ,0.0,0.0,0.0,0.0,0.0,0.0, ,0.2866950035095215
0.08951003274574877,0.08007162465701612,-0.13943718234053978, ,0.008124665813450886,0.020254084588855904,-0.07543641731629583, ,0.11957346684862495, ,-7.767316565657775e-06,3.167308809381878e-05,1.3202094524130593e-05,-0.0006146511255719614,-0.0006973319842619058,0.001311342489388031, ,3.5182538507816995e-05, ,0.0009295525280701064, ,0.011913470652199293, ,0.0,0.0,0.0,0.0,0.0,0.0, ,0.0,0.0,0.0,0.0,0.0,0.0, ,0.30366086959838867
0.08951003274574877,0.08007162465701612,-0.13943718234053978, ,0.008182478051240566,0.020256156712351654,-0.07558208316486764, ,0.11945515915506677, ,-7.767316565657775e-06,3.167308809381878e-05,1.3202094524130593e-05,-0.0006146511255719614,-0.0006973319842619058,0.001311342489388031, ,3.5182538507816995e-05, ,0.0009295525280701064, ,0.011915231380952447, ,0.0,0.0,0.0,0.0,0.0,0.0, ,0.0,0.0,0.0,0.0,0.0,0.0, ,0.32388997077941895
0.08951003274574877,0.08007162465701612,-0.13943718234053978, ,0.008240200694164883,0.020258221998361928,-0.07572740304308964, ,0.11933718916343203, ,-7.767316565657775e-06,3.167308809381878e-05,1.3202094524130593e-05,-0.0006146511255719614,-0.0006973319842619058,0.001311342489388031, ,3.5182538507816995e-05, ,0.0009295525280701064, ,0.011916194273420715, ,0.0,0.0,0.0,0.0,0.0,0.0, ,0.0,0.0,0.0,0.0,0.0,0.0, ,0.34084606170654297
0.08951003274574877,0.08007162465701612,-0.13943718234053978, ,0.00829783379521188,0.020260280457655974,-0.075872377395505, ,0.11921955620206039, ,-7.767316565657775e-06,3.167308809381878e-05,1.3202094524130593e-05,-0.0006146511255719614,-0.0006973319842619058,0.001311342489388031, ,3.5182538507816995e-05, ,0.0009295525280701064, ,0.011916479488608108, ,0.0,0.0,0.0,0.0,0.0,0.0, ,0.0,0.0,0.0,0.0,0.0,0.0, ,0.3575439453125
0.08951003274574877,0.08007162465701612,-0.13943718234053978, ,0.008355377407411062,0.020262332101015912,-0.0760170066663357, ,0.11910225959939011, ,-7.767316565657775e-06,3.167308809381878e-05,1.3202094524130593e-05,-0.0006146511255719614,-0.0006973319842619058,0.001311342489388031, ,3.5182538507816995e-05, ,0.0009295525280701064, ,0.011916184510840698, ,0.0,0.0,0.0,0.0,0.0,0.0, ,0.0,0.0,0.0,0.0,0.0,0.0, ,0.37632083892822266
0.08951003274574877,0.08007162465701612,-0.13943718234053978, ,0.00841283158383291,0.02026437693923706,-0.07616129129948261, ,0.11898529868396253, ,-7.767316565657775e-06,3.167308809381878e-05,1.3202094524130593e-05,-0.0006146511255719614,-0.0006973319842619058,0.001311342489388031, ,3.5182538507816995e-05, ,0.0009295525280701064, ,0.011969305045168282, ,0.0,0.0,0.0,0.0,0.0,0.0, ,0.0,0.0,0.0,0.0,0.0,0.0, ,0.39106202125549316
0.08951003274574877,0.08007162465701612,-0.13943718234053978, ,0.008470196377589199,0.020266414983127236,-0.07630523173852669, ,0.1188686727844259, ,-7.767316565657775e-06,3.167308809381878e-05,1.3202094524130593e-05,-0.0006146511255719614,-0.0006973319842619058,0.001311342489388031, ,3.5182538507816995e-05, ,0.0009295525280701064, ,0.012017761251159201, ,0.0,0.0,0.0,0.0,0.0,0.0, ,0.0,0.0,0.0,0.0,0.0,0.0, ,0.4060089588165283
0.08951003274574877,0.08007162465701612,-0.13943718234053978, ,0.008527471841832699,0.02026844624350747,-0.07644882842672869, ,0.11875238122953975, ,-7.767316565657775e-06,3.167308809381878e-05,1.3202094524130593e-05,-0.0006146511255719614,-0.0006973319842619058,0.001311342489388031, ,3.5182538507816995e-05, ,0.0009295525280701064, ,0.012062081460234962, ,0.0,0.0,0.0,0.0,0.0,0.0, ,0.0,0.0,0.0,0.0,0.0,0.0, ,0.42592287063598633
0.08951003274574877,0.08007162465701612,-0.13943718234053978, ,0.008584658029757263,0.020270470731211097,-0.07659208180702985, ,0.11863642334817935, ,-7.767316565657775e-06,3.167308809381878e-05,1.3202094524130593e-05,-0.0006146511255719614,-0.0006973319842619058,0.001311342489388031, ,3.5182538507816995e-05, ,0.0009295525280701064, ,0.012102717307840061, ,0.0,0.0,0.0,0.0,0.0,0.0, ,0.0,0.0,0.0,0.0,0.0,0.0, ,0.4421229362487793
0.08951003274574877,0.08007162465701612,-0.13943718234053978, ,0.008641754994597734,0.02027248845708426,-0.07673499232205182, ,0.1185207984693399, ,-7.767316565657775e-06,3.167308809381878e-05,1.3202094524130593e-05,-0.0006146511255719614,-0.0006973319842619058,0.001311342489388031, ,3.5182538507816995e-05, ,0.0009295525280701064, ,0.012140057162699124, ,0.0,0.0,0.0,0.0,0.0,0.0, ,0.0,0.0,0.0,0.0,0.0,0.0, ,0.4567909240722656
0.08951003274574877,0.08007162465701612,-0.13943718234053978, ,0.008698762789629867,0.02027449943198534,-0.07687756041409757, ,0.11840550592214083, ,-7.767316565657775e-06,3.167308809381878e-05,1.3202094524130593e-05,-0.0006146511255719614,-0.0006973319842619058,0.001311342489388031, ,3.5182538507816995e-05, ,0.0009295525280701064, ,0.012174436829833893, ,0.0,0.0,0.0,0.0,0.0,0.0, ,0.0,0.0,0.0,0.0,0.0,0.0, ,0.47392797470092773
0.08951003274574877,0.08007162465701612,-0.13943718234053978, ,0.008755681468170273,0.020276503666785555,-0.07701978652515135, ,0.11829054503583, ,-7.767316565657775e-06,3.167308809381878e-05,1.3202094524130593e-05,-0.0006146511255719614,-0.0006973319842619058,0.001311342489388031, ,3.5182538507816995e-05, ,0.0009295525280701064, ,0.012206148151896893, ,0.0,0.0,0.0,0.0,0.0,0.0, ,0.0,0.0,0.0,0.0,0.0,0.0, ,0.4884059429168701
0.08951003274574877,0.08007162465701612,-0.13943718234053978, ,0.008812511083576405,0.02027850117236822,-0.07716167109687866, ,0.11817591513978849, ,-7.767316565657775e-06,3.167308809381878e-05,1.3202094524130593e-05,-0.0006146511255719614,-0.0006973319842619058,0.001311342489388031, ,3.5182538507816995e-05, ,0.0009295525280701064, ,0.01223544597504026, ,0.0,0.0,0.0,0.0,0.0,0.0, ,0.0,0.0,0.0,0.0,0.0,0.0, ,0.5033779144287109
0.08951003274574877,0.08007162465701612,-0.13943718234053978, ,0.008869251689246557,0.02028049195962908,-0.07730321457062776, ,0.11806161556353419, ,-7.767316565657775e-06,3.167308809381878e-05,1.3202094524130593e-05,-0.0006146511255719614,-0.0006973319842619058,0.001311342489388031, ,3.5182538507816995e-05, ,0.0009295525280701064, ,0.012262553830972587, ,0.0,0.0,0.0,0.0,0.0,0.0, ,0.0,0.0,0.0,0.0,0.0,0.0, ,0.5188798904418945
0.08951003274574877,0.08007162465701612,-0.13943718234053978, ,0.008925903338619704,0.02028247603947585,-0.07744441738742859, ,0.11794764563672704, ,-7.767316565657775e-06,3.167308809381878e-05,1.3202094524130593e-05,-0.0006146511255719614,-0.0006973319842619058,0.001311342489388031, ,3.5182538507816995e-05, ,0.0009295525280701064, ,0.012287668603018859, ,0.0,0.0,0.0,0.0,0.0,0.0, ,0.0,0.0,0.0,0.0,0.0,0.0, ,0.5369060039520264
0.08951003274574877,0.08007162465701612,-0.13943718234053978, ,0.008982466085175462,0.020284453422828797,-0.07758527998799356, ,0.11783400468917293, ,-7.767316565657775e-06,3.167308809381878e-05,1.3202094524130593e-05,-0.0006146511255719614,-0.0006973319842619058,0.001311342489388031, ,3.5182538507816995e-05, ,0.0009295525280701064, ,0.01231096438199636, ,0.0,0.0,0.0,0.0,0.0,0.0, ,0.0,0.0,0.0,0.0,0.0,0.0, ,0.5522458553314209
0.08951003274574877,0.08007162465701612,-0.13943718234053978, ,0.009038939982434194,0.020286424120619807,-0.07772580281271842, ,0.11772069205082814, ,-7.767316565657775e-06,3.167308809381878e-05,1.3202094524130593e-05,-0.0006146511255719614,-0.0006973319842619058,0.001311342489388031, ,3.5182538507816995e-05, ,0.0009295525280701064, ,0.01233259567141155, ,0.0,0.0,0.0,0.0,0.0,0.0, ,0.0,0.0,0.0,0.0,0.0,0.0, ,0.5705430507659912
0.08951003274574877,0.08007162465701612,-0.13943718234053978, ,0.009095325083956798,0.02028838814379312,-0.07786598630168154, ,0.11760770705180396, ,-7.767316565657775e-06,3.167308809381878e-05,1.3202094524130593e-05,-0.0006146511255719614,-0.0006973319842619058,0.001311342489388031, ,3.5182538507816995e-05, ,0.0009295525280701064, ,0.012352700066575989, ,0.0,0.0,0.0,0.0,0.0,0.0, ,0.0,0.0,0.0,0.0,0.0,0.0, ,0.5853679180145264
0.08951003274574877,0.08007162465701612,-0.13943718234053978, ,0.009151621443344618,0.02029034550330486,-0.07800583089464506, ,0.11749504902237089, ,-7.767316565657775e-06,3.167308809381878e-05,1.3202094524130593e-05,-0.0006146511255719614,-0.0006973319842619058,0.001311342489388031, ,3.5182538507816995e-05, ,0.0009295525280701064, ,0.012371400505697844, ,0.0,0.0,0.0,0.0,0.0,0.0, ,0.0,0.0,0.0,0.0,0.0,0.0, ,0.5999619960784912
0.08951003274574877,0.08007162465701612,-0.13943718234053978, ,0.00920782911423967,0.020292296210122702,-0.0781453370310549, ,0.11738271729296326, ,-7.767316565657775e-06,3.167308809381878e-05,1.3202094524130593e-05,-0.0006146511255719614,-0.0006973319842619058,0.001311342489388031, ,3.5182538507816995e-05, ,0.0009295525280701064, ,0.012388807170659464, ,0.0,0.0,0.0,0.0,0.0,0.0, ,0.0,0.0,0.0,0.0,0.0,0.0, ,0.618729829788208
0.08951003274574877,0.08007162465701612,-0.13943718234053978, ,0.009263948150324329,0.02029424027522654,-0.07828450515004028, ,0.11727071119418384, ,-7.767316565657775e-06,3.167308809381878e-05,1.3202094524130593e-05,-0.0006146511255719614,-0.0006973319842619058,0.001311342489388031, ,3.5182538507816995e-05, ,0.0009295525280701064, ,0.01240501909947477, ,0.0,0.0,0.0,0.0,0.0,0.0, ,0.0,0.0,0.0,0.0,0.0,0.0, ,0.6340868473052979
0.08951003274574877,0.08007162465701612,-0.13943718234053978, ,0.009319978605321301,0.020296177709607954,-0.07842333569041515, ,0.11715903005680792, ,-7.767316565657775e-06,3.167308809381878e-05,1.3202094524130593e-05,-0.0006146511255719614,-0.0006973319842619058,0.001311342489388031, ,3.5182538507816995e-05, ,0.0009295525280701064, ,0.012420125560191304, ,0.0,0.0,0.0,0.0,0.0,0.0, ,0.0,0.0,0.0,0.0,0.0,0.0, ,0.6489388942718506
0.08951003274574877,0.08007162465701612,-0.13943718234053978, ,0.009375920532993784,0.020298108524269953,-0.07856182909067806, ,0.11704767321178804, ,-7.767316565657775e-06,3.167308809381878e-05,1.3202094524130593e-05,-0.0006146511255719614,-0.0006973319842619058,0.001311342489388031, ,3.5182538507816995e-05, ,0.0009295525280701064, ,0.012434207226421428, ,0.0,0.0,0.0,0.0,0.0,0.0, ,0.0,0.0,0.0,0.0,0.0,0.0, ,0.6643939018249512
0.08951003274574877,0.08007162465701612,-0.13943718234053978, ,0.009431773987145247,0.020300032730227367,-0.0786999857890118, ,0.11693663999025868, ,-7.767316565657775e-06,3.167308809381878e-05,1.3202094524130593e-05,-0.0006146511255719614,-0.0006973319842619058,0.001311342489388031, ,3.5182538507816995e-05, ,0.0009295525280701064, ,0.012447337187132828, ,0.0,0.0,0.0,0.0,0.0,0.0, ,0.0,0.0,0.0,0.0,0.0,0.0, ,0.6790919303894043
0.08951003274574877,0.08007162465701612,-0.13943718234053978, ,0.009487539021619314,0.020301950338506645,-0.07883780622328458, ,0.11682592972354035, ,-7.767316565657775e-06,3.167308809381878e-05,1.3202094524130593e-05,-0.0006146511255719614,-0.0006973319842619058,0.001311342489388031, ,3.5182538507816995e-05, ,0.0009295525280701064, ,0.012459581817335239, ,0.0,0.0,0.0,0.0,0.0,0.0, ,0.0,0.0,0.0,0.0,0.0,0.0, ,0.6951448917388916
0.08951003274574877,0.08007162465701612,-0.13943718234053978, ,0.009543215690299941,0.02030386136014554,-0.07897529083104918, ,0.11671554174314483, ,-7.767316565657775e-06,3.167308809381878e-05,1.3202094524130593e-05,-0.0006146511255719614,-0.0006973319842619058,0.001311342489388031, ,3.5182538507816995e-05, ,0.0009295525280701064, ,0.012471001531517601, ,0.0,0.0,0.0,0.0,0.0,0.0, ,0.0,0.0,0.0,0.0,0.0,0.0, ,0.7109189033508301
0.08951003274574877,0.08007162465701612,-0.13943718234053978, ,0.009598804047111208,0.020305765806193563,-0.07911244004954472, ,0.11660547538077862, ,-7.767316565657775e-06,3.167308809381878e-05,1.3202094524130593e-05,-0.0006146511255719614,-0.0006973319842619058,0.001311342489388031, ,3.5182538507816995e-05, ,0.0009295525280701064, ,0.012512168923030163, ,0.0,0.0,0.0,0.0,0.0,0.0, ,0.0,0.0,0.0,0.0,0.0,0.0, ,0.7237679958343506
0.08951003274574877,0.08007162465701612,-0.13943718234053978, ,0.009654304146017367,0.02030766368771132,-0.07924925431569521, ,0.11649572996834871, ,-7.767316565657775e-06,3.167308809381878e-05,1.3202094524130593e-05,-0.0006146511255719614,-0.0006973319842619058,0.001311342489388031, ,3.5182538507816995e-05, ,0.0009295525280701064, ,0.012551493571912915, ,0.0,0.0,0.0,0.0,0.0,0.0, ,0.0,0.0,0.0,0.0,0.0,0.0, ,0.7372438907623291
0.08951003274574877,0.08007162465701612,-0.13943718234053978, ,0.009709716041022774,0.02030955501577095,-0.0793857340661108, ,0.11638630483796635, ,-7.767316565657775e-06,3.167308809381878e-05,1.3202094524130593e-05,-0.0006146511255719614,-0.0006973319842619058,0.001311342489388031, ,3.5182538507816995e-05, ,0.0009295525280701064, ,0.012589080292530946, ,0.0,0.0,0.0,0.0,0.0,0.0, ,0.0,0.0,0.0,0.0,0.0,0.0, ,0.7510249614715576
0.08951003274574877,0.08007162465701612,-0.13943718234053978, ,0.009765039786171666,0.020311439801455812,-0.07952187973708812, ,0.11627719932195187, ,-7.767316565657775e-06,3.167308809381878e-05,1.3202094524130593e-05,-0.0006146511255719614,-0.0006973319842619058,0.001311342489388031, ,3.5182538507816995e-05, ,0.0009295525280701064, ,0.012625026151611094, ,0.0,0.0,0.0,0.0,0.0,0.0, ,0.0,0.0,0.0,0.0,0.0,0.0, ,0.7641730308532715
0.08951003274574877,0.08007162465701612,-0.13943718234053978, ,0.009820275435548503,0.020313318055860605,-0.0796576917646093, ,0.11616841275283951, ,-7.767316565657775e-06,3.167308809381878e-05,1.3202094524130593e-05,-0.0006146511255719614,-0.0006973319842619058,0.001311342489388031, ,3.5182538507816995e-05, ,0.0009295525280701064, ,0.012659421170976064, ,0.0,0.0,0.0,0.0,0.0,0.0, ,0.0,0.0,0.0,0.0,0.0,0.0, ,0.7773678302764893
0.08951003274574877,0.08007162465701612,-0.13943718234053978, ,0.009875423043277435,0.020315189790091066,-0.07979317058434389, ,0.11605994446338165, ,-7.767316565657775e-06,3.167308809381878e-05,1.3202094524130593e-05,-0.0006146511255719614,-0.0006973319842619058,0.001311342489388031, ,3.5182538507816995e-05, ,0.0009295525280701064, ,0.012692348955153287, ,0.0,0.0,0.0,0.0,0.0,0.0, ,0.0,0.0,0.0,0.0,0.0,0.0, ,0.7938640117645264
0.08951003274574877,0.08007162465701612,-0.13943718234053978, ,0.009930482663522788,0.020317055015264176,-0.07992831663164789, ,0.1159517937865535, ,-7.767316565657775e-06,3.167308809381878e-05,1.3202094524130593e-05,-0.0006146511255719614,-0.0006973319842619058,0.001311342489388031, ,3.5182538507816995e-05, ,0.0009295525280701064, ,0.012723887253064288, ,0.0,0.0,0.0,0.0,0.0,0.0, ,0.0,0.0,0.0,0.0,0.0,0.0, ,0.8110358715057373
0.08951003274574877,0.08007162465701612,-0.13943718234053978, ,0.009985454350488495,0.020318913742508073,-0.08006313034156431, ,0.11584396005555797, ,-7.767316565657775e-06,3.167308809381878e-05,1.3202094524130593e-05,-0.0006146511255719614,-0.0006973319842619058,0.001311342489388031, ,3.5182538507816995e-05, ,0.0009295525280701064, ,0.012754108461733199, ,0.0,0.0,0.0,0.0,0.0,0.0, ,0.0,0.0,0.0,0.0,0.0,0.0, ,0.8241000175476074
0.08951003274574877,0.08007162465701612,-0.13943718234053978, ,0.010040338158418548,0.020320765982961807,-0.0801976121488234, ,0.11573644260383004, ,-7.767316565657775e-06,3.167308809381878e-05,1.3202094524130593e-05,-0.0006146511255719614,-0.0006973319842619058,0.001311342489388031, ,3.5182538507816995e-05, ,0.0009295525280701064, ,0.012783080078879001, ,0.0,0.0,0.0,0.0,0.0,0.0, ,0.0,0.0,0.0,0.0,0.0,0.0, ,0.8386518955230713
0.08951003274574877,0.08007162465701612,-0.13943718234053978, ,0.010095134141596513,0.020322611747775485,-0.08033176248784259, ,0.11562924076504177, ,-7.767316565657775e-06,3.167308809381878e-05,1.3202094524130593e-05,-0.0006146511255719614,-0.0006973319842619058,0.001311342489388031, ,3.5182538507816995e-05, ,0.0009295525280701064, ,0.012810865110342639, ,0.0,0.0,0.0,0.0,0.0,0.0, ,0.0,0.0,0.0,0.0,0.0,0.0, ,0.8530378341674805
0.08951003274574877,0.08007162465701612,-0.13943718234053978, ,0.010149842354345729,0.020324451048110155,-0.08046558179272698, ,0.11552235387310668, ,-7.767316565657775e-06,3.167308809381878e-05,1.3202094524130593e-05,-0.0006146511255719614,-0.0006973319842619058,0.001311342489388031, ,3.5182538507816995e-05, ,0.0009295525280701064, ,0.012837522437521301, ,0.0,0.0,0.0,0.0,0.0,0.0, ,0.0,0.0,0.0,0.0,0.0,0.0, ,0.8665900230407715
0.08951003274574877,0.08007162465701612,-0.13943718234053978, ,0.010204462851029246,0.020326283895137808,-0.08059907049726972, ,0.11541578126218424, ,-7.767316565657775e-06,3.167308809381878e-05,1.3202094524130593e-05,-0.0006146511255719614,-0.0006973319842619058,0.001311342489388031, ,3.5182538507816995e-05, ,0.0009295525280701064, ,0.012863107149316096, ,0.0,0.0,0.0,0.0,0.0,0.0, ,0.0,0.0,0.0,0.0,0.0,0.0, ,0.8801438808441162
0.08951003274574877,0.08007162465701612,-0.13943718234053978, ,0.010258995686049861,0.020328110300041308,-0.0807322290349517, ,0.11530952226668491, ,-7.767316565657775e-06,3.167308809381878e-05,1.3202094524130593e-05,-0.0006146511255719614,-0.0006973319842619058,0.001311342489388031, ,3.5182538507816995e-05, ,0.0009295525280701064, ,0.012887670842528287, ,0.0,0.0,0.0,0.0,0.0,0.0, ,0.0,0.0,0.0,0.0,0.0,0.0, ,0.8958280086517334
0.08951003274574877,0.08007162465701612,-0.13943718234053978, ,0.010313440913849782,0.020329930274014283,-0.08086505783894218, ,0.11520357622127472, ,-7.767316565657775e-06,3.167308809381878e-05,1.3202094524130593e-05,-0.0006146511255719614,-0.0006973319842619058,0.001311342489388031, ,3.5182538507816995e-05, ,0.0009295525280701064, ,0.012911261894148264, ,0.0,0.0,0.0,0.0,0.0,0.0, ,0.0,0.0,0.0,0.0,0.0,0.0, ,0.908653974533081
0.08951003274574877,0.08007162465701612,-0.13943718234053978, ,0.010367798588910878,0.020331743828261205,-0.08099755734209875, ,0.11509794246087986, ,-7.767316565657775e-06,3.167308809381878e-05,1.3202094524130593e-05,-0.0006146511255719614,-0.0006973319842619058,0.001311342489388031, ,3.5182538507816995e-05, ,0.0009295525280701064, ,0.012933925708558424, ,0.0,0.0,0.0,0.0,0.0,0.0, ,0.0,0.0,0.0,0.0,0.0,0.0, ,0.9215409755706787
0.08951003274574877,0.08007162465701612,-0.13943718234053978, ,0.01042206876575439,0.020333550973997246,-0.08112972797696708, ,0.11499262032069185, ,-7.767316565657775e-06,3.167308809381878e-05,1.3202094524130593e-05,-0.0006146511255719614,-0.0006973319842619058,0.001311342489388031, ,3.5182538507816995e-05, ,0.0009295525280701064, ,0.01295570494230554, ,0.0,0.0,0.0,0.0,0.0,0.0, ,0.0,0.0,0.0,0.0,0.0,0.0, ,0.9392068386077881
0.08951003274574877,0.08007162465701612,-0.13943718234053978, ,0.010476251498941271,0.020335351722448294,-0.08126157017578235, ,0.11488760913617131, ,-7.767316565657775e-06,3.167308809381878e-05,1.3202094524130593e-05,-0.0006146511255719614,-0.0006973319842619058,0.001311342489388031, ,3.5182538507816995e-05, ,0.0009295525280701064, ,0.012976639708781754, ,0.0,0.0,0.0,0.0,0.0,0.0, ,0.0,0.0,0.0,0.0,0.0,0.0, ,0.9519088268280029
0.08951003274574877,0.08007162465701612,-0.13943718234053978, ,0.010530346843071607,0.02033714608485088,-0.08139308437046812, ,0.1147829082430537, ,-7.767316565657775e-06,3.167308809381878e-05,1.3202094524130593e-05,-0.0006146511255719614,-0.0006973319842619058,0.001311342489388031, ,3.5182538507816995e-05, ,0.0009295525280701064, ,0.012996767764878635, ,0.0,0.0,0.0,0.0,0.0,0.0, ,0.0,0.0,0.0,0.0,0.0,0.0, ,0.9659218788146973
0.08951003274574877,0.08007162465701612,-0.13943718234053978, ,0.010584354852785083,0.020338934072452092,-0.08152427099263751, ,0.11467851697735329, ,-7.767316565657775e-06,3.167308809381878e-05,1.3202094524130593e-05,-0.0006146511255719614,-0.0006973319842619058,0.001311342489388031, ,3.5182538507816995e-05, ,0.0009295525280701064, ,0.013016124681439799, ,0.0,0.0,0.0,0.0,0.0,0.0, ,0.0,0.0,0.0,0.0,0.0,0.0, ,0.9832508563995361
0.08951003274574877,0.08007162465701612,-0.13943718234053978, ,0.010638275582760658,0.02034071569650973,-0.08165513047359242, ,0.11457443467536842, ,-7.767316565657775e-06,3.167308809381878e-05,1.3202094524130593e-05,-0.0006146511255719614,-0.0006973319842619058,0.001311342489388031, ,3.5182538507816995e-05, ,0.0009295525280701064, ,0.013034743999129373, ,0.0,0.0,0.0,0.0,0.0,0.0, ,0.0,0.0,0.0,0.0,0.0,0.0, ,0.9967269897460938
0.08951003274574877,0.08007162465701612,-0.13943718234053978, ,0.01069210908771643,0.02034249096829205,-0.08178566324432454, ,0.11447066067368597, ,-7.767316565657775e-06,3.167308809381878e-05,1.3202094524130593e-05,-0.0006146511255719614,-0.0006973319842619058,0.001311342489388031, ,3.5182538507816995e-05, ,0.0009295525280701064, ,0.013052657371151606, ,0.0,0.0,0.0,0.0,0.0,0.0, ,0.0,0.0,0.0,0.0,0.0,0.0, ,1.0098109245300293
0.08951003274574877,0.08007162465701612,-0.13943718234053978, ,0.01074585542240994,0.02034425989907782,-0.0819158697355148, ,0.11436719430918632, ,-7.767316565657775e-06,3.167308809381878e-05,1.3202094524130593e-05,-0.0006146511255719614,-0.0006973319842619058,0.001311342489388031, ,3.5182538507816995e-05, ,0.0009295525280701064, ,0.013092585483497308, ,0.0,0.0,0.0,0.0,0.0,0.0, ,0.0,0.0,0.0,0.0,0.0,0.0, ,1.0221388339996338
0.08951003274574877,0.08007162465701612,-0.13943718234053978, ,0.010799514641637857,0.02034602250015616,-0.08204575037753475, ,0.11426403491904756, ,-7.767316565657775e-06,3.167308809381878e-05,1.3202094524130593e-05,-0.0006146511255719614,-0.0006973319842619058,0.001311342489388031, ,3.5182538507816995e-05, ,0.0009295525280701064, ,0.013131377827467407, ,0.0,0.0,0.0,0.0,0.0,0.0, ,0.0,0.0,0.0,0.0,0.0,0.0, ,1.0348739624023438
0.08951003274574877,0.08007162465701612,-0.13943718234053978, ,0.010853086800235934,0.02034777878282693,-0.08217530560044489, ,0.11416118184075118, ,-7.767316565657775e-06,3.167308809381878e-05,1.3202094524130593e-05,-0.0006146511255719614,-0.0006973319842619058,0.001311342489388031, ,3.5182538507816995e-05, ,0.0009295525280701064, ,0.013169075347888559, ,0.0,0.0,0.0,0.0,0.0,0.0, ,0.0,0.0,0.0,0.0,0.0,0.0, ,1.046264886856079
0.08951003274574877,0.08007162465701612,-0.13943718234053978, ,0.010906571953079118,0.020349528758399984,-0.08230453583399651, ,0.114058634412086, ,-7.767316565657775e-06,3.167308809381878e-05,1.3202094524130593e-05,-0.0006146511255719614,-0.0006973319842619058,0.001311342489388031, ,3.5182538507816995e-05, ,0.0009295525280701064, ,0.013205717068117816, ,0.0,0.0,0.0,0.0,0.0,0.0, ,0.0,0.0,0.0,0.0,0.0,0.0, ,1.0589709281921387
0.08951003274574877,0.08007162465701612,-0.13943718234053978, ,0.010959970155081428,0.02035127243819588,-0.082433441507631, ,0.11395639197115331, ,-7.767316565657775e-06,3.167308809381878e-05,1.3202094524130593e-05,-0.0006146511255719614,-0.0006973319842619058,0.001311342489388031, ,3.5182538507816995e-05, ,0.0009295525280701064, ,0.013241340201386571, ,0.0,0.0,0.0,0.0,0.0,0.0, ,0.0,0.0,0.0,0.0,0.0,0.0, ,1.0750608444213867
0.08951003274574877,0.08007162465701612,-0.13943718234053978, ,0.011013281461195904,0.02035300983354524,-0.08256202305048012, ,0.11385445385637177, ,-7.767316565657775e-06,3.167308809381878e-05,1.3202094524130593e-05,-0.0006146511255719614,-0.0006973319842619058,0.001311342489388031, ,3.5182538507816995e-05, ,0.0009295525280701064, ,0.013275980254490768, ,0.0,0.0,0.0,0.0,0.0,0.0, ,0.0,0.0,0.0,0.0,0.0,0.0, ,1.0868890285491943
0.08951003274574877,0.08007162465701612,-0.13943718234053978, ,0.0110665059264145,0.020354740955789163,-0.08269028089136651, ,0.1137528194064818, ,-7.767316565657775e-06,3.167308809381878e-05,1.3202094524130593e-05,-0.0006146511255719614,-0.0006973319842619058,0.001311342489388031, ,3.5182538507816995e-05, ,0.0009295525280701064, ,0.01330967112443421, ,0.0,0.0,0.0,0.0,0.0,0.0, ,0.0,0.0,0.0,0.0,0.0,0.0, ,1.0985939502716064
0.08951003274574877,0.08007162465701612,-0.13943718234053978, ,0.011119643605768038,0.02035646581627877,-0.0828182154588032, ,0.11365148796055106, ,-7.767316565657775e-06,3.167308809381878e-05,1.3202094524130593e-05,-0.0006146511255719614,-0.0006973319842619058,0.001311342489388031, ,3.5182538507816995e-05, ,0.0009295525280701064, ,0.01334244518857743, ,0.0,0.0,0.0,0.0,0.0,0.0, ,0.0,0.0,0.0,0.0,0.0,0.0, ,1.1127939224243164
0.08951003274574877,0.08007162465701612,-0.13943718234053978, ,0.01117269455432648,0.020358184426375707,-0.08294582718099436, ,0.11355045885797833, ,-7.767316565657775e-06,3.167308809381878e-05,1.3202094524130593e-05,-0.0006146511255719614,-0.0006973319842619058,0.001311342489388031, ,3.5182538507816995e-05, ,0.0009295525280701064, ,0.013374333388795684, ,0.0,0.0,0.0,0.0,0.0,0.0, ,0.0,0.0,0.0,0.0,0.0,0.0, ,1.1260409355163574
0.08951003274574877,0.08007162465701612,-0.13943718234053978, ,0.011225658827198446,0.020359896797451565,-0.08307311648583565, ,0.11344973143849889, ,-7.767316565657775e-06,3.167308809381878e-05,1.3202094524130593e-05,-0.0006146511255719614,-0.0006973319842619058,0.001311342489388031, ,3.5182538507816995e-05, ,0.0009295525280701064, ,0.013405365310105432, ,0.0,0.0,0.0,0.0,0.0,0.0, ,0.0,0.0,0.0,0.0,0.0,0.0, ,1.137138843536377
0.08951003274574877,0.08007162465701612,-0.13943718234053978, ,0.011278536479531356,0.020361602940888162,-0.08320008380091307, ,0.1133493050421896, ,-7.767316565657775e-06,3.167308809381878e-05,1.3202094524130593e-05,-0.0006146511255719614,-0.0006973319842619058,0.001311342489388031, ,3.5182538507816995e-05, ,0.0009295525280701064, ,0.013435569254178886, ,0.0,0.0,0.0,0.0,0.0,0.0, ,0.0,0.0,0.0,0.0,0.0,0.0, ,1.1494760513305664
0.08951003274574877,0.08007162465701612,-0.13943718234053978, ,0.011331327566511467,0.020363302868077443,-0.08332672955350486, ,0.11324917900947287, ,-7.767316565657775e-06,3.167308809381878e-05,1.3202094524130593e-05,-0.0006146511255719614,-0.0006973319842619058,0.001311342489388031, ,3.5182538507816995e-05, ,0.0009295525280701064, ,0.013464972308130221, ,0.0,0.0,0.0,0.0,0.0,0.0, ,0.0,0.0,0.0,0.0,0.0,0.0, ,1.1624469757080078
0.08951003274574877,0.08007162465701612,-0.13943718234053978, ,0.011384032143363677,0.020364996590421472,-0.08345305417058026, ,0.11314935268112229, ,-7.767316565657775e-06,3.167308809381878e-05,1.3202094524130593e-05,-0.0006146511255719614,-0.0006973319842619058,0.001311342489388031, ,3.5182538507816995e-05, ,0.0009295525280701064, ,0.013493600408924479, ,0.0,0.0,0.0,0.0,0.0,0.0, ,0.0,0.0,0.0,0.0,0.0,0.0, ,1.1738219261169434
0.08951003274574877,0.08007162465701612,-0.13943718234053978, ,0.011436650265351633,0.020366684119332356,-0.08357905807880064, ,0.11304982539826687, ,-7.767316565657775e-06,3.167308809381878e-05,1.3202094524130593e-05,-0.0006146511255719614,-0.0006973319842619058,0.001311342489388031, ,3.5182538507816995e-05, ,0.0009295525280701064, ,0.01352147840373077, ,0.0,0.0,0.0,0.0,0.0,0.0, ,0.0,0.0,0.0,0.0,0.0,0.0, ,1.1857318878173828
0.08951003274574877,0.08007162465701612,-0.13943718234053978, ,0.011489181987777444,0.020368365466232153,-0.08370474170451869, ,0.11295059650239649, ,-7.767316565657775e-06,3.167308809381878e-05,1.3202094524130593e-05,-0.0006146511255719614,-0.0006973319842619058,0.001311342489388031, ,3.5182538507816995e-05, ,0.0009295525280701064, ,0.01354863010651457, ,0.0,0.0,0.0,0.0,0.0,0.0, ,0.0,0.0,0.0,0.0,0.0,0.0, ,1.1981589794158936
0.08951003274574877,0.08007162465701612,-0.13943718234053978, ,0.011541627365982028,0.020370040642553024,-0.08383010547377961, ,0.11285166533536582, ,-7.767316565657775e-06,3.167308809381878e-05,1.3202094524130593e-05,-0.0006146511255719614,-0.0006973319842619058,0.001311342489388031, ,3.5182538507816995e-05, ,0.0009295525280701064, ,0.013575078351139774, ,0.0,0.0,0.0,0.0,0.0,0.0, ,0.0,0.0,0.0,0.0,0.0,0.0, ,1.2102019786834717
0.08951003274574877,0.08007162465701612,-0.13943718234053978, ,0.011593986455344672,0.020371709659737045,-0.08395514981232045, ,0.11275303123940007, ,-7.767316565657775e-06,3.167308809381878e-05,1.3202094524130593e-05,-0.0006146511255719614,-0.0006973319842619058,0.001311342489388031, ,3.5182538507816995e-05, ,0.0009295525280701064, ,0.01360084504122905, ,0.0,0.0,0.0,0.0,0.0,0.0, ,0.0,0.0,0.0,0.0,0.0,0.0, ,1.2217659950256348
0.08951003274574877,0.08007162465701612,-0.13943718234053978, ,0.011646259311283153,0.020373372529236298,-0.08407987514557058, ,0.1126546935570993, ,-7.767316565657775e-06,3.167308809381878e-05,1.3202094524130593e-05,-0.0006146511255719614,-0.0006973319842619058,0.001311342489388031, ,3.5182538507816995e-05, ,0.0009295525280701064, ,0.01362595119701106, ,0.0,0.0,0.0,0.0,0.0,0.0, ,0.0,0.0,0.0,0.0,0.0,0.0, ,1.2330338954925537
0.08951003274574877,0.08007162465701612,-0.13943718234053978, ,0.011698445989253833,0.020375029262512633,-0.08420428189865187, ,0.11255665163144334, ,-7.767316565657775e-06,3.167308809381878e-05,1.3202094524130593e-05,-0.0006146511255719614,-0.0006973319842619058,0.001311342489388031, ,3.5182538507816995e-05, ,0.0009295525280701064, ,0.013650416999364857, ,0.0,0.0,0.0,0.0,0.0,0.0, ,0.0,0.0,0.0,0.0,0.0,0.0, ,1.2513208389282227
0.08951003274574877,0.08007162465701612,-0.13943718234053978, ,0.01175054654475117,0.020376679871037962,-0.0843283704963785, ,0.11245890480579689, ,-7.767316565657775e-06,3.167308809381878e-05,1.3202094524130593e-05,-0.0006146511255719614,-0.0006973319842619058,0.001311342489388031, ,3.5182538507816995e-05, ,0.0009295525280701064, ,0.013674261831255185, ,0.0,0.0,0.0,0.0,0.0,0.0, ,0.0,0.0,0.0,0.0,0.0,0.0, ,1.2634658813476562
0.08951003274574877,0.08007162465701612,-0.13943718234053978, ,0.011802561033308399,0.020378324366293863,-0.08445214136325778, ,0.1123614524239138, ,-7.767316565657775e-06,3.167308809381878e-05,1.3202094524130593e-05,-0.0006146511255719614,-0.0006973319842619058,0.001311342489388031, ,3.5182538507816995e-05, ,0.0009295525280701064, ,0.013697504316737205, ,0.0,0.0,0.0,0.0,0.0,0.0, ,0.0,0.0,0.0,0.0,0.0,0.0, ,1.275130033493042
0.08951003274574877,0.08007162465701612,-0.13943718234053978, ,0.011854489510496757,0.02037996275977193,-0.08457559492348926, ,0.11226429382994259, ,-7.767316565657775e-06,3.167308809381878e-05,1.3202094524130593e-05,-0.0006146511255719614,-0.0006973319842619058,0.001311342489388031, ,3.5182538507816995e-05, ,0.0009295525280701064, ,0.013739165352650668, ,0.0,0.0,0.0,0.0,0.0,0.0, ,0.0,0.0,0.0,0.0,0.0,0.0, ,1.2852270603179932
0.08951003274574877,0.08007162465701612,-0.13943718234053978, ,0.011906332031925823,0.02038159506297342,-0.08469873160096637, ,0.11216742836843056, ,-7.767316565657775e-06,3.167308809381878e-05,1.3202094524130593e-05,-0.0006146511255719614,-0.0006973319842619058,0.001311342489388031, ,3.5182538507816995e-05, ,0.0009295525280701064, ,0.013780006611239303, ,0.0,0.0,0.0,0.0,0.0,0.0, ,0.0,0.0,0.0,0.0,0.0,0.0, ,1.2975528240203857
0.08951003274574877,0.08007162465701612,-0.13943718234053978, ,0.011958088653243385,0.020383221287409315,-0.08482155181927468, ,0.11207085538432958, ,-7.767316565657775e-06,3.167308809381878e-05,1.3202094524130593e-05,-0.0006146511255719614,-0.0006973319842619058,0.001311342489388031, ,3.5182538507816995e-05, ,0.0009295525280701064, ,0.013820048594504825, ,0.0,0.0,0.0,0.0,0.0,0.0, ,0.0,0.0,0.0,0.0,0.0,0.0, ,1.3083808422088623
0.08951003274574877,0.08007162465701612,-0.13943718234053978, ,0.012009759430135377,0.02038484144460056,-0.0849440560016936, ,0.11197457422299995, ,-7.767316565657775e-06,3.167308809381878e-05,1.3202094524130593e-05,-0.0006146511255719614,-0.0006973319842619058,0.001311342489388031, ,3.5182538507816995e-05, ,0.0009295525280701064, ,0.013859311138634516, ,0.0,0.0,0.0,0.0,0.0,0.0, ,0.0,0.0,0.0,0.0,0.0,0.0, ,1.318692922592163
0.08951003274574877,0.08007162465701612,-0.13943718234053978, ,0.012061344418326037,0.020386455546077594,-0.0850662445711958, ,0.11187858423021571, ,-7.767316565657775e-06,3.167308809381878e-05,1.3202094524130593e-05,-0.0006146511255719614,-0.0006973319842619058,0.001311342489388031, ,3.5182538507816995e-05, ,0.0009295525280701064, ,0.013897813440777155, ,0.0,0.0,0.0,0.0,0.0,0.0, ,0.0,0.0,0.0,0.0,0.0,0.0, ,1.3286089897155762
0.08951003274574877,0.08007162465701612,-0.13943718234053978, ,0.0121128436735775,0.02038806360338062,-0.0851881179504474, ,0.1117828847521697, ,-7.767316565657775e-06,3.167308809381878e-05,1.3202094524130593e-05,-0.0006146511255719614,-0.0006973319842619058,0.001311342489388031, ,3.5182538507816995e-05, ,0.0009295525280701064, ,0.013935574084537137, ,0.0,0.0,0.0,0.0,0.0,0.0, ,0.0,0.0,0.0,0.0,0.0,0.0, ,1.339237928390503
0.08951003274574877,0.08007162465701612,-0.13943718234053978, ,0.012164257251689873,0.020389665628059647,-0.08530967656180836, ,0.11168747513547794, ,-7.767316565657775e-06,3.167308809381878e-05,1.3202094524130593e-05,-0.0006146511255719614,-0.0006973319842619058,0.001311342489388031, ,3.5182538507816995e-05, ,0.0009295525280701064, ,0.01397261106425779, ,0.0,0.0,0.0,0.0,0.0,0.0, ,0.0,0.0,0.0,0.0,0.0,0.0, ,1.351006031036377
0.08951003274574877,0.08007162465701612,-0.13943718234053978, ,0.012215585208501453,0.02039126163167403,-0.08543092082733202, ,0.11159235472718497, ,-7.767316565657775e-06,3.167308809381878e-05,1.3202094524130593e-05,-0.0006146511255719614,-0.0006973319842619058,0.001311342489388031, ,3.5182538507816995e-05, ,0.0009295525280701064, ,0.014008941808160457, ,0.0,0.0,0.0,0.0,0.0,0.0, ,0.0,0.0,0.0,0.0,0.0,0.0, ,1.3607640266418457
0.08951003274574877,0.08007162465701612,-0.13943718234053978, ,0.012266827599888447,0.020392851625792942,-0.0855518511687661, ,0.1114975228747681, ,-7.767316565657775e-06,3.167308809381878e-05,1.3202094524130593e-05,-0.0006146511255719614,-0.0006973319842619058,0.001311342489388031, ,3.5182538507816995e-05, ,0.0009295525280701064, ,0.014044583200401762, ,0.0,0.0,0.0,0.0,0.0,0.0, ,0.0,0.0,0.0,0.0,0.0,0.0, ,1.370347023010254
0.08951003274574877,0.08007162465701612,-0.13943718234053978, ,0.012317984481764889,0.020394435621995142,-0.08567246800755218, ,0.11140297892614276, ,-7.767316565657775e-06,3.167308809381878e-05,1.3202094524130593e-05,-0.0006146511255719614,-0.0006973319842619058,0.001311342489388031, ,3.5182538507816995e-05, ,0.0009295525280701064, ,0.0140795516021076, ,0.0,0.0,0.0,0.0,0.0,0.0, ,0.0,0.0,0.0,0.0,0.0,0.0, ,1.3829679489135742
0.08951003274574877,0.08007162465701612,-0.13943718234053978, ,0.01236905591008262,0.020396013631868843,-0.085792771764826, ,0.11130872222966721, ,-7.767316565657775e-06,3.167308809381878e-05,1.3202094524130593e-05,-0.0006146511255719614,-0.0006973319842619058,0.001311342489388031, ,3.5182538507816995e-05, ,0.0009295525280701064, ,0.014113862871438832, ,0.0,0.0,0.0,0.0,0.0,0.0, ,0.0,0.0,0.0,0.0,0.0,0.0, ,1.3939728736877441
0.08951003274574877,0.08007162465701612,-0.13943718234053978, ,0.01242004194083143,0.020397585667011876,-0.08591276286141755, ,0.11121475213414733, ,-7.767316565657775e-06,3.167308809381878e-05,1.3202094524130593e-05,-0.0006146511255719614,-0.0006973319842619058,0.001311342489388031, ,3.5182538507816995e-05, ,0.0009295525280701064, ,0.014147532382740245, ,0.0,0.0,0.0,0.0,0.0,0.0, ,0.0,0.0,0.0,0.0,0.0,0.0, ,1.4036338329315186
0.08951003274574877,0.08007162465701612,-0.13943718234053978, ,0.012470942630038746,0.020399151739031618,-0.08603244171785138, ,0.11112106798884139, ,-7.767316565657775e-06,3.167308809381878e-05,1.3202094524130593e-05,-0.0006146511255719614,-0.0006973319842619058,0.001311342489388031, ,3.5182538507816995e-05, ,0.0009295525280701064, ,0.014180575044821354, ,0.0,0.0,0.0,0.0,0.0,0.0, ,0.0,0.0,0.0,0.0,0.0,0.0, ,1.4136748313903809
0.08951003274574877,0.08007162465701612,-0.13943718234053978, ,0.012521758033769778,0.020400711859544847,-0.0861518087543466, ,0.11102766914346504, ,-7.767316565657775e-06,3.167308809381878e-05,1.3202094524130593e-05,-0.0006146511255719614,-0.0006973319842619058,0.001311342489388031, ,3.5182538507816995e-05, ,0.0009295525280701064, ,0.014213005318414525, ,0.0,0.0,0.0,0.0,0.0,0.0, ,0.0,0.0,0.0,0.0,0.0,0.0, ,1.4235718250274658
0.08951003274574877,0.08007162465701612,-0.13943718234053978, ,0.01257248820812743,0.02040226604017782,-0.08627086439081683, ,0.11093455494819618, ,-7.767316565657775e-06,3.167308809381878e-05,1.3202094524130593e-05,-0.0006146511255719614,-0.0006973319842619058,0.001311342489388031, ,3.5182538507816995e-05, ,0.0009295525280701064, ,0.01424483723285337, ,0.0,0.0,0.0,0.0,0.0,0.0, ,0.0,0.0,0.0,0.0,0.0,0.0, ,1.4338469505310059
0.08951003274574877,0.08007162465701612,-0.13943718234053978, ,0.012623133209252152,0.02040381429256632,-0.0863896090468707, ,0.11084172475367957, ,-7.767316565657775e-06,3.167308809381878e-05,1.3202094524130593e-05,-0.0006146511255719614,-0.0006973319842619058,0.001311342489388031, ,3.5182538507816995e-05, ,0.0009295525280701064, ,0.014276084402011694, ,0.0,0.0,0.0,0.0,0.0,0.0, ,0.0,0.0,0.0,0.0,0.0,0.0, ,1.4437780380249023
0.08951003274574877,0.08007162465701612,-0.13943718234053978, ,0.012673693093322001,0.020405356628355364,-0.08650804314181165, ,0.11074917791103198, ,-7.767316565657775e-06,3.167308809381878e-05,1.3202094524130593e-05,-0.0006146511255719614,-0.0006973319842619058,0.001311342489388031, ,3.5182538507816995e-05, ,0.0009295525280701064, ,0.014306760039540987, ,0.0,0.0,0.0,0.0,0.0,0.0, ,0.0,0.0,0.0,0.0,0.0,0.0, ,1.4535648822784424
0.08951003274574877,0.08007162465701612,-0.13943718234053978, ,0.012724167916552646,0.020406893059199585,-0.08662616709463844, ,0.11065691377184658, ,-7.767316565657775e-06,3.167308809381878e-05,1.3202094524130593e-05,-0.0006146511255719614,-0.0006973319842619058,0.001311342489388031, ,3.5182538507816995e-05, ,0.0009295525280701064, ,0.014336876973442202, ,0.0,0.0,0.0,0.0,0.0,0.0, ,0.0,0.0,0.0,0.0,0.0,0.0, ,1.4640460014343262
0.08951003274574877,0.08007162465701612,-0.13943718234053978, ,0.012774557735197156,0.020408423596762863,-0.08674398132404443, ,0.11056493168819842, ,-7.767316565657775e-06,3.167308809381878e-05,1.3202094524130593e-05,-0.0006146511255719614,-0.0006973319842619058,0.001311342489388031, ,3.5182538507816995e-05, ,0.0009295525280701064, ,0.01436644766000551, ,0.0,0.0,0.0,0.0,0.0,0.0, ,0.0,0.0,0.0,0.0,0.0,0.0, ,1.479024887084961
0.08951003274574877,0.08007162465701612,-0.13943718234053978, ,0.012824862605545962,0.020409948252718458,-0.08686148624841904, ,0.11047323101264858, ,-7.767316565657775e-06,3.167308809381878e-05,1.3202094524130593e-05,-0.0006146511255719614,-0.0006973319842619058,0.001311342489388031, ,3.5182538507816995e-05, ,0.0009295525280701064, ,0.014395484197149784, ,0.0,0.0,0.0,0.0,0.0,0.0, ,0.0,0.0,0.0,0.0,0.0,0.0, ,1.4886949062347412
0.08951003274574877,0.08007162465701612,-0.13943718234053978, ,0.01287508258392703,0.02041146703874892,-0.0869786822858465, ,0.11038181109824952, ,-7.767316565657775e-06,3.167308809381878e-05,1.3202094524130593e-05,-0.0006146511255719614,-0.0006973319842619058,0.001311342489388031, ,3.5182538507816995e-05, ,0.0009295525280701064, ,0.01442399833719177, ,0.0,0.0,0.0,0.0,0.0,0.0, ,0.0,0.0,0.0,0.0,0.0,0.0, ,1.4983069896697998
0.08951003274574877,0.08007162465701612,-0.13943718234053978, ,0.012925217726705705,0.02041297996654608,-0.087095569854107, ,0.1102906712985495, ,-7.767316565657775e-06,3.167308809381878e-05,1.3202094524130593e-05,-0.0006146511255719614,-0.0006973319842619058,0.001311342489388031, ,3.5182538507816995e-05, ,0.0009295525280701064, ,0.014469064074632847, ,0.0,0.0,0.0,0.0,0.0,0.0, ,0.0,0.0,0.0,0.0,0.0,0.0, ,1.5068800449371338
0.08951003274574877,0.08007162465701612,-0.13943718234053978, ,0.012975268090284339,0.02041448704781123,-0.08721214937067638, ,0.11019981096759765, ,-7.767316565657775e-06,3.167308809381878e-05,1.3202094524130593e-05,-0.0006146511255719614,-0.0006973319842619058,0.001311342489388031, ,3.5182538507816995e-05, ,0.0009295525280701064, ,0.014513494227912696, ,0.0,0.0,0.0,0.0,0.0,0.0, ,0.0,0.0,0.0,0.0,0.0,0.0, ,1.515744924545288
0.08951003274574877,0.08007162465701612,-0.13943718234053978, ,0.013025233731102922,0.020415988294254634,-0.0873284212527257, ,0.11010922945994894, ,-7.767316565657775e-06,3.167308809381878e-05,1.3202094524130593e-05,-0.0006146511255719614,-0.0006973319842619058,0.001311342489388031, ,3.5182538507816995e-05, ,0.0009295525280701064, ,0.01455730024695632, ,0.0,0.0,0.0,0.0,0.0,0.0, ,0.0,0.0,0.0,0.0,0.0,0.0, ,1.5243208408355713
0.08951003274574877,0.08007162465701612,-0.13943718234053978, ,0.013075114705638465,0.020417483717596042,-0.08744438591712274, ,0.11001892613066837, ,-7.767316565657775e-06,3.167308809381878e-05,1.3202094524130593e-05,-0.0006146511255719614,-0.0006973319842619058,0.001311342489388031, ,3.5182538507816995e-05, ,0.0009295525280701064, ,0.014600493315281016, ,0.0,0.0,0.0,0.0,0.0,0.0, ,0.0,0.0,0.0,0.0,0.0,0.0, ,1.532531976699829
0.08951003274574877,0.08007162465701612,-0.13943718234053978, ,0.01312491107040506,0.020418973329564234,-0.08756004378043089, ,0.10992890033533652, ,-7.767316565657775e-06,3.167308809381878e-05,1.3202094524130593e-05,-0.0006146511255719614,-0.0006973319842619058,0.001311342489388031, ,3.5182538507816995e-05, ,0.0009295525280701064, ,0.014643084357678861, ,0.0,0.0,0.0,0.0,0.0,0.0, ,0.0,0.0,0.0,0.0,0.0,0.0, ,1.5406529903411865
0.08951003274574877,0.08007162465701612,-0.13943718234053978, ,0.01317462288195398,0.02042045714189738,-0.08767539525890956, ,0.10983915143005393, ,-7.767316565657775e-06,3.167308809381878e-05,1.3202094524130593e-05,-0.0006146511255719614,-0.0006973319842619058,0.001311342489388031, ,3.5182538507816995e-05, ,0.0009295525280701064, ,0.014685084047634892, ,0.0,0.0,0.0,0.0,0.0,0.0, ,0.0,0.0,0.0,0.0,0.0,0.0, ,1.5489530563354492
0.08951003274574877,0.08007162465701612,-0.13943718234053978, ,0.013224250196873628,0.020421935166342647,-0.0877904407685148, ,0.10974967877144585, ,-7.767316565657775e-06,3.167308809381878e-05,1.3202094524130593e-05,-0.0006146511255719614,-0.0006973319842619058,0.001311342489388031, ,3.5182538507816995e-05, ,0.0009295525280701064, ,0.01472650281449153, ,0.0,0.0,0.0,0.0,0.0,0.0, ,0.0,0.0,0.0,0.0,0.0,0.0, ,1.5585229396820068
0.08951003274574877,0.08007162465701612,-0.13943718234053978, ,0.01327379307178937,0.02042340741465639,-0.08790518072489881, ,0.10966048171666741, ,-7.767316565657775e-06,3.167308809381878e-05,1.3202094524130593e-05,-0.0006146511255719614,-0.0006973319842619058,0.001311342489388031, ,3.5182538507816995e-05, ,0.0009295525280701064, ,0.014767350850369319, ,0.0,0.0,0.0,0.0,0.0,0.0, ,0.0,0.0,0.0,0.0,0.0,0.0, ,1.5677289962768555
0.08951003274574877,0.08007162465701612,-0.13943718234053978, ,0.013323251563363543,0.02042487389860419,-0.08801961554341027, ,0.10957155962340792, ,-7.767316565657775e-06,3.167308809381878e-05,1.3202094524130593e-05,-0.0006146511255719614,-0.0006973319842619058,0.001311342489388031, ,3.5182538507816995e-05, ,0.0009295525280701064, ,0.014807638116853605, ,0.0,0.0,0.0,0.0,0.0,0.0, ,0.0,0.0,0.0,0.0,0.0,0.0, ,1.5759320259094238
0.08951003274574877,0.08007162465701612,-0.13943718234053978, ,0.013372625728295376,0.020426334629960585,-0.08813374563909476, ,0.10948291184989603, ,-7.767316565657775e-06,3.167308809381878e-05,1.3202094524130593e-05,-0.0006146511255719614,-0.0006973319842619058,0.001311342489388031, ,3.5182538507816995e-05, ,0.0009295525280701064, ,0.014847374351456328, ,0.0,0.0,0.0,0.0,0.0,0.0, ,0.0,0.0,0.0,0.0,0.0,0.0, ,1.5844340324401855
0.08951003274574877,0.08007162465701612,-0.13943718234053978, ,0.013421915623320993,0.020427789620509354,-0.08824757142669405, ,0.10939453775490453, ,-7.767316565657775e-06,3.167308809381878e-05,1.3202094524130593e-05,-0.0006146511255719614,-0.0006973319842619058,0.001311342489388031, ,3.5182538507816995e-05, ,0.0009295525280701064, ,0.014886569073861704, ,0.0,0.0,0.0,0.0,0.0,0.0, ,0.0,0.0,0.0,0.0,0.0,0.0, ,1.5928709506988525
0.08951003274574877,0.08007162465701612,-0.13943718234053978, ,0.013471121305213388,0.020429238882043184,-0.08836109332064773, ,0.10930643669775451, ,-7.767316565657775e-06,3.167308809381878e-05,1.3202094524130593e-05,-0.0006146511255719614,-0.0006973319842619058,0.001311342489388031, ,3.5182538507816995e-05, ,0.0009295525280701064, ,0.014925231591964192, ,0.0,0.0,0.0,0.0,0.0,0.0, ,0.0,0.0,0.0,0.0,0.0,0.0, ,1.6016700267791748
0.08951003274574877,0.08007162465701612,-0.13943718234053978, ,0.013520242830782325,0.020430682426363967,-0.088474311735091, ,0.10921860803832119, ,-7.767316565657775e-06,3.167308809381878e-05,1.3202094524130593e-05,-0.0006146511255719614,-0.0006973319842619058,0.001311342489388031, ,3.5182538507816995e-05, ,0.0009295525280701064, ,0.01496337100770675, ,0.0,0.0,0.0,0.0,0.0,0.0, ,0.0,0.0,0.0,0.0,0.0,0.0, ,1.6104240417480469
0.08951003274574877,0.08007162465701612,-0.13943718234053978, ,0.013569280256874271,0.02043212026528252,-0.08858722708385737, ,0.10913105113703758, ,-7.767316565657775e-06,3.167308809381878e-05,1.3202094524130593e-05,-0.0006146511255719614,-0.0006973319842619058,0.001311342489388031, ,3.5182538507816995e-05, ,0.0009295525280701064, ,0.015000996222727039, ,0.0,0.0,0.0,0.0,0.0,0.0, ,0.0,0.0,0.0,0.0,0.0,0.0, ,1.6183960437774658
0.08951003274574877,0.08007162465701612,-0.13943718234053978, ,0.013618233640372316,0.02043355241061867,-0.08869983978047695, ,0.10904376535490005, ,-7.767316565657775e-06,3.167308809381878e-05,1.3202094524130593e-05,-0.0006146511255719614,-0.0006973319842619058,0.001311342489388031, ,3.5182538507816995e-05, ,0.0009295525280701064, ,0.01503811594381893, ,0.0,0.0,0.0,0.0,0.0,0.0, ,0.0,0.0,0.0,0.0,0.0,0.0, ,1.6265358924865723
0.08951003274574877,0.08007162465701612,-0.13943718234053978, ,0.01366710303819637,0.02043497887420133,-0.08881215023817703, ,0.10895675005347266, ,-7.767316565657775e-06,3.167308809381878e-05,1.3202094524130593e-05,-0.0006146511255719614,-0.0006973319842619058,0.001311342489388031, ,3.5182538507816995e-05, ,0.0009295525280701064, ,0.015074738688216302, ,0.0,0.0,0.0,0.0,0.0,0.0, ,0.0,0.0,0.0,0.0,0.0,0.0, ,1.634902000427246
0.08951003274574877,0.08007162465701612,-0.13943718234053978, ,0.013715888507302747,0.020436399667868192,-0.08892415886988302, ,0.10887000459489186, ,-7.767316565657775e-06,3.167308809381878e-05,1.3202094524130593e-05,-0.0006146511255719614,-0.0006973319842619058,0.001311342489388031, ,3.5182538507816995e-05, ,0.0009295525280701064, ,0.01511087278870585, ,0.0,0.0,0.0,0.0,0.0,0.0, ,0.0,0.0,0.0,0.0,0.0,0.0, ,1.6432950496673584
0.08951003274574877,0.08007162465701612,-0.13943718234053978, ,0.013764590104684477,0.02043781480346604,-0.08903586608821709, ,0.10878352834187156, ,-7.767316565657775e-06,3.167308809381878e-05,1.3202094524130593e-05,-0.0006146511255719614,-0.0006973319842619058,0.001311342489388031, ,3.5182538507816995e-05, ,0.0009295525280701064, ,0.015146526398575317, ,0.0,0.0,0.0,0.0,0.0,0.0, ,0.0,0.0,0.0,0.0,0.0,0.0, ,1.6524138450622559
0.08951003274574877,0.08007162465701612,-0.13943718234053978, ,0.013813207887370862,0.02043922429285064,-0.08914727230549954, ,0.10869732065770758, ,-7.767316565657775e-06,3.167308809381878e-05,1.3202094524130593e-05,-0.0006146511255719614,-0.0006973319842619058,0.001311342489388031, ,3.5182538507816995e-05, ,0.0009295525280701064, ,0.015181707496403312, ,0.0,0.0,0.0,0.0,0.0,0.0, ,0.0,0.0,0.0,0.0,0.0,0.0, ,1.6606969833374023
0.08951003274574877,0.08007162465701612,-0.13943718234053978, ,0.013861741912427863,0.02044062814788648,-0.08925837793374809, ,0.10861138090628251, ,-7.767316565657775e-06,3.167308809381878e-05,1.3202094524130593e-05,-0.0006146511255719614,-0.0006973319842619058,0.001311342489388031, ,3.5182538507816995e-05, ,0.0009295525280701064, ,0.015216423890696587, ,0.0,0.0,0.0,0.0,0.0,0.0, ,0.0,0.0,0.0,0.0,0.0,0.0, ,1.668637990951538
0.08951003274574877,0.08007162465701612,-0.13943718234053978, ,0.013910192236957757,0.02044202638044701,-0.08936918338467874, ,0.10852570845207025, ,-7.767316565657775e-06,3.167308809381878e-05,1.3202094524130593e-05,-0.0006146511255719614,-0.0006973319842619058,0.001311342489388031, ,3.5182538507816995e-05, ,0.0009295525280701064, ,0.015250683224380418, ,0.0,0.0,0.0,0.0,0.0,0.0, ,0.0,0.0,0.0,0.0,0.0,0.0, ,1.6772170066833496
0.08951003274574877,0.08007162465701612,-0.13943718234053978, ,0.013958558918099086,0.020443419002414677,-0.0894796890697052, ,0.1084403026601409, ,-7.767316565657775e-06,3.167308809381878e-05,1.3202094524130593e-05,-0.0006146511255719614,-0.0006973319842619058,0.001311342489388031, ,3.5182538507816995e-05, ,0.0009295525280701064, ,0.015300565001207567, ,0.0,0.0,0.0,0.0,0.0,0.0, ,0.0,0.0,0.0,0.0,0.0,0.0, ,1.6843199729919434
0.08951003274574877,0.08007162465701612,-0.13943718234053978, ,0.014006842013026934,0.020444806025680544,-0.08958989539993933, ,0.1083551628961653, ,-7.767316565657775e-06,3.167308809381878e-05,1.3202094524130593e-05,-0.0006146511255719614,-0.0006973319842619058,0.001311342489388031, ,3.5182538507816995e-05, ,0.0009295525280701064, ,0.015349939768633048, ,0.0,0.0,0.0,0.0,0.0,0.0, ,0.0,0.0,0.0,0.0,0.0,0.0, ,1.6948199272155762
0.08951003274574877,0.08007162465701612,-0.13943718234053978, ,0.014055041578952387,0.02044618746214471,-0.08969980278619108, ,0.10827028852641993, ,-7.767316565657775e-06,3.167308809381878e-05,1.3202094524130593e-05,-0.0006146511255719614,-0.0006973319842619058,0.001311342489388031, ,3.5182538507816995e-05, ,0.0009295525280701064, ,0.015398814147623547, ,0.0,0.0,0.0,0.0,0.0,0.0, ,0.0,0.0,0.0,0.0,0.0,0.0, ,1.7026808261871338
0.08951003274574877,0.08007162465701612,-0.13943718234053978, ,0.01410315767312287,0.020447563323715938,-0.08980941163896917, ,0.10818567891779125, ,-7.767316565657775e-06,3.167308809381878e-05,1.3202094524130593e-05,-0.0006146511255719614,-0.0006973319842619058,0.001311342489388031, ,3.5182538507816995e-05, ,0.0009295525280701064, ,0.01544719464848263, ,0.0,0.0,0.0,0.0,0.0,0.0, ,0.0,0.0,0.0,0.0,0.0,0.0, ,1.7091069221496582
0.08951003274574877,0.08007162465701612,-0.13943718234053978, ,0.014151190352821912,0.020448933622311892,-0.08991872236848018, ,0.10810133343778076, ,-7.767316565657775e-06,3.167308809381878e-05,1.3202094524130593e-05,-0.0006146511255719614,-0.0006973319842619058,0.001311342489388031, ,3.5182538507816995e-05, ,0.0009295525280701064, ,0.015495087673140178, ,0.0,0.0,0.0,0.0,0.0,0.0, ,0.0,0.0,0.0,0.0,0.0,0.0, ,1.7154829502105713
0.08951003274574877,0.08007162465701612,-0.13943718234053978, ,0.014199139675369237,0.020450298369858955,-0.09002773538462973, ,0.10801725145450929, ,-7.767316565657775e-06,3.167308809381878e-05,1.3202094524130593e-05,-0.0006146511255719614,-0.0006973319842619058,0.001311342489388031, ,3.5182538507816995e-05, ,0.0009295525280701064, ,0.015542499517385233, ,0.0,0.0,0.0,0.0,0.0,0.0, ,0.0,0.0,0.0,0.0,0.0,0.0, ,1.72222900390625
0.08951003274574877,0.08007162465701612,-0.13943718234053978, ,0.014247005698120431,0.020451657578292308,-0.09013645109702184, ,0.10793343233672192, ,-7.767316565657775e-06,3.167308809381878e-05,1.3202094524130593e-05,-0.0006146511255719614,-0.0006973319842619058,0.001311342489388031, ,3.5182538507816995e-05, ,0.0009295525280701064, ,0.01558943637304388, ,0.0,0.0,0.0,0.0,0.0,0.0, ,0.0,0.0,0.0,0.0,0.0,0.0, ,1.7289259433746338
0.08951003274574877,0.08007162465701612,-0.13943718234053978, ,0.014294788478467463,0.020453011259555762,-0.09024486991495906, ,0.10784987545379261, ,-7.767316565657775e-06,3.167308809381878e-05,1.3202094524130593e-05,-0.0006146511255719614,-0.0006973319842619058,0.001311342489388031, ,3.5182538507816995e-05, ,0.0009295525280701064, ,0.015635904330103756, ,0.0,0.0,0.0,0.0,0.0,0.0, ,0.0,0.0,0.0,0.0,0.0,0.0, ,1.7362589836120605
0.08951003274574877,0.08007162465701612,-0.13943718234053978, ,0.014342488073837872,0.020454359425601937,-0.09035299224744317, ,0.10776658017572864, ,-7.767316565657775e-06,3.167308809381878e-05,1.3202094524130593e-05,-0.0006146511255719614,-0.0006973319842619058,0.001311342489388031, ,3.5182538507816995e-05, ,0.0009295525280701064, ,0.01568190937878668, ,0.0,0.0,0.0,0.0,0.0,0.0, ,0.0,0.0,0.0,0.0,0.0,0.0, ,1.7434718608856201
0.08951003274574877,0.08007162465701612,-0.13943718234053978, ,0.014390104541695412,0.02045570208839217,-0.09046081850317486, ,0.10768354587317527, ,-7.767316565657775e-06,3.167308809381878e-05,1.3202094524130593e-05,-0.0006146511255719614,-0.0006973319842619058,0.001311342489388031, ,3.5182538507816995e-05, ,0.0009295525280701064, ,0.015727457411570903, ,0.0,0.0,0.0,0.0,0.0,0.0, ,0.0,0.0,0.0,0.0,0.0,0.0, ,1.749856948852539
0.08951003274574877,0.08007162465701612,-0.13943718234053978, ,0.014437637939539512,0.020457039259896365,-0.09056834909055397, ,0.10760077191742054, ,-7.767316565657775e-06,3.167308809381878e-05,1.3202094524130593e-05,-0.0006146511255719614,-0.0006973319842619058,0.001311342489388031, ,3.5182538507816995e-05, ,0.0009295525280701064, ,0.01577255422516438, ,0.0,0.0,0.0,0.0,0.0,0.0, ,0.0,0.0,0.0,0.0,0.0,0.0, ,1.7561700344085693
0.08951003274574877,0.08007162465701612,-0.13943718234053978, ,0.014485088324905445,0.020458370952093248,-0.09067558441767938, ,0.10751825768039973, ,-7.767316565657775e-06,3.167308809381878e-05,1.3202094524130593e-05,-0.0006146511255719614,-0.0006973319842619058,0.001311342489388031, ,3.5182538507816995e-05, ,0.0009295525280701064, ,0.015817205522430454, ,0.0,0.0,0.0,0.0,0.0,0.0, ,0.0,0.0,0.0,0.0,0.0,0.0, ,1.7626209259033203
0.08951003274574877,0.08007162465701612,-0.13943718234053978, ,0.01453245575536437,0.02045969717697009,-0.09078252489234935, ,0.10743600253469988, ,-7.767316565657775e-06,3.167308809381878e-05,1.3202094524130593e-05,-0.0006146511255719614,-0.0006973319842619058,0.001311342489388031, ,3.5182538507816995e-05, ,0.0009295525280701064, ,0.01586141691426727, ,0.0,0.0,0.0,0.0,0.0,0.0, ,0.0,0.0,0.0,0.0,0.0,0.0, ,1.7710299491882324
0.08951003274574877,0.08007162465701612,-0.13943718234053978, ,0.014579740288523033,0.020461017946522803,-0.0908891709220615, ,0.10735400585356462, ,-7.767316565657775e-06,3.167308809381878e-05,1.3202094524130593e-05,-0.0006146511255719614,-0.0006973319842619058,0.001311342489388031, ,3.5182538507816995e-05, ,0.0009295525280701064, ,0.01590519392144224, ,0.0,0.0,0.0,0.0,0.0,0.0, ,0.0,0.0,0.0,0.0,0.0,0.0, ,1.7790119647979736
0.08951003274574877,0.08007162465701612,-0.13943718234053978, ,0.01462694198202403,0.020462333272755855,-0.090995522914013, ,0.10727226701089845, ,-7.767316565657775e-06,3.167308809381878e-05,1.3202094524130593e-05,-0.0006146511255719614,-0.0006973319842619058,0.001311342489388031, ,3.5182538507816995e-05, ,0.0009295525280701064, ,0.015948541976382784, ,0.0,0.0,0.0,0.0,0.0,0.0, ,0.0,0.0,0.0,0.0,0.0,0.0, ,1.7861180305480957
0.08951003274574877,0.08007162465701612,-0.13943718234053978, ,0.01467406089354534,0.02046364316768245,-0.0911015812751007, ,0.1071907853812715, ,-7.767316565657775e-06,3.167308809381878e-05,1.3202094524130593e-05,-0.0006146511255719614,-0.0006973319842619058,0.001311342489388031, ,3.5182538507816995e-05, ,0.0009295525280701064, ,0.015991466424924564, ,0.0,0.0,0.0,0.0,0.0,0.0, ,0.0,0.0,0.0,0.0,0.0,0.0, ,1.792726993560791
0.08951003274574877,0.08007162465701612,-0.13943718234053978, ,0.014721097080800757,0.020464947643324193,-0.09120734641192113, ,0.10710956033992389, ,-7.767316565657775e-06,3.167308809381878e-05,1.3202094524130593e-05,-0.0006146511255719614,-0.0006973319842619058,0.001311342489388031, ,3.5182538507816995e-05, ,0.0009295525280701064, ,0.016033972528018383, ,0.0,0.0,0.0,0.0,0.0,0.0, ,0.0,0.0,0.0,0.0,0.0,0.0, ,1.7995378971099854
0.08951003274574877,0.08007162465701612,-0.13943718234053978, ,0.014768050601539445,0.02046624671171137,-0.09131281873077085, ,0.10702859126277044, ,-7.767316565657775e-06,3.167308809381878e-05,1.3202094524130593e-05,-0.0006146511255719614,-0.0006973319842619058,0.001311342489388031, ,3.5182538507816995e-05, ,0.0009295525280701064, ,0.01607606546339689, ,0.0,0.0,0.0,0.0,0.0,0.0, ,0.0,0.0,0.0,0.0,0.0,0.0, ,1.805893898010254
0.08951003274574877,0.08007162465701612,-0.13943718234053978, ,0.014814921513546138,0.020467540384882757,-0.09141799863764613, ,0.10694787752640511, ,-7.767316565657775e-06,3.167308809381878e-05,1.3202094524130593e-05,-0.0006146511255719614,-0.0006973319842619058,0.001311342489388031, ,3.5182538507816995e-05, ,0.0009295525280701064, ,0.016117750327202186, ,0.0,0.0,0.0,0.0,0.0,0.0, ,0.0,0.0,0.0,0.0,0.0,0.0, ,1.8128008842468262
0.08951003274574877,0.08007162465701612,-0.13943718234053978, ,0.014861709874640923,0.020468828674885666,-0.09152288653824313, ,0.10686741850810569, ,-7.767316565657775e-06,3.167308809381878e-05,1.3202094524130593e-05,-0.0006146511255719614,-0.0006973319842619058,0.001311342489388031, ,3.5182538507816995e-05, ,0.0009295525280701064, ,0.01615903213557541, ,0.0,0.0,0.0,0.0,0.0,0.0, ,0.0,0.0,0.0,0.0,0.0,0.0, ,1.8204619884490967
0.08951003274574877,0.08007162465701612,-0.13943718234053978, ,0.014908415742679312,0.02047011159377589,-0.09162748283795882, ,0.10678721358583783, ,-7.767316565657775e-06,3.167308809381878e-05,1.3202094524130593e-05,-0.0006146511255719614,-0.0006973319842619058,0.001311342489388031, ,3.5182538507816995e-05, ,0.0009295525280701064, ,0.016199915826209294, ,0.0,0.0,0.0,0.0,0.0,0.0, ,0.0,0.0,0.0,0.0,0.0,0.0, ,1.8278229236602783
0.08951003274574877,0.08007162465701612,-0.13943718234053978, ,0.014955039175552272,0.020471389153617663,-0.0917317879418898, ,0.10670726213826004, ,-7.767316565657775e-06,3.167308809381878e-05,1.3202094524130593e-05,-0.0006146511255719614,-0.0006973319842619058,0.001311342489388031, ,3.5182538507816995e-05, ,0.0009295525280701064, ,0.01625611264889753, ,0.0,0.0,0.0,0.0,0.0,0.0, ,0.0,0.0,0.0,0.0,0.0,0.0, ,1.832852840423584
0.08951003274574877,0.08007162465701612,-0.13943718234053978, ,0.015001580231185701,0.020472661366483857,-0.09183580225483333, ,0.10662756354472798, ,-7.767316565657775e-06,3.167308809381878e-05,1.3202094524130593e-05,-0.0006146511255719614,-0.0006973319842619058,0.001311342489388031, ,3.5182538507816995e-05, ,0.0009295525280701064, ,0.016311907466253394, ,0.0,0.0,0.0,0.0,0.0,0.0, ,0.0,0.0,0.0,0.0,0.0,0.0, ,1.8379719257354736
0.08951003274574877,0.08007162465701612,-0.13943718234053978, ,0.015048038967541071,0.020473928244455594,-0.09193952618128724, ,0.10654811718529873, ,-7.767316565657775e-06,3.167308809381878e-05,1.3202094524130593e-05,-0.0006146511255719614,-0.0006973319842619058,0.001311342489388031, ,3.5182538507816995e-05, ,0.0009295525280701064, ,0.016367303999701988, ,0.0,0.0,0.0,0.0,0.0,0.0, ,0.0,0.0,0.0,0.0,0.0,0.0, ,1.8436689376831055
0.08951003274574877,0.08007162465701612,-0.13943718234053978, ,0.015094415442614967,0.020475189799622515,-0.09204296012544944, ,0.10646892244073568, ,-7.767316565657775e-06,3.167308809381878e-05,1.3202094524130593e-05,-0.0006146511255719614,-0.0006973319842619058,0.001311342489388031, ,3.5182538507816995e-05, ,0.0009295525280701064, ,0.01642230592725868, ,0.0,0.0,0.0,0.0,0.0,0.0, ,0.0,0.0,0.0,0.0,0.0,0.0, ,1.8484950065612793
0.08951003274574877,0.08007162465701612,-0.13943718234053978, ,0.015140709714438979,0.020476446044082757,-0.09214610449121947, ,0.10638997869251224, ,-7.767316565657775e-06,3.167308809381878e-05,1.3202094524130593e-05,-0.0006146511255719614,-0.0006973319842619058,0.001311342489388031, ,3.5182538507816995e-05, ,0.0009295525280701064, ,0.01647691688415231, ,0.0,0.0,0.0,0.0,0.0,0.0, ,0.0,0.0,0.0,0.0,0.0,0.0, ,1.853281021118164
0.08951003274574877,0.08007162465701612,-0.13943718234053978, ,0.015186921841080035,0.02047769698994265,-0.09224895968219679, ,0.10631128532281711, ,-7.767316565657775e-06,3.167308809381878e-05,1.3202094524130593e-05,-0.0006146511255719614,-0.0006973319842619058,0.001311342489388031, ,3.5182538507816995e-05, ,0.0009295525280701064, ,0.016531140463437687, ,0.0,0.0,0.0,0.0,0.0,0.0, ,0.0,0.0,0.0,0.0,0.0,0.0, ,1.8581318855285645
0.08951003274574877,0.08007162465701612,-0.13943718234053978, ,0.015233051880639815,0.02047894264931712,-0.09235152610168222, ,0.10623284171455812, ,-7.767316565657775e-06,3.167308809381878e-05,1.3202094524130593e-05,-0.0006146511255719614,-0.0006973319842619058,0.001311342489388031, ,3.5182538507816995e-05, ,0.0009295525280701064, ,0.016584980216597617, ,0.0,0.0,0.0,0.0,0.0,0.0, ,0.0,0.0,0.0,0.0,0.0,0.0, ,1.8630590438842773
0.08951003274574877,0.08007162465701612,-0.13943718234053978, ,0.015279099891255005,0.020480183034329406,-0.09245380415267718, ,0.10615464725136702, ,-7.767316565657775e-06,3.167308809381878e-05,1.3202094524130593e-05,-0.0006146511255719614,-0.0006973319842619058,0.001311342489388031, ,3.5182538507816995e-05, ,0.0009295525280701064, ,0.016638439654134654, ,0.0,0.0,0.0,0.0,0.0,0.0, ,0.0,0.0,0.0,0.0,0.0,0.0, ,1.8678488731384277
0.08951003274574877,0.08007162465701612,-0.13943718234053978, ,0.015325065931097477,0.02048141815711093,-0.0925557942378848, ,0.10607670131760327, ,-7.767316565657775e-06,3.167308809381878e-05,1.3202094524130593e-05,-0.0006146511255719614,-0.0006973319842619058,0.001311342489388031, ,3.5182538507816995e-05, ,0.0009295525280701064, ,0.0166915222461528, ,0.0,0.0,0.0,0.0,0.0,0.0, ,0.0,0.0,0.0,0.0,0.0,0.0, ,1.8734290599822998
0.08951003274574877,0.08007162465701612,-0.13943718234053978, ,0.015370950058373788,0.020482648029801705,-0.09265749675970887, ,0.10599900329835904, ,-7.767316565657775e-06,3.167308809381878e-05,1.3202094524130593e-05,-0.0006146511255719614,-0.0006973319842619058,0.001311342489388031, ,3.5182538507816995e-05, ,0.0009295525280701064, ,0.016744231422929332, ,0.0,0.0,0.0,0.0,0.0,0.0, ,0.0,0.0,0.0,0.0,0.0,0.0, ,1.8789968490600586
0.08951003274574877,0.08007162465701612,-0.13943718234053978, ,0.015416752331325438,0.02048387266454995,-0.09275891212025518, ,0.10592155257946295, ,-7.767316565657775e-06,3.167308809381878e-05,1.3202094524130593e-05,-0.0006146511255719614,-0.0006973319842619058,0.001311342489388031, ,3.5182538507816995e-05, ,0.0009295525280701064, ,0.016796570575476958, ,0.0,0.0,0.0,0.0,0.0,0.0, ,0.0,0.0,0.0,0.0,0.0,0.0, ,1.88680100440979
0.08951003274574877,0.08007162465701612,-0.13943718234053978, ,0.015462472808228654,0.020485092073511995,-0.09286004072132999, ,0.10584434854748533, ,-7.767316565657775e-06,3.167308809381878e-05,1.3202094524130593e-05,-0.0006146511255719614,-0.0006973319842619058,0.001311342489388031, ,3.5182538507816995e-05, ,0.0009295525280701064, ,0.016848543056096503, ,0.0,0.0,0.0,0.0,0.0,0.0, ,0.0,0.0,0.0,0.0,0.0,0.0, ,1.8920209407806396
0.08951003274574877,0.08007162465701612,-0.13943718234053978, ,0.015508111547394439,0.020486306268852762,-0.09296088296444187, ,0.10576739058974143, ,-7.767316565657775e-06,3.167308809381878e-05,1.3202094524130593e-05,-0.0006146511255719614,-0.0006973319842619058,0.001311342489388031, ,3.5182538507816995e-05, ,0.0009295525280701064, ,0.01690015217892029, ,0.0,0.0,0.0,0.0,0.0,0.0, ,0.0,0.0,0.0,0.0,0.0,0.0, ,1.8968229293823242
0.08951003274574877,0.08007162465701612,-0.13943718234053978, ,0.015553668607168319,0.02048751526274529,-0.09306143925080063, ,0.10569067809429662, ,-7.767316565657775e-06,3.167308809381878e-05,1.3202094524130593e-05,-0.0006146511255719614,-0.0006973319842619058,0.001311342489388031, ,3.5182538507816995e-05, ,0.0009295525280701064, ,0.01695140122044642, ,0.0,0.0,0.0,0.0,0.0,0.0, ,0.0,0.0,0.0,0.0,0.0,0.0, ,1.9016590118408203
0.08951003274574877,0.08007162465701612,-0.13943718234053978, ,0.015599144045930873,0.02048871906737076,-0.09316170998131816, ,0.10561421044996998, ,-7.767316565657775e-06,3.167308809381878e-05,1.3202094524130593e-05,-0.0006146511255719614,-0.0006973319842619058,0.001311342489388031, ,3.5182538507816995e-05, ,0.0009295525280701064, ,0.017002293420064107, ,0.0,0.0,0.0,0.0,0.0,0.0, ,0.0,0.0,0.0,0.0,0.0,0.0, ,1.906524896621704
0.08951003274574877,0.08007162465701612,-0.13943718234053978, ,0.015644537922096798,0.02048991769491882,-0.09326169555660788, ,0.1055379870463392, ,-7.767316565657775e-06,3.167308809381878e-05,1.3202094524130593e-05,-0.0006146511255719614,-0.0006973319842619058,0.001311342489388031, ,3.5182538507816995e-05, ,0.0009295525280701064, ,0.01705283198057027, ,0.0,0.0,0.0,0.0,0.0,0.0, ,0.0,0.0,0.0,0.0,0.0,0.0, ,1.9117088317871094
0.08951003274574877,0.08007162465701612,-0.13943718234053978, ,0.01568985029411562,0.02049111115758719,-0.09336139637698537, ,0.10546200727374441, ,-7.767316565657775e-06,3.167308809381878e-05,1.3202094524130593e-05,-0.0006146511255719614,-0.0006973319842619058,0.001311342489388031, ,3.5182538507816995e-05, ,0.0009295525280701064, ,0.017103020068677508, ,0.0,0.0,0.0,0.0,0.0,0.0, ,0.0,0.0,0.0,0.0,0.0,0.0, ,1.9167020320892334
0.08951003274574877,0.08007162465701612,-0.13943718234053978, ,0.015735081220471264,0.020492299467581777,-0.09346081284246795, ,0.10538627052329275, ,-7.767316565657775e-06,3.167308809381878e-05,1.3202094524130593e-05,-0.0006146511255719614,-0.0006973319842619058,0.001311342489388031, ,3.5182538507816995e-05, ,0.0009295525280701064, ,0.017152860815513694, ,0.0,0.0,0.0,0.0,0.0,0.0, ,0.0,0.0,0.0,0.0,0.0,0.0, ,1.9218168258666992
0.08951003274574877,0.08007162465701612,-0.13943718234053978, ,0.015780230759682143,0.020493482637116665,-0.09355994535277541, ,0.10531077618686227, ,-7.767316565657775e-06,3.167308809381878e-05,1.3202094524130593e-05,-0.0006146511255719614,-0.0006973319842619058,0.001311342489388031, ,3.5182538507816995e-05, ,0.0009295525280701064, ,0.017202357317113254, ,0.0,0.0,0.0,0.0,0.0,0.0, ,0.0,0.0,0.0,0.0,0.0,0.0, ,1.927098035812378
0.08951003274574877,0.08007162465701612,-0.13943718234053978, ,0.01582529897030095,0.020494660678414277,-0.09365879430732985, ,0.1052355236571063, ,-7.767316565657775e-06,3.167308809381878e-05,1.3202094524130593e-05,-0.0006146511255719614,-0.0006973319842619058,0.001311342489388031, ,3.5182538507816995e-05, ,0.0009295525280701064, ,0.01725151263490039, ,0.0,0.0,0.0,0.0,0.0,0.0, ,0.0,0.0,0.0,0.0,0.0,0.0, ,1.9327340126037598
0.08951003274574877,0.08007162465701612,-0.13943718234053978, ,0.015870285910914814,0.020495833603704917,-0.09375736010525537, ,0.10516051232745785, ,-7.767316565657775e-06,3.167308809381878e-05,1.3202094524130593e-05,-0.0006146511255719614,-0.0006973319842619058,0.001311342489388031, ,3.5182538507816995e-05, ,0.0009295525280701064, ,0.017300329796164336, ,0.0,0.0,0.0,0.0,0.0,0.0, ,0.0,0.0,0.0,0.0,0.0,0.0, ,1.937885046005249
0.08951003274574877,0.08007162465701612,-0.13943718234053978, ,0.015915191640145293,0.020497001425227195,-0.09385564314537886, ,0.10508574159213332, ,-7.767316565657775e-06,3.167308809381878e-05,1.3202094524130593e-05,-0.0006146511255719614,-0.0006973319842619058,0.001311342489388031, ,3.5182538507816995e-05, ,0.0009295525280701064, ,0.01736464100236854, ,0.0,0.0,0.0,0.0,0.0,0.0, ,0.0,0.0,0.0,0.0,0.0,0.0, ,1.9418740272521973
0.08951003274574877,0.08007162465701612,-0.13943718234053978, ,0.01596001621664783,0.020498164155227844,-0.09395364382622952, ,0.10501121084613725, ,-7.767316565657775e-06,3.167308809381878e-05,1.3202094524130593e-05,-0.0006146511255719614,-0.0006973319842619058,0.001311342489388031, ,3.5182538507816995e-05, ,0.0009295525280701064, ,0.017428650045029193, ,0.0,0.0,0.0,0.0,0.0,0.0, ,0.0,0.0,0.0,0.0,0.0,0.0, ,1.94517183303833
0.08951003274574877,0.08007162465701612,-0.13943718234053978, ,0.01600475969911236,0.020499321805961646,-0.09405136254603952, ,0.1049369194852659, ,-7.767316565657775e-06,3.167308809381878e-05,1.3202094524130593e-05,-0.0006146511255719614,-0.0006973319842619058,0.001311342489388031, ,3.5182538507816995e-05, ,0.0009295525280701064, ,0.017492358789933927, ,0.0,0.0,0.0,0.0,0.0,0.0, ,0.0,0.0,0.0,0.0,0.0,0.0, ,1.9483940601348877
0.08951003274574877,0.08007162465701612,-0.13943718234053978, ,0.01604942214626287,0.02050047438969141,-0.0941487997027433, ,0.10486286690611193, ,-7.767316565657775e-06,3.167308809381878e-05,1.3202094524130593e-05,-0.0006146511255719614,-0.0006973319842619058,0.001311342489388031, ,3.5182538507816995e-05, ,0.0009295525280701064, ,0.017555769088778067, ,0.0,0.0,0.0,0.0,0.0,0.0, ,0.0,0.0,0.0,0.0,0.0,0.0, ,1.951772928237915
0.08951003274574877,0.08007162465701612,-0.13943718234053978, ,0.01609400361685741,0.020501621918688182,-0.09424595569397891, ,0.10478905250606792, ,-7.767316565657775e-06,3.167308809381878e-05,1.3202094524130593e-05,-0.0006146511255719614,-0.0006973319842619058,0.001311342489388031, ,3.5182538507816995e-05, ,0.0009295525280701064, ,0.01761888277929302, ,0.0,0.0,0.0,0.0,0.0,0.0, ,0.0,0.0,0.0,0.0,0.0,0.0, ,1.9549870491027832
0.08951003274574877,0.08007162465701612,-0.13943718234053978, ,0.01613850416968817,0.020502764405230814,-0.09434283091708669, ,0.10471547568333103, ,-7.767316565657775e-06,3.167308809381878e-05,1.3202094524130593e-05,-0.0006146511255719614,-0.0006973319842619058,0.001311342489388031, ,3.5182538507816995e-05, ,0.0009295525280701064, ,0.017681701685373263, ,0.0,0.0,0.0,0.0,0.0,0.0, ,0.0,0.0,0.0,0.0,0.0,0.0, ,1.9582200050354004
0.08951003274574877,0.08007162465701612,-0.13943718234053978, ,0.016182923863581205,0.02050390186160652,-0.09443942576911056, ,0.10464213583690664, ,-7.767316565657775e-06,3.167308809381878e-05,1.3202094524130593e-05,-0.0006146511255719614,-0.0006973319842619058,0.001311342489388031, ,3.5182538507816995e-05, ,0.0009295525280701064, ,0.01774422761720193, ,0.0,0.0,0.0,0.0,0.0,0.0, ,0.0,0.0,0.0,0.0,0.0,0.0, ,1.9619498252868652
0.08951003274574877,0.08007162465701612,-0.13943718234053978, ,0.01622726275739657,0.020505034300110237,-0.09453574064679718, ,0.10456903236661289, ,-7.767316565657775e-06,3.167308809381878e-05,1.3202094524130593e-05,-0.0006146511255719614,-0.0006973319842619058,0.001311342489388031, ,3.5182538507816995e-05, ,0.0009295525280701064, ,0.01780646237137509, ,0.0,0.0,0.0,0.0,0.0,0.0, ,0.0,0.0,0.0,0.0,0.0,0.0, ,1.9651868343353271
0.08951003274574877,0.08007162465701612,-0.13943718234053978, ,0.01627152091002813,0.020506161733045113,-0.09463177594659684, ,0.10449616467308423, ,-7.767316565657775e-06,3.167308809381878e-05,1.3202094524130593e-05,-0.0006146511255719614,-0.0006973319842619058,0.001311342489388031, ,3.5182538507816995e-05, ,0.0009295525280701064, ,0.01786840773102467, ,0.0,0.0,0.0,0.0,0.0,0.0, ,0.0,0.0,0.0,0.0,0.0,0.0, ,1.9684529304504395
0.08951003274574877,0.08007162465701612,-0.13943718234053978, ,0.016315698380403827,0.020507284172722136,-0.0947275320646632, ,0.10442353215777568, ,-7.767316565657775e-06,3.167308809381878e-05,1.3202094524130593e-05,-0.0006146511255719614,-0.0006973319842619058,0.001311342489388031, ,3.5182538507816995e-05, ,0.0009295525280701064, ,0.017930065465940042, ,0.0,0.0,0.0,0.0,0.0,0.0, ,0.0,0.0,0.0,0.0,0.0,0.0, ,1.9729108810424805
0.08951003274574877,0.08007162465701612,-0.13943718234053978, ,0.016359795227485062,0.020508401631460345,-0.0948230093968529, ,0.10435113422296712, ,-7.767316565657775e-06,3.167308809381878e-05,1.3202094524130593e-05,-0.0006146511255719614,-0.0006973319842619058,0.001311342489388031, ,3.5182538507816995e-05, ,0.0009295525280701064, ,0.017991437332688327, ,0.0,0.0,0.0,0.0,0.0,0.0, ,0.0,0.0,0.0,0.0,0.0,0.0, ,1.977409839630127
0.08951003274574877,0.08007162465701612,-0.13943718234053978, ,0.016403811510267378,0.020509514121586733,-0.09491820833872688, ,0.10427897027176646, ,-7.767316565657775e-06,3.167308809381878e-05,1.3202094524130593e-05,-0.0006146511255719614,-0.0006973319842619058,0.001311342489388031, ,3.5182538507816995e-05, ,0.0009295525280701064, ,0.0180525250747334, ,0.0,0.0,0.0,0.0,0.0,0.0, ,0.0,0.0,0.0,0.0,0.0,0.0, ,1.9828259944915771
0.08951003274574877,0.08007162465701612,-0.13943718234053978, ,0.016447747287779525,0.02051062165543626,-0.09501312928554945, ,0.10420703970811467, ,-7.767316565657775e-06,3.167308809381878e-05,1.3202094524130593e-05,-0.0006146511255719614,-0.0006973319842619058,0.001311342489388031, ,3.5182538507816995e-05, ,0.0009295525280701064, ,0.01811333042255362, ,0.0,0.0,0.0,0.0,0.0,0.0, ,0.0,0.0,0.0,0.0,0.0,0.0, ,1.9865188598632812
0.08951003274574877,0.08007162465701612,-0.13943718234053978, ,0.016491602619084396,0.0205117242453517,-0.0951077726322886, ,0.1041353419367889, ,-7.767316565657775e-06,3.167308809381878e-05,1.3202094524130593e-05,-0.0006146511255719614,-0.0006973319842619058,0.001311342489388031, ,3.5182538507816995e-05, ,0.0009295525280701064, ,0.01817385509375833, ,0.0,0.0,0.0,0.0,0.0,0.0, ,0.0,0.0,0.0,0.0,0.0,0.0, ,1.9898288249969482
0.08951003274574877,0.08007162465701612,-0.13943718234053978, ,0.016535377563278022,0.02051282190368385,-0.09520213877361629, ,0.10406387636340703, ,-7.767316565657775e-06,3.167308809381878e-05,1.3202094524130593e-05,-0.0006146511255719614,-0.0006973319842619058,0.001311342489388031, ,3.5182538507816995e-05, ,0.0009295525280701064, ,0.018234100793203072, ,0.0,0.0,0.0,0.0,0.0,0.0, ,0.0,0.0,0.0,0.0,0.0,0.0, ,1.9934849739074707
0.08951003274574877,0.08007162465701612,-0.13943718234053978, ,0.016579072179490294,0.020513914642791443,-0.0952962281039088, ,0.10399264239443086, ,-7.767316565657775e-06,3.167308809381878e-05,1.3202094524130593e-05,-0.0006146511255719614,-0.0006973319842619058,0.001311342489388031, ,3.5182538507816995e-05, ,0.0009295525280701064, ,0.018294069213103628, ,0.0,0.0,0.0,0.0,0.0,0.0, ,0.0,0.0,0.0,0.0,0.0,0.0, ,1.9970118999481201
0.08951003274574877,0.08007162465701612,-0.13943718234053978, ,0.016622686526884416,0.020515002475040935,-0.09539004101724571, ,0.10392163943717103, ,-7.767316565657775e-06,3.167308809381878e-05,1.3202094524130593e-05,-0.0006146511255719614,-0.0006973319842619058,0.001311342489388031, ,3.5182538507816995e-05, ,0.0009295525280701064, ,0.01835376203314881, ,0.0,0.0,0.0,0.0,0.0,0.0, ,0.0,0.0,0.0,0.0,0.0,0.0, ,2.000335931777954
0.08951003274574877,0.08007162465701612,-0.13943718234053978, ,0.016666220664657165,0.02051608541280673,-0.09548357790741173, ,0.10385086689978976, ,-7.767316565657775e-06,3.167308809381878e-05,1.3202094524130593e-05,-0.0006146511255719614,-0.0006973319842619058,0.001311342489388031, ,3.5182538507816995e-05, ,0.0009295525280701064, ,0.018413180920612077, ,0.0,0.0,0.0,0.0,0.0,0.0, ,0.0,0.0,0.0,0.0,0.0,0.0, ,2.0037178993225098
0.08951003274574877,0.08007162465701612,-0.13943718234053978, ,0.016709674652038552,0.02051716346847113,-0.09557683916789533, ,0.10378032419130559, ,-7.767316565657775e-06,3.167308809381878e-05,1.3202094524130593e-05,-0.0006146511255719614,-0.0006973319842619058,0.001311342489388031, ,3.5182538507816995e-05, ,0.0009295525280701064, ,0.018472327530461973, ,0.0,0.0,0.0,0.0,0.0,0.0, ,0.0,0.0,0.0,0.0,0.0,0.0, ,2.0070929527282715
0.08951003274574877,0.08007162465701612,-0.13943718234053978, ,0.016753048548292033,0.020518236654424142,-0.09566982519188941, ,0.10371001072159694, ,-7.767316565657775e-06,3.167308809381878e-05,1.3202094524130593e-05,-0.0006146511255719614,-0.0006973319842619058,0.001311342489388031, ,3.5182538507816995e-05, ,0.0009295525280701064, ,0.018531203505471383, ,0.0,0.0,0.0,0.0,0.0,0.0, ,0.0,0.0,0.0,0.0,0.0,0.0, ,2.010390043258667
0.08951003274574877,0.08007162465701612,-0.13943718234053978, ,0.01679634241271436,0.020519304983063747,-0.09576253637229136, ,0.10363992590140575, ,-7.767316565657775e-06,3.167308809381878e-05,1.3202094524130593e-05,-0.0006146511255719614,-0.0006973319842619058,0.001311342489388031, ,3.5182538507816995e-05, ,0.0009295525280701064, ,0.01858981047632566, ,0.0,0.0,0.0,0.0,0.0,0.0, ,0.0,0.0,0.0,0.0,0.0,0.0, ,2.013986825942993
0.08951003274574877,0.08007162465701612,-0.13943718234053978, ,0.016839556304635548,0.02052036846679556,-0.0958549731017034, ,0.10357006914234146, ,-7.767316565657775e-06,3.167308809381878e-05,1.3202094524130593e-05,-0.0006146511255719614,-0.0006973319842619058,0.001311342489388031, ,3.5182538507816995e-05, ,0.0009295525280701064, ,0.01864815006172961, ,0.0,0.0,0.0,0.0,0.0,0.0, ,0.0,0.0,0.0,0.0,0.0,0.0, ,2.0173778533935547
0.08951003274574877,0.08007162465701612,-0.13943718234053978, ,0.016882690283418617,0.020521427118033172,-0.09594713577243255, ,0.10350043985688472, ,-7.767316565657775e-06,3.167308809381878e-05,1.3202094524130593e-05,-0.0006146511255719614,-0.0006973319842619058,0.001311342489388031, ,3.5182538507816995e-05, ,0.0009295525280701064, ,0.018706223868513314, ,0.0,0.0,0.0,0.0,0.0,0.0, ,0.0,0.0,0.0,0.0,0.0,0.0, ,2.020838975906372
0.08951003274574877,0.08007162465701612,-0.13943718234053978, ,0.0169257444084598,0.020522480949197737,-0.09603902477649008, ,0.10343103745839154, ,-7.767316565657775e-06,3.167308809381878e-05,1.3202094524130593e-05,-0.0006146511255719614,-0.0006973319842619058,0.001311342489388031, ,3.5182538507816995e-05, ,0.0009295525280701064, ,0.01876403349173693, ,0.0,0.0,0.0,0.0,0.0,0.0, ,0.0,0.0,0.0,0.0,0.0,0.0, ,2.0286760330200195
0.08951003274574877,0.08007162465701612,-0.13943718234053978, ,0.01696871873918869,0.020523529972718328,-0.09613064050559235, ,0.10336186136109632, ,-7.767316565657775e-06,3.167308809381878e-05,1.3202094524130593e-05,-0.0006146511255719614,-0.0006973319842619058,0.001311342489388031, ,3.5182538507816995e-05, ,0.0009295525280701064, ,0.01882158051479429, ,0.0,0.0,0.0,0.0,0.0,0.0, ,0.0,0.0,0.0,0.0,0.0,0.0, ,2.0322020053863525
0.08951003274574877,0.08007162465701612,-0.13943718234053978, ,0.0170116133350674,0.020524574201031678,-0.09622198335116111, ,0.10329291098011621, ,-7.767316565657775e-06,3.167308809381878e-05,1.3202094524130593e-05,-0.0006146511255719614,-0.0006973319842619058,0.001311342489388031, ,3.5182538507816995e-05, ,0.0009295525280701064, ,0.018878866509515518, ,0.0,0.0,0.0,0.0,0.0,0.0, ,0.0,0.0,0.0,0.0,0.0,0.0, ,2.0360798835754395
0.08951003274574877,0.08007162465701612,-0.13943718234053978, ,0.01705442825559152,0.020525613646582234,-0.096313053704323, ,0.10322418573145434, ,-7.767316565657775e-06,3.167308809381878e-05,1.3202094524130593e-05,-0.0006146511255719614,-0.0006973319842619058,0.001311342489388031, ,3.5182538507816995e-05, ,0.0009295525280701064, ,0.0189358930362685, ,0.0,0.0,0.0,0.0,0.0,0.0, ,0.0,0.0,0.0,0.0,0.0,0.0, ,2.0393569469451904
0.08951003274574877,0.08007162465701612,-0.13943718234053978, ,0.0170971635602892,0.0205266483218223,-0.09640385195590967, ,0.10315568503200394, ,-7.767316565657775e-06,3.167308809381878e-05,1.3202094524130593e-05,-0.0006146511255719614,-0.0006973319842619058,0.001311342489388031, ,3.5182538507816995e-05, ,0.0009295525280701064, ,0.01899266164405934, ,0.0,0.0,0.0,0.0,0.0,0.0, ,0.0,0.0,0.0,0.0,0.0,0.0, ,2.042578935623169
0.08951003274574877,0.08007162465701612,-0.13943718234053978, ,0.017139819308721767,0.020527678239211603,-0.09649437849645837, ,0.10308740829955165, ,-7.767316565657775e-06,3.167308809381878e-05,1.3202094524130593e-05,-0.0006146511255719614,-0.0006973319842619058,0.001311342489388031, ,3.5182538507816995e-05, ,0.0009295525280701064, ,0.019049173870631767, ,0.0,0.0,0.0,0.0,0.0,0.0, ,0.0,0.0,0.0,0.0,0.0,0.0, ,2.0463900566101074
0.08951003274574877,0.08007162465701612,-0.13943718234053978, ,0.01718239556048313,0.020528703411217805,-0.09658463371621127, ,0.10301935495278157, ,-7.767316565657775e-06,3.167308809381878e-05,1.3202094524130593e-05,-0.0006146511255719614,-0.0006973319842619058,0.001311342489388031, ,3.5182538507816995e-05, ,0.0009295525280701064, ,0.01910543124256549, ,0.0,0.0,0.0,0.0,0.0,0.0, ,0.0,0.0,0.0,0.0,0.0,0.0, ,2.0496268272399902
0.08951003274574877,0.08007162465701612,-0.13943718234053978, ,0.01722489237520018,0.02052972385031607,-0.09667461800511681, ,0.1029515244112782, ,-7.767316565657775e-06,3.167308809381878e-05,1.3202094524130593e-05,-0.0006146511255719614,-0.0006973319842619058,0.001311342489388031, ,3.5182538507816995e-05, ,0.0009295525280701064, ,0.019161435275373576, ,0.0,0.0,0.0,0.0,0.0,0.0, ,0.0,0.0,0.0,0.0,0.0,0.0, ,2.052870988845825
0.08951003274574877,0.08007162465701612,-0.13943718234053978, ,0.017267309812532435,0.020530739568989285,-0.09676433175282846, ,0.10288391609553076, ,-7.767316565657775e-06,3.167308809381878e-05,1.3202094524130593e-05,-0.0006146511255719614,-0.0006973319842619058,0.001311342489388031, ,3.5182538507816995e-05, ,0.0009295525280701064, ,0.019233796970118743, ,0.0,0.0,0.0,0.0,0.0,0.0, ,0.0,0.0,0.0,0.0,0.0,0.0, ,2.0547289848327637
0.08951003274574877,0.08007162465701612,-0.13943718234053978, ,0.01730964793217207,0.020531750579727944,-0.0968537753487055, ,0.10281652942693645, ,-7.767316565657775e-06,3.167308809381878e-05,1.3202094524130593e-05,-0.0006146511255719614,-0.0006973319842619058,0.001311342489388031, ,3.5182538507816995e-05, ,0.0009295525280701064, ,0.019305975495556408, ,0.0,0.0,0.0,0.0,0.0,0.0, ,0.0,0.0,0.0,0.0,0.0,0.0, ,2.0563910007476807
0.08951003274574877,0.08007162465701612,-0.13943718234053978, ,0.01735190679384389,0.02053275689503026,-0.09694294918181325, ,0.10274936382780392, ,-7.767316565657775e-06,3.167308809381878e-05,1.3202094524130593e-05,-0.0006146511255719614,-0.0006973319842619058,0.001311342489388031, ,3.5182538507816995e-05, ,0.0009295525280701064, ,0.019377971516550584, ,0.0,0.0,0.0,0.0,0.0,0.0, ,0.0,0.0,0.0,0.0,0.0,0.0, ,2.058048963546753
0.08951003274574877,0.08007162465701612,-0.13943718234053978, ,0.017394086457305422,0.020533758527401767,-0.09703185364092237, ,0.10268241872135718, ,-7.767316565657775e-06,3.167308809381878e-05,1.3202094524130593e-05,-0.0006146511255719614,-0.0006973319842619058,0.001311342489388031, ,3.5182538507816995e-05, ,0.0009295525280701064, ,0.019449785695175418, ,0.0,0.0,0.0,0.0,0.0,0.0, ,0.0,0.0,0.0,0.0,0.0,0.0, ,2.059767961502075
0.08951003274574877,0.08007162465701612,-0.13943718234053978, ,0.01743618698234655,0.020534755489355922,-0.09712048911451018, ,0.10261569353173851, ,-7.767316565657775e-06,3.167308809381878e-05,1.3202094524130593e-05,-0.0006146511255719614,-0.0006973319842619058,0.001311342489388031, ,3.5182538507816995e-05, ,0.0009295525280701064, ,0.01952141869072801, ,0.0,0.0,0.0,0.0,0.0,0.0, ,0.0,0.0,0.0,0.0,0.0,0.0, ,2.061473846435547
0.08951003274574877,0.08007162465701612,-0.13943718234053978, ,0.017478208428789603,0.020535747793413543,-0.09720885599076003, ,0.1025491876840125, ,-7.767316565657775e-06,3.167308809381878e-05,1.3202094524130593e-05,-0.0006146511255719614,-0.0006973319842619058,0.001311342489388031, ,3.5182538507816995e-05, ,0.0009295525280701064, ,0.019592871159741166, ,0.0,0.0,0.0,0.0,0.0,0.0, ,0.0,0.0,0.0,0.0,0.0,0.0, ,2.0631539821624756
0.08951003274574877,0.08007162465701612,-0.13943718234053978, ,0.017520150856489596,0.020536735452103112,-0.09729695465756102, ,0.10248290060416929, ,-7.767316565657775e-06,3.167308809381878e-05,1.3202094524130593e-05,-0.0006146511255719614,-0.0006973319842619058,0.001311342489388031, ,3.5182538507816995e-05, ,0.0009295525280701064, ,0.01966414375599605, ,0.0,0.0,0.0,0.0,0.0,0.0, ,0.0,0.0,0.0,0.0,0.0,0.0, ,2.0647850036621094
0.08951003274574877,0.08007162465701612,-0.13943718234053978, ,0.01756201432533364,0.020537718477960515,-0.09738478550250891, ,0.10241683171912819, ,-7.767316565657775e-06,3.167308809381878e-05,1.3202094524130593e-05,-0.0006146511255719614,-0.0006973319842619058,0.001311342489388031, ,3.5182538507816995e-05, ,0.0009295525280701064, ,0.019735237130534822, ,0.0,0.0,0.0,0.0,0.0,0.0, ,0.0,0.0,0.0,0.0,0.0,0.0, ,2.0665879249572754
0.08951003274574877,0.08007162465701612,-0.13943718234053978, ,0.01760379889524128,0.02053869688352938,-0.09747234891290582, ,0.10235098045674072, ,-7.767316565657775e-06,3.167308809381878e-05,1.3202094524130593e-05,-0.0006146511255719614,-0.0006973319842619058,0.001311342489388031, ,3.5182538507816995e-05, ,0.0009295525280701064, ,0.019806151931673198, ,0.0,0.0,0.0,0.0,0.0,0.0, ,0.0,0.0,0.0,0.0,0.0,0.0, ,2.0682709217071533
0.08951003274574877,0.08007162465701612,-0.13943718234053978, ,0.017645504626164297,0.02053967068136063,-0.09755964527576035, ,0.10228534624579459, ,-7.767316565657775e-06,3.167308809381878e-05,1.3202094524130593e-05,-0.0006146511255719614,-0.0006973319842619058,0.001311342489388031, ,3.5182538507816995e-05, ,0.0009295525280701064, ,0.019876888805012923, ,0.0,0.0,0.0,0.0,0.0,0.0, ,0.0,0.0,0.0,0.0,0.0,0.0, ,2.0699949264526367
0.08951003274574877,0.08007162465701612,-0.13943718234053978, ,0.017687131578086823,0.020540639884012796,-0.09764667497778738, ,0.10221992851601665, ,-7.767316565657775e-06,3.167308809381878e-05,1.3202094524130593e-05,-0.0006146511255719614,-0.0006973319842619058,0.001311342489388031, ,3.5182538507816995e-05, ,0.0009295525280701064, ,0.11032546101972078, ,0.0,0.0,0.0,0.0,0.0,0.0, ,0.0,0.0,0.0,0.0,0.0,0.0, ,2.071790933609009
0.08951003274574877,0.08007162465701612,-0.13943718234053978, ,0.017728679811024942,0.02054160450405182,-0.09773343840540928, ,0.10215472669807626, ,-7.767316565657775e-06,3.167308809381878e-05,1.3202094524130593e-05,-0.0006146511255719614,-0.0006973319842619058,0.001311342489388031, ,3.5182538507816995e-05, ,0.0009295525280701064, ,0.11028691982009038, ,0.0,0.0,0.0,0.0,0.0,0.0, ,0.0,0.0,0.0,0.0,0.0,0.0, ,2.073529005050659
0.08951003274574877,0.08007162465701612,-0.13943718234053978, ,0.01777014938502697,0.020542564554051308,-0.09781993594475458, ,0.1020897402235889, ,-7.767316565657775e-06,3.167308809381878e-05,1.3202094524130593e-05,-0.0006146511255719614,-0.0006973319842619058,0.001311342489388031, ,3.5182538507816995e-05, ,0.0009295525280701064, ,0.1102484354088392, ,0.0,0.0,0.0,0.0,0.0,0.0, ,0.0,0.0,0.0,0.0,0.0,0.0, ,2.075291872024536
0.08951003274574877,0.08007162465701612,-0.13943718234053978, ,0.01781154036017337,0.020543520046592028,-0.09790616798165881, ,0.1020249685251193, ,-7.767316565657775e-06,3.167308809381878e-05,1.3202094524130593e-05,-0.0006146511255719614,-0.0006973319842619058,0.001311342489388031, ,3.5182538507816995e-05, ,0.0009295525280701064, ,0.11021000799349472, ,0.0,0.0,0.0,0.0,0.0,0.0, ,0.0,0.0,0.0,0.0,0.0,0.0, ,2.077100992202759
0.08951003274574877,0.08007162465701612,-0.13943718234053978, ,0.01785285279657643,0.02054447099426243,-0.09799213490166461, ,0.10196041103618488, ,-7.767316565657775e-06,3.167308809381878e-05,1.3202094524130593e-05,-0.0006146511255719614,-0.0006973319842619058,0.001311342489388031, ,3.5182538507816995e-05, ,0.0009295525280701064, ,0.11017163777508862, ,0.0,0.0,0.0,0.0,0.0,0.0, ,0.0,0.0,0.0,0.0,0.0,0.0, ,2.078932046890259
0.08951003274574877,0.08007162465701612,-0.13943718234053978, ,0.017894086754380693,0.02054541740965819,-0.09807783709002195, ,0.10189606719125861, ,-7.767316565657775e-06,3.167308809381878e-05,1.3202094524130593e-05,-0.0006146511255719614,-0.0006973319842619058,0.001311342489388031, ,3.5182538507816995e-05, ,0.0009295525280701064, ,0.11013332494831163, ,0.0,0.0,0.0,0.0,0.0,0.0, ,0.0,0.0,0.0,0.0,0.0,0.0, ,2.0811429023742676
0.08951003274574877,0.08007162465701612,-0.13943718234053978, ,0.017935242293762147,0.020546359305382626,-0.09816327493168729, ,0.10183193642577315, ,-7.767316565657775e-06,3.167308809381878e-05,1.3202094524130593e-05,-0.0006146511255719614,-0.0006973319842619058,0.001311342489388031, ,3.5182538507816995e-05, ,0.0009295525280701064, ,0.11009506970166398, ,0.0,0.0,0.0,0.0,0.0,0.0, ,0.0,0.0,0.0,0.0,0.0,0.0, ,2.0831408500671387
0.08951003274574877,0.08007162465701612,-0.13943718234053978, ,0.01797631947492923,0.020547296694046122,-0.09824844881132547, ,0.10176801817612278, ,-7.767316565657775e-06,3.167308809381878e-05,1.3202094524130593e-05,-0.0006146511255719614,-0.0006973319842619058,0.001311342489388031, ,3.5182538507816995e-05, ,0.0009295525280701064, ,0.11005687221760187, ,0.0,0.0,0.0,0.0,0.0,0.0, ,0.0,0.0,0.0,0.0,0.0,0.0, ,2.084882974624634
0.08951003274574877,0.08007162465701612,-0.13943718234053978, ,0.01801731835812173,0.020548229588266742,-0.09833335911330753, ,0.10170431187966807, ,-7.767316565657775e-06,3.167308809381878e-05,1.3202094524130593e-05,-0.0006146511255719614,-0.0006973319842619058,0.001311342489388031, ,3.5182538507816995e-05, ,0.0009295525280701064, ,0.1100187326726798, ,0.0,0.0,0.0,0.0,0.0,0.0, ,0.0,0.0,0.0,0.0,0.0,0.0, ,2.0869688987731934
0.08951003274574877,0.08007162465701612,-0.13943718234053978, ,0.018058239003611427,0.02054915800066972,-0.0984180062217129, ,0.10164081697473777, ,-7.767316565657775e-06,3.167308809381878e-05,1.3202094524130593e-05,-0.0006146511255719614,-0.0006973319842619058,0.001311342489388031, ,3.5182538507816995e-05, ,0.0009295525280701064, ,0.10998065123768914, ,0.0,0.0,0.0,0.0,0.0,0.0, ,0.0,0.0,0.0,0.0,0.0,0.0, ,2.088731050491333
0.08951003274574877,0.08007162465701612,-0.13943718234053978, ,0.01809908147170162,0.020550081943887768,-0.09850239052032836, ,0.10157753290063283, ,-7.767316565657775e-06,3.167308809381878e-05,1.3202094524130593e-05,-0.0006146511255719614,-0.0006973319842619058,0.001311342489388031, ,3.5182538507816995e-05, ,0.0009295525280701064, ,0.10994262807779297, ,0.0,0.0,0.0,0.0,0.0,0.0, ,0.0,0.0,0.0,0.0,0.0,0.0, ,2.090487003326416
0.08951003274574877,0.08007162465701612,-0.13943718234053978, ,0.018139845822727506,0.020551001430560843,-0.09858651239264836, ,0.10151445909762906, ,-7.767316565657775e-06,3.167308809381878e-05,1.3202094524130593e-05,-0.0006146511255719614,-0.0006973319842619058,0.001311342489388031, ,3.5182538507816995e-05, ,0.0009295525280701064, ,0.1099046633526571, ,0.0,0.0,0.0,0.0,0.0,0.0, ,0.0,0.0,0.0,0.0,0.0,0.0, ,2.092223882675171
0.08951003274574877,0.08007162465701612,-0.13943718234053978, ,0.018180532117055805,0.020551916473336148,-0.09867037222187479, ,0.10145159500698063, ,-7.767316565657775e-06,3.167308809381878e-05,1.3202094524130593e-05,-0.0006146511255719614,-0.0006973319842619058,0.001311342489388031, ,3.5182538507816995e-05, ,0.0009295525280701064, ,0.10986675721657783, ,0.0,0.0,0.0,0.0,0.0,0.0, ,0.0,0.0,0.0,0.0,0.0,0.0, ,2.0939109325408936
0.08951003274574877,0.08007162465701612,-0.13943718234053978, ,0.018221140415084516,0.020552827084868493,-0.09875397039091821, ,0.10138894007092271, ,-7.767316565657775e-06,3.167308809381878e-05,1.3202094524130593e-05,-0.0006146511255719614,-0.0006973319842619058,0.001311342489388031, ,3.5182538507816995e-05, ,0.0009295525280701064, ,0.10982890981860616, ,0.0,0.0,0.0,0.0,0.0,0.0, ,0.0,0.0,0.0,0.0,0.0,0.0, ,2.095489025115967
0.08951003274574877,0.08007162465701612,-0.13943718234053978, ,0.01826167077724362,0.02055373327781959,-0.0988373072823966, ,0.1013264937326749, ,-7.767316565657775e-06,3.167308809381878e-05,1.3202094524130593e-05,-0.0006146511255719614,-0.0006973319842619058,0.001311342489388031, ,3.5182538507816995e-05, ,0.0009295525280701064, ,0.10979112130266869, ,0.0,0.0,0.0,0.0,0.0,0.0, ,0.0,0.0,0.0,0.0,0.0,0.0, ,2.0971200466156006
0.08951003274574877,0.08007162465701612,-0.13943718234053978, ,0.018302123263994205,0.020554635064858703,-0.09892038327863616, ,0.10126425543644411, ,-7.767316565657775e-06,3.167308809381878e-05,1.3202094524130593e-05,-0.0006146511255719614,-0.0006973319842619058,0.001311342489388031, ,3.5182538507816995e-05, ,0.0009295525280701064, ,0.10975339180768538, ,0.0,0.0,0.0,0.0,0.0,0.0, ,0.0,0.0,0.0,0.0,0.0,0.0, ,2.0987398624420166
0.08951003274574877,0.08007162465701612,-0.13943718234053978, ,0.018342497935828917,0.020555532458662148,-0.09900319876167127, ,0.1012022246274277, ,-7.767316565657775e-06,3.167308809381878e-05,1.3202094524130593e-05,-0.0006146511255719614,-0.0006973319842619058,0.001311342489388031, ,3.5182538507816995e-05, ,0.0009295525280701064, ,0.10971572146768425, ,0.0,0.0,0.0,0.0,0.0,0.0, ,0.0,0.0,0.0,0.0,0.0,0.0, ,2.100393056869507
0.08951003274574877,0.08007162465701612,-0.13943718234053978, ,0.01838279485327161,0.020556425471913675,-0.09908575411324477, ,0.10114040075181627, ,-7.767316565657775e-06,3.167308809381878e-05,1.3202094524130593e-05,-0.0006146511255719614,-0.0006973319842619058,0.001311342489388031, ,3.5182538507816995e-05, ,0.0009295525280701064, ,0.1096781104119129, ,0.0,0.0,0.0,0.0,0.0,0.0, ,0.0,0.0,0.0,0.0,0.0,0.0, ,2.1020328998565674
0.08951003274574877,0.08007162465701612,-0.13943718234053978, ,0.018423014076877568,0.020557314117304173,-0.0991680497148079, ,0.10107878325679676, ,-7.767316565657775e-06,3.167308809381878e-05,1.3202094524130593e-05,-0.0006146511255719614,-0.0006973319842619058,0.001311342489388031, ,3.5182538507816995e-05, ,0.0009295525280701064, ,0.10964055876494733, ,0.0,0.0,0.0,0.0,0.0,0.0, ,0.0,0.0,0.0,0.0,0.0,0.0, ,2.103692054748535
0.08951003274574877,0.08007162465701612,-0.13943718234053978, ,0.018463155667233375,0.0205581984075316,-0.09925008594751977, ,0.10101737159055561, ,-7.767316565657775e-06,3.167308809381878e-05,1.3202094524130593e-05,-0.0006146511255719614,-0.0006973319842619058,0.001311342489388031, ,3.5182538507816995e-05, ,0.0009295525280701064, ,0.1096030666467978, ,0.0,0.0,0.0,0.0,0.0,0.0, ,0.0,0.0,0.0,0.0,0.0,0.0, ,2.1053738594055176
0.08951003274574877,0.08007162465701612,-0.13943718234053978, ,0.018503219684956544,0.020559078355301484,-0.09933186319224917, ,0.10095616520228107, ,-7.767316565657775e-06,3.167308809381878e-05,1.3202094524130593e-05,-0.0006146511255719614,-0.0006973319842619058,0.001311342489388031, ,3.5182538507816995e-05, ,0.0009295525280701064, ,0.109565634173012, ,0.0,0.0,0.0,0.0,0.0,0.0, ,0.0,0.0,0.0,0.0,0.0,0.0, ,2.1070070266723633
0.08951003274574877,0.08007162465701612,-0.13943718234053978, ,0.018543206190696025,0.02055995397332616,-0.09941338182957254, ,0.10089516354216689, ,-7.767316565657775e-06,3.167308809381878e-05,1.3202094524130593e-05,-0.0006146511255719614,-0.0006973319842619058,0.001311342489388031, ,3.5182538507816995e-05, ,0.0009295525280701064, ,0.1095282614547756, ,0.0,0.0,0.0,0.0,0.0,0.0, ,0.0,0.0,0.0,0.0,0.0,0.0, ,2.108638048171997
