NicholasDascanio/dvrk_moveit_final/test/execution/third_experiment_notsharpbends/thirdexp_700vel3.0/thirdexp_700vel3.0_30.csv
Current Position (x),Current Position (y),Current Position (z), ,Planned Position (x),Planned Position (y),Planned Position (z), ,Position Error,,Cartesian linear Velocity(x),Cartesian linear Velocity(y),Cartesian linear Velocity(z),Cartesian Angular Velocity(x),Cartesian Angular Velocity(y),Cartesian Angular Velocity(z), ,Total Linear Velocity, ,Total Angular Velocity, ,MSE, ,Joint 1 Position,Joint 2 Position,Joint 3 Position,Joint 4 Position,Joint 5 Position,Joint 6 Position, ,Joint 1 Velocity,Joint 2 Velocity,Joint 3 Velocity,Joint 4 Velocity,Joint 5 Velocity,Joint 6 Velocity, ,Time Stamp
0.010229292761314013,0.019743555628314664,-0.08014558537356144, ,0.010274704276490068,0.01968984089910367,-0.08014385114782552, ,7.035968578453544e-05, ,2.2058100177363154e-05,-3.807049300185372e-05,2.790320725550246e-06,-0.0005393645844076485,-0.0004590239392963709,0.0006894161589335953, ,4.408750515270984e-05, ,0.0007082493429297297, ,5.863307148711286e-06, ,0.12729380596584258,-0.21174961267836184,0.08994178536000001,3.1294127165630417,0.2579697115571516,0.14233179774810412, ,0.0002972948002969599,0.0004474762673087753,-9.016525621075081e-06,-0.0007694999023449473,0.0,0.0, ,0.016854047775268555
0.01022984204698052,0.019743888287825084,-0.08014976167476942, ,0.010283413268396803,0.01971342001842783,-0.08017325877602646, ,6.595684173442308e-05, ,6.172985880163963e-05,0.00017256532240320148,-0.0003092622303461576,-0.00251507776608653,0.04656816465656541,0.024479893121466145, ,0.00035948921135754697, ,0.046636033017940615, ,6.196205796316296e-06, ,0.12729380596584258,-0.21175733541123606,0.08994567423000001,3.1294127165630417,0.2578330750573861,0.14375007549404956, ,0.00029360041186092116,-0.001234125181288611,0.00034669472267503736,-0.0007562326253127359,0.0,0.052732507347541535, ,0.033564090728759766
0.010229897616802791,0.019745893419790862,-0.08015031119217854, ,0.010292184571500704,0.019736842909629796,-0.08020274099036755, ,8.191739862724801e-05, ,9.087819665702696e-05,0.00019718593722248279,-0.0005469320612361828,-0.008171205040560027,0.115473952936092,0.059016657690875995, ,0.0005884520541845374, ,0.11576269864901048, ,6.819810192068954e-06, ,0.12729380596584258,-0.21176505814411029,0.08994697052,3.1294127165630417,0.2579697115571516,0.14461880247203984, ,0.00027786064388360637,-0.0009182613711753277,0.0005852373453359213,-0.0007511104684507294,0.0,0.1299992323279291, ,0.055963993072509766
0.010231081838622296,0.019763928609148784,-0.08015591665379596, ,0.010301018029275587,0.01976011004906949,-0.08023229753827785, ,0.00010363248370278857, ,0.00010992997278404721,-0.0008044092536750598,-0.0006674309882894672,-0.12877990619264584,0.10915963842323949,0.04091563709531392, ,0.0010510104521095035, ,0.1688196993827406, ,7.663485948785598e-06, ,0.12730152869871683,-0.2118036718084814,0.08995993342000001,3.1294127165630417,0.2594727130545714,0.1397176622250539, ,0.00015897005319988244,-0.0018343159854383717,0.00020905880408258516,-0.0007330361782634957,-0.12292065987932414,0.12451898856357935, ,0.07264494895935059
0.01023258683817469,0.01975796560345497,-0.0801619519821025, ,0.010309913485429756,0.019783221912443145,-0.08026192816749741, ,0.00012888960068808112, ,4.749875719930576e-05,-5.752166819187654e-05,-0.000232328377787481,-0.045850342082409665,0.15916588548605107,0.07673234518874981, ,0.00024401096158250236, ,0.16563825938361196, ,8.668384818020696e-06, ,0.12730925143159105,-0.21181911727422986,0.08996252600000001,3.1294127165630417,0.2585162575562133,0.14164108991289676, ,0.00019092004645630047,-0.00255339356128762,0.0001408674014427088,-0.0007263734042812598,-0.03617983155303928,0.1794368116095426, ,0.08988499641418457
0.010235902787794486,0.01976384721378087,-0.08018294017684242, ,0.010318870783905863,0.019806178974784268,-0.0802916326260777, ,0.00014314228896154555, ,0.00031236503525116304,0.000871538310116472,-0.0023346997110978507,0.06283003351079568,-0.41520981721203903,-0.20398550649674266, ,0.0025115679728505307, ,0.4199366683443507, ,9.579004830622933e-06, ,0.12731697416446527,-0.2118345627399783,0.08998456293000001,3.1294127165630417,0.2585162575562133,0.13984415762980437, ,0.00022582688900481019,-0.0011382391919464467,0.0025580233691986512,-0.0007212424329184452,0.029799206196077857,-0.4658015188229253, ,0.11175203323364258
0.010246078666363076,0.019715880417064742,-0.0802317176146239, ,0.010327889768880506,0.019828981710463576,-0.08032141066238055, ,0.00016592107123413458, ,0.0002329516654742648,0.003537595277410329,-0.0006182440910935682,0.32495871753562844,0.21746402433963277,0.15189905749231003, ,0.0035987598671452375, ,0.39100993591517424, ,1.0553046815732726e-05, ,0.12735558782883638,-0.21191179006872055,0.09000659986000001,3.1294127165630417,0.251274523068645,0.14901645613133718, ,0.002357611992018073,-0.0038580633765989423,0.002151896228615972,-0.0007003024814819029,0.34063487707805484,0.24136130853626372, ,0.12886691093444824
0.010246823623262548,0.01982113219569374,-0.08024172735162119, ,0.010336970284764239,0.01985163059318987,-0.08035126202507906, ,0.00014510140426354966, ,0.000440501938284645,0.0019271339473753977,-0.002651838331060205,0.16725844080690846,-0.47297735509028765,-0.22221378598748773, ,0.0033075872993527148, ,0.5016801415735239, ,1.1035619207272024e-05, ,0.1273633105617106,-0.21198129466458857,0.09006363662000001,3.1294127165630417,0.2620688065501148,0.1411129078808661, ,0.0014284157323504454,-0.002198377649256016,0.0033414750409062307,-0.0006893408593582705,0.1292349359228902,-0.5316013441979449, ,0.1460859775543213
0.0102567011175175,0.01978130747446432,-0.08029375674775402, ,0.010346112176201568,0.019874126096009807,-0.08038118646315634, ,0.00015573563836174787, ,0.0004028440638485935,0.00011251194030987785,-0.0025634327443439346,-0.0795486403531375,0.22920267739880243,0.10791886128708283, ,0.0025973312671403737, ,0.2426146193218818, ,1.1528874058239715e-05, ,0.12739420149320752,-0.2120585219933308,0.09009215500000001,3.1294127165630417,0.2556468910611391,0.14153050368630474, ,0.0008476685429573673,-0.0014927652227666524,0.002416385242718447,-0.0006752756527764809,-0.06364082941393596,0.2587576303745637, ,0.17473292350769043
0.010259885406690265,0.019804469985141043,-0.08030535233349886, ,0.010355315288070389,0.01989646869130888,-0.08041118372590637, ,0.00016961989215800335, ,0.0004547276590655917,0.0025368956596733836,-0.001879926617174576,0.21391820846457815,-0.29689604444193607,-0.12291952356167106, ,0.003190100455777274, ,0.36593477713649913, ,1.2061532407020167e-05, ,0.12741736969183018,-0.21211258112345038,0.09011289564000001,3.1294127165630417,0.2574231655580898,0.1406538221192352, ,0.002887942949198915,-0.005099303011566473,0.002859750721723519,-0.0006698702907224051,0.18756727561742856,-0.3320596729019453, ,0.19162607192993164
0.010263068363879529,0.0198147378118019,-0.08032527559856754, ,0.010364579465482268,0.019918658850811427,-0.08044125356293286, ,0.0001858896831880221, ,0.0003094683982649583,-0.0003158318082904922,-0.001661023324869842,-0.11248129946372694,0.041430570248132945,0.008447605948174492, ,0.0017188714048509812, ,0.11986882363701352, ,1.264433918485785e-05, ,0.1274250924247044,-0.2121820857193184,0.09013493257,3.1294127165630417,0.2574231655580898,0.13722331503333157, ,0.0010519445431687983,-0.00406910978889169,0.0013278465956396731,-0.0006618577015895889,-0.11399237346045339,0.04932184476118617, ,0.21200990676879883
0.010269447896037003,0.01983156236329035,-0.0803588464454053, ,0.01037390455378203,0.01994069704558119,-0.08047139572415034, ,0.00018838501100675153, ,0.00025376582526363004,0.0006065527702721415,-0.0013205289771414355,-0.018002390348727054,0.01429749404778119,0.004908326886279502, ,0.0014751610544841355, ,0.022989223438608448, ,1.315205737467894e-05, ,0.1274559833562013,-0.21233654037680288,0.09017122869000001,3.1292030266195567,0.2570132560587935,0.13878274984652925, ,0.0009859820363872652,-0.006167495701765985,0.001400347715640796,0.0006237182788926834,-0.023194348038507066,0.017305572454584445, ,0.22876596450805664
0.010272968628287032,0.01984013146730987,-0.08037376533169373, ,0.010383290398547684,0.019962583746021702,-0.08050160995978274, ,0.0002085897947800486, ,0.0002428847648876236,0.0007934755853802856,-0.0016215575318774757,-0.010947987560487035,0.03859761750725072,0.01710411328179148, ,0.0018215502581037048, ,0.040120250608008355, ,1.373591510977939e-05, ,0.12746370608907553,-0.21239832223979668,0.09018808046000001,3.129622406506526,0.2570132560587935,0.13919114354723208, ,0.0003713716306053022,-0.006730721488167725,0.0017507746522995192,0.0013469732326135654,-0.014912170148272943,0.043575874962130064, ,0.24628591537475586
0.010281959229236762,0.01986343334555845,-0.08040452045752776, ,0.010392736845590307,0.019984319421876437,-0.08053189602036402, ,0.0002076286534666791, ,0.000299758095045814,0.0009083868539437935,-0.0011578768721312819,0.0010093894112110746,-0.003434575535867533,-0.0021337028265642, ,0.0015018989456617642, ,0.0035798290591819606, ,1.4230770760264497e-05, ,0.12752548795206933,-0.2125913905616523,0.09022437658000002,3.129622406506526,0.2570132560587935,0.13919114354723205, ,0.0018031960359656599,-0.00846004579297126,0.001353133117459407,0.0013307660566871235,-0.007754429327175819,-0.0020427035390760432, ,0.26578497886657715
0.01028917524378895,0.019885639545985594,-0.0804360636428515, ,0.010402243740953722,0.020005904542229648,-0.08056225365673825, ,0.00020777890647854735, ,0.0004526527787137811,0.0012739117110831348,-0.001809973600160575,0.010176460397489059,-0.0006564715199132182,0.0008988371563150321, ,0.0022591480737194497, ,0.01019761251757956, ,1.4661502331816486e-05, ,0.12756410161644044,-0.21278445888350792,0.0902606727,3.129622406506526,0.256876619559028,0.13922088271078792, ,0.0026597092459665615,-0.010230541421898887,0.0021036750468596747,0.0013091063509106755,0.0,0.0019365951769054496, ,0.2824900150299072
0.010293847944353458,0.01989898449051279,-0.08045772243870424, ,0.01041181093091462,0.020027339575506432,-0.08059268262005831, ,0.00022046438395640722, ,0.0005113382005325135,0.0013790273657628455,-0.0022363809106033393,0.01027534690062529,-0.0002614618435690098,0.0011504181331023784, ,0.0026766738329795925, ,0.010278672879700542, ,1.5117362582669832e-05, ,0.12758726981506313,-0.21288485441087285,0.09028530221000002,3.129622406506526,0.256876619559028,0.13922088271078792, ,0.0027074641322112998,-0.010366405527613965,0.0025469797761432686,0.0012982739576351927,0.0,0.0024357074911425837, ,0.30135393142700195
0.0103006660319883,0.01992521843887409,-0.08049609335597797, ,0.010421438261982115,0.02004862498947303,-0.08062318266178732, ,0.00021439869383815965, ,0.0001635705914964661,0.0012114901255142559,-0.001251591889399854,0.010891726743231462,0.0022968433855041705,0.001176765338716543, ,0.0017495559208646483, ,0.01113127131030802, ,1.557550545164136e-05, ,0.1276104380136858,-0.2130933681984769,0.09032937607000001,3.129622406506526,0.256876619559028,0.13922088271078792, ,0.0,-0.010979242584154978,0.001515277633435683,0.0012773293097337029,0.0,0.0022733275553375575, ,0.3164060115814209
0.010304277893906146,0.019936175346919084,-0.0805093537516666, ,0.01043112558089784,0.020069761251237564,-0.08065375353369722, ,0.00023406585948877837, ,0.00030684308277221205,0.001254563809105706,-0.0014130911304541466,0.010949301949189501,0.0006537588529841107,0.0011207298272670344, ,0.00191439535402987, ,0.010968801840071034, ,1.609709606510806e-05, ,0.12763360621230846,-0.21320148645871603,0.09034493155000001,3.129622406506526,0.2567399830592626,0.13933230061448432, ,0.0014974867751757458,-0.011027347194130696,0.0016989313447768528,0.0012672807035435025,0.0,0.002112215373914347, ,0.33141398429870605
0.010312818399463998,0.019959806980775114,-0.08054141796786826, ,0.010440872734635653,0.020090748827250128,-0.0806843949878692, ,0.00023234910837549642, ,0.00046856378122621666,0.0014086933120138504,-0.0019946520205869575,0.011242751947917762,-0.0006481699464857422,0.0010556507759223864, ,0.0024864845761880753, ,0.011261420674602363, ,1.6559928042830408e-05, ,0.12768766534242804,-0.21339455478057165,0.09038252396,3.129622406506526,0.2567399830592626,0.13933230061448432, ,0.002559796320837098,-0.011307040388451508,0.0023162442227715576,0.0012498941472234213,0.0,0.0018474845794685798, ,0.3529798984527588
0.010320868322445073,0.01998281544566405,-0.08057937093337539, ,0.010450679570401475,0.020111588183303365,-0.08071510677669351, ,0.00022772263220067655, ,0.0003660982785831259,0.0012880560928982983,-0.0018775957730897898,0.010063741999445933,0.0003017764454438303,0.0008626771061552674, ,0.0023061834998886373, ,0.010068265592002508, ,1.6957318344927392e-05, ,0.12772627900679917,-0.21357990036955304,0.09042530153000002,3.129622406506526,0.2566033465594972,0.13944371851818077, ,0.001490483582554754,-0.010225636126351257,0.002161890814332248,0.001232761681710273,-0.00011409311553210151,0.0017189411524656624, ,0.36813807487487793
0.010333901963585718,0.020019258789266567,-0.0806324766498385, ,0.010460545935633222,0.020132279784532664,-0.08074588865286907, ,0.0002041438793065175, ,0.000373780138686639,0.0012065464982631581,-0.0015999098137971074,0.002901171957075758,0.004376837528810344,0.0036433561757316154, ,0.0020384252394512747, ,0.005251048035168086, ,1.7206245949768795e-05, ,0.1277957836026672,-0.21389653241739626,0.09048622716000002,3.1298320964500106,0.2563300735599663,0.1396665543255736, ,0.002041716376224298,-0.010708957824548813,0.0018612128613643441,3.949446125527438e-05,-0.007284721873427211,0.007285041927507991, ,0.39046788215637207
0.010335091670794477,0.020022870789615423,-0.08063680906459991, ,0.010470471678000567,0.020152824095416737,-0.08077674036940408, ,0.00023408626210012139, ,0.00040610060725636564,0.001149329511669805,-0.001495769743194743,0.0024882887636837104,0.0037991140428727936,0.0035801224276328916, ,0.001929560352584497, ,0.004541458848733587, ,1.7573051730103063e-05, ,0.127857565465661,-0.21408187800637762,0.09051604183,3.1298320964500106,0.2563300735599663,0.1396665543255736, ,0.0017063775889075538,-0.009281019655497866,0.0012276352912275476,3.949446125527438e-05,-0.007284721873427211,0.007145582474121104, ,0.4090719223022461
0.010346846135866679,0.020050746182743887,-0.08066903404506834, ,0.010480456645404835,0.020173221579777925,-0.08080766167961469, ,0.000228187668811456, ,0.0004178828257429402,0.0010080731351804757,-0.0012070911293470216,0.002190422199483189,0.0025754552460281696,0.0032182595406863427, ,0.0016272389180669708, ,0.003380964231357687, ,1.7884297077838746e-05, ,0.1278961791300321,-0.21418227353374256,0.09053030102000001,3.1298320964500106,0.2561934370602008,0.13977797222927005, ,0.003193487180137909,-0.009286739923813079,0.0014422669598613672,3.949446125527438e-05,-0.0066296773294015204,0.006548321543085426, ,0.4242689609527588
0.010353794230376523,0.02007125330366445,-0.08069832102287877, ,0.010490500685978859,0.02019347270078263,-0.08083865233712595, ,0.00023090931941700682, ,0.0005239042307495584,0.001091570842856433,-0.0017974433072874083,0.0004636119162112535,0.0030187174538187666,0.0034142631117286505, ,0.002167211339690683, ,0.0030541105179873996, ,1.8183231461242417e-05, ,0.12793479279440323,-0.2143598963898497,0.09056400456000001,3.1298320964500106,0.2560568005604354,0.13988939013296645, ,0.0035567898942961695,-0.008864502188553829,0.002041631827736478,3.949446125527438e-05,-0.007884619714117712,0.007469542729043879, ,0.4457120895385742
0.010363122540965417,0.020093703466918397,-0.08073623619405573, ,0.010500603648086781,0.02021357792094155,-0.08086971209587078, ,0.0002260237950039878, ,0.0004238495139114353,0.0010915277307912412,-0.0017995750408956973,0.003162721082270079,0.0017479943848113075,0.002474486003144761, ,0.002146986615082634, ,0.003613625464086462, ,1.8439917518249847e-05, ,0.1279888519245228,-0.21453751924595688,0.09060678213000001,3.1298320964500106,0.2559201640606699,0.14008248677680343, ,0.002334947826633204,-0.008587795958511247,0.002037192930042205,3.949446125527438e-05,-0.00508268891281144,0.004636999920021968, ,0.4610130786895752
0.010367164456377524,0.02010211770573388,-0.08075275453069639, ,0.010510765380323922,0.0202335377021102,-0.08090084071009086, ,0.00024458527619925115, ,0.00039004394514418565,0.0010355958055410634,-0.001853463529064398,0.00061523355211119,0.003179216868075361,0.0026302755976693624, ,0.0021586847859680065, ,0.003238198912362343, ,1.875192552830938e-05, ,0.12801202012314547,-0.2146070238418249,0.09062493019000001,3.1298320964500106,0.25578352756090456,0.14027558342064042, ,0.001835177587148381,-0.008008624147121847,0.0020676027414330217,3.949446125527438e-05,-0.006998183979270305,0.005706549787141091, ,0.4759230613708496
0.01037676824139637,0.020124167412978976,-0.08078909298197469, ,0.010520985731516691,0.020253352505489385,-0.08093203793433547, ,0.00024066726405756468, ,0.0006700853019535955,0.0011659754676643323,-0.0022467181804115104,0.0015258857507862355,0.0013281232728691685,-0.001084193593486199, ,0.0026184452801769425, ,0.0020229282476507834, ,1.902740420379896e-05, ,0.12806607925326505,-0.21476920123218363,0.09066641147000001,3.130041786393495,0.25578352756090456,0.14027558342064042, ,0.004516564508165583,-0.008436402846953987,0.0025124308391167196,0.003930426383841833,-0.006998183979270305,0.005706549787141091, ,0.49224090576171875
0.010383582009995677,0.020140234433215082,-0.0808221878755651, ,0.010531264550722244,0.020273022791625437,-0.08096330352346198, ,0.00024363190892436303, ,0.0003823308778070039,0.001038528270114875,-0.0019866599233013945,0.00026514211057515944,0.004824321077898489,-0.0010407897053374565, ,0.002274101035311398, ,0.004831601615459304, ,1.929549780042923e-05, ,0.12809697018476193,-0.21488504222529697,0.09070270759000001,3.130041786393495,0.2556468910611391,0.14038700132433687, ,0.0014185096905406406,-0.007752293774810864,0.002194655761917884,0.003930426383841833,-0.007553953062233551,0.006159742208414675, ,0.5079069137573242
0.010392154438687297,0.020161822869282826,-0.08085906253361377, ,0.010541601687228556,0.020292549020410586,-0.08099463723263535, ,0.00024042526011220622, ,0.0003821949811990162,0.001050550120333618,-0.0017009258465487537,0.0033981823920272267,0.0025749139139589787,-0.0013456276464041369, ,0.0020354059286649163, ,0.004263546085073569, ,1.953480167106845e-05, ,0.1281433065820073,-0.21505494234852993,0.09074418887,3.130041786393495,0.25551025456137366,0.14049841922803327, ,0.0018717730474782158,-0.008347404464677206,0.0019274400507373972,0.0037287150906995937,-0.00510289026128536,0.0041610648449083255, ,0.522650957107544
0.01039864237069958,0.020173880979090036,-0.08087973848122769, ,0.010551996990554105,0.020311931651083536,-0.08102603881732812, ,0.00025294152646744404, ,0.0005706062020642038,0.001173970406954445,-0.001881888751768797,0.00020390784946933686,0.003641318697306857,-3.179942372914563e-05, ,0.0022902626985288914, ,0.003647023477142501, ,1.980260830797063e-05, ,0.12818964297925264,-0.21515533787589483,0.09076752209000001,3.130041786393495,0.2553736180616082,0.1406098371317297, ,0.0038763097494532166,-0.009715100347912071,0.0021458724936009705,0.003604045791440767,-0.009431607132014432,0.00769084320032514, ,0.5384829044342041
0.01040899177358855,0.020198966589343198,-0.0809206002025889, ,0.010562450310447858,0.02033117114222955,-0.0810575080333205, ,0.00024448173848881237, ,0.0004205808023499898,0.0010551378181204126,-0.002072506788000071,-0.0014629510809181187,0.0056250950980185135,-0.00019891503228508176, ,0.002363363791894857, ,0.00581222166547997, ,2.0025700104997825e-05, ,0.1282128111778753,-0.21524801067038554,0.09079085531000002,3.130041786393495,0.2553736180616082,0.1406098371317297, ,0.0017549824921426964,-0.007879070681656039,0.002282718761822872,0.0034960892468076338,-0.009271571447194041,0.007560344830197694, ,0.5541150569915771
0.010414091991751494,0.0202101302836487,-0.08094032986969922, ,0.010572961496888958,0.020350267951781194,-0.0810890446367001, ,0.0002588323156338083, ,0.00048372386863016186,0.001206712852657336,-0.0020601535635133765,0.006181325508190532,0.0003016022954286115,-0.0013500162017289217, ,0.0024360577569318424, ,0.006188679095388947, ,2.0282566166072425e-05, ,0.12828231577374333,-0.2154333562593669,0.09083622546,3.130041786393495,0.2552369815618427,0.14072125503542615, ,0.0025522037762590196,-0.008985366003097229,0.00232809288512131,0.003308267732397236,-0.0030004038550864465,0.0024466281582905974, ,0.5701370239257812
0.010419462849330416,0.020220873323851966,-0.08095849139865724, ,0.010583530400086616,0.020369222537018408,-0.0811206483838614, ,0.0002742636288477645, ,0.0006598999227991024,0.0012574677871074306,-0.00218404473753283,0.00607508941980387,-0.0022648553685847735,0.0011692850985561961, ,0.0026051381075228946, ,0.006483539253334229, ,2.0639263935241806e-05, ,0.12831320670524024,-0.21551058358810918,0.0908569661,3.1302514763369795,0.2552369815618427,0.14072125503542615, ,0.004569611925115156,-0.00920183084079647,0.002481509817728619,0.000737145165721037,-0.0030004038550864465,0.0024466281582905974, ,0.5865919589996338
0.010429926439476779,0.020244251385626407,-0.08100005174126534, ,0.010594156870480145,0.02038803535456919,-0.08115231903150612, ,0.00026614054908968344, ,0.0004737964044876106,0.0011851975075207327,-0.0019968372420808445,0.0018583700738587633,0.0026650403994640834,0.002170430408473829, ,0.002369923023243535, ,0.003248996711362098, ,2.0953010635886988e-05, ,0.128374988568234,-0.21568820644421632,0.09090363254000002,3.1302514763369795,0.25510034506207735,0.14083267293912255, ,0.0025943435761804435,-0.009317706097591631,0.0022523771945701363,0.0007231508646377437,-0.0071333824222610575,0.005816795051963513, ,0.6002659797668457
0.010442612715321636,0.0202714792709487,-0.08104410720976964, ,0.010604840758738517,0.02040670686040964,-0.08118405633664265, ,0.00025335784403646296, ,0.0005403996762478495,0.0012547750798882244,-0.0021257133502282956,0.0028775152169394557,0.0016192769586205018,0.002097603677805604, ,0.0025268853473270378, ,0.0033018406456148076, ,2.1212809905430525e-05, ,0.1284599386298505,-0.21588899749894616,0.09095418785,3.1302514763369795,0.25510034506207735,0.14083267293912255, ,0.0031984251637213364,-0.009703359682934669,0.0024028981022778703,0.0007022857365082973,-0.006522879785834347,0.005318971087879452, ,0.6136689186096191
0.01044834556091257,0.020282666670296885,-0.08106374571314309, ,0.010615581915760322,0.02042523750986474,-0.08121586005658663, ,0.00026726993126631986, ,0.0006603974359700746,0.0014036924072502286,-0.002243198945228612,0.0060671235773604205,-0.0010311225499946316,0.0018058019423240264, ,0.0027273464494784205, ,0.006154120746237545, ,2.150147100608992e-05, ,0.1284985522942216,-0.21598167029343687,0.09097622478,3.1302514763369795,0.2549637085623119,0.14094409084281898, ,0.0044710538783641444,-0.01088919787154837,0.002570821743060039,0.0006933278623107946,-0.004599819454078563,0.003750844333946254, ,0.627357006072998
0.010455013381163891,0.02029678831542873,-0.08109060568729745, ,0.010626380192673816,0.020443627757608343,-0.08124772994895987, ,0.00027498443495888795, ,0.0006161044309009671,0.0013647243626791492,-0.0025663501298033337,0.0032877332432622057,0.0011727861396647649,0.0020570732287127414, ,0.0029712304260368972, ,0.0034906470885667567, ,2.1799079869992143e-05, ,0.12853716595859274,-0.216089788553676,0.09100603945,3.1302514763369795,0.25482707206254646,0.14105550874651537, ,0.0034228936608657495,-0.00979763081112433,0.002863863991370011,0.0006825004774910882,-0.006218084390238059,0.005070430880160743, ,0.6408240795135498
0.010469531338038329,0.020324696693967526,-0.08113992433173252, ,0.010637235440836355,0.02046187805766384,-0.08127966577169081, ,0.00025781982600740316, ,0.0005621889681617008,0.0012140576804345307,-0.0017665049226205565,-0.0008641622104606935,0.003723310587914202,0.0038659285221128593, ,0.0022159720505880594, ,0.0038222791686192284, ,2.203474988990024e-05, ,0.12862983875308343,-0.21629830234128006,0.09106177992,3.1304611662804644,0.254690435562781,0.14116692665021183, ,0.0040311326732848304,-0.010557132889722773,0.002041370180699731,3.500385944622725e-05,-0.010823831868725655,0.008826109120521824, ,0.6535248756408691
0.01047587677822634,0.020336533997698147,-0.08115931792194642, ,0.010648147511834592,0.020479988863404453,-0.08131166728301435, ,0.0002710476562720072, ,0.0006341840196631348,0.0012819241375199538,-0.0020768407907408473,0.0030944596785150115,0.0003130103931031421,0.0028130955616415794, ,0.0025216634460683758, ,0.003110250177961202, ,2.229654452291904e-05, ,0.12867617515032878,-0.216398697868645,0.09108381685000001,3.1304611662804644,0.25455379906301556,0.14127834455390825, ,0.00442002977847549,-0.010089719950719557,0.0023742452705321215,3.500385944622725e-05,-0.006602266894510656,0.005383705951875664, ,0.6681830883026123
0.01048167370429494,0.020349761858485537,-0.08117948810799143, ,0.010659116257484214,0.020497960627553734,-0.08134373424147134, ,0.0002835939477470541, ,0.0008126602635514491,0.0013631052649345546,-0.0020226192056848925,0.00409225822530328,-0.0019293775986187218,0.0029437234200642166, ,0.0026871692776302054, ,0.003715628147876624, ,2.2580927202820938e-05, ,0.12871478881469992,-0.2164990933960099,0.09110715007,3.1304611662804644,0.25455379906301556,0.14127834455390825, ,0.004665792968808906,-0.010715631839642352,0.0025311952200858102,3.500385944622725e-05,-0.006602266894510656,0.005383705951875664, ,0.6825029850006104
0.01049787343399348,0.02037841396030703,-0.08122570295313511, ,0.010670141529829685,0.02051579380218571,-0.08137586640590881, ,0.00026664317044800397, ,0.0008092208192181775,0.001364888795848088,-0.002567130751877178,0.0014944019103278136,-8.224299577209927e-05,0.0030973469291431365, ,0.0030179330768791523, ,0.001496663244839651, ,2.280842919442262e-05, ,0.12883835254068748,-0.21672305264936242,0.09116029796000001,3.1304611662804644,0.2544171625632501,0.14138976245760465, ,0.005760795175533649,-0.009873133409374873,0.002885654260869566,3.500385944622725e-05,-0.007924034109649388,0.006461518487605324, ,0.6962459087371826
0.010505829835694126,0.020391942637731468,-0.08125253900273684, ,0.010681223181144263,0.020533488838725376,-0.08140806353548002, ,0.0002738357772990694, ,0.0007393857341744229,0.0013922542795015477,-0.0026062743708187585,0.0016191312945389,0.0009093272846600095,0.0031553110192856053, ,0.003045936528996909, ,0.001857003537780164, ,2.3045134748162742e-05, ,0.12889241167080706,-0.21682344817672733,0.09119011263000001,3.1304611662804644,0.25428052606348467,0.14150118036130108, ,0.00485024027410639,-0.01011846637110789,0.002921109759765267,3.500385944622725e-05,-0.0080370775025242,0.006553697794616729, ,0.709913969039917
0.01052550751178065,0.020425603987336508,-0.0813118509800411, ,0.010692361063929783,0.020551046187949295,-0.0814403253896431, ,0.00024511533506075525, ,0.0007984014993172732,0.001113580321151219,-0.0018876240523792035,0.006648551861586023,-0.0047669831564546026,-0.001657869192989562, ,0.00233251594826012, ,0.008180915000545835, ,2.3199333370181662e-05, ,0.1290314208625431,-0.21707057562870252,0.09125751971000001,3.130670856223949,0.25414388956371925,0.1416125982649975, ,0.0066040573373737504,-0.008007092699288619,0.0021826269553302277,0.00316735066693062,-0.0016133333008073948,0.0013155651282648951, ,0.7315058708190918
0.010531961084919153,0.020436479107256038,-0.08132713522044464, ,0.010703555030916356,0.020568466299985735,-0.08147265172816304, ,0.0002608450792445865, ,0.0006317939261348751,0.0011393765245814353,-0.001432719872161239,0.008135435442124575,-0.003463535808846494,-0.0014643501668293527, ,0.0019364990735742443, ,0.008842024096670504, ,2.338652345048796e-05, ,0.12908547999266268,-0.21715552569031898,0.09127566777000001,3.130670856223949,0.25414388956371925,0.1416125982649975, ,0.005300822324680352,-0.009506381501113794,0.0017302641233977842,0.00316735066693062,-0.0016133333008073948,0.0013155651282648951, ,0.7462120056152344
0.010540023356951585,0.020448708510428446,-0.0813448539004148, ,0.010714804935062477,0.02058574962431501,-0.0815050423111093, ,0.0002738415488252888, ,0.0006852989397800279,0.000958369601953104,-0.0013847535821684609,0.002311322650302977,-0.0012605281401797583,-0.0007082759321529035, ,0.0018181444975963175, ,0.002632706512488037, ,2.3598107258345e-05, ,0.1292167664515245,-0.2173485940121746,0.09131196389000001,3.130670856223949,0.2540072530639538,0.14172401616869393, ,0.005989792635563313,-0.008899842243228456,0.0018039424144960365,0.00316735066693062,-0.005689190886668152,0.004639153691799104, ,0.7590749263763428
0.010550641762281422,0.020465348624633766,-0.0813675734402562, ,0.010726110629554607,0.020602896609770147,-0.08153749689885728, ,0.0002803261553622215, ,0.0006944948824869523,0.0011005948897192634,-0.0019000690233030072,0.002639267632398308,-0.0005586205585578941,-0.0006648157465059573, ,0.0023030185727415157, ,0.00269773804123073, ,2.3817105577233665e-05, ,0.12924765738302138,-0.21739493040941996,0.0913236305,3.130670856223949,0.2540072530639538,0.14172401616869393, ,0.005314025360006705,-0.008269456129489067,0.002170433508652405,0.00316735066693062,-0.005689190886668152,0.004639153691799104, ,0.7765688896179199
0.010550641762281422,0.020465348624633766,-0.0813675734402562, ,0.010737471967807324,0.020619907704537106,-0.08157001525208732, ,0.0003158745353061591, ,0.0006944948824869523,0.0011005948897192634,-0.0019000690233030072,0.002639267632398308,-0.0005586205585578941,-0.0006648157465059573, ,0.0023030185727415157, ,0.00269773804123073, ,2.4111325508426833e-05, ,0.12924765738302138,-0.21739493040941996,0.0913236305,3.130670856223949,0.2540072530639538,0.14172401616869393, ,0.005314025360006705,-0.008269456129489067,0.002170433508652405,0.00316735066693062,-0.005689190886668152,0.004639153691799104, ,0.7901949882507324
0.010579329331603916,0.020506590466729552,-0.08145640725150358, ,0.010748888803462796,0.020636783356154997,-0.08160259713178489, ,0.00025898278717063856, ,0.0008051861836933409,0.001204792560617938,-0.0024847716680142878,0.006581591195748528,-0.004300913173308002,-0.0015661676025193736, ,0.002876445748957814, ,0.007862264094875653, ,2.426361164460938e-05, ,0.12944844843775122,-0.2176652260600178,0.09142214854000001,3.1308805461674334,0.25373398006442294,0.14194685197608675, ,0.00573391642507078,-0.007464529488789547,0.0027818392455466303,0.0028868923015753782,-0.001130690611865465,0.0009220023779849355, ,0.8047480583190918
0.01058698125745783,0.020518180131859926,-0.08148077841455453, ,0.010760360990390912,0.020653524011516856,-0.08163524229924043, ,0.00026877051405389666, ,0.0007737203011694844,0.0011407273324004332,-0.0023465333509683213,0.006201398764429654,-0.00413482880003129,-0.001615236778810272, ,0.002721418879653374, ,0.007453466023931053, ,2.4487931899805822e-05, ,0.1295025075678708,-0.21773473065588583,0.09144937063000001,3.1308805461674334,0.25373398006442294,0.14194685197608675, ,0.005567999046082281,-0.007081053959880134,0.0026293845361505448,0.0028868923015753782,-0.001130690611865465,0.0009220023779849355, ,0.8161129951477051
0.01058698125745783,0.020518180131859926,-0.08148077841455453, ,0.010771888382689082,0.020670130116869717,-0.08166795051604916, ,0.0003038302790764579, ,0.0007737203011694844,0.0011407273324004332,-0.0023465333509683213,0.006201398764429654,-0.00413482880003129,-0.001615236778810272, ,0.002721418879653374, ,0.007453466023931053, ,2.478350055109559e-05, ,0.1295025075678708,-0.21773473065588583,0.09144937063000001,3.1308805461674334,0.25373398006442294,0.14194685197608675, ,0.005567999046082281,-0.007081053959880134,0.0026293845361505448,0.0028868923015753782,-0.001130690611865465,0.0009220023779849355, ,0.8295409679412842
0.010604402599670174,0.020541396529555812,-0.0815405903390026, ,0.010783470834681943,0.020686602117815114,-0.0817007215441106, ,0.00028069930263771326, ,0.0007785259056815279,0.0011667396747441598,-0.003101642695301259,-0.003140740481688286,0.002875122233720393,0.00020626942335241348, ,0.003404052212254537, ,0.0042580016844874615, ,2.5019137471491295e-05, ,0.12961834856098417,-0.21787373984762187,0.09151418513000001,3.1308805461674334,0.25346070706489204,0.1421696877834796, ,0.00442203649472038,-0.006310329826464488,0.0033463889747899164,0.0028868923015753782,-0.009319788533515316,0.0075996626310012, ,0.8425600528717041
0.010619586652614683,0.020565443729869085,-0.0815931667466759, ,0.010795108200921357,0.02070294045930953,-0.08173355514562954, ,0.0002634806768769915, ,0.0007018431699715408,0.0010786451029443814,-0.0025213627738328408,-0.0014594933923278834,0.001970047296182696,-5.173245084468729e-05, ,0.0028307824590758706, ,0.002451776337585653, ,2.5210364126418898e-05, ,0.1297187440883491,-0.2180127490393579,0.09157251818,3.1308805461674334,0.25346070706489204,0.1421696877834796, ,0.004404892565249107,-0.006645364002303062,0.002759669355509356,0.0028868923015753782,-0.00803183202871846,0.006549420462451948, ,0.8544669151306152
0.010628262042198426,0.02057806242864918,-0.08162147378622432, ,0.010806800336186171,0.020719145585664612,-0.08176645108311457, ,0.00026981252051582025, ,0.0007864995346165632,0.0012920484726461692,-0.0025385874872004967,0.006191065766438923,-0.0029065741686891355,-0.0014860738017782116, ,0.002955062977973617, ,0.006839405574831322, ,2.5409383255695846e-05, ,0.12977280321846865,-0.21809769910097437,0.09160362914,3.1310902361109174,0.25332407056512657,0.14228110568717603, ,0.005390370466286356,-0.008448621237965087,0.0028500288996242623,0.003265451655804964,-0.0024814975071461337,0.0020234948256779685, ,0.8661990165710449
0.010634971804315689,0.020589114254632227,-0.081643406111268, ,0.01081854709548203,0.02073521794054763,-0.08179940911937833, ,0.0002817500898036171, ,0.0007995969655257173,0.0013146014331521108,-0.0025828921287872333,0.006328250432296792,-0.00299153783014975,-0.0014677113787978117, ,0.003006470353134147, ,0.006999717994899915, ,2.5627627808245732e-05, ,0.129819139615714,-0.2181672036968424,0.09162825865,3.1310902361109174,0.25332407056512657,0.14228110568717603, ,0.00547549222930684,-0.00858692323332746,0.0028998382523211363,0.003265451655804964,-0.0024814975071461337,0.0020234948256779685, ,0.8783140182495117
0.010647704253136698,0.02060744397464309,-0.08168186579822734, ,0.01083034833404146,0.02075115796698208,-0.0818324290175381, ,0.0002769148874523991, ,0.0008326784417123912,0.001212622058834479,-0.0026678175398574333,-0.0025499211967545594,0.002432490512240168,0.0003138958829697916, ,0.0030464825735322227, ,0.0035240754910554435, ,2.5829535660822708e-05, ,0.1299118124102047,-0.21829076742283,0.09167103622000002,3.1310902361109174,0.25318743406536115,0.142474202331013, ,0.005725655965336385,-0.008001791837879005,0.0029448717914586807,0.003265451655804964,-0.010403876012174566,0.008483663278727857, ,0.8913469314575195
0.010655665290366411,0.020620900768411304,-0.08170841501695905, ,0.010842203907323334,0.02076696610734767,-0.08186551054101454, ,0.00028427230349273557, ,0.0007758897700722874,0.0012647272494221945,-0.002506822153025005,-0.0004014355671226543,0.001809885694438362,4.91325061414931e-05, ,0.0029130220146148535, ,0.0018538707189250617, ,2.6040689852387964e-05, ,0.12995814880745005,-0.21836799475157223,0.09169825831,3.1310902361109174,0.25318743406536115,0.14255588107115358, ,0.005191763213828029,-0.008539516213830646,0.002807828577472237,0.003265451655804964,-0.009287289771895373,0.007343750302240329, ,0.9029068946838379
0.010662833722954783,0.02063408141271222,-0.08173378948753098, ,0.010854113671012928,0.020782642803381105,-0.08189865345353252, ,0.0002929823076780538, ,0.0008461631602590721,0.001415122996150466,-0.002884815807560471,0.00114518602231187,0.0009485918715840026,-6.574713473538984e-05, ,0.0033227590089508845, ,0.001487036436922795, ,2.6263421197883614e-05, ,0.13001220793756962,-0.21846066754606294,0.09172936927000001,3.1310902361109174,0.25318743406536115,0.14263755981129417, ,0.005541781947841584,-0.009552051848900598,0.0032088661402095093,0.003265451655804964,-0.008358533972999217,0.006587959163643205, ,0.9143350124359131
0.010673257948481606,0.02064820599970277,-0.08176552581429822, ,0.01086607748102197,0.020798188496176144,-0.08193185751912037, ,0.00029553402072606303, ,0.0010401155852720633,0.0015310835793546972,-0.0032558477944005905,0.007262672611157906,-0.005030713795384184,-0.001990608130880616, ,0.0037452105705819303, ,0.008834845464526658, ,2.6485028484274246e-05, ,0.13008171253343764,-0.21855334034055363,0.0917643691,3.131299926054402,0.25305079756559573,0.1427489777149906, ,0.007279304646033595,-0.009244088902731587,0.0036309121312970145,0.0037443176068371266,-0.0022847914070309,0.0016386571361312137, ,0.9272499084472656
0.010691185472231777,0.020675809167075756,-0.08182386169191153, ,0.010878095193488072,0.020813603626184268,-0.08196512250210992, ,0.0002718035565606551, ,0.0008905731491645233,0.001378922736041671,-0.0026939197516649,0.005902820255875868,-0.0030804395782344364,-0.001636861536040707, ,0.0031546397693549325, ,0.006658257641939888, ,2.6654125073649462e-05, ,0.13020527625942524,-0.2187309631966608,0.0918291836,3.131299926054402,0.25291416106583026,0.14294207435882753, ,0.00635509298842867,-0.009069518537821815,0.0030323265790976593,0.0037443176068371266,-0.003401452745174278,0.0028024368696798864, ,0.9411599636077881
0.010700895599861792,0.02069045216008375,-0.08184882123388522, ,0.010890166664774752,0.020828888633214766,-0.08199844816713649, ,0.0002781661594450693, ,0.0007853970139760926,0.0011609626160756143,-0.0017853275036552468,0.0005187069418993186,0.0004794958134730536,-0.00041450666480181834, ,0.0022698187065921306, ,0.0007063802860886798, ,2.6830934502084835e-05, ,0.13028250358816748,-0.21884680418977415,0.09185770198000001,3.131299926054402,0.25277752456606484,0.14305349226252395, ,0.006511122468477331,-0.009468752330812437,0.0020806866823082472,0.0037443176068371266,-0.008938650163114696,0.007035963213496649, ,0.9530770778656006
0.010708987586400827,0.020701968991465952,-0.08186640801256928, ,0.010902291751471468,0.020844043956435465,-0.08203183427913849, ,0.00029140632384313923, ,0.0008372876138368309,0.001045060926200605,-0.001669651871045787,-0.00034366013656061056,-0.00046485570942170044,-0.0006005329845786391, ,0.0021403131215414575, ,0.0005780943755712767, ,2.7028248373186824e-05, ,0.1303520081840355,-0.21893175425139064,0.09187844262000001,3.131299926054402,0.25277752456606484,0.14305349226252395, ,0.007313581540806424,-0.008389738773153577,0.0019482175601466972,0.0037443176068371266,-0.008740501040680505,0.006874385890608529, ,0.965264081954956
0.010726587359842898,0.02072593219530981,-0.08190250550763215, ,0.010914470310393082,0.02085907003437278,-0.08206528060335735, ,0.0002819954238744866, ,0.0009103932268211454,0.0011143173039188006,-0.00156267578996593,0.0013421897925065761,-0.0012315626135453795,-0.00023823550483392965, ,0.0021242585779043767, ,0.0018215981721754957, ,2.7202680112401446e-05, ,0.13050646284151998,-0.21910937710749778,0.09192122019000001,3.131299926054402,0.25277752456606484,0.14329852848294566, ,0.007731056834760385,-0.008215289431897373,0.002817762519016452,0.0037443176068371266,-0.007165764200553182,0.010587907653258604, ,0.9791429042816162
0.010733483889710821,0.020735544975638974,-0.08192072793057506, ,0.010926702198580123,0.020873967304912464,-0.0820987869053377, ,0.0002969832564595754, ,0.001022934517925958,0.0012645204864572986,-0.0028272095278543403,0.0002368770323370525,0.008375785908004977,0.004226787328228426, ,0.0032616745397149875, ,0.008379134807636975, ,2.740038789658097e-05, ,0.13056052197163956,-0.21917115897049158,0.09194196083,3.131299926054402,0.25277752456606484,0.14338020722308623, ,0.007710052985525464,-0.007693836583370067,0.0031430172691397002,0.0037443176068371266,-0.0067373964207594434,0.01722303362719562, ,0.9949688911437988
0.01075001562582344,0.020756761204920933,-0.0819657404137353, ,0.01093898727329827,0.02088873620529958,-0.08213235295092668, ,0.0002844071409505073, ,0.0008697740787242746,0.0010573792552531945,-0.0024766899803139925,0.001690010144756597,-0.012704492380331781,-0.010277870165187965, ,0.0028299383555208733, ,0.012816405925145352, ,2.7569993071808885e-05, ,0.13067636296475293,-0.21929472269647918,0.09199251614000001,3.1317193059413713,0.25277752456606484,0.14338020722308617, ,0.0063396767585116596,-0.006163610937448364,0.0027378500378136823,0.006601836162570887,-0.005910715760587945,-0.008695496715037793, ,1.0079009532928467
0.010758765060148633,0.020766120691199742,-0.08198811457528932, ,0.010951325392038427,0.020903377172139234,-0.08216597850627441, ,0.0002958959292096997, ,0.0009430047243000995,0.001184842412582083,-0.00233403725684998,0.008829174544002843,-0.015160571836769303,-0.010050444223513465, ,0.002782236397049937, ,0.017544151774224977, ,2.7756079830772784e-05, ,0.13074586756062095,-0.21935650455947298,0.09201714565,3.1317193059413713,0.2526408880662994,0.1434916251267826, ,0.007444996330750408,-0.007345224230793415,0.002653033231179214,0.006601836162570887,0.0,-0.010276225354499303, ,1.0197069644927979
0.010769097579204337,0.020776972888294748,-0.08201394469527488, ,0.010963716412516495,0.0209178906413967,-0.0821996633378331, ,0.00030368687428460744, ,0.0009832574583272923,0.0011253613288385565,-0.0027103915067686352,-0.002172377532341855,-0.008946026859086449,0.007767737682264204, ,0.00309506954199176, ,0.009206010023905482, ,2.8001429375137667e-05, ,0.1308230948893632,-0.219426009155341,0.09204566403000002,3.1319289958848557,0.25250425156653394,0.1436847217706196, ,0.0077200580671339634,-0.0064846886717005656,0.0029902030260934866,-0.007901438483210208,-0.007619581527079299,0.0006352984283057445, ,1.029737949371338
0.010789115924950363,0.020799073164052523,-0.08206799282308769, ,0.01097616019267318,0.02093227704839822,-0.0822334072123579, ,0.0002830030972805506, ,0.0010821914359707195,0.0011007194869899937,-0.0029288776500536844,-0.0035277755670597983,-0.007589758217125611,0.008715359219412336, ,0.003310747042906159, ,0.008369565701423259, ,2.8204959500853997e-05, ,0.13097754954684768,-0.2195495728813286,0.09210529337000001,3.1319289958848557,0.25236761506676847,0.14379613967431604, ,0.008549328827594195,-0.005644510975614233,0.003206282512077295,-0.007901438483210208,-0.007975201931921236,0.0030939860617842704, ,1.0470969676971436
0.010799130543924089,0.020809403390743463,-0.08209505290350202, ,0.010988656590673856,0.020946536827830795,-0.08226720989690565, ,0.0002904543550056671, ,0.000921093955318763,0.0009191754555253849,-0.0024688174663013815,-0.003705683117129475,-0.00639945732521891,0.008680924777280587, ,0.002790762848125909, ,0.007394940251966911, ,2.841726177405985e-05, ,0.13105477687558992,-0.21959590927857392,0.09213510804000001,3.1319289958848557,0.25236761506676847,0.14379613967431604, ,0.0073415772591720165,-0.0047039865618550844,0.0027007140590030523,-0.007901438483210208,-0.007215075227435576,0.003066816590401252, ,1.0575389862060547
0.010808776394646747,0.020820450700386694,-0.08211928377538, ,0.011001205464908546,0.02096067041374302,-0.08230107115883535, ,0.0002995616261791458, ,0.0008284776224608089,0.0009521674522030147,-0.002346959728678512,-0.0023989032380923674,-0.0055287273371326835,0.00879117012871657, ,0.0026648110619688988, ,0.006026737313246729, ,2.864093258087924e-05, ,0.1311320042043322,-0.21965769114156772,0.09216233013000001,3.1319289958848557,0.25236761506676847,0.14379613967431604, ,0.006420557986902376,-0.005348023696493449,0.0025812366747690815,-0.007869939537417098,-0.00654906418474185,0.0029962212324914387, ,1.0673959255218506
0.010818309135245594,0.020831708948950603,-0.08214751840126, ,0.011013806673991516,0.0209746782395453,-0.08233499076580841, ,0.00030627666117129715, ,0.0009420749119547657,0.0010203589629675103,-0.0028269034826936693,-0.0023171677638628625,-0.006081972950468614,0.008283452463322178, ,0.0031496064601007393, ,0.006508430013112596, ,2.8871517599208606e-05, ,0.1312015088002002,-0.2197117502716873,0.09219344109000001,3.1319289958848557,0.25236761506676847,0.14379613967431604, ,0.0070048821206656064,-0.004814802955342261,0.00307506013899614,-0.007383716227027456,-0.006001417625531584,0.0029068732069910414, ,1.0782039165496826
0.010827397763048195,0.020842612899543114,-0.08217724855676604, ,0.011026460076761302,0.020988560738010337,-0.08236896848578758, ,0.00031254296901080976, ,0.0008850823168819856,0.001305515933120732,-0.0034253465748261395,-0.00016076559708627614,-0.004430253482364371,0.008162388457429073, ,0.0037710398720992655, ,0.004433169410665888, ,2.9108043683105984e-05, ,0.131263290663194,-0.21975808666893265,0.09222584834000001,3.1319289958848557,0.25236761506676847,0.14379613967431604, ,0.005363577358703347,-0.006531845522659967,0.0037138753835392873,-0.007009692082555131,-0.005596694230026827,0.0028231686433373114, ,1.0884740352630615
0.010834971785224808,0.020851559931217827,-0.08220392054020317, ,0.01103916553228049,0.021002318341273463,-0.08240300408703748, ,0.0003225793594749509, ,0.0011783286921341473,0.0013627188006786776,-0.003760583870340493,0.00574252390166802,-0.00837775296786528,-0.0032593850126460167, ,0.0041698263851502, ,0.010156934813205341, ,2.935666737617542e-05, ,0.13131734979331355,-0.219804423066178,0.09225436672000001,3.1317193059413713,0.25223097856700305,0.14390755757801246, ,0.008053345361396708,-0.005701411759167949,0.004097970547980449,0.0035123916888257643,-0.0004468085980311652,-0.0012193511884356304, ,1.0997459888458252
0.010846648197344386,0.020862874252080502,-0.08224321733858844, ,0.01105192289983562,0.021015951480832802,-0.08243709733812395, ,0.00032118498667471276, ,0.0010739279664677443,0.001189987869157212,-0.0036352382031744797,-0.002442844332404391,-0.0021656679233374473,-0.0016716255158550715, ,0.003972952202043474, ,0.003264598804094136, ,2.9598006781196485e-05, ,0.1313945771220558,-0.21985848219629756,0.09229584800000001,3.1317193059413713,0.25195770556747216,0.14413039338540531, ,0.006988925896433774,-0.004791638717705651,0.003907951795878312,0.0035123916888257643,-0.007388484508333679,0.004635031591742139, ,1.1109700202941895
0.010863237057166755,0.020880880447571536,-0.08229171909049122, ,0.011064732038936938,0.021029460587550133,-0.08247124800791462, ,0.00030806966398177446, ,0.0011010939963329242,0.0010885803704593989,-0.0030153941920132783,-0.000814192028041605,-0.002315395409592012,-0.007002459692226883, ,0.0033896928098188107, ,0.0024543765627929428, ,2.9812968269325967e-05, ,0.13151041811516917,-0.21993570952503982,0.09234899589000001,3.1319289958848557,0.25195770556747216,0.14413039338540531, ,0.008133017600963806,-0.005125155736780279,0.0032917568753874768,0.00903442871811737,-0.006809812907626067,0.00439087405559702, ,1.1221458911895752
0.010876622440179697,0.020895989812147055,-0.08233059506789002, ,0.011077592809318249,0.021042846091650972,-0.08250545586557827, ,0.00030419098387294213, ,0.0010920764442914673,0.0012175193210860315,-0.003227636732675007,0.0005380345610638454,-0.00298712619552271,-0.004411145258358914, ,0.0036183729956303676, ,0.0030351941859773596, ,3.0017394328472762e-05, ,0.13160309090965988,-0.22000521412090784,0.09239177346,3.13213868582834,0.25195770556747216,0.14413039338540531, ,0.007757109963007076,-0.0059717683112595074,0.0035279759734219273,0.006340758632282959,-0.005982140121484912,0.003863958787990945, ,1.1319348812103271
0.010886182676421734,0.020907270416809395,-0.08235881678606898, ,0.011090505070936917,0.02105610842272482,-0.08253972068058461, ,0.00031084821369315206, ,0.001136967090393553,0.0012344308506980846,-0.0032106719055845613,0.001192082437726899,-0.003803638435742283,-0.004459062032538208, ,0.0036228342185508815, ,0.003986066425314058, ,3.0228612176166322e-05, ,0.1316725955055279,-0.2200592732510274,0.09242288442,3.13213868582834,0.25195770556747216,0.14413039338540531, ,0.008314552507896875,-0.006139328141091053,0.003522514710305175,0.006340758632282959,-0.005510603487046893,0.0035679145099249093, ,1.1425318717956543
0.01089964338362866,0.020921636772656137,-0.08239681078138561, ,0.011103468683973576,0.021069248009725965,-0.08257404222270427, ,0.00030780645568582565, ,0.001094330743405104,0.0013237404828426638,-0.0031821533308171853,0.007100907690386437,-0.008627250389585025,-0.006130049400950873, ,0.003616068094313076, ,0.01117373433484495, ,3.043090782837245e-05, ,0.1317729910328928,-0.22013650057976966,0.09246436570000001,3.13213868582834,0.25182106906770674,0.14432349002924225, ,0.007855194588153319,-0.006722252714064265,0.0035217359097943846,0.006085716442538724,-0.0005099435826187107,-0.0023536698545128356, ,1.1533088684082031
0.010911413561548003,0.02093506306758049,-0.08242823750245662, ,0.011116483508831829,0.021082265280973532,-0.08260842026200894, ,0.00031014190582166236, ,0.0011437719680479903,0.001260463955762097,-0.003095407223872845,0.005206769716495076,-0.01183745257667207,0.004180545512082702, ,0.0035324962250895607, ,0.012931965593110484, ,3.063305752544286e-05, ,0.13185794109450927,-0.22020600517563768,0.09249936553,3.1323483757718247,0.25182106906770674,0.14432349002924225, ,0.008866093894160593,-0.006201372378478114,0.003429238217438106,-0.004575558989714032,-0.0005099435826187107,-0.00220894003713098, ,1.164017915725708
0.010922021258420863,0.02094645668294907,-0.08245927458961697, ,0.01112954940613842,0.021095160664151905,-0.08264285456887074, ,0.0003144557439505134, ,0.0011158989839354114,0.0012543481347359257,-0.003304089211657311,-0.003699502053865896,-0.004741850550035291,0.006327083091794299, ,0.003706160453090747, ,0.006014271501324436, ,3.0838171181326464e-05, ,0.13193516842325154,-0.22026778703863145,0.09253306907000002,3.1323483757718247,0.2516844325679413,0.14443490793293867, ,0.008188766118159113,-0.006512564330196038,0.003607067826086957,-0.004575558989714032,-0.009302400052610486,0.00508685287238512, ,1.1744329929351807
0.010935437263192377,0.020961304233228863,-0.08249686029189607, ,0.011142666236742937,0.021107934586311224,-0.0826773449139625, ,0.0003114787420135442, ,0.0012533845964726152,0.001323192930246565,-0.003692943950368111,-0.0030667745490241924,-0.0063182346787254125,0.006119989511811569, ,0.0041182092586329, ,0.007023189795466039, ,3.1034827036576214e-05, ,0.13202784121774222,-0.22032956890162525,0.09257195777,3.1323483757718247,0.2516844325679413,0.14443490793293867, ,0.009357909803181515,-0.0058412152226288375,0.003998195662650603,-0.004575558989714032,-0.008422546961124861,0.004491748681074098, ,1.1838738918304443
0.010947214186173795,0.02097291380387875,-0.08253172994270677, ,0.011155833861717547,0.02112058747386787,-0.08271189106825733, ,0.0003127102700450984, ,0.0013286803008568475,0.0014551659551426972,-0.003950260697995708,0.002945453727992896,-0.010671025595667436,0.004913464680407991, ,0.004414460202677213, ,0.011070071542914227, ,3.122974430595316e-05, ,0.1321205140122329,-0.22039135076461905,0.09261214276000002,3.1323483757718247,0.2515477960681759,0.1445463258366351, ,0.009691031993798213,-0.0064189615274125485,0.00431792125779344,-0.004575558989714032,-0.002851538409247207,5.1664791775602424e-05, ,1.196004867553711
0.010960673891140199,0.02098861767479303,-0.08257313442465292, ,0.011169052142356868,0.02113311975260447,-0.08274649280302841, ,0.0003071733605391624, ,0.0014300376870365966,0.0014809208863981438,-0.003875566066453275,0.005479980205041019,-0.008437512704240946,-0.009282141995008009, ,0.004388410508778703, ,0.010060904671426825, ,3.146066883043236e-05, ,0.13222090953959784,-0.22046085536048707,0.09265751291,3.13213868582834,0.2515477960681759,0.1445463258366351, ,0.010605312479712218,-0.006832151290855636,0.004265884177825389,0.010149761536311858,-0.002624160425907751,-3.0958327863381176e-05, ,1.2053189277648926
0.01097260116755858,0.020999385405220228,-0.08260415226047707, ,0.01118232094017805,0.021145531847670703,-0.08278114988984943, ,0.00031091691248937746, ,0.0013722449519409778,0.0012663474679038434,-0.003316548108966442,0.004834607952510536,-0.008832374271788405,-0.009474552415922545, ,0.0038060719221636964, ,0.010068975565079233, ,3.169376984460112e-05, ,0.13231358233408852,-0.22051491449060664,0.09269121645,3.13213868582834,0.2514111595684104,0.1446577437403315, ,0.010794830210440174,-0.005780268566477245,0.003669387588113339,0.010149761536311858,-0.0022404491604565858,-0.0002660872471773859, ,1.214359998703003
0.010984417643737185,0.021010417542387753,-0.08263078369474003, ,0.011195640116920265,0.02115782418358349,-0.08281586210059379, ,0.0003171713533085146, ,0.0012731187312817285,0.0011566806233565992,-0.0028178413611218587,0.0046931976315972785,-0.008715207926930191,-0.008089110361804992, ,0.0033013590087777635, ,0.00989853287316863, ,3.1932779639910626e-05, ,0.13240625512857923,-0.22056897362072622,0.09272103112,3.1323483757718247,0.2514111595684104,0.1446577437403315, ,0.010436341981657722,-0.005822764182249285,0.0031504769620253163,0.008756469864419822,-0.0022404491604565858,-0.00019589629486419934, ,1.2232630252838135
0.011001281808187546,0.021023619098892096,-0.08266591655267198, ,0.011209009534544869,0.021169997184227327,-0.08285062920743455, ,0.00031415938151426625, ,0.0012961428766903288,0.001059672149996967,-0.002715885807353817,-0.00172365222352282,-0.005303170549554747,-0.0054025528293182995, ,0.003190443094753481, ,0.0055762527487157295, ,3.216371459254847e-05, ,0.13254526432031527,-0.22063847821659424,0.09275991982000001,3.132558065715309,0.251274523068645,0.14476916164402792, ,0.01089469750392594,-0.0055497492796125125,0.0030202524687144485,0.0073577185848022735,-0.0079328105528909,0.004548500763736824, ,1.231536865234375
0.01101423009591103,0.02103586582365275,-0.08269478234717773, ,0.011222429055235012,0.021182051272854795,-0.08288545098284472, ,0.00031791747490363874, ,0.001328292827213943,0.00126248064447096,-0.003267665520273918,-0.0009697261912078868,-0.0030921676702709983,-0.0044211430055352465, ,0.0037464459378027644, ,0.0032406587932750346, ,3.239679901679312e-05, ,0.1326533825805544,-0.22070026007958804,0.09279232707000001,3.132558065715309,0.251274523068645,0.1446874829038874, ,0.010394183215349405,-0.006443109337910346,0.003604619035980992,0.0073577185848022735,-0.0079328105528909,0.006468675088583529, ,1.2398309707641602
0.011029800549425546,0.021050675226239966,-0.08273477950776206, ,0.011235898541395634,0.021193986872086845,-0.08292032719959683, ,0.00031215790247029253, ,0.0014895637375558074,0.001346671823654143,-0.0041366998655656215,-0.004482312193717889,-0.008347218589214424,0.01341617604932731, ,0.004598326968217444, ,0.009474554320216216, ,3.2617968247111716e-05, ,0.13276922357366777,-0.22076204194258184,0.09283640093000001,3.132767755658794,0.251274523068645,0.1446874829038874, ,0.01142742883895468,-0.005130281538072872,0.004481939088351154,-0.011309900728562161,-0.0077433973931488615,0.0063142213574999455, ,1.2480740547180176
0.011043738589787225,0.02106373343206296,-0.08277572723626286, ,0.01124941785565325,0.02120580440391335,-0.08295525763076236, ,0.0003077649817618103, ,0.00157788166099014,0.0015899303428733428,-0.004841055196881624,-0.0006867225089790081,-0.010036402439787798,0.013005429139748382, ,0.005334173267764456, ,0.010059868740636137, ,3.282948161045419e-05, ,0.13286961910103268,-0.22081610107270142,0.09288047479000001,3.132767755658794,0.25113788656887953,0.14488057954772438, ,0.011349983759876236,-0.005762303157731648,0.00523629570019724,-0.011309900728562161,-0.00468339200531499,0.004301501673989668, ,1.2595329284667969
0.011060497226955372,0.02107841870850202,-0.08282666962498128, ,0.011262986860855783,0.02121750428969325,-0.08299024204971278, ,0.00029513181608387747, ,0.001628392821679932,0.001349596622298315,-0.004757269714114219,-0.004239054630070869,-0.0001355132442740891,-0.011869703166931582, ,0.005206216414772453, ,0.00424121981975386, ,3.3019589604694546e-05, ,0.13299318282702027,-0.22086243746994674,0.09293491897000002,3.132558065715309,0.2510012500691141,0.1452370336718425, ,0.011335499209082079,-0.0037043391750755557,0.005093959552286537,0.015578820891152268,-0.009402999945473616,0.008835844775623698, ,1.2721190452575684
0.011076258941667222,0.021091692754028588,-0.0828713615138623, ,0.011276605420072394,0.021229086950155084,-0.08302528023011808, ,0.0002875879826286685, ,0.0014733616783461291,0.0012309889656023395,-0.0038081091599546724,-0.005740309909618843,0.01799584493068543,-0.0029134388710483315, ,0.004264718495139429, ,0.018889192460952442, ,3.319608821363575e-05, ,0.13310902382013365,-0.2209087738671921,0.0929828817,3.132558065715309,0.25086461356934864,0.14551180905582003, ,0.010990152516869654,-0.004939663366008839,0.004129844832771585,0.015578820891152268,-0.01076411334273038,0.028816128640962804, ,1.2812449932098389
0.011087221882607166,0.0211017393658925,-0.08289969877407471, ,0.011290273396593394,0.02124055280539752,-0.08306037194594725, ,0.00029379407155164303, ,0.001444384269434679,0.001062865073285481,-0.00345288524927221,-0.004581678632705052,-0.01121544787447038,-0.01696594681474442, ,0.00389080256842237, ,0.012115199116297727, ,3.3378940331637843e-05, ,0.1331939738817501,-0.22094738753156323,0.09301399266,3.132558065715309,0.25086461356934864,0.14567516653610116, ,0.011220404091956685,-0.003938261763953178,0.0037435514735605175,0.014930190481594163,-0.01076411334273038,-0.003561466739343497, ,1.2898070812225342
0.011104250127079678,0.02111388427372545,-0.08293911290745128, ,0.01130399065393007,0.021251902274889364,-0.08309551697146839, ,0.00028880352829012, ,0.001444384269434679,0.001062865073285481,-0.00345288524927221,-0.004581678632705052,-0.01121544787447038,-0.01696594681474442, ,0.00389080256842237, ,0.012115199116297727, ,3.35521062785582e-05, ,0.13333298307348615,-0.22099372392880856,0.09305677023000002,3.132558065715309,0.2507279770695832,0.14586826317993817, ,0.011770113183710903,-0.004891027922527301,0.003856855089588378,0.012990190902998347,0.010327834529385098,-0.016196216262165296, ,1.2981140613555908
0.011104250127079678,0.02111388427372545,-0.08293911290745128, ,0.011317757055814417,0.02126313577747024,-0.08313071508124807, ,0.00032337689000835987, ,0.0014853083011911543,0.0013386847967163172,-0.0034504267956135537,0.017884491576527137,-0.023258346759115343,-0.01779390488939385, ,0.0039879396693574464, ,0.029339491004941768, ,3.377159338520921e-05, ,0.13333298307348615,-0.22099372392880856,0.09305677023000002,3.132558065715309,0.2507279770695832,0.14586826317993817, ,0.011770113183710903,-0.004891027922527301,0.003856855089588378,0.012990190902998347,0.010327834529385098,-0.016196216262165296, ,1.306570053100586
0.011119223489881081,0.021126938555562073,-0.08297423581454229, ,0.011331572466199194,0.02127425373135096,-0.08316596605015152, ,0.00032179858919490384, ,0.001497386651375691,0.0012453964765068762,-0.0032730207785015846,0.0162567365605024,-0.023241139276558652,-0.010448806513021042, ,0.003808653854568168, ,0.028362511138726006, ,3.398579593740649e-05, ,0.13344882406659953,-0.22104778305892814,0.09309565893,3.132767755658794,0.2507279770695832,0.14586826317993817, ,0.012362811563115006,-0.004275777514446008,0.003665166019328118,0.00638444949248365,0.010327834529385098,-0.013884268843677178, ,1.3165459632873535
0.011135362144271127,0.021138418910517338,-0.08300825337591645, ,0.011345436749257577,0.02128525655411378,-0.08320126965334203, ,0.0003208549775029127, ,0.0014347237350949948,0.0012623848873148714,-0.003248682949371476,0.016957911366502813,-0.01966013230782528,-0.01525765879705843, ,0.0037690832712083803, ,0.02596327328965868, ,3.419570692185139e-05, ,0.13358011052546134,-0.22108639672329927,0.09313325134000001,3.1329774456022785,0.2507279770695832,0.14586826317993817, ,0.011494050799217746,-0.004567770070664491,0.0036375454487325874,0.01212738460908681,0.010105089477474108,-0.012249185935047903, ,1.324903964996338
0.01114894823086434,0.02114961372208593,-0.08304133627241168, ,0.011359349769383128,0.021296144662712877,-0.08323662566628164, ,0.0003223012121140468, ,0.001356171112307472,0.001133672035892031,-0.003416990265661112,0.013730943746252349,-0.016682439909595705,-0.014522377930126108, ,0.0038471073349262905, ,0.021606541070569286, ,3.4404716144924305e-05, ,0.1336882287857005,-0.22112501038767038,0.09316954746000002,3.1329774456022785,0.2507279770695832,0.14586826317993817, ,0.01029288233773774,-0.0028531442112245645,0.003755023932107497,0.011899310267706532,0.008734838160491892,-0.010186303391135581, ,1.3333818912506104
0.011162151661900672,0.02116248738726769,-0.0830764506546212, ,0.011373311391189453,0.02130691847347479,-0.08327203386473009, ,0.000322027269051507, ,0.001387343527166972,0.0012201174283149657,-0.003877599372374838,-0.00023037492839456057,-0.005712661854712076,-0.0095760408573706, ,0.004295251505312786, ,0.00571730506421413, ,3.4610482521230046e-05, ,0.1337886243130654,-0.2211636240520415,0.09320843616,3.1329774456022785,0.25086461356934864,0.14575684527624175, ,0.009939003846121132,-0.004119748007231717,0.004193999873617694,0.010693715180343573,-0.0056075912460530055,0.0021643630805227836, ,1.3414549827575684
0.011162151661900672,0.02116248738726769,-0.0830764506546212, ,0.011387321479510413,0.021317578402098487,-0.08330749402474523, ,0.00035796048458163534, ,0.001387343527166972,0.0012201174283149657,-0.003877599372374838,-0.00023037492839456057,-0.005712661854712076,-0.0095760408573706, ,0.004295251505312786, ,0.00571730506421413, ,3.490996213173034e-05, ,0.1338812971075561,-0.2211945149835384,0.09324862115000002,3.1329774456022785,0.25086461356934864,0.14575684527624175, ,0.010435243631293957,-0.003273855945499324,0.004678065057268723,0.009773998229789704,-0.005052191981960755,0.002180111014161431, ,1.348140001296997
0.011174996684375193,0.02117389328429869,-0.08311362298350988, ,0.011401379899399426,0.021328124863656345,-0.0833430059226828, ,0.0003572859819520937, ,0.001492342123724091,0.0012601526257342013,-0.004355605188543,-0.0006384222042092861,-0.006391700863749586,-0.008717314407327353, ,0.004773506699780449, ,0.006423505372836421, ,3.520527574560439e-05, ,0.1338812971075561,-0.2211945149835384,0.09324862115000002,3.1329774456022785,0.25086461356934864,0.14575684527624175, ,0.010435243631293957,-0.003273855945499324,0.004678065057268723,0.009773998229789704,-0.005052191981960755,0.002180111014161431, ,1.3592209815979004
0.011191866578447614,0.021188255579500662,-0.08316597084832436, ,0.011415486516129928,0.021338558272593868,-0.0833785693351962, ,0.00034321260568386647, ,0.0016387445099452936,0.001431204174820297,-0.004737697126466512,0.002755611665218285,-0.009334268059425823,-0.008144045606984267, ,0.005213406086334339, ,0.009732520406749316, ,3.54784086777251e-05, ,0.13399713810066946,-0.22123312864790953,0.09330436162000001,3.1329774456022785,0.2507279770695832,0.14594994192007874, ,0.011571449758195981,-0.0039038181855221214,0.0051119420795892176,0.008814121269942094,-0.0022580217022351175,0.0003615602058571134, ,1.3665080070495605
0.011210504797377226,0.02120012632857211,-0.0832179413629286, ,0.011429641195194816,0.021348879042730664,-0.08341418403923613, ,0.0003296351298365361, ,0.0015635677104915175,0.0010565273399289444,-0.004308301010633152,-0.018373382286633395,0.005148008767857963,0.003506485943449395, ,0.004703451031267537, ,0.01908096353542942, ,3.573038383896757e-05, ,0.13412842455953128,-0.22127174231228064,0.09335880580000001,3.133187135545763,0.2503180675702869,0.1462025168910274, ,0.011509709984923035,-0.002609294106480623,0.004561515326460482,0.0024001034196555523,-0.02020045571761726,0.018294072457481287, ,1.373471975326538
0.011210504797377226,0.02120012632857211,-0.0832179413629286, ,0.01144384380230616,0.021359087587260416,-0.08344984981205084, ,0.0003653728256990096, ,0.0015635677104915175,0.0010565273399289444,-0.004308301010633152,-0.018373382286633395,0.005148008767857963,0.003506485943449395, ,0.004703451031267537, ,0.01908096353542942, ,3.6027381556381636e-05, ,0.13412842455953128,-0.22127174231228064,0.09335880580000001,3.133187135545763,0.2503180675702869,0.1462025168910274, ,0.011509709984923035,-0.002609294106480623,0.004561515326460482,0.0024001034196555523,-0.02020045571761726,0.018294072457481287, ,1.3798420429229736
0.011229119509753749,0.02121336235313623,-0.08326494350677408, ,0.011458094203395709,0.02136918431875136,-0.08348556643118601, ,0.0003540965547314297, ,0.0016371197388755172,0.0010248777893266253,-0.004426696969098004,-0.033216458424790284,0.017263262859389672,0.0016687727712939061, ,0.004829718581728373, ,0.03743465444128475, ,3.630624879211324e-05, ,0.13426743375126732,-0.22131035597665177,0.09340936111,3.1333968254892475,0.2501814310705215,0.14631393479472382, ,0.01200619199879438,-0.0035314145402142814,0.004645322694663168,0.008188038901635913,-0.035979276461162266,0.03116064275945309, ,1.3861720561981201
0.011246036222576191,0.021225299825248626,-0.08331250383364801, ,0.011472392264613863,0.021379169649146844,-0.08352133367448425, ,0.0003442715249583083, ,0.001722903644286516,0.001342238318224117,-0.0046528993890259185,0.012105507036962516,-0.015597510356365316,-0.008868786855692068, ,0.005139987684304567, ,0.019744002323694654, ,3.656919004678941e-05, ,0.13439099747725491,-0.22133352417527444,0.09345991642000001,3.1333968254892475,0.250044794570756,0.14642535269842027, ,0.01268167066129504,-0.0019462567868584616,0.005042358822412157,0.008188038901635913,0.00881941368157385,-0.005369685173549675, ,1.392624855041504
0.011246036222576191,0.021225299825248626,-0.08331250383364801, ,0.011486737852330203,0.02138904398976552,-0.08355715132008504, ,0.0003802654580678213, ,0.001722903644286516,0.001342238318224117,-0.0046528993890259185,0.012105507036962516,-0.015597510356365316,-0.008868786855692068, ,0.005139987684304567, ,0.019744002323694654, ,3.687666533966807e-05, ,0.13439099747725491,-0.22133352417527444,0.09345991642000001,3.1333968254892475,0.250044794570756,0.14642535269842027, ,0.01268167066129504,-0.0019462567868584616,0.005042358822412157,0.008188038901635913,0.00881941368157385,-0.005369685173549675, ,1.3991820812225342
0.01126026966415577,0.021237208860042135,-0.08335475039939874, ,0.011501130833133026,0.02139880775130184,-0.08359301914642484, ,0.00037536688744059516, ,0.0017178751055254345,0.0015401140151899417,-0.005125588668849927,0.012098191350966507,-0.013982821605655747,-0.008460725082036272, ,0.005620916763323513, ,0.01849014684859242, ,3.7174521844350325e-05, ,0.13449139300461985,-0.22135669237389713,0.09350528657000001,3.1333968254892475,0.250044794570756,0.14642535269842027, ,0.011855550796515452,-0.0030969715615458675,0.005542383966597078,0.008188038901635913,0.007722188964149755,-0.004474971988499162, ,1.4075648784637451
0.011278995093156037,0.021254943334408156,-0.08341080101127005, ,0.011515571073829283,0.02140846134382642,-0.0836289369322367, ,0.00035653787156938397, ,0.00198137415528251,0.0016594242077736863,-0.006102671208236024,-0.0019913944271481364,-0.0057192847907572755,-0.005304641917712808, ,0.006627377167507501, ,0.006056059925214774, ,3.744479464564029e-05, ,0.13462267946348166,-0.22139530603826824,0.09356621220000001,3.1333968254892475,0.2501814310705215,0.1463956135348644, ,0.013371416310901899,-0.003278956249802341,0.006517516988543373,0.008188038901635913,-0.005911916145398923,0.006624618562357454, ,1.4160668849945068
0.011297560264436022,0.02127084309036146,-0.08347032444819867, ,0.011530058441444349,0.021418005176786378,-0.08366490445655037, ,0.00033700661958376444, ,0.0017021952288939343,0.001304247058871217,-0.0051118100375004485,-0.002758559355132866,-0.002346053053376169,-0.0040674461497588335, ,0.005543386225704812, ,0.0036212720354400476, ,3.768700349557716e-05, ,0.13474624318946923,-0.22141847423689093,0.09362973041000001,3.1333968254892475,0.2501814310705215,0.14655897101514553, ,0.011661045287516747,-0.0017677912211037782,0.0054438863704716345,0.007743627167626029,-0.0049797137791472695,0.008592367495376882, ,1.4236080646514893
0.011297560264436022,0.02127084309036146,-0.08347032444819867, ,0.011544592803221903,0.021427439659005794,-0.08370092149869174, ,0.0003724547760819831, ,0.0017021952288939343,0.001304247058871217,-0.0051118100375004485,-0.002758559355132866,-0.002346053053376169,-0.0040674461497588335, ,0.005543386225704812, ,0.0036212720354400476, ,3.797234038373633e-05, ,0.13474624318946923,-0.22141847423689093,0.09362973041000001,3.1333968254892475,0.2501814310705215,0.14655897101514553, ,0.011661045287516747,-0.0017677912211037782,0.0054438863704716345,0.007743627167626029,-0.0049797137791472695,0.008592367495376882, ,1.4302849769592285
0.011319471301959679,0.021286830952477923,-0.08352667330780505, ,0.011559174026623806,0.021436765198686012,-0.08373698783828301, ,0.00035237746257040545, ,0.0017593324502633038,0.0012743058717269897,-0.0044861692997951695,0.00021007532995483033,-0.020460175281857867,-0.01036089672385257, ,0.004984457955654963, ,0.020461253685722817, ,3.8229047299274695e-05, ,0.13490842057982796,-0.2214493651683878,0.09369065604000001,3.1336065154327315,0.2501814310705215,0.14688568597570778, ,0.013356360528989553,-0.0028918570585747005,0.0048445290510948915,0.0061429117418271865,-0.004150539090793587,-0.009453039507891614, ,1.4380450248718262
0.011337182662142295,0.021298020785446473,-0.08357132453850313, ,0.01157380197932986,0.02144598220340613,-0.08377310325524281, ,0.00034437760234959337, ,0.0017649396094020712,0.0010288608964434804,-0.004495194846897244,-0.002412587833938951,-0.019979205570368423,-0.008540522869454061, ,0.004937645519945549, ,0.02012434429848736, ,3.847294718864093e-05, ,0.13503970703868978,-0.22145708790126203,0.09373861877,3.133816205376217,0.2501814310705215,0.14696736471584831, ,0.013439589514016536,-6.251397751656078e-05,0.0047949462733293206,0.0044229290210424125,-0.0036663792587509,-0.008400706437002053, ,1.4452509880065918
0.011337182662142295,0.021298020785446473,-0.08357132453850313, ,0.011588476529237838,0.021455091080123282,-0.08380926752978536, ,0.00038004809196998525, ,0.0017649396094020712,0.0010288608964434804,-0.004495194846897244,-0.002412587833938951,-0.019979205570368423,-0.008540522869454061, ,0.004937645519945549, ,0.02012434429848736, ,3.875958382136009e-05, ,0.13503970703868978,-0.22145708790126203,0.09373861877,3.133816205376217,0.2501814310705215,0.14696736471584831, ,0.013439589514016536,-6.251397751656078e-05,0.0047949462733293206,0.0044229290210424125,-0.0036663792587509,-0.008400706437002053, ,1.452605962753296
0.011380210835609684,0.021325313383769237,-0.08367480988224905, ,0.011603197544463078,0.021464092235173055,-0.08384548044242056, ,0.0003132268858694706, ,0.0019754508413468218,0.0013049094594123675,-0.004990726524797472,0.001674505007841548,-0.009391053224325147,-0.0016966297803626034, ,0.005523816250488316, ,0.009539174208875026, ,3.895906496963756e-05, ,0.13537950728515566,-0.2215034242985074,0.09385009971000001,3.133816205376217,0.250044794570756,0.1469971038794042, ,0.01508455596224301,-0.0014701246480059152,0.005374092955465587,0.0044229290210424125,0.0,0.00530038837198435, ,1.4644548892974854
0.011380210835609684,0.021325313383769237,-0.08367480988224905, ,0.011617964893338507,0.021472986074270034,-0.0838817417739546, ,0.0003480733016062885, ,0.0019754508413468218,0.0013049094594123675,-0.004990726524797472,0.001674505007841548,-0.009391053224325147,-0.0016966297803626034, ,0.005523816250488316, ,0.009539174208875026, ,3.9200265774816655e-05, ,0.13537950728515566,-0.2215034242985074,0.09385009971000001,3.133816205376217,0.250044794570756,0.1469971038794042, ,0.01508455596224301,-0.0014701246480059152,0.005374092955465587,0.0044229290210424125,0.0,0.00530038837198435, ,1.471276044845581
0.01140033038053193,0.021338124759062625,-0.08372574650233369, ,0.011632778444414344,0.021481773002507844,-0.08391805130548882, ,0.00033413778230561176, ,0.001862893964833842,0.0011344681983287948,-0.0044212099420264574,-0.0019027556415330963,-0.008848131907677678,-0.002119699054610888, ,0.0049299583536483674, ,0.009050409692260019, ,3.947093700604311e-05, ,0.13553396194264014,-0.22152659249713005,0.09390454389000001,3.133816205376217,0.24990815807099057,0.14719020052324117, ,0.014653635200505062,-0.001375016186141781,0.004763400574162679,0.0044229290210424125,-0.0035057410653655495,0.0054555402874628695, ,1.4763660430908203
0.01140033038053193,0.021338124759062625,-0.08372574650233369, ,0.011647638066458191,0.021490453424359898,-0.08395440881841981, ,0.0003696641294301073, ,0.001862893964833842,0.0011344681983287948,-0.0044212099420264574,-0.0019027556415330963,-0.008848131907677678,-0.002119699054610888, ,0.0049299583536483674, ,0.009050409692260019, ,3.9783827813530006e-05, ,0.13553396194264014,-0.22152659249713005,0.09390454389000001,3.133816205376217,0.24990815807099057,0.14719020052324117, ,0.014653635200505062,-0.001375016186141781,0.004763400574162679,0.0044229290210424125,-0.0035057410653655495,0.0054555402874628695, ,1.481307029724121
0.011419110931024814,0.021348295185995198,-0.08376809429621869, ,0.011662543628454548,0.021499027743679563,-0.08399081409443984, ,0.00036274493882569516, ,0.001963546908116134,0.001314757421576101,-0.004728329273406992,-0.003921965741285673,-0.0036889537283074066,-0.002991806862788568, ,0.00528594374314742, ,0.005384254128661123, ,4.008580480532294e-05, ,0.1356806938672504,-0.2215420379628785,0.09394991404000001,3.1340258953197013,0.24977152157122512,0.14738329716707815, ,0.015237145401167433,-0.0029592418671936407,0.005108663091725466,0.007663254452351314,-0.007168451008394154,0.011131095951572778, ,1.4862990379333496
0.011419110931024814,0.021348295185995198,-0.08376809429621869, ,0.01167749499960484,0.02150749636370059,-0.08402726691553587, ,0.0003990962145679673, ,0.001963546908116134,0.001314757421576101,-0.004728329273406992,-0.003921965741285673,-0.0036889537283074066,-0.002991806862788568, ,0.00528594374314742, ,0.005384254128661123, ,4.043047575730316e-05, ,0.1356806938672504,-0.2215420379628785,0.09394991404000001,3.1340258953197013,0.24977152157122512,0.14738329716707815, ,0.015237145401167433,-0.0029592418671936407,0.005108663091725466,0.007663254452351314,-0.007168451008394154,0.011131095951572778, ,1.491344928741455
0.011440565349334414,0.02136168628439963,-0.08382515394468273, ,0.011692492049327395,0.021515859687037495,-0.08406376706399006, ,0.0003797008308601171, ,0.0021281962283630643,0.0014597917021874009,-0.005819118457264698,-0.004760180236891889,-0.004392984087788787,-0.00306040895724253, ,0.006365716819013601, ,0.006477470062516802, ,4.074871393906204e-05, ,0.1358351485247349,-0.2215420379628785,0.09401083967000001,3.1342355852631854,0.24977152157122512,0.14738329716707815, ,0.015407848929772816,-0.0017649523032440973,0.006214908903628561,0.00736980857392658,-0.006820344604742204,0.010600394447821227, ,1.4965648651123047
0.011440565349334414,0.02136168628439963,-0.08382515394468273, ,0.011707534647256986,0.02152411811568608,-0.08410031432237935, ,0.0004163771599193309, ,0.0021281962283630643,0.0014597917021874009,-0.005819118457264698,-0.004760180236891889,-0.004392984087788787,-0.00306040895724253, ,0.006365716819013601, ,0.006477470062516802, ,4.11096108937886e-05, ,0.1358351485247349,-0.2215420379628785,0.09401083967000001,3.1342355852631854,0.24977152157122512,0.14738329716707815, ,0.015407848929772816,-0.0017649523032440973,0.006214908903628561,0.00736980857392658,-0.006820344604742204,0.010600394447821227, ,1.502150058746338
0.011440565349334414,0.02136168628439963,-0.08382515394468273, ,0.011722622663244777,0.021532272051023697,-0.0841369084735752, ,0.0004537033374243739, ,0.0021281962283630643,0.0014597917021874009,-0.005819118457264698,-0.004760180236891889,-0.004392984087788787,-0.00306040895724253, ,0.006365716819013601, ,0.006477470062516802, ,4.151349170643286e-05, ,0.1358351485247349,-0.2215420379628785,0.09401083967000001,3.1342355852631854,0.24977152157122512,0.14738329716707815, ,0.015407848929772816,-0.0017649523032440973,0.006214908903628561,0.00736980857392658,-0.006820344604742204,0.010600394447821227, ,1.511523962020874
0.011463202258970628,0.021378090766975374,-0.0838893756001676, ,0.011737755967358468,0.021540321893809448,-0.08417354930074392, ,0.00042714560679305485, ,0.0024407184813310273,0.001702999687212089,-0.007249304522123148,-0.0053392734900246765,-0.0031282952425769482,-0.0017999687906794608, ,0.007836436096481004, ,0.006188218847551892, ,4.1882072865597e-05, ,0.13599732591509361,-0.22155748342862697,0.09407954304,3.1342355852631854,0.24977152157122512,0.14754665464735928, ,0.016751445994434382,-0.0007414799850863116,0.0076913623949782725,0.00736980857392658,-0.0061792622145923895,0.013522754865951107, ,1.5172650814056396
0.011496997082112884,0.02140398338078164,-0.08399146867797055, ,0.011752934429881632,0.021548268044184995,-0.08421023658734607, ,0.00036630777803488306, ,0.0024135500412640304,0.0018379728802691534,-0.007147819733362352,-0.0028562469927991174,-0.004157824363776192,-0.002092422001453015, ,0.007764965875709612, ,0.005044366329457223, ,4.2174137864915074e-05, ,0.13622900790132036,-0.22158065162724963,0.09418843140000001,3.1342355852631854,0.24977152157122512,0.14754665464735928, ,0.016555642281659243,-0.002433790155744582,0.007625089286740067,0.00736980857392658,-0.005461342222710934,0.012141601852200175, ,1.5220918655395508
0.011496997082112884,0.02140398338078164,-0.08399146867797055, ,0.011768157921313954,0.021556110901674665,-0.08424697011713639, ,0.0004024325642205141, ,0.0024135500412640304,0.0018379728802691534,-0.007147819733362352,-0.0028562469927991174,-0.004157824363776192,-0.002092422001453015, ,0.007764965875709612, ,0.005044366329457223, ,4.250776561657864e-05, ,0.13622900790132036,-0.22158065162724963,0.09418843140000001,3.1342355852631854,0.24977152157122512,0.14754665464735928, ,0.016555642281659243,-0.002433790155744582,0.007625089286740067,0.00736980857392658,-0.005461342222710934,0.012141601852200175, ,1.5269389152526855
0.011520380946706385,0.021419082697389454,-0.08405591518674384, ,0.011783426312370844,0.021563850865185842,-0.08428374967416383, ,0.0003769074693643007, ,0.0024928840310774235,0.0016555678717558166,-0.006621073148347682,-0.0033946905769926036,-0.0038692447075071358,-0.0011225271055382998, ,0.007265946972429787, ,0.005147326101536514, ,4.280822847502992e-05, ,0.1363989080245533,-0.22158065162724963,0.09425713477000001,3.1342355852631854,0.24977152157122512,0.1477100121276404, ,0.018298677508382332,-0.001639975163800912,0.007085770249110321,0.00736980857392658,-0.005053126042647398,0.014418645142314872, ,1.532041072845459
0.011520380946706385,0.021419082697389454,-0.08405591518674384, ,0.011798739473983475,0.02157148833300939,-0.08432057504277113, ,0.00041322607234899094, ,0.0024928840310774235,0.0016555678717558166,-0.006621073148347682,-0.0033946905769926036,-0.0038692447075071358,-0.0011225271055382998, ,0.007265946972429787, ,0.005147326101536514, ,4.315012689870807e-05, ,0.1363989080245533,-0.22158065162724963,0.09425713477000001,3.1342355852631854,0.24977152157122512,0.1477100121276404, ,0.018298677508382332,-0.001639975163800912,0.007085770249110321,0.00736980857392658,-0.005053126042647398,0.014418645142314872, ,1.5372040271759033
0.01154390985167427,0.021433615565399577,-0.08411778557125334, ,0.011814097277298437,0.021579023702820124,-0.0843574460075951, ,0.0003893351976652615, ,0.0023927378576167786,0.0015615432039312498,-0.0063557626428166775,-0.003369799942053385,-0.00203547382924433,-0.0016668289258946751, ,0.0069684525114863515, ,0.003936838196773968, ,4.346099390465202e-05, ,0.13656880814778624,-0.22158065162724963,0.09432324556,3.13444527520667,0.24977152157122512,0.14779169086778093, ,0.017502202426866613,-0.0012494842743457587,0.006795568054607509,0.00835340692952824,-0.004708749556353699,0.015336414829591999, ,1.5422000885009766
0.01154390985167427,0.021433615565399577,-0.08411778557125334, ,0.011829499593677696,0.02158645737167711,-0.08439436235356594, ,0.0004259305518487198, ,0.0023927378576167786,0.0015615432039312498,-0.0063557626428166775,-0.003369799942053385,-0.00203547382924433,-0.0016668289258946751, ,0.0069684525114863515, ,0.003936838196773968, ,4.381325560922265e-05, ,0.13656880814778624,-0.22158065162724963,0.09432324556,3.13444527520667,0.24977152157122512,0.14779169086778093, ,0.017502202426866613,-0.0012494842743457587,0.006795568054607509,0.00835340692952824,-0.004708749556353699,0.015336414829591999, ,1.5474770069122314
0.011572642219350737,0.02144932280449323,-0.08418971910286167, ,0.011844946294698374,0.02159378973602394,-0.08443132386590779, ,0.00039165426754141406, ,0.0026829890370395283,0.0017349338930451878,-0.007008703391943723,0.0025934338381049618,-0.006392333635939416,-0.012147012670331164, ,0.007702619620775434, ,0.00689839194842145, ,4.412229895923897e-05, ,0.1367773219353903,-0.22158065162724963,0.09439972667,3.134864655093639,0.2496348850714597,0.14806646625175848, ,0.01956637970277748,-0.0009810593716172889,0.007513590339622642,0.01756223672890166,0.0,0.0104538064247143, ,1.5526840686798096
0.011572642219350737,0.02144932280449323,-0.08418971910286167, ,0.011860437252152741,0.02160102119168952,-0.08446833033013805, ,0.0004283253407725387, ,0.0026829890370395283,0.0017349338930451878,-0.007008703391943723,0.0025934338381049618,-0.006392333635939416,-0.012147012670331164, ,0.007702619620775434, ,0.00689839194842145, ,4.447254563840444e-05, ,0.13697039025724592,-0.22158065162724963,0.09447750407000001,3.134864655093639,0.24936161207192883,0.1483709807992919, ,0.018717345475043546,-0.000822689730735511,0.007303444071526824,0.01756223672890166,-0.007258631690353613,0.02050262500660846, ,1.5586879253387451
0.011599427085325648,0.021464200502041012,-0.08426376415364786, ,0.011875972338047845,0.021608152133887875,-0.08450538153206685, ,0.000394434160118801, ,0.002591237925692841,0.00161649187521007,-0.006847728612833267,-0.005437248169294711,0.0033650561959390414,-0.008664693829158085, ,0.007497929522553844, ,0.006394314333806694, ,4.483321750244457e-05, ,0.13697039025724592,-0.22158065162724963,0.09447750407000001,3.134864655093639,0.24936161207192883,0.1483709807992919, ,0.018717345475043546,-0.000822689730735511,0.007303444071526824,0.01756223672890166,-0.007258631690353613,0.02050262500660846, ,1.5624470710754395
0.011599427085325648,0.021464200502041012,-0.08426376415364786, ,0.011891551424605545,0.021615182957218985,-0.08454247725779815, ,0.0004310606985058749, ,0.002591237925692841,0.00161649187521007,-0.006847728612833267,-0.005437248169294711,0.0033650561959390414,-0.008664693829158085, ,0.007497929522553844, ,0.006394314333806694, ,4.5235330887015815e-05, ,0.13697039025724592,-0.22158065162724963,0.09447750407000001,3.134864655093639,0.24936161207192883,0.1483709807992919, ,0.018717345475043546,-0.000822689730735511,0.007303444071526824,0.01756223672890166,-0.007258631690353613,0.02050262500660846, ,1.5663840770721436
0.011624687248973455,0.021479014925882643,-0.08432666445768097, ,0.011907174384262061,0.021622114055669026,-0.08457961729372884, ,0.00040529184523481915, ,0.00259496962043718,0.0013501372673232531,-0.005696913950706777,-0.005360047100059847,-0.0033460006946152998,-0.009000731622609646, ,0.006404027368255423, ,0.006318688120375623, ,4.560527352327996e-05, ,0.1371634585791015,-0.22158065162724963,0.09454491115000001,3.134864655093639,0.24936161207192883,0.14845265953943249, ,0.020629769904015386,-0.0007027076116403195,0.0061335431343858314,0.01562990698683234,-0.0071416412223674185,0.015593384047987501, ,1.5699779987335205
0.011624687248973455,0.021479014925882643,-0.08432666445768097, ,0.011922841089668325,0.021628945822610837,-0.08461680142654797, ,0.00044221538555114904, ,0.00259496962043718,0.0013501372673232531,-0.005696913950706777,-0.005360047100059847,-0.0033460006946152998,-0.009000731622609646, ,0.006404027368255423, ,0.006318688120375623, ,4.601676805845533e-05, ,0.1371634585791015,-0.22158065162724963,0.09454491115000001,3.134864655093639,0.24936161207192883,0.14845265953943249, ,0.020629769904015386,-0.0007027076116403195,0.0061335431343858314,0.01562990698683234,-0.0071416412223674185,0.015593384047987501, ,1.573348045349121
0.011624687248973455,0.021479014925882643,-0.08432666445768097, ,0.011938551413689285,0.02163567865080405,-0.08465402944323776, ,0.00047981462083560044, ,0.00259496962043718,0.0013501372673232531,-0.005696913950706777,-0.005360047100059847,-0.0033460006946152998,-0.009000731622609646, ,0.006404027368255423, ,0.006318688120375623, ,4.6470313186781285e-05, ,0.1371634585791015,-0.22158065162724963,0.09454491115000001,3.134864655093639,0.24936161207192883,0.14845265953943249, ,0.020629769904015386,-0.0007027076116403195,0.0061335431343858314,0.01562990698683234,-0.0071416412223674185,0.015593384047987501, ,1.5766980648040771
0.011651927283689226,0.02149382934972426,-0.08438928821485774, ,0.01195430522940415,0.021642312932395744,-0.08469130113107298, ,0.00045242855561798397, ,0.0028598878317137063,0.0016049194018093124,-0.007172657705322168,-0.006168405791302506,-0.0004971037054710237,-0.005531308962696791, ,0.007886808179105509, ,0.006188402307187826, ,4.688978568298248e-05, ,0.1373796950995798,-0.22158065162724963,0.09461231823,3.134864655093639,0.24936161207192883,0.14853433827957302, ,0.021349143207754953,0.0002866169415407399,0.007650725994236313,0.014035973839411098,-0.006451032485849623,0.019985661198184825, ,1.5804760456085205
0.011651927283689226,0.02149382934972426,-0.08438928821485774, ,0.01197010241010595,0.02164884905892075,-0.0847286162776208, ,0.0004903162810759949, ,0.0028598878317137063,0.0016049194018093124,-0.007172657705322168,-0.006168405791302506,-0.0004971037054710237,-0.005531308962696791, ,0.007886808179105509, ,0.006188402307187826, ,4.735141165470545e-05, ,0.1373796950995798,-0.22158065162724963,0.09461231823,3.134864655093639,0.24936161207192883,0.14853433827957302, ,0.021349143207754953,0.0002866169415407399,0.007650725994236313,0.014035973839411098,-0.006451032485849623,0.019985661198184825, ,1.583759069442749
0.011651927283689226,0.02149382934972426,-0.08438928821485774, ,0.01198594282930158,0.021655287421302016,-0.08476597467074029, ,0.0005287038676174846, ,0.0028598878317137063,0.0016049194018093124,-0.007172657705322168,-0.006168405791302506,-0.0004971037054710237,-0.005531308962696791, ,0.007886808179105509, ,0.006188402307187826, ,4.7855477908257214e-05, ,0.1373796950995798,-0.22158065162724963,0.09461231823,3.134864655093639,0.24936161207192883,0.14853433827957302, ,0.021349143207754953,0.0002866169415407399,0.007650725994236313,0.014035973839411098,-0.006451032485849623,0.019985661198184825, ,1.5870718955993652
0.011683448480483607,0.021513486950591024,-0.08447301862453417, ,0.01200182636071154,0.021661628409850992,-0.08480337609858309, ,0.0004821269824746221, ,0.0032420244353873998,0.001968277234934984,-0.00871270903547336,-0.005047504028887573,-0.011576621211832549,-0.008565545211555727, ,0.009502427923958771, ,0.01262914903691779, ,4.830323691944853e-05, ,0.13761137708580654,-0.22158065162724963,0.09470176224000001,3.134864655093639,0.24936161207192883,0.14869769575985417, ,0.023304749891569443,0.00026001630435108466,0.009271717997671713,0.012666796033418722,-0.005849210364471583,0.010080203419043567, ,1.5904409885406494
0.011683448480483607,0.021513486950591024,-0.08447301862453417, ,0.012017752878269821,0.021667872414268003,-0.08484082034959259, ,0.0005204540428605647, ,0.0032420244353873998,0.001968277234934984,-0.00871270903547336,-0.005047504028887573,-0.011576621211832549,-0.008565545211555727, ,0.009502427923958771, ,0.01262914903691779, ,4.8793234109068955e-05, ,0.13761137708580654,-0.22158065162724963,0.09470176224000001,3.134864655093639,0.24936161207192883,0.14869769575985417, ,0.023304749891569443,0.00026001630435108466,0.009271717997671713,0.012666796033418722,-0.005849210364471583,0.010080203419043567, ,1.5949139595031738
0.011683448480483607,0.021513486950591024,-0.08447301862453417, ,0.012033722256123683,0.02167401982364278,-0.0848783072125042, ,0.0005592149504172271, ,0.0032420244353873998,0.001968277234934984,-0.00871270903547336,-0.005047504028887573,-0.011576621211832549,-0.008565545211555727, ,0.009502427923958771, ,0.01262914903691779, ,4.932567757181301e-05, ,0.13761137708580654,-0.22158065162724963,0.09470176224000001,3.134864655093639,0.24936161207192883,0.14869769575985417, ,0.023304749891569443,0.00026001630435108466,0.009271717997671713,0.012666796033418722,-0.005849210364471583,0.010080203419043567, ,1.6000449657440186
0.011683448480483607,0.021513486950591024,-0.08447301862453417, ,0.012049734368633602,0.0216800710264546,-0.08491583647634449, ,0.0005983337330211751, ,0.0032420244353873998,0.001968277234934984,-0.00871270903547336,-0.005047504028887573,-0.011576621211832549,-0.008565545211555727, ,0.009502427923958771, ,0.01262914903691779, ,4.990068606189074e-05, ,0.13761137708580654,-0.22158065162724963,0.09470176224000001,3.134864655093639,0.24936161207192883,0.14869769575985417, ,0.023304749891569443,0.00026001630435108466,0.009271717997671713,0.012666796033418722,-0.005849210364471583,0.010080203419043567, ,1.603693962097168
0.011692431268273287,0.021518902955739213,-0.08449603130443303, ,0.012065789090373128,0.02168602641057277,-0.08495340793043216, ,0.0006136120032145576, ,0.003339128552753232,0.00207073449477292,-0.009150252250044327,-0.006357758227513685,-0.01500772963214386,0.0019777710035273604, ,0.00995815430082782, ,0.016298864201093097, ,5.0490594937999554e-05, ,0.13767315894880033,-0.22158065162724963,0.09472639175000001,3.1350743450371237,0.24936161207192883,0.14869769575985417, ,0.024006309526554716,0.0002518687165859534,0.009730489627367138,0.001618835308404461,-0.005712895295129134,0.009739560155455834, ,1.608375072479248
0.011692431268273287,0.021518902955739213,-0.08449603130443303, ,0.012081886296128497,0.021691886363257213,-0.08499102136437689, ,0.0006531566714360828, ,0.003339128552753232,0.00207073449477292,-0.009150252250044327,-0.006357758227513685,-0.01500772963214386,0.0019777710035273604, ,0.00995815430082782, ,0.016298864201093097, ,5.11230983533032e-05, ,0.13767315894880033,-0.22158065162724963,0.09472639175000001,3.1350743450371237,0.24936161207192883,0.14869769575985417, ,0.024006309526554716,0.0002518687165859534,0.009730489627367138,0.001618835308404461,-0.005712895295129134,0.009739560155455834, ,1.611767053604126
0.011692431268273287,0.021518902955739213,-0.08449603130443303, ,0.012098025860898736,0.02169765127115856,-0.08502867656807993, ,0.0006929422131157313, ,0.003339128552753232,0.00207073449477292,-0.009150252250044327,-0.006357758227513685,-0.01500772963214386,0.0019777710035273604, ,0.00995815430082782, ,0.016298864201093097, ,5.179817951491363e-05, ,0.13767315894880033,-0.22158065162724963,0.09472639175000001,3.1350743450371237,0.24936161207192883,0.14869769575985417, ,0.024006309526554716,0.0002518687165859534,0.009730489627367138,0.001618835308404461,-0.005712895295129134,0.009739560155455834, ,1.6151618957519531
0.011692431268273287,0.021518902955739213,-0.08449603130443303, ,0.012114207659895493,0.021703321520318588,-0.08506637333173339, ,0.000732936258890531, ,0.003339128552753232,0.00207073449477292,-0.009150252250044327,-0.006357758227513685,-0.01500772963214386,0.0019777710035273604, ,0.00995815430082782, ,0.016298864201093097, ,5.251578487393381e-05, ,0.13767315894880033,-0.22158065162724963,0.09472639175000001,3.1350743450371237,0.24936161207192883,0.14869769575985417, ,0.024006309526554716,0.0002518687165859534,0.009730489627367138,0.001618835308404461,-0.005712895295129134,0.009739560155455834, ,1.6186130046844482
0.011793847127547979,0.02158520546990844,-0.08478215213400757, ,0.012130431568542611,0.021708897496170974,-0.08510411144582063, ,0.00048191970466431234, ,0.003331645101824618,0.0018761442755574512,-0.008133771773889383,-0.011530905054523614,-0.020214673573505045,0.04876817462776605, ,0.008987659300225983, ,0.023272188626319374, ,5.294455408316754e-05, ,0.1383604821746063,-0.2215729288943754,0.09503101990000001,3.1361227947545465,0.24936161207192883,0.14910608946055698, ,0.026566892933502458,0.0,0.008709027621651176,-0.042899859029376264,-0.004600504460423078,0.017735653839709903, ,1.6219329833984375
0.011793847127547979,0.02158520546990844,-0.08478215213400757, ,0.012146697462476276,0.021714379583540968,-0.08514189070111547, ,0.0005201933747719262, ,0.003331645101824618,0.0018761442755574512,-0.008133771773889383,-0.011530905054523614,-0.020214673573505045,0.04876817462776605, ,0.008987659300225983, ,0.023272188626319374, ,5.341481999304902e-05, ,0.1383604821746063,-0.2215729288943754,0.09503101990000001,3.1361227947545465,0.24936161207192883,0.14910608946055698, ,0.026566892933502458,0.0,0.008709027621651176,-0.042899859029376264,-0.004600504460423078,0.017735653839709903, ,1.6252529621124268
0.011793847127547979,0.02158520546990844,-0.08478215213400757, ,0.0121630052175448,0.021719768166646516,-0.08517971088868276, ,0.0005589613387188879, ,0.003331645101824618,0.0018761442755574512,-0.008133771773889383,-0.011530905054523614,-0.020214673573505045,0.04876817462776605, ,0.008987659300225983, ,0.023272188626319374, ,5.3926860421964985e-05, ,0.1383604821746063,-0.2215729288943754,0.09503101990000001,3.1361227947545465,0.24936161207192883,0.14910608946055698, ,0.026566892933502458,0.0,0.008709027621651176,-0.042899859029376264,-0.004600504460423078,0.017735653839709903, ,1.6286020278930664
0.011832796844943788,0.021604424909809412,-0.08487467135121321, ,0.01217935470980822,0.02172506362909824,-0.08521757179987757, ,0.0005022317910937783, ,0.004056879067840201,0.0022347765958251357,-0.010452379759372809,-0.007693961816853026,-0.019822965491614337,0.03656883592678315, ,0.011432617234844965, ,0.02126374577916063, ,5.4372485360100405e-05, ,0.13866166875670108,-0.22155748342862697,0.09512953794000001,3.1361227947545465,0.2492249755721634,0.1494625435846751, ,0.030790701349276698,0.002462175563245777,0.011131244947589101,-0.02915138052859525,0.0,0.019494889413135853, ,1.631964921951294
0.011832796844943788,0.021604424909809412,-0.08487467135121321, ,0.012195745815538554,0.021730266353899814,-0.08525547322634548, ,0.0005409048829607778, ,0.004056879067840201,0.0022347765958251357,-0.010452379759372809,-0.007693961816853026,-0.019822965491614337,0.03656883592678315, ,0.011432617234844965, ,0.02126374577916063, ,5.485970059374254e-05, ,0.13866166875670108,-0.22155748342862697,0.09512953794000001,3.1361227947545465,0.2492249755721634,0.1494625435846751, ,0.030790701349276698,0.002462175563245777,0.011131244947589101,-0.02915138052859525,0.0,0.019494889413135853, ,1.6352958679199219
0.011832796844943788,0.021604424909809412,-0.08487467135121321, ,0.01221217841121939,0.02173537672344859,-0.08529341496002235, ,0.0005800215170522749, ,0.004056879067840201,0.0022347765958251357,-0.010452379759372809,-0.007693961816853026,-0.019822965491614337,0.03656883592678315, ,0.011432617234844965, ,0.02126374577916063, ,5.5388724346121385e-05, ,0.13866166875670108,-0.22155748342862697,0.09512953794000001,3.1361227947545465,0.2492249755721634,0.1494625435846751, ,0.030790701349276698,0.002462175563245777,0.011131244947589101,-0.02915138052859525,0.0,0.019494889413135853, ,1.6386280059814453
0.011878059391853397,0.02163224591599107,-0.08499620913013964, ,0.012228652373545493,0.02174039511953573,-0.08533139679313448, ,0.0004969531753224258, ,0.004520373535373609,0.00257271008117836,-0.011779959566079254,-0.004005399685164503,-0.008824675483444136,0.01193841736104154, ,0.01287711386295722, ,0.009691124660551532, ,5.582214267006098e-05, ,0.13897057807167004,-0.22154976069575275,0.09525009291000001,3.135913104811062,0.2492249755721634,0.14978925854523734, ,0.03284767793647309,0.0022577722052694615,0.012552254940898346,0.0,0.0,0.025506435314780248, ,1.6421668529510498
0.011878059391853397,0.02163224591599107,-0.08499620913013964, ,0.012245167579423299,0.021745321923346755,-0.08536941851819752, ,0.0005355743199173167, ,0.004520373535373609,0.00257271008117836,-0.011779959566079254,-0.004005399685164503,-0.008824675483444136,0.01193841736104154, ,0.01287711386295722, ,0.009691124660551532, ,5.6296868352678226e-05, ,0.13897057807167004,-0.22154976069575275,0.09525009291000001,3.135913104811062,0.2492249755721634,0.14978925854523734, ,0.03284767793647309,0.0022577722052694615,0.012552254940898346,0.0,0.0,0.025506435314780248, ,1.6457500457763672
0.011878059391853397,0.02163224591599107,-0.08499620913013964, ,0.012261723905970082,0.021750157515461895,-0.08540747992801742, ,0.0005746697085014914, ,0.004520373535373609,0.00257271008117836,-0.011779959566079254,-0.004005399685164503,-0.008824675483444136,0.01193841736104154, ,0.01287711386295722, ,0.009691124660551532, ,5.6876703744343564e-05, ,0.13897057807167004,-0.22154976069575275,0.09525009291000001,3.135913104811062,0.2492249755721634,0.14978925854523734, ,0.03284767793647309,0.0022577722052694615,0.012552254940898346,0.0,0.0,0.025506435314780248, ,1.6476359367370605
0.011878059391853397,0.02163224591599107,-0.08499620913013964, ,0.012278321230514375,0.021754902275856487,-0.08544558081568955, ,0.0006141571735945703, ,0.004520373535373609,0.00257271008117836,-0.011779959566079254,-0.004005399685164503,-0.008824675483444136,0.01193841736104154, ,0.01287711386295722, ,0.009691124660551532, ,5.749936348719298e-05, ,0.13897057807167004,-0.22154976069575275,0.09525009291000001,3.135913104811062,0.2492249755721634,0.14978925854523734, ,0.03284767793647309,0.0022577722052694615,0.012552254940898346,0.0,0.0,0.025506435314780248, ,1.6503229141235352
0.011878059391853397,0.02163224591599107,-0.08499620913013964, ,0.01229495943059522,0.021759556583901128,-0.08548372097459878, ,0.000653973582765076, ,0.004520373535373609,0.00257271008117836,-0.011779959566079254,-0.004005399685164503,-0.008824675483444136,0.01193841736104154, ,0.01287711386295722, ,0.009691124660551532, ,5.816507132120848e-05, ,0.13897057807167004,-0.22154976069575275,0.09525009291000001,3.135913104811062,0.2492249755721634,0.14978925854523734, ,0.03284767793647309,0.0022577722052694615,0.012552254940898346,0.0,0.0,0.025506435314780248, ,1.6522328853607178
0.011878059391853397,0.02163224591599107,-0.08499620913013964, ,0.012311638383962518,0.021764120818362546,-0.08552190019841957, ,0.0006940697598535352, ,0.004520373535373609,0.00257271008117836,-0.011779959566079254,-0.004005399685164503,-0.008824675483444136,0.01193841736104154, ,0.01287711386295722, ,0.009691124660551532, ,5.8873995165726115e-05, ,0.13897057807167004,-0.22154976069575275,0.09525009291000001,3.135913104811062,0.2492249755721634,0.14978925854523734, ,0.03284767793647309,0.0022577722052694615,0.012552254940898346,0.0,0.0,0.025506435314780248, ,1.6540930271148682
0.01190578394904664,0.02164848257697602,-0.08506511574496695, ,0.012328357968576663,0.02176859535740352,-0.08556011828111558, ,0.0006618333572715762, ,0.004678056204740868,0.0025598925992117,-0.011468609931647764,-0.004358607060731098,0.0008393914136463369,0.018018134049276918, ,0.0126477774228717, ,0.004438674920465096, ,5.954544211684621e-05, ,0.1392022600578968,-0.22154976069575275,0.09533305547000001,3.135913104811062,0.2492249755721634,0.15003429476565897, ,0.035409306551668206,0.0015924345338982429,0.012271811648690295,0.0,0.0,0.040673945783377435, ,1.6559810638427734
