NicholasDascanio/dvrk_moveit_final/test/execution/third_experiment_notsharpbends/thirdexp_700vel3.0/thirdexp_700vel3.0_1.csv
Current Position (x),Current Position (y),Current Position (z), ,Planned Position (x),Planned Position (y),Planned Position (z), ,Position Error,,Cartesian linear Velocity(x),Cartesian linear Velocity(y),Cartesian linear Velocity(z),Cartesian Angular Velocity(x),Cartesian Angular Velocity(y),Cartesian Angular Velocity(z), ,Total Linear Velocity, ,Total Angular Velocity, ,MSE, ,Joint 1 Position,Joint 2 Position,Joint 3 Position,Joint 4 Position,Joint 5 Position,Joint 6 Position, ,Joint 1 Velocity,Joint 2 Velocity,Joint 3 Velocity,Joint 4 Velocity,Joint 5 Velocity,Joint 6 Velocity, ,Time Stamp
0.010145710373737682,0.019863494152001,-0.08041594907542243, ,0.010221197968595448,0.01976352972817368,-0.08026652273308282, ,0.00019498588357502367, ,-1.2670703846963703e-05,2.556359921510628e-05,5.62964145907489e-06,0.009552189603680337,0.0032240968405261457,0.05685378034994268, ,2.9081561233293134e-05, ,0.010081623215621054, ,1.6248823631251974e-05, ,0.05069201858640968,-0.1665639026312742,0.09580360874,3.9163790744604614,1.258285526339941,-0.41002641700022424, ,-6.941895785963196e-05,-0.00023736756677359796,-8.85332381104522e-07,-0.0010922180542373265,0.0,0.05664600035171885, ,0.01639699935913086
0.01014530643293861,0.019864785330244834,-0.08039671522003693, ,0.010231767299458917,0.01978632271189242,-0.08028896359435797, ,0.00015887818212271024, ,0.0003463727597272384,0.00031682853013938585,0.0006084942046498475,0.30629301833287514,-0.07428621641301764,0.98732675421393, ,0.0007685177963351256, ,0.3151727383966208, ,1.6084730258987904e-05, ,0.05069201858640968,-0.16657934809702268,0.09579323842000001,3.9161693845169774,1.2592419818382992,-0.39814613760431217, ,0.0001497010830588956,-0.00017271422686820177,0.0011429165496211345,-0.0018710451205512498,0.19284559934881534,1.01645922134756, ,0.033715009689331055
0.010160026405618128,0.019872176483489653,-0.08032195692311782, ,0.01024238560815007,0.0198089656023642,-0.08031152487048998, ,0.00010434309491472482, ,0.0008098737400680101,0.0004499184884190951,0.004052455159575158,0.3908726364501709,-0.3496501478781322,0.0811995844864136, ,0.0041570079313660675, ,0.5244393614497296, ,1.4318973769139334e-05, ,0.050699741319283904,-0.16659479356277113,0.09580231245000001,3.9161693845169774,1.268533263822349,-0.3856295849810905, ,0.0006226864386808639,-0.0012042202510969973,0.0006066123296608599,-0.0018133853781913862,0.5147116214340075,0.12203461118013342, ,0.05515718460083008
0.010165748019083504,0.019874820212366265,-0.08028751550920123, ,0.01025305278344927,0.01983145885478687,-0.08033420616638605, ,0.00010808490496105618, ,0.0005207869308613783,0.00019226101272735657,0.003070317464599119,0.2647835478451567,-0.22950839970118234,0.0987698262096159, ,0.00312010138581959, ,0.35040609689778357, ,1.348314441841702e-05, ,0.050699741319283904,-0.16660251629564535,0.09580360874,3.9161693845169774,1.2724957223155469,-0.3841233372601342, ,0.0006226864386808639,-0.0003839517873822664,0.0,-0.0017792166629601726,0.34028968567444917,0.12577629307814764, ,0.0710291862487793
0.010168637454957235,0.019884527817676315,-0.08029918193624518, ,0.010263768714296427,0.01985380292372981,-0.08035700708748597, ,0.00011548906323763037, ,-0.00015324123798201236,-0.000127834237581687,-0.00019931231542697072,-0.26359425519787105,0.0736678824151442,-0.8733393127433765, ,0.0002820458622231697, ,0.2736948817074442, ,1.3111175554060486e-05, ,0.05073835498365503,-0.16664112996001648,0.09582564567000001,3.9157500046300076,1.2734521778139052,-0.3904574169155673, ,0.002290646077760968,-0.0017883903547397512,-0.0013212084196604034,-0.003824907748043724,-0.1739526528740558,-0.9029988427282194, ,0.08828401565551758
0.01016248250984943,0.019884250238385977,-0.08036319218833408, ,0.010274533289791367,0.019875998263134506,-0.08037992723976198, ,0.00011359372485943657, ,-9.004570117052157e-06,6.813440384899116e-05,-0.0013755540397634382,-0.0875137144857659,0.09775785380544853,0.0931095361019103, ,0.0013772698702797374, ,0.13120689083938647, ,1.282862667210616e-05, ,0.050784691380900374,-0.16667202089151337,0.09582823825,3.9157500046300076,1.2664837163258675,-0.39392312272279273, ,0.0026192665609958195,-0.0010620220377674564,0.00016914312712055198,-0.0036729446511528092,-0.14037549464937396,0.0794044599964836, ,0.10929417610168457
0.01017069439402233,0.01989161048596579,-0.08037417432605742, ,0.01028534639919369,0.019898045326314572,-0.08040296622971797, ,0.00011838692147583775, ,0.00033063796451896405,0.0003302539432903617,-0.0008425232912190262,0.012723260826194127,-0.005255329145229725,0.049626215874340365, ,0.0009634493379968753, ,0.013765894466965906, ,1.2691135765922495e-05, ,0.05086964144251684,-0.16672608002163294,0.09584509002000001,3.9157500046300076,1.266893625825164,-0.39327723155219524, ,0.003708401360224922,-0.001789887871971413,0.0009778910879039272,-0.0035027769942943808,0.005001254895934854,0.04715136967514773, ,0.12556815147399902
0.01017181014126595,0.01989609367207935,-0.08037976777296645, ,0.010296207931922572,0.019919944565956374,-0.08042612366438957, ,0.00013487973950380592, ,0.00031385029336193003,0.000426572225214271,-0.0007522864033963269,0.022511366349762897,-0.004932095349951661,0.08090122519928147, ,0.0009200003819035107, ,0.023045328799433763, ,1.2788311154271043e-05, ,0.05089280964113952,-0.1667492482202556,0.09585286776000002,3.9155403146865235,1.2670302623249292,-0.3929802557551888, ,0.003237045313234638,-0.003260906275772862,0.0009418909256202919,-0.0004435673458307457,0.008617324860682046,0.08214509658116889, ,0.14498019218444824
0.010180606992484654,0.019904272807798634,-0.0803869164429216, ,0.010307117777556595,0.019941696434119267,-0.080449399151344, ,0.00014597806478475805, ,0.0003009175335909643,0.0002719763425343473,-0.0009940382645379836,-0.011458447104842864,0.010902089766559646,0.012264328259593575, ,0.0010736081986863345, ,0.01581618068092407, ,1.2984995428641126e-05, ,0.05097775970275599,-0.1668110300832494,0.09586971953000001,3.9155403146865235,1.267850081323522,-0.39332204821680516, ,0.003605152428833434,-0.0016154886710248403,0.0008938448278741943,-0.0004435673458307457,-0.020380874816302685,0.01026946394646632, ,0.16082119941711426
0.01018288161813518,0.019910370326602596,-0.08039582393594866, ,0.010318075825833821,0.019963301382235933,-0.0804727922986791, ,0.00016432680641674784, ,0.00028644444882536355,0.0004435506132099538,-0.000863912166352466,-0.005884453008831475,0.004207665022344315,0.015478618525182246, ,0.0010124879258112678, ,0.0072340329106885025, ,1.3323003782860113e-05, ,0.05101637336712711,-0.16684964374762054,0.09588008985,3.915330624743039,1.267850081323522,-0.39332204821680516, ,0.003944248121765806,-0.0031740951167618524,0.0008661991821053404,-0.008270613315264247,-0.013355972635088514,0.006197465231768594, ,0.17942404747009277
0.010194868071215071,0.019921522246137673,-0.0804275217492578, ,0.010329081966651553,0.01998475986111304,-0.08049630271502414, ,0.0001635334428420032, ,0.00036532773770387453,0.0003770125923972463,-0.0012023771256050194,0.0005272485180510714,-0.005904494422018304,0.00551715246013235, ,0.001311988415703474, ,0.005927988307758311, ,1.35935698990512e-05, ,0.05114765982598893,-0.16691914834348856,0.09591379339000002,3.915330624743039,1.2677134448237564,-0.39321063031310866, ,0.004388168890155081,-0.001379436561011546,0.001300006544699633,-0.008270613315264247,0.0,-0.002736645513507266, ,0.1960451602935791
0.010199251356324207,0.01992888689020153,-0.0804398623661011, ,0.010340136090066385,0.02000607232093113,-0.08051993000953817, ,0.00017949074194532614, ,0.0003168996966090562,0.0005402237351067216,-0.001538236103560385,0.002222814268486157,-0.004443319041277031,0.003749889068181, ,0.0016608544222719234, ,0.004968298236433523, ,1.3950578447861152e-05, ,0.05119399622323428,-0.16698093020648236,0.09592805258,3.915330624743039,1.2677134448237564,-0.39321063031310866, ,0.00466778086067517,-0.007056535880478225,0.001563111549565139,-0.008055152355167947,0.0,-0.00235436237778297, ,0.21250319480895996
0.010203580239809083,0.019942382745250776,-0.08046541132192148, ,0.010351238086293844,0.020027239211245364,-0.08054367379191105, ,0.00018742591511975196, ,0.0005006918097801575,0.0008366203337284034,-0.0014951448957410236,0.005910581944263844,-0.006518592588466013,0.003252979940874951, ,0.001784960540305917, ,0.008799262937700529, ,1.4313609740597067e-05, ,0.051263500819102296,-0.1670581575352246,0.09595657096000001,3.9149112448560697,1.2677134448237564,-0.39321063031310866, ,0.005609411464031634,-0.00646648121425143,0.0017105574879128255,-0.004873270524494291,0.0,-0.0019040674432236504, ,0.2321760654449463
0.010215751018601421,0.019961325379082073,-0.08049530606944956, ,0.010362387845708448,0.020048260980985777,-0.08056753367236259, ,0.0001851404455135027, ,0.0004044111393002107,0.0009505662482911932,-0.0012161444760569787,0.007897267560637768,-0.0054824455242445105,0.003748901531814889, ,0.0015956603487661126, ,0.00961374244755652, ,1.4609415008959967e-05, ,0.051394787277964114,-0.1672203349255833,0.09599157079000001,3.9149112448560697,1.2677134448237564,-0.3931289515729681, ,0.00459358419899912,-0.008392611941250327,0.0014559415883085738,-0.004873270524494291,0.0,-0.0015021351121734536, ,0.248521089553833
0.010220182384024987,0.019970789389389655,-0.08050845683621828, ,0.010373585258843751,0.02006913807845764,-0.08059150926164188, ,0.00020025636572352766, ,0.0003732066936499905,0.000919644155167214,-0.0012766632076978569,0.007436113526772713,-0.005050875401990418,0.0038549904863056073, ,0.0016170644867189922, ,0.008989278430780335, ,1.4965745374972652e-05, ,0.051441123675209456,-0.16730528498719976,0.09600712627,3.9149112448560697,1.2677134448237564,-0.39321063031310866, ,0.0041685732258452185,-0.007910063360544586,0.0015033405155614574,-0.004873270524494291,0.0,-0.0013696804271232212, ,0.2683370113372803
0.010233754610247644,0.02000230622635788,-0.08054307938248512, ,0.010384830216392027,0.020089870951341626,-0.08061560017102747, ,0.00018907851439065165, ,0.0004303913991025623,0.001074946042879273,-0.001085234896813999,0.009071695742511179,-0.007211203522291154,0.009306475967572204, ,0.0015869721272871052, ,0.011588663420908148, ,1.520908525547219e-05, ,0.05161874653131662,-0.16757558063779762,0.09604990384,3.9144918649691007,1.2677134448237564,-0.39321063031310866, ,0.005393482990615018,-0.009719004664377145,0.0013633056831397342,-0.010138419659170804,9.523471434814387e-05,-0.0011869903237339329, ,0.28586506843566895
0.010239213201524343,0.020013006966717803,-0.08055177437572582, ,0.010396122609204186,0.020110460046694652,-0.08063980601232748, ,0.00020461484320102616, ,0.0004560132029433136,0.0011325928167600148,-0.0008571523023246132,0.010172489128947141,-0.0076231009067845995,0.009488622019385305, ,0.001491785708208585, ,0.012711852835566704, ,1.5605185114546905e-05, ,0.05167280566143619,-0.16767597616516255,0.09606157045000001,3.9144918649691007,1.2677134448237564,-0.39321063031310866, ,0.006167667822229785,-0.010904005976419112,0.0011589939358051533,-0.010138419659170804,3.463575261233699e-05,-0.0010748276805964715, ,0.3012051582336426
0.010244116784581895,0.020023926452863088,-0.08056182312439168, ,0.010407462328289574,0.020130905810949788,-0.08066412639787818, ,0.00022043663368835034, ,0.0005277301046050818,0.0012067047629689292,-0.00103897781504509,0.010608888093359036,-0.008366522583251034,0.009375434879829125, ,0.0016775310275623098, ,0.013511003171943007, ,1.6049573823754838e-05, ,0.05173458752442999,-0.16779181715827593,0.09607453335,3.9144918649691007,1.2677134448237564,-0.39329230905324924, ,0.006623091081352586,-0.011344523796589455,0.0013614393484795483,-0.010138419659170804,-1.7317556142097415e-05,-0.0012120399269665025, ,0.3177051544189453
0.010258453108008627,0.02004951266181377,-0.08058962671375691, ,0.010418849264816378,0.020151208689916753,-0.08068856094054519, ,0.0002141424537097065, ,0.0006201890771422499,0.0013316625937135652,-0.0013554685126570924,0.011688599997147615,-0.00906028381270257,0.009542811690150088, ,0.001998813308867871, ,0.014788918576267294, ,1.641833725918295e-05, ,0.05188904218191448,-0.16802349914450265,0.09610694060000001,3.9144918649691007,1.2675768083239911,-0.3932625698896935, ,0.007350908327338879,-0.012270586990609409,0.001719804882978869,-0.009357269850609537,0.0,-0.0002544114968122232, ,0.3326380252838135
0.010270510165330907,0.020076022571816166,-0.08061763870756333, ,0.010430283310110769,0.020171369128782535,-0.08071310925372148, ,0.00020912448183300417, ,0.0006997946636145223,0.001356617962941572,-0.00149066589721793,0.012146932861651489,-0.008839101699692795,0.004131213976248674, ,0.0021335907962230336, ,0.01502257290864719, ,1.67282334536292e-05, ,0.05204349683939897,-0.16827834932935207,0.09614323672000001,3.9142821750256163,1.2675768083239911,-0.393344248629834, ,0.00801798261185632,-0.012564138959151434,0.001856783797594592,-0.00458337792311631,0.0,-0.0010493839324681876, ,0.34946703910827637
0.010283671006148801,0.02010336479791036,-0.08064261964394587, ,0.010441764355657407,0.02019138757211124,-0.08073777095132852, ,0.00020443895723050467, ,0.0006559072958707838,0.0012489382777943826,-0.0008231258925358816,0.012076540531717021,-0.008984139864057323,0.005181765166571517, ,0.0016332781261865703, ,0.015051830463793103, ,1.6988546768353074e-05, ,0.052205674229757686,-0.16853319951420148,0.09617564397000002,3.914072485082132,1.2675768083239911,-0.393344248629834, ,0.007983255194247633,-0.012549185606780056,0.0011793567373476026,-0.005649491478782543,0.0,-0.0010493839324681876, ,0.36754298210144043
0.010290303225152647,0.020115122663127517,-0.0806495531522848, ,0.010453292293099029,0.020211264463845063,-0.08076254564781556, ,0.00022039960562921068, ,0.000715308654761178,0.0011392340360106188,-0.0005537885457152363,0.01103356962582398,-0.009974366867591993,0.0034665482131256524, ,0.00145471729684729, ,0.014873723578753583, ,1.730105919758471e-05, ,0.052282901558499933,-0.16865676324018908,0.09618601429000001,3.914072485082132,1.2675768083239911,-0.3934259273699746, ,0.008886945070636821,-0.011772353499376104,0.0008995971878108826,-0.005649491478782543,0.0,-0.002748098766626536, ,0.38268303871154785
0.0103076170123465,0.02014283103744021,-0.08067374973874333, ,0.010464867014236462,0.020231000247304128,-0.08078743295815899, ,0.0002131319944051771, ,0.0007493126720289453,0.0012594423049475272,-0.0014296848717578166,0.01070335131919073,-0.009779458858382101,0.0032749343925273355, ,0.0020473551798571403, ,0.014498260068671583, ,1.7556270138148774e-05, ,0.05248369261322977,-0.16893478162366116,0.09621712525000001,3.914072485082132,1.2674401718242254,-0.39339618820641864, ,0.00872098914884819,-0.011433366452827803,0.001781117376777894,-0.005470909733315384,0.0,-0.002748098766626536, ,0.40395212173461914
0.01030897268099086,0.020145146017483073,-0.08067567661122294, ,0.010476488411028415,0.020250595365187158,-0.08081243249786228, ,0.00024058939559287723, ,0.0007337631454695083,0.0012866999815020906,-0.0014395964339168701,0.011016144690081492,-0.009566298408694393,0.0032316441257453188, ,0.0020655369976335346, ,0.014590048288844575, ,1.7909188789215178e-05, ,0.052499138078978214,-0.16895794982228382,0.09621971783000001,3.914072485082132,1.2674401718242254,-0.39339618820641864, ,0.008517965197383574,-0.011743498830362135,0.0017954025608656451,-0.005410257212765105,0.0,-0.002748098766626536, ,0.4184880256652832
0.010330923220295166,0.02018773114613584,-0.0807290322579844, ,0.010488156375591657,0.02027005025957178,-0.08083754388295619, ,0.0002080227735498863, ,0.000711328228023975,0.0012762210977768436,-0.0014652251453641286,0.011030036513533506,-0.008593675852473634,0.0030365917522345415, ,0.0020692058537037324, ,0.013982595257695097, ,1.8101946297227317e-05, ,0.05275398826382763,-0.16933636373312083,0.09628323604000001,3.913862795138647,1.2673035353244602,-0.3933664490428629, ,0.008098791359962835,-0.011682499268554816,0.001812655648466533,-0.0038012577348259984,-0.00031148596282332553,-0.0013645544796306514, ,0.43326807022094727
0.01033723680157829,0.020198502428487836,-0.08074160100211916, ,0.01049987080020044,0.020289365371914853,-0.08086276672999722, ,0.00022223191851817833, ,0.0007410706005707261,0.001170797738919963,-0.0014167560121439496,0.009895124663379763,-0.008942023187014574,0.002789357442586387, ,0.0019817039583238413, ,0.013336913839986553, ,1.8337320907715935e-05, ,0.05282349285969565,-0.16943675926048574,0.09629879152000001,3.913862795138647,1.2673035353244602,-0.3933664490428629, ,0.008479002836882363,-0.01053628634991725,0.0017440017273883837,-0.0036108407000150257,-0.00031148596282332553,-0.0013645544796306514, ,0.4491720199584961
0.01035173339224903,0.020223373385248253,-0.08077220635439017, ,0.01051163157728675,0.020308541143052805,-0.08088810065606905, ,0.0002150638642576837, ,0.0007309219183463714,0.0010443113848277623,-0.0013779767324258179,0.007401201771457751,-0.007058283507715533,0.0013589173717753807, ,0.0018771395777370825, ,0.01022727499054123, ,1.8528998977019538e-05, ,0.05300111571580281,-0.16965299578096402,0.09633508764000001,3.9136531051951624,1.267166898824695,-0.3934183886194476, ,0.008273757444400006,-0.009298033960291061,0.001658367880211077,-0.0017199012945226435,-0.002264306000887957,-0.0010207805335392488, ,0.4638981819152832
0.010360068568943366,0.02023396484471481,-0.08078723683142951, ,0.010523438599440254,0.02032757801320221,-0.08091354527878096, ,0.00022673115368457674, ,0.0006863392629437152,0.001115265530603256,-0.0014279033190313923,0.008161718746151486,-0.006469027213715629,0.0015051503175536518, ,0.0019374691419763955, ,0.010414507476455042, ,1.875111069143213e-05, ,0.053093788510293505,-0.16974566857545473,0.09635323570000001,3.9136531051951624,1.267166898824695,-0.3935000673595882, ,0.007689772296589587,-0.010042936800252712,0.0017184422136668936,-0.0017199012945226435,-0.002264306000887957,-0.000913422256897063, ,0.47849202156066895
0.010374074254869086,0.02025506333943508,-0.08082404862978795, ,0.010535291759407879,0.020346476421959678,-0.08093910021626755, ,0.00021813826573491274, ,0.0006603963029705225,0.0010679853252874368,-0.001927714703488899,0.003346066394047783,-0.0018995680007652485,0.00598028158074499, ,0.0023006085955793827, ,0.0038476640804892084, ,1.8928093736278094e-05, ,0.053248243167777994,-0.16992329143156187,0.09639342069000001,3.9136531051951624,1.266893625825164,-0.39335891029233594, ,0.007167772652474681,-0.008605215752891136,0.002140681564305873,-0.0017199012945226435,-0.00784912354717231,0.003248302823850948, ,0.4954061508178711
0.010379999688896822,0.02026672736446722,-0.08084179623337817, ,0.010547190950094015,0.02036523680830277,-0.08096476508718946, ,0.00022973542903339766, ,0.0006664061729835565,0.001121895493027634,-0.0019950573287453354,0.0031639103273479866,-0.0031821897419388864,0.010727611799330261, ,0.002383904450611807, ,0.004487389004933022, ,1.913428326894092e-05, ,0.05332547049652024,-0.17000824149317836,0.09641416133000001,3.913443415251678,1.266893625825164,-0.3934405890324764, ,0.00758113121958065,-0.008728342407013548,0.002219734046822743,-0.006777616439047877,-0.00784912354717231,0.003007634931794216, ,0.5102360248565674
0.010394566954992423,0.020288624400862057,-0.0808799784600467, ,0.010559136064560229,0.02038385961059018,-0.08099053951073222, ,0.000219946545607305, ,0.0008405152839236572,0.0009530501904539991,-0.001755003000300425,0.0031349295273035396,-0.0024805585638930467,-0.001283592315925765, ,0.0021667501330557624, ,0.00399761853025194, ,1.9295017262835998e-05, ,0.05349537061975318,-0.17017041888353707,0.09645823519,3.9132337253081935,1.266893625825164,-0.3934405890324764, ,0.008937696816804905,-0.00806019602414084,0.001968220872358829,0.005391806713398729,-0.00784912354717231,0.003007634931794216, ,0.5289239883422852
0.010410344405378417,0.020307463841882166,-0.08090923873526887, ,0.010571126996025108,0.02040234526656172,-0.08101642310660603, ,0.00021527195744738017, ,0.000865288495632361,0.0009435490331585268,-0.0013704205090160249,0.005810689430838149,-0.005555732478472194,-0.004529615452487004, ,0.0018753829822678477, ,0.00803929567991944, ,1.9431019884018535e-05, ,0.05367299347586034,-0.1703325962738958,0.09649193873,3.9132337253081935,1.2667569893253983,-0.3934108498689205, ,0.00940464416608664,-0.008627381260534313,0.0016270488796368268,0.005391806713398729,-0.004272652862701606,-2.673260515271376e-05, ,0.5440850257873535
0.01041870249317733,0.020318080804233335,-0.08092425333856117, ,0.010583163637864506,0.02042069421333938,-0.08104241549504598, ,0.0002270226311743451, ,0.0007940044195520263,0.0009420801675620974,-0.0015396914971208826,0.005232317636164094,-0.004640114603122494,-0.0060355440618784385, ,0.001971955366302271, ,0.006993411997528201, ,1.965896406268795e-05, ,0.05376566627035104,-0.17042526906838648,0.09651008679,3.9132337253081935,1.2667569893253983,-0.39349252860906103, ,0.008414566505973277,-0.008283418832006199,0.0017816887652610412,0.005391806713398729,-0.004272652862701606,-0.0015354172581177029, ,0.5574080944061279
0.010427084288451715,0.020328670608962963,-0.0809444761316115, ,0.010595245883611035,0.02043890688742703,-0.08106851629681125, ,0.0002362547814519638, ,0.0007668023976372797,0.0011149069693851988,-0.0018678048077687911,0.005903523348416102,-0.0030118577574898275,-0.003824657592366684, ,0.002306447109155157, ,0.006627433519388383, ,1.990425309669559e-05, ,0.05385833906484173,-0.17051021913000294,0.09653212372000002,3.9132337253081935,1.266620352825633,-0.39346278944550533, ,0.007894035781285209,-0.009694113104674511,0.002125541969575661,0.005391806713398729,-0.0057362171877914595,0.0005098222452247936, ,0.5746891498565674
0.010446081397320365,0.020356213579078592,-0.08099107131661253, ,0.010607373626954126,0.020456983724711237,-0.08109472513318491, ,0.00021659621252708097, ,0.0008232103729742425,0.0010205147285121299,-0.001441880362391577,0.006587199851249987,-0.005626436164625779,-0.0064724417011581695, ,0.0019488829130384008, ,0.008663024055645027, ,2.0078077908069884e-05, ,0.05406685285244579,-0.1707419011162297,0.09658397532000002,3.9132337253081935,1.266347079826102,-0.39340331111839344, ,0.008842874073664853,-0.009335401186170348,0.0017154149870441924,0.004957268389276142,-0.0036297426318404446,-0.002420393905519882, ,0.5895521640777588
0.010453758315380755,0.020366625453137756,-0.08100488168462072, ,0.010619546761739991,0.020474925160461416,-0.08112104162597418, ,0.0002295817229829907, ,0.0008287324580954966,0.0010417755969163297,-0.0013003607481371516,0.007083309196646549,-0.005851367066368789,-0.006176511880053278, ,0.0018609223403267508, ,0.009187587589621378, ,2.0282092995994237e-05, ,0.05415180291406226,-0.17083457391072038,0.09660082709000001,3.9132337253081935,1.266347079826102,-0.39340331111839344, ,0.009022233491597793,-0.00984622230314738,0.0015844489547813395,0.004685497172611026,-0.0036297426318404446,-0.002420393905519882, ,0.6021690368652344
0.010461359804318162,0.0203774488666243,-0.08101725744787333, ,0.010631765181971401,0.020492731629330265,-0.08114746539750917, ,0.00024347940007037798, ,0.0008619800002993563,0.0011346832381623998,-0.0014723277554657965,0.007786930680308109,-0.006197807529260935,-0.005909637613323781, ,0.002048966713101445, ,0.009952341814003807, ,2.05168405569839e-05, ,0.05423675297567873,-0.1709349694380853,0.09661638257,3.9132337253081935,1.266347079826102,-0.39340331111839344, ,0.009330069319114676,-0.010562720761081968,0.0017776783605858264,0.004454688280479951,-0.0036297426318404446,-0.002420393905519882, ,0.6212661266326904
0.010478653011613676,0.02040162641075964,-0.08105032489670376, ,0.010644028781807657,0.020510403565354073,-0.08117399607064349, ,0.00023340131531879584, ,0.0008655817930466707,0.001063345564633752,-0.0015765148832227196,0.004194883399296019,-0.0028803898918247366,3.998558918376241e-05, ,0.002089338365919438, ,0.005088584543159028, ,2.0712508892754875e-05, ,0.05442982129753435,-0.1711512059585636,0.09665527127000001,3.9132337253081935,1.2662104433263366,-0.39337357195483763, ,0.009440675624090518,-0.009579154224461315,0.0018221464733815334,0.004016789536092647,-0.008347527819760822,0.002844834265423852, ,0.6342000961303711
0.010486462031100721,0.020413751813810083,-0.08106636287335464, ,0.010656337455564385,0.020527941401953156,-0.08120063326875375, ,0.00024479677481050973, ,0.000761011419556092,0.001251982273949391,-0.0016150815269075954,0.00654571902937643,-0.0018801461780767375,8.115079940968395e-06, ,0.002180616044501286, ,0.006810388186549128, ,2.093100807415949e-05, ,0.054599721420767286,-0.1713751652119161,0.09669415997000001,3.9132337253081935,1.2660738068265711,-0.39334383279128166, ,0.008355967669872977,-0.010838860443443772,0.0019846513231996017,0.00366711817005685,-0.004422216730816517,-1.4167204751341141e-05, ,0.647395133972168
0.010500581087270748,0.020437102320952354,-0.08109870277951753, ,0.010668691097713713,0.02054534557193218,-0.0812273766157387, ,0.0002377699163512659, ,0.0007586373157522911,0.001279260145872939,-0.0018895166165283014,0.00834915252258131,-0.004215091511490302,-0.002518571927223261, ,0.0024046434541959137, ,0.009352825469957091, ,2.112106713296487e-05, ,0.054669226016635306,-0.17146783800640678,0.09671230803000001,3.9132337253081935,1.2660738068265711,-0.39334383279128166, ,0.007856065588221954,-0.011371712589391346,0.0021973805380052424,0.003535236313594652,-0.004422216730816517,-1.4167204751341141e-05, ,0.6615781784057617
0.01051117421383962,0.020450515507062627,-0.08112327987740824, ,0.01068108960288382,0.02056261650748049,-0.08125422573601943, ,0.00024204274749752293, ,0.0008552666504572882,0.0012148609983994403,-0.0020276009248520604,0.005140376314980596,-0.004791618352979375,0.0034044634169441723, ,0.0025136693894140982, ,0.007027309233693391, ,2.1314385149985516e-05, ,0.054769621544000224,-0.17159140173239437,0.09673953012000001,3.913443415251678,1.2659371703268056,-0.39331409362772596, ,0.009361707362158776,-0.010011590384678984,0.002306851776973208,-0.0012253451550005355,-0.0068747598360073235,0.0011179978812898336, ,0.6747181415557861
0.010519884261514234,0.02046480390819757,-0.08114401242415345, ,0.010693532865858932,0.0205797546401726,-0.0812811802545397, ,0.0002493642361392847, ,0.0008306070604152827,0.0013826665920785128,-0.0020756788819599136,0.007038251746791465,-0.004639646573715571,0.002685678974104386, ,0.0026287102949309727, ,0.00842990557133789, ,2.1518657572108316e-05, ,0.05495496713298161,-0.17182308371862112,0.09678749285,3.913443415251678,1.2658005338270404,-0.39328435446417004, ,0.009959021201358229,-0.010685464282722077,0.00230551621363439,-0.0012253451550005355,-0.0042272140616813215,-0.001602948986747982, ,0.6875090599060059
0.010535377417717038,0.020490487262513166,-0.08118346553333337, ,0.010706020781579305,0.020596760400968417,-0.08130823979676396, ,0.00023660463732142994, ,0.0007672096391853581,0.0012967445766482327,-0.001987922562781479,0.004492721897091273,-0.0029457021449639273,0.009233401901955743, ,0.0024943923595018517, ,0.005372309665349074, ,2.168224989887117e-05, ,0.0550476399274723,-0.17192347924598603,0.09680823349,3.9132337253081935,1.2656638973272747,-0.39325461530061406, ,0.00867907481133237,-0.010845889107675553,0.002248244392378264,-0.0046594555701701375,-0.009168029570129393,0.003344761897227003, ,0.7015931606292725
0.010544866649096093,0.02050523537722474,-0.08120665816281483, ,0.010718553245141146,0.020613634220213773,-0.08133540398867913, ,0.0002418529108457392, ,0.000832862281596963,0.0012859918141071842,-0.00213212706434438,0.004093233084904806,-0.0036339994118498448,0.009482790640280236, ,0.0026255285838412364, ,0.005473619348166459, ,2.1852386495027314e-05, ,0.05514803545483722,-0.17204704297197362,0.09683545558000001,3.9132337253081935,1.2656638973272747,-0.39325461530061406, ,0.009312867856400444,-0.010417942649905322,0.0024036232865550025,-0.0046594555701701375,-0.009168029570129393,0.0036428580762551854, ,0.7145771980285645
0.010553973350664783,0.020518001200827068,-0.08122756503231143, ,0.01073113015179647,0.02063037652764044,-0.08136267245679271, ,0.0002495330888150683, ,0.0008444333289969385,0.0013028679261077357,-0.0020222605862271225,0.0036453067780693213,-0.0027356926651724072,0.01111582086161531, ,0.002549523555217482, ,0.004557661223774241, ,2.20346157556489e-05, ,0.05524843098220214,-0.17215516123221278,0.09685878880000001,3.9132337253081935,1.2655272608275094,-0.3931431973969178, ,0.009559927948378037,-0.01086552730942081,0.0022899384013801037,-0.0046594555701701375,-0.01072927054175183,0.0051458593616226095, ,0.7275810241699219
0.01057306225388545,0.020543855123968828,-0.08126412631441468, ,0.010743751396952765,0.02064698775236693,-0.0813900448281327, ,0.0002358529090308396, ,0.0008369986244321461,0.0011903141610876663,-0.0016282002235250854,0.004590112153104532,-0.004121729031704288,0.010997514021765065, ,0.0021836781968216554, ,0.006169098781623529, ,2.2177142030734184e-05, ,0.055456944769806206,-0.17237912048556528,0.09690286266,3.9132337253081935,1.2655272608275094,-0.39322487613705837, ,0.009657474170441093,-0.010312339695601537,0.0018972302161520097,-0.004356911334664309,-0.008755502246316238,0.005515751974526914, ,0.7436201572418213
0.010583975728937205,0.020557675546598396,-0.08128318726137258, ,0.010756416876173257,0.02066346832289875,-0.08141752073024885, ,0.0002428446862456636, ,0.0009535928481984841,0.0011733813532137905,-0.00158773144870356,0.007334464856616417,-0.009962534439735923,0.001639590145997682, ,0.0021924995492376797, ,0.012371195058917137, ,2.2330727828855756e-05, ,0.055580508495793796,-0.17250268421155288,0.09692489959000002,3.9132337253081935,1.2653906243277442,-0.39327681571364326, ,0.010947413168148923,-0.010034949891262962,0.0019195964714389011,-0.004153013045606734,-0.00270219984142156,-0.0032616690387866094, ,0.7571930885314941
0.010592153730678455,0.020568692212473517,-0.08130315805527619, ,0.010769126485176663,0.020679818667128362,-0.08144509979121017, ,0.00025261809349053343, ,0.0008437962477111885,0.0012539595842690197,-0.001998912878008204,0.003751404012903696,-0.0037161420231615317,0.007276635213169912, ,0.0025060046768708663, ,0.005280411307125981, ,2.250117084926978e-05, ,0.05567318129028449,-0.17259535700604356,0.09694564023,3.9132337253081935,1.2651173513282132,-0.39305397990625024, ,0.009463248214930248,-0.01032921651557045,0.0022684151979493025,-0.00400537756442955,-0.009221759819325218,0.002054594968327841, ,0.7700710296630859
0.010611086706763188,0.020592019254212612,-0.08133634719257578, ,0.010781880119836874,0.020696039212336134,-0.08147278163960608, ,0.00024208448932933147, ,0.0008899906691737128,0.001150329103422048,-0.0015481008883269603,0.0038588156450206058,-0.004980428077192804,0.006447543817418152, ,0.002124136718253976, ,0.006300406495255228, ,2.2692953827465798e-05, ,0.05588169507788855,-0.1727961480607734,0.09698582522000002,3.9132337253081935,1.2651173513282132,-0.39305397990625024, ,0.01028877554197351,-0.010013814314403584,0.0018188456915777338,-0.003727338381179861,-0.008550326121639727,0.0015616087527182934, ,0.7818260192871094
0.010620715671616305,0.020603739657817057,-0.08135476122361368, ,0.01079467767618337,0.02071213038519039,-0.08150056590454591, ,0.00025153594930995437, ,0.000996089143125508,0.0011997926019771596,-0.0018946747827041175,0.006072264158020859,-0.008615635669837002,0.004098908964171098, ,0.00245387212401676, ,0.01054047294838977, ,2.2899840596478508e-05, ,0.05598981333812769,-0.17289654358813833,0.09700656586,3.9132337253081935,1.2649807148284475,-0.39302424074269426, ,0.011243499176289412,-0.009777190556303123,0.0022114135110370683,-0.003599145176392529,-0.004753280309283405,-0.00037179059022059233, ,0.7952539920806885
0.010620715671616305,0.020603739657817057,-0.08135476122361368, ,0.010807519050400394,0.02072809261174778,-0.08152845221565799, ,0.00028377406540025036, ,0.000996089143125508,0.0011997926019771596,-0.0018946747827041175,0.006072264158020859,-0.008615635669837002,0.004098908964171098, ,0.00245387212401676, ,0.01054047294838977, ,2.3171214621148618e-05, ,0.05598981333812769,-0.17289654358813833,0.09700656586,3.9132337253081935,1.2649807148284475,-0.39302424074269426, ,0.011243499176289412,-0.009777190556303123,0.0022114135110370683,-0.003599145176392529,-0.004753280309283405,-0.00037179059022059233, ,0.8071060180664062
0.01063914489173531,0.02062729038865146,-0.08139450241911214, ,0.010820404138827518,0.020743926317453705,-0.08155644020309023, ,0.0002695972930571282, ,0.0009482033570110376,0.001291307708431568,-0.002269652129881635,0.0024978266697053327,-0.002698784877108419,0.011020515444662484, ,0.0027781083482791, ,0.0036773057833925926, ,2.3403679536103354e-05, ,0.05619060439285753,-0.17308961190999395,0.09705193601,3.9132337253081935,1.2648440783286823,-0.3929945015791386, ,0.01053937818548695,-0.010266731704557306,0.0025311952200858102,-0.003371740878417578,-0.0118179204192354,0.006269536360029308, ,0.818397045135498
0.010648588037256223,0.02064036340364633,-0.0814206400240894, ,0.010833332837959175,0.02075963192714259,-0.08158452949750906, ,0.0002742542280103014, ,0.0009238117089325662,0.0013007643040593869,-0.002597538291755401,0.006166515031924676,-0.007275137673215356,0.00456838321792814, ,0.0030483800657745376, ,0.009536956311367792, ,2.363913469869947e-05, ,0.05629099992022245,-0.17319000743735885,0.09708045439000001,3.9132337253081935,1.2647074418289168,-0.3928830836754421, ,0.009832044086534583,-0.009549177677553596,0.002908840672023375,-0.003269162571526411,-0.004510041817460949,0.00046286371581138715, ,0.8297700881958008
0.010669003680414086,0.02066744274599886,-0.0814726302937986, ,0.010846305044444664,0.020775209865038512,-0.08161271973010002, ,0.0002503489081191685, ,0.0008981313930424141,0.0011207890329542542,-0.001991296979553677,0.003978132848115622,-0.006169647262149502,0.0038501262118738494, ,0.002455213171262006, ,0.0073409868727096605, ,2.3817443449179035e-05, ,0.056507236440700735,-0.1733985212249629,0.09713878744000001,3.9132337253081935,1.2645708053291513,-0.3929350232520268, ,0.009949629911940937,-0.00872814261355921,0.0022606885495316496,-0.003066893353695786,-0.006285075697785713,-0.00016157253563206606, ,0.8502950668334961
0.010677273541348935,0.020677476549229606,-0.08148896199893853, ,0.01085932065508793,0.020790660554755078,-0.08164101053256662, ,0.0002628127228768431, ,0.0008474705569919444,0.0011880284092820668,-0.0016575256210966873,0.0026371150180728173,-0.002430477239658398,0.007540058645676209, ,0.002208395125610785, ,0.0035863066263959412, ,2.401638882957777e-05, ,0.05659990923519143,-0.1734834712865794,0.09715693550000001,3.9132337253081935,1.2644341688293859,-0.39290528408847103, ,0.009664152775070989,-0.010318138548652262,0.0019081334145335178,-0.00298950861568048,-0.011059374852227234,0.003177827994200088, ,0.8623790740966797
0.010692527814411913,0.020700314200329653,-0.08151721948539324, ,0.01087237956684766,0.02080598441929632,-0.08166940153713009, ,0.0002582096529983152, ,0.0009241351392138815,0.0011602135290324548,-0.001565141982396353,0.005546986117108552,-0.005915784700390847,0.0007810776100569915, ,0.0021563373144152073, ,0.008109597005732234, ,2.420025603609057e-05, ,0.05678525482417282,-0.173676539608435,0.09719063904000001,3.9130240353647094,1.2642975323296204,-0.3927938661847745, ,0.01031956990590898,-0.010262983151971956,0.001860746858597083,0.0,-0.00643557187298815,-0.00031783891671931155, ,0.8754260540008545
0.010703578990365132,0.02071378703488649,-0.08153767454317239, ,0.010885481676837118,0.020821181881056767,-0.08169789237653016, ,0.00026512637450001674, ,0.0009166901631203459,0.0011148677964539077,-0.0017119829207650553,0.0027856343163349703,-0.0032786958338735244,0.00410072601765688, ,0.002239226781664342, ,0.0043022790356619725, ,2.4392860829344862e-05, ,0.05690881855016041,-0.17379238060154836,0.09721397226,3.9130240353647094,1.264160895829855,-0.39268244828107823, ,0.010202548270618212,-0.009510244064516688,0.001961769349346206,0.0,-0.009885762886405884,0.0028101399539678914, ,0.8925189971923828
0.010722811902160342,0.02073577714486513,-0.08157382014464204, ,0.010898626882323695,0.02083625336182189,-0.08172648268402352, ,0.00025359855747654535, ,0.0009063203590498842,0.0011666307985587052,-0.002102899114720178,0.0035145167153624026,-0.0035812405086723806,0.0025653891412354326, ,0.0025699472173694427, ,0.005017679870457465, ,2.455724283662885e-05, ,0.0570941641391418,-0.17397772619052976,0.09725415725000001,3.9130240353647094,1.264160895829855,-0.39268244828107823, ,0.009774224314339428,-0.009456080743844245,0.002339719670975323,-3.846391336650586e-05,-0.008641085313285985,0.002214374411662781, ,0.903839111328125
0.01073146558717783,0.020746953492333027,-0.08159651181911683, ,0.010911815080729576,0.020851199282768327,-0.08175517209338382, ,0.00026185149852221197, ,0.0009292167231488414,0.0012094203928694678,-0.002314526837416245,0.00729354683449825,-0.007610929065883505,0.0002137869864485951, ,0.002771854232528842, ,0.010541445185860804, ,2.4733271796835915e-05, ,0.05719455966650672,-0.17407039898502044,0.09728008305000001,3.9132337253081935,1.2640242593300897,-0.39265270911752226, ,0.009696126566455217,-0.00926152196962097,0.0026099969719809934,0.0007972759306181271,-0.0028178507016085644,0.00024442571338340133, ,0.9157149791717529
0.01073146558717783,0.020746953492333027,-0.08159651181911683, ,0.010925046169630668,0.020866020064464457,-0.08178396023890216, ,0.00029459667442442304, ,0.0009292167231488414,0.0012094203928694678,-0.002314526837416245,0.00729354683449825,-0.007610929065883505,0.0002137869864485951, ,0.002771854232528842, ,0.010541445185860804, ,2.496775784287177e-05, ,0.05719455966650672,-0.17407039898502044,0.09728008305000001,3.9132337253081935,1.2640242593300897,-0.39265270911752226, ,0.009696126566455217,-0.00926152196962097,0.0026099969719809934,0.0007972759306181271,-0.0028178507016085644,0.00024442571338340133, ,0.93284010887146
0.010738844624853777,0.020756885762897904,-0.08161447638471984, ,0.010938320046757363,0.020880716126870622,-0.08181284675538594, ,0.00030736819442394296, ,0.0009711340322339993,0.0012329463034594307,-0.002375300344038978,0.007436236143439054,-0.008071200642497812,0.00027657949056498164, ,0.0028469825465164043, ,0.010974601938878425, ,2.522031763244099e-05, ,0.057271786995248965,-0.17414762631376268,0.09730211998,3.9132337253081935,1.2640242593300897,-0.39265270911752226, ,0.010159058385827016,-0.009395953687865504,0.0026984264814501105,0.0007972759306181271,-0.0028178507016085644,0.0003023301860715004, ,0.9446141719818115
0.010768160917141853,0.02079214931997106,-0.08168955574380207, ,0.010951636609993907,0.02089528788933956,-0.08184183127815892, ,0.00025978593634487686, ,0.0009575941882761837,0.0011599031376761729,-0.0021068596505101666,-0.004877389392990301,0.006778463238811336,0.01960616837570506, ,0.002588671378363653, ,0.008350837750145702, ,2.53767907770233e-05, ,0.05758841904309217,-0.17441019923148632,0.09738248996000001,3.9132337253081935,1.2634777133310278,-0.3922887162428772, ,0.010656426155278464,-0.009564781315624687,0.0022425470252006195,0.0007972759306181271,-0.02391258541168958,0.018176594116820197, ,0.9561920166015625
0.010777319721753657,0.020802896046344603,-0.08170960380426229, ,0.010964995757378384,0.020909735770616805,-0.08187091344306094, ,0.0002695511465375823, ,0.0009409178917339713,0.0010302880844903447,-0.0016315468594194514,0.018301394947329044,-0.022708929320759023,-0.01864423705245448, ,0.002146803477384309, ,0.029165673794750376, ,2.554731695716879e-05, ,0.05768881457045709,-0.1744951492931028,0.09740452689000001,3.9132337253081935,1.2633410768312625,-0.3922589770793213, ,0.009807927407810658,-0.00806361154242643,0.002099210795993675,0.0007972759306181271,0.017786283461203388,-0.01713631071466427, ,0.9680080413818359
0.01079606906298073,0.020818639865333853,-0.0817421791559569, ,0.01097839738710284,0.020924060188840885,-0.08190009288644756, ,0.00026323717188684134, ,0.0010100829485368509,0.0011226616523067018,-0.002269453404957917,0.002809199168671995,-0.0034460146241075524,-8.973479916222185e-05, ,0.0027259962409658593, ,0.004445966340249235, ,2.5701906615019817e-05, ,0.05785871469369003,-0.17463415848483885,0.09744341559000001,3.9136531051951624,1.2634777133310278,-0.3924520737231583, ,0.010556552638951139,-0.008680847254891629,0.0025219777580747314,0.004264642873286821,-0.00906837765987072,0.0029176706366356125, ,0.9848430156707764
0.010809033724345846,0.02083333050256627,-0.08177279158805317, ,0.010991841397512837,0.02093826156154381,-0.08192936924518956, ,0.0002625751991738729, ,0.000990880659783342,0.0010155226697967537,-0.002064807550364876,0.007189545228460385,-0.008627989280182139,-0.0024764175969178475, ,0.0025053065670387724, ,0.011230839664668164, ,2.5851385553299624e-05, ,0.05799772388542607,-0.17474227674507797,0.09747711913000001,3.9136531051951624,1.2633410768312625,-0.3925040132997429, ,0.010276905085387783,-0.007670074743207994,0.0023612231722502223,0.004264642873286821,-0.0012381930765385195,0.0011886827727584412, ,0.9965970516204834
0.01081828315613417,0.02084431777248499,-0.08179410474724497, ,0.011005327687107772,0.020952340305651452,-0.0819587421566736, ,0.00027158792466199167, ,0.0009612219998986556,0.0010129196086093237,-0.0019507945296473785,0.0021146731654754624,-0.002225022574569275,0.003874360585608759, ,0.00239907339685483, ,0.0030696201761573607, ,2.6059756951049522e-05, ,0.058098119412790986,-0.17482722680669446,0.09750045235000002,3.9136531051951624,1.2632044403314968,-0.3924742741361869, ,0.010197916665342553,-0.0080788407268785,0.0021728020079116086,0.004264642873286821,-0.010046182709711905,0.006889106088207112, ,1.0063190460205078
0.01081828315613417,0.02084431777248499,-0.08179410474724497, ,0.011018856154540194,0.020966296837483932,-0.08198821125880036, ,0.0003046075472075561, ,0.0009612219998986556,0.0010129196086093237,-0.0019507945296473785,0.0021146731654754624,-0.002225022574569275,0.003874360585608759, ,0.00239907339685483, ,0.0030696201761573607, ,2.6322144571405733e-05, ,0.05819079220728168,-0.17489673140256248,0.09752119299,3.9136531051951624,1.262931167331966,-0.3921697595886538, ,0.010571455686824537,-0.0077595901956031,0.002298861526915861,0.004264642873286821,-0.015054692038428805,0.005140776952844211, ,1.018904209136963
0.010838848839038543,0.020866119386817997,-0.08183918250163111, ,0.011032426698616309,0.020980131572755745,-0.08201777618998553, ,0.0002869962922775279, ,0.0010925399979351447,0.001171763815685923,-0.0024124081445611387,-0.0007998605106177069,-0.0002386920418929695,0.002605329487166958, ,0.002895925956025788, ,0.0008347159071220924, ,2.6548175087778925e-05, ,0.058322078666143494,-0.17498940419705317,0.09754971137000001,3.9136531051951624,1.262931167331966,-0.3921697595886538, ,0.011569271802577285,-0.009052936300443525,0.0026328614082644633,0.004264642873286821,-0.015054692038428805,0.005140776952844211, ,1.0317590236663818
0.010849019354647316,0.020876767496162105,-0.0818606128526004, ,0.011046039218295526,0.020993844926576487,-0.08204743658915938, ,0.0002956806722230059, ,0.0009888117015537617,0.0010301028204574233,-0.0024022804931714244,-0.002551433516691055,0.0009707992064657002,0.0015436196072036122, ,0.0027946040810311445, ,0.0027298835157133815, ,2.6784555714635654e-05, ,0.05843019692638264,-0.1750666315257954,0.09757434088000001,3.9136531051951624,1.262931167331966,-0.39225143832879433, ,0.010312643073078763,-0.007450172141995548,0.002574977613967023,0.004264642873286821,-0.015054692038428805,0.004159031469767821, ,1.0416350364685059
0.010860090244121094,0.020887483776257695,-0.08188593094250336, ,0.011059693612690349,0.02100743731345099,-0.08207719209576576, ,0.00030134894155553406, ,0.0011880933205388531,0.0013110119030405338,-0.002847383569696065,0.0012466109512238711,-0.00222736615229058,-0.0020468017398459605, ,0.0033522993812006266, ,0.0025524887174900052, ,2.7025793462950786e-05, ,0.05853059245374756,-0.17515158158741187,0.09760285926000001,3.913862795138647,1.262931167331966,-0.39225143832879433, ,0.012217673664120748,-0.009823988336996737,0.003118404761158967,0.006065994108535524,-0.012838415379562844,0.00235180646205717, ,1.051652193069458
0.01087245473129285,0.0208994597109203,-0.08191596730172016, ,0.011073389781066279,0.021020909147279693,-0.08210704234976254, ,0.0003027119650820986, ,0.0011136598292894526,0.0012174222603790192,-0.0030552675462507737,0.003942632568139635,-0.005055792491887268,-0.009893605065604702, ,0.0034723212631628136, ,0.006411348455836385, ,2.7264430482143305e-05, ,0.05864643344686093,-0.17524425438190258,0.09763526651000001,3.914072485082132,1.2627945308322006,-0.3921400204250978, ,0.010805846226197992,-0.008368179158892246,0.0033414750409062307,0.00873859560139202,-0.0063113273715915096,-0.0023262954095963836, ,1.0652902126312256
0.010883237537693689,0.020909656481170227,-0.08194516962553493, ,0.01108712762284204,0.021034260841359106,-0.08213698699162113, ,0.00030641689792198037, ,0.0011535191454816133,0.0012786804843607164,-0.0032041385208728093,0.0018357225682979514,-0.0005055895959470782,-0.008653177256051803, ,0.0036376000138853342, ,0.0019040740136792582, ,2.7504481431772076e-05, ,0.05874682897422585,-0.17532148171064482,0.09766508118000002,3.9142821750256163,1.2625212578326697,-0.3919171846177048, ,0.01098406177932411,-0.009189447724799859,0.003459776611642051,0.01296876593635629,-0.011769176171747246,0.002654192019023915, ,1.0753130912780762
0.010902341300239886,0.020929252290092192,-0.08199636257937071, ,0.011100907037589,0.02104749280838199,-0.0821670256623258, ,0.0002872891576411697, ,0.0009588776788313847,0.0012735677755341102,-0.0029927614285267185,-0.010566322494028717,0.01009883000792753,0.026462243082100045, ,0.0033908763247746517, ,0.01461620806969962, ,2.7707912827862822e-05, ,0.058932174563207235,-0.17546049090238086,0.09771952536,3.9144918649691007,1.262247984833139,-0.39169434881031223, ,0.010580204968916943,-0.00869789745565656,0.00307506013899614,-0.00542471841470877,-0.03017435021943701,0.01846077665977788, ,1.0852391719818115
0.010913181332773907,0.020942456265187294,-0.0820222592961587, ,0.011114727925031436,0.021060605460437927,-0.08219715800337386, ,0.0002918386865625123, ,0.0011351831739048214,0.0013377793569430097,-0.0022227155530816813,0.015592998408289677,-0.020976524897462157,-0.005589205385044768, ,0.0028317413151788214, ,0.026137256858372142, ,2.791481762126535e-05, ,0.0590480155563206,-0.17556088642974577,0.09774804374000001,3.9144918649691007,1.2621113483333735,-0.3916646096467561, ,0.012305101343162705,-0.01002634405360888,0.002710825650102111,-0.00542471841470877,0.010483604703156364,-0.010821439596810157, ,1.0957670211791992
0.01092567757167324,0.020955784269760032,-0.08204552977084166, ,0.011128590185046049,0.02107359920901371,-0.08222738365677583, ,0.00029685808799237516, ,0.0011033556668394934,0.0013128786166970528,-0.002501593240826208,0.005023198430664171,-0.008451399412545711,0.009476024118180127, ,0.0030329874269891988, ,0.009831514349592192, ,2.8125860332953414e-05, ,0.05917930201518242,-0.1756612819571107,0.09777656212000001,3.9144918649691007,1.262247984833139,-0.3917760275504528, ,0.012109835571346973,-0.009560023296294557,0.0028277670015977277,-0.00542471841470877,-0.006485973536730925,0.0031038188161947055, ,1.1061210632324219
0.010936685779231549,0.02096967040823903,-0.08207004097409829, ,0.011142493717662207,0.021086474464993385,-0.08225770226505319, ,0.000302021282889491, ,0.001376358761489608,0.0012017224517885889,-0.002631004109155079,0.006663121646880592,-0.007330046508245534,-0.01134468392869786, ,0.0032032300750731123, ,0.009905895808461872, ,2.8341152935363384e-05, ,0.05931058847404423,-0.17575395475160138,0.09780508050000002,3.9142821750256163,1.262247984833139,-0.3917760275504528, ,0.013759162180436534,-0.009365962373176948,0.0029695770917225954,0.014862168170011182,-0.0054135510461779624,0.0023078295869728067, ,1.1176459789276123
0.010948432433714218,0.02098483033423503,-0.08210455283606828, ,0.01115643842306179,0.021099231638658966,-0.08228811347124089, ,0.0003000810837812525, ,0.0012977268975068296,0.0014315191105846712,-0.0036093681054782454,0.0032696058516781946,-0.0007955425406532303,-0.004682027648103567, ,0.004094005396347866, ,0.0033649977335426344, ,2.85492076012339e-05, ,0.05943415220003183,-0.17586207301184054,0.09784137662,3.9142821750256163,1.261974711833608,-0.3915531917430598, ,0.012284267260022975,-0.010178233690173278,0.003902207623713866,0.014541229671364037,-0.012451719879533843,0.008122524949686852, ,1.1282169818878174
0.010966330490992134,0.0209971563976454,-0.08214433572611293, ,0.011170424201578898,0.02111187113969064,-0.08231861691888477, ,0.0002918692325298339, ,0.0013659027364031182,0.0013316612316938144,-0.0034305795127917266,-0.0005672683413078228,0.005256033505226002,-0.006244240409572748, ,0.003925288233352569, ,0.0052865566396238595, ,2.8740291574169603e-05, ,0.05958088412464209,-0.1759701912720797,0.09788285790000001,3.9149112448560697,1.261701438834077,-0.391330355935667, ,0.012792793415808948,-0.010097785980353097,0.0036542352649690303,0.022512387937702587,-0.01955179525275146,0.013908125904586234, ,1.1377811431884766
0.010979927499313508,0.021010233012894335,-0.08217257556572917, ,0.011184450953699885,0.021124393377167084,-0.08234921225204252, ,0.0002933648771015086, ,0.0013952779922183091,0.0010595611925715872,-0.002734294003431271,-0.003918179376922097,0.013917068627143966,-0.018044356885675572, ,0.0032474350330026136, ,0.014458109442438744, ,2.893012379969e-05, ,0.05971217058350391,-0.17607830953231882,0.09791396886,3.9151209347995546,1.2615648023343118,-0.3912189380319707, ,0.01243167105050894,-0.009838359816337927,0.002859750721723519,0.04081447319736898,-0.026556003626562057,0.019626358559313842, ,1.1475141048431396
0.010992177200611047,0.02102054999032652,-0.08219514446700797, ,0.011198518580063247,0.02113679875956601,-0.08237989911528273, ,0.0003003744684274336, ,0.0009578964634716985,0.0015132141573166137,-0.002677377389992396,-0.005730916205722905,-0.003789348063960053,0.05384796010483234, ,0.0032211383716129784, ,0.006870411863147474, ,2.912731466381021e-05, ,0.059828011576617275,-0.17616325959393528,0.09793989466000001,3.915330624743039,1.2615648023343118,-0.3912189380319707, ,0.012891854579333078,-0.00960152700400854,0.002902480233236152,-0.03684290458162699,-0.021544365097095754,0.015556785062072528, ,1.1632599830627441
0.011016848757716665,0.021047233316901805,-0.08223333838780607, ,0.011212626981459438,0.021149087694764198,-0.08241067715368516, ,0.0002831121068854722, ,0.001220292225214541,0.001059334346280309,-0.0016492930673403607,0.0014882786845910223,-0.0029653984923331757,0.004470157022597959, ,0.0023089976167387357, ,0.0033179152564729894, ,2.929426107198064e-05, ,0.06011375269296358,-0.17637177338153937,0.09798656110000001,3.9151209347995546,1.2615648023343118,-0.3912189380319707, ,0.013392173519400336,-0.009255152718426137,0.0019027384447583265,0.0058266662394610294,-0.013074420944710227,0.008715386676341207, ,1.1730260848999023
0.011028729357298397,0.021058299965832823,-0.08225426275489861, ,0.011226776058830962,0.021161260590038426,-0.08244154601284022, ,0.0002913733083691084, ,0.0013324711359536526,0.0012462288707218523,-0.0024873557685941255,0.009358791076274704,-0.012964730805683427,-0.006761777557781704, ,0.0030847211293614134, ,0.01598972217325818, ,2.9515823767713373e-05, ,0.0602450391518254,-0.17645672344315583,0.09800989432000001,3.9151209347995546,1.261428165834546,-0.391107520128274, ,0.013845483157057307,-0.009341588677831227,0.0028825210857763304,0.005531912898782572,0.0,-0.0019129790489291712, ,1.1816041469573975
0.011028729357298397,0.021058299965832823,-0.08225426275489861, ,0.011240965713271904,0.021173317852065124,-0.0824725053388485, ,0.00032542773452701765, ,0.0013324711359536526,0.0012462288707218523,-0.0024873557685941255,0.009358791076274704,-0.012964730805683427,-0.006761777557781704, ,0.0030847211293614134, ,0.01598972217325818, ,2.978570027103424e-05, ,0.0602450391518254,-0.17645672344315583,0.09800989432000001,3.9151209347995546,1.261428165834546,-0.391107520128274, ,0.013845483157057307,-0.009341588677831227,0.0028825210857763304,0.005531912898782572,0.0,-0.0019129790489291712, ,1.189810037612915
0.011043044639750532,0.021071389423492688,-0.08228760972428373, ,0.011255195846028255,0.021185259886921343,-0.08250355477832019, ,0.00032342987358832735, ,0.0013034123877095154,0.001491609053508986,-0.00328158762867658,0.004059014758343299,-0.006311527729865315,0.007701701229786037, ,0.0038330925876670094, ,0.007504064412886542, ,3.0048503542469715e-05, ,0.06038404834356144,-0.17655711897052073,0.09804489415,3.915330624743039,1.2611548928350151,-0.3908846843208812, ,0.013556705936924398,-0.010383509605603625,0.003621830723055935,0.0,-0.01009460757936184,0.006356725958327567, ,1.197986125946045
0.01105757167373327,0.021083050870343525,-0.08232397757225, ,0.011269466358497519,0.021197087100084666,-0.0825346939783763, ,0.0003198515639100397, ,0.001383509905894107,0.0013837523219211926,-0.004332739904563882,-0.013851060412818725,0.01978445710695659,0.013993777248575211, ,0.004754104040587421, ,0.02415112038911757, ,3.030202976997e-05, ,0.060507612069549035,-0.17664979176501144,0.09808248656000002,3.9157500046300076,1.2608816198354846,-0.3906618485134884, ,0.012907636229389386,-0.009125828227195352,0.0043688457268239176,0.020578282428278215,-0.04012433503308862,0.030879635517520106, ,1.2070810794830322
0.01106966735104417,0.02109388017309282,-0.08235835532247845, ,0.011283777152228645,0.021208799896434052,-0.08256592258664644, ,0.00031958366499285106, ,0.0015169620098468405,0.0013609791786301545,-0.0046044498088892525,-0.005989010745443435,0.010732864534546704,-0.0052177465635746875, ,0.00503531489646513, ,0.01229075379121868, ,3.0551397004603535e-05, ,0.060615730329788176,-0.17671929636087946,0.09811878268000002,3.915959694573492,1.260744983335719,-0.3905504306097919, ,0.013437686428557175,-0.00848278251315184,0.004756288898178561,0.027957585978543167,-0.02660616155990244,0.01988668561591109, ,1.2157111167907715
0.011088164927731438,0.02111139498874663,-0.08240911062531296, ,0.011298128128922134,0.021220398680249553,-0.0825972402512696, ,0.0003022566902123027, ,0.0010495557997536927,0.001650868743243767,-0.003856948718796498,-0.0027737166234184287,-0.006260939841842229,0.04351091720426631, ,0.004324695180430849, ,0.00684783693998799, ,3.077157330090587e-05, ,0.060785630453021114,-0.1768274146211186,0.09817452315000001,3.9161693845169774,1.260744983335719,-0.3905504306097919, ,0.012496305182837867,-0.008997606657482636,0.004133059553710431,-0.030935649359165703,-0.016177525223562594,0.011431761093138868, ,1.2239739894866943
0.011101459758325754,0.021128729158462128,-0.08244852788730145, ,0.011312519190429573,0.021231883855213397,-0.08262864662089386, ,0.0002960231976260791, ,0.001660570802726261,0.0013328676349352022,-0.00405837538222147,0.0029668140264521724,-0.001308557061608871,-0.01801417448242657, ,0.004583060360299214, ,0.0032425770538425645, ,3.0979417352253156e-05, ,0.06093236237763138,-0.17692781014848352,0.09821859701,3.915959694573492,1.260744983335719,-0.3905504306097919, ,0.015176226060846117,-0.008910220290855064,0.004360473999452505,0.028267309146465795,-0.012347404418624704,0.008346569559500092, ,1.2319869995117188
0.011101459758325754,0.021128729158462128,-0.08244852788730145, ,0.011326950238753755,0.02124325582440975,-0.08266014134467585, ,0.00032976138239441727, ,0.001660570802726261,0.0013328676349352022,-0.00405837538222147,0.0029668140264521724,-0.001308557061608871,-0.01801417448242657, ,0.004583060360299214, ,0.0032425770538425645, ,3.123321168553785e-05, ,0.06093236237763138,-0.17692781014848352,0.09821859701,3.915959694573492,1.260744983335719,-0.3905504306097919, ,0.015176226060846117,-0.008910220290855064,0.004360473999452505,0.028267309146465795,-0.012347404418624704,0.008346569559500092, ,1.2399961948394775
0.011115568831748524,0.021142323869689898,-0.08248848064345801, ,0.011341421176048649,0.021254514990325525,-0.0826917240722804, ,0.0003238889012220403, ,0.0016392580598636485,0.001309483902246676,-0.003892962430074129,0.0037330118197417515,-0.004347176414250593,-0.012252871270569581, ,0.004422337793411962, ,0.005730036573078523, ,3.1474887251523944e-05, ,0.06107909430224165,-0.17700503747722576,0.09826007829000001,3.915959694573492,1.2604717103361882,-0.39040927354253996, ,0.015458045538112199,-0.008456330160562586,0.004211742866208356,0.02176513486892274,-0.010030288063804913,0.007923923552904569, ,1.2487940788269043
0.011131314276329558,0.021153548781045937,-0.08252732015040841, ,0.011355931904619117,0.02126566175485049,-0.0827233944538806, ,0.00031853968405182046, ,0.001566458395587605,0.001441095373665249,-0.004396800370311512,-0.017214087973680497,0.021671980799653556,0.02399281848327668, ,0.004884915687857644, ,0.027676697326505365, ,3.170545269901207e-05, ,0.06121810349397769,-0.17708998753884223,0.09829896699000001,3.9163790744604614,1.2600618008368918,-0.39007501983145043, ,0.015348041655906643,-0.00951066277593489,0.004414859068736143,0.01784848837427261,-0.046598693745556835,0.03774440968203464, ,1.2604050636291504
0.011140074547254233,0.021159970391214186,-0.08254850441306516, ,0.011370482326920969,0.02127669651927751,-0.08275515214015693, ,0.00033078091996940185, ,0.001692914947146759,0.0012491857440593101,-0.004313648421205803,-0.018025451351996367,0.02638500429350664,0.007278013722045754, ,0.004799373786568956, ,0.0319544260865062, ,3.195013118832221e-05, ,0.061295330822719936,-0.17713632393608758,0.09832100392000001,3.916588764403946,1.2599251643371263,-0.38996360192775414, ,0.015561977953176579,-0.008841646817512584,0.004285394543987088,0.036779929791496864,-0.04877519403841682,0.039520230162605544, ,1.2684440612792969
0.011166907976523737,0.02117710648056883,-0.08260596856460578, ,0.011385072345560595,0.02128761968430338,-0.0827869967822977, ,0.0003042697417056741, ,0.0009064972123250341,0.0013543929052695245,-0.0021038628989844413,0.009723745890648582,-0.02664353119728814,0.037972348456523496, ,0.0026612697036416093, ,0.028362457382348827, ,3.2153966288130486e-05, ,0.061534735541820894,-0.17725988766207518,0.09838192955000001,3.9172178342343997,1.2596518913375954,-0.38982244486050194, ,0.01252930308403364,-0.007550306455630154,0.002554331545862733,-0.04567154318196963,0.008327886093077894,-0.006790832700677891, ,1.2771999835968018
0.011180044102303848,0.021188801319515428,-0.08262686301255252, ,0.011399701863295168,0.021298431650028746,-0.08281892803199874, ,0.00031170067857971313, ,0.0011431196352836013,0.001524972866690091,-0.0024890446503730464,0.00765540163809958,-0.01928264692967439,0.03169592443036571, ,0.0031349015959456507, ,0.020746702069475133, ,3.236535402922161e-05, ,0.06167374473355693,-0.17734483772369164,0.09840785535,3.9172178342343997,1.259788527837361,-0.38993386276419845, ,0.014204002628120159,-0.009900860774555398,0.00292486439955931,-0.031129971933935883,-0.0005680548295862619,0.0004632106238507256, ,1.2854931354522705
0.011192606897381,0.021203007645189766,-0.08265761915616715, ,0.011414370783032398,0.021309132815958597,-0.08285094554146163, ,0.00031275687698426594, ,0.0014727689752267008,0.0012566535514027216,-0.0031863474281710958,0.00525317384483235,-0.010564080403149094,0.00023896232780984454, ,0.0037284093841282954, ,0.011798119760359367, ,3.257527072857927e-05, ,0.0618204766581672,-0.1774297877853081,0.09844155889000002,3.917008144290915,1.2596518913375954,-0.38982244486050194, ,0.01506539792958736,-0.00796950930771776,0.003537377641572286,0.004781805438349454,-0.005027317230878985,0.004099440105996549, ,1.2948670387268066
0.01120749801181119,0.021211662144179085,-0.08268798344631285, ,0.011429079007830382,0.021319723581002824,-0.08288304896339585, ,0.00031436597761228007, ,0.0017305357356452464,0.001294330117003012,-0.0039060906789853524,-0.0022775118554709995,0.0032428997255216554,-0.005653630756292002, ,0.004464032792955549, ,0.003962758883945646, ,3.278451054069168e-05, ,0.06195176311702902,-0.17749929238117612,0.09847266985000001,3.917427524177884,1.2593786183380644,-0.3895996090531089, ,0.01646944490775265,-0.00867999095141848,0.004141656661466459,0.025177903910407827,-0.020976191247351735,0.01710467744948984, ,1.307983160018921
0.01122994176835362,0.02122568405287389,-0.08273608848010845, ,0.011443826440897585,0.021330204343476173,-0.08291523795101623, ,0.00029793569310064186, ,0.0017669132102201544,0.0010030696350247523,-0.003916880340728782,-0.008960735091958353,0.013549248990209418,-0.013058653537972946, ,0.004412491653107891, ,0.01624428886301297, ,3.2968342009000574e-05, ,0.06216027690463308,-0.17759196517566683,0.09852322516,3.917846904064853,1.259105345338534,-0.38937677324571635, ,0.015916964367405365,-0.006657116375149615,0.0040052329695750575,0.041147491270978165,-0.03048590328646304,0.02485920996439839, ,1.316303014755249
0.011244055489754233,0.02123742841470086,-0.08276607581312653, ,0.011458612985592647,0.021340575501099003,-0.0829475121580443, ,0.00029932154568289364, ,0.0018248934839446027,0.0010383387752500284,-0.0033890899158272236,-0.004360836599208165,0.00816845096838174,-0.017010726559978498, ,0.003986767374389052, ,0.00925961590028112, ,3.3196784270456085e-05, ,0.062307008829243345,-0.17766146977153485,0.0985569287,3.917846904064853,1.259105345338534,-0.38937677324571635, ,0.016936809130549846,-0.007912987423090535,0.0035603065534197593,0.040090599849153516,-0.024751293838526527,0.020183020481327443, ,1.3228721618652344
0.011244055489754233,0.02123742841470086,-0.08276607581312653, ,0.011473438545424423,0.021350837450997518,-0.0829798712387071, ,0.00033344666701214603, ,0.0018248934839446027,0.0010383387752500284,-0.0033890899158272236,-0.004360836599208165,0.00816845096838174,-0.017010726559978498, ,0.003986767374389052, ,0.00925961590028112, ,3.346904957565326e-05, ,0.062307008829243345,-0.17766146977153485,0.0985569287,3.917846904064853,1.259105345338534,-0.38937677324571635, ,0.016936809130549846,-0.007912987423090535,0.0035603065534197593,0.040090599849153516,-0.024751293838526527,0.020183020481327443, ,1.329360008239746
0.01126064381774901,0.021251425237292666,-0.08280454856395711, ,0.011488303024051735,0.021360990589703973,-0.08301231484773716, ,0.00032710871180568416, ,0.0016252090999081623,0.0011671723105943703,-0.0038319406022860733,-0.0015610341283175955,0.002130590848744857,-0.009005660975650812, ,0.004322888455707718, ,0.0026412580503069262, ,3.3729822198464424e-05, ,0.06247690895247628,-0.1777386971002771,0.09859970627,3.917846904064853,1.259105345338534,-0.38937677324571635, ,0.01511820002524626,-0.007313995344971344,0.0040541642962585904,0.025401976917694944,-0.017524773694080415,0.014290277862068716, ,1.3358991146087646
0.011272799029175853,0.021261662407448503,-0.08283384371108617, ,0.011503206325283271,0.021371035313157333,-0.08304484264037203, ,0.0003310143543148905, ,0.0017482561371895762,0.001244358854237329,-0.00406963306451661,-0.00011509317662489859,-0.002395238421669261,-0.007122162963011043, ,0.00460073274154745, ,0.0023980017555577894, ,3.3993037051512796e-05, ,0.06260047267846387,-0.17779275623039667,0.09863211352000001,3.917846904064853,1.259105345338534,-0.38937677324571635, ,0.016671985516245744,-0.007275861725481576,0.004343826430324517,0.020811917960618268,-0.014556427363040454,0.011869790465090714, ,1.3466811180114746
0.011295267894740193,0.02127342525035806,-0.0828795173370832, ,0.011518148353077615,0.021380972016703408,-0.08307745427235468, ,0.00031689278313761995, ,0.0018515568481565331,0.001098895341986785,-0.003413269408297311,-0.0002510220341542715,0.004744869480714009,-0.024366755326139033, ,0.004035621611129304, ,0.004751504812935821, ,3.423458663086068e-05, ,0.06280126373319371,-0.17788542902488735,0.09867748367000001,3.918475973895307,1.258558799339472,-0.38893110163093053, ,0.016873567133440747,-0.0085929698436866,0.0036483764360971146,0.042720736222747656,-0.019298669056384395,0.015736770585345453, ,1.354429006576538
0.011295267894740193,0.02127342525035806,-0.0828795173370832, ,0.011533129011542968,0.02139080109509514,-0.08311014939993203, ,0.00035149132027450445, ,0.0018515568481565331,0.001098895341986785,-0.003413269408297311,-0.0002510220341542715,0.004744869480714009,-0.024366755326139033, ,0.004035621611129304, ,0.004751504812935821, ,3.451951753889662e-05, ,0.06280126373319371,-0.17788542902488735,0.09867748367000001,3.918475973895307,1.258558799339472,-0.38893110163093053, ,0.016873567133440747,-0.0085929698436866,0.0036483764360971146,0.042720736222747656,-0.019298669056384395,0.015736770585345453, ,1.3609352111816406
0.011314675166574636,0.02128523215990113,-0.08291919235764067, ,0.011548148204937278,0.021400522942493373,-0.08314292767985575, ,0.00034330615869759704, ,0.0019759778730837957,0.0010328206788107282,-0.00420031811499849,-0.014509117240726193,0.02516418044097767,-0.018405710034391395, ,0.0047554052799609284, ,0.029047382998539022, ,3.4790624657181975e-05, ,0.06297888658930087,-0.17797037908650382,0.09871896495000002,3.9188953537822755,1.258285526339941,-0.3887082658235375, ,0.017151082877005383,-0.00788647474621528,0.004202852643799473,0.05866613488101353,-0.04381099701759241,0.03572493041705503, ,1.3674631118774414
0.011330092332267519,0.021297402942315913,-0.08295275798193663, ,0.01156320583766777,0.02141013795246675,-0.08317578876938135, ,0.0003417511098181162, ,0.00199717204326213,0.0010302176388373321,-0.0037511607995185715,-0.0016259653779631994,0.003723062073585934,-0.025764632858461166, ,0.0043727853706309674, ,0.004062628935970325, ,3.505683833811415e-05, ,0.06314106397965959,-0.17803988368237184,0.09875526107000002,3.9188953537822755,1.2581488898401756,-0.3885968479198412, ,0.01822837909306008,-0.007163581718456607,0.003976238522216675,0.04414068426867892,-0.01939311686460111,0.01581378643995453, ,1.3742690086364746
0.011330092332267519,0.021297402942315913,-0.08295275798193663, ,0.011578301814291177,0.021419646517992358,-0.08320873232626856, ,0.00037692745152983603, ,0.00199717204326213,0.0010302176388373321,-0.0037511607995185715,-0.0016259653779631994,0.003723062073585934,-0.025764632858461166, ,0.0043727853706309674, ,0.004062628935970325, ,3.536625023115648e-05, ,0.06314106397965959,-0.17803988368237184,0.09875526107000002,3.9188953537822755,1.2581488898401756,-0.3885968479198412, ,0.01822837909306008,-0.007163581718456607,0.003976238522216675,0.04414068426867892,-0.01939311686460111,0.01581378643995453, ,1.3816571235656738
0.011330092332267519,0.021297402942315913,-0.08295275798193663, ,0.011593436039513535,0.021429049031456093,-0.08324175800878, ,0.0004125549859684764, ,0.00199717204326213,0.0010302176388373321,-0.0037511607995185715,-0.0016259653779631994,0.003723062073585934,-0.025764632858461166, ,0.0043727853706309674, ,0.004062628935970325, ,3.57187729685347e-05, ,0.06314106397965959,-0.17803988368237184,0.09875526107000002,3.9188953537822755,1.2581488898401756,-0.3885968479198412, ,0.01822837909306008,-0.007163581718456607,0.003976238522216675,0.04414068426867892,-0.01939311686460111,0.01581378643995453, ,1.3898351192474365
0.011357045616196394,0.02131706415603349,-0.08301505903380542, ,0.011608608418189892,0.021438345884652658,-0.08327486547568148, ,0.00038143477592371514, ,0.0018099915424400247,0.001544469554989894,-0.004749881752201559,0.0074280918026445285,-0.01801384615764442,0.00047162754734713465, ,0.005312516564669936, ,0.019485255933706157, ,3.602738834246688e-05, ,0.06340363689738322,-0.178148001942611,0.09882266815000001,3.91910504372576,1.2580122533404101,-0.3884854300161447, ,0.018013846157644415,-0.007443049131366224,0.005205493960784314,0.0,0.0,0.0, ,1.3967180252075195
0.011390096523483466,0.021334407318430466,-0.08309963767887807, ,0.011623818855324644,0.021447537468786526,-0.08330805438624245, ,0.00033295958197575813, ,0.0025759441611393485,0.0011362906808686912,-0.005977246710613159,0.0038993603393566965,0.012910420435235284,-0.08608559362415376, ,0.006607126688074988, ,0.013486436120822138, ,3.6270438572332886e-05, ,0.06366620981510686,-0.1782483974699759,0.09890951958000001,3.9201534934431828,1.257602343841114,-0.3881511763050553, ,0.018877450081255374,-0.00795605973261704,0.006239252455934196,0.10492790556409434,-0.01803439375664548,0.015238847009544917, ,1.4031109809875488
0.011390096523483466,0.021334407318430466,-0.08309963767887807, ,0.011639067256070893,0.021456624174471896,-0.08334132440023408, ,0.00036788022081322676, ,0.0025759441611393485,0.0011362906808686912,-0.005977246710613159,0.0038993603393566965,0.012910420435235284,-0.08608559362415376, ,0.006607126688074988, ,0.013486436120822138, ,3.655571189694735e-05, ,0.06366620981510686,-0.1782483974699759,0.09890951958000001,3.9201534934431828,1.257602343841114,-0.3881511763050553, ,0.018877450081255374,-0.00795605973261704,0.006239252455934196,0.10492790556409434,-0.01803439375664548,0.015238847009544917, ,1.409637212753296
0.011410662607738601,0.021351120724385157,-0.08316056313233379, ,0.011654353525730741,0.021465606391733075,-0.0833746751779304, ,0.00034400029012998776, ,0.0022367477006956286,0.0013916605571509758,-0.005879857918196928,-0.012003375588446951,0.02064887488993488,-0.022408775985931596, ,0.00644301858767147, ,0.02388424277027573, ,3.680765768362531e-05, ,0.06385927813696247,-0.17833334753159238,0.09897174150000002,3.9203631833866672,1.2571924343418175,-0.3877352438538257, ,0.01884745611886212,-0.008313333180616271,0.005979283603603605,0.05811479159374584,-0.040072877853028314,0.03138462034947671, ,1.4161200523376465
0.01143039437818339,0.021366713503892385,-0.08321398667739748, ,0.011669677569754936,0.021474484510004905,-0.0834081063801075, ,0.0003264253276132179, ,0.002127771443925646,0.001288739357712051,-0.0051387665721089135,-0.00812613762487628,0.007686021110692933,-0.010500382822290117, ,0.0057092190650145395, ,0.011185214777958188, ,3.703477390273648e-05, ,0.06404462372594386,-0.17839512939458618,0.09902359310000002,3.9203631833866672,1.2569191613422865,-0.38751240804643267, ,0.019510061998040867,-0.006698948592148855,0.005395938861788619,0.036616480400401774,-0.028627776781377116,0.022082251614334813, ,1.4226510524749756
0.01143039437818339,0.021366713503892385,-0.08321398667739748, ,0.011685039293743,0.021483258918133165,-0.083441617668043, ,0.000360891582754684, ,0.002127771443925646,0.001288739357712051,-0.0051387665721089135,-0.00812613762487628,0.007686021110692933,-0.010500382822290117, ,0.0057092190650145395, ,0.011185214777958188, ,3.730306203280425e-05, ,0.06404462372594386,-0.17839512939458618,0.09902359310000002,3.9203631833866672,1.2569191613422865,-0.38751240804643267, ,0.019510061998040867,-0.006698948592148855,0.005395938861788619,0.036616480400401774,-0.028627776781377116,0.022082251614334813, ,1.4295251369476318
0.011450354647994168,0.02137862977530033,-0.08325638823377533, ,0.011700438603442826,0.021491930004375093,-0.08347520870351595, ,0.00035108592204579166, ,0.0020292140415290984,0.0014878056334861414,-0.00451576814834523,-0.000973390257911648,-0.010763323297299818,0.012347611013495272, ,0.005169471655689898, ,0.010807248267646861, ,3.7556353969961805e-05, ,0.06425313751354791,-0.1784646339904542,0.09907285212000001,3.920572873330152,1.2567825248425213,-0.38731931140259585, ,0.02103212357235611,-0.007493376460428228,0.004877162131047153,0.0,-0.014103946573652148,0.010897885136238645, ,1.4368431568145752
0.011469539959725043,0.021388835861684954,-0.08329664660354646, ,0.011715875404751006,0.021500498156399154,-0.08350887914880678, ,0.00034379103072164596, ,0.0021021598828442553,0.001391108765791831,-0.00481918294158655,0.003943961081104364,-0.012330619702335113,-0.011510578162104159, ,0.005438638064422144, ,0.012946003578460688, ,3.784525643097651e-05, ,0.06442303763678087,-0.178526415853448,0.09911562969000001,3.920992253217121,1.2566458883427558,-0.38720789349889956, ,0.020186543620180977,-0.006817198481920027,0.005219138768020971,0.017474007759751903,-0.006545202080041731,0.004757771677273888, ,1.441864013671875
0.011469539959725043,0.021388835861684954,-0.08329664660354646, ,0.011731349603712169,0.0215089637612862,-0.08354262866669677, ,0.0003787904134728802, ,0.0021021598828442553,0.001391108765791831,-0.00481918294158655,0.003943961081104364,-0.012330619702335113,-0.011510578162104159, ,0.005438638064422144, ,0.012946003578460688, ,3.817558600031643e-05, ,0.06442303763678087,-0.178526415853448,0.09911562969000001,3.920992253217121,1.2566458883427558,-0.38720789349889956, ,0.020186543620180977,-0.006817198481920027,0.005219138768020971,0.017474007759751903,-0.006545202080041731,0.004757771677273888, ,1.4467031955718994
0.01150025725654933,0.021401078348592655,-0.08335881481639332, ,0.011746861106519377,0.021517327205529152,-0.08357645692046783, ,0.0003488485932680172, ,0.0027785263185351383,0.00110869969218081,-0.005706163203602332,0.001787276385754247,0.010483076384695183,-0.07539154178735212, ,0.006442803893987422, ,0.010634342542767192, ,3.8466307880300384e-05, ,0.06467016508875605,-0.17861136591506446,0.09918044419000001,3.9220407029345434,1.2563726153432249,-0.3869850576915065, ,0.021997436615315436,-0.007614083670058815,0.0059770399699812385,0.09735577353379567,-0.020676048341358468,0.018333195235536302, ,1.4515349864959717
0.01150025725654933,0.021401078348592655,-0.08335881481639332, ,0.011762409819513698,0.021525588875033908,-0.08361036357390228, ,0.00038406199352157664, ,0.0027785263185351383,0.00110869969218081,-0.005706163203602332,0.001787276385754247,0.010483076384695183,-0.07539154178735212, ,0.006442803893987422, ,0.010634342542767192, ,3.87984006737252e-05, ,0.06467016508875605,-0.17861136591506446,0.09918044419000001,3.9220407029345434,1.2563726153432249,-0.3869850576915065, ,0.021997436615315436,-0.007614083670058815,0.0059770399699812385,0.09735577353379567,-0.020676048341358468,0.018333195235536302, ,1.4563779830932617
0.01150025725654933,0.021401078348592655,-0.08335881481639332, ,0.011777995649184244,0.0215337491551192,-0.08364434829128209, ,0.00041984464142095015, ,0.0023830975372182437,0.001598518313240349,-0.0065498428328560065,-0.02898839706405454,0.03186519540316637,0.028930656189902523, ,0.007150863990090682, ,0.043078043483549905, ,3.917210687988256e-05, ,0.06491729254073123,-0.17870403870955515,0.09924914756000001,3.922250392878028,1.2556894328443977,-0.3864279681730244, ,0.022460814570052258,-0.007963880451059155,0.0064777598698658,0.032233592709512336,-0.06634560756401686,0.055573658508990126, ,1.4612631797790527
0.011525457474745746,0.021419517241244006,-0.08342773595210448, ,0.011793618502168044,0.021541808430517402,-0.08367841073738964, ,0.0003869151322704327, ,0.0023830975372182437,0.001598518313240349,-0.0065498428328560065,-0.02898839706405454,0.03186519540316637,0.028930656189902523, ,0.007150863990090682, ,0.043078043483549905, ,3.950265756900009e-05, ,0.06491729254073123,-0.17870403870955515,0.09924914756000001,3.922250392878028,1.2556894328443977,-0.3864279681730244, ,0.022460814570052258,-0.007963880451059155,0.0064777598698658,0.032233592709512336,-0.06634560756401686,0.055573658508990126, ,1.46697998046875
0.011525457474745746,0.021419517241244006,-0.08342773595210448, ,0.011809278285249927,0.021549767085374587,-0.08371255057750611, ,0.00042265665168545564, ,0.0023830975372182437,0.001598518313240349,-0.0065498428328560065,-0.02898839706405454,0.03186519540316637,0.028930656189902523, ,0.007150863990090682, ,0.043078043483549905, ,3.9874477469951744e-05, ,0.06518758819132908,-0.17878898877117164,0.09933340641,3.922250392878028,1.2552795233451015,-0.38593035698165423, ,0.024295171929972034,-0.007626652352809155,0.00727342991780822,0.01453330789085011,-0.03120856849300291,0.032831312402998344, ,1.4759690761566162
0.011553515056206748,0.021442570056983825,-0.08351151373798561, ,0.011824974905362436,0.021557625503251045,-0.0837467674774124, ,0.0003771903065213442, ,0.002544057615833901,0.001829837682029451,-0.007018764899268911,-0.008437467138841699,0.0007194189019473938,0.020501620144009358, ,0.0076865854452069105, ,0.008468081142858108, ,4.0188200824533336e-05, ,0.06518758819132908,-0.17878898877117164,0.09933340641,3.922250392878028,1.2552795233451015,-0.38593035698165423, ,0.024295171929972034,-0.007626652352809155,0.00727342991780822,0.01453330789085011,-0.03120856849300291,0.032831312402998344, ,1.4808461666107178
0.01158191024786977,0.02145667946915811,-0.08357785904634923, ,0.011840708269585621,0.02156538406712157,-0.0837810611033881, ,0.00034653164595352425, ,0.002505001692721997,0.001233735310077909,-0.005888282261631138,-0.00028226093522878536,0.0007972972064107888,-0.02978842386190261, ,0.006516824709052179, ,0.0008457818822700582, ,4.046243267341674e-05, ,0.06541927017755582,-0.17885849336703966,0.09940210978000001,3.9228794627084818,1.2552795233451015,-0.38593035698165423, ,0.021484478505426938,-0.005594051456555556,0.006185946221359225,0.053161100162786155,-0.01783020481784475,0.02143519889980543, ,1.4856560230255127
0.01158191024786977,0.02145667946915811,-0.08357785904634923, ,0.011856478285147201,0.021573043159375874,-0.08381543112221124, ,0.0003812723524265259, ,0.002505001692721997,0.001233735310077909,-0.005888282261631138,-0.00028226093522878536,0.0007972972064107888,-0.02978842386190261, ,0.006516824709052179, ,0.0008457818822700582, ,4.077668304150172e-05, ,0.06541927017755582,-0.17885849336703966,0.09940210978000001,3.9228794627084818,1.2552795233451015,-0.38593035698165423, ,0.021484478505426938,-0.005594051456555556,0.006185946221359225,0.053161100162786155,-0.01783020481784475,0.02143519889980543, ,1.4905200004577637
0.011608973601317962,0.02147065265136751,-0.0836375434798953, ,0.011872284859422013,0.02158060316181902,-0.08384987720115845, ,0.00035567898810352213, ,0.0029177979196572915,0.0013474548537857351,-0.005864190150362654,0.014331480608975947,-0.009775268055612931,-0.07052651487752243, ,0.00668714478701916, ,0.017347829693354726, ,4.1057826341476436e-05, ,0.06566639762953101,-0.1789357206957819,0.09947081315,3.923508532538935,1.2551428868453358,-0.38573726033781713, ,0.024220760989910866,-0.008161221774748923,0.006381735384615385,0.07931448024318236,0.0,0.006908429321795215, ,1.4956281185150146
0.011608973601317962,0.02147065265136751,-0.0836375434798953, ,0.011888127899932387,0.021588064455671397,-0.08388439900800428, ,0.0003907048834897874, ,0.0029177979196572915,0.0013474548537857351,-0.005864190150362654,0.014331480608975947,-0.009775268055612931,-0.07052651487752243, ,0.00668714478701916, ,0.017347829693354726, ,4.137899249329559e-05, ,0.06566639762953101,-0.1789357206957819,0.09947081315,3.923508532538935,1.2551428868453358,-0.38573726033781713, ,0.024220760989910866,-0.008161221774748923,0.006381735384615385,0.07931448024318236,0.0,0.006908429321795215, ,1.5004920959472656
0.011637520260271525,0.021484035802398126,-0.08370206862480513, ,0.011904007314347773,0.021595427421569755,-0.0839189962110209, ,0.00036122156701021797, ,0.0028759065232151727,0.0013854566269535771,-0.00680834756861381,-0.024265903979201146,0.026362234380547682,0.007963412644071908, ,0.00751956946975628, ,0.035830175590330894, ,4.166258649991082e-05, ,0.06592124781438041,-0.17900522529164992,0.09953562765000001,3.924137602369389,1.2545963408462744,-0.38504655250260994, ,0.026338312949894745,-0.006065525199108697,0.0068042765997437,0.05194983799607122,-0.058862222429411123,0.05466876484750863, ,1.5054152011871338
0.011637520260271525,0.021484035802398126,-0.08370206862480513, ,0.011919923010484624,0.021602692439566997,-0.0839536684789784, ,0.00039640029956113245, ,0.0028759065232151727,0.0013854566269535771,-0.00680834756861381,-0.024265903979201146,0.026362234380547682,0.007963412644071908, ,0.00751956946975628, ,0.035830175590330894, ,4.198608178007935e-05, ,0.06592124781438041,-0.17900522529164992,0.09953562765000001,3.924137602369389,1.2545963408462744,-0.38504655250260994, ,0.026338312949894745,-0.006065525199108697,0.0068042765997437,0.05194983799607122,-0.058862222429411123,0.05466876484750863, ,1.51251220703125
0.011662722836556373,0.02149716882803223,-0.08376055873326732, ,0.011935874896306247,0.021609859889132804,-0.08398841548114361, ,0.0003731353917150314, ,0.002792953432680476,0.0015772753609259872,-0.006153968111880548,-0.007333836023684295,0.002374510062608084,0.0023708910639218227, ,0.0069397197323341885, ,0.00770866006731824, ,4.2279641336343956e-05, ,0.06615292980060715,-0.17906700715464371,0.09959525699,3.9245569822563575,1.254186431346978,-0.38463062005138005, ,0.026537176051026505,-0.00761367942365868,0.006443693980582525,0.03318284608031107,-0.030898579838984926,0.032451164653222786, ,1.517759084701538
0.011662722836556373,0.02149716882803223,-0.08376055873326732, ,0.011951862879923123,0.021616930149153828,-0.08402323688728047, ,0.0004085884865126199, ,0.002792953432680476,0.0015772753609259872,-0.006153968111880548,-0.007333836023684295,0.002374510062608084,0.0023708910639218227, ,0.0069397197323341885, ,0.00770866006731824, ,4.261307277125945e-05, ,0.06615292980060715,-0.17906700715464371,0.09959525699,3.9245569822563575,1.254186431346978,-0.38463062005138005, ,0.026537176051026505,-0.00761367942365868,0.006443693980582525,0.03318284608031107,-0.030898579838984926,0.032451164653222786, ,1.5230340957641602
0.011695497494501807,0.021512524424624407,-0.08382192710199837, ,0.011967886869592208,0.021623903597934153,-0.08405813236764954, ,0.0003773515859654522, ,0.002828880383106727,0.001255140433488409,-0.005582449880659052,-0.0035368301579364707,-0.006049244264828362,-0.03561265238780315, ,0.006382921619428975, ,0.007007318910973659, ,4.295796703386032e-05, ,0.06646183911557613,-0.17913651175051173,0.09966266407,3.924976362143327,1.254186431346978,-0.384467262571099, ,0.026323700848396886,-0.005526363473845427,0.0059281025381466325,0.043289443428842535,-0.017731677985975407,0.0052011581814544565, ,1.5271730422973633
0.011695497494501807,0.021512524424624407,-0.08382192710199837, ,0.011983946773717127,0.02163078061319591,-0.08409310159300733, ,0.0004131865406680892, ,0.002828880383106727,0.001255140433488409,-0.005582449880659052,-0.0035368301579364707,-0.006049244264828362,-0.03561265238780315, ,0.006382921619428975, ,0.007007318910973659, ,4.3343444780150504e-05, ,0.06646183911557613,-0.17913651175051173,0.09966266407,3.924976362143327,1.254186431346978,-0.384467262571099, ,0.026323700848396886,-0.005526363473845427,0.0059281025381466325,0.043289443428842535,-0.017731677985975407,0.0052011581814544565, ,1.5306260585784912
0.011695497494501807,0.021512524424624407,-0.08382192710199837, ,0.012000042500848185,0.021637561572079134,-0.08412814423460707, ,0.000449611923148424, ,0.002828880383106727,0.001255140433488409,-0.005582449880659052,-0.0035368301579364707,-0.006049244264828362,-0.03561265238780315, ,0.006382921619428975, ,0.007007318910973659, ,4.376991367978402e-05, ,0.06646183911557613,-0.17913651175051173,0.09966266407,3.924976362143327,1.254186431346978,-0.384467262571099, ,0.026323700848396886,-0.005526363473845427,0.0059281025381466325,0.043289443428842535,-0.017731677985975407,0.0052011581814544565, ,1.5340139865875244
0.011724349179004851,0.021527004675442774,-0.08388271829464554, ,0.012016173959681905,0.02164424685114246,-0.08416325996419732, ,0.00042143927051819635, ,0.002931089948845123,0.0014941255160879068,-0.006556699492287909,0.003822536767926094,-0.008802310270528984,-0.02494388191716162, ,0.0073358031310971255, ,0.009596480673816516, ,4.4161354996499874e-05, ,0.06672441203329976,-0.17919829361350553,0.09972877486000001,3.925395742030296,1.254186431346978,-0.3845489413112395, ,0.02635294128255229,-0.006310795477474616,0.006989386362439668,0.04654818589605847,-0.011974245974672393,0.019656282493815878, ,1.5384480953216553
0.011724349179004851,0.021527004675442774,-0.08388271829464554, ,0.012032341059061338,0.021650836826363384,-0.08419844845402193, ,0.0004581254558766549, ,0.002931089948845123,0.0014941255160879068,-0.006556699492287909,0.003822536767926094,-0.008802310270528984,-0.02494388191716162, ,0.0073358031310971255, ,0.009596480673816516, ,4.4593872827942746e-05, ,0.06672441203329976,-0.17919829361350553,0.09972877486000001,3.925395742030296,1.254186431346978,-0.3845489413112395, ,0.02635294128255229,-0.006310795477474616,0.006989386362439668,0.04654818589605847,-0.011974245974672393,0.019656282493815878, ,1.5417799949645996
0.011756419984966252,0.021539527620377787,-0.08395517516349547, ,0.012048543707975593,0.02165733187313888,-0.0842337093768203, ,0.0004204704740001587, ,0.003343927064839892,0.00147234349239324,-0.007894437251391755,0.0022803526595011614,-0.0005668459310204125,-0.05436356601104439, ,0.008698952988189054, ,0.002349742943137977, ,4.498043377116826e-05, ,0.06699470768389762,-0.17925235274362508,0.09980266339,3.926234501804234,1.2537765218476815,-0.3840513301198688, ,0.02782085651083869,-0.005716520437283608,0.008287623059313217,0.08005586013766455,-0.01710645136234731,0.022810558991279012, ,1.5455842018127441
0.011756419984966252,0.021539527620377787,-0.08395517516349547, ,0.012064781815559972,0.0216637323662851,-0.08426904240582649, ,0.0004571941417838652, ,0.003343927064839892,0.00147234349239324,-0.007894437251391755,0.0022803526595011614,-0.0005668459310204125,-0.05436356601104439, ,0.008698952988189054, ,0.002349742943137977, ,4.540794631394071e-05, ,0.06699470768389762,-0.17925235274362508,0.09980266339,3.926234501804234,1.2537765218476815,-0.3840513301198688, ,0.02782085651083869,-0.005716520437283608,0.008287623059313217,0.08005586013766455,-0.01710645136234731,0.022810558991279012, ,1.5488340854644775
0.011756419984966252,0.021539527620377787,-0.08395517516349547, ,0.012081055291095766,0.021670038680038643,-0.08430444721476966, ,0.0004943806069020952, ,0.003343927064839892,0.00147234349239324,-0.007894437251391755,0.0022803526595011614,-0.0005668459310204125,-0.05436356601104439, ,0.008698952988189054, ,0.002349742943137977, ,4.587666259068195e-05, ,0.06699470768389762,-0.17925235274362508,0.09980266339,3.926234501804234,1.2537765218476815,-0.3840513301198688, ,0.02782085651083869,-0.005716520437283608,0.008287623059313217,0.08005586013766455,-0.01710645136234731,0.022810558991279012, ,1.5520939826965332
0.011756419984966252,0.021539527620377787,-0.08395517516349547, ,0.012097364044010116,0.021676251188056068,-0.08433992347787234, ,0.0005319468495741096, ,0.003343927064839892,0.00147234349239324,-0.007894437251391755,0.0022803526595011614,-0.0005668459310204125,-0.05436356601104439, ,0.008698952988189054, ,0.002349742943137977, ,4.638673619948004e-05, ,0.06699470768389762,-0.17925235274362508,0.09980266339,3.926234501804234,1.2537765218476815,-0.3840513301198688, ,0.02782085651083869,-0.005716520437283608,0.008287623059313217,0.08005586013766455,-0.01710645136234731,0.022810558991279012, ,1.5560460090637207
0.011756419984966252,0.021539527620377787,-0.08395517516349547, ,0.01211370798387609,0.0216823702634149,-0.08437547086985223, ,0.0005698308657985682, ,0.003343927064839892,0.00147234349239324,-0.007894437251391755,0.0022803526595011614,-0.0005668459310204125,-0.05436356601104439, ,0.008698952988189054, ,0.002349742943137977, ,4.693824763693623e-05, ,0.06699470768389762,-0.17925235274362508,0.09980266339,3.926234501804234,1.2537765218476815,-0.3840513301198688, ,0.02782085651083869,-0.005716520437283608,0.008287623059313217,0.08005586013766455,-0.01710645136234731,0.022810558991279012, ,1.560331106185913
0.011756419984966252,0.021539527620377787,-0.08395517516349547, ,0.012130087020412307,0.021688396278613582,-0.08441108906591992, ,0.000607985540295042, ,0.003343927064839892,0.00147234349239324,-0.007894437251391755,0.0022803526595011614,-0.0005668459310204125,-0.05436356601104439, ,0.008698952988189054, ,0.002349742943137977, ,4.753122231400794e-05, ,0.06699470768389762,-0.17925235274362508,0.09980266339,3.926234501804234,1.2537765218476815,-0.3840513301198688, ,0.02782085651083869,-0.005716520437283608,0.008287623059313217,0.08005586013766455,-0.01710645136234731,0.022810558991279012, ,1.563951015472412
0.011756419984966252,0.021539527620377787,-0.08395517516349547, ,0.012146501063482959,0.021694329605572053,-0.08444677774177975, ,0.0006463745024462139, ,0.003343927064839892,0.00147234349239324,-0.007894437251391755,0.0022803526595011614,-0.0005668459310204125,-0.05436356601104439, ,0.008698952988189054, ,0.002349742943137977, ,4.816564355430506e-05, ,0.06699470768389762,-0.17925235274362508,0.09980266339,3.926234501804234,1.2537765218476815,-0.3840513301198688, ,0.02782085651083869,-0.005716520437283608,0.008287623059313217,0.08005586013766455,-0.01710645136234731,0.022810558991279012, ,1.567406177520752
0.011835041101463634,0.021579253782192928,-0.08418035428672653, ,0.012162950023097887,0.021700170615632033,-0.08448253657362946, ,0.0004620165321870677, ,0.0035608307313717406,0.0019634183049061418,-0.010262293227021236,-0.00893651243012633,0.0031367616593499913,-0.004708282395812783, ,0.01103853202264177, ,0.009471030266050716, ,4.858548884142154e-05, ,0.06757391264946445,-0.17936819373673846,0.09999451431,3.92791202135211,1.2520002473507308,-0.3823578611513937, ,0.031277831759548715,-0.005146718611170196,0.010410987921568629,0.06379098249188908,-0.05525173728445174,0.061287700055240486, ,1.570739984512329
0.011835041101463634,0.021579253782192928,-0.08418035428672653, ,0.012179433809412063,0.021705919679557376,-0.08451836523815939, ,0.0004989007818512037, ,0.0035608307313717406,0.0019634183049061418,-0.010262293227021236,-0.00893651243012633,0.0031367616593499913,-0.004708282395812783, ,0.01103853202264177, ,0.009471030266050716, ,4.904566043840706e-05, ,0.06757391264946445,-0.17936819373673846,0.09999451431,3.92791202135211,1.2520002473507308,-0.3823578611513937, ,0.031277831759548715,-0.005146718611170196,0.010410987921568629,0.06379098249188908,-0.05525173728445174,0.061287700055240486, ,1.5740740299224854
0.01186177590134128,0.021596011367252636,-0.08425949797350778, ,0.012195952332725912,0.021711577167534413,-0.08455426341255226, ,0.0004603433561406345, ,0.0034450107188276607,0.0024991825282536283,-0.010493914923712771,0.005391658304389991,-0.0275403116102821,0.02106402102582204, ,0.011324145115128439, ,0.028063118422655284, ,4.945966276442286e-05, ,0.06790599016305611,-0.17942225286685803,0.10010729154,3.928121711295595,1.2517269743512,-0.38205334660386037, ,0.03223401547502404,-0.0060023959958757185,0.011162446755430976,0.0,-0.005308738769400608,0.02051595126827898, ,1.577721118927002
0.01186177590134128,0.021596011367252636,-0.08425949797350778, ,0.012212505503484856,0.021717143449172444,-0.08459023077448387, ,0.0004970597758132413, ,0.0034450107188276607,0.0024991825282536283,-0.010493914923712771,0.005391658304389991,-0.0275403116102821,0.02106402102582204, ,0.011324145115128439, ,0.028063118422655284, ,4.991364275334463e-05, ,0.06790599016305611,-0.17942225286685803,0.10010729154,3.928121711295595,1.2517269743512,-0.38205334660386037, ,0.03223401547502404,-0.0060023959958757185,0.011162446755430976,0.0,-0.005308738769400608,0.02051595126827898, ,1.5809741020202637
0.01186177590134128,0.021596011367252636,-0.08425949797350778, ,0.012229093232279631,0.021722618893504003,-0.08462626700212154, ,0.0005342948695818176, ,0.0034450107188276607,0.0024991825282536283,-0.010493914923712771,0.005391658304389991,-0.0275403116102821,0.02106402102582204, ,0.011324145115128439, ,0.028063118422655284, ,5.040791759302055e-05, ,0.06790599016305611,-0.17942225286685803,0.10010729154,3.928121711295595,1.2517269743512,-0.38205334660386037, ,0.03223401547502404,-0.0060023959958757185,0.011162446755430976,0.0,-0.005308738769400608,0.02051595126827898, ,1.5842351913452148
0.01190634370040496,0.0216141920924437,-0.08437457724205125, ,0.012245715429845613,0.021728003868985112,-0.08466237177412413, ,0.0004592950945896335, ,0.004886916969738895,0.0012411481761547066,-0.011082616403695325,0.0076688484383047525,0.014922687755664316,-0.1579895038959343, ,0.012175663949688775, ,0.01677789256826605, ,5.081481800097014e-05, ,0.06825351314239622,-0.1794763119969776,0.10022655022000002,3.929379850956502,1.2514537013516691,-0.38150379583590543, ,0.03508204863529419,-0.00427901668778106,0.011492649004329005,0.19339672826815818,-0.0200858902461507,0.030402803166018053, ,1.5875639915466309
0.01190634370040496,0.0216141920924437,-0.08437457724205125, ,0.01226237200706319,0.021733298743495954,-0.08469854476964252, ,0.0004958805384368415, ,0.004886916969738895,0.0012411481761547066,-0.011082616403695325,0.0076688484383047525,0.014922687755664316,-0.1579895038959343, ,0.012175663949688775, ,0.01677789256826605, ,5.1261308264203324e-05, ,0.06825351314239622,-0.1794763119969776,0.10022655022000002,3.929379850956502,1.2514537013516691,-0.38150379583590543, ,0.03508204863529419,-0.00427901668778106,0.011492649004329005,0.19339672826815818,-0.0200858902461507,0.030402803166018053, ,1.590867042541504
0.01190634370040496,0.0216141920924437,-0.08437457724205125, ,0.012279062874957399,0.02173850388434084,-0.08473478566831864, ,0.0005330320018889712, ,0.004886916969738895,0.0012411481761547066,-0.011082616403695325,0.0076688484383047525,0.014922687755664316,-0.1579895038959343, ,0.012175663949688775, ,0.01677789256826605, ,5.1747759547096616e-05, ,0.06825351314239622,-0.1794763119969776,0.10022655022000002,3.929379850956502,1.2514537013516691,-0.38150379583590543, ,0.03508204863529419,-0.00427901668778106,0.011492649004329005,0.19339672826815818,-0.0200858902461507,0.030402803166018053, ,1.5941781997680664
0.011951544383368975,0.021629408787326148,-0.084487307974368, ,0.012295787944698008,0.02174361965824892,-0.0847710941502848, ,0.0004605239909004919, ,0.004599118924952639,0.0018003511330955799,-0.012456091465641526,-0.02291033561245585,0.04661958046172891,-0.01138381764209288, ,0.013399528860699682, ,0.051944859807776966, ,5.215027191666403e-05, ,0.06860103612173632,-0.17952264839422294,0.10034062374000001,3.9308476805608934,1.2509071553526072,-0.3806497305204168, ,0.03620638746984769,-0.004863696066804883,0.012444384000000001,0.1329147798930117,-0.0766819555347631,0.11429409357528984, ,1.5995750427246094
0.011951544383368975,0.021629408787326148,-0.084487307974368, ,0.012312547127599285,0.02174864643137433,-0.08480746989616439, ,0.0004970354647993766, ,0.004599118924952639,0.0018003511330955799,-0.012456091465641526,-0.02291033561245585,0.04661958046172891,-0.01138381764209288, ,0.013399528860699682, ,0.051944859807776966, ,5.259204348130526e-05, ,0.06860103612173632,-0.17952264839422294,0.10034062374000001,3.9308476805608934,1.2509071553526072,-0.3806497305204168, ,0.03620638746984769,-0.004863696066804883,0.012444384000000001,0.1329147798930117,-0.0766819555347631,0.11429409357528984, ,1.6035261154174805
0.011951544383368975,0.021629408787326148,-0.084487307974368, ,0.01232934033511982,0.021753584569296602,-0.08484391258707114, ,0.00053415003116021, ,0.004599118924952639,0.0018003511330955799,-0.012456091465641526,-0.02291033561245585,0.04661958046172891,-0.01138381764209288, ,0.013399528860699682, ,0.051944859807776966, ,5.307348674078629e-05, ,0.06860103612173632,-0.17952264839422294,0.10034062374000001,3.9308476805608934,1.2509071553526072,-0.3806497305204168, ,0.03620638746984769,-0.004863696066804883,0.012444384000000001,0.1329147798930117,-0.0766819555347631,0.11429409357528984, ,1.6091070175170898
0.011956776084131145,0.021630398026641597,-0.08450093920748125, ,0.012346167478862632,0.021758434437021107,-0.08488042190460843, ,0.0005585929628027178, ,0.004546099913736641,0.0018881729499337842,-0.01242257222523667,-0.022616442098875596,0.04211986376102609,0.0008927358978405397, ,0.01336235466546819, ,0.04780780355359023, ,5.3580145183475145e-05, ,0.06863964978610744,-0.17952264839422294,0.10035358664,3.931057370504378,1.250770518852842,-0.3805383126167205, ,0.03658324655299568,-0.004863696066804883,0.012444384000000001,0.11849971333367085,-0.07456046735007192,0.11256416221243444, ,1.6129670143127441
0.011956776084131145,0.021630398026641597,-0.08450093920748125, ,0.012363028470574836,0.021763196398979355,-0.08491699753087019, ,0.0005964737526898943, ,0.004546099913736641,0.0018881729499337842,-0.01242257222523667,-0.022616442098875596,0.04211986376102609,0.0008927358978405397, ,0.01336235466546819, ,0.04780780355359023, ,5.4187408726547204e-05, ,0.06863964978610744,-0.17952264839422294,0.10035358664,3.931057370504378,1.250770518852842,-0.3805383126167205, ,0.03658324655299568,-0.004863696066804883,0.012444384000000001,0.11849971333367085,-0.07456046735007192,0.11256416221243444, ,1.614645004272461
0.011956776084131145,0.021630398026641597,-0.08450093920748125, ,0.012379923222147718,0.021767870819029398,-0.08495363914843868, ,0.000634735776210362, ,0.004546099913736641,0.0018881729499337842,-0.01242257222523667,-0.022616442098875596,0.04211986376102609,0.0008927358978405397, ,0.01336235466546819, ,0.04780780355359023, ,5.4836066120383875e-05, ,0.06863964978610744,-0.17952264839422294,0.10035358664,3.931057370504378,1.250770518852842,-0.3805383126167205, ,0.03658324655299568,-0.004863696066804883,0.012444384000000001,0.11849971333367085,-0.07456046735007192,0.11256416221243444, ,1.616286039352417
0.011956776084131145,0.021630398026641597,-0.08450093920748125, ,0.01239685164561655,0.021772458060455926,-0.08499034644038606, ,0.0006733253245226706, ,0.004546099913736641,0.0018881729499337842,-0.01242257222523667,-0.022616442098875596,0.04211986376102609,0.0008927358978405397, ,0.01336235466546819, ,0.04780780355359023, ,5.5526344310564994e-05, ,0.06863964978610744,-0.17952264839422294,0.10035358664,3.931057370504378,1.250770518852842,-0.3805383126167205, ,0.03658324655299568,-0.004863696066804883,0.012444384000000001,0.11849971333367085,-0.07456046735007192,0.11256416221243444, ,1.6179211139678955
0.012045579083409447,0.021682883409438115,-0.08474309974809562, ,0.012413813653160483,0.021776958485971224,-0.08502711909027337, ,0.00047446159498480575, ,0.003934365876658505,0.001967574864985688,-0.008640898691415948,0.01482132762779956,-0.04388681018575793,-0.02725161311890081, ,0.009696170166413755, ,0.04632195821378165, ,5.599338472380272e-05, ,0.06946598220364947,-0.17963848938733631,0.10060765948000001,3.9314767503913473,1.25022397285378,-0.37960256856109126, ,0.03719989869011007,-0.00454104622291714,0.0094757950743605,0.01979757455090027,0.014133639753703018,-0.00713159681631129, ,1.6195790767669678
0.012045579083409447,0.021682883409438115,-0.08474309974809562, ,0.012430809157102405,0.021781372457714894,-0.08506395678215002, ,0.0005109320293445478, ,0.003934365876658505,0.001967574864985688,-0.008640898691415948,0.01482132762779956,-0.04388681018575793,-0.02725161311890081, ,0.009696170166413755, ,0.04632195821378165, ,5.649999791380355e-05, ,0.06946598220364947,-0.17963848938733631,0.10060765948000001,3.9314767503913473,1.25022397285378,-0.37960256856109126, ,0.03719989869011007,-0.00454104622291714,0.0094757950743605,0.01979757455090027,0.014133639753703018,-0.00713159681631129, ,1.6213099956512451
0.012045579083409447,0.021682883409438115,-0.08474309974809562, ,0.01244783806990896,0.021785700337254625,-0.08510085920055377, ,0.0005480651774090364, ,0.003934365876658505,0.001967574864985688,-0.008640898691415948,0.01482132762779956,-0.04388681018575793,-0.02725161311890081, ,0.009696170166413755, ,0.04632195821378165, ,5.7046788992218716e-05, ,0.06946598220364947,-0.17963848938733631,0.10060765948000001,3.9314767503913473,1.25022397285378,-0.37960256856109126, ,0.03719989869011007,-0.00454104622291714,0.0094757950743605,0.01979757455090027,0.014133639753703018,-0.00713159681631129, ,1.623157024383545
