NicholasDascanio/dvrk_moveit_final/test/execution/third_experiment_notsharpbends/thirdexp_700vel3.0/thirdexp_700vel3.0_23.csv
Current Position (x),Current Position (y),Current Position (z), ,Planned Position (x),Planned Position (y),Planned Position (z), ,Position Error,,Cartesian linear Velocity(x),Cartesian linear Velocity(y),Cartesian linear Velocity(z),Cartesian Angular Velocity(x),Cartesian Angular Velocity(y),Cartesian Angular Velocity(z), ,Total Linear Velocity, ,Total Angular Velocity, ,MSE, ,Joint 1 Position,Joint 2 Position,Joint 3 Position,Joint 4 Position,Joint 5 Position,Joint 6 Position, ,Joint 1 Velocity,Joint 2 Velocity,Joint 3 Velocity,Joint 4 Velocity,Joint 5 Velocity,Joint 6 Velocity, ,Time Stamp
0.009739118417873933,0.020423561292490136,-0.07959696652631906, ,0.009779691451621851,0.020427108143515033,-0.07955471861616845, ,5.868251129422711e-05, ,7.785524742954193e-06,-1.8545798771831588e-06,4.76739545230055e-07,-2.2954868929064024e-05,-9.708884081628085e-05,-2.8177030243359207e-06, ,8.01755215997943e-06, ,9.97655703065924e-05, ,4.890209274518926e-06, ,0.12213502040586062,-0.2233954938526924,0.08948030612,3.1271061271847116,0.23856732859045904,0.12098931330904016, ,9.708884081628085e-05,2.3127158448107283e-05,0.0,0.0,0.0,0.0, ,0.01681995391845703
0.00973802789784901,0.020425957266422753,-0.07958865699362232, ,0.009792887696433569,0.02043667764400687,-0.07960774468071638, ,5.906660473469948e-05, ,6.883750082003374e-06,0.000807606050700773,-8.488563857093965e-05,0.031876472161297575,0.7133967869754602,0.3619930232225859, ,0.000812084041697217, ,0.7141085947839867, ,5.352232546769391e-06, ,0.12213502040586062,-0.22338777111981817,0.08947382467000001,3.1271061271847116,0.23911387458952077,0.12879319444845125, ,9.5118433640176e-05,0.0,0.00044929582149455283,0.0,0.08695399092964946,0.7959678139755355, ,0.03351902961730957
0.009735587913908016,0.020488181268729682,-0.07957144693516599, ,0.009806144947192898,0.020446161667144584,-0.07966068182369275, ,0.00012127162567442408, ,-0.00016906297888335685,0.004442110276067078,0.001028476263707858,0.4958139848360465,0.2320605835657603,0.17768259561067273, ,0.004562750203614057, ,0.5474336690448275, ,7.4693981782297085e-06, ,0.12214274313873484,-0.22338004838694395,0.08948678757,3.1271061271847116,0.24649224557685456,0.139847484338222, ,0.00029506514755129476,3.842080939856994e-05,0.0011172851921436523,0.0,0.5174081075863582,0.25242838661844, ,0.05243492126464844
0.0097340117193844,0.020541145209634206,-0.07955997287551858, ,0.009819463013518236,0.020455560496767587,-0.07971353029382636, ,0.0001954649520066405, ,6.277883995823867e-05,0.00038467414274228533,-0.00029778083858706257,0.0188334631370552,0.2060292325763887,0.10939035346417365, ,0.0004904985287140304, ,0.20688824038535994, ,1.0344897469285504e-05, ,0.12215046587160908,-0.22338004838694395,0.08950104676000001,3.1271061271847116,0.2526408880662994,0.143981697567626, ,0.0003809420028184623,3.842080939856994e-05,0.00046112184991696075,0.0,0.03531429197387736,0.231692623633865, ,0.06904792785644531
0.009737177386805134,0.02054651289471713,-0.07958082097836756, ,0.009832841705299996,0.020464874416330995,-0.07976629033944901, ,0.00022408789991039437, ,0.000138138820910088,8.691489912444933e-05,-0.00039541884758344405,0.03676694640409225,-0.47029268397264457,-0.23928862373494908, ,0.00042777634174468034, ,0.47172769363911116, ,1.266487680039203e-05, ,0.1221581886044833,-0.22337232565406973,0.08952308369,3.1271061271847116,0.25277752456606484,0.14027641509774483, ,0.0011091371753772783,7.13968221408579e-05,0.0004181917393508363,0.0,0.0,-0.5279631679182741, ,0.08602595329284668
0.009746984116047823,0.020508605470308958,-0.07964451240707002, ,0.00984628083270034,0.020474103708905903,-0.07981896220849752, ,0.0002036736180657134, ,0.0006421855162592394,-0.002025837740381716,-0.004743786177375747,-0.3587857234642552,0.22636830854419088,0.07339240381167031, ,0.0051980696498132115, ,0.4242284838062205, ,1.3907213091711274e-05, ,0.12217363407023174,-0.2233646029211955,0.08956456497000001,3.1271061271847116,0.24703879157591632,0.13490948201570543, ,0.0001913142881441584,6.362524493638193e-05,0.0034545242940793764,0.0,-0.34349208451672103,0.2596380515226686, ,0.10593795776367188
0.009756466166733823,0.020522302364075182,-0.07970152559125461, ,0.009859780206152968,0.020483248657179525,-0.07987154614851294, ,0.00020274607925635838, ,0.0004603893170948651,0.0011876753087629872,-0.0027388334430146688,0.061393976513392234,0.0400731144424226,0.02865402062342739, ,0.003020552861797972, ,0.07331490198512405, ,1.4791573485311908e-05, ,0.12220452500172864,-0.22335688018832128,0.08962419431,3.1271061271847116,0.24717542807568177,0.13528813655285235, ,0.0016370217314198808,0.00041275359268563616,0.002968470279537831,0.0,0.06680913162669491,0.04314010218207788, ,0.12294888496398926
0.009765249715979533,0.02053710632472629,-0.07975805618802216, ,0.009873339636363047,0.020492309543455586,-0.07992404240664117, ,0.00020308029759719647, ,0.0003898639216021875,0.0005204188586287761,-0.002400147943510978,-0.002971195811090226,0.03233408299372093,0.01681872744970023, ,0.0024866724385257284, ,0.03247030839879755, ,1.5464312055361633e-05, ,0.12222769320035132,-0.22334915745544703,0.08968382365000001,3.1271061271847116,0.24744870107521263,0.1363721605877085, ,0.001173708946304093,0.00037024882645909446,0.0025088693526539615,0.0,0.0,0.03760241433443669, ,0.14152097702026367
0.009769413355281876,0.020543589205538396,-0.07977821789265174, ,0.00988695893430695,0.02050128664965429,-0.07997645122963311, ,0.00023431373257544181, ,0.0004179568505244642,0.00054202822145828,-0.002134576225524066,0.009484215734381287,0.0027587844897928896,0.0022432763461815333, ,0.0022416284670591876, ,0.009877309345823468, ,1.6330296968642343e-05, ,0.12224313866609976,-0.2233414347225728,0.08970586058,3.1273158171281965,0.24772197407474353,0.13623100352045622, ,0.001906575554820643,0.0005135527043676194,0.0022574846258503404,0.00116352352370664,0.010267834018761522,0.0047864761606260745, ,0.15801000595092773
0.009777141410226394,0.02055576022926536,-0.07982612201552414, ,0.009900637911232336,0.0205101802573127,-0.08002877286384541, ,0.00024165323488264685, ,0.0004488105055952045,0.00045230624310190707,-0.0026948137993795594,-0.012123625775251017,0.011654438951366539,0.003991578466454314, ,0.0027691213806563413, ,0.016816903670632835, ,1.709843682350728e-05, ,0.12226630686472244,-0.22332598925682437,0.08975641589000001,3.1273158171281965,0.24799524707427442,0.13592648897292278, ,0.0014036576386885083,0.0008546862856998651,0.002736439017350971,0.0011543751808790737,-0.010491509494005997,0.014534610154412344, ,0.17580199241638184
0.009788592658144133,0.02056916561210939,-0.07988998851242496, ,0.009914376378657563,0.020518990647584827,-0.0800810075552396, ,0.00023415239936644587, ,0.0006023579507303529,0.0005912505190532471,-0.003238024291130767,-0.009055620064569957,0.006262316100759726,0.003754023468442493, ,0.0033462237801799373, ,0.011010034393393922, ,1.766243710146597e-05, ,0.12230492052909356,-0.22331054379107593,0.08982252668000001,3.127525507071681,0.24799524707427442,0.13592648897292278, ,0.0025167654005286057,0.0010425951553294339,0.003317811189335555,-0.000301593241358628,-0.007351154571189679,0.01004252593360685, ,0.19428491592407227
0.00979987375075459,0.02058261046799834,-0.07995117053250164, ,0.009928174148372028,0.02052771810124208,-0.08013315554938322, ,0.0002293310060290225, ,0.0005435032401027457,0.0005842558810141579,-0.0030962854921832354,-0.007685122039415032,0.005578133860472123,0.0033044186432914084, ,0.0031974575142769595, ,0.009496140154898088, ,1.8094458699944354e-05, ,0.12235125692633891,-0.2233028210582017,0.08988604489,3.127525507071681,0.24799524707427442,0.13592648897292278, ,0.003040376311753519,0.00017398905332715537,0.0032296860340632607,-0.000301593241358628,-0.005425135585157726,0.0076153480421735815, ,0.2106020450592041
0.009805758017223234,0.020588303734356213,-0.07997862784685872, ,0.009942031032435685,0.020536362898673003,-0.08018521709145028, ,0.00025287803595305656, ,0.000605639096572919,0.0005940880641918383,-0.0030110833426377106,-0.0059690954660220645,0.0030591265041418573,0.002674496802863119, ,0.0031283161987917967, ,0.006707335939350757, ,1.8639409070805057e-05, ,0.1223821478578358,-0.22329509832532748,0.08991456327000001,3.127525507071681,0.24799524707427442,0.13592648897292278, ,0.0028989329280020943,0.0006762446783870233,0.0031056368726847345,-0.000301593241358628,-0.004828944094953121,0.00683708404662654, ,0.22923994064331055
0.009818477538373168,0.020600788450520182,-0.08004122766920872, ,0.009955946843179044,0.020544925319883996,-0.08023719242622072, ,0.00024580619422435074, ,0.0005247341843724199,0.0005072649263245253,-0.0028121008106623394,-0.0054761811088400916,0.0026107932977367377,0.00214250770937369, ,0.0029052667070435722, ,0.006066696053410726, ,1.9057804165990272e-05, ,0.1224439297208296,-0.2232719301267048,0.08997937777000001,3.127525507071681,0.24799524707427442,0.13592648897292278, ,0.0022014240367802555,0.001244007495308195,0.00288513159210288,-0.000301593241358628,-0.0038543745922109646,0.005535828071749634, ,0.24587106704711914
0.009822976080351294,0.020606193128604473,-0.08006758150994678, ,0.009969921393202786,0.02055340564449934,-0.08028908179808085, ,0.0002710015149231629, ,0.00047792180676077393,0.0005011116502204751,-0.002709822123291519,-0.004925725589039032,0.0026191395299370373,0.0019964900424547863, ,0.002796901514040909, ,0.005578769067605743, ,1.9586905963774878e-05, ,0.12245937518657805,-0.22326420739383057,0.09000659986000001,3.127525507071681,0.24799524707427442,0.13592648897292278, ,0.0017795981557024887,0.0010667528131320608,0.00278038253098272,-0.000301593241358628,-0.0035094575983542525,0.005066380401104116, ,0.2660188674926758
0.009842414021019135,0.020622255680922283,-0.0801540370125521, ,0.009983954495377987,0.020561804151761114,-0.08034088545102445, ,0.00024207526147711035, ,0.0005239841628954906,0.00041084477851583735,-0.0024997332146882664,-0.0045661572626224485,-0.0005118896566336482,0.0008812103143320161, ,0.0025868936931413996, ,0.004594760393096042, ,1.9872129431919086e-05, ,0.1225674934468172,-0.22321787099658522,0.09009604387,3.127525507071681,0.24799524707427442,0.13600816771306337, ,0.002659364296111095,0.0016645017868636709,0.0025629624328238135,-0.000301593241358628,-0.002725464047836773,0.002527291151403468, ,0.2842550277709961
0.0098470916973549,0.020627027699383065,-0.0801805313536568, ,0.00999804596284559,0.020570121120529944,-0.08039260362865158, ,0.0002664586249459074, ,0.0005261774794671996,0.0005012667572231226,-0.0028085484824423644,-0.003382016608594101,0.0011247197023850045,-0.0054481367319491525, ,0.0029010473419137355, ,0.0035641311108027996, ,2.0265951121609298e-05, ,0.12259066164543987,-0.22320242553083677,0.09012326596,3.1273158171281965,0.24799524707427442,0.13608984645320396, ,0.002040946268423514,0.0014409434773977228,0.0028830428090497744,0.0060816011625054135,-0.0025533737821891124,0.002082105108468758, ,0.30095601081848145
0.00986032064382904,0.0206397381537479,-0.08024705133490062, ,0.010012195609016459,0.020578356829284765,-0.08044423657417023, ,0.0002563507180199436, ,0.000620421203012621,0.0006555047122174584,-0.003482281393794052,-0.0031309484284751687,0.0007164875712597624,-0.00527996080832192, ,0.003597345215912863, ,0.003211882935208358, ,2.0560957752399686e-05, ,0.12265244350843366,-0.2231715345993399,0.09019196933000001,3.1273158171281965,0.24799524707427442,0.13608984645320396, ,0.0021818304279827387,0.0014716022830885123,0.003581117697841727,0.005829905710992331,-0.0022565845180620146,0.0018400933641295008, ,0.3181760311126709
0.009873403601506877,0.02065130346138567,-0.08030849348321839, ,0.010026403247571262,0.020586511556123295,-0.08049578453039563, ,0.0002503693652108876, ,0.0005535566545515158,0.0005272941807827223,-0.002941171054522065,-0.003248965938955543,-3.4803293851915374e-05,-0.0030317982079320974, ,0.003038906266215532, ,0.0032491523081668015, ,2.0794081646602244e-05, ,0.12271422537142745,-0.22314064366784297,0.09025548754000001,3.127525507071681,0.24799524707427442,0.13617152519334452, ,0.002242249295224156,0.0015447543179163137,0.0030213982397572082,0.0034410713599054375,-0.002028545123255523,0.0016541425283487508, ,0.33456897735595703
0.009879019136405367,0.020655790630763587,-0.08033359786700837, ,0.010040668692460045,0.020594585578761954,-0.08054724773975076, ,0.000274814310919275, ,0.000681934880934956,0.0004986496968412171,-0.002758134813378376,-0.0030767764744481876,-0.0019883516362611733,-0.002887854238911221, ,0.002884613379772995, ,0.003663344857302398, ,2.1230238741626395e-05, ,0.12274511630292435,-0.22312519820209453,0.09028141334,3.127525507071681,0.24799524707427442,0.13617152519334452, ,0.004096000382131906,0.001447873263741791,0.002853602923683268,0.0032819706621066078,-0.0019379863602560056,0.0015802979293428612, ,0.3503458499908447
0.009893645302108501,0.02066940350394633,-0.0804010600637767, ,0.010054991757902407,0.020602579174536517,-0.08059862644426703, ,0.000263686640727921, ,0.0007683559776505832,0.000695051033903277,-0.003544563058231274,-0.002743741750627166,-0.0020622646644816263,-0.0026005231384305756, ,0.0036928842551451893, ,0.003432353970817523, ,2.1576022037118222e-05, ,0.12281462089879237,-0.22310203000347187,0.09035011671000001,3.127525507071681,0.24799524707427442,0.13617152519334452, ,0.0036009453136933603,0.001267790616893081,0.0036550737769619097,0.0029676038393527935,-0.0017577492093491529,0.001433326618187126, ,0.3659939765930176
0.009900970497548265,0.020676188991901774,-0.08043614224999569, ,0.010069372258387076,0.02061049262040191,-0.08064992088558373, ,0.00027995798133959894, ,0.0007135193515127573,0.0007075383616018049,-0.003666618838136161,-0.003155129144011041,-0.0019327424232245052,1.7600948056934167e-06, ,0.003801817210531869, ,0.00370004493583544, ,2.1967683146732537e-05, ,0.1228532345631635,-0.2230865845377234,0.09038770912,3.1277351970151654,0.24799524707427442,0.13617152519334452, ,0.0031843981415768446,0.0014303407269937063,0.0037835656817102143,0.00023490897541322839,-0.001682522733448242,0.0013719844712370998, ,0.3815169334411621
0.009910335613203071,0.020684634993099794,-0.08048132570566979, ,0.010083810008672017,0.02061832619293257,-0.08070113130494898, ,0.0002877581003854017, ,0.0007795559082029891,0.0006141106298804862,-0.0034190662205432834,-0.0035288898573813407,-0.003173163341398741,-7.660636364089984e-05, ,0.0035601759928698086, ,0.00474573795626016, ,2.2362634690876435e-05, ,0.12289957096040885,-0.22306341633910073,0.09043437556,3.1277351970151654,0.24799524707427442,0.13633488267362562, ,0.004363080285643459,0.0018984101592528448,0.0035303217021276597,0.00023490897541322839,-0.0015959242284986782,0.0013013691971244868, ,0.3988049030303955
0.009924402827113724,0.02069583976354078,-0.0805440845214129, ,0.010098304823783918,0.020626080168322795,-0.08075225794321952, ,0.0002800794157333522, ,0.0008387271135120014,0.0006708038063626997,-0.0035994806983889317,-0.0032613105010044453,-0.0036912132221736038,-8.210003313086404e-05, ,0.003756288356296057, ,0.004925566021411684, ,2.2695190401912148e-05, ,0.12297679828915109,-0.22302480267472963,0.09049919006000001,3.1277351970151654,0.24799524707427442,0.13633488267362562, ,0.004807384092512125,0.0017380640804808044,0.0037251663985032745,0.00023490897541322839,-0.0014924813852120725,0.0012170184945583618, ,0.41330385208129883
0.009941592432676134,0.020707039621647893,-0.0806064588014736, ,0.010112856519018448,0.020633754822386607,-0.08080330104086134, ,0.0002710146052902182, ,0.0008573273993282766,0.00041098916525258837,-0.0028206690160713995,-0.004157380331260387,-0.004928884225068569,-0.00015401053162096036, ,0.0029765913494833656, ,0.0064480780659302035, ,2.2966563945298364e-05, ,0.12309263928226447,-0.2229861890103585,0.09056400456000001,3.1277351970151654,0.24799524707427442,0.13641656141376618, ,0.0062021897692747215,0.0027358841827900752,0.002914162371020857,0.0002721793760337048,-0.0013905098803859892,0.0013825591492810326, ,0.4288349151611328
0.009958368444334478,0.020715265810881938,-0.08066156199603383, ,0.01012746490993976,0.020641350430558383,-0.08085426083794973, ,0.0002668144332758338, ,0.000766244373854756,0.0003845553587586937,-0.002690817494685994,-0.003820235211085299,-0.0028424294074971823,-0.001746239074407166, ,0.0028240949088375734, ,0.004761680571348218, ,2.3202310446349924e-05, ,0.12320848027537783,-0.22293985261311314,0.09061844874000001,3.1279448869586495,0.24799524707427442,0.13649824015390674, ,0.0052228731238541945,0.002334674876966096,0.002746346813793104,0.0022801425450416505,-0.0012997820814744166,0.0015287826456184656, ,0.4458658695220947
0.009966830770392997,0.020719687424579164,-0.08068902457619125, ,0.01014212981238058,0.020648867267892636,-0.08090513757416934, ,0.0002871412137084258, ,0.0009252589207264158,0.0004932684812154097,-0.003156576744624574,-0.0037883487871395835,-0.004102239716778705,-0.0017566182175197257, ,0.0033261681571515656, ,0.005583901585231514, ,2.3498978702756273e-05, ,0.12327026213837163,-0.22290896168161625,0.09064955970000001,3.1279448869586495,0.24799524707427442,0.1365799188940473, ,0.006455596436436962,0.0026891486654517438,0.0032661085749436133,0.0022801425450416505,-0.0012588609408710084,0.0020941534202509734, ,0.46044301986694336
0.009976853141454621,0.020725826996415318,-0.08072393733962821, ,0.010156851042441744,0.020656305609064722,-0.08095593148881476, ,0.0003017511440172405, ,0.001022818925241026,0.0005933949134123194,-0.003535159898213778,-0.0035546861619313126,-0.005175607854742079,-0.0019667066498634594, ,0.003728476035619347, ,0.006278750657874449, ,2.3829602643021598e-05, ,0.12337838039861077,-0.22287034801724512,0.09070530017,3.1279448869586495,0.24799524707427442,0.136824955114469, ,0.007064348600742905,0.0025498100354235933,0.0036668534806629837,0.0022801425450416505,-0.001199210324953046,0.001571914720323875, ,0.47869086265563965
0.009997264660750902,0.02073627084018985,-0.08079149225961471, ,0.010171628416492462,0.02066366572837044,-0.08100664282079069, ,0.00028629353040707944, ,0.0009514242445954579,0.00035235328439271686,-0.00305924673687835,-0.005024780542321126,-0.005052622088229663,-0.0021684804732686283, ,0.003223096574309744, ,0.0071258269132075955, ,2.4084308694865163e-05, ,0.12347877592597568,-0.2228240116199998,0.09075196661000001,3.1279448869586495,0.24799524707427442,0.136824955114469, ,0.006899078614857765,0.004085137480726096,0.0031966308488862133,0.0022801425450416505,-0.001149916095750139,0.0015317185817258633, ,0.49376702308654785
0.010016897824263068,0.020744757826525517,-0.08084751670313925, ,0.010186461751169835,0.020670947899726868,-0.08105727180861211, ,0.0002796373273974625, ,0.0009791750838703392,0.0003719773100434946,-0.0027914789714664936,-0.004050553538873009,-0.005829799847595334,-0.0020713744092429203, ,0.002981527429389056, ,0.007098841459336758, ,2.43003861833314e-05, ,0.1236409533163344,-0.2227699524898802,0.09081418853,3.1279448869586495,0.24799524707427442,0.136824955114469, ,0.007637618739730163,0.0031696350652799916,0.0028919410893246188,0.0022801425450416505,-0.001085984169726903,0.001479586382869688, ,0.5092129707336426
0.010036856775007222,0.02075410377216112,-0.08090732023566806, ,0.010201350863378795,0.020678152396672034,-0.08110781869040436, ,0.00027023424449821714, ,0.001017662977611342,0.0004635758556723122,-0.002994561384748485,-0.00326754756849988,-0.005586974193411558,-0.003707617630859639, ,0.003196551015859103, ,0.006472337097946219, ,2.4472155412825518e-05, ,0.12378768524094466,-0.22271589335976064,0.09087641045000001,3.128154576902134,0.24799524707427442,0.136824955114469, ,0.007739900465007986,0.002651646613135459,0.003114746093077826,0.004022409301561438,-0.0010301087426447593,0.0014340237186890202, ,0.5261540412902832
0.010046600641742724,0.020759658693207735,-0.08093971898412036, ,0.010216295570292003,0.020685279492365552,-0.08115828370390393, ,0.00028652952906696596, ,0.0009434367890713822,0.00046884985529142885,-0.0030362154991266507,-0.0036154525225692976,-8.136752154826329e-05,-0.0014265066976232449, ,0.0032137980208651897, ,0.003616367978855291, ,2.4686654216552172e-05, ,0.12385718983681268,-0.22269272516113797,0.09091011399000001,3.128154576902134,0.24799524707427442,0.13674327637432843, ,0.0067679402718552086,0.0026760495782129604,0.003147364457617072,0.004022409301561438,-0.0010030862694391013,0.00652100199643808, ,0.5412969589233398
0.010065183682523937,0.020769561082938807,-0.08100224221820575, ,0.010231295689349607,0.020692329459588564,-0.08120866708645832, ,0.00027598758792753576, ,0.0009692813016134842,0.0005260757190582606,-0.0035147401200185916,-0.004145058431952786,-4.4400750188882255e-05,-0.0015405698915853152, ,0.003683701944390792, ,0.004145296164877514, ,2.4855860820258355e-05, ,0.1239884762956745,-0.2226386660310184,0.09097492849000001,3.128154576902134,0.24799524707427442,0.13690663385460955, ,0.006350491084616032,0.00326785125693524,0.0036251277924442427,0.003887349172324599,-0.0009561880920866846,0.006126899552682668, ,0.5576748847961426
0.010073689288604245,0.020775111202124663,-0.08103479469773539, ,0.010246351038259112,0.020699302570743924,-0.08125896907502612, ,0.00029293886703438506, ,0.0009304876846560737,0.0007102808165265245,-0.003587133784790018,-0.002245002870556226,0.0010946531670659601,-0.0008613930739541918, ,0.0037733055746393194, ,0.0024976594745960996, ,2.506759207301695e-05, ,0.12404253542579408,-0.2226154978323957,0.09100863203000001,3.128154576902134,0.24799524707427442,0.13706999133489067, ,0.005768350285026777,0.0013105478973314535,0.003735649981238274,0.0037439436175503273,-0.000935455859360909,0.006787046165742083, ,0.5750620365142822
0.0100935244576111,0.020785926785601084,-0.08109827279700081, ,0.010261461434995237,0.020706199097856672,-0.08130918990617739, ,0.00028115006581787283, ,0.0008425512493877485,0.0003507124005146659,-0.002275338263847572,-0.0020039073860908287,-0.015531672642034207,-0.006501377583976364, ,0.002451541558009674, ,0.01566041186592349, ,2.5232894862185757e-05, ,0.12418154461753012,-0.22256916143515038,0.09107474282000001,3.1283642668456193,0.24799524707427442,0.13739670629545295, ,0.006736867181848596,0.002034635260144841,0.0023745992128801434,0.00159283053818277,-0.0008906554855087108,-0.010249786722254236, ,0.589514970779419
0.010101591414341882,0.020788838215044302,-0.08112212310910707, ,0.010276626697799838,0.020713019312574,-0.08135932981609474, ,0.00030438935307750274, ,0.000856183766061338,0.00030753469664647427,-0.002649052725230116,-0.0036156055650124917,-0.012972415631707318,-0.005598151670460482, ,0.0028009120964352877, ,0.013466854524834706, ,2.5456933410933095e-05, ,0.12424332648052391,-0.22253827050365346,0.09109937233000001,3.1283642668456193,0.24799524707427442,0.13747838503559348, ,0.006332015720852624,0.0035097230286940937,0.002725202997433704,0.00159283053818277,-0.0008722915846348123,-0.00783253545404667, ,0.6045699119567871
0.010119525443860779,0.020797326418889577,-0.08118402060018927, ,0.010291846645181516,0.020719763486165558,-0.08140938904057171, ,0.00029411143955614404, ,0.0008572920676951569,0.0005798482398468399,-0.003327549321390437,-0.0016819946251958886,-0.00907274134075141,-0.0038845563158336027, ,0.0034847895426944327, ,0.009227336611796652, ,2.5640546515051023e-05, ,0.12436689020651151,-0.2224842113735339,0.09116289054000001,3.1283642668456193,0.24785861057450898,0.13758980293928988, ,0.005308880031835924,0.0022100908951300726,0.003447048586885956,0.00159283053818277,0.0,-0.004617065690620807, ,0.6218729019165039
0.01013801815054338,0.020810347671080247,-0.08126057031598526, ,0.01030712109591577,0.020726431889523663,-0.08145936781501538, ,0.00027414979509111784, ,0.0010031621643919822,0.0007011301844181946,-0.003881568495141598,-0.0018899413720233963,-0.00830339659866031,-0.0030460670981815436, ,0.0040699498579277, ,0.00851576611839515, ,2.5760064081044576e-05, ,0.12447500846675065,-0.22243015224341434,0.09124196423000001,3.1283642668456193,0.24785861057450898,0.13758980293928988, ,0.006226836059255522,0.0022884404024120335,0.0040275123944374215,0.00159283053818277,0.0,-0.002723882454906373, ,0.6369318962097168
0.010147372454359916,0.020815197261392644,-0.08129588799516588, ,0.01032244986904461,0.020733024793163385,-0.08150926637444413, ,0.0002879839377655925, ,0.0009095136558728337,0.0004185845685998515,-0.003548169120485717,-0.004086302193634728,-0.006709882809222568,-0.004610776445332569, ,0.0036867237811988953, ,0.007856232708419175, ,2.5910987094582725e-05, ,0.12452906759687021,-0.2223915385790432,0.09127826035000002,3.1285739567891033,0.24785861057450898,0.13758980293928988, ,0.005548984379002273,0.004653789211990724,0.0036259529979512867,0.0031976596764429384,0.0,-0.0020936141208312193, ,0.6527180671691895
0.010151023726568287,0.020817076746819114,-0.0813097721928471, ,0.010337832783876549,0.020739542467223048,-0.08155908495349047, ,0.0003210390023416163, ,0.0009515882474124003,0.00045054837625803335,-0.0033674624835504314,-0.0032823605429652667,-0.007304487826922569,-0.004414448622093206, ,0.003528217341672958, ,0.008008085458750385, ,2.6210332109279976e-05, ,0.12466035405573203,-0.22232203398317518,0.09134307485000001,3.1285739567891033,0.24785861057450898,0.13758980293928988, ,0.005718549119517706,0.0034159265905481144,0.0026280830754000996,0.0031976596764429384,0.0,-0.0011881382169174849, ,0.6666009426116943
0.01017465300955585,0.0208275490437417,-0.08138632960504982, ,0.0103532696599862,0.020745985181464085,-0.08160882378639887, ,0.0002967494434279253, ,0.000994306323954098,0.000427950004744022,-0.003114311020846462,-0.0029534005975972544,-0.0074688706460522844,-0.00400325545250989, ,0.003297077403850454, ,0.008031600309053496, ,2.643473104369669e-05, ,0.12472213591872583,-0.2222911430516783,0.09137159323,3.1285739567891033,0.24785861057450898,0.13758980293928988, ,0.007217955600504556,0.0034420070949978776,0.0032211954539939336,0.0031976596764429384,0.0,-0.0010723318909250058, ,0.6802530288696289
0.010184187718278179,0.020832382726852818,-0.08142162679230867, ,0.010368760317214504,0.0207523532052715,-0.08165848310702774, ,0.0003107614558225336, ,0.0009741823890226107,0.00041921208692622877,-0.003608730053153583,-0.004318433916633983,-0.0063828670788904415,-0.00413000312322681, ,0.003761343203888833, ,0.007706481883913641, ,2.6685447224183962e-05, ,0.12478391778171963,-0.22225252938730716,0.09140788935000001,3.1285739567891033,0.24785861057450898,0.13758980293928988, ,0.006219068897127779,0.004811188984324893,0.0036923531571627266,0.0031976596764429384,0.0,-0.0009744495099234763, ,0.693518877029419
0.010196264839618923,0.02083886513760683,-0.08146696240207538, ,0.010384304575668165,0.02075864680765393,-0.08170806314884868, ,0.0003161067745059348, ,0.0010195075395375496,0.0006622750139518604,-0.003949299963201905,-0.002625748565494486,-0.003780996200695774,-0.0025731452858766234, ,0.004132187558258387, ,0.004603312594007046, ,2.6939465037828674e-05, ,0.12486114511046187,-0.2222061929900618,0.09145455579,3.1285739567891033,0.24785861057450898,0.13758980293928993, ,0.006243215645820397,0.002900885727943493,0.004085358173890742,0.0031976596764429384,0.0,0.001971488751641387, ,0.7076320648193359
0.010219172921865883,0.020852108632894176,-0.08155906346144054, ,0.010399902255719944,0.020764866257244087,-0.08175756414494757, ,0.0002822708727041516, ,0.001023676243367085,0.0005124388709306081,-0.0036171280174432446,-0.003540713651950637,-0.0035319476560631844,-0.002283436220845563, ,0.003793958584677445, ,0.005001130551295007, ,2.7101492106764406e-05, ,0.12499243156932369,-0.22211352019557112,0.09154918496000002,3.128783646732588,0.24785861057450898,0.13767148167943047, ,0.006783757798997405,0.0037622838439369953,0.0037295273987356593,0.0031967856317290143,0.0,0.0028576150007077255, ,0.7221639156341553
0.010230186493648053,0.02085594456450726,-0.08159577523280227, ,0.010415553178008023,0.020771011822298548,-0.08180698632802412, ,0.00029357197603741475, ,0.0011001697199342288,0.0004346963592462411,-0.003756768698545576,-0.004896647010520603,-0.0030532578723467454,-0.0018486909783587602, ,0.003938609575951127, ,0.0057705749135067725, ,2.7284254104819883e-05, ,0.12506965889806593,-0.22205946106545155,0.09158677737000001,3.128783646732588,0.24785861057450898,0.1378348391597116, ,0.007488238832540417,0.005037052221708673,0.0038540555335107676,0.0031967856317290143,0.0,0.004184852824087752, ,0.7350869178771973
0.010241480391049773,0.020860476304450953,-0.08162957850792346, ,0.01043125716343622,0.020777083770698316,-0.08185632993039194, ,0.0003072226320025571, ,0.0011823816138880618,0.00046840809092944,-0.0034878510222138117,-0.003854102915060713,-0.0043600230924571185,-0.0016742984891331865, ,0.003712483962748746, ,0.0058192705840571235, ,2.7492077934642308e-05, ,0.12515460895968242,-0.22202084740108044,0.0916217772,3.128783646732588,0.24785861057450898,0.1379981966399927, ,0.008880592860460472,0.003979804454851747,0.0036136142286751364,0.0031967856317290143,0.0,0.004280906329665144, ,0.7499439716339111
0.010250542677173171,0.02086421974082913,-0.08165712590767273, ,0.010447014033173505,0.020783082369948986,-0.08190559518397997, ,0.0003269881464986102, ,0.0011868736910788501,0.0004295632032917374,-0.0035683386191608137,-0.004311681288954037,-0.003944612817515152,-0.003256471991103262, ,0.003785001216009302, ,0.00584384849556226, ,2.7737608950746604e-05, ,0.1252163908226762,-0.22198995646958353,0.09165029558000001,3.1289933366760723,0.24785861057450898,0.13807987538013325, ,0.008765293894774318,0.004632852027767185,0.0036821108460471574,0.004727838288463509,0.0,0.004239448542673179, ,0.7635889053344727
0.010277912987513084,0.020876333706181943,-0.08174731603142232, ,0.010462823608654276,0.020789007887180834,-0.08195478232033143, ,0.00029130739350169887, ,0.0010467102244432719,0.0003611934749144833,-0.0034044380419046842,-0.0046173584080859125,-0.0024875823163168147,-0.0032959640800340373, ,0.003579980642607259, ,0.0052448130559483675, ,2.789392994600725e-05, ,0.1254094591445318,-0.22187411547647015,0.09174362846,3.1289933366760723,0.24799524707427442,0.13796845747643685, ,0.007307689235522551,0.0049415897705290404,0.003490863800131493,0.004727838288463509,0.0,0.004239448542673179, ,0.7767820358276367
0.010289253504321085,0.02088135735036094,-0.08178637373895657, ,0.010478685711577817,0.020794860589149058,-0.08200389157060478, ,0.0003011316289120786, ,0.001096659285251928,0.0005561040497315734,-0.003814969852938967,-0.0036350133415580287,-0.0001358077744679809,-0.0019838140079593307, ,0.004008230068358138, ,0.0036375493036972834, ,2.8066452488803752e-05, ,0.12548668647327405,-0.22182777907922482,0.09178381345000002,3.1289933366760723,0.24799524707427442,0.13805013621657744, ,0.007278684521405747,0.003771126005009569,0.003939849497897601,0.004727838288463509,0.0,0.006844836592466685, ,0.7920699119567871
0.0102970806636842,0.02088479945875642,-0.08181280354971192, ,0.010494600163908243,0.02080064074223407,-0.08205292316557387, ,0.00032210878978559086, ,0.0012222914168696713,0.0005247021093748216,-0.003974757864574991,-0.004436942424102868,-0.001399833596227995,-0.0020854564635152213, ,0.004191420844216958, ,0.004652525247630275, ,2.827857677114106e-05, ,0.12554074560339362,-0.2217968881477279,0.09181103554,3.1289933366760723,0.24799524707427442,0.13805013621657744, ,0.008542663594015737,0.004579552568824854,0.004101135818743564,0.004727838288463509,0.0,0.006844836592466685, ,0.805513858795166
0.010326191717067881,0.020891141027658704,-0.08188566123000843, ,0.010510566787874452,0.020806348612441586,-0.08210187733562792, ,0.0002965355370651871, ,0.00103642290155455,2.1606288699898158e-05,-0.002228200233961633,-0.005502207646092848,-0.00388511106960474,-0.00316154811094316, ,0.0024575425825822048, ,0.006735605165756286, ,2.8428805238867677e-05, ,0.1257801503224946,-0.22167332442174031,0.09188622036,3.1289933366760723,0.24799524707427442,0.13821349369685854, ,0.00894656893356793,0.005799925309563489,0.0022748945329905744,0.004613406661114695,0.0,0.004538953169101774, ,0.8182849884033203
0.010337226390779268,0.020893591307465927,-0.08191328466575486, ,0.010526585405969915,0.020811984465403027,-0.08215075431077229, ,0.0003144969723386162, ,0.0010716274460049286,0.0003277694298085682,-0.002895449698915325,-0.0038704037088371362,-0.0036086502244661585,-0.0017794225601160847, ,0.0031047459060439915, ,0.005291727610942627, ,2.8611718117917417e-05, ,0.12586510038411106,-0.221626988024495,0.09191473874000002,3.1292030266195567,0.24799524707427442,0.13821349369685854, ,0.008382190445280506,0.004008953740261157,0.002996390428893906,0.003405479854917496,0.0,0.004513957029354671, ,0.8313078880310059
0.010348881052678909,0.020897816312068072,-0.08194576544672857, ,0.010542655840952443,0.020817548566375327,-0.08219955432062795, ,0.0003292421177251791, ,0.001334757998665982,0.0007193239685311281,-0.0045972387670216806,-0.003413295371945356,-0.0034079815010309815,-0.004979882585452845, ,0.004840827425937968, ,0.004823372383929883, ,2.8819049466640226e-05, ,0.12604272324021823,-0.2215420379628785,0.09199510872000001,3.1294127165630417,0.24799524707427442,0.1382951724369991, ,0.008848833319620908,0.003959673836669664,0.004761976538116592,0.00668963384195103,0.0,0.004453125968336682, ,0.8483119010925293
0.010375896402849024,0.02091188000098278,-0.08203846502078893, ,0.010558777915844133,0.0208230411802417,-0.0822482775944327, ,0.0002921631392305857, ,0.0012357315347854467,0.0005924893978262679,-0.004306805162071522,-0.005849322256402389,-0.006424622674489973,0.008950890700578132, ,0.004519584805780907, ,0.008688518048957542, ,2.8944274555049705e-05, ,0.1261276733018347,-0.2215034242985074,0.09204307145000001,3.129622406506526,0.24799524707427442,0.13837685117713966, ,0.008486174941600682,0.004627493908570161,0.004463102135051835,-0.007883536079977329,0.0,0.004267322076182741, ,0.8616678714752197
0.010386885151145527,0.020917414442015482,-0.08207445100154602, ,0.010574951453931117,0.020828462571511448,-0.08229692436104052, ,0.00030459114431378146, ,0.0010481382081413836,0.00042508702379594437,-0.0035483981615800782,-0.005779569805093826,-0.005560244695125922,0.008837536348635235, ,0.0037243015713379606, ,0.008019959329016417, ,2.909034845079647e-05, ,0.12620490063057693,-0.22145708790126203,0.09208196015,3.129622406506526,0.24813188357403987,0.13826543327344323, ,0.0073827057994400504,0.004535541658862161,0.0036458712565804537,-0.007883536079977329,-3.939250327425818e-05,0.0039863543345526106, ,0.874769926071167
0.010397347986969544,0.020920058852375727,-0.082106134656509, ,0.010591176278763523,0.02083381300432023,-0.0823454948489224, ,0.00031984536063348344, ,0.0010332052365163973,0.0002145111420101825,-0.002884941437834008,-0.006329645602209626,-0.008328726885334753,0.007772599460791462, ,0.00307187486570387, ,0.010460980106100404, ,2.92618495788026e-05, ,0.12628212795931917,-0.22140302877114246,0.09211436740000001,3.129622406506526,0.24813188357403987,0.1383471120135838, ,0.008207057156188692,0.005240418077562708,0.00295415643916914,-0.007883536079977329,-3.891200280611368e-05,0.0018055473625518555, ,0.8917069435119629
0.01042158034043799,0.02092690108993112,-0.08217003174756621, ,0.01060745221415517,0.020839092742430385,-0.08239398928616634, ,0.00030399940530496944, ,0.0010072126473237744,0.00029509418883808545,-0.002594146485178499,-0.005010969745821006,-0.003379945190384966,0.010207927564865896, ,0.002798419890541613, ,0.006044323549087821, ,2.939732362662149e-05, ,0.12646747354830057,-0.221318078709526,0.09217788561000001,3.129622406506526,0.24813188357403987,0.1386738269741461, ,0.008272801092594767,0.00337231935605175,0.0026726193825503362,-0.007626483734272137,-3.388434631501938e-05,0.007406346540988402, ,0.905703067779541
0.010431709951100715,0.02092995629692767,-0.08219760856887189, ,0.010623779084183663,0.020844302049231024,-0.08244240790047774, ,0.0003227288564513382, ,0.0011132723785933182,0.00024724411915523405,-0.003033068382938045,-0.005482381585230481,0.0021258418878125542,0.00010015925230645822, ,0.0032403717161730195, ,0.0058801115058612205, ,2.956440428967181e-05, ,0.12656014634279125,-0.22127174231228064,0.09220899657,3.1294127165630417,0.24813188357403987,0.13875550571428663, ,0.008592654113493393,0.005264721069560017,0.003114746093077826,0.004273962026082277,-3.167507035664851e-05,0.010967928394295272, ,0.9184529781341553
0.010443967759070343,0.020933938770142272,-0.0822381509975392, ,0.01064015671318981,0.020849441187738457,-0.08249075091917944, ,0.00033190530606327896, ,0.0010061165413762113,0.00045285791882879547,-0.0035830195259344702,-0.004474833703611093,0.0038981950288723786,4.5582627301883356e-05, ,0.0037452321328437952, ,0.005934649152861842, ,2.9799723453580615e-05, ,0.12664509640440774,-0.22120996044928687,0.09225047785000001,3.1294127165630417,0.24813188357403987,0.13875550571428663, ,0.006464895846571032,0.004279167998698692,0.0036812598844464996,0.004273962026082277,-2.9282412751520484e-05,0.010569314334414643, ,0.9346718788146973
0.010468724636248155,0.02094894949790702,-0.0823276176607449, ,0.010656584925777965,0.020854510420595967,-0.08253901856921225, ,0.00029816198920454414, ,0.0010826173001819443,0.0006665884365903349,-0.004193830725438179,-0.0005980044498310397,0.00263456862063991,-0.006363810358428702, ,0.004382307213794865, ,0.0027015846907946783, ,2.996619915066143e-05, ,0.12679955106189222,-0.22111728765479616,0.09234381073,3.129622406506526,0.24840515657357073,0.13853266990689378, ,0.006285885506314213,0.0036583834995869186,0.004335550223189984,0.009895230022281714,0.002348030942147162,0.007539139656993814, ,0.9460148811340332
0.010480081130492667,0.020955024426958818,-0.08236610732381813, ,0.010673063546815485,0.02085951001007448,-0.08258721107713503, ,0.0003086293676456711, ,0.0011907656892125933,0.00038677927482267055,-0.0035945169605620213,-0.008339433097596745,0.00266217695146431,-0.00548591115137355, ,0.003806320180148581, ,0.00875404648777517, ,3.0147604606791784e-05, ,0.12687677839063446,-0.2210709512575508,0.09238399572000001,3.129622406506526,0.24854179307333618,0.13850293074333797, ,0.008493098793253554,0.004684575505438025,0.003690642150139018,0.009256751851468495,-0.004162937933425475,0.010288592093823195, ,0.9575479030609131
0.010491173494879548,0.020959212929070492,-0.082398658570802, ,0.010689592401432767,0.020864440218072548,-0.08263532866912461, ,0.00032305520374652355, ,0.001119360706549835,0.0003393311475450424,-0.003252696620762709,-0.008813466197366844,0.0030756687753760083,0.0009057152723591094, ,0.003456609513060902, ,0.00933471608908666, ,3.03505429609566e-05, ,0.1269540057193767,-0.2210323375931797,0.09241769926000001,3.1298320964500106,0.24854179307333618,0.1386662882236191, ,0.00831041974510684,0.004328779042788237,0.0033414750409062307,0.00347496756106234,-0.004162937933425475,0.011968209825040725, ,0.9715700149536133
0.010508107177935596,0.02096395168177905,-0.08244514448183302, ,0.010706171315023062,0.02086930130611662,-0.08268337157097708, ,0.00032394481322486684, ,0.0012172108390385101,0.0003937312620473361,-0.0034887576409842126,-0.008855263086406957,0.00274019514433507,0.0011347817705678789, ,0.003715919322443902, ,0.009269538998336524, ,3.05499902105061e-05, ,0.12708529217823852,-0.22096283299731168,0.09246566199,3.1298320964500106,0.24854179307333618,0.13899300318418134, ,0.009108109908390406,0.004335034075075752,0.0035940459205776173,0.00347496756106234,-0.004162937933425475,0.012486391383647391, ,0.9869899749755859
0.010527937206432225,0.020972660157235496,-0.08250911109962582, ,0.010722800113242255,0.020874093535361172,-0.08273134000810685, ,0.0003115647912759739, ,0.0012186593269501258,0.00045744378475713024,-0.003963338246881041,-0.00935610371789267,0.003426989665910883,0.0013225687897001539, ,0.004171622637603447, ,0.009963981833197995, ,3.07226313055634e-05, ,0.12722430136997456,-0.22089332840144366,0.09253177278000001,3.1298320964500106,0.24854179307333618,0.13907468192432187, ,0.008394735686103256,0.0048073445181615266,0.004066584508552465,0.003230770196700319,-0.004162937933425475,0.012516409513014238, ,0.998297929763794
0.010539571116914326,0.02097789283995011,-0.08254940788540271, ,0.010739478622008792,0.020878817166588917,-0.08277923420554731, ,0.0003203110005545751, ,0.001187418424665914,0.00045214818099123056,-0.0039396521049197735,-0.009365557672762278,0.003724401464109006,0.0015076919954504127, ,0.004139475715668418, ,0.0100789302923794, ,3.090631818412471e-05, ,0.12730152869871683,-0.2208469920041983,0.09256936519,3.1298320964500106,0.24854179307333618,0.13907468192432187, ,0.008055663019954203,0.004793025406306441,0.004026494317492417,0.0030529851390723927,-0.004162937933425475,0.012516409513014238, ,1.009793996810913
0.010551869803462625,0.020982478724069636,-0.08258978326900435, ,0.010756206667503447,0.020883472460211255,-0.08282705438795157, ,0.00032841038073681687, ,0.001260533402944953,0.0004475803442308623,-0.0040904376507955925,-0.00983566910531177,0.003049483322995724,0.0016152174695816032, ,0.004303597657719407, ,0.010297559620672223, ,3.1099535690069446e-05, ,0.1273864787603333,-0.22079293287407872,0.09261473534,3.1298320964500106,0.24854179307333618,0.13907468192432187, ,0.008693064880343887,0.005245438697112347,0.004191792505263158,0.0028680968802199877,-0.004162937933425475,0.012516409513014238, ,1.0266690254211426
0.010571743526943424,0.02098967631097116,-0.08265008119094035, ,0.010772984076169287,0.02088805967626805,-0.08287480077959233, ,0.0003183120994009348, ,0.001192060174722131,0.00035983213910804933,-0.0035766308772534018,-0.009605944617561701,0.0028930276236117636,0.0024504257771017232, ,0.0037871856385205188, ,0.01003213737153524, ,3.1270941737037836e-05, ,0.12752548795206933,-0.22071570554533648,0.09267695726000001,3.130041786393495,0.24854179307333618,0.13907468192432187, ,0.008670842049089064,0.004913491896724,0.0036676977941515086,0.002046930164804928,-0.004162937933425475,0.012516409513014238, ,1.0387458801269531
0.010597316068995877,0.02099627405973619,-0.0827192293833784, ,0.010789810674711263,0.020892579074428264,-0.08292247360436164, ,0.00029852141727289137, ,0.0013148144682166556,0.0002472880787202944,-0.003447416720186753,-0.009565407507770164,0.002667502332370641,-0.005571544448237868, ,0.0036979143476197785, ,0.009930387152371047, ,3.1404990264165156e-05, ,0.12771855627392495,-0.22060758728509736,0.09274825321,3.1302514763369795,0.24854179307333618,0.13923803940460297, ,0.00983842887823716,0.0060266268108048705,0.0035795082067415734,0.00993736924879046,-0.004162937933425475,0.010059687890338734, ,1.0507409572601318
0.010607073117149198,0.020997437626947432,-0.08274462785346433, ,0.010806686290096535,0.020897030913989853,-0.08297007308577198, ,0.0003174153108961495, ,0.0012718025220912177,9.625114261848896e-05,-0.003109733275348712,-0.010246495259007215,0.0008106276688275983,-0.006581581108798789, ,0.0033611288254787224, ,0.010278510690732968, ,3.156735362364435e-05, ,0.1277957836026672,-0.22055352815497778,0.09277417901000001,3.1302514763369795,0.24854179307333618,0.13923803940460297, ,0.01009929961735443,0.006743599599836639,0.0031642454350417166,0.009906151308207788,-0.004150118575071329,0.009853667064664121, ,1.0631659030914307
0.010622787944848453,0.021001639651685333,-0.0827860038938304, ,0.010823610749553644,0.020901415453880325,-0.08301759944695619, ,0.00032250765718500426, ,0.0012922672250131766,0.0003622593437343775,-0.0034655675733091537,-0.007888165609319207,-0.0012695270751783964,-0.006545665324056765, ,0.003716361798605999, ,0.007989671781416947, ,3.173435392268957e-05, ,0.1279193473286548,-0.22049174629198398,0.09281695658000001,3.1302514763369795,0.24854179307333618,0.13940139688488412, ,0.009811976189139282,0.004647420486464689,0.0035746884021543987,0.009043771698486858,-0.0039301657040157,0.00740847533453927, ,1.079171895980835
0.01063553612720245,0.02100303184743312,-0.08282067380951466, ,0.010840583880572961,0.02090573295265641,-0.08306505291066738, ,0.00033351581846633897, ,0.0012363836724406804,0.00036472827154748625,-0.0036470849664126106,-0.003878357148267451,-0.009381735096363494,0.003943022383728921, ,0.0038681907980058056, ,0.010151778511305479, ,3.191545203814894e-05, ,0.1281124156505104,-0.22036818256599638,0.09288954882000001,3.1304611662804644,0.24840515657357073,0.13959449352872108, ,0.009214532949719472,0.005689662515704149,0.003755909342136289,-0.004139942630209001,0.002355634530737845,0.0007983404518467048, ,1.0910379886627197
0.010661400067554335,0.021009427607496304,-0.08289521215665868, ,0.010857605510906157,0.020909983668504814,-0.08311243369928004, ,0.0003091453890677151, ,0.001268339341586729,0.0003766960468277751,-0.0038895402765941347,-0.004344972686441953,-0.009505180802456301,0.003819292106371961, ,0.004108419180215221, ,0.010451184088087945, ,3.205329323557767e-05, ,0.1282050884450011,-0.2203064007030026,0.09292843752,3.1304611662804644,0.24840515657357073,0.13959449352872108, ,0.009214318689816894,0.006169358765720675,0.0039961895434019075,-0.004139942630209001,0.002355634530737845,0.0006594174183936869, ,1.1035149097442627
0.010669472809920014,0.021013252274490454,-0.08292120977004708, ,0.010874675468566254,0.02091416785924216,-0.08315974203478911, ,0.0003298840611238212, ,0.0013835885197798618,0.0004162312145776783,-0.003975293203887975,-0.0011057700720329853,-0.011049889014303118,-0.006437967283576709, ,0.004229718864526738, ,0.011105078733978296, ,3.222103728720689e-05, ,0.12826687030799488,-0.22026778703863145,0.09295565961,3.1302514763369795,0.24854179307333618,0.13956475436516522, ,0.010193032274492517,0.006164480353882032,0.00410642215003867,0.0053349550242023204,0.004219028726025924,-0.002319619157305687, ,1.1215589046478271
0.010697892234570313,0.021022336204610678,-0.08300146737537009, ,0.010891793581827331,0.020918285782315246,-0.0832069781388113, ,0.0003010961586240043, ,0.001374878882143338,0.0003452206969666394,-0.003938277864875015,-0.001470043128776685,-0.008451694093159035,-0.011181788555986446, ,0.004185630395907211, ,0.008578587232021737, ,3.233982486207097e-05, ,0.12847538409559894,-0.22015966877839233,0.09303862217000002,3.1304611662804644,0.24854179307333618,0.1397281118454464, ,0.009981208126464764,0.0068337538339053264,0.004052101633172221,0.010735650194534077,0.003933020138182327,-0.0009615062319837616, ,1.133162021636963
0.010710919749639674,0.02102537831563035,-0.08303808493778117, ,0.01090895967922455,0.02092233769480112,-0.08325414223258458, ,0.000310673362051887, ,0.0012523376329372712,0.0003755300694257655,-0.003445532366908176,-0.0005602561291227345,-0.0037944356154172867,-0.007282042439862501, ,0.0036852497434130167, ,0.003835574022772003, ,3.247092064436862e-05, ,0.12856805689008963,-0.22009788691539853,0.09307621458000001,3.130670856223949,0.24854179307333618,0.13980979058558693, ,0.009317455546540468,0.005189191936022399,0.003569881559838638,0.009144797945705073,0.003741467582564053,0.0039081547491945905, ,1.144960880279541
0.010723143428851462,0.021028491751150142,-0.08307209262211153, ,0.010926173589553693,0.0209263238534076,-0.08330123453696908, ,0.00032274687082679815, ,0.0011856969956695303,0.0002882451814556848,-0.0033395504489223734,-0.0018860135425503215,0.0031389355814717057,-0.004238319049118439, ,0.00355549713135446, ,0.003661961667185721, ,3.261776745408588e-05, ,0.12866072968458034,-0.22004382778527895,0.09311121441,3.130670856223949,0.24854179307333618,0.14005482680600861, ,0.00868269584324525,0.005866742532622321,0.003438120336714872,0.009144797945705073,0.0035688493951225877,0.010970674509325862, ,1.15871000289917
0.010728220527967536,0.021029016284890092,-0.08308612304116805, ,0.010943435141871306,0.020930244514473163,-0.08334825527244688, ,0.000353251326033265, ,0.0012007608831487682,0.0002625484766941586,-0.0033311360838305932,-0.002950382656111904,0.012535197333661173,0.0005154455399123577, ,0.0035506655728345994, ,0.012877729986342469, ,3.280791502464092e-05, ,0.12869934334895144,-0.22001293685378207,0.09312547360000001,3.130670856223949,0.24854179307333618,0.1401365055461492, ,0.008870728795620444,0.006132026053598718,0.003425550864516129,0.009144797945705073,0.003502278579435786,0.021714338980281977, ,1.1705329418182373
0.01076076123249418,0.021039559273432748,-0.08317134564621438, ,0.010960744165494394,0.020934099933967335,-0.08339520465912201, ,0.0003181630139281209, ,0.0011382889642035056,0.0003283008845769062,-0.00319694378921446,0.0028628238500201914,0.005585722579376319,-0.0022964020378671715, ,0.0034093889229946145, ,0.006276627820418686, ,3.294120961614037e-05, ,0.12895419353380086,-0.2198662049291718,0.09321491761,3.130670856223949,0.24895170257263252,0.1402106455357627, ,0.008329416754665253,0.005499632093597166,0.0033143594506866423,0.008899889486207551,0.008184900633219713,0.013325323903263877, ,1.183297872543335
0.010772184817757189,0.021043022575604656,-0.08320401693329199, ,0.010978100490000253,0.02093789036749093,-0.08344208291672174, ,0.0003318575865104708, ,0.001201747094079167,0.00040764680780510797,-0.003405242546893884,0.004521851952998915,-0.013207599463973839,-0.010620719026856584, ,0.0036340127684445145, ,0.013960223072276968, ,3.31415235397428e-05, ,0.12903914359541732,-0.21981986853192645,0.09324862115000002,3.130670856223949,0.24895170257263252,0.14037400301604383, ,0.008773564467888212,0.005141595491398805,0.0035420972915276862,0.008140926234290224,0.008184900633219713,-0.007058283083089315, ,1.1928658485412598
0.010781655987987304,0.021046000503318778,-0.08323167443068223, ,0.010995503945226526,0.020941616070275986,-0.08348889026459569, ,0.00035040982276878055, ,0.0013072801254688756,0.0005022795248618948,-0.004083754231638122,0.0036044685216354544,-0.013690632140369925,-0.010352552295388475, ,0.004317211446288411, ,0.014157174880271876, ,3.336572573135571e-05, ,0.12910864819128534,-0.21978125486755531,0.09327713953000001,3.130670856223949,0.24895170257263252,0.14037400301604383, ,0.008986198791291984,0.005775969688363138,0.004230760031872511,0.007662590637612581,0.007941332577151097,-0.007241097995022396, ,1.2055349349975586
0.010800124812201755,0.021053649894090216,-0.083294703740452, ,0.011012954361270692,0.02094527729718641,-0.08353562692171691, ,0.00033924182523292545, ,0.001506759751177285,0.0007925373863732295,-0.005319207336208914,0.002287560114037146,-0.010578163459914124,-0.005159516798404482, ,0.005585016306345567, ,0.01082268308700353, ,3.356960765341552e-05, ,0.12922448918439872,-0.21970402753881307,0.09334195403000001,3.1308805461674334,0.24895170257263252,0.14037400301604383, ,0.009517278314496457,0.00556252922547516,0.005513607310488058,0.004467477111305542,0.007141978982982272,-0.002364263701293636, ,1.2156760692596436
0.010815952862741483,0.02106097712741302,-0.0833473781377383, ,0.011030451568490187,0.020948874302717753,-0.08358229310668167, ,0.00033728590350945036, ,0.0015047409627825942,0.0007093507322702311,-0.0049826019083087135,0.002600939670716445,-0.009097319173505428,-0.011800075836801907, ,0.005252974928850302, ,0.009461823304433879, ,3.376709058595761e-05, ,0.12932488471176365,-0.2196499684086935,0.09339639821000001,3.1310902361109174,0.24895170257263252,0.14037400301604383, ,0.009811762093806688,0.005603561173319974,0.005168335989617133,0.011396172363465426,0.006640354343714805,-0.0020587941559939123, ,1.225250005722046
0.010830530226685162,0.021066232338124352,-0.08339400142398447, ,0.011047995397502059,0.020952407340997757,-0.08362888903770943, ,0.0003397343396989756, ,0.001542163690519622,0.0005422683485207119,-0.004561713561854285,0.0013803363384939254,-0.010066023801550694,-0.011902968106153322, ,0.0048457769687192355, ,0.010160224485975696, ,3.396468683406024e-05, ,0.12942528023912855,-0.2195881865456997,0.09344436094000001,3.1310902361109174,0.24895170257263252,0.14037400301604383, ,0.010886810877680722,0.006397967071262325,0.004726650302670624,0.011396172363465426,0.00621112601900781,-0.0019338329692800164, ,1.2350568771362305
0.010845619166100549,0.021070549589309453,-0.08343944661066488, ,0.0110655856791831,0.020955876665786254,-0.083675414932644, ,0.00034236850796282606, ,0.00147203381415654,0.0004095733907861184,-0.004168121214081141,0.0004595767884676081,-0.009944539808998324,-0.011304477800435309, ,0.004439354498993467, ,0.009955153518614849, ,3.416265881542948e-05, ,0.1295333984993677,-0.21951868194983168,0.09349102738000001,3.1310902361109174,0.24895170257263252,0.14037400301604383, ,0.0106705982995561,0.006841530293084373,0.004306248045417681,0.010697529223627508,0.005818347339832583,-0.0018640407128591486, ,1.2497248649597168
0.01086136292022237,0.02107486040732031,-0.08348480662966888, ,0.0110832222446693,0.020959282530475704,-0.08372187100895298, ,0.00034464376591679516, ,0.0014522998715447615,0.0004725522117865154,-0.004074583059117879,0.0010425887729874665,-0.010828622873990652,-0.010761938531048265, ,0.00435140294794721, ,0.010878697696580215, ,3.436048857891987e-05, ,0.12964923949248106,-0.21944917735396366,0.09353769382,3.1310902361109174,0.24895170257263252,0.14045568175618442, ,0.010592761417068193,0.005850959480332807,0.004228513809397399,0.009824676744848502,0.005465959663462908,-0.0027242454927127024, ,1.2598299980163574
0.010875151408020756,0.021078686844766457,-0.08352515335656266, ,0.011100904925356021,0.02096262518809116,-0.08376825748372861, ,0.0003514748574003242, ,0.0013469085737559978,0.0002607657187760229,-0.003723279888040002,-0.0007677746163055452,-0.010214402928086971,-0.010270092265721295, ,0.0039679937740411545, ,0.010243217479055293, ,3.4564578362524935e-05, ,0.129749635019846,-0.21938739549096986,0.09357917510000001,3.1310902361109174,0.24895170257263252,0.14045568175618442, ,0.009899724666524003,0.007289281844840656,0.0038253629971181564,0.009124337900716028,0.005172557028251069,-0.0026376382087204475, ,1.2696540355682373
0.010890091692267515,0.021080083265068723,-0.08356057334766265, ,0.011118633552897635,0.020965904891290552,-0.0838145745736873, ,0.00036025644466258853, ,0.0013923382731942156,0.00010596128656921097,-0.0032619789181828583,-0.0024107250945861105,-0.014182984981182416,-0.0040638297620707855, ,0.003548286928071385, ,0.014386405321997246, ,3.477748779774421e-05, ,0.12986547601295936,-0.21931016816222762,0.09361547122000001,3.131299926054402,0.24895170257263252,0.14061903923646552, ,0.011320675911954986,0.00786307173492153,0.003349203431455005,0.0020769116336382233,0.004909022931224762,-0.0037694305005207557, ,1.2795648574829102
0.010904595507655015,0.021080818256750553,-0.08359621513088492, ,0.01113640795920748,0.02096912189236497,-0.08386082249517073, ,0.00036909368424019946, ,0.0014910298795820425,0.00014730007937908377,-0.0035673389473956,-0.0029549005317964813,-0.01469571271044936,-0.004035073448003878, ,0.00386920852123494, ,0.014989843516299563, ,3.4999074479310145e-05, ,0.1300353761361923,-0.21918660443624002,0.09367121169,3.131299926054402,0.24895170257263252,0.14061903923646552, ,0.012466755328227901,0.009142108934303107,0.0041951044298130106,0.0020387238761808858,0.004571170108182728,-0.003483848365963966, ,1.2924950122833252
0.010933247647704933,0.021084788082252528,-0.08366960345365215, ,0.011154227976457643,0.020972276443238663,-0.08390700146414513, ,0.00034329140681827114, ,0.0015262882628683404,0.00033012967880105657,-0.004110642855463612,-0.0027554644054273315,-0.012100456971070237,-0.0027909396729925502, ,0.0043972634844149355, ,0.01241022327859664, ,3.518167305457372e-05, ,0.13020527625942524,-0.2190784861760009,0.09372695216000002,3.131299926054402,0.24895170257263252,0.1407007179766061, ,0.011562331493870268,0.007414169100977989,0.004236386042553193,0.0019570420632030933,0.004308625938059299,-0.0011281196456833995, ,1.3052408695220947
0.010952515746012026,0.02108702200881553,-0.08371770931846155, ,0.011172093437078819,0.020975368795469514,-0.08395311169620252, ,0.00034072728377812386, ,0.0015258266032883293,0.00017048556929877734,-0.0036675470977906564,-0.0037102795853672177,-0.011289793047397087,-0.0023826688021022085, ,0.0039759418842777615, ,0.011883837805653986, ,3.5357810616327366e-05, ,0.1303520081840355,-0.21897809064863596,0.09377621118000001,3.1315096159978872,0.24895170257263252,0.14086407545688723, ,0.012219243437076546,0.008077744950779838,0.0037710254545454554,0.0021534973629008898,0.004094050493972053,0.00047211260959995754, ,1.3150420188903809
0.010967385385731974,0.021088294298682163,-0.0837558539042234, ,0.011190004173760214,0.020978399200249163,-0.0839991534065606, ,0.00034760711339138574, ,0.0015845960267620316,0.00011814766342047684,-0.003980297870432373,-0.005395555773642566,-0.00912160134320938,-0.0013985341215033173, ,0.004285752509859874, ,0.010597906971279674, ,3.554037159974168e-05, ,0.13046784917714888,-0.2188931405870195,0.09381509988,3.1315096159978872,0.24895170257263252,0.1409457541970278, ,0.012416190181665676,0.009434204960704254,0.004066584508552465,0.0021534973629008898,0.003933284954753106,0.003124096853848489, ,1.3247928619384766
0.01098505069645125,0.021090314212619917,-0.08380017703191206, ,0.011207960019449233,0.02098136790840294,-0.08404512681006228, ,0.0003486520576417105, ,0.001752724275331798,0.0003027995521363827,-0.00453871632264816,-0.004990148401370735,-0.008912946010843055,-0.0006801541891036334, ,0.004874800079140087, ,0.01021480228559841, ,3.57214007816177e-05, ,0.13060685836888491,-0.21880046779252882,0.09386047003,3.1315096159978872,0.24895170257263252,0.14110911167730888, ,0.01351423263435927,0.008774854273671407,0.004669836270888303,0.0021534973629008898,0.0037836706720014448,0.00458984601211455, ,1.3371639251708984
0.011004019565370289,0.021093736609096816,-0.08385070869651585, ,0.011225960807351618,0.02098427517039058,-0.08409103212117718, ,0.00034495662031159706, ,0.0017915648098842923,0.00045989877165663424,-0.005043691424786269,-0.004184561374829576,-0.0027075410555018743,-0.004238156760101884, ,0.005372153621840087, ,0.004984107663664678, ,3.589464775193851e-05, ,0.13074586756062095,-0.2187077949980381,0.09391232163,3.1317193059413713,0.24895170257263252,0.14119079041744947, ,0.013015627699694249,0.008251500943155488,0.005198698276762404,0.008153274770772328,0.003641440961154518,0.009527393787986184, ,1.348201036453247
0.011021113542498483,0.02109956172265491,-0.08390059342956321, ,0.011244006370930835,0.020987121236306035,-0.08413686955400099, ,0.0003437302473107075, ,0.001793888240924797,0.00042033466116424777,-0.00522610672019369,-0.00861535568396606,0.000659084056618459,-0.0026963997408764435, ,0.005541381389072401, ,0.008640529003278117, ,3.606354559509519e-05, ,0.13086943128660855,-0.21863056766929587,0.09396417323,3.1317193059413713,0.24908833907239794,0.14124272999403414, ,0.01275496526323532,0.008767584146990024,0.0053578242583249246,0.0076671871164927475,0.0,0.013165675952986153, ,1.3581969738006592
0.011037995892023686,0.021103053085002942,-0.08394868302236036, ,0.0112620965439084,0.020989906355877778,-0.08418263932225613, ,0.0003431600716106056, ,0.0016940733292858299,0.0002974193401194577,-0.004700048389665886,-0.008678962398693375,0.00047183099062022204,-0.0024581672639487255, ,0.005004877378525428, ,0.008691778328286737, ,3.622905316433805e-05, ,0.13099299501259612,-0.2185456176076794,0.09401343225000001,3.1317193059413713,0.24908833907239794,0.14124272999403414, ,0.012395107309100152,0.008804462769288778,0.004809423768115943,0.007185503137015921,0.0,0.012669879326878356, ,1.3683490753173828
0.011055331220261118,0.021106056497977754,-0.08399520003685847, ,0.011280231160263497,0.02099263077846907,-0.08422834163929153, ,0.0003432206049237068, ,0.0016129044734324864,0.0002472255595632087,-0.004089812689298493,-0.004494557469736211,-0.00010175242333848957,-0.0016918158866474121, ,0.00440331115767065, ,0.004495708983038928, ,3.639206648809152e-05, ,0.13112428147145794,-0.2184529448131887,0.09406009869000001,3.1317193059413713,0.2492249755721634,0.14121299083047828, ,0.012388634668207674,0.008157748997326282,0.004219552720529802,0.006724754229148608,0.003639012167496701,0.012130888542273868, ,1.3793509006500244
0.011081808949004903,0.021109818555318835,-0.08406215726508845, ,0.011298410054232657,0.020995294753078278,-0.08427397671808375, ,0.0003238814918033217, ,0.0016690419287132036,0.0003428938288038933,-0.004448432692528227,-0.00459280071720821,-0.010142697693351424,-0.0004786819131760243, ,0.0047635942897762, ,0.011134097771474652, ,3.652770799564265e-05, ,0.13132507252618777,-0.21831393562145265,0.09413009835000001,3.1319289958848557,0.2492249755721634,0.14137634831075943, ,0.012620952461560152,0.007987040661579044,0.004582511944764097,0.0010273447836620128,0.00339459378565358,0.0024911831008035015, ,1.3954360485076904
0.011097831011204257,0.021112349805838426,-0.08409981767104427, ,0.011316633060309925,0.02099789852833868,-0.08431954477123606, ,0.00033053506647987506, ,0.001611589176108361,0.0002375835893816318,-0.003871195353620002,-0.0035519879921098196,-0.003986371712187072,-0.007553892482442815, ,0.004199978464275999, ,0.005339267482942394, ,3.6669760060063584e-05, ,0.13144863625217537,-0.21824443102558463,0.09416898705000001,3.13213868582834,0.2492249755721634,0.14153970579104055, ,0.012579127990253285,0.007709097089643186,0.003994185436308927,0.010457337276506752,0.003262422791008981,0.007055723098834697, ,1.4056310653686523
0.011113439001125412,0.02111356045138295,-0.08413786216546787, ,0.011334900013246538,0.02100044235251912,-0.08436504601097959, ,0.0003368281221064752, ,0.0015664648839281102,5.57905771539041e-05,-0.0035941477595994903,-0.004777001950871095,-0.0065891178131474324,-0.009098078641518252, ,0.003921074207269368, ,0.008138563791873853, ,3.686428391533121e-05, ,0.13157219997816297,-0.21815948096396817,0.09420787575,3.13213868582834,0.2492249755721634,0.1416213845311811, ,0.012468393319993533,0.009024458546808075,0.0036778599676749024,0.010457337276506752,0.003132063692439286,0.004018131341672848, ,1.413985013961792
0.011127908043099629,0.021113923122388516,-0.08417222695413429, ,0.0113532107480507,0.021002926473524103,-0.08441048064917372, ,0.00034618837085804034, ,0.0015764705667073813,0.00015680434523975277,-0.0036671083490659746,-0.0043366732116940235,-0.0013188233889763245,-0.006361070131079819, ,0.003994687809350079, ,0.004532772773168203, ,3.706814657437578e-05, ,0.13168804097127634,-0.2180745309023517,0.09424287558000001,3.13213868582834,0.2492249755721634,0.14170306327132168, ,0.012461843934139303,0.008060561515869298,0.0037737056432125093,0.010457337276506752,0.0030171428248523817,0.009916248035416056, ,1.4227640628814697
0.011144496227953663,0.02111633760546179,-0.08421252957281909, ,0.011371565099987688,0.021005351138893673,-0.08445584889730538, ,0.00035083124444174773, ,0.0016474565938858557,0.00032670837815082943,-0.004202604289662757,-0.003995210008217746,-0.001164272376354165,-0.005423452354576053, ,0.0045257855018310065, ,0.004161397825867576, ,3.727526861639063e-05, ,0.13181932743013816,-0.21799730357360947,0.09428435686000002,3.13213868582834,0.2492249755721634,0.14178474201146227, ,0.012559150550353466,0.007532399976805719,0.004324955612272604,0.009740833848692195,0.002905678755245047,0.010295129716830977, ,1.4318029880523682
0.011162009455416873,0.021121537358888026,-0.08425980428130592, ,0.011389962904579195,0.021007716595804225,-0.08450115096648977, ,0.00035095037190921164, ,0.0018220145843269677,0.00042918728472391386,-0.00499877628930786,-0.007373489211367899,-0.003922904121066568,-0.006160349846326617, ,0.005337762008690095, ,0.008352096549493551, ,3.7479962682096174e-05, ,0.13195061388899998,-0.21792007624486723,0.09433361588000001,3.13213868582834,0.24936161207192883,0.1417550028479064, ,0.01327229951866724,0.008044115179369935,0.0051466273085621975,0.009078396001149607,0.0,0.00827397145657993, ,1.4397258758544922
0.011162009455416873,0.021121537358888026,-0.08425980428130592, ,0.011408403997603938,0.021010023091068114,-0.08454638706747143, ,0.00039404999133786785, ,0.0018220145843269677,0.00042918728472391386,-0.00499877628930786,-0.007373489211367899,-0.003922904121066568,-0.006160349846326617, ,0.005337762008690095, ,0.008352096549493551, ,3.7735401715380955e-05, ,0.13195061388899998,-0.21792007624486723,0.09433361588000001,3.13213868582834,0.24936161207192883,0.1417550028479064, ,0.01327229951866724,0.008044115179369935,0.0051466273085621975,0.009078396001149607,0.0,0.00827397145657993, ,1.447788953781128
0.01118131474972527,0.021125986814533496,-0.084315395576106, ,0.011426888215096704,0.021012270871134192,-0.08459155741062271, ,0.00038665617998600156, ,0.0019078043332618258,0.0005522832365642194,-0.005793819020090814,-0.008231017161419224,-0.002291284573267678,-0.004923744810155426, ,0.006124791668699314, ,0.008543981623259941, ,3.7978619370674684e-05, ,0.13208962308073602,-0.21782740345037652,0.09439065264,3.13213868582834,0.24936161207192883,0.1419183603281875, ,0.013038876278987468,0.008624568037242866,0.00595247067264574,0.00849337412106768,-9.179151072805714e-05,0.009983153577868477, ,1.4559428691864014
0.011200423817594729,0.021132864831940504,-0.08437578963561955, ,0.01144541539334865,0.021014460182087982,-0.08463666220594605, ,0.0003769549459097779, ,0.0020073976616647262,0.0007306656290488036,-0.006350432907493453,-0.008151768697363617,-0.004864630590462327,-0.00019355746890295836, ,0.006700113114426207, ,0.009492942291458898, ,3.82070221167753e-05, ,0.13221318680672361,-0.21775017612163428,0.09445287456000001,3.1323483757718247,0.24936161207192883,0.1419183603281875, ,0.0134586500579309,0.008026803041143187,0.006544293968775678,0.003180193851334991,0.0,0.008856064994910755, ,1.469106912612915
0.011224008118298262,0.021138883593795933,-0.08444118948258963, ,0.011463985368907163,0.021016591269651882,-0.08468170166307239, ,0.00036109638922997923, ,0.0019646492138479443,0.00039187909172940004,-0.005308958105375928,-0.007971685256377266,-0.004153531318804957,-0.010907533117295806, ,0.0056743679754352174, ,0.008988858883396704, ,3.841340716367591e-05, ,0.13237536419708232,-0.21764978059426934,0.09452028164000001,3.132767755658794,0.24936161207192883,0.14216339654860918, ,0.014274509861382487,0.009226783400752881,0.005455072438356166,0.013695201602059023,-4.6256122754672054e-05,0.008023520276711799, ,1.478193998336792
0.01124860240055456,0.021142896661974428,-0.08450127838149629, ,0.011482597978575333,0.021018664379185353,-0.08472667599126302, ,0.0003478385733480594, ,0.0018212857302824174,-4.1933907646631106e-05,-0.003939771790559107,-0.009618618360828802,0.0001400974191028189,-0.008125220509318114, ,0.004340580828141112, ,0.009619638533173554, ,3.860131010400121e-05, ,0.13256843251893793,-0.21752621686828177,0.09458250356,3.132767755658794,0.24949824857169425,0.14229701486533447, ,0.014721833937088235,0.010678113772149358,0.004015329347113688,0.013154498891439607,0.0001850141551242404,0.01346364654891538, ,1.486271858215332
0.011267761876011452,0.021143290538066215,-0.08454172866695414, ,0.011501253059412415,0.021020679755684956,-0.08477158539940839, ,0.0003498366106294076, ,0.0018639497569536885,0.00019039495014318243,-0.004009152162856053,-0.009779050874460167,-0.005355690745313567,0.011362951703348808, ,0.004425365521448042, ,0.011149585567587212, ,3.8789355739623994e-05, ,0.13272288717642242,-0.21742582134091684,0.09462398484000001,3.1329774456022785,0.24949824857169425,0.14229701486533447, ,0.01562089572978943,0.008264626887145174,0.004143811529656608,-0.006803113205735259,0.0001850141551242404,0.013138010481548147, ,1.4946238994598389
0.011267761876011452,0.021143290538066215,-0.08454172866695414, ,0.011519950448733,0.021022637643784977,-0.08481643009602952, ,0.00039194013860004704, ,0.0018639497569536885,0.00019039495014318243,-0.004009152162856053,-0.009779050874460167,-0.005355690745313567,0.011362951703348808, ,0.004425365521448042, ,0.011149585567587212, ,3.90253430577431e-05, ,0.13272288717642242,-0.21742582134091684,0.09462398484000001,3.1329774456022785,0.24949824857169425,0.14229701486533447, ,0.01562089572978943,0.008264626887145174,0.004143811529656608,-0.006803113205735259,0.0001850141551242404,0.013138010481548147, ,1.5050430297851562
0.011306846771126007,0.021145721520449703,-0.08463018757736276, ,0.01153868998410722,0.021024538287757168,-0.08486121028927758, ,0.0003490102358266038, ,0.0019824796066402724,0.0002841274364430758,-0.004751503545019294,-0.010264215556876548,-0.009423059924565566,0.009320962302370584, ,0.005156330064029571, ,0.013933706503227533, ,3.920766950387804e-05, ,0.13286189636815846,-0.21734087127930038,0.09466157725,3.1329774456022785,0.24949824857169425,0.1424603723456156, ,0.016076053118494117,0.010281371626569294,0.004433290153075425,-0.006803113205735259,0.0001850141551242404,0.016439741527662977, ,1.5144238471984863
0.011306846771126007,0.021145721520449703,-0.08463018757736276, ,0.011557471503360749,0.021026381931511334,-0.08490592618693438, ,0.00039126266714855544, ,0.0019824796066402724,0.0002841274364430758,-0.004751503545019294,-0.010264215556876548,-0.009423059924565566,0.009320962302370584, ,0.005156330064029571, ,0.013933706503227533, ,3.94376156989654e-05, ,0.13303951922426563,-0.217225030286187,0.09471472514000001,3.1329774456022785,0.24949824857169425,0.14262372982589672, ,0.015810886630868173,0.009048671074362023,0.004896652788195512,-0.006803113205735259,0.0001850141551242404,0.008793278441558305, ,1.5224909782409668
0.011326036559911021,0.021148867481358205,-0.08467773060446859, ,0.011576294844574075,0.021028168818595212,-0.08495057799641255, ,0.00038941375877835554, ,0.001957192842447453,6.9904476635913e-05,-0.00476038441367398,-0.005943949250996611,-0.002862393845792433,-0.012255642856831072, ,0.005147499414699476, ,0.0065972591871352555, ,3.966270431756438e-05, ,0.1331939738817501,-0.2171246347588221,0.09476398416000001,3.132767755658794,0.2496348850714597,0.14259399066234085, ,0.014888130147234196,0.011859152906582203,0.0048563449756097565,0.01612391584165352,0.004422124967666523,0.010238306468025454, ,1.5312738418579102
0.011344677465156718,0.021148739620895744,-0.08472240807404627, ,0.011595159846083055,0.02102989919219507,-0.08499516592475582, ,0.0003889232774879688, ,0.0019587087499306362,5.2119261645536393e-05,-0.004441366189724563,-0.005540266284298401,-0.004855156271365754,-0.010856510583416138, ,0.004854378437629044, ,0.00736662006568548, ,3.988460158869377e-05, ,0.13334070580636037,-0.21700879376570872,0.09480935431000001,3.132767755658794,0.2496348850714597,0.1426756694024814, ,0.015435416649068116,0.011269732341642375,0.004548489868646488,0.014140619134493288,0.004407243732421833,0.008395552907820597, ,1.539759874343872
0.011365445231637334,0.021149163149303204,-0.08476935316139417, ,0.01161406634647819,0.02103157329513547,-0.08503969017863927, ,0.0003856448306938367, ,0.0020638709606746143,7.473121645438173e-05,-0.004694332398223757,-0.007730231869341031,-0.0044262019191792885,0.0008634348005973741, ,0.005128538267580921, ,0.00890773517250411, ,4.010013610576596e-05, ,0.1335028831967191,-0.21689295277259535,0.09485731704000001,3.1329774456022785,0.2496348850714597,0.14283902688276254, ,0.016512431104658217,0.011629926672742992,0.004810876327393537,0.0038638889486861906,0.004188443583358806,0.012562398658675143, ,1.5488359928131104
0.011379511035838327,0.021149533511513132,-0.08480104508180494, ,0.011633014184604827,0.021033191369879852,-0.08508415096436965, ,0.00039742707645188215, ,0.0022841386787556916,0.0001983102100423721,-0.005268539284924221,-0.0067637033195808395,-0.0055888065404904146,-0.0076731105815345795, ,0.005745791733084717, ,0.008773963590250282, ,4.032674875930227e-05, ,0.13361100145695826,-0.2168157254438531,0.09488972429,3.133187135545763,0.2496348850714597,0.14292070562290307, ,0.017945715120739555,0.011702599709151195,0.005421651300204222,0.011905329622477088,0.004066161105266964,0.010930467680489204, ,1.559870958328247
0.011412416933676164,0.021154709767651495,-0.08487855080582003, ,0.011652003199562833,0.0210347536585305,-0.08512854848788551, ,0.00036645584721092366, ,0.002240856802134469,0.00022742209912042359,-0.005009171849281604,-0.007983440769318553,0.0021916196689844595,-0.01046396206324492, ,0.00549226388973399, ,0.008278799438138949, ,4.0515332401652855e-05, ,0.13386585164180764,-0.21666127078636863,0.09497009427000001,3.1333968254892475,0.24977152157122512,0.14313600267976895, ,0.017658530249064157,0.01044260175249005,0.005168335989617133,0.017786998536109204,0.0012764156991003695,0.017932330289671415, ,1.5682518482208252
0.011433362355808404,0.02115554282058007,-0.08492507017302767, ,0.011671033230706259,0.02103626040282899,-0.08517288295475742, ,0.00036349266120224674, ,0.0021356637582553946,-9.838872404504964e-05,-0.004557646287964144,-0.005688329005026982,-0.0033344769295313454,-0.01324264856778651, ,0.005034171204432574, ,0.006593619741573416, ,4.069839952246512e-05, ,0.1340357517650406,-0.21653770706038103,0.095018057,3.1333968254892475,0.24990815807099057,0.14310626351621308, ,0.017129411833658986,0.013392173519400336,0.0046521061682242995,0.017786998536109204,0.006073588703646251,0.011112169684076523, ,1.5772249698638916
0.011433362355808404,0.02115554282058007,-0.08492507017302767, ,0.011690104117643697,0.021037711844156017,-0.08521715457018844, ,0.000406341932785811, ,0.0021356637582553946,-9.838872404504964e-05,-0.004557646287964144,-0.005688329005026982,-0.0033344769295313454,-0.01324264856778651, ,0.005034171204432574, ,0.006593619741573416, ,4.097421870105623e-05, ,0.1340357517650406,-0.21653770706038103,0.095018057,3.1333968254892475,0.24990815807099057,0.14310626351621308, ,0.017129411833658986,0.013392173519400336,0.0046521061682242995,0.017786998536109204,0.006073588703646251,0.011112169684076523, ,1.5836238861083984
0.011454430554044014,0.021154591328279182,-0.08497230087778372, ,0.011709215700237745,0.021039108223532037,-0.08526136353901415, ,0.0004022549444327763, ,0.0020667373926993924,-1.124962762450105e-05,-0.004682728558757261,-0.004865157582813026,-0.0051528013342103905,-0.01392384326198676, ,0.005118542444827866, ,0.0070866859422316995, ,4.1242942567604767e-05, ,0.13420565188827352,-0.2164064206015192,0.09506601973,3.1333968254892475,0.24990815807099057,0.14326962099649418, ,0.01613344807182434,0.012693544884760672,0.0047848637789125875,0.017202899745543884,0.006073588703646251,0.00810360970190576, ,1.5900259017944336
0.011474158358095538,0.02115495224286451,-0.0850193815305262, ,0.01172836781860474,0.021040449781617152,-0.08530551006570292, ,0.0003995031940879288, ,0.0021889510805024734,0.00016318113758795566,-0.005272564413446243,-0.00466264657499667,-0.005817895243627399,-0.011828277028563546, ,0.005711223197392759, ,0.007455747720673005, ,4.1506165265491984e-05, ,0.13436010654575803,-0.21629057960840584,0.09511398246000001,3.1333968254892475,0.24990815807099057,0.14335129973663474, ,0.016657353266363133,0.012211676947429003,0.005410601739130436,0.015246461114247899,0.006073588703646251,0.008417305219532689, ,1.5969569683074951
0.011474158358095538,0.02115495224286451,-0.0850193815305262, ,0.011747560313115085,0.021041736758711564,-0.08534959435435631, ,0.00044340374816001846, ,0.0021889510805024734,0.00016318113758795566,-0.005272564413446243,-0.00466264657499667,-0.005817895243627399,-0.011828277028563546, ,0.005711223197392759, ,0.007455747720673005, ,4.18160860331993e-05, ,0.13436010654575803,-0.21629057960840584,0.09511398246000001,3.1333968254892475,0.24990815807099057,0.14335129973663474, ,0.016657353266363133,0.012211676947429003,0.005410601739130436,0.015246461114247899,0.006073588703646251,0.008417305219532689, ,1.6038289070129395
0.011498463292039579,0.021158146679256723,-0.08508533701567586, ,0.011766793024392406,0.021042969394755605,-0.08539361660870932, ,0.0004246209599283456, ,0.002526512597323787,0.0005018925597880218,-0.007088011767076432,-0.006247948472529456,0.0012803012013535525,-0.006001102671563108, ,0.007541556394818003, ,0.006377774956133531, ,4.210235590616431e-05, ,0.13453772940186517,-0.21615929314954402,0.09518138954000001,3.1333968254892475,0.24990815807099057,0.14359633595705643, ,0.017737746085695474,0.012926977463352508,0.0072834071879286704,0.013517925275273792,0.006073588703646251,0.01798932709445074, ,1.6102969646453857
0.01152587370574751,0.02116577236428921,-0.08516563955636054, ,0.011786065793314229,0.02104414792932989,-0.08543757703213048, ,0.00039552802219264564, ,0.002604217996384285,0.0007327161654079382,-0.008229716270098565,-0.00863244062368814,-0.0006285991538018798,0.002539634221575887, ,0.00866297028957545, ,0.008655294926634343, ,4.2353871519196416e-05, ,0.13472307499084657,-0.2160280066906822,0.0952643521,3.1336065154327315,0.250044794570756,0.14364827553364115, ,0.01705859096862678,0.013006707998693912,0.008445817348886534,0.004220960114621625,0.004927917454771801,0.017336389888041807, ,1.617069959640503
0.01152587370574751,0.02116577236428921,-0.08516563955636054, ,0.011805378461011066,0.021045272601655843,-0.08548147582762192, ,0.00043862928681738354, ,0.002604217996384285,0.0007327161654079382,-0.008229716270098565,-0.00863244062368814,-0.0006285991538018798,0.002539634221575887, ,0.00866297028957545, ,0.008655294926634343, ,4.2650689381093436e-05, ,0.13472307499084657,-0.2160280066906822,0.0952643521,3.1336065154327315,0.250044794570756,0.14364827553364115, ,0.01705859096862678,0.013006707998693912,0.008445817348886534,0.004220960114621625,0.004927917454771801,0.017336389888041807, ,1.623492956161499
0.011551423824504324,0.021170490496041715,-0.08524181213034229, ,0.011824730868866665,0.02104634365059552,-0.08552531319782021, ,0.00041289470206511304, ,0.0025498662605260404,0.0004341769707059619,-0.007007446616342564,-0.008253445994360464,0.010273783746795957,-0.003234867655923914, ,0.007469580688991271, ,0.013178390886643427, ,4.2916651998591503e-05, ,0.13489297511407952,-0.21588899749894616,0.09534212950000001,3.133816205376217,0.250044794570756,0.14381163301392227, ,0.018027534490590955,0.013330094333258996,0.007191337029345373,0.015045284550862575,0.004927917454771801,0.028029580727775272, ,1.630115032196045
0.011577933458558991,0.02117380286954983,-0.08531146478341523, ,0.011844122858517766,0.021047361314652176,-0.08556908934499623, ,0.0003914264658721382, ,0.002552321350312147,0.00031253647073978914,-0.007122060710321738,-0.01027977860668488,0.004304842599611432,0.0002085189841982602, ,0.00757203883259392, ,0.011144752114136266, ,4.315682670665464e-05, ,0.1350783207030609,-0.21574998830721012,0.09541342545,3.1342355852631854,0.250044794570756,0.14405666923434396, ,0.01800700978339104,0.014923249183593452,0.00727342991780822,0.008866377334893814,0.004927917454771801,0.022808815592139584, ,1.637376070022583
0.011577933458558991,0.02117380286954983,-0.08531146478341523, ,0.01186355427185398,0.021048325831970156,-0.08561280447105539, ,0.00043373879615977865, ,0.002552321350312147,0.00031253647073978914,-0.007122060710321738,-0.01027977860668488,0.004304842599611432,0.0002085189841982602, ,0.00757203883259392, ,0.011144752114136266, ,4.344095237513469e-05, ,0.1350783207030609,-0.21574998830721012,0.09541342545,3.1342355852631854,0.250044794570756,0.14405666923434396, ,0.01800700978339104,0.014923249183593452,0.00727342991780822,0.008866377334893814,0.004927917454771801,0.022808815592139584, ,1.6460309028625488
0.011601789867336027,0.021177644750107354,-0.08537835967609886, ,0.011883024951017536,0.021049237440335346,-0.0856564587775378, ,0.0004158373717180527, ,0.0026500496832275056,0.0003367018860050623,-0.007109657001861538,-0.011595616812430704,0.02175772348252412,0.009447822539657754, ,0.007594955837115339, ,0.024654752934016172, ,4.3703220589888225e-05, ,0.13524822082629384,-0.21561097911547408,0.09548212882000001,3.1342355852631854,0.2501814310705215,0.14419028755106922, ,0.019120882844745272,0.014615268990985796,0.007280078391224864,0.008866377334893814,0.0047103513468322936,0.04359307539684896, ,1.6526820659637451
0.011630506099400195,0.021182187454060367,-0.08545114833960014, ,0.011902534738403154,0.021050096377175108,-0.08570005246561907, ,0.0003916642656405544, ,0.0026425185311130055,0.0004257085384357889,-0.006624361982005514,-0.0038584006934347177,-0.0034100441213602293,-0.0019516170846065376, ,0.007144669594572782, ,0.0051493343321784325, ,4.393714872719243e-05, ,0.13546445734677212,-0.21546424719086382,0.09555731364000002,3.1342355852631854,0.2503180675702869,0.14432390586779448, ,0.01976196200717842,0.012867381906233327,0.006842272989690722,0.008866377334893814,0.00889581666017929,0.016108786712903063, ,1.6591389179229736
0.011657909131548072,0.021185600368140135,-0.08551900274612464, ,0.011922083476657975,0.021050902879558908,-0.08574358573610974, ,0.0003719798615986909, ,0.0026425185311130055,0.0004257085384357889,-0.006624361982005514,-0.0038584006934347177,-0.0034100441213602293,-0.0019516170846065376, ,0.007144669594572782, ,0.0051493343321784325, ,4.4147923449738e-05, ,0.13567297113437618,-0.21531751526625356,0.09562731330000002,3.1342355852631854,0.2504547040700523,0.14445752418451974, ,0.021106970987204356,0.015544134571412084,0.006448911546558706,0.008866377334893814,0.004872365869172759,0.030727038038536658, ,1.665653944015503
0.011657909131548072,0.021185600368140135,-0.08551900274612464, ,0.011941671008681452,0.021051657184198082,-0.08578705878945626, ,0.0004126931327335082, ,0.002718533568355701,7.602682024880495e-05,-0.006299894845327998,-0.01148683929140615,0.00827550202794042,0.003625360636663738, ,0.006861842311060799, ,0.01415737972922606, ,4.4400438357689396e-05, ,0.13567297113437618,-0.21531751526625356,0.09562731330000002,3.1342355852631854,0.2504547040700523,0.14445752418451974, ,0.021106970987204356,0.015544134571412084,0.006448911546558706,0.008866377334893814,0.004872365869172759,0.030727038038536658, ,1.6721889972686768
0.0116839039135076,0.021184723850871487,-0.08557627369432155, ,0.011961297177624812,0.021052359527446312,-0.08583047182574094, ,0.00039885339049644926, ,0.0025283360797345045,-0.00010463807072485457,-0.0053181336539618665,-0.008412259345965702,-0.025873812749824997,-0.013621437918153345, ,0.005889480284314912, ,0.0272069897133587, ,4.4636063104298226e-05, ,0.13588148492198024,-0.21516306060876905,0.09568564635000001,3.1342355852631854,0.2504547040700523,0.14470256040494145, ,0.020434311274433844,0.015110977955170506,0.005436454443686007,0.008866377334893814,0.004872365869172759,-0.008245583961116205, ,1.6788458824157715
0.011709579681776348,0.021183276072733046,-0.08563102982548916, ,0.011980961826891356,0.02105301014529983,-0.08587382504468197, ,0.00038673892873635244, ,0.0026216581231309063,-0.00018209270109647386,-0.005496730244747481,-0.011105912445950258,-0.00795305087552168,-0.004518961968089263, ,0.0060926424849889705, ,0.013659879372375425, ,4.485684218841186e-05, ,0.1360899987095843,-0.21500860595128457,0.09574138682000001,3.1342355852631854,0.2504547040700523,0.14494759662536313, ,0.02119654714283466,0.016398296450401032,0.00560281798100598,0.008866377334893814,0.004872365869172759,0.012664392626758145, ,1.6877799034118652
0.011711462214862087,0.021182770818942605,-0.08563493730316345, ,0.012000664800136136,0.02105360927339749,-0.08591711864563391, ,0.00042420178007079114, ,0.0026293872734665415,-0.00020352291629080824,-0.0055609019969265275,-0.011499642701245904,-0.007824327755895522,-0.004515189578082681, ,0.0061545698493676035, ,0.013909057544286249, ,4.5115315695610533e-05, ,0.13610544417533277,-0.21499316048553613,0.09574527569,3.1342355852631854,0.2504547040700523,0.14494759662536313, ,0.021182353026444372,0.016787005405708613,0.005660558464818764,0.008866377334893814,0.004872365869172759,0.01279261053345087, ,1.6991980075836182
0.011711462214862087,0.021182770818942605,-0.08563493730316345, ,0.012020405941265695,0.021054157147020965,-0.08596035282758815, ,0.0004667793549696924, ,0.0026293872734665415,-0.00020352291629080824,-0.0055609019969265275,-0.011499642701245904,-0.007824327755895522,-0.004515189578082681, ,0.0061545698493676035, ,0.013909057544286249, ,4.5416386244703335e-05, ,0.13610544417533277,-0.21499316048553613,0.09574527569,3.1342355852631854,0.2504547040700523,0.14494759662536313, ,0.021182353026444372,0.016787005405708613,0.005660558464818764,0.008866377334893814,0.004872365869172759,0.01279261053345087, ,1.705690860748291
0.01176640161389629,0.021183706023958943,-0.08575616825398474, ,0.012040185094438122,0.02105465400109526,-0.08600352778917288, ,0.0003908945618338753, ,0.00259647622024177,0.00011757693833924386,-0.00594585517476799,-0.006794781961447771,-0.002769022485501164,-0.008772371999467506, ,0.006489122194721371, ,0.0073373387544401975, ,4.56354742204678e-05, ,0.13652247175054089,-0.21468425117056714,0.09586971953000001,3.1350743450371237,0.2505913405698178,0.14491785746180727, ,0.01997830348599385,0.014283103786645211,0.0061076731288343565,0.015123697083407312,0.006456287837212682,0.01560536922585301, ,1.712169885635376
0.011792174601303737,0.02118153398975855,-0.08581106967940416, ,0.012060002104062661,0.021055100070188418,-0.08604664372865334, ,0.0003784339307350776, ,0.0025569419867277525,-0.0003408622202897662,-0.004973802451761069,-0.008637723039144148,-0.014731306920265187,-0.014558036491436123, ,0.0056029322863886686, ,0.01707693356068438, ,4.583974120050242e-05, ,0.13673098553814494,-0.21452207378020843,0.09592546,3.1350743450371237,0.2505913405698178,0.14508121494208837, ,0.021027463230328114,0.016976197058760422,0.005058371394093365,0.015123697083407312,0.006456287837212682,0.003396297610833973, ,1.7187938690185547
0.011792174601303737,0.02118153398975855,-0.08581106967940416, ,0.012079856814799641,0.02105549558851226,-0.08608970084393201, ,0.0004198595722343004, ,0.0025569419867277525,-0.0003408622202897662,-0.004973802451761069,-0.008637723039144148,-0.014731306920265187,-0.014558036491436123, ,0.0056029322863886686, ,0.01707693356068438, ,4.6133234286399296e-05, ,0.13673098553814494,-0.21452207378020843,0.09592546,3.1350743450371237,0.2505913405698178,0.14508121494208837, ,0.021027463230328114,0.016976197058760422,0.005058371394093365,0.015123697083407312,0.006456287837212682,0.003396297610833973, ,1.723649024963379
0.011819291127566934,0.02117757138427139,-0.08586083480111001, ,0.012099749071560492,0.021055840789922252,-0.08613269933254916, ,0.00040912750995786024, ,0.002838948573013503,-0.000269961974049447,-0.005157916787894658,-0.00876690610442788,-0.014204336659248909,-0.012839514338059615, ,0.00589377757117569, ,0.016691968695228102, ,4.641378123676061e-05, ,0.13696266752437167,-0.21435217365697548,0.09597601531000001,3.1350743450371237,0.2505913405698178,0.14516289368222896, ,0.023933654869727813,0.016692513906503215,0.005290206416472933,0.015123697083407312,0.006300481678960434,0.007240895558291419, ,1.728827953338623
0.011819291127566934,0.02117757138427139,-0.08586083480111001, ,0.012119678719507379,0.02105613590791777,-0.08617563939168317, ,0.0004517534842753809, ,0.002838948573013503,-0.000269961974049447,-0.005157916787894658,-0.00876690610442788,-0.014204336659248909,-0.012839514338059615, ,0.00589377757117569, ,0.016691968695228102, ,4.6736624357179104e-05, ,0.13696266752437167,-0.21435217365697548,0.09597601531000001,3.1350743450371237,0.2505913405698178,0.14516289368222896, ,0.023933654869727813,0.016692513906503215,0.005290206416472933,0.015123697083407312,0.006300481678960434,0.007240895558291419, ,1.7354588508605957
0.011840440897819562,0.02117568069984804,-0.08590147805317, ,0.012139645604053041,0.021056381175642302,-0.08621852121814988, ,0.0004519648229325343, ,0.0028790760335910878,-0.00018217093218342393,-0.005814497255990004,-0.01092845935941712,0.001644911717989553,-0.005419880597095797, ,0.006490812229270421, ,0.011051558798848385, ,4.705769021697415e-05, ,0.13714029038047884,-0.2142286099309879,0.09601749659000001,3.1350743450371237,0.2505913405698178,0.1454079299026506, ,0.023333400924138378,0.01723205766451258,0.005948025212845408,0.015123697083407312,0.005818838226451608,0.02430520929059379, ,1.7445030212402344
0.011874607672677215,0.02117612952153106,-0.08597744686928174, ,0.012159649570860777,0.021056576825883817,-0.08626134500840384, ,0.0004196902240386331, ,0.0032236066121839784,0.00035996735750106834,-0.007495153806387917,-0.009904534367601782,0.004439576422090533,-0.003243788194907684, ,0.008166917819471054, ,0.010854013828657468, ,4.7343642119836283e-05, ,0.1374105860310767,-0.21404326434200652,0.09609527399000001,3.1350743450371237,0.2505913405698178,0.1457346448632129, ,0.024571968295823608,0.015286234142794905,0.007739947288629739,0.015123697083407312,0.005212835563757221,0.028821951590245278, ,1.7496049404144287
0.011874607672677215,0.02117612952153106,-0.08597744686928174, ,0.012179690465844134,0.021056723091074928,-0.08630411095853868, ,0.0004626476343080875, ,0.0032236066121839784,0.00035996735750106834,-0.007495153806387917,-0.009904534367601782,0.004439576422090533,-0.003243788194907684, ,0.008166917819471054, ,0.010854013828657468, ,4.767180661108355e-05, ,0.1374105860310767,-0.21404326434200652,0.09609527399000001,3.1350743450371237,0.2505913405698178,0.1457346448632129, ,0.024571968295823608,0.015286234142794905,0.007739947288629739,0.015123697083407312,0.005212835563757221,0.028821951590245278, ,1.754499912261963
0.011910560821653707,0.021181798895820367,-0.086066107576075, ,0.012199768135167032,0.021056820203292703,-0.0863468192642858, ,0.00042197108393073843, ,0.0031071810829589753,0.00016921889674720043,-0.0074074375074623805,-0.010771629384173805,0.01639133762923732,0.0020557352618981, ,0.008034509303266438, ,0.019613870769530542, ,4.795645524791772e-05, ,0.13768088168167456,-0.21385791875302512,0.09618731058,3.1350743450371237,0.25086461356934864,0.14575684527624175, ,0.023333400924138378,0.01728856650728198,0.007599623816793894,0.015123697083407312,0.007158777559423822,0.040796851116445654, ,1.759324073791504
0.011910560821653707,0.021181798895820367,-0.086066107576075, ,0.012219882425243118,0.021056868394259475,-0.08638947012101683, ,0.0004645974818470728, ,0.0031071810829589753,0.00016921889674720043,-0.0074074375074623805,-0.010771629384173805,0.01639133762923732,0.0020557352618981, ,0.008034509303266438, ,0.019613870769530542, ,4.828273003540838e-05, ,0.13768088168167456,-0.21385791875302512,0.09618731058,3.1350743450371237,0.25086461356934864,0.14575684527624175, ,0.023333400924138378,0.01728856650728198,0.007599623816793894,0.015123697083407312,0.007158777559423822,0.040796851116445654, ,1.7641708850860596
0.011941124207375383,0.021184807308162343,-0.0861400013688953, ,0.012240033182736122,0.02105686789534276,-0.08643206372374228, ,0.00043705318672055207, ,0.0030787281659910297,0.0002342749150750236,-0.007267738262907912,-0.003230012771486397,-0.0066805184864668545,-0.00677163154937278, ,0.007896421424546414, ,0.007420396854301788, ,4.8579083987349895e-05, ,0.1379125636679013,-0.21368029589691795,0.09626379169,3.1350743450371237,0.25113788656887953,0.14569736694913005, ,0.023236273643112336,0.016760321716437793,0.007488862961918196,0.013420493959780682,0.012726553558311844,0.01524664527078181, ,1.7690529823303223
0.011941124207375383,0.021184807308162343,-0.0861400013688953, ,0.012260220254559407,0.021056818937555358,-0.08647460026711201, ,0.00047974965661992826, ,0.0030787281659910297,0.0002342749150750236,-0.007267738262907912,-0.003230012771486397,-0.0066805184864668545,-0.00677163154937278, ,0.007896421424546414, ,0.007420396854301788, ,4.8916811393475145e-05, ,0.1379125636679013,-0.21368029589691795,0.09626379169,3.1350743450371237,0.25113788656887953,0.14569736694913005, ,0.023236273643112336,0.016760321716437793,0.007488862961918196,0.013420493959780682,0.012726553558311844,0.01524664527078181, ,1.7738540172576904
0.011974815568936911,0.02118801465545999,-0.0862193688453913, ,0.012280443487875882,0.02105672175155579,-0.08651707994541623, ,0.00044640581372627146, ,0.0032523606103205464,0.0003749278034658244,-0.00806939882995263,-0.005973047704017979,0.017737615990609645,0.009069366830767634, ,0.008708249989189402, ,0.018716310685886885, ,4.921888334866249e-05, ,0.13815969111987647,-0.21351811850655925,0.09634545796,3.1354937249240926,0.25113788656887953,0.14602408190969227, ,0.023982042344824556,0.017132504343468274,0.008317917242819845,0.01023111874229954,0.012726553558311844,0.04415844032618678, ,1.779109001159668
0.011974815568936911,0.02118801465545999,-0.0862193688453913, ,0.012300702730097797,0.02105657656764828,-0.08655950295258509, ,0.0004890497148691682, ,0.0032523606103205464,0.0003749278034658244,-0.00806939882995263,-0.005973047704017979,0.017737615990609645,0.009069366830767634, ,0.008708249989189402, ,0.018716310685886885, ,4.9561991956524986e-05, ,0.13815969111987647,-0.21351811850655925,0.09634545796,3.1354937249240926,0.25113788656887953,0.14602408190969227, ,0.023982042344824556,0.017132504343468274,0.008317917242819845,0.01023111874229954,0.012726553558311844,0.04415844032618678, ,1.7841620445251465
0.01200790347478313,0.021190522285826394,-0.08629898312492233, ,0.01232099782888679,0.021056383615783207,-0.08660186948218891, ,0.00045580851548732685, ,0.0035044367889198787,0.0004556781149153339,-0.008499733122934368,-0.004196464940020073,-0.010818709167562446,-0.003688203799036018, ,0.009205117213433813, ,0.01160408297460645, ,4.9869729972174036e-05, ,0.13839909583897744,-0.2133482183833263,0.09642712423000001,3.135913104811062,0.25113788656887953,0.1463507968702545, ,0.026128012543631823,0.01731064238571156,0.008785886111417542,0.009898923219349083,0.012726553558311844,0.014700397210357374, ,1.79351806640625
0.012026210799503419,0.02119316165930272,-0.08634262447763923, ,0.012341328632153372,0.021056143125557224,-0.08664417972743904, ,0.0004571749071477978, ,0.0034886402092031187,0.00043098939132310684,-0.008360261090581246,-0.004096304646234729,0.008782706179077115,0.006248155037160982, ,0.009069196649504771, ,0.009691006074783818, ,5.017698843094654e-05, ,0.13853810503071348,-0.2132555455888356,0.09647249438000001,3.135913104811062,0.251274523068645,0.14648441518697974, ,0.026142408142829414,0.017396322925475854,0.008647563257328992,0.009898923219349083,0.014403885204903273,0.03663251550521132, ,1.7994780540466309
0.012026210799503419,0.02119316165930272,-0.08634262447763923, ,0.01236169498805718,0.021055855326213214,-0.08668643388118738, ,0.0004996074217264981, ,0.0034886402092031187,0.00043098939132310684,-0.008360261090581246,-0.004096304646234729,0.008782706179077115,0.006248155037160982, ,0.009069196649504771, ,0.009691006074783818, ,5.052467414452589e-05, ,0.13853810503071348,-0.2132555455888356,0.09647249438000001,3.135913104811062,0.251274523068645,0.14648441518697974, ,0.026142408142829414,0.017396322925475854,0.008647563257328992,0.009898923219349083,0.014403885204903273,0.03663251550521132, ,1.8043768405914307
0.012078839177362858,0.021199172022348847,-0.08647249729131984, ,0.012382096745006482,0.02105552044664097,-0.0867286321359269, ,0.0004221445086204066, ,0.003647588031672346,0.0004877055720501522,-0.00897606212425933,-0.00037791606795820195,-0.03127452387153638,-0.039693622641774645, ,0.009701156963598261, ,0.031276806193693045, ,5.079336380310268e-05, ,0.13892424167442471,-0.2130006954039862,0.09660601225000001,3.1361227947545465,0.251274523068645,0.146811130147542, ,0.026265414214910264,0.017989941527672186,0.009271717997671713,0.03390858720140041,0.01204648032452155,-0.013691149361708507, ,1.8095669746398926
0.012078839177362858,0.021199172022348847,-0.08647249729131984, ,0.012402533751658184,0.021055138715376977,-0.0867707746837921, ,0.0004631340775688368, ,0.003647588031672346,0.0004877055720501522,-0.00897606212425933,-0.00037791606795820195,-0.03127452387153638,-0.039693622641774645, ,0.009701156963598261, ,0.031276806193693045, ,5.1101041017122015e-05, ,0.13892424167442471,-0.2130006954039862,0.09660601225000001,3.1361227947545465,0.251274523068645,0.146811130147542, ,0.026265414214910264,0.017989941527672186,0.009271717997671713,0.03390858720140041,0.01204648032452155,-0.013691149361708507, ,1.8144419193267822
0.012117007425377385,0.021202192665604126,-0.08656172946594752, ,0.012423005856917657,0.021054710360604852,-0.08681286171655939, ,0.00042243754294615706, ,0.003581906305698899,3.941126251186082e-05,-0.008261861605755004,-0.019897837952152747,-0.029849775395809623,0.011763942827875778, ,0.009004996569853149, ,0.03587384852307763, ,5.136672158957492e-05, ,0.13920998279077101,-0.21279990434925636,0.09669804884000001,3.136332484698031,0.2514111595684104,0.1468630697241267, ,0.027837178515245174,0.020160811888351556,0.008450297888594166,-0.0142375682604517,0.0020935274122561233,0.0011000566460190276, ,1.8194029331207275
0.012117007425377385,0.021202192665604126,-0.08656172946594752, ,0.012443512909938574,0.021054235610155625,-0.08685489342564656, ,0.00046307907421081867, ,0.003581906305698899,3.941126251186082e-05,-0.008261861605755004,-0.019897837952152747,-0.029849775395809623,0.011763942827875778, ,0.009004996569853149, ,0.03587384852307763, ,5.1670834689419496e-05, ,0.13920998279077101,-0.21279990434925636,0.09669804884000001,3.136332484698031,0.2514111595684104,0.1468630697241267, ,0.027837178515245174,0.020160811888351556,0.008450297888594166,-0.0142375682604517,0.0020935274122561233,0.0011000566460190276, ,1.8243060111999512
0.012117007425377385,0.021202192665604126,-0.08656172946594752, ,0.012464054760122805,0.02105371469150756,-0.08689687000211345, ,0.0005047838550580893, ,0.003581906305698899,3.941126251186082e-05,-0.008261861605755004,-0.019897837952152747,-0.029849775395809623,0.011763942827875778, ,0.009004996569853149, ,0.03587384852307763, ,5.206517868321051e-05, ,0.13920998279077101,-0.21279990434925636,0.09669804884000001,3.136332484698031,0.2514111595684104,0.1468630697241267, ,0.027837178515245174,0.020160811888351556,0.008450297888594166,-0.0142375682604517,0.0020935274122561233,0.0011000566460190276, ,1.827868938446045
0.012117007425377385,0.021202192665604126,-0.08656172946594752, ,0.012484631257120059,0.021053147831786807,-0.08693879163666288, ,0.0005473002144503271, ,0.003581906305698899,3.941126251186082e-05,-0.008261861605755004,-0.019897837952152747,-0.029849775395809623,0.011763942827875778, ,0.009004996569853149, ,0.03587384852307763, ,5.249965893525355e-05, ,0.13920998279077101,-0.21279990434925636,0.09669804884000001,3.136332484698031,0.2514111595684104,0.1468630697241267, ,0.027837178515245174,0.020160811888351556,0.008450297888594166,-0.0142375682604517,0.0020935274122561233,0.0011000566460190276, ,1.8317439556121826
0.01215191830974899,0.021201600408805074,-0.0866404627117548, ,0.012505242250828082,0.021052535257767416,-0.08698065851963985, ,0.0005126318506453779, ,0.0035376465191854956,-3.8761865694202525e-05,-0.007575698604568056,-0.020400116939527167,-0.007723060722867208,0.02008878246732726, ,0.008361079758272357, ,0.021813078946426003, ,5.289851659941683e-05, ,0.13948027844136887,-0.21259911329452652,0.09677841882,3.136332484698031,0.2514111595684104,0.14702642720440784, ,0.028302100077086424,0.01936672276703485,0.007766363490980011,-0.011480244564347675,0.0020887326035578576,0.025709408892470736, ,1.8354179859161377
0.01215191830974899,0.021201600408805074,-0.0866404627117548, ,0.012525887591392023,0.02105187719587149,-0.08702247084103218, ,0.0005551578828925771, ,0.0035376465191854956,-3.8761865694202525e-05,-0.007575698604568056,-0.020400116939527167,-0.007723060722867208,0.02008878246732726, ,0.008361079758272357, ,0.021813078946426003, ,5.333734555419588e-05, ,0.13948027844136887,-0.21259911329452652,0.09677841882,3.136332484698031,0.2514111595684104,0.14702642720440784, ,0.028302100077086424,0.01936672276703485,0.007766363490980011,-0.011480244564347675,0.0020887326035578576,0.025709408892470736, ,1.8389198780059814
