NicholasDascanio/dvrk_moveit_final/test/execution/third_experiment_notsharpbends/thirdexp_700vel3.0/thirdexp_700vel3.0_28.csv
Current Position (x),Current Position (y),Current Position (z), ,Planned Position (x),Planned Position (y),Planned Position (z), ,Position Error,,Cartesian linear Velocity(x),Cartesian linear Velocity(y),Cartesian linear Velocity(z),Cartesian Angular Velocity(x),Cartesian Angular Velocity(y),Cartesian Angular Velocity(z), ,Total Linear Velocity, ,Total Angular Velocity, ,MSE, ,Joint 1 Position,Joint 2 Position,Joint 3 Position,Joint 4 Position,Joint 5 Position,Joint 6 Position, ,Joint 1 Velocity,Joint 2 Velocity,Joint 3 Velocity,Joint 4 Velocity,Joint 5 Velocity,Joint 6 Velocity, ,Time Stamp
0.006919157084863978,0.02116203323232958,-0.07627327194778777, ,0.007017101779029684,0.021082797738990064,-0.07635804719973541, ,0.0001518494974069906, ,4.5164191938623175e-05,-7.924821661808515e-05,-1.3545893520623024e-05,-0.0013705985425417398,0.002595919005824065,0.0025833186116884766, ,9.22148323312893e-05, ,0.0029355299095080167, ,1.2654124783915884e-05, ,0.09125181164183681,-0.24336648106543698,0.08617087775000001,3.1126375210842796,0.2310523211033598,0.10996476258282523, ,0.000597419205309683,0.001020890096924633,-4.171843759539234e-06,-0.0009660840671404632,0.0,0.0038532221764998043, ,0.016952037811279297
0.0069240697573968064,0.02116430776362256,-0.07629488025128801, ,0.007080018379631762,0.021073463444019745,-0.076462845697427, ,0.00024654625180227434, ,0.00048279311667781804,0.00015605338306476282,-0.00249383584233488,0.013569663268492259,-0.2508248978854844,-0.12540286133039125, ,0.0025449281051518054, ,0.25119169007032754, ,1.8108897691330227e-05, ,0.09129042530620793,-0.24332014466819163,0.08619161839,3.1126375210842796,0.23118895760312522,0.10699458877420917, ,0.0033337621743081895,0.004793955553123753,0.0023095275511091783,-0.0009446187297307268,0.0,-0.3567919005614475, ,0.03285503387451172
0.006937631395926978,0.021153717984467895,-0.07633700944555055, ,0.00714283662229916,0.0210641393856051,-0.07656744069032197, ,0.0003212974772256756, ,0.0008119776035375687,-0.0008866401601121134,-0.002305496325054575,-0.09502949250228658,-0.14222216867549456,-0.07875015302667925, ,0.0026001445550219698, ,0.17104896874269027, ,2.2490413326091892e-05, ,0.09140626629932129,-0.24320430367507825,0.08622921080000001,3.112847211027764,0.22982259260547083,0.10312636466259908, ,0.0074376153056067975,0.006968230754319196,0.0018665117787672841,0.001353128574624873,-0.09905650546868164,-0.14873761323165136, ,0.05075192451477051
0.006950705064234245,0.021146984831159614,-0.0763719115179805, ,0.007205556522360315,0.021054825630824763,-0.07667183242541199, ,0.00040422164047694065, ,0.0015286169853313588,-0.00038914676880592207,-0.004160068928504504,-0.08282182194831555,0.06701029486843174,-0.05131246858083735, ,0.004449076149654468, ,0.10653559878250414, ,2.675987778361622e-05, ,0.09151438455956044,-0.2431193536134618,0.08626032176000001,3.113476280858218,0.22886613710711273,0.10235439392580337, ,0.012560812913100038,0.009306362827807292,0.0038860237911685787,0.07745724485583698,-0.07595097349511529,0.07075960345902495, ,0.0671229362487793
0.006987706677729758,0.02116142070668442,-0.07650382745780572, ,0.007268178095322321,0.02104552224662766,-0.07677602114950291, ,0.0004076592632697739, ,0.0022537118658417796,0.001406103244301897,-0.008951977986064582,0.01893861413913279,-0.14702407589652125,-0.04582051531801716, ,0.00933778632068957, ,0.1482388273740947, ,2.945334865733952e-05, ,0.09183101660740364,-0.2429031170929835,0.08639383963000001,3.1136859708017024,0.2287295006073473,0.10401770789217044, ,0.019047960971190443,0.013051429178719678,0.00921273078079815,-0.0165457206509118,0.023913476777809986,-0.13997729023410366, ,0.08833503723144531
0.007035359958844286,0.02116781234776388,-0.07664855303249209, ,0.007330701356870885,0.021036229299832836,-0.0768800071092155, ,0.0003976325307655506, ,0.00254698969196202,-0.0006521300380506992,-0.005865037998065712,-0.10032488708388584,0.06573921276772114,0.037995862926802, ,0.006427371219732328, ,0.11994468332016321, ,3.111623646689041e-05, ,0.09227893511410866,-0.24259420777801452,0.08653772782000001,3.113476280858218,0.22818295460828555,0.09923594013796014, ,0.02568252816196773,0.017804304232358494,0.005546243565459611,0.0,-0.07574846001182405,0.10494435590432538, ,0.10616302490234375
0.0070950495956082086,0.02115976657648915,-0.07674945243819908, ,0.0073931263228702564,0.021026946857129785,-0.07698379055098553, ,0.00040175261578522165, ,0.003215923389185914,-2.3410349392534403e-05,-0.003915571615316727,0.08449503893697834,-0.0713143137867817,-0.02964870113960075, ,0.005066992437752965, ,0.1105673684000874, ,3.237443439906149e-05, ,0.09291219920979507,-0.24219262566855485,0.08663754215000001,3.1141053506886713,0.2280463181085201,0.10481983363107422, ,0.036696419782857995,0.02449585481633216,0.0042318840382571735,0.01741670595083962,0.1046656217791363,-0.046669914176246954, ,0.12268495559692383
0.007165671816375493,0.021147260146480586,-0.0768424619603768, ,0.007455453009362989,0.021017674985078106,-0.07708737172106465, ,0.00040093172080186154, ,0.0036218864695948716,-0.0007517276382587267,-0.00469248279227384,-0.005625902143198686,-0.024836712549892986,-0.025494756127068245, ,0.00597516115234916, ,0.025465919636559198, ,3.331574387236938e-05, ,0.0937076406958402,-0.24168292529885604,0.08673087503000002,3.114315040632156,0.22859286410758187,0.10502759193741301, ,0.04029594121378802,0.026171246982479534,0.0046670997714620575,0.029825902082033076,0.018424738235792028,0.008790079843401874, ,0.14188194274902344
0.007203728613648383,0.021137912676931728,-0.07689680248344678, ,0.007517681432569927,0.02100841375010764,-0.07719075086552021, ,0.0004491569835602712, ,0.003934547153046061,-0.0006950718046033325,-0.005848294361789329,-0.011975921476331862,-0.059135778211755224,-0.035799634850587195, ,0.007082819569580624, ,0.06033624908026478, ,3.457660849015826e-05, ,0.09413239100392255,-0.24139718418250972,0.08678402292000001,3.114315040632156,0.22859286410758187,0.10486423445713192, ,0.04299816110488028,0.028302100077086424,0.005811313943816127,0.024010831108111298,0.012356870904418444,-0.02491522687250308, ,0.1580181121826172
0.007278315834601829,0.021120032301729142,-0.07700399029899421, ,0.007579811608890089,0.0209991632185186,-0.07729392823023597, ,0.00043539986353073487, ,0.0042059084816750405,-0.0008736602702458201,-0.005894008337041438,-0.020949359931293522,-0.039141069210550654,-0.017178898095689323, ,0.007293303963304013, ,0.044394807955018656, ,3.545537102573818e-05, ,0.09495100068859035,-0.24084114741556556,0.08688902241,3.1147344205191247,0.22859286410758187,0.10494591319727248, ,0.04647254728622467,0.030087806454810014,0.005828324742041714,0.01719758186631496,0.007695693105200788,0.0033974319223281533, ,0.1755530834197998
0.007369808340797105,0.021100968973345374,-0.07712599595500913, ,0.007641843554900706,0.02098992345648153,-0.07739690406091282, ,0.00039965668563440095, ,0.004557367566267883,-0.0011337559171982052,-0.006009160845194073,-0.029705645937289544,-0.05163015528356313,0.01630573636166071, ,0.007626599220967752, ,0.059565915818703775, ,3.5858076163033e-05, ,0.09595495596223953,-0.2402233287856276,0.08700957738000001,3.1155731802930626,0.22859286410758187,0.10519094941769416, ,0.051602469580462634,0.03332055532249676,0.005903933106004449,-0.01751842992802018,0.005429432355571767,0.004488931037086313, ,0.19153904914855957
0.007415704457787799,0.021091529038366374,-0.07719028799101789, ,0.007703777287356741,0.020980694530036974,-0.07749967860306813, ,0.0004370272236340619, ,0.004382729378527491,-0.0007577233193472878,-0.006633003858133193,-0.02763652190109586,-0.042633492962958125,0.016168415112407804, ,0.007986188178104776, ,0.050807401549112494, ,3.650107994994884e-05, ,0.09646465633193835,-0.2399066967377844,0.08707309559000001,3.1155731802930626,0.22859286410758187,0.10543598563811585, ,0.04841680691758713,0.03044496039732781,0.006587597816377173,-0.01452796818732925,0.0047548297471650324,0.010219702345647314, ,0.2087569236755371
0.007500410328757558,0.02107584334953235,-0.07731994918107449, ,0.0077656128231912225,0.02097147650509608,-0.07760225210203699, ,0.00040114802810855453, ,0.00427328437535326,-0.0005677456447312906,-0.007019380807642648,-0.026107148156684776,-0.010111559256628107,-0.0017711889646535727, ,0.008237414727476796, ,0.027996906944061383, ,3.677484683335085e-05, ,0.09738366154397107,-0.2393120463064691,0.08720142830000001,3.1157828702365475,0.22859286410758187,0.1061710942993809, ,0.04555782119945788,0.029082728028952128,0.007001675393406594,0.015682788425940147,0.0038195258555093446,0.035455150042717334, ,0.22682404518127441
0.007585410679799654,0.02106419937380661,-0.07746430806800404, ,0.007827350179514806,0.02096226944744018,-0.07770462480297251, ,0.0003559165134092366, ,0.0040583672843018575,-0.0007829368166700655,-0.006305436467001612,-0.02718394205041721,-0.011663689026185592,-0.02656393854404766, ,0.0075393543564805906, ,0.02958053983842661, ,3.669152320712358e-05, ,0.0982794985573811,-0.2387096731422796,0.08734531649,3.1162022501235165,0.2287295006073473,0.10663142757666844, ,0.042978687300032056,0.02902934890133704,0.006236809522317934,0.03627574098902042,0.0,0.0254784746789446, ,0.2434239387512207
0.007585410679799654,0.02106419937380661,-0.07746430806800404, ,0.007888989373615835,0.020953073422720958,-0.07780679695084555, ,0.0004709645795745737, ,0.003678228036212636,-0.001131444949198962,-0.004541753082444778,-0.02694974588633694,-0.012242691750991023,-0.013910446993695463, ,0.0059529026719194016, ,0.02960020781540945, ,3.7376058388066594e-05, ,0.09910583097492313,-0.23813046817671277,0.08745550114,3.1162022501235165,0.22886613710711273,0.10725511833423707, ,0.04057158681422436,0.02794374015267102,0.004419759023307436,0.02334103626922095,0.00038190611568735883,0.025557992185546854, ,0.2615370750427246
0.007698471372411753,0.021036249004490568,-0.07761913080740063, ,0.007950530422960267,0.02094388849646036,-0.07790876879044589, ,0.00039491060966951236, ,0.003427988256944155,-0.0011869007201314764,-0.004283437223183673,-0.027353343009619693,-0.01532306116529236,0.008225431207055302, ,0.005613169448195119, ,0.03135285594384046, ,3.7506614102812564e-05, ,0.09952285855013125,-0.23784472706036644,0.08749827871,3.116411940067001,0.22913941010664365,0.10744067622754705, ,0.03826489578970596,0.02794374015267102,0.004138428558067031,0.0005980493587522344,0.0021686145297227155,0.02548408830765157, ,0.2774670124053955
0.007770600983919415,0.0210264022155651,-0.07774195641178896, ,0.008011973345191256,0.020934714734050817,-0.0780105405663817, ,0.00037256497305928775, ,0.0035956185474385065,-0.0004501727226426202,-0.0072681848864008265,-0.05414986372645654,0.043067722617978296,-0.03589547993239786, ,0.00812143089374038, ,0.06918841270624759, ,3.749207242857513e-05, ,0.10024107270743414,-0.2373195812249192,0.0876162411,3.1172506998409393,0.22954931960593997,0.10751481621716055, ,0.0347735220075012,0.024439078433806535,0.00703569413427562,0.06391021612128889,-0.03267104474091686,0.08282097037128666, ,0.29440999031066895
0.007841266879440041,0.02102045829686742,-0.07789182530994677, ,0.008073318158129514,0.02092555220075514,-0.07811211252308022, ,0.00033373854930287904, ,0.0032307549889675218,-0.00022273095735487634,-0.007195922235933554,-0.02752619584720096,-0.014065650406371734,0.02464418020605206, ,0.007891050861812115, ,0.03091171234141329, ,3.7265796741856054e-05, ,0.10095928686473701,-0.23679443538947192,0.08777049961000001,3.117670079727908,0.22941268310617452,0.10868805774268434, ,0.03223401547502404,0.024326311601761283,0.007171909734353896,-0.01664825578582945,0.0,0.024718571683106396, ,0.3109910488128662
0.00787106238137932,0.021015986583969953,-0.07795610514423904, ,0.008134564879772762,0.02091640096170646,-0.07821348490478833, ,0.000381569395997116, ,0.003160829228390733,-0.00048400216748096083,-0.006695554506464351,-0.030389084323754534,0.027597197964529203,0.026787454955550564, ,0.007419942699119077, ,0.04104999108493397, ,3.750756231944983e-05, ,0.10126047344683177,-0.23654730793749673,0.08783401782000001,3.1174603897844237,0.22941268310617452,0.10909645144338714, ,0.03149583191452731,0.0259707010285908,0.006617703165766515,0.0,0.0,0.0661650829608462, ,0.3263430595397949
0.007903456440225932,0.021010594258799975,-0.07801900838776228, ,0.00819571352829588,0.02090726108190848,-0.07831465795557249, ,0.0004283697210587818, ,0.0032475430087074274,-0.0006098797138717371,-0.005586242443561394,-0.02564721489939787,0.022821622781722697,0.005337429752853485, ,0.006490346176980357, ,0.03433083297922059, ,3.79615706203685e-05, ,0.10181651021377594,-0.2361302803622886,0.08793383215,3.1178797696713927,0.22954931960593997,0.10963846346081518, ,0.033449750284973837,0.02435128087207359,0.005530837333333334,0.018683661643099484,0.0007207119844029177,0.05808426759460221, ,0.34128594398498535
0.007971850687315204,0.021003368680880343,-0.07814131070566897, ,0.008256764122050743,0.020898132626235317,-0.07841563191931943, ,0.0004092705959981858, ,0.0035770561161310105,-0.000222812717603626,-0.007059453516034861,-0.011970813534423459,-0.004828856247132647,-0.05013095625688058, ,0.007917124472315257, ,0.012908067701962246, ,3.828509435441093e-05, ,0.10227215145335518,-0.23579048011582274,0.08801938729000001,3.118508839501846,0.22982259260547083,0.1098240213541252, ,0.034608658482301526,0.02482263708042657,0.0070952389844098004,0.05833000748995526,0.008200084919189478,0.01787651568536208, ,0.35644102096557617
0.008039936565215119,0.020998612052709694,-0.07827692898452579, ,0.008317716679565943,0.020889015659431492,-0.07851640703973566, ,0.0003827830982102614, ,0.0034350031640169917,-0.00030256131055642716,-0.006640518235642734,-0.006173947465388,-0.01908087488250135,0.020938553383882532, ,0.007482464334786772, ,0.02005485977698562, ,3.846040283615664e-05, ,0.10295175194628693,-0.23531167067762082,0.08815549774,3.1187185294453306,0.22995922910523628,0.11077442707225607, ,0.03513400279839718,0.0259707010285908,0.006687158488664989,-0.012421083845717202,0.022447127248728996,0.020650048883438004, ,0.3714280128479004
0.008074526713574663,0.02099272867614646,-0.07834370796159433, ,0.008378571219546823,0.02087991024611226,-0.07861698356034835, ,0.00042408797747826523, ,0.003527734110666713,-0.0005328136617019424,-0.006572254936042634,-0.00999243022462527,-0.01417207419940516,-0.00021226944912067572, ,0.00747819050960822, ,0.017340597932169122, ,3.880377002537627e-05, ,0.10330699765850127,-0.23504137502702296,0.08822160853000001,3.118508839501846,0.22995922910523628,0.11134617825324, ,0.0357561950107275,0.028109283636987788,0.006565874492992582,0.009088956118294302,0.018632310711946883,0.021318086319840758, ,0.3875288963317871
0.008149468017012367,0.020985456367661567,-0.07847732301039653, ,0.008439327760875475,0.020870816450763267,-0.07871736172450594, ,0.0003934203425474262, ,0.0038261758877489653,-0.0005277856224204102,-0.006284273711421493,-0.005188540915344419,-0.006965050995817708,-0.026957654645914444, ,0.007376332128320182, ,0.008685210556079216, ,3.899100058605016e-05, ,0.10405610274730104,-0.23450850645870147,0.08835642269,3.119347599275784,0.23036913860453262,0.1119103906836969, ,0.03898806144555085,0.027403101807239615,0.006325977569499604,0.03876495310332404,0.019994672685064243,0.025270386593509605, ,0.40358996391296387
0.00818959804130958,0.020976141572476053,-0.0785403455999546, ,0.008499986322610276,0.020861734337740967,-0.07881754177537749, ,0.0004315873262708346, ,0.003907662525816818,-0.0008012796292628317,-0.005854046693518258,-0.011638419667884165,0.028136316259966335,-0.023716955115671127, ,0.007083906983426357, ,0.03044840058478456, ,3.932025903909662e-05, ,0.10447313032250917,-0.2342073198766067,0.08841864461000001,3.119557289219269,0.23036913860453262,0.11240046312454027, ,0.04015951822195124,0.02903823181103757,0.005845435420183487,0.051894151000887095,0.016335577416591366,0.06254589490166892, ,0.4183979034423828
0.008269917414837298,0.02095961197926434,-0.07866253371992343, ,0.008560546923986091,0.020852663971272122,-0.07891752395595367, ,0.0004011525999820094, ,0.0039730333809938415,-0.0007901731804611004,-0.00604733923559299,-0.012329688726893483,-0.0019609068814026385,0.005971472667464735, ,0.007278714153746785, ,0.012484645441981093, ,3.950636245890032e-05, ,0.10532263093867386,-0.2336126694452914,0.08854049587000001,3.119557289219269,0.23064241160406349,0.1129127359784125, ,0.04165800770784494,0.02964602985269315,0.006049681549563237,0.011517795555990775,0.01889589758741631,0.04097179487756936, ,0.4354360103607178
0.008308000616586637,0.0209519185107393,-0.07872231364163576, ,0.008621009584413926,0.02084360541545438,-0.07901730850904645, ,0.0004435406546745819, ,0.0040364608870349025,-0.0008193994170273755,-0.006439087491074644,-0.02419599008901026,-0.011224658114742533,0.0035145238802233286, ,0.0076437084988179235, ,0.026672811533676025, ,3.984090007313788e-05, ,0.10571649031525931,-0.2333269283289451,0.08860012521,3.1197669791627534,0.23077904810382893,0.11329139051555945, ,0.04191561022900653,0.029757585938686354,0.0064048297225572995,0.008523583443374755,0.006748272226158505,0.03196528427035358, ,0.45030689239501953
0.008389890824830869,0.020937859341191845,-0.07886106987518174, ,0.008681374323480998,0.020834558734256173,-0.07911689567729005, ,0.0004013483354929465, ,0.004188458188009228,-0.0007330741622458576,-0.006765387244998925,-0.009449753581563988,-0.02605256409991695,-0.03556190026422163, ,0.007990684845171167, ,0.0277134249915003, ,3.9998180348265475e-05, ,0.10654282273280133,-0.23271683243188138,0.08873882824000001,3.1203960489932068,0.2310523211033598,0.11380366336943168, ,0.04245948168164241,0.030810695311191814,0.00678110324393359,0.039016426744129716,0.017799174497981084,0.007875155003779827, ,0.46547603607177734
0.008479360654765233,0.020920613890844736,-0.0790054218628118, ,0.008741641160950383,0.020825523991516617,-0.07921628570314057, ,0.0003497094680404967, ,0.004077336431866562,-0.0007596838665321426,-0.006641108466131214,-0.015966193866509066,-0.011475118090427412,-0.014368809909333053, ,0.007829822067877102, ,0.019662087093032125, ,3.9961617518749845e-05, ,0.10746955067770828,-0.2320681228704465,0.08888271643000001,3.1203960489932068,0.23118895760312522,0.11467239034742202, ,0.04142162442534735,0.0301547319855325,0.006639771371404753,0.025238326526546527,0.013292915034751444,0.026685978934569525, ,0.4883110523223877
0.008555474671026457,0.02090139784630024,-0.07911336877322686, ,0.008801810116761136,0.020816501250945516,-0.07931547882887638, ,0.00032975302625264563, ,0.0037016732346286585,-0.0012059654077983834,-0.004650233030199185,-0.016109412163146847,0.001394100782810651,0.0037575591037488456, ,0.0060647674758335145, ,0.016169621982600767, ,3.98585087897288e-05, ,0.1082649921637534,-0.23147347243913122,0.0889903085,3.1208154288801757,0.23159886710242156,0.11523660277787892, ,0.03960640298767562,0.02991706858715977,0.004579876802760207,0.013711124174393711,0.015160123466812328,0.04197791312912579, ,0.5036890506744385
0.00857876230146331,0.020894613052663324,-0.07914336993460615, ,0.008861881211027949,0.020807490576123654,-0.07941447529659844, ,0.00040155293570393323, ,0.0036991443454016475,-0.0010950885115965632,-0.005136156454705074,-0.01578678231331317,-0.0050824429989243,-0.005978734853109887, ,0.006423627547076213, ,0.016584743563617447, ,4.000174075158959e-05, ,0.10850439688285436,-0.23128812685014985,0.08902012317,3.121234808767145,0.231735503602187,0.11553357857488528, ,0.0387334455340697,0.02982304888701156,0.005074485989168526,0.01926905134586202,0.014125866030039338,0.03236852785414225, ,0.5190370082855225
0.008669904709557185,0.020879414923365786,-0.07928462602913632, ,0.008921854464041161,0.0207984920305026,-0.07951327534823076, ,0.0003497251842464812, ,0.003810767936098159,-0.0005981603928434274,-0.006453072214233258,-0.004953104778235254,-0.011580997746382679,-0.025426965115515867, ,0.007518104090824345, ,0.012595743112489717, ,3.996833009406418e-05, ,0.10943884756063553,-0.23063169455584076,0.08916271507000001,3.121654188654114,0.23228204960124876,0.11631308806220808, ,0.037792489668845394,0.0282768002260044,0.006496252659053834,0.03467143745502641,0.020968019317065604,0.01998594409683659, ,0.5343890190124512
0.008705924915027734,0.02087396771310504,-0.07934761057768236, ,0.008981729896266577,0.020789505677404875,-0.07961187922552018, ,0.00039120345266984276, ,0.003538870678287975,-0.0004222289037877033,-0.0061472325963987315,0.004199639374289041,-0.011076176214969802,-0.016278123158700118, ,0.007105656304597574, ,0.011845616980178279, ,4.00676628442953e-05, ,0.10980181600572408,-0.23035367617236868,0.08922623328000001,3.121654188654114,0.23255532260077963,0.1167436821759397, ,0.035004404853733226,0.026077752557974936,0.006234368500978474,0.02614637537638736,0.028851312939038896,0.019448838624964836, ,0.5493900775909424
0.008776364931516203,0.020868800647043603,-0.07947624281631663, ,0.009041507528345365,0.020780531580024006,-0.07971028717003655, ,0.0003645117067447838, ,0.0035527035749733284,-0.00022619515828078756,-0.007213102201805004,-0.001045580287686529,-0.013866291142364612,0.009994733974582531, ,0.008043737335029168, ,0.013905655276071904, ,4.0079634442903047e-05, ,0.11049686196440428,-0.2298594212684183,0.08935715857000001,3.1218638785975985,0.23310186859984142,0.11735983418298138, ,0.03427119594022057,0.02639692393837852,0.0073101475539238195,0.0,0.026891867128937073,0.022232809027401334, ,0.5717449188232422
0.008849122576917003,0.02086134035291747,-0.07959545825605376, ,0.009101187381093837,0.020771569801424538,-0.0798084994231737, ,0.00034202625090463, ,0.0033375818525653517,-0.0006569964688821126,-0.004388357858145036,0.01707078340768122,-0.01713924825687655,-0.042336169029199025, ,0.005552367213526174, ,0.024190193784576236, ,4.00238420277344e-05, ,0.11121507612170717,-0.2293497208987195,0.08947900983000001,3.122702638371537,0.23378505109866862,0.11794624702646708, ,0.034147873896535,0.02472562312623001,0.004483200540388405,0.048081896661555774,0.037109503115148934,0.006031058275841158, ,0.5864260196685791
0.00887897524847326,0.0208533489317314,-0.0796343811375908, ,0.009160769475503486,0.02076262040454201,-0.07990651622614853, ,0.00040211585203500595, ,0.003252623838122659,-0.000805286457782603,-0.003964288003276077,0.005883838898477892,0.00918632008456289,-0.023514164093084558, ,0.00519072514051076, ,0.010909080433299016, ,4.014564805618032e-05, ,0.11153170816955037,-0.22912576164536697,0.08951789853000001,3.122702638371537,0.23392168759843407,0.11840658030375464, ,0.03379520710771751,0.024313846158972786,0.0040133060015117164,0.04170580121516191,0.02822657472546654,0.036879473259011655, ,0.6018838882446289
0.00892098131662291,0.02084219415111177,-0.07969270098665625, ,0.009220253832740612,0.020753683452183223,-0.08000433782000227, ,0.0004410393390913967, ,0.0032527104375859187,-0.000717412593770766,-0.00512191891826282,-0.012343338985836401,0.0317875584447332,-0.001533257367345756, ,0.006109734808135281, ,0.03409995433532958, ,4.048619963186769e-05, ,0.11197190394338116,-0.22879368413177534,0.08957623158000001,3.122702638371537,0.23419496059796494,0.11883717441748629, ,0.03242123046070064,0.024829131752608785,0.00512345175940817,0.02955629444617079,0.01357016365956303,0.06400471276130616, ,0.6185789108276367
0.00898149356696773,0.020841605987470573,-0.07981001710578307, ,0.009279640474146506,0.02074475900702597,-0.08010196444559992, ,0.0004283738613730268, ,0.003479608266272046,1.963677170838769e-05,-0.006956005053666322,0.01727027262567524,-0.0009300849548820273,-0.005467498851867997, ,0.0077777931057687105, ,0.01729529873413603, ,4.077643369941793e-05, ,0.11255883164182223,-0.2283766565565672,0.08969678655,3.122702638371537,0.2348781430967921,0.11917855104055036, ,0.03284767793647309,0.024103871363594303,0.007152587121688371,0.021262349389964373,0.041199164718049915,0.029455274612679695, ,0.6321260929107666
0.009051917747720004,0.020834629436372095,-0.07994345906301581, ,0.009338929421237022,0.02073584713161944,-0.08019939634363095, ,0.0003970359380156399, ,0.003754086928739809,-0.0005142686410173221,-0.006875190778833227,-0.025172321592203017,0.0768463915192014,-0.023330533515295196, ,0.007850215866396434, ,0.08086416788975527, ,4.09688914940383e-05, ,0.11321526393613131,-0.22788240165261683,0.08983160071000001,3.1237510880889596,0.235151416096323,0.12042593255568762, ,0.03486294693551461,0.025787212380019235,0.006895589402597403,0.07002328941079064,0.0,0.10719320799344187, ,0.6466848850250244
0.009091265927570168,0.020833492849637817,-0.0800179665099104, ,0.009398120695702549,0.02072694788838393,-0.0802966337546093, ,0.0004279802691272624, ,0.003845327316369927,-1.3799124305197748e-05,-0.007369441411706163,0.007354248983540274,0.0017163679661203086,-0.041021258140847464, ,0.008312364242886741, ,0.007551878929866799, ,4.123545834822701e-05, ,0.11358595511409408,-0.22761210600201898,0.08990808182000001,3.124170467975928,0.23556132559561932,0.12082678750586343, ,0.03566213512155985,0.024134522268176698,0.007559948514475558,0.05532678141079136,0.027258621458449088,0.027312697176290854, ,0.6604900360107422
0.009128998912945949,0.020835578833233965,-0.08009287820635004, ,0.009457214319407853,0.020718061339611144,-0.08039367691887321, ,0.00046045149560180527, ,0.003682224440964433,0.00015303639189537211,-0.007494694182312489,0.028226533753674485,-0.02598503981936395,0.028017108725659823, ,0.008351804467135761, ,0.03836612410075596, ,4.157547873576865e-05, ,0.11394120082630842,-0.22736497855004378,0.08998585922,3.124380157919413,0.23610787159468108,0.12078950959178059, ,0.035409306551668206,0.0255580235815973,0.007762578713450294,-0.01855903206348797,0.05703218298614556,0.014145668774650035, ,0.674422025680542
0.009206522278379314,0.020826919036853717,-0.08024225376302059, ,0.00951621031439215,0.020709187547464213,-0.08049052607658602, ,0.0004140127110687427, ,0.0037800307588327876,-0.000502948426569521,-0.007055049082699682,-0.013385248876192576,-0.01482409626356869,0.009293885584298188, ,0.008019682488528605, ,0.019972949207135767, ,4.1783154453071185e-05, ,0.11469030591510819,-0.22682438724884807,0.09013622886000001,3.124170467975928,0.23624450809444655,0.12124984286906806, ,0.03652692130811038,0.027618434679415244,0.007111076571428573,0.0,0.01579299206559085,0.023961687914511563, ,0.6879470348358154
0.009215385169607246,0.020825093811902617,-0.08025922155187462, ,0.009575108702868589,0.020700326573977697,-0.08058718146773643, ,0.0005025192438638748, ,0.0037652832598209975,-0.00046484672182885677,-0.007266318765106037,-0.015109104274393922,-0.00816963450874563,0.012191400863804453, ,0.008197123208639441, ,0.017176377374875394, ,4.220378947366945e-05, ,0.11477525597672467,-0.22675488265298005,0.09015308063000001,3.124170467975928,0.23624450809444655,0.12141320034934919, ,0.03602769231528883,0.02758632022048569,0.007320225882352943,0.0,0.01449786919869815,0.03086606451258695, ,0.7033050060272217
0.00932472245629712,0.02080731964013127,-0.08043412234852629, ,0.009633909507224451,0.020691478481057506,-0.08068364333213769, ,0.000413855684821527, ,0.0040917814427684895,-0.000677440616623145,-0.0059250158713962655,0.030731476794779472,-0.018773294739685694,-0.025212000311273457, ,0.007232386483086546, ,0.03601194599114415, ,4.239061635855222e-05, ,0.11584871584624187,-0.22595944116693492,0.09033067236,3.1250092277498664,0.23706432709303918,0.12205155276941967, ,0.04088623074470952,0.031205834119852276,0.00610299291954023,0.036245448099841274,0.059060007945045574,0.014574333782204449, ,0.7170619964599609
0.00932472245629712,0.02080731964013127,-0.08043412234852629, ,0.00969261275002071,0.02068264333048126,-0.08077991190942876, ,0.0005200556420548682, ,0.0040917814427684895,-0.000677440616623145,-0.0059250158713962655,0.030731476794779472,-0.018773294739685694,-0.025212000311273457, ,0.007232386483086546, ,0.03601194599114415, ,4.282554595275042e-05, ,0.11584871584624187,-0.22595944116693492,0.09033067236,3.1250092277498664,0.23706432709303918,0.12205155276941967, ,0.04088623074470952,0.031205834119852276,0.00610299291954023,0.036245448099841274,0.059060007945045574,0.014574333782204449, ,0.7300739288330078
0.009422501033608446,0.02078742683974212,-0.08058626602260915, ,0.009751218453992261,0.020673821183898128,-0.08087598743907401, ,0.0004526586867187418, ,0.004407863530131158,-0.0007887132945643763,-0.007214175421383424,-0.030101671405653944,0.009149460245226688,-0.0052569730866463445, ,0.008490916120877394, ,0.031461456175017485, ,4.3085108026091787e-05, ,0.11682950292126838,-0.22526439520825473,0.09048363458000001,3.1250092277498664,0.23733760009257007,0.12329893428455693, ,0.042920371577779635,0.029673840387264155,0.00724366144611187,0.02548596027677039,0.0,0.05183164509810914, ,0.7480840682983398
0.009509061012516038,0.020778125273515784,-0.08073310093103236, ,0.00980972664204742,0.020665012102828874,-0.08097187016036371, ,0.0004002563616481731, ,0.004276506014242102,-0.0004197462342887797,-0.006796890912852691,0.015033034571162717,-0.014828584833515488,-0.011379542872707395, ,0.008041294464964453, ,0.02111584812590797, ,4.32137550109053e-05, ,0.11765583533881041,-0.224654299311191,0.09063400422000001,3.1258479875238043,0.2381574190911627,0.12369225048420573, ,0.04186014184317194,0.028635166432851772,0.007004754406332454,0.02428773277572415,0.04259227089811477,0.023435315777314017, ,0.7620799541473389
0.009551829745477572,0.020770731679761737,-0.08079836781755872, ,0.009868137337267989,0.020656216148666123,-0.08106756031241412, ,0.0004308467230615027, ,0.0044613717555645575,-0.000877157821185299,-0.006922930697791723,-0.012788644837702874,-0.0013932670122197809,-0.04657130266989244, ,0.008282524568695387, ,0.012864315522028802, ,4.3407247472210435e-05, ,0.11807286291401853,-0.2243685581948447,0.09070011501000001,3.1262673674107737,0.23829405559092814,0.12415258376149324, ,0.0428622138927149,0.03124693498797194,0.0069801978615249794,0.06019868736816628,0.013526613234509254,0.03115148963044185, ,0.7756950855255127
0.009595487625232208,0.020762558346469246,-0.08086909366846362, ,0.009926450562909049,0.020647433382674253,-0.08116305813416702, ,0.0004573896921671593, ,0.00441524316927302,-0.0008802476842688974,-0.00720698848979387,-0.03471453591497678,-0.010152705799891684,0.028369679438792695, ,0.008497640338440676, ,0.03616872156170445, ,4.365307718736551e-05, ,0.11849761322210088,-0.2240596488798757,0.09077141096,3.126477057354258,0.23843069209069356,0.12453123829864016, ,0.043751471442356284,0.03051348603166263,0.007223950802721089,-0.014296481831538742,0.0,0.04109730776977636, ,0.7891180515289307
0.009685110468965596,0.02074821033472516,-0.08099781800118008, ,0.009984666342398847,0.02063866386598931,-0.08125836386439104, ,0.00041184741951018453, ,0.0042503429963879884,-0.000680883147395857,-0.006070585150682657,0.013752342704786608,-0.04029899144825272,0.0019878679494028002, ,0.007441842615847294, ,0.04258093039579998, ,4.3790407893530556e-05, ,0.11933166837251713,-0.22349588938005732,0.09089326222,3.1262673674107737,0.23925051108928622,0.12467951827786727, ,0.042554682313215596,0.029636771254987752,0.006244144068992553,0.0002306177926018703,0.04892217593434452,-0.000468526684471976, ,0.8024439811706543
0.009726456328697213,0.02073887266754294,-0.08105827359676117, ,0.010042784699338584,0.02062990765961956,-0.08135347774168059, ,0.000446186618134129, ,0.004192066712676974,-0.0009173382478622522,-0.006466636600046871,-0.014750859222402683,0.012953721416500407,0.017404756708245928, ,0.007760948505278919, ,0.01963126931778164, ,4.399700995168979e-05, ,0.11981820054359327,-0.2231483664007172,0.09096455817000001,3.126477057354258,0.23938714758905166,0.12546656651571703, ,0.041349429872972014,0.030820702032630976,0.006520184821940238,0.007330920724700085,0.019118147072575253,0.05855839995026697, ,0.8154950141906738
0.009772621735415125,0.020731531357656492,-0.0811335011698007, ,0.010100805657502413,0.0206211648244449,-0.08144840000445695, ,0.00046802428829881043, ,0.004383562858673098,-0.0005920043066380376,-0.00771291116962365,-0.016065643132244987,0.014777098527530987,-0.0003258731834306604, ,0.008891292996270088, ,0.021828135578868656, ,4.4242874800599304e-05, ,0.12025839631742406,-0.2228240116199998,0.09104103928000001,3.126896437241227,0.23966042058858256,0.12597883936958926, ,0.04131342688657849,0.029851192689043973,0.007815903591756624,0.02423349277514144,0.014670113582241883,0.056462270430137664, ,0.8299300670623779
0.009830332879646181,0.020727498332899507,-0.08123256752962896, ,0.010158729240837053,0.02061243542121764,-0.08154313089096804, ,0.00046640459377491695, ,0.004319106644896669,-0.00014175923353987102,-0.0067792450608377105,0.04252293807252785,-0.04786813613284187,-0.024607057974816913, ,0.008039461517115239, ,0.06402779634528677, ,4.447716979095373e-05, ,0.12081443308436823,-0.22243015224341434,0.09114344619,3.126896437241227,0.24034360308740974,0.12615685851237218, ,0.04187861498608596,0.027578303271860147,0.007123797638640431,0.02423349277514144,0.0666366382407964,-0.013736967035099048, ,0.8427639007568359
0.009920172013983996,0.020714320252696743,-0.08138739151232935, ,0.010216555473462067,0.02060371951056169,-0.08163767063928856, ,0.00040337987134273303, ,0.004424140017332894,-0.000717631001492274,-0.007818033428607776,-0.03074085311146622,0.0146630564626998,-0.0012683836503229948, ,0.00901164001933598, ,0.0340588497404422, ,4.4574633956968285e-05, ,0.12163304276903603,-0.22183550181209905,0.09129511212000001,3.1273158171281965,0.24061687608694063,0.12724088254722837, ,0.04143971247094794,0.030078269907597717,0.007893365470763133,0.02346183810037739,0.0,0.05818274138523908, ,0.8561489582061768
0.009962671123846197,0.020710199057191916,-0.08145782521099185, ,0.010274284379669046,0.02059501715297362,-0.08173201948732023, ,0.00043075769689596345, ,0.004332725373694103,-0.0006838061613807641,-0.006938187765860538,-0.003835000847445,0.004689146768380581,-0.039717831898502864, ,0.008208443793103041, ,0.006057665626079391, ,4.4814503167467654e-05, ,0.12205779307711838,-0.22153431523000428,0.09137288952000001,3.1279448869586495,0.24102678558623697,0.1273967012769825, ,0.04064108846187185,0.029370764951553937,0.007063774509977828,0.0566593528460729,0.021213081097384307,0.036429532894801345, ,0.8683130741119385
0.010003326735627555,0.020706276481354452,-0.08152409721479915, ,0.010331915983922206,0.0205863284088219,-0.08182617767279186, ,0.00046218074094471213, ,0.004288345198425786,-0.0002747658022785068,-0.0069535085512643265,0.04458261738061795,-0.05619221339546174,-0.05556051996587601, ,0.008174147170162118, ,0.07172987245584264, ,4.5110278503667726e-05, ,0.12245165245370383,-0.22124857411365798,0.09144159289,3.1279448869586495,0.2415733315852987,0.12735942336289963, ,0.04029594121378802,0.02935259559494921,0.007263479945280439,0.04830366729914786,0.06641533559734183,-0.03060315257830677, ,0.8797628879547119
0.01004682895087107,0.020699979632288926,-0.08160220283116817, ,0.01038945031085772,0.020577653338347424,-0.08192014543325941, ,0.00048315692764681775, ,0.00448685105585785,-0.0004671080035662657,-0.008218229150770431,-0.002967011899657936,0.017797624106813417,-0.009747143640502724, ,0.00937493000821986, ,0.018043241005213765, ,4.543912914830652e-05, ,0.12286095729603773,-0.22094738753156323,0.09152066658,3.1279448869586495,0.24170996808506415,0.12798311412046823, ,0.04100991424307294,0.030750791172544,0.008383585010526317,0.03552316516282738,0.027364309188040278,0.05661493872983866, ,0.8911380767822266
0.010092311627555263,0.020694633038625454,-0.0816905713444654, ,0.010446887385283763,0.020568992001663424,-0.08201392300610644, ,0.0004960503353729859, ,0.004458389363421592,-0.0005350156514141334,-0.008669821135313725,-0.031724142566656795,0.03915377284774675,0.005160460235760379, ,0.009763671234810267, ,0.05039284771491801, ,4.578404471290892e-05, ,0.12327798487124585,-0.22063075548372002,0.09161011059000002,3.1279448869586495,0.2418466045848296,0.12868848361817742, ,0.04005780563886483,0.02976692018772609,0.008747288039538717,0.028086085363723548,0.0,0.08164945997319492, ,0.9030120372772217
0.010181596974420806,0.020690360013327753,-0.08185097062021217, ,0.010504227232180356,0.020560344458755517,-0.082107510628544, ,0.00043221187342276705, ,0.004401623155160512,-0.0003360384191892652,-0.007067683897374761,0.02909191436002454,-0.010932366920555645,-0.0655219580640721, ,0.008333028494636683, ,0.03107822565690085, ,4.599766528734946e-05, ,0.1240811490901652,-0.22004382778527895,0.09177603571000001,3.1292030266195567,0.24280306008318767,0.12905206065427036, ,0.040381677258923734,0.02841225795163796,0.0073472377859778604,0.07664961347878986,0.04933778188409465,0.013548510740967377, ,0.9154610633850098
0.010227681980673847,0.020681242818855385,-0.08193206846300806, ,0.010561469876699201,0.020551710769481778,-0.08220090853761061, ,0.0004477364147132394, ,0.0047093102377766365,-0.0008330468539199921,-0.008309806775303291,-0.01811672975660162,0.032162963304827076,-0.020218748489645607, ,0.009587724371264034, ,0.036914388332975584, ,4.623493464150379e-05, ,0.12451362213112177,-0.21970402753881307,0.09185770198000001,3.1292030266195567,0.2429396965829531,0.129675751411839, ,0.04276563387042396,0.03363946882611513,0.008392419135932562,0.05083369745914328,0.014008812920520294,0.07116683026194014, ,0.9266929626464844
0.010270696283608686,0.020674211864152418,-0.08200492116182903, ,0.010618615344163595,0.020543090993572957,-0.08229411697017294, ,0.0004710356366163971, ,0.004436228593822652,-0.0008720599668004358,-0.007319238638787331,-0.03334730700983044,0.005319988488063712,0.020018190850398042, ,0.008603014993237144, ,0.033768996747248585, ,4.650940595272515e-05, ,0.12491520424058145,-0.21941056368959255,0.09193159051000001,3.1294127165630417,0.24307633308271853,0.1302177634292671, ,0.04223272877546541,0.029964301092033716,0.007371037260527535,-0.0002845930274700184,0.0,0.05320814589302621, ,0.9385769367218018
0.010270696283608686,0.020674211864152418,-0.08200492116182903, ,0.010675663660068065,0.020534485190632324,-0.08238713616292526, ,0.0005741170841843766, ,0.004436228593822652,-0.0008720599668004358,-0.007319238638787331,-0.03334730700983044,0.005319988488063712,0.020018190850398042, ,0.008603014993237144, ,0.033768996747248585, ,4.696630161911357e-05, ,0.12491520424058145,-0.21941056368959255,0.09193159051000001,3.1294127165630417,0.24307633308271853,0.1302177634292671, ,0.04223272877546541,0.029964301092033716,0.007371037260527535,-0.0002845930274700184,0.0,0.05320814589302621, ,0.9515988826751709
0.010373942630218952,0.020662806497910934,-0.08217593970233444, ,0.01073261485007852,0.020525893420135905,-0.08247996635239019, ,0.0004897174247552752, ,0.004303492876878092,-0.00045566225173864503,-0.0073028871429490355,0.00412401519158494,-0.014139452457790028,0.01367276976141769, ,0.008488806727193779, ,0.014728597907974287, ,4.725841289574058e-05, ,0.12589599131560797,-0.21871551773091233,0.09210788595000001,3.1294127165630417,0.24403278858107663,0.13058134046536, ,0.040519616378510155,0.028600645436549364,0.007513590339622642,0.0,0.034754445484061654,0.029021176992984534, ,0.962791919708252
0.010423049258628532,0.020651245763126085,-0.08225205649635804, ,0.010789468940031932,0.02051731574143238,-0.08257260777491864, ,0.0005049294562782781, ,0.004821163232030669,-0.001099875762895689,-0.007449509725445733,-0.01449951220416372,0.014099612829863505,-0.011570818572042637, ,0.008941394564227682, ,0.020224611570271625, ,4.757045692084469e-05, ,0.1263516325551872,-0.21837571748444645,0.09218436706000001,3.130041786393495,0.24403278858107663,0.13131644912662507, ,0.04542697058806643,0.03490141285710584,0.0075349155723746465,0.0362116518913889,0.01970516223049949,0.05750162552034717, ,0.9745841026306152
0.010520655643646251,0.020636646147222132,-0.08240909939238067, ,0.010846225955936062,0.020508752213743354,-0.0826650606666894, ,0.0004334386466512956, ,0.004886239857756497,-0.0006024354791535837,-0.008212997895329586,-0.015141108616358093,-0.014548403108836058,0.017761086384772307, ,0.009575573240425841, ,0.02099783716911804, ,4.77482364751905e-05, ,0.1272629150343457,-0.2177270079230116,0.09234510702000001,3.130670856223949,0.24457933458013842,0.13193260113366664, ,0.045910470033125685,0.03091105588223804,0.008401271898734177,-0.0036575352725354868,0.01852614781172735,0.035704660173419396, ,0.9882369041442871
0.010568862149523756,0.020633883241558876,-0.08249134341026106, ,0.010902885923969666,0.02050020289616335,-0.08275732526371012, ,0.0004474244774309469, ,0.004946045200183341,-0.0004950043839738838,-0.008527530264692268,0.007890906628355345,-0.043540605416682816,-0.008804870437164582, ,0.009870519990236208, ,0.044249866467311987, ,4.794611553481395e-05, ,0.12771855627392495,-0.21741809860804262,0.09243066216000001,3.1304611662804644,0.24512588057920015,0.1318953232195838, ,0.0457114362035023,0.032577048252135525,0.008781042734288865,0.009872649148809256,0.039279936044552405,-0.0004310916571197143, ,0.9999179840087891
0.010618441120468461,0.02062534021528732,-0.08257595391799386, ,0.010959448870481947,0.0204916678476598,-0.08284940180181681, ,0.0004570867889183187, ,0.004896568630807876,-0.0005564624542898924,-0.008140969264786913,-0.009090888187181553,-0.025164443839049207,0.005812703286198777, ,0.009516376168975835, ,0.026756185191500918, ,4.8155897883992914e-05, ,0.1281741975135042,-0.2170937438273252,0.09251621730000001,3.130670856223949,0.24512588057920015,0.1323853956604272, ,0.045777588788456725,0.030503677775143293,0.008357193871983212,0.0030230894622179706,0.022465201992605915,0.02203598008625962, ,1.0113608837127686
0.010664624891660571,0.020617089398648935,-0.08265013305345895, ,0.011015914821992585,0.020483147127073154,-0.08294129051667451, ,0.0004755184703601675, ,0.004953062317374654,-0.0008942006436736976,-0.007952358753451788,-0.015622983046523178,-0.0050741788568715,-0.02063185465892569, ,0.009411292730254676, ,0.016426346475696088, ,4.8392121749474516e-05, ,0.12859894782158654,-0.21680027997810467,0.09259140212000001,3.1310902361109174,0.24512588057920015,0.13295714684141113, ,0.045777588788456725,0.03312284173070533,0.008089797623158965,0.03569206723337703,0.015357813317203857,0.03671835060615432, ,1.022892951965332
0.010716109371970574,0.02061030443696521,-0.08273478698901056, ,0.011072283805191764,0.020474640793117036,-0.08303299164377653, ,0.00048393270944077985, ,0.005073415744177219,-0.0007658418785352959,-0.00844065759890205,-0.017445690326068113,-0.00926098793216772,-0.047425980554473585, ,0.009877791342101061, ,0.019751404142229246, ,4.863695793361357e-05, ,0.12907003452691423,-0.216468202464513,0.09267825355,3.1315096159978872,0.24539915357873104,0.1330610259945805, ,0.045755516662714935,0.032212132233017915,0.008596228559093363,0.05807399129977321,0.009069042158866735,0.026734237387811145, ,1.0356900691986084
0.01076900574324631,0.020606149542873826,-0.08282339311294501, ,0.011128555846939612,0.020466148904378288,-0.0831245054184457, ,0.0004894334238371566, ,0.004923654852344552,-0.0003900880650245502,-0.00799047501833562,0.0265712821187036,-0.055487975665263575,0.03457575706949855, ,0.009393733912674783, ,0.061521934659820546, ,4.888524913078334e-05, ,0.12955656669799037,-0.21612840221804713,0.09277029014,3.1317193059413713,0.2459456995777928,0.13310542682063817, ,0.047025243586952814,0.03223401547502404,0.00834406051335778,-0.03252031305958897,0.06303036291306946,-0.002342212047845897, ,1.046983003616333
0.01086402425191555,0.020583756674774245,-0.08296269889487545, ,0.011184730974266345,0.020457671519316805,-0.08321583207583357, ,0.00042758236106005195, ,0.004855161291380198,-0.0011045503500496804,-0.00732676999736461,-0.01998170388430819,-0.0018296840136855456,0.010204647845852434, ,0.008858565416329763, ,0.020065298716851664, ,4.902591736331146e-05, ,0.13046784917714888,-0.21547196992373804,0.09291158575000001,3.1317193059413713,0.24621897257732367,0.13435280833577548, ,0.04593269194504877,0.03373513741858186,0.007436419943977593,0.008478653216597475,0.01570237782435598,0.04706899446253934, ,1.0585570335388184
0.010913060234197804,0.020574256628572683,-0.08303611715894973, ,0.011240809214372012,0.020449208696266073,-0.08330697185092073, ,0.0004431914299059662, ,0.004738790176950726,-0.0010408127423834849,-0.007160169857160094,-0.018147211897166983,0.007298479068900119,-0.014315085839343752, ,0.008649130354507123, ,0.01955988439485218, ,4.9188800113087984e-05, ,0.1309234904167281,-0.2151398924101464,0.09298677057000002,3.13213868582834,0.24649224557685456,0.13486508118964768, ,0.044035703739429596,0.03222307013869975,0.00727342991780822,0.03446315845717975,0.012811992564249895,0.04898822518496954, ,1.0751218795776367
0.0109170928339061,0.02057416618095384,-0.08304205600306039, ,0.011296790594626455,0.02044076049343285,-0.08339792497851763, ,0.0005372245290862886, ,0.0047417813202302655,-0.000982130093371112,-0.007116061248201927,-0.01153664363843073,-0.0032565547111972556,-0.018700207961271875, ,0.008607403632765864, ,0.01198746331714407, ,4.9579270642777924e-05, ,0.13096210408109923,-0.2151090014786495,0.09299325202000001,3.13213868582834,0.24662888207662,0.13483534202609185, ,0.044138112352777106,0.03202731743451596,0.007256861740318907,0.03446315845717975,0.018489773969177482,0.03725757201257064, ,1.085042953491211
0.011006380943779455,0.02056456182581946,-0.08317411023125826, ,0.011352675142568918,0.0204323269688973,-0.08348869169326362, ,0.00048617612625250243, ,0.004460864296939214,-0.0005825853135625974,-0.0069471247955681156,0.0128548011950502,-0.027961577399939888,0.028388165108236746, ,0.00827654872809211, ,0.03077492011809848, ,4.988070914500769e-05, ,0.13179615923151547,-0.21452207378020843,0.09313195505,3.132767755658794,0.24785861057450898,0.135139440735073, ,0.04234580167714001,0.02974825754184037,0.007214135652173914,-0.017905814630464756,0.04639422428853277,0.019884831699677374, ,1.0951309204101562
0.011051391025994641,0.02055388720534702,-0.0832458639716217, ,0.011408462885908105,0.020423908180613175,-0.08357927222962777, ,0.0005055253965128389, ,0.004787973961015776,-0.001247694534478707,-0.00781890801242065,-0.038032738551014154,0.026319851249712096,0.01755803939184264, ,0.009252932443794723, ,0.04625174312686371, ,5.0207040065328566e-05, ,0.13222090953959784,-0.214197718999491,0.09320454729000001,3.132558065715309,0.24799524707427442,0.13592648897292284, ,0.04393376924003276,0.03472262771989418,0.00784670518226601,0.011616320308163878,0.0,0.07573350326908602, ,1.1049160957336426
0.011098388363542478,0.020545193633913886,-0.08332356855756529, ,0.011464153852521997,0.020415504186407932,-0.0836696668219084, ,0.0005199882251591342, ,0.00486460678735231,-0.0008900819930173793,-0.008162162722557957,-0.03468372279034357,0.020363693612519676,0.017248636861077124, ,0.009543455635112611, ,0.04021990313160244, ,5.0549902110418165e-05, ,0.1326533825805544,-0.2138810869516478,0.09328362098000001,3.132558065715309,0.24813188357403987,0.13638682225021032, ,0.04426163318958525,0.03148538206983105,0.008274707283116885,0.009693179775212625,0.0,0.06989899512195928, ,1.1157341003417969
0.011149431370493174,0.020541344447330565,-0.08340942469424684, ,0.011519748070457563,0.020407115043982606,-0.08375987570423431, ,0.0005272266129444746, ,0.004803892185567081,-0.00019928631378570826,-0.00869488468745499,0.039396578733846624,-0.06307210487646316,-0.026087504447419294, ,0.009935699013836622, ,0.07436518526692451, ,5.0897615154334255e-05, ,0.13310902382013365,-0.21355673217093038,0.09337306499,3.1329774456022785,0.2486784295731016,0.1365129018164086, ,0.04242152058939239,0.03173810754463906,0.00908142047890536,0.019057867181898346,0.06709071316171579,-0.028216695148183583, ,1.1255838871002197
0.011200546295476566,0.020537240241579838,-0.0835026054155491, ,0.011575245567930593,0.020398740810912204,-0.0838498991105636, ,0.0005293340605606846, ,0.005169929529711494,-0.0003532453153761981,-0.009408294738100505,-0.000284354517960398,0.009231637865865498,-0.052647798983755316, ,0.010740994529092164, ,0.009236012205686314, ,5.124215110761838e-05, ,0.1335414968610902,-0.21324010012308717,0.09346899045000001,3.133816205376217,0.24895170257263252,0.13702517467028083, ,0.044035703739429596,0.03087083329813623,0.009694955276932442,0.07261598055177701,0.023897352436543305,0.04214061532916467, ,1.1352698802947998
0.011250007648352829,0.02053213680028442,-0.08359679858397413, ,0.011630646373325788,0.02039038154464515,-0.08393973727468415, ,0.0005315894440602601, ,0.005179030516055435,-0.0004046926319745789,-0.009817226720698553,-0.014383084074320908,0.0239171476543255,-0.020390490931134975, ,0.01110693808833945, ,0.027908833157594477, ,5.158382265855519e-05, ,0.1339739699020468,-0.2129389135409924,0.09356491591,3.133816205376217,0.24895170257263252,0.13776028333154583, ,0.044035703739429596,0.03146450316925424,0.010062420416929882,0.04810773344116751,0.01497261034067882,0.06442494218252792, ,1.1453258991241455
0.011300711052514293,0.020528174049876474,-0.08369129254953657, ,0.011685950515196462,0.02038203730250433,-0.08402939043021442, ,0.0005329874008445297, ,0.004950394189332496,-0.0006717047635445596,-0.009111604916981432,-0.02339188921831842,-0.01028936069859643,0.0240550385087206, ,0.010391291261547123, ,0.025554869633511505, ,5.192141248467785e-05, ,0.13441416567587758,-0.2126222814931492,0.09366213766,3.1340258953197013,0.2492249755721634,0.1381091987051369, ,0.04389312745535188,0.032388034661594116,0.009287936746355686,-0.00948968556412412,0.01272210655652977,0.0396694651215968, ,1.1560630798339844
0.01135887400216259,0.020525454723651186,-0.08379867370213075, ,0.011741158022264194,0.020373708141686136,-0.08411885881060245, ,0.0005212356480999327, ,0.0050283915093537294,0.00010831872300399699,-0.009248712087785316,0.03161852589005785,-0.0401149908150934,-0.00040852554808800193, ,0.010527826432832189, ,0.051077819059585035, ,5.223534537867765e-05, ,0.13493158877845063,-0.21225931304806064,0.09377361860000001,3.133816205376217,0.24977152157122512,0.13839863575161632, ,0.04409709180226338,0.028695779122609847,0.009712689951219513,0.0060163817462128575,0.05999276294434506,0.0025231895226229123, ,1.168389081954956
0.011419106313564258,0.020521554925475943,-0.08390631383368406, ,0.011796268923419017,0.020365394119261287,-0.0842081426491273, ,0.000507679490921121, ,0.004971573299725,-0.0007892308716727307,-0.008054852737190728,-0.00793290534742881,0.0015197373474536407,-0.01566781542068208, ,0.009498425083200309, ,0.008077162555601739, ,5.2523575970145084e-05, ,0.13544901188102368,-0.2118963446029721,0.09388509954,3.13444527520667,0.2501814310705215,0.13888116944193266, ,0.044427407096662354,0.03201651199678501,0.008270410965732087,0.034454333793287724,0.022339270319346106,0.0430616917391779, ,1.1788620948791504
0.01146822510927369,0.020513121807857294,-0.08398347616325232, ,0.011851283247718917,0.02035709529217466,-0.08429724217889759, ,0.0005191598247159479, ,0.005226654767799713,-0.0009678369256946192,-0.008193465968828176,-0.031301655158704665,0.07229862266883265,-0.013867018719956336, ,0.009766653109374109, ,0.07878378271293017, ,5.282360298322608e-05, ,0.13588920765485446,-0.2115874352880031,0.09396417323,3.134864655093639,0.2503180675702869,0.13958653893964187, ,0.046313783093445964,0.032124895585128904,0.008352811494493972,0.06333795030856716,0.0,0.11764117361970072, ,1.1890580654144287
0.011518819323852993,0.02050636401516965,-0.08406346234358966, ,0.011906201024390035,0.020348811717245223,-0.08438615763285282, ,0.0005282230193818403, ,0.005026282880665526,-0.0007293920324194379,-0.007562521289653238,0.005664114588576994,0.009495650292488344,-0.022393741301015718, ,0.00910973438635215, ,0.011056651564264873, ,5.313159336439588e-05, ,0.13635257162730793,-0.21126308050728568,0.09404713579000001,3.134864655093639,0.2507279770695832,0.1399057151496771, ,0.045361826748791,0.031277831759548715,0.00784670518226601,0.046394847803456735,0.03417301761365604,0.05016362650764686, ,1.201225996017456
0.01154122757059746,0.020504129725733126,-0.08409669004601977, ,0.01196102228282599,0.020340543451166336,-0.08447488924376301, ,0.0005882369444495151, ,0.005101403384219288,-0.00030988912930775703,-0.007406170471134054,0.04881812228533525,-0.024058208826188296,-0.025454603537459798, ,0.008998428129872747, ,0.0544243185819326, ,5.352096819714608e-05, ,0.136561085414912,-0.21112407131554964,0.09408213562000001,3.134864655093639,0.2510012500691141,0.13984623682256545, ,0.04665533016640648,0.030367021298710647,0.007889455928677564,0.03971502425449389,0.07536724395874099,0.015393528945595883, ,1.2115390300750732
0.011619842947995498,0.020493356740182905,-0.08422517163336635, ,0.01201574705258845,0.020332290550505547,-0.08456343724422874, ,0.0005450743077625628, ,0.004815140748342743,-0.0006219389656845179,-0.008072463702871189,-0.008662170037783457,0.009454148703752666,-0.00394364340784191, ,0.009420034964773765, ,0.012822405515228232, ,5.384181131832042e-05, ,0.13727157683934066,-0.21064526187734772,0.09421435720000002,3.134864655093639,0.251274523068645,0.1407669033771404, ,0.04242152058939239,0.029776260294468393,0.008313575949895617,0.0263478511787045,0.02099291966775005,0.051641579220348156, ,1.2214069366455078
0.011670539824315755,0.020482246164003348,-0.08430669522832297, ,0.012070375363406159,0.020324053071705213,-0.08465180186668136, ,0.0005513547901393348, ,0.005108884189026081,-0.0012278306579374672,-0.008293330152732842,-0.03520261738811496,-0.009105579064656,-0.002556304921854549, ,0.009817718207591801, ,0.036361185374576624, ,5.4166106662396285e-05, ,0.1377194953460457,-0.21029773889800762,0.09429731976000001,3.135284034980608,0.2514111595684104,0.1412272366544279, ,0.045689427808604126,0.034991497624804864,0.008383585010526317,0.01469972434450654,0.0,0.03743571747663522, ,1.2314701080322266
0.011719047619293968,0.02047664550078985,-0.08438283052785867, ,0.012124907245175457,0.020315831071081814,-0.08473998334338322, ,0.0005640402914332414, ,0.005319755351189971,-0.00044095811457412664,-0.008593742066285267,-0.006729449000179989,0.0010358910103287003,-0.06541606358463914, ,0.010116651805669901, ,0.006808708185809525, ,5.450278786163412e-05, ,0.13814424565412803,-0.21001199778166132,0.09437639345000001,3.135913104811062,0.2516844325679413,0.141576152028019, ,0.04582179698622442,0.02821794277682747,0.00891371657526581,0.0805733698741197,0.012728691082839907,0.033497160817031975, ,1.241894006729126
0.011834094848151795,0.02046470401480995,-0.08456814418787693, ,0.012179342727959779,0.02030762460482669,-0.08482798190642747, ,0.0004597669839539863, ,0.0050523098633030224,-0.0008370086219933637,-0.007897221533395575,-0.012371188578587156,0.016778617593794398,0.029682558525852068, ,0.00941236029567754, ,0.02084630145827458, ,5.468819324820421e-05, ,0.13916364639352566,-0.20930922909010688,0.09456954066,3.136542174641515,0.2526408880662994,0.1422664440246742, ,0.045777588788456725,0.03191959016430231,0.008143564171779142,0.0,0.02412691687404892,0.06974854744911524, ,1.2554659843444824
0.011881993469972232,0.020455757153124823,-0.08464239959203457, ,0.012233681841989303,0.020299433729005764,-0.08491579778773806, ,0.0004720892895991693, ,0.005007774135775851,-0.0012171066719984308,-0.007121909644168475,-0.019091293482919026,-0.008150657508940277,0.015321503447251658, ,0.008790946901538458, ,0.020758388337166103, ,5.488758401012934e-05, ,0.13960384216735647,-0.2089925970422637,0.09464602177,3.136332484698031,0.25291416106583026,0.14286039561868694, ,0.04640437240023021,0.033556202814169295,0.0072900739221967974,0.0011000906335535418,0.016998777300446424,0.042379769959197296, ,1.265566110610962
0.01193114435193376,0.02044668136141934,-0.08471350199116758, ,0.012287924617661377,0.020291258499559782,-0.08500343121907054, ,0.0004852910273162863, ,0.005007774135775851,-0.0012171066719984308,-0.007121909644168475,-0.019091293482919026,-0.008150657508940277,0.015321503447251658, ,0.008790946901538458, ,0.020758388337166103, ,5.5177615794538744e-05, ,0.14005176067406147,-0.20866824226154626,0.09471991030000002,3.136542174641515,0.25332407056512657,0.1431795718287222, ,0.044385847314532635,0.0321793630242356,0.007599623816793894,0.0,0.056715264010432614,0.009805385499365549, ,1.2737529277801514
0.01193114435193376,0.02044668136141934,-0.08471350199116758, ,0.012342071085539766,0.02028309897230422,-0.0850908824320116, ,0.0005814086132423075, ,0.004855196390205646,-0.0007165895307779508,-0.007256469453751786,0.02362905966195961,-0.03532829141751611,0.007804885095878605, ,0.008760295741373075, ,0.04250200718636052, ,5.55949935735956e-05, ,0.14005176067406147,-0.20866824226154626,0.09471991030000002,3.136542174641515,0.25332407056512657,0.1431795718287222, ,0.044385847314532635,0.0321793630242356,0.007599623816793894,0.0,0.056715264010432614,0.009805385499365549, ,1.282006025314331
0.011978909386684021,0.020439022522248447,-0.08478846738471761, ,0.012396121276354838,0.020274955202929566,-0.08517815165797896, ,0.0005940014132798005, ,0.005146837024168335,-0.0007484123870499853,-0.008493307496706827,0.010263857493010505,-0.001268070161839283,0.01272965415477926, ,0.009959233137549105, ,0.010341891914734235, ,5.602379472069441e-05, ,0.14047651098214384,-0.20835161021370305,0.09479768770000001,3.1367518645849994,0.25373398006442294,0.143580426778898, ,0.04538352059228636,0.03444535083792043,0.008805313167495854,0.009932925880697538,0.04661005838710665,0.04674274588895537, ,1.290395975112915
0.012039559781589552,0.0204305302670095,-0.08489032779817328, ,0.012450075221003342,0.020266827247001122,-0.08526523912822183, ,0.0005795516458053874, ,0.005701963842946266,-0.0005789924277135572,-0.010019866048254868,-0.009758289452725616,0.01964775831277706,-0.0388491613894868, ,0.01154319451116487, ,0.021937605128254524, ,5.642734279643823e-05, ,0.14099393408471686,-0.20797319630286604,0.09490268719000002,3.1373809344154533,0.2540072530639538,0.14425605711305134, ,0.047686905305764214,0.03341441604171506,0.010336671979234265,0.06529195013901583,0.018538521219580835,0.060074786832455464, ,1.2988200187683105
0.01209658947092913,0.020428113339722782,-0.08499629448224091, ,0.012503932950548049,0.020258715159959598,-0.08535214507382116, ,0.0005667928168415165, ,0.0059452888860144016,-0.000285368578598298,-0.01131184581902822,0.002458195352498382,-0.01951211874520739,-0.03935054274336203, ,0.01278224358230134, ,0.019666349867396817, ,5.6808408529850976e-05, ,0.1414727435229188,-0.20764111878927438,0.09501287184000001,3.1375906243589378,0.2544171625632501,0.144493554582946, ,0.04866509823511321,0.034432852524844265,0.011712361411764708,0.04974837427534209,0.03139935354655259,0.020973618404875077, ,1.3069870471954346
0.012160147770784528,0.020423197934289535,-0.08512237116671986, ,0.012557694496217865,0.02025061899712046,-0.0854388697256892, ,0.0005366546620377448, ,0.006017508392354779,-0.0005417925740014099,-0.011823269048430105,0.0009636601220094344,-0.01696272181302889,0.0007419142049703738, ,0.013277561426589922, ,0.01699006595327376, ,5.7144329566271836e-05, ,0.14199788935836605,-0.20724725941268896,0.09514250084,3.1375906243589378,0.254690435562781,0.1449241486966777, ,0.04945124625246002,0.03927853541327433,0.012177990458715598,0.014366927704532942,0.040464902055965674,0.03281313397195883, ,1.3156170845031738
0.01221760723203625,0.020417330682423587,-0.08523769508017075, ,0.012611359889407469,0.020242538813674722,-0.0855254133145701, ,0.0005180493557311873, ,0.00590045566118608,-0.00033198271574225776,-0.011772961899280733,-0.01734582235630782,0.01226598151849425,0.014472024206405554, ,0.013173011099027066, ,0.021244567062237683, ,5.745123538912498e-05, ,0.14246897606369374,-0.2068842909676004,0.09526046323000001,3.1375906243589378,0.25482707206254646,0.14554783945424626, ,0.048097790957157015,0.03464656500856911,0.012122383196347033,0.012235736154431418,0.01978146118522227,0.06453024781045352, ,1.3241169452667236
0.01221760723203625,0.020417330682423587,-0.08523769508017075, ,0.012664929161677291,0.020234474664688504,-0.08561177607103962, ,0.0006111217715718816, ,0.00590045566118608,-0.00033198271574225776,-0.011772961899280733,-0.01734582235630782,0.01226598151849425,0.014472024206405554, ,0.013173011099027066, ,0.021244567062237683, ,5.787625585451377e-05, ,0.14246897606369374,-0.2068842909676004,0.09526046323000001,3.1375906243589378,0.25482707206254646,0.14554783945424626, ,0.048097790957157015,0.03464656500856911,0.012122383196347033,0.012235736154431418,0.01978146118522227,0.06453024781045352, ,1.3327069282531738
0.01221760723203625,0.020417330682423587,-0.08523769508017075, ,0.012718402344753068,0.020226426605103435,-0.08569795822550534, ,0.0007064575532980049, ,0.00590045566118608,-0.00033198271574225776,-0.011772961899280733,-0.01734582235630782,0.01226598151849425,0.014472024206405554, ,0.013173011099027066, ,0.021244567062237683, ,5.842003196145697e-05, ,0.14246897606369374,-0.2068842909676004,0.09526046323000001,3.1375906243589378,0.25482707206254646,0.14554783945424626, ,0.048097790957157015,0.03464656500856911,0.012122383196347033,0.012235736154431418,0.01978146118522227,0.06453024781045352, ,1.3407440185546875
0.012334283625127429,0.020408180786266012,-0.08544273989022953, ,0.012771779470526231,0.020218394689736432,-0.08578396000820707, ,0.0005863894150560275, ,0.006075673085509223,-0.0005590758257700747,-0.009078539112408196,0.06425549869154196,-0.03163372268231879,-0.07001009327578989, ,0.010938292446102685, ,0.07162025873431178, ,5.880123565996571e-05, ,0.14344204040584604,-0.2061660768102975,0.09547435108,3.1386390740763606,0.2559201640606699,0.14629007102748615, ,0.05245823192839733,0.0380196079961822,0.009653825163636366,0.08213682346879102,0.09161926983512277,0.004184040698190443, ,1.3490540981292725
0.012397383989412362,0.02039941682841863,-0.08554350107049084, ,0.012825060571053058,0.02021037897328017,-0.08586978164921616, ,0.0005701768017137729, ,0.00632722859551598,-0.0008650066026111647,-0.010516476125137751,-0.004703750716086726,0.04325730061977526,-0.005822862992714572, ,0.012303590053844786, ,0.04351228790900393, ,5.91566676077314e-05, ,0.14398263170704176,-0.2057799401665863,0.09557675799000001,3.1386390740763606,0.2564667100597317,0.1467428655542467, ,0.05379645213065237,0.03913275940555496,0.010895219917920657,0.04996824019256274,0.03478154588616122,0.08615122645132178, ,1.357485055923462
0.012456486903047551,0.020388928825877697,-0.08564370168109807, ,0.01287824567855506,0.020202379510302865,-0.08595542337843665, ,0.000556643088927433, ,0.006239191993566949,-0.0010409864492361837,-0.010185097658703903,-0.02253444232780049,0.0505267731711419,0.009489032970352928, ,0.011989469706263868, ,0.05532409771979202, ,5.949024785183469e-05, ,0.14450777754248903,-0.20540152625574928,0.09568175748,3.1386390740763606,0.2564667100597317,0.14796804665635513, ,0.05343296258922904,0.03841981439614202,0.010486380197498356,0.036185598292216084,0.01779490226888137,0.10782601789505347, ,1.367846965789795
0.012524408208678306,0.020379049025186828,-0.08574932422034753, ,0.012931334825418497,0.02019439635524838,-0.08604088542560412, ,0.0005335670682657318, ,0.006165824855143449,-0.0011285163432182541,-0.009699376667468736,-0.012716780765690978,-0.005793326182638789,0.022490549853068333, ,0.011548543328864137, ,0.013974228259738767, ,5.97902679649307e-05, ,0.14510242797380432,-0.20497677594766694,0.09579194213000002,3.138848764019845,0.2570132560587935,0.1485841986633967, ,0.05422682374769759,0.0393926698042635,0.010018120452830188,0.0,0.030205067467679685,0.05401509691761974, ,1.3766601085662842
0.012586490005332664,0.020369100260987396,-0.0858490437629725, ,0.012984328044194252,0.0201864295624364,-0.08612616802028708, ,0.0005181134463286005, ,0.005997345814006964,-0.0009315638836261491,-0.009874208443285069,0.01638453919766401,-0.029814865885445553,-0.008641588910210926, ,0.011590339100453689, ,0.03402027716848018, ,6.0066987796375075e-05, ,0.1456275738092516,-0.20456747110533305,0.09589564533000002,3.139477833850299,0.2575598020578552,0.14887363570987613, ,0.05135115885198635,0.03992298761399696,0.010263409484536084,0.02001414195148862,0.05491982470820694,0.019390765813234675, ,1.3846631050109863
0.012586490005332664,0.020369100260987396,-0.0858490437629725, ,0.01303722536759802,0.020178479186062474,-0.08621127139188582, ,0.0006088576320866626, ,0.005997345814006964,-0.0009315638836261491,-0.009874208443285069,0.01638453919766401,-0.029814865885445553,-0.008641588910210926, ,0.011590339100453689, ,0.03402027716848018, ,6.0454092806544196e-05, ,0.1456275738092516,-0.20456747110533305,0.09589564533000002,3.139477833850299,0.2575598020578552,0.14887363570987613, ,0.05135115885198635,0.03992298761399696,0.010263409484536084,0.02001414195148862,0.05491982470820694,0.019390765813234675, ,1.392652988433838
0.01264441860716412,0.0203578275116353,-0.0859381317904481, ,0.013090026828509392,0.020170545280198137,-0.08629619576963357, ,0.0006015406339830382, ,0.006403574156626058,-0.0013408798992801045,-0.009449092104140498,-0.010019215301027324,0.014286147494557828,-0.05318254798503866, ,0.011493000586280019, ,0.017449315463869807, ,6.082724763191866e-05, ,0.14612182871320195,-0.20419677992737026,0.09598768192000001,3.140106903680752,0.2578330750573861,0.14930422982360775, ,0.05498084678938052,0.04034733909798928,0.009754324262094306,0.0792819474770968,0.022776539712641746,0.05938313731524289, ,1.4009358882904053
0.012712550831367452,0.02034458510599075,-0.08603795277723972, ,0.013142732459972472,0.02016262789879092,-0.08638094138259578, ,0.0005794875686719468, ,0.006456077951917359,-0.0012333185457167606,-0.009801269725236811,-0.018931165642072114,-0.014880029562850013,0.01837518495638167, ,0.011801140003545674, ,0.024079124193130644, ,6.116845126328464e-05, ,0.14672420187739146,-0.2037643068864137,0.09609138512000001,3.1403165936242368,0.2582429845566825,0.14970508477378353, ,0.056960949314808385,0.04000714230964198,0.010132831755725191,0.0,0.02402386043033154,0.046975909344391484, ,1.4096028804779053
0.012780460647522491,0.020333755445859244,-0.08614660372098495, ,0.013195342295195317,0.020154727095664453,-0.08646550845967045, ,0.0005530625318219019, ,0.006603984671709769,-0.001108985771000698,-0.010084189349479813,0.0022082945082284974,-0.029735682347256154,0.0009039970230103941, ,0.012105095531247232, ,0.02981756638310793, ,6.147290973065592e-05, ,0.14731885230870675,-0.20333955657833133,0.09620416235000001,3.140106903680752,0.25865289405597874,0.1501059397239594, ,0.05768811036989105,0.04115218627860832,0.010500205352669746,0.012343067760550793,0.04351005537152339,0.028370739264685075, ,1.4195950031280518
0.012850634982657032,0.020319475729101876,-0.08624790850143373, ,0.013247856367549906,0.020146842924518415,-0.08654989722958863, ,0.0005280001001583038, ,0.006420620025683345,-0.0012669664463152972,-0.009052830484913076,-0.008418051506405299,-0.01746899964985482,0.008237326061114433, ,0.01117064480139201, ,0.01939147954975457, ,6.181863088413103e-05, ,0.14794439367151893,-0.20290708353737477,0.09630916184,3.140106903680752,0.2589261670555097,0.15061821257783156, ,0.057270332865703544,0.03932736906691702,0.00942533226035503,0.009639432108716225,0.032276231819294995,0.04223669421948406, ,1.428062915802002
0.012850634982657032,0.020319475729101876,-0.08624790850143373, ,0.013300274710571642,0.02013897543892906,-0.08663410792091372, ,0.0006196016714618206, ,0.006420620025683345,-0.0012669664463152972,-0.009052830484913076,-0.008418051506405299,-0.01746899964985482,0.008237326061114433, ,0.01117064480139201, ,0.01939147954975457, ,6.22726883816009e-05, ,0.14794439367151893,-0.20290708353737477,0.09630916184,3.140106903680752,0.2589261670555097,0.15061821257783156, ,0.057270332865703544,0.03932736906691702,0.00942533226035503,0.009639432108716225,0.032276231819294995,0.04223669421948406, ,1.4346179962158203
0.012915147579585081,0.020306912580496033,-0.08634153243186546, ,0.013352597357959637,0.02013112469234875,-0.08671814076204219, ,0.0006034049424538519, ,0.006415843161608079,-0.001370384363755953,-0.009796104686728577,-0.013552050251261119,-0.0022576735664597307,-0.01782679331902267, ,0.011790023910583284, ,0.013738816023690717, ,6.270268132932839e-05, ,0.1485004304384631,-0.20251322416078932,0.09640638359,3.1407359735112057,0.25919944005504053,0.1510488066915632, ,0.05504462967428699,0.041349429872972014,0.010107113908629443,0.038795294562944484,0.025350503584933626,0.050221212507434596, ,1.4410789012908936
0.012980549368697962,0.020294636811279902,-0.08644029223288376, ,0.013404824343576269,0.020123290738106373,-0.08680199598120328, ,0.0005832652335330547, ,0.006907194789693521,-0.0011054887011226924,-0.010214106533249048,-0.011685574559295378,0.022977773266496485,-0.0719410170533056, ,0.01237979876264716, ,0.025778491148508064, ,6.310419643586913e-05, ,0.14905646720540727,-0.20211164205132964,0.09650879050000001,3.1413650433416596,0.2594727130545714,0.15164275828557602, ,0.05807646362207514,0.0385759925034434,0.010626291874583057,0.10164454854742334,0.016351028423894548,0.06773484617268924, ,1.4478960037231445
0.012980549368697962,0.020294636811279902,-0.08644029223288376, ,0.013456955701447176,0.020115473629407334,-0.0868856738064598, ,0.000676333634904645, ,0.006907194789693521,-0.0011054887011226924,-0.010214106533249048,-0.011685574559295378,0.022977773266496485,-0.0719410170533056, ,0.01237979876264716, ,0.025778491148508064, ,6.361371187957246e-05, ,0.14905646720540727,-0.20211164205132964,0.09650879050000001,3.1413650433416596,0.2594727130545714,0.15164275828557602, ,0.05807646362207514,0.0385759925034434,0.010626291874583057,0.10164454854742334,0.016351028423894548,0.06773484617268924, ,1.4552559852600098
0.013038094141108257,0.020287996461083757,-0.08653348942888199, ,0.013508991465760966,0.020107673419333463,-0.08696917446570676, ,0.0006663948837319796, ,0.006972131178307293,-0.0007630006120593006,-0.011715944013990108,-0.008293490141585307,0.004461858517335154,-0.024143553281038614, ,0.013654893893417046, ,0.009417533616321427, ,6.410646311906252e-05, ,0.1495429993764834,-0.2017872872706122,0.09660601225000001,3.141574733285144,0.2597459860541023,0.1520733523993077, ,0.057513297914224715,0.0391812310315734,0.012187307972456008,0.0495299574490281,0.027384168505538667,0.05812974119585672, ,1.462630033493042
0.013128612183420424,0.020284702964363674,-0.08670368808982222, ,0.013560931670869109,0.020099890160843525,-0.08705249818667307, ,0.0005854266779349664, ,0.007485249776225928,0.00012293063403666545,-0.014952225932719049,0.006954638415813917,-0.015960278171199316,0.022642956321396707, ,0.016721636776833512, ,0.017409673386878977, ,6.449813076841813e-05, ,0.15026893626666052,-0.20129303236666185,0.09678360398000001,3.1417844232286285,0.26029253205316405,0.1526078256662087, ,0.05886907044570147,0.03879678722750236,0.015631807183513247,0.0,0.0490539914917119,0.04793447459811361, ,1.4698638916015625
0.013198003136205904,0.020283397205154756,-0.08684353255363561, ,0.013612776351285563,0.020092123906772893,-0.0871356451969202, ,0.0005421734879059508, ,0.007286393098828487,-0.0002504818193606933,-0.014338939186025036,-0.0089450341900065,0.008733382051146548,0.021753019449661196, ,0.01608600144576053, ,0.012501399623829679, ,6.483483807272177e-05, ,0.15081725030073045,-0.20092234118869906,0.09692878846000001,3.141574733285144,0.26056580505269494,0.15336513474050265, ,0.05723579104853485,0.03988942478287969,0.014900665594013098,0.009226354804337476,0.03431556068775848,0.07161923137051765, ,1.4765489101409912
0.013198003136205904,0.020283397205154756,-0.08684353255363561, ,0.013664525541687077,0.020084374709833767,-0.08721861572384361, ,0.0006308252476185588, ,0.007286393098828487,-0.0002504818193606933,-0.014338939186025036,-0.0089450341900065,0.008733382051146548,0.021753019449661196, ,0.01608600144576053, ,0.012501399623829679, ,6.527291106249497e-05, ,0.15081725030073045,-0.20092234118869906,0.09692878846000001,3.141574733285144,0.26056580505269494,0.15336513474050265, ,0.05723579104853485,0.03988942478287969,0.014900665594013098,0.009226354804337476,0.03431556068775848,0.07161923137051765, ,1.4832429885864258
0.013275817790671733,0.020278598113672823,-0.08698391039965836, ,0.013716179276912644,0.0200766426226153,-0.08730140999467188, ,0.0005792324678109308, ,0.007093450523854337,-0.0006219362717397514,-0.012582099649447117,0.0013829352052031974,0.00690743476484487,-0.019241760207853384, ,0.014457284553092678, ,0.007044490718437479, ,6.564631578498434e-05, ,0.1514350689306684,-0.20049759088061672,0.09707526923000001,3.142203803115597,0.26097571455199126,0.15401102591110014, ,0.05685856294695672,0.04033019190755239,0.013110132938271608,0.04721647128709077,0.03875862023175035,0.06073901737102917, ,1.489919900894165
0.013275817790671733,0.020278598113672823,-0.08698391039965836, ,0.013767737591963257,0.02006892769758363,-0.087384028236467, ,0.0006678630530416649, ,0.007093450523854337,-0.0006219362717397514,-0.012582099649447117,0.0013829352052031974,0.00690743476484487,-0.019241760207853384, ,0.014457284553092678, ,0.007044490718437479, ,6.611977114701908e-05, ,0.1514350689306684,-0.20049759088061672,0.09707526923000001,3.142203803115597,0.26097571455199126,0.15401102591110014, ,0.05685856294695672,0.04033019190755239,0.013110132938271608,0.04721647128709077,0.03875862023175035,0.06073901737102917, ,1.4970269203186035
0.013308023762017444,0.020275441962629915,-0.08703965957342075, ,0.013819200522002013,0.020061229987082055,-0.08746647067612445, ,0.0006995399686991385, ,0.007094165117159741,-0.0007785205337562549,-0.011690916185559059,0.01919101834404541,0.004642293934967151,-0.06297279359985125, ,0.01369710897192444, ,0.019744514672817317, ,6.662565589598544e-05, ,0.15168991911551782,-0.2003045225587611,0.09713360228000001,3.142623183002567,0.26124898755152215,0.15427826254455063, ,0.05720129087309873,0.04118790866253071,0.012243513850883937,0.08890396967416976,0.050593446990884666,0.049371509062309756, ,1.5043199062347412
0.013395019272813518,0.020265106170702818,-0.08717519823206027, ,0.013870568102353877,0.020053549543330884,-0.0875487375403734, ,0.0006406516297624204, ,0.0065688668555452,-0.0009761708804265608,-0.00934090550526966,0.003998050360065122,-0.03025360914957352,0.04151183275358347, ,0.011461039962064965, ,0.030516638119957577, ,6.705869872721052e-05, ,0.15241585600569493,-0.19980254492193653,0.09727619418000001,3.14325225283302,0.26193217005034936,0.15478299664789583, ,0.05818328728293733,0.03767246588267994,0.00985693782178218,-0.024564979621564346,0.047868097837882644,0.03672950615052184, ,1.5112090110778809
0.013473563931863101,0.020246403179113158,-0.08726877523355996, ,0.013921840368505422,0.020045886418427805,-0.0876308290557769, ,0.000610116140703051, ,0.006511731730174295,-0.0019471505923249533,-0.007313449617119258,-0.013615062614807107,-0.0390802949262372,0.026538664618899574, ,0.009984016769672012, ,0.041384047175263144, ,6.745257124540663e-05, ,0.1531340701629978,-0.19933145821660883,0.09737471222,3.14325225283302,0.2623420795496456,0.15518385159807166, ,0.06067579383533937,0.04223272877546541,0.007650725994236313,-0.01626433438151061,0.03278072704880138,0.02777756769107442, ,1.5186169147491455
0.013473563931863101,0.020246403179113158,-0.08726877523355996, ,0.01397301735610462,0.020038240664347833,-0.08771274544873159, ,0.000699924929902878, ,0.006511731730174295,-0.0019471505923249533,-0.007313449617119258,-0.013615062614807107,-0.0390802949262372,0.026538664618899574, ,0.009984016769672012, ,0.041384047175263144, ,6.794582198499522e-05, ,0.1531340701629978,-0.19933145821660883,0.09737471222,3.14325225283302,0.2623420795496456,0.15518385159807166, ,0.06067579383533937,0.04223272877546541,0.007650725994236313,-0.01626433438151061,0.03278072704880138,0.02777756769107442, ,1.524986982345581
0.01354611702910501,0.020225460457129106,-0.08736733039203319, ,0.014024099100960872,0.020030612332943364,-0.08779448694546793, ,0.0006699965474960082, ,0.007289496657276044,-0.0014866592626047092,-0.011527198714059203,-0.029221170775114984,0.00799172059415159,0.01561352639322397, ,0.013719447054197744, ,0.03029429345599412, ,6.840040333152036e-05, ,0.15377505699155844,-0.19886809424415536,0.09747582284,3.14325225283302,0.2623420795496456,0.1560006389994773, ,0.06114493657117962,0.0451245561381221,0.01190494134529148,0.01340944102185432,0.0185207611865688,0.0742787114605711, ,1.531912088394165
0.013613290281080926,0.02021586379736052,-0.08747853703375608, ,0.014075085639044745,0.02002300147594419,-0.08787605377205035, ,0.0006391168788908219, ,0.007489462934559288,-0.0010776465024307244,-0.012244273303097155,-0.03455318786696556,0.028374438268371473,-0.03961793066457001, ,0.01439359599798731, ,0.04471052743599534, ,6.881576158784393e-05, ,0.15431564829275415,-0.19848968033331835,0.09759119265,3.1438813226634736,0.2624787160494111,0.15662432975704593, ,0.06040543702003232,0.040416073917577,0.012682174777070065,0.07227024166257766,0.0,0.08321470362401545, ,1.5404720306396484
0.013703252673309723,0.02020989118861053,-0.0876281803950584, ,0.014125977006487692,0.020015408144957836,-0.08795744615437712, ,0.000570031101247032, ,0.0072550186661591905,-0.00027673018028763225,-0.013194813987269434,0.046261716992434344,-0.014004510445880582,-0.028623402184846457, ,0.015060378202344104, ,0.048335001520192905, ,6.914920961374399e-05, ,0.15504158518293126,-0.197995425429368,0.09774934003,3.1445103924939275,0.2632985350480037,0.1570176459566947, ,0.05641910913107657,0.04160321857013186,0.013923786293706296,0.052471638620614276,0.0827884833612338,0.03610364315765878, ,1.5483388900756836
0.013703252673309723,0.02020989118861053,-0.0876281803950584, ,0.014176773239581915,0.020007832391469457,-0.08803866431818097, ,0.0006584425072296966, ,0.0072550186661591905,-0.00027673018028763225,-0.013194813987269434,0.046261716992434344,-0.014004510445880582,-0.028623402184846457, ,0.015060378202344104, ,0.048335001520192905, ,6.965765930753031e-05, ,0.15504158518293126,-0.197995425429368,0.09774934003,3.1445103924939275,0.2632985350480037,0.1570176459566947, ,0.05641910913107657,0.04160321857013186,0.013923786293706296,0.052471638620614276,0.0827884833612338,0.03610364315765878, ,1.5535950660705566
0.013776985014229415,0.02020524065266577,-0.08777222601716617, ,0.014227474374780408,0.020000274266841863,-0.08811970848902832, ,0.0006047279979782587, ,0.007394053457223195,-0.0005935969775727832,-0.014620739767889959,0.007841183136521455,-0.01901573665153654,0.028418919496112832, ,0.016394828918302767, ,0.020568950514621785, ,7.010232786939061e-05, ,0.15560534468274964,-0.19754750692266296,0.09789970967000002,3.144720082437412,0.2639817175468309,0.15752238006003993, ,0.05689265081443092,0.04553596044072494,0.015199247633587787,-0.007391744799843056,0.05755389349749145,0.044120607828827554, ,1.5584158897399902
0.013776985014229415,0.02020524065266577,-0.08777222601716617, ,0.014278080448696455,0.01999273382231578,-0.08820057889232014, ,0.0006926340830783486, ,0.007394053457223195,-0.0005935969775727832,-0.014620739767889959,0.007841183136521455,-0.01901573665153654,0.028418919496112832, ,0.016394828918302767, ,0.020568950514621785, ,7.064244780160806e-05, ,0.15560534468274964,-0.19754750692266296,0.09789970967000002,3.144720082437412,0.2639817175468309,0.15752238006003993, ,0.05689265081443092,0.04553596044072494,0.015199247633587787,-0.007391744799843056,0.05755389349749145,0.044120607828827554, ,1.5632259845733643
0.013853988794404387,0.020196250664419255,-0.08792030761935579, ,0.014328591498103794,0.019985211109009752,-0.0882812757532915, ,0.0006325214731716691, ,0.007394053457223195,-0.0005935969775727832,-0.014620739767889959,0.007841183136521455,-0.01901573665153654,0.028418919496112832, ,0.016394828918302767, ,0.020568950514621785, ,7.111186089286569e-05, ,0.15620771784693915,-0.19708414295020948,0.09805267189000001,3.1445103924939275,0.2642549905463618,0.1580346529139121, ,0.062432198393730785,0.04606647648469455,0.014984770950141113,0.0,0.012283176680837801,0.050270460487292404, ,1.568114995956421
0.013853988794404387,0.020196250664419255,-0.08792030761935579, ,0.01437900755993615,0.019977706177920412,-0.0883617992970119, ,0.000719945343883235, ,0.0079125242301383,-0.0010658285077677302,-0.01452066150005261,-0.036712504440355724,-0.01745250097942928,0.01686444781677175, ,0.01657086722231538, ,0.040649687909834746, ,7.167538676739812e-05, ,0.15620771784693915,-0.19708414295020948,0.09805267189000001,3.1445103924939275,0.2642549905463618,0.1580346529139121, ,0.062432198393730785,0.04606647648469455,0.014984770950141113,0.0,0.012283176680837801,0.050270460487292404, ,1.5728890895843506
0.013934599956420154,0.02018800469143621,-0.08806282233620938, ,0.014429328671287165,0.01997021907992246,-0.08844214974838514, ,0.0006603607798198989, ,0.008563748161214201,-0.0006085385216474982,-0.015209899856359411,-0.03442865738470907,0.019981916701537348,0.010772439223483607, ,0.017465656453208696, ,0.03980714295659825, ,7.21691058577725e-05, ,0.15684098194262558,-0.19666711537500137,0.09820044895,3.1449297723808964,0.2642549905463618,0.15909647653573944, ,0.06754230715905395,0.04245948168164241,0.015849563701492538,0.025475054558739708,0.009839164880716962,0.09220076695742654, ,1.5782890319824219
0.013934599956420154,0.02018800469143621,-0.08806282233620938, ,0.014479554869410367,0.019962749865768695,-0.08852232733214953, ,0.0007475696856966779, ,0.008563748161214201,-0.0006085385216474982,-0.015209899856359411,-0.03442865738470907,0.019981916701537348,0.010772439223483607, ,0.017465656453208696, ,0.03980714295659825, ,7.275591510431767e-05, ,0.15684098194262558,-0.19666711537500137,0.09820044895,3.1449297723808964,0.2642549905463618,0.15909647653573944, ,0.06754230715905395,0.04245948168164241,0.015849563701492538,0.025475054558739708,0.009839164880716962,0.09220076695742654, ,1.5841069221496582
0.014012720772960802,0.020182720488905376,-0.08820273805803108, ,0.014529686191718835,0.01995529858609019,-0.08860233227287832, ,0.0008362719238811014, ,0.009049766695976149,-0.0009407950718131166,-0.016197237189512333,-0.015793045625496403,0.03193300399020705,-0.06086486721301273, ,0.018577778801354812, ,0.03562493395288891, ,7.343653644635307e-05, ,0.1574433551068151,-0.19625008779979325,0.09834692972,3.1455588422113503,0.2646649000456581,0.1597423677063369, ,0.06896580055121422,0.04947702896687736,0.01683806714587738,0.10000484652409512,0.02398776496912324,0.09098708633855365, ,1.5910449028015137
0.014012720772960802,0.020182720488905376,-0.08820273805803108, ,0.0145797226757851,0.019947865291396243,-0.0886821647949787, ,0.0007787798904078542, ,0.009049766695976149,-0.0009407950718131166,-0.016197237189512333,-0.015793045625496403,0.03193300399020705,-0.06086486721301273, ,0.018577778801354812, ,0.03562493395288891, ,7.404956639264154e-05, ,0.1574433551068151,-0.19625008779979325,0.09834692972,3.1455588422113503,0.2646649000456581,0.1597423677063369, ,0.06896580055121422,0.04947702896687736,0.01683806714587738,0.10000484652409512,0.02398776496912324,0.09098708633855365, ,1.5961461067199707
0.01411526246491064,0.02018029423645494,-0.08838794468936192, ,0.014629664359340835,0.01994045003207484,-0.08876182512269334, ,0.000679647798345722, ,0.008749486050520831,-0.00019309101995217647,-0.01584538260207216,0.037990228563464956,0.002355546528715432,-0.009745176975409418, ,0.018101572862497223, ,0.03806317205478921, ,7.455011245300018e-05, ,0.1582387965928602,-0.19570949649859753,0.09854266951000001,3.145978222098319,0.2656213555440162,0.1603509809628515, ,0.06735056178741716,0.045977200367476156,0.016749538927444796,0.04674051345636518,0.08166975788948906,0.06808629170741468, ,1.6013751029968262
0.01411526246491064,0.02018029423645494,-0.08838794468936192, ,0.014679511280276928,0.01993305285839215,-0.08884131348009905, ,0.0007648844913338812, ,0.008749486050520831,-0.00019309101995217647,-0.01584538260207216,0.037990228563464956,0.002355546528715432,-0.009745176975409418, ,0.018101572862497223, ,0.03806317205478921, ,7.514033508547006e-05, ,0.1582387965928602,-0.19570949649859753,0.09854266951000001,3.145978222098319,0.2656213555440162,0.1603509809628515, ,0.06735056178741716,0.045977200367476156,0.016749538927444796,0.04674051345636518,0.08166975788948906,0.06808629170741468, ,1.606278896331787
0.014208290062613631,0.02017260567621954,-0.088557567319402, ,0.014729263476643098,0.019925673820493112,-0.08892063009110797, ,0.0006813246037659571, ,0.008520252277255612,-0.001089362863998673,-0.015013534373775703,0.0019616930664555113,0.009696125544505297,0.00896591612680936, ,0.017297040923524562, ,0.009892538979185855, ,7.563588247515434e-05, ,0.1589647334830373,-0.19517662793027604,0.09872026124000001,3.145978222098319,0.26630453804284343,0.16126410876689953, ,0.06654764485166254,0.05091037637257016,0.015662548200589974,0.027326344073065875,0.053930826603746956,0.07949211051493946, ,1.6116070747375488
0.014208290062613631,0.02017260567621954,-0.088557567319402, ,0.014778920986647959,0.019918312968401113,-0.08899977517946696, ,0.0007653967756772507, ,0.008520252277255612,-0.001089362863998673,-0.015013534373775703,0.0019616930664555113,0.009696125544505297,0.00896591612680936, ,0.017297040923524562, ,0.009892538979185855, ,7.621929431508044e-05, ,0.1589647334830373,-0.19517662793027604,0.09872026124000001,3.145978222098319,0.26630453804284343,0.16126410876689953, ,0.06654764485166254,0.05091037637257016,0.015662548200589974,0.027326344073065875,0.053930826603746956,0.07949211051493946, ,1.6165270805358887
0.014294402585679095,0.020159098162407473,-0.08870564365921588, ,0.014828483848658367,0.019910970352018588,-0.08907874896875724, ,0.0006971497527517844, ,0.008362812263912145,-0.0014550238972022393,-0.014390588385123112,-0.007291699753882588,-0.003099827799338503,0.03078452235104948, ,0.016707565878155594, ,0.00792320645530891, ,7.672522506001191e-05, ,0.15964433397596905,-0.19464375936195455,0.09887451975000001,3.1461879120418033,0.2668510840419052,0.16204361825422228, ,0.06640793670991657,0.05295588256611093,0.01495663053521127,0.0,0.05033674495897434,0.07095892404793563, ,1.6213839054107666
0.014294402585679095,0.020159098162407473,-0.08870564365921588, ,0.01487795210119989,0.019903646021126573,-0.08915755168239653, ,0.0007810292535907968, ,0.008362812263912145,-0.0014550238972022393,-0.014390588385123112,-0.007291699753882588,-0.003099827799338503,0.03078452235104948, ,0.016707565878155594, ,0.00792320645530891, ,7.73181783198728e-05, ,0.15964433397596905,-0.19464375936195455,0.09887451975000001,3.1461879120418033,0.2668510840419052,0.16204361825422228, ,0.06640793670991657,0.05295588256611093,0.01495663053521127,0.0,0.05033674495897434,0.07095892404793563, ,1.6262850761413574
0.014380099626640306,0.02014497048114621,-0.08884909223700556, ,0.014927325782956153,0.019896340025385026,-0.08923618354363634, ,0.0007149218484263556, ,0.009127330719995745,-0.0012419953389851334,-0.014886489704755106,-0.006843835346215235,0.026623228061259843,-0.05837624225494677, ,0.01750595025195772, ,0.027488790871438407, ,7.783638359183282e-05, ,0.16030848900315237,-0.19414178172512994,0.09902359310000002,3.1470266718157416,0.26712435704143606,0.1629642848087973, ,0.07108385135465976,0.050210021988608876,0.015570685747800588,0.09762535105611167,0.033673355078050186,0.08827927653495132, ,1.6325039863586426
0.014380099626640306,0.02014497048114621,-0.08884909223700556, ,0.014976604932768804,0.01988905241433304,-0.089314644775564, ,0.000798781449032871, ,0.009127330719995745,-0.0012419953389851334,-0.014886489704755106,-0.006843835346215235,0.026623228061259843,-0.05837624225494677, ,0.01750595025195772, ,0.027488790871438407, ,7.844095289478187e-05, ,0.16030848900315237,-0.19414178172512994,0.09902359310000002,3.1470266718157416,0.26712435704143606,0.1629642848087973, ,0.07108385135465976,0.050210021988608876,0.015570685747800588,0.09762535105611167,0.033673355078050186,0.08827927653495132, ,1.6380960941314697
0.01447125889644632,0.02013366530164217,-0.08899436339558556, ,0.015025789589637597,0.01988178323738864,-0.08939293560110197, ,0.0007278795690181393, ,0.009551631514644351,-0.0013903801504055752,-0.015136365450338486,-0.0029944512445215683,-0.005295259544238777,-0.021860760883706948, ,0.017952057837484527, ,0.00608323247713197, ,7.896606665846395e-05, ,0.16102670316045525,-0.19363980408830536,0.09917655532000001,3.14786543158968,0.26767090304049784,0.1635804368158389, ,0.07622244301885203,0.053523373693440936,0.015881168015952143,0.05240767595378531,0.046650559547160075,0.06826641098942829, ,1.6435399055480957
0.01447125889644632,0.02013366530164217,-0.08899436339558556, ,0.015074879792719615,0.019874532543849004,-0.08947105624300801, ,0.0008116304844958652, ,0.009551631514644351,-0.0013903801504055752,-0.015136365450338486,-0.0029944512445215683,-0.005295259544238777,-0.021860760883706948, ,0.017952057837484527, ,0.00608323247713197, ,7.96614904363139e-05, ,0.16102670316045525,-0.19363980408830536,0.09917655532000001,3.14786543158968,0.26767090304049784,0.1635804368158389, ,0.07622244301885203,0.053523373693440936,0.015881168015952143,0.05240767595378531,0.046650559547160075,0.06826641098942829, ,1.6467878818511963
0.014571477185489555,0.020118174506506846,-0.08915112999861804, ,0.015123875581329788,0.01986730038289074,-0.0895490069238754, ,0.0007255259204737299, ,0.009220667543935334,-0.001658761315178313,-0.014092565451643358,-0.0005158297955027901,-0.034872606013908306,0.037710666780530526, ,0.016922547091539338, ,0.034876412870858076, ,8.02625551280348e-05, ,0.16183759011224882,-0.19306832185561273,0.09934118415000001,3.1480751215331644,0.26821744903955963,0.1641965888228805, ,0.07597833591550904,0.05526903992922002,0.014803728178438665,-0.015558197319656174,0.060527297486970784,0.0496682991423518, ,1.6501190662384033
0.014571477185489555,0.020118174506506846,-0.08915112999861804, ,0.015172776994940218,0.0198600868035696,-0.0896267878661327, ,0.0008089629967936872, ,0.009220667543935334,-0.001658761315178313,-0.014092565451643358,-0.0005158297955027901,-0.034872606013908306,0.037710666780530526, ,0.016922547091539338, ,0.034876412870858076, ,8.094945966885855e-05, ,0.16183759011224882,-0.19306832185561273,0.09934118415000001,3.1480751215331644,0.26821744903955963,0.1641965888228805, ,0.07597833591550904,0.05526903992922002,0.014803728178438665,-0.015558197319656174,0.060527297486970784,0.0496682991423518, ,1.653451919555664
0.014571477185489555,0.020118174506506846,-0.08915112999861804, ,0.01522158407318019,0.019852891854820885,-0.08970439929204405, ,0.0008939355467573953, ,0.009220667543935334,-0.001658761315178313,-0.014092565451643358,-0.0005158297955027901,-0.034872606013908306,0.037710666780530526, ,0.016922547091539338, ,0.034876412870858076, ,8.172328274224088e-05, ,0.16183759011224882,-0.19306832185561273,0.09934118415000001,3.1480751215331644,0.26821744903955963,0.1641965888228805, ,0.07597833591550904,0.05526903992922002,0.014803728178438665,-0.015558197319656174,0.060527297486970784,0.0496682991423518, ,1.6567270755767822
0.014668273405822621,0.02009825290830338,-0.08930025544528747, ,0.015270296855836097,0.019845715585459212,-0.08978184142370935, ,0.00081125359069035, ,0.010019874914805773,-0.0019948604338870307,-0.015873826916424773,-0.024780421652671976,-0.0014822167841552752,0.035963387443420224, ,0.018877387065789945, ,0.02482469045126031, ,8.240662348612893e-05, ,0.16263303159829395,-0.1924813941571717,0.09949673895000001,3.14786543158968,0.2686273585388559,0.16500583747375913, ,0.080832147835154,0.06075348371220921,0.016540821931464174,0.0,0.041586508257993024,0.0888914809543864, ,1.6600120067596436
0.014668273405822621,0.02009825290830338,-0.08930025544528747, ,0.015318915382851178,0.019838558044178924,-0.08985911448306393, ,0.0008961583726265564, ,0.010019874914805773,-0.0019948604338870307,-0.015873826916424773,-0.024780421652671976,-0.0014822167841552752,0.035963387443420224, ,0.018877387065789945, ,0.02482469045126031, ,8.317646046050189e-05, ,0.16263303159829395,-0.1924813941571717,0.09949673895000001,3.14786543158968,0.2686273585388559,0.16500583747375913, ,0.080832147835154,0.06075348371220921,0.016540821931464174,0.0,0.041586508257993024,0.0888914809543864, ,1.6632769107818604
0.014668273405822621,0.02009825290830338,-0.08930025544528747, ,0.015367439694325092,0.01983141927955407,-0.08993621869187919, ,0.000982080921016863, ,0.010019874914805773,-0.0019948604338870307,-0.015873826916424773,-0.024780421652671976,-0.0014822167841552752,0.035963387443420224, ,0.018877387065789945, ,0.02482469045126031, ,8.403331760345971e-05, ,0.16263303159829395,-0.1924813941571717,0.09949673895000001,3.14786543158968,0.2686273585388559,0.16500583747375913, ,0.080832147835154,0.06075348371220921,0.016540821931464174,0.0,0.041586508257993024,0.0888914809543864, ,1.6665730476379395
0.014778699858274269,0.020082295363546106,-0.08948785018411057, ,0.015415869830514285,0.019824299340038324,-0.09001315427176192, ,0.0008651542672687841, ,0.010019874914805773,-0.0019948604338870307,-0.015873826916424773,-0.024780421652671976,-0.0014822167841552752,0.035963387443420224, ,0.018877387065789945, ,0.02482469045126031, ,8.476401742742393e-05, ,0.16348253221445866,-0.1918558527943595,0.09969247874,3.148494501420133,0.26903726803815226,0.16606012234505946, ,0.08375722997217191,0.05886907044570147,0.020821975843137257,0.04543644804661278,0.03816404988758705,0.114829998907542, ,1.6703529357910156
0.014778699858274269,0.020082295363546106,-0.08948785018411057, ,0.015464205831831336,0.01981719827396519,-0.09008992144415492, ,0.0009500972102148789, ,0.011100048481109105,-0.0010586899367924507,-0.019925494157767766,-0.02072041443202252,0.027493783015954527,0.0030856697900689175, ,0.022833248084678525, ,0.03442732254947213, ,8.558051238072942e-05, ,0.16348253221445866,-0.1918558527943595,0.09969247874,3.148494501420133,0.26903726803815226,0.16606012234505946, ,0.08375722997217191,0.05886907044570147,0.020821975843137257,0.04543644804661278,0.03816404988758705,0.114829998907542, ,1.6759939193725586
0.014778699858274269,0.020082295363546106,-0.08948785018411057, ,0.015512447738844973,0.019810116129548312,-0.09016652043033707, ,0.0010358864758142035, ,0.011100048481109105,-0.0010586899367924507,-0.019925494157767766,-0.02072041443202252,0.027493783015954527,0.0030856697900689175, ,0.022833248084678525, ,0.03442732254947213, ,8.648314855093061e-05, ,0.16348253221445866,-0.1918558527943595,0.09969247874,3.148494501420133,0.26903726803815226,0.16606012234505946, ,0.08375722997217191,0.05886907044570147,0.020821975843137257,0.04543644804661278,0.03816404988758705,0.114829998907542, ,1.6826748847961426
0.014778699858274269,0.020082295363546106,-0.08948785018411057, ,0.015560595592279942,0.019803052954880957,-0.09024295145142318, ,0.0011222812417351078, ,0.011100048481109105,-0.0010586899367924507,-0.019925494157767766,-0.02072041443202252,0.027493783015954527,0.0030856697900689175, ,0.022833248084678525, ,0.03442732254947213, ,8.747201828492358e-05, ,0.16348253221445866,-0.1918558527943595,0.09969247874,3.148494501420133,0.26903726803815226,0.16606012234505946, ,0.08375722997217191,0.05886907044570147,0.020821975843137257,0.04543644804661278,0.03816404988758705,0.114829998907542, ,1.6862831115722656
0.01479930596245611,0.02008076338270134,-0.08952348971728416, ,0.015608649433016743,0.019796008797936863,-0.09031921472836413, ,0.0011701710644780679, ,0.011100048481109105,-0.0010586899367924507,-0.019925494157767766,-0.02072041443202252,0.027493783015954527,0.0030856697900689175, ,0.022833248084678525, ,0.03442732254947213, ,8.85065578149737e-05, ,0.16522014711115915,-0.19065882919885468,0.10015266169,3.1495429511375557,0.27067690603533756,0.16774522088590313, ,0.08835841858330612,0.058542221812751864,0.02308523408695653,0.0424623522102311,0.08254192383209674,0.07637981587467457, ,1.6896169185638428
0.015013956273579926,0.02007426738269216,-0.08992440054378423, ,0.015656609302091447,0.01978898370656974,-0.09039531048194675, ,0.0008462540166978146, ,0.011919577573657062,-0.0002905974672517582,-0.02184320536802238,0.02553323857737107,-0.012563049778595153,-0.0036680489301748635, ,0.024885465580776325, ,0.028456484663564006, ,8.920079111483663e-05, ,0.16522014711115915,-0.19065882919885468,0.10015266169,3.1495429511375557,0.27067690603533756,0.16774522088590313, ,0.08835841858330612,0.058542221812751864,0.02308523408695653,0.0424623522102311,0.08254192383209674,0.07637981587467457, ,1.6938440799713135
0.015013956273579926,0.02007426738269216,-0.08992440054378423, ,0.015704475240695556,0.019781977728513596,-0.09047123893279438, ,0.0009280527515079508, ,0.011919577573657062,-0.0002905974672517582,-0.02184320536802238,0.02553323857737107,-0.012563049778595153,-0.0036680489301748635, ,0.024885465580776325, ,0.028456484663564006, ,8.997682752195701e-05, ,0.16522014711115915,-0.19065882919885468,0.10015266169,3.1495429511375557,0.27067690603533756,0.16774522088590313, ,0.08835841858330612,0.058542221812751864,0.02308523408695653,0.0424623522102311,0.08254192383209674,0.07637981587467457, ,1.6970949172973633
0.015128097520185787,0.020064913116668255,-0.09012809501558999, ,0.015752247290176,0.019774990911382764,-0.0905470003013662, ,0.0008056670894033594, ,0.011912486174171462,-0.0013958539438855676,-0.020783565797218677,-0.0191662772143656,0.015434114323898535,0.020935020715510372, ,0.023996090146726094, ,0.024608010673113363, ,9.062322569794817e-05, ,0.1660850931930723,-0.19006417876753942,0.10036654954000002,3.1495429511375557,0.2712234520343993,0.16868808785350703, ,0.0902062182114741,0.06455574255678284,0.021760671475409835,0.02677678115789554,0.04825225966320119,0.11274576848470427, ,1.7003870010375977
0.015128097520185787,0.020064913116668255,-0.09012809501558999, ,0.015799925492034482,0.01976802330267196,-0.09062259480795824, ,0.0008854526695794238, ,0.011912486174171462,-0.0013958539438855676,-0.020783565797218677,-0.0191662772143656,0.015434114323898535,0.020935020715510372, ,0.023996090146726094, ,0.024608010673113363, ,9.134921148988995e-05, ,0.1660850931930723,-0.19006417876753942,0.10036654954000002,3.1495429511375557,0.2712234520343993,0.16868808785350703, ,0.0902062182114741,0.06455574255678284,0.021760671475409835,0.02677678115789554,0.04825225966320119,0.11274576848470427, ,1.7037429809570312
0.015128097520185787,0.020064913116668255,-0.09012809501558999, ,0.015847509887928036,0.019761074949756575,-0.09069802267270273, ,0.0009667933185923309, ,0.011912486174171462,-0.0013958539438855676,-0.020783565797218677,-0.0191662772143656,0.015434114323898535,0.020935020715510372, ,0.023996090146726094, ,0.024608010673113363, ,9.215589348126089e-05, ,0.1660850931930723,-0.19006417876753942,0.10036654954000002,3.1495429511375557,0.2712234520343993,0.16868808785350703, ,0.0902062182114741,0.06455574255678284,0.021760671475409835,0.02677678115789554,0.04825225966320119,0.11274576848470427, ,1.7071969509124756
0.015248482120633872,0.02004870851369671,-0.09033484017904474, ,0.015895000519668,0.019754145899892432,-0.09077328411556787, ,0.0008348570292060552, ,0.012146490974414578,-0.0016911238367906013,-0.02068588269033962,-0.016177368957680363,0.009431071894028442,0.03259828506256929, ,0.024047928923327026, ,0.01872561336270084, ,9.282380440758894e-05, ,0.1669963756722308,-0.1893923010074819,0.10058302997000002,3.149962331024525,0.271769998033461,0.16979431230139203, ,0.09276338373262051,0.06802648140392172,0.02167185240816327,0.014957603220971142,0.0565958888973283,0.11149453732765913, ,1.7105040550231934
