NicholasDascanio/dvrk_moveit_final/test/execution/third_experiment_notsharpbends/thirdexp_700vel3.0/thirdexp_700vel3.0_18.csv
Current Position (x),Current Position (y),Current Position (z), ,Planned Position (x),Planned Position (y),Planned Position (z), ,Position Error,,Cartesian linear Velocity(x),Cartesian linear Velocity(y),Cartesian linear Velocity(z),Cartesian Angular Velocity(x),Cartesian Angular Velocity(y),Cartesian Angular Velocity(z), ,Total Linear Velocity, ,Total Angular Velocity, ,MSE, ,Joint 1 Position,Joint 2 Position,Joint 3 Position,Joint 4 Position,Joint 5 Position,Joint 6 Position, ,Joint 1 Velocity,Joint 2 Velocity,Joint 3 Velocity,Joint 4 Velocity,Joint 5 Velocity,Joint 6 Velocity, ,Time Stamp
0.009337659597487221,0.020191502325322894,-0.07815087050821347, ,0.009394625257860797,0.02007937210447288,-0.07817502442025943, ,0.00012806906088823615, ,-2.0986593826538898e-05,-1.2390084661033485e-06,1.3485590356867369e-05,-0.0001060164555296918,-4.8396292637603036e-05,0.0011345341138182619, ,2.497665729621221e-05, ,0.00011654050791095614, ,1.0672421740686347e-05, ,0.12201917941274726,-0.22801368811147865,0.08793253586000001,3.012196038155192,0.20960039064018565,-0.08204859499737872, ,-0.0002159126680848103,-3.286763043014071e-05,-1.5694209868490258e-05,-0.0011692673303605712,0.0,0.0, ,0.019381046295166016
0.00933959489695035,0.02018969554863341,-0.07816149445482493, ,0.009420645685176707,0.020091497396848314,-0.07825362493896457, ,0.0001571627608370603, ,0.00016646209826491127,0.00012170201684736547,-0.0010327451186956844,0.051317345934610875,-0.2890752540747488,-0.1287910179129246, ,0.001053130329661641, ,0.293594912272253, ,1.2965082805695295e-05, ,0.12201917941274726,-0.22802141084435287,0.08794160989000001,3.012196038155192,0.20905384464112386,-0.08503343046849665, ,0.00046729238828347196,0.0009840872494267423,0.0010358053822887776,-0.001145041838779393,-0.004247377166914695,-0.32049724782286226, ,0.03540611267089844
0.009344665751215012,0.02017863545208897,-0.07817737807348082, ,0.009446650294731773,0.020103540558056972,-0.07833204135596067, ,0.00019990202893777572, ,0.0003441263405357038,-0.001270241918436842,-0.0009295565885143298,-0.11391017987920209,-0.2238146800690701,-0.11315906851488235, ,0.0016112147345574404, ,0.2511345059814196, ,1.5160432833221007e-05, ,0.12204234761136992,-0.22801368811147865,0.08796364682,3.012196038155192,0.20645775114558051,-0.08977750447007185, ,0.0018340507017801998,0.0007701551975334087,0.001840822556827967,-0.001125323636790842,-0.1180021484401459,-0.3573062166702847, ,0.051918983459472656
0.0093556937225572,0.02015471238129387,-0.07821505081850429, ,0.009472639123618566,0.020115501830946608,-0.07841027409635395, ,0.0002309238452440714, ,0.0003751859600844494,-0.0010020566149324711,-0.0009655079777233815,-0.11849658688587685,-0.0644019960759039,-0.03895492919976844, ,0.0014412104701333206, ,0.13486681653454294, ,1.7048992759693896e-05, ,0.1220655158099926,-0.2279982426457302,0.08797790601000001,3.012196038155192,0.20399829414980258,-0.09308110031267285, ,0.0013744216306095956,0.0007480164827097173,0.000511619761900407,-0.0011098604495573367,-0.12922275445033282,-0.05169530422408841, ,0.07017803192138672
0.009369043165098847,0.02015976716324756,-0.07827370760657996, ,0.009498612208881308,0.020127381458064007,-0.07848832358470682, ,0.00025277853760611425, ,0.0009493254869365075,0.0010119197868382176,-0.004884084360529216,0.03195251304223187,-0.153515466723582,-0.06445926389054937, ,0.005077349759068014, ,0.15680548973264308, ,1.863146602910111e-05, ,0.12213502040586062,-0.22795190624848485,0.08803623906000001,3.012196038155192,0.20345174815074082,-0.09320717987887109, ,0.00450466888020313,0.0022250079492647265,0.005068027846007001,-0.0010861602714129913,0.0051585040502271995,-0.16594081458561605, ,0.08635711669921875
0.00938251300099553,0.020174687552094624,-0.07834527584459143, ,0.009524569587515887,0.02013917968165528,-0.07856619024503694, ,0.00026503595031835396, ,0.0010801089584284577,0.000842417745502757,-0.0051635204370096815,-0.05523327133954154,0.07201318857528771,0.02939299802700926, ,0.005342120021436434, ,0.09075579093356431, ,1.990116425534858e-05, ,0.12219680226885442,-0.22794418351561063,0.08811012759,3.0119863482117077,0.20331511165097538,-0.09530108795896985, ,0.005009407771511035,0.0001805893135041623,0.00523629570019724,0.0007854424953316535,-0.03988377741171335,0.09091850476764363, ,0.10884404182434082
0.009408769930191439,0.020206114631033303,-0.0784678277828342, ,0.009550511296470008,0.02015089674366607,-0.07864387450081892, ,0.00023266301148443133, ,0.0008557009615159494,0.001212981518087488,-0.003458681903966351,0.06633940409492989,-0.0659367851989783,-0.023308029716435606, ,0.0037637785284983824, ,0.09353382370860108, ,2.036854437938949e-05, ,0.12233581146059046,-0.22791329258411372,0.08823846030000002,3.012405728098677,0.20386165765003716,-0.09068267768504065, ,0.006168092061507445,0.0013121938711130143,0.0038419709406657026,0.0018217403789741295,0.05536568002197601,-0.0454086146091551, ,0.12669801712036133
0.009417185837348864,0.020212992674945283,-0.07850253667839414, ,0.00957643737264301,0.020162532885741557,-0.07872137677498353, ,0.0002753147829218032, ,0.0008480307393299411,0.0007677599970006305,-0.003495659047766796,0.02671089527626529,-0.030357435002006227,-0.010969276936287338, ,0.003678076090305468, ,0.04043569939841123, ,2.124207290533959e-05, ,0.12238987059071003,-0.22788240165261683,0.08827605271000001,3.012405728098677,0.20399829414980258,-0.09120248928943991, ,0.005566348577755706,0.0034177877054186972,0.0036923531571627266,0.0018097135974260129,0.024828415093142552,-0.031453966063370795, ,0.14426398277282715
0.009437926309256436,0.02022662871385893,-0.07856231736247961, ,0.009602347852886231,0.0201740883492266,-0.07879869748991855, ,0.000292695231552128, ,0.0010029657791198266,0.0006414227647919291,-0.0029706603753541314,0.003365733833494276,-0.027949972174036743,-0.010839161204443159, ,0.0032003416353536245, ,0.028151893515996552, ,2.21146218455432e-05, ,0.12263699804268521,-0.22782834252249726,0.08837586704000001,3.012405728098677,0.20413493064956803,-0.091558943413558, ,0.00724692623794411,0.0035895371941576733,0.003722554690348213,0.0017493839189278635,-0.0008544542110743417,0.007948356665564024, ,0.1648881435394287
0.009458324736767007,0.020239379667861573,-0.07863472327296162, ,0.009628242774002458,0.020185563375166048,-0.07887583706746878, ,0.0002998402818820114, ,0.0009323037015986393,0.0007272374894883453,-0.003742467870334592,-0.00316262386251744,-0.004510466015249294,-0.00011517372374040581, ,0.003924809590109891, ,0.005508765073618961, ,2.288613227129398e-05, ,0.12269877990567901,-0.2278051743238746,0.08841475574,3.0126154180421616,0.20413493064956803,-0.09147726467341744, ,0.0058738339279492185,0.0017803732763826488,0.0038869720644216696,0.0003640297832868399,-0.001182418973860532,0.001587710513595101, ,0.18195104598999023
0.00947972673703155,0.02025414986188452,-0.07871322283670788, ,0.00965412217274681,0.02019695820430479,-0.07895279592893678, ,0.00030179449997498083, ,0.0013787767621042204,0.0008755516068212484,-0.004963189716423409,-0.004972921998466961,-0.007982905724584695,-0.00023665951658404785, ,0.0052250232666598674, ,0.009405144017972001, ,2.3537321353990773e-05, ,0.12284551183028927,-0.22775883792662924,0.08849642201,3.0126154180421616,0.20413493064956803,-0.09147726467341744, ,0.00956209246942304,0.0034959378265780622,0.005149955227934046,0.0003640297832868399,-0.00124756295290289,0.0018364951126492181, ,0.20154714584350586
0.009506527175287134,0.020271518697522556,-0.07880522043807717, ,0.009679986085825824,0.020208273077087797,-0.07902957449508241, ,0.0002905559241250448, ,0.001184047919389553,0.0006377785724792264,-0.0041924757714961475,-0.005592365636876498,-0.006320769945951724,-0.0001324659751202814, ,0.004402906321681917, ,0.008439590323642257, ,2.3989638653868946e-05, ,0.12303858015214489,-0.22770477879650966,0.08859234747000001,3.0126154180421616,0.20413493064956803,-0.09155894341355802, ,0.008296926169557082,0.004155875086797415,0.004327305493072536,0.0003640297832868399,-0.0011350301953415582,0.0022617534771559623, ,0.21889996528625488
0.009531620045760128,0.020284772893761058,-0.0788850063138378, ,0.009705834549898278,0.020219508233660456,-0.07910617318612394, ,0.00028900684197261285, ,0.0012811157958403342,0.0006499343671597937,-0.0038794735871242247,-0.0035567440498713047,-0.006352635597200518,-0.007629492342391524, ,0.004136905567832255, ,0.0072805498685447395, ,2.4361687558671394e-05, ,0.12322392574112628,-0.22763527420064164,0.08867531003000001,3.0128251079856456,0.20413493064956803,-0.09155894341355802, ,0.009797998242654482,0.0032158297043779274,0.004040794398782344,0.00811975530880652,-0.0010171098323495085,0.0019327971559320476, ,0.2356581687927246
0.00955638764619647,0.02030030697878342,-0.07897501987446798, ,0.00973166760157463,0.020230663913868702,-0.07918259242173772, ,0.00028046315556260864, ,0.0011973726739751812,0.0007836811662996304,-0.0044178828047697,-0.0033983663069301062,-0.0048285338600226515,-0.006699111785780887, ,0.004643871872422302, ,0.005904543260110304, ,2.4621168403572063e-05, ,0.12339382586435922,-0.22756576960477362,0.08876864291000001,3.0128251079856456,0.20413493064956803,-0.09131390719313634, ,0.007924673420286467,0.0030719838149343114,0.004582511944764097,0.007128390822028577,-0.0009089400910036921,0.0017788612373202729, ,0.2574300765991211
0.009568007690631243,0.020308084180041232,-0.07901876810996954, ,0.009757485277417448,0.020241740357258977,-0.07925883262105882, ,0.00031294444906440237, ,0.0012369163652485877,0.0007264540962915668,-0.004346842483197429,-0.004389913224547031,-0.002981204761140239,-0.005258403766131901, ,0.0045774159983956635, ,0.005306497752282336, ,2.506019975244497e-05, ,0.12347105319310146,-0.22753487867327674,0.08881401306,3.0128251079856456,0.20413493064956803,-0.09115054971285522, ,0.008528361671042503,0.0035707147143200935,0.004504754389140273,0.0067394153780027674,-0.0008630796462692702,0.004592390425990817, ,0.2740020751953125
0.009591681612804543,0.020319494036148352,-0.07909649685188784, ,0.009783287613941151,0.020252737803078593,-0.07933489420268139, ,0.0003130535915631829, ,0.0012285166463647974,0.0005674531912477807,-0.0040460143132720824,-0.006876127664237024,-0.0009400761382623103,0.002459853268830193, ,0.004266320205734125, ,0.006940091765700711, ,2.544570341935073e-05, ,0.1236409533163344,-0.22744992861166025,0.08889438304000001,3.0130347979291305,0.20413493064956803,-0.0909055134924335, ,0.009017190970255464,0.00461540603965865,0.004175311014416776,0.00043537763333739433,-0.0007852003541846353,0.008970159279364344, ,0.2916600704193115
0.009620830071210902,0.020332692693623835,-0.07918680370485995, ,0.009809074647612303,0.02026365649027578,-0.0794107775846585, ,0.0003006099079359742, ,0.0014250875793484538,0.0007488909110983048,-0.004337649314409795,-0.004440652201228046,-0.002669469246607264,-0.0003767882189515128, ,0.004626760614116388, ,0.005181260126192697, ,2.571403408064414e-05, ,0.12385718983681268,-0.22736497855004378,0.08898771592000002,3.013244487872615,0.20399829414980258,-0.09079409558873708, ,0.010932827368487417,0.003409097929102343,0.004525230545454546,0.0033799528981312767,0.0,0.008329881040422898, ,0.3078310489654541
0.00963511055009024,0.020340130059594865,-0.07923165895907183, ,0.009834846414849462,0.020274496657499915,-0.07948648318450269, ,0.00033035972061997354, ,0.0014714417150201455,0.0007125805654684312,-0.0047163090110666495,-0.00674775227424265,0.0016987130471210064,0.0013590103071990673, ,0.004991641260232271, ,0.0069582889015538454, ,2.6116338365333875e-05, ,0.12396530809705184,-0.22732636488567268,0.08903438236000001,3.013244487872615,0.20399829414980258,-0.09071241684859652, ,0.01091010491659685,0.004879032193531367,0.004886138503067485,0.0033799528981312767,0.0,0.013155131991575017, ,0.3250300884246826
0.009664652908347084,0.020357914731880714,-0.07933397203023793, ,0.009860602952023106,0.0202852585431014,-0.07956201141918692, ,0.00030931748139541337, ,0.0014402692495192014,0.0008216104537929101,-0.004986916911381868,-0.005642607418522564,-0.00020514330120910358,0.00021972020165581256, ,0.005255355319092978, ,0.0056463350209908815, ,2.6367140957740512e-05, ,0.1241738218846559,-0.2272491375569304,0.08914067814000001,3.013244487872615,0.20399829414980258,-0.0905490593683154, ,0.01007664301906157,0.004304046802546744,0.0051700134761441105,0.0033799528981312767,0.0,0.010115497462638486, ,0.34159302711486816
0.009693602343406256,0.020374223656643195,-0.07942437273015462, ,0.00988634429545609,0.020295942385132236,-0.0796373627051433, ,0.00029772831070462114, ,0.0014039922401656345,0.0006430957163583817,-0.004172101349016209,-0.005863285845650458,0.0018376280549643217,0.00012650222859498362, ,0.004448729703781372, ,0.0061445094606581785, ,2.6535739478172275e-05, ,0.12439005840513417,-0.22717191022818817,0.08923530731000001,3.0134541778160995,0.20413493064956803,-0.09033376231144957, ,0.010835777711860428,0.004186588914104901,0.004337911633986929,0.004640705247462871,0.0,0.01291163569284256, ,0.35829615592956543
0.009726753216877994,0.02038960772126304,-0.079513144700852, ,0.009912070481423117,0.020306548421345903,-0.07971253745826537, ,0.00034392301040744313, ,0.0014553049978698945,0.000571599873095169,-0.0037245175364796377,-0.00719278298248325,0.01211653619717695,0.003525097197422747, ,0.004039389796899014, ,0.014090655617602716, ,2.6906332004708695e-05, ,0.12466035405573203,-0.2270869601665717,0.08932864019,3.013663867759584,0.20427156714933348,-0.09003678651444319, ,0.012105745829630154,0.003867546292962634,0.0038964803131115466,0.0063011966420492005,0.0003291320831217878,0.025274970924248602, ,0.3783230781555176
0.009741493054502804,0.020395185896524937,-0.07954739966961781, ,0.009937781546151164,0.020317076889197414,-0.07978753609390629, ,0.00031983697605082663, ,0.0015126275783265068,0.0004043333963050415,-0.003243008243213009,-0.005425682711863641,0.007360820401865253,0.0021610897198242893, ,0.0036011984326927904, ,0.009144381308739503, ,2.7257825163117963e-05, ,0.12479164051459385,-0.22704062376932635,0.08936493631,3.013663867759584,0.2044082036490989,-0.09006652567799903, ,0.013579985912774869,0.004767946713310813,0.00340213829987185,0.0063011966420492005,0.002340325256998689,0.021354936604390726, ,0.393402099609375
0.009768816347452067,0.020405587278744097,-0.07962087289232893, ,0.009963477525819383,0.020327528025843828,-0.07986235902688107, ,0.00031984648584537786, ,0.0015325595367418998,0.0005200716479446291,-0.0038862550569535,-0.005412297084444676,0.00614218145640035,0.0012369707381938708, ,0.0042097733454844145, ,0.00818653479117887, ,2.758185150823673e-05, ,0.12501559976794635,-0.2269556737077099,0.08944141742,3.013663867759584,0.2044082036490989,-0.08998484693785846, ,0.011160730067245299,0.0043884494257068925,0.0045124111954674235,0.0063011966420492005,0.002340325256998689,0.009050536273920926, ,0.41063714027404785
0.00978522085300351,0.020412660474968286,-0.07966689545810653, ,0.009989158456559007,0.020337902068144086,-0.0799370066714655, ,0.0003466113574554477, ,0.0014543717470377549,0.0006819987518695448,-0.00396399838157716,-0.0027029661364827142,0.002174132581277915,-0.0007919185365930639, ,0.004277102131733542, ,0.003468843818508762, ,2.7993461106066508e-05, ,0.12514688622680817,-0.22690933731046453,0.08948938015,3.013663867759584,0.2044082036490989,-0.08973981071743678, ,0.011702583012388865,0.00341403516153053,0.004157873014878622,0.0063011966420492005,0.002340325256998689,0.013510932648972091, ,0.4258701801300049
0.009816977025178447,0.02042591921235626,-0.07975525055774607, ,0.010014824374453677,0.020348199252659148,-0.08001147944139711, ,0.0003329222230005269, ,0.001697303428723722,0.0007747453575550202,-0.004807846268284621,-0.005075852382258279,0.0060825601772166935,0.0017647755355558704, ,0.005157175102482823, ,0.007922235363015031, ,2.831999769092912e-05, ,0.12540173641165758,-0.22681666451597385,0.08958141674,3.013663867759584,0.2044082036490989,-0.08933141701673397, ,0.013367649184176754,0.004668031352211294,0.005021693417402271,0.006060138997736915,0.002340325256998689,0.0197594152294409, ,0.44023609161376953
0.009834591467502598,0.020435361333408744,-0.07980566728799447, ,0.01004047531553918,0.02035841981565248,-0.08008577774987533, ,0.00035604778737143293, ,0.0017653453072797205,0.0009191520846220682,-0.005331624395568179,-0.004368039589479023,0.01495341333675122,0.0058005512585831, ,0.005691001959586499, ,0.015578329049251936, ,2.8713646749890487e-05, ,0.1255330228705194,-0.2267703281187285,0.08963456463000001,3.0140832476465533,0.20454484014886434,-0.08936115618028984, ,0.01340541623936584,0.0046529786565082595,0.005573412008397481,0.006185211844037051,0.00473116641213795,0.02929142861473452, ,0.45592498779296875
0.009870105051154534,0.020456621481960247,-0.07992067179816696, ,0.010066111315803653,0.02036856399308971,-0.08015990200956141, ,0.00032156441216608326, ,0.0017570168055361845,0.0009940048841130947,-0.005607200458714186,0.003345334387771905,0.00029799022284462544,-0.000430127494613553, ,0.005959517660749219, ,0.0033585792823908217, ,2.8951021153714052e-05, ,0.12579559578824304,-0.2266699325913636,0.0897551196,3.0140832476465533,0.20481811314839524,-0.08925727702712044, ,0.012907636229389386,0.005044404120832826,0.0058648054197349055,0.006185211844037051,0.00985401246990274,0.011763896534573244, ,0.47196316719055176
0.009886623337141236,0.02046420972845464,-0.07997192751828663, ,0.010091732411187425,0.020378632020639165,-0.08023385263257965, ,0.00034350843050563637, ,0.0016690753931272097,0.0008107541747694803,-0.004885719722028308,0.0019599927060823252,0.0019365700643550554,0.00019132539192313327, ,0.0052262215990202, ,0.0027553352315502068, ,2.925265475415845e-05, ,0.12591915951423063,-0.226615873461244,0.08980826749000001,3.0140832476465533,0.20481811314839524,-0.08901224080669874, ,0.012918178812751263,0.005116313528364291,0.005113583152487962,0.006185211844037051,0.008866382376339391,0.013730924776671698, ,0.4867701530456543
0.009914344839745163,0.02047475202412065,-0.08005202649295104, ,0.010117338637583176,0.020388624133671956,-0.08030763003051654, ,0.00033757616013255367, ,0.0015284508668021212,0.0007266209221222294,-0.004412033688974741,0.0022112878472227916,-0.0028738481762108858,-0.0024625992710043763, ,0.004725482122423274, ,0.0036261268057457947, ,2.9514282456077915e-05, ,0.1261353960347089,-0.2265154779338791,0.08989123005,3.0140832476465533,0.20481811314839524,-0.08860384710599595, ,0.01188142501045083,0.004630301945943613,0.004618385479849232,0.006185211844037051,0.007499792819999303,0.007426877875192219, ,0.5029680728912354
0.009934988024380476,0.020483701401907906,-0.0801089197454352, ,0.010142930030836134,0.020398540567261935,-0.08038123461442201, ,0.0003530547176822684, ,0.0015612322881437594,0.0005570458750100487,-0.0043456163594994095,-0.007874011730184073,0.005529425863713191,0.00047898755324712167, ,0.00465103514374566, ,0.009621570015316815, ,2.9812665307878483e-05, ,0.12629757342506764,-0.2264459733380111,0.08995085939000001,3.0142929375900374,0.20495474964816068,-0.08871526500969237, ,0.012265340772711747,0.005664028898134299,0.004504754389140273,0.006264072060917,0.0001732544036363908,0.01817213144270419, ,0.5173780918121338
0.009966724441869898,0.02049379802952235,-0.08019536126480516, ,0.010168506626743746,0.020408381556186118,-0.0804546667948089, ,0.00033948693927776067, ,0.001641325966451437,0.0005875252192610119,-0.004656281898168221,-0.009803032916721745,0.012370629153299163,0.0037497595423421947, ,0.004971931005819016, ,0.015783913260849932, ,3.004833733273562e-05, ,0.12655242360991703,-0.2263224096120235,0.09004030340000001,3.0142929375900374,0.20495474964816068,-0.08847022878927067, ,0.01273784450449272,0.006151914952310334,0.004821068861985473,0.006159818498157547,0.0001732544036363908,0.02631781806167398, ,0.532418966293335
0.010001824634343869,0.020510317422029876,-0.08030105759511676, ,0.010194068461055836,0.02041814733492459,-0.08052792698165394, ,0.00031132415970112985, ,0.0017305781713731721,0.0008174538765072584,-0.005283677270298881,-0.003416839276700154,0.015670033438319863,0.008207101288617732, ,0.005619642083275685, ,0.016038227286171942, ,3.0179813614750117e-05, ,0.12681499652764067,-0.22620656861891011,0.09015048805,3.0145026275335223,0.2050913861479261,-0.08817325299226429, ,0.012964063054435898,0.005905278681981637,0.0055040813821700075,0.0041280384226922056,0.00730582115287474,0.029760146390654715, ,0.5538101196289062
0.010020345430933213,0.020518397690713026,-0.08035731348890852, ,0.010219615569474878,0.020427838137660727,-0.08060101558439778, ,0.00032756729401651216, ,0.0016471544127879098,0.0007024773605068383,-0.004793632474945958,-0.0010098580413876925,0.0003962439524808393,0.0012847851784674766, ,0.005117177386650559, ,0.0010848133491293788, ,3.0354654150636868e-05, ,0.1269540057193767,-0.22614478675591632,0.0902088211,3.0145026275335223,0.2050913861479261,-0.08809157425212373, ,0.01267997615693089,0.00583197377186646,0.0049933578432601895,0.0041280384226922056,0.006607689992080148,0.01258324825755641, ,0.5687081813812256
0.010049901017619949,0.020525869718916307,-0.08043255343512584, ,0.010245147987655598,0.02043745419828141,-0.08067393301194517, ,0.00032280455960645833, ,0.0015003682530900155,0.0004273388502157988,-0.003861788434242613,-0.0051868355656082945,0.017173678316087394,0.004759993609501368, ,0.0041649889914181235, ,0.017939857558804916, ,3.050545254653573e-05, ,0.12719341043847768,-0.22602122302992872,0.09028659850000001,3.0147123174770067,0.2050913861479261,-0.08776485929156148, ,0.012225836325492243,0.006405595388186651,0.0040102748036253775,0.007457590920471611,0.005627650424073234,0.03001029401221402, ,0.5841281414031982
0.010049901017619949,0.020525869718916307,-0.08043255343512584, ,0.010270665751205327,0.020446995750377134,-0.08074667967266552, ,0.0003919610485991906, ,0.0015003682530900155,0.0004273388502157988,-0.003861788434242613,-0.0051868355656082945,0.017173678316087394,0.004759993609501368, ,0.0041649889914181235, ,0.017939857558804916, ,3.085282525564925e-05, ,0.12719341043847768,-0.22602122302992872,0.09028659850000001,3.0147123174770067,0.2050913861479261,-0.08776485929156148, ,0.012225836325492243,0.006405595388186651,0.0040102748036253775,0.007457590920471611,0.005627650424073234,0.03001029401221402, ,0.6039650440216064
0.010094968373030238,0.020543542019335947,-0.08056252217758793, ,0.010296168895683907,0.020456463027242272,-0.08081925597439284, ,0.0003376042707105823, ,0.0014394419849492776,0.0006527236971712006,-0.0045664795222158045,-0.00230941574110191,0.0028441450022640234,-0.0011811820544333576, ,0.00483226413596151, ,0.003663681191572273, ,3.1025530856253685e-05, ,0.12754093341781778,-0.22586676837244424,0.09042141266,3.0147123174770067,0.2050913861479261,-0.08743814433099924, ,0.010351660713204957,0.005508593780458022,0.004735080713436386,0.00634314983838325,0.004645540765762709,0.012434636300484619, ,0.6180901527404785
0.010123416417065328,0.020553287826773636,-0.08064808364642777, ,0.010321657456603746,0.02046585626187492,-0.08089166232442631, ,0.00032599748568574533, ,0.0014945677120308527,0.0006111043938898297,-0.004686033343631408,-0.00249229843595183,-0.008127525303373342,0.0003402680190627656, ,0.004956419042383518, ,0.00850107150841859, ,3.115690082248813e-05, ,0.12774944720542183,-0.22574320464645664,0.09050956038,3.014922007420491,0.2050913861479261,-0.08735646559085868, ,0.010939128709910177,0.006246916305399231,0.0048460028962579865,0.0004862814895087226,0.004152394720777769,0.002432356249646243, ,0.6329519748687744
0.010141153594502121,0.020560207050660567,-0.08069933023965459, ,0.010347131469429822,0.02047517568697731,-0.0809638991295304, ,0.00034591027053224206, ,0.0016401676826930133,0.0007089275625244737,-0.004639981915507033,-0.0011297953601429591,-0.0044035039108101135,-0.006254699378799276, ,0.004972138422498892, ,0.004546128253537572, ,3.133634784476169e-05, ,0.12788073366428365,-0.22568142278346284,0.09056270827000001,3.0151316973639757,0.2050913861479261,-0.08719310811057755, ,0.012575794004568085,0.005028821598981394,0.004843056102158711,0.00901680276572121,0.0039192777043894535,0.006295932614335812, ,0.6489620208740234
0.010174457339825674,0.020574898378363647,-0.08080052626916967, ,0.010372590969579721,0.02048442153495596,-0.08103596679593562, ,0.00032074169681593106, ,0.0016286717681632899,0.0007598909747152651,-0.005089830272021438,-0.0017840582510522246,-0.00480851183145356,-0.006928056650172869, ,0.0053978123550056534, ,0.005128805558839903, ,3.143986272768435e-05, ,0.12812786111625885,-0.22557330452322372,0.09066770776000001,3.0151316973639757,0.2050913861479261,-0.08702975063029642, ,0.011694150717349108,0.005571884986189759,0.005286694829074013,0.00901680276572121,0.0035529170136050538,0.004918723296461033, ,0.6640660762786865
0.010190261618649301,0.020581800846591777,-0.08084932056155306, ,0.010398035992423608,0.02049359403792156,-0.08110786572933795, ,0.0003432145615762975, ,0.0014896744291238214,0.0006188185248920161,-0.004502275900301863,-0.0018787824908621628,-0.004432880832369004,-0.007127291267770879, ,0.00478252595957135, ,0.004814587653372037, ,3.1597188568486275e-05, ,0.12824370210937222,-0.22551924539310414,0.09071826307000001,3.0151316973639757,0.2050913861479261,-0.08686639315001529, ,0.010907694432008137,0.005587428388863901,0.004669836270888303,0.00901680276572121,0.00339342808816217,0.004484960009650665, ,0.6823940277099609
0.01021893722402985,0.020592301424716672,-0.08093868498647142, ,0.010423466573284378,0.020502693427689546,-0.08117959633489981, ,0.00032848154535571874, ,0.0014922813516100159,0.0005952202909763936,-0.004347192717624458,-0.0022178724216226956,-0.0040984616470116815,-0.006077968514884813, ,0.0046345739125965135, ,0.004660079870353539, ,3.17097060384846e-05, ,0.12845221589697628,-0.22539568166711654,0.09081029966000001,3.0151316973639757,0.2050913861479261,-0.08670303566973418, ,0.011171656598449297,0.005409633769953643,0.004514969251700681,0.00827327290896812,0.0031196412794981354,0.00537167745980082, ,0.6974749565124512
0.010247925067987603,0.02060240276142642,-0.0810173280945027, ,0.010448882747437625,0.020511719935779885,-0.08125115901725036, ,0.0003213786928690204, ,0.0015132808018439633,0.00042198213223095297,-0.0037828996779751133,-0.004435177755906813,-0.0014205013559749923,0.0002964168154995163, ,0.004096146686677115, ,0.004657104793123537, ,3.1799459999887734e-05, ,0.12867617515032878,-0.2252952861397516,0.09089196593000001,3.01534138730746,0.2050913861479261,-0.08637632070917192, ,0.012387017564087036,0.005889859005709344,0.003932069000246853,0.003814151307474707,0.0028874578195829986,0.010829955239731945, ,0.7125270366668701
0.010247925067987603,0.02060240276142642,-0.0810173280945027, ,0.01047428455011155,0.020520673793417345,-0.08132255418048516, ,0.00038869165533031956, ,0.0015132808018439633,0.00042198213223095297,-0.0037828996779751133,-0.004435177755906813,-0.0014205013559749923,0.0002964168154995163, ,0.004096146686677115, ,0.004657104793123537, ,3.212781201781247e-05, ,0.12867617515032878,-0.2252952861397516,0.09089196593000001,3.01534138730746,0.2050913861479261,-0.08637632070917192, ,0.012387017564087036,0.005889859005709344,0.003932069000246853,0.003814151307474707,0.0028874578195829986,0.010829955239731945, ,0.7269971370697021
0.010283619368464106,0.020615571707847433,-0.0811154205309902, ,0.01049967201648719,0.020529555231531722,-0.08139378222816764, ,0.00036271588794958804, ,0.0015533073413028491,0.0006407283240136045,-0.004863666945569124,-0.006026558911289077,0.0028651882486311845,-0.0033217163361684955, ,0.005145731496994406, ,0.006672983837067518, ,3.238127338905249e-05, ,0.12895419353380086,-0.22514855421514135,0.09099437284,3.015551077250945,0.205364659147457,-0.0862724415560025, ,0.011021712143840972,0.006043239686115998,0.00502803393939394,0.008246298718004584,0.0012733429756945944,0.013193616978160117, ,0.7408990859985352
0.010316577418436933,0.020630054417159507,-0.08122207289816957, ,0.01052504518169837,0.020538364480757867,-0.08146484356332803, ,0.0003328715196859653, ,0.0016599491339065286,0.000721765610158593,-0.004872466923050319,-0.004710679203731718,-0.000593411168695109,-0.0041811897716934375, ,0.006044592689593579, ,0.006087568222132375, ,3.255497064216672e-05, ,0.1291858755200276,-0.22502499048915375,0.09110455749000002,3.015551077250945,0.205364659147457,-0.08610908407572139, ,0.012270501377031293,0.00515135068303644,0.005069640840229154,0.008246298718004584,0.0012733429756945944,0.010741977062944103, ,0.7543489933013916
0.010327167213096303,0.020635044634671914,-0.081254487777247, ,0.010550404080831617,0.02054710177143584,-0.08153573858846419, ,0.0003696899581010537, ,0.0017512028497322278,0.0007483168372883064,-0.005313450979351111,-0.0059216593564947,0.0007643071290649907,-0.0035217508363108675, ,0.00564441766879868, ,0.005970779738577572, ,3.2807280556632586e-05, ,0.12926310284876985,-0.22499409955765687,0.09113826103000001,3.015551077250945,0.205364659147457,-0.08594572659544025, ,0.012671510423083293,0.006027322058198191,0.005511699487889274,0.008246298718004584,0.0012733429756945944,0.012693538568722981, ,0.7682151794433594
0.010351310956441432,0.02064601071150142,-0.08133216037392778, ,0.010575748748926287,0.020555767333611207,-0.08160646770554277, ,0.0003657331023112958, ,0.0018489118275911776,0.0008336574316333085,-0.005575101348504016,-0.00860766731647414,0.014654634765387052,0.003631719290494495, ,0.005932555495367514, ,0.016995595057308795, ,3.304146390778505e-05, ,0.12943300297200278,-0.2249091494960404,0.09121863101000001,3.015551077250945,0.205364659147457,-0.08553733289473744, ,0.013431980404596006,0.005747939661721388,0.00579651074235808,0.007605901761924831,0.0012733429756945944,0.029107786271991454, ,0.7809901237487793
0.01036971882529266,0.020653709933238857,-0.08138713963848002, ,0.010601079220974766,0.020564361397035012,-0.08167703131599773, ,0.0003815075075355417, ,0.0017055727353197877,0.0007404000187130209,-0.005409408759647782,-0.010679720369963234,0.0208779328375388,0.00917898602898705, ,0.005720041404756667, ,0.023450895550438944, ,3.330243450082126e-05, ,0.1295642894308646,-0.2248473676330466,0.09127566777000001,3.015760767194429,0.205364659147457,-0.08545565415459686, ,0.01201579091663597,0.006323578387270336,0.005596911988756149,0.004305835983595718,0.0012612617115739329,0.03525824919581543, ,0.7937180995941162
0.0104029256207236,0.020668772929562745,-0.08148797148989692, ,0.01062639553192192,0.02057288419116413,-0.0817474298207324, ,0.0003556010078762343, ,0.0017716719802147503,0.0007071907078813938,-0.005272229728971099,-0.00666979838273243,0.0031851241149407914,0.0005258092722514977, ,0.005606723340583027, ,0.007391293663516614, ,3.349758008478114e-05, ,0.12980369414996556,-0.22473152663993323,0.09138066726,3.0159704571379136,0.20550129564722242,-0.08524035709773103, ,0.012978246930863071,0.0064243506845094375,0.005466304571036377,0.005577527673664155,0.0018925639624186854,0.016296993683247347, ,0.8099939823150635
0.010423538225055786,0.020677559869711114,-0.08154777632076295, ,0.010651697716665997,0.020581335945161084,-0.08181766362011868, ,0.00036627169099067683, ,0.0017776035054240828,0.0007792818694522111,-0.005174207899884382,-0.007042311939449346,0.010286777845947547,0.0038715018958652087, ,0.00552626291862583, ,0.012466433018137464, ,3.370895868760357e-05, ,0.12995814880745005,-0.22466974477693943,0.09144288918000001,3.0159704571379136,0.20550129564722242,-0.08507699961744991, ,0.013183792936714473,0.005329503853934427,0.005390460751269035,0.005577527673664155,0.0018567878152718526,0.024408481082421083, ,0.8231451511383057
0.01045996621277581,0.02069184375599476,-0.08165107683199271, ,0.010676985810057809,0.020589716887894585,-0.08188773311399775, ,0.0003369474715810121, ,0.0018643165025087464,0.0006648923880553336,-0.0050516740744874335,-0.0031350044128886216,-0.017335245272631996,-0.007889351650164066, ,0.005425603087590249, ,0.017616440561057933, ,3.3851190827307974e-05, ,0.13023616719092213,-0.22453845831807762,0.09155048125000001,3.0159704571379136,0.20563793214698786,-0.08486170256058409, ,0.014382682867303848,0.006312054000991133,0.005255299082810954,0.005577527673664155,0.001594307616500889,-0.004869460476256757, ,0.837191104888916
0.010477169145950711,0.020696557366762774,-0.08169617719968394, ,0.01070225984690128,0.02059802724793934,-0.08195763870168014, ,0.0003587981674923756, ,0.0017723696464772092,0.0005159350417148058,-0.004859846091383694,-0.00616808952439743,-0.005859910172063046,-0.004638507863159772, ,0.005198613965564319, ,0.00850787123167335, ,3.40341193946134e-05, ,0.13036745364978394,-0.2244689537222096,0.09159714769,3.0161801470813985,0.20563793214698786,-0.08486170256058412, ,0.013535435966120495,0.007488845050012703,0.005023277048249764,0.006764070535997091,0.001594307616500889,0.0066289178575768635, ,0.8509230613708496
0.01049804954447621,0.020702540039623053,-0.08175260673835155, ,0.010727519861953297,0.020606267253576525,-0.08202738078194619, ,0.00037070992833958613, ,0.0017891562271318325,0.00043077925985101706,-0.0044291490578189496,-0.006022780353312955,-0.0067227548704816035,-0.004621188356066235, ,0.004796249800852839, ,0.009026035371541544, ,3.423542199825896e-05, ,0.13052963104014267,-0.22438400366059313,0.09165548074,3.0161801470813985,0.20563793214698786,-0.08486170256058412, ,0.014397958057725804,0.007343133466257522,0.004590435596541787,0.006764070535997091,0.001594307616500889,0.0066289178575768635, ,0.8639731407165527
0.010534801061064138,0.020712944663123792,-0.08184470479910509, ,0.010752765889923771,0.0206144371327936,-0.08209695975304657, ,0.00034762761964432395, ,0.002012494066160978,0.0006080848203450404,-0.00515251570122695,-0.003923259670229109,-0.006544535032952704,0.00034519904026071753, ,0.005564918468985637, ,0.007630393279903931, ,3.438380075813472e-05, ,0.1308230948893632,-0.22423727173598287,0.09175140620000001,3.016389837024883,0.2057745686467533,-0.08480976298399939, ,0.016029888776768714,0.007577319803472742,0.005363236202020203,0.003133746361979287,0.004881954099722622,0.00908954866019105, ,0.8767051696777344
0.010553930633423017,0.020719311987450684,-0.08189721252076844, ,0.010777997965475546,0.020622537113284826,-0.08216637601270167, ,0.00036334629618677526, ,0.0020131410630237654,0.0007790518014197565,-0.005758853555612299,-0.0030304095035112023,-0.00906993363563363,-0.0011579975834450332, ,0.0061501262526810156, ,0.009562796221803456, ,3.455860450094996e-05, ,0.13096982681397346,-0.22416776714011485,0.09180585038000001,3.016389837024883,0.2057745686467533,-0.08464640550371827, ,0.015055837150320604,0.007160177409388572,0.005988275007518798,0.003133746361979287,0.0046810514105748114,0.005234888520170997, ,0.8910431861877441
0.010555079207382542,0.02071953875009378,-0.08190104874383614, ,0.010803216123224648,0.020630567422450986,-0.08223562995810327, ,0.0004259488409264931, ,0.0020158223933361913,0.0007746076260751389,-0.00574796635726958,-0.0030596743039119955,-0.00915443297888359,-0.001178468866888321, ,0.006140250332042851, ,0.009652214447291715, ,3.484998852613299e-05, ,0.13097754954684768,-0.2241600444072406,0.09180973925000001,3.016389837024883,0.2057745686467533,-0.08464640550371827, ,0.015103762781867067,0.007181339145576826,0.0059770399699812385,0.003133746361979287,0.004665694426196201,0.005196400101886062, ,0.9045031070709229
0.010612592365613066,0.020737524506065655,-0.08206555879262739, ,0.010828420397740122,0.02063852828739988,-0.08230472198591353, ,0.0003370178389711463, ,0.0019293477824603115,0.0005286499135861058,-0.0051894635722719495,-0.0038947338797066296,-0.00960244317828076,-0.0076163258738712585, ,0.005561689110760926, ,0.010362232540440714, ,3.496173119554198e-05, ,0.13140229985493004,-0.22392063968813966,0.09197955324000001,3.0165995269683674,0.2057745686467533,-0.08431969054315602, ,0.01475846680536093,0.008436654132144903,0.005368659089989889,0.008633782399079894,0.003981476492533189,0.0030553615423971996, ,0.9174041748046875
0.010631828403731973,0.020742580170928136,-0.08211837407402577, ,0.010853610823544153,0.02064641993494638,-0.0823736524922662, ,0.0003515697705166844, ,0.0018408143096426263,0.000516991808644848,-0.005032585153202216,-0.004481735025951443,-0.005566542627839128,-0.005522602416250317, ,0.005383566770926344, ,0.007146491617725834, ,3.5097602501690086e-05, ,0.1315490317795403,-0.2238356896265232,0.09203399742000001,3.0165995269683674,0.2057745686467533,-0.08423801180301546, ,0.013939033718929314,0.00810453635427599,0.005203793374714146,0.008013136996139671,0.0037966953656847447,0.006800912209845231, ,0.9324021339416504
0.010669528621429681,0.020753821390649123,-0.08221525521971519, ,0.010878787435112117,0.020654242591612557,-0.0824424218727661, ,0.00032451483260352804, ,0.0017838126158089107,0.0003533539635702883,-0.004335324624019367,-0.003025557471759702,-0.006099703373831064,-0.00432542094420535, ,0.004701264305218175, ,0.006808845550618575, ,3.517904386591729e-05, ,0.13185021836163505,-0.22367351223616447,0.09213510804000001,3.0165995269683674,0.2060478416462842,-0.08429749013012719, ,0.014373968730456039,0.00832497196944871,0.004489518466741827,0.006998831259146124,0.005618156255661271,0.006697663400314373, ,0.9481000900268555
0.010685523610617451,0.02075604208083039,-0.08225303309867169, ,0.010903950266872306,0.02066199648362768,-0.08251103052249063, ,0.00035088096159966353, ,0.0016333774454049114,0.00019472378986823934,-0.0038032683290976097,-0.0031023335612150537,-0.007032052028893439,-0.004790673565979959, ,0.004143753035186225, ,0.007685976090669331, ,3.530647250935275e-05, ,0.13198150482049686,-0.22359628490742223,0.09217399674000001,3.0165995269683674,0.2060478416462842,-0.0840524539097055, ,0.01341489137100237,0.008707057894289067,0.003920455702682747,0.006608807822716735,0.005618156255661271,0.004696215147646315, ,0.9608840942382812
0.010702430232186026,0.020759406554657207,-0.08229285917802379, ,0.010929099353206616,0.020669681836928733,-0.08257947883598857, ,0.0003762715026779858, ,0.0017123958849534868,0.00029054952715498045,-0.004179485747455371,-0.0044845097497750105,-0.00025800440141781353,-0.005818277695647242, ,0.004526015886816815, ,0.004491925276724065, ,3.547612842726082e-05, ,0.13211279127935868,-0.22351133484580576,0.09221547802,3.0170189068553364,0.20618447814604965,-0.08400051433312081, ,0.01365227183980302,0.008522255341451025,0.004314412654387867,0.010403419699594688,0.00476500269140873,0.01165684179695364, ,0.9741079807281494
0.010740486680268635,0.02077068826747368,-0.08240091527762397, ,0.01095423472844983,0.020677298877160147,-0.08264776720728124, ,0.0003396257962816191, ,0.00199753335316679,0.0007717488950724166,-0.0058623349276969725,-0.004928333917939062,0.008517960695950825,-0.0034735139118664484, ,0.006241210352051526, ,0.009840941149124621, ,3.5575623558924877e-05, ,0.13223635500534628,-0.22343410751706352,0.09226214446000001,3.0172285967988213,0.20618447814604965,-0.08375547811269912, ,0.012342234770561004,0.007689547456031191,0.005224274030829781,0.012215414923155867,0.00476500269140873,0.016962764458961013, ,0.9940540790557861
0.010774679112610536,0.020781731669179532,-0.08249153881800265, ,0.01097935642689012,0.020684847829674367,-0.08271589602986285, ,0.0003187717676514728, ,0.0014421926293081968,0.0001857185646214237,-0.003276514095436633,0.0026657716162244043,-0.021701763436387286,0.009411660633270424, ,0.003584683470387709, ,0.02186487763929081, ,3.563567062251024e-05, ,0.1326533825805544,-0.22320242553083677,0.09242158813000001,3.0174382867423053,0.20645775114558051,-0.08348824147924858, ,0.012396726526253529,0.00783301171852437,0.0033970593985924507,-0.012590315304750643,0.010752362231349557,-0.008668125519774639, ,1.0083491802215576
0.01078965905360148,0.02078436459961281,-0.08252346895677164, ,0.0110044644827689,0.020692328919531537,-0.08278386569670068, ,0.00034988341054342196, ,0.0015504681534421428,0.00016723612630140084,-0.003433471756397929,0.0030790390881391323,-0.013575033855556303,0.013647451255763733, ,0.0037710274089113784, ,0.013919842865802215, ,3.5747972261268194e-05, ,0.13278466903941621,-0.2231174754692203,0.09245529167000001,3.0174382867423053,0.20673102414511138,-0.08371107728664143, ,0.01346820061857377,0.008799056102323233,0.003562695486468352,-0.012590315304750643,0.013899360577268557,0.0011096065303855779, ,1.0215110778808594
0.01078965905360148,0.02078436459961281,-0.08252346895677164, ,0.01102955893028089,0.020699742371500105,-0.08285167660023486, ,0.00041525068277997854, ,0.0015504681534421428,0.00016723612630140084,-0.003433471756397929,0.0030790390881391323,-0.013575033855556303,0.013647451255763733, ,0.0037710274089113784, ,0.013919842865802215, ,3.603053198207487e-05, ,0.13278466903941621,-0.2231174754692203,0.09245529167000001,3.0174382867423053,0.20673102414511138,-0.08371107728664143, ,0.01346820061857377,0.008799056102323233,0.003562695486468352,-0.012590315304750643,0.013899360577268557,0.0011096065303855779, ,1.0336990356445312
0.010824423169820036,0.020793434818829615,-0.08261363003337574, ,0.011054639803574181,0.020707088410056543,-0.08291932913237944, ,0.00039231025973936857, ,0.0018400394853354638,0.0008249213034970115,-0.005518325239729815,0.002864960184861478,-0.0020581738039401228,0.019011689650444932, ,0.005875215222951064, ,0.0035276155049578243, ,3.6267581958157523e-05, ,0.13305496469001407,-0.22297846627748427,0.09254862455000001,3.0174382867423053,0.20673102414511138,-0.08330268358593862, ,0.01356639621993864,0.006735158911694602,0.005765042171552661,-0.012590315304750643,0.013899360577268557,0.013988299334551924, ,1.0472841262817383
0.01084939344589532,0.02080522189356008,-0.08269630166783315, ,0.011079707136750045,0.020714367259385996,-0.08298682368452226, ,0.0003817093173176936, ,0.001797062666630909,0.0009825688317943184,-0.00629946360148881,0.004540777081560171,0.009227318489031008,0.00031081957865792577, ,0.006624055963191632, ,0.010284067924819165, ,3.648135494078393e-05, ,0.13322486481324702,-0.2228935162158678,0.09263417969000001,3.0172285967988213,0.20673102414511138,-0.08297596862537637, ,0.011313632554826704,0.006969590875429234,0.006549675789473685,0.00868436386676847,0.013899360577268557,0.01878540266193517, ,1.058549165725708
0.010887049040151697,0.020821809129192723,-0.0828286341698943, ,0.011104760963863279,0.02072157914338192,-0.08305416064752519, ,0.0003290998691801992, ,0.0018421504552190624,0.0009616109348034973,-0.0060765148669084945,0.007276714809747519,-0.021829388150325323,-0.008676715974204302, ,0.0064220126765179636, ,0.023010275034326254, ,3.660322334507271e-05, ,0.13344882406659953,-0.2227390615583833,0.09276510498000001,3.0174382867423053,0.20673102414511138,-0.08248589618453299, ,0.011968336682869313,0.006471449567737986,0.0064777598698658,0.004497210575655049,0.010950486379583341,-0.013655729604186654, ,1.071040153503418
0.010906717653821162,0.020828931571885916,-0.08288487766950463, ,0.011129801318922126,0.020728724285646545,-0.08312134041172457, ,0.0003401800263221146, ,0.001937646170408941,0.0006874372138725895,-0.005361725195686849,0.004369216650050926,-0.017117529839280318,-0.011215540177997077, ,0.005742398425638935, ,0.017666348731487216, ,3.674040874197893e-05, ,0.13359555599120979,-0.22266183422964106,0.09282862319000001,3.0176479766857898,0.20673102414511138,-0.08232253870425188, ,0.014345720568173964,0.0075041146918961524,0.005587096289021397,0.009428387036297274,0.00960757327810709,-0.006666310154218607, ,1.0845811367034912
0.010929611393551643,0.02083795211976899,-0.08294671472903122, ,0.011154828235888151,0.020735802909490987,-0.08318836336693156, ,0.0003457616974616147, ,0.0020003807873382124,0.0007256271283437854,-0.0053276903131586,-0.004151768210215387,0.0024173447839705253,-0.004803324359457071, ,0.005736927931974069, ,0.0048042409164817295, ,3.688350863901893e-05, ,0.13376545611444274,-0.22258460690089882,0.09289343769000001,3.0178576666292747,0.20686766064487683,-0.08243395660794828, ,0.01500109730611299,0.006385452634850085,0.005561735865921788,0.011250584734323546,0.0035998159398833687,0.016078897068221756, ,1.0961730480194092
0.010949747232259147,0.02084374167170583,-0.08299759965030397, ,0.011179841748676455,0.02074281523793523,-0.08325522990243218, ,0.00035986522245225986, ,0.0017509008746104322,0.0003917920916440684,-0.00458696329461419,-0.006432179746372108,-0.02121877486062549,0.02061728309789008, ,0.004925381932594088, ,0.02217226512661579, ,3.704593781150955e-05, ,0.13391991077192722,-0.22249965683928236,0.09294658558,3.018067356572759,0.2070042971446423,-0.08230033829122303, ,0.013975985501983914,0.008160128245865591,0.00473789753718025,-0.0229754075968391,0.004212364185878758,-0.002970374087225813, ,1.1075170040130615
0.01096572390621151,0.02084876723385289,-0.08303979289231363, ,0.011204841891155544,0.020749761493708486,-0.08332194040698812, ,0.0003828665137384435, ,0.0016650293563164453,0.000556792719423316,-0.004742611574074376,-0.0071071996722812045,-0.01020084411523676,0.025052494787114674, ,0.005057143999565624, ,0.012432598499337002, ,3.724111150670366e-05, ,0.13404347449791482,-0.22243015224341434,0.09299065944000001,3.018067356572759,0.20714093364440772,-0.08241175619491947, ,0.012693544884760672,0.006621739810779145,0.004916299851851852,-0.0229754075968391,0.003904389089956552,0.00786360065801835, ,1.1205840110778809
0.01099991581387135,0.020859263079818578,-0.0831431026852899, ,0.0112298286971475,0.02075664189924934,-0.08338849526883634, ,0.000351580091383697, ,0.0020536385541688696,0.0008686716912086399,-0.00678715270581438,-0.011168281571842988,0.0017552655083807843,0.025631343837465636, ,0.007144050928592233, ,0.011305372876220035, ,3.738313074238612e-05, ,0.1342828792170158,-0.22227569758592983,0.09309695522000001,3.018067356572759,0.20714093364440772,-0.08208504123435721, ,0.013881939958816673,0.008337293719380433,0.007007836128464585,-0.018387545136708497,0.003305661612870467,0.021391250105528743, ,1.1353950500488281
0.011024573052596685,0.020870088117497132,-0.08322199070616111, ,0.01125480220042791,0.020763456676705594,-0.08345489487568983, ,0.00034441265490720924, ,0.001923427201019126,0.0006909247681577868,-0.005652432648252111,-0.009110418417671677,0.018018906180513328,0.004524664515915225, ,0.006010569363704285, ,0.020191104425394298, ,3.751099896450437e-05, ,0.1344527793402487,-0.22219074752431336,0.09317862149000002,3.0178576666292747,0.20714093364440772,-0.08192168375407609, ,0.01353929826772304,0.007457300233796301,0.005856180705882354,0.008096367979633215,0.0029973346331311984,0.03261078172678923, ,1.1467101573944092
0.011043252170328763,0.02087492923385378,-0.0832692523872745, ,0.011279762434725941,0.020770206047934853,-0.08352113961473749, ,0.00036104186210635325, ,0.0019961239921849156,0.0002597015283116169,-0.004470968054579428,-0.0086857692405601,-0.011225845822201812,-0.006673854918350891, ,0.004903214376412008, ,0.014193738053718832, ,3.766155686871664e-05, ,0.13459951126485897,-0.2221057974626969,0.09322788051000001,3.0178576666292747,0.20727757014417317,-0.08170638669721024, ,0.01624669432605218,0.00904296737564856,0.004619724918793504,0.007203620420743619,0.0,0.0038073901718068343, ,1.1578221321105957
0.011063557723703371,0.02087854209815715,-0.08331390910206732, ,0.011304709433724313,0.020776890234504335,-0.08358722987264516, ,0.0003784065171999308, ,0.001918133090019564,0.00027127272560301054,-0.004175451097086208,-0.0007839483479960552,0.0012795075445686827,0.0005900718092032428, ,0.004602957234956947, ,0.0015005709912470242, ,3.783519623198277e-05, ,0.13476941138809193,-0.2220131246682062,0.09327454695000001,3.0178576666292747,0.20741420664393861,-0.08165444712062554, ,0.015935674485049667,0.009205263074063162,0.004346196867667122,0.00643516011426892,0.01053395667830832,0.016110309652932323, ,1.1722221374511719
0.011105217372168146,0.020887389229579133,-0.08340670817233908, ,0.011329643231059349,0.02078350945769124,-0.08365316603555506, ,0.0003491410194857081, ,0.0019312242848340375,0.000580838944425096,-0.005034326593406138,6.582812710391722e-05,0.012003201680387293,-0.0015626531964758527, ,0.005423232003775041, ,0.012003382052097512, ,3.796138582159629e-05, ,0.13510148890168358,-0.22183550181209905,0.09337176870000001,3.018486736459728,0.20768747964346948,-0.08155056796745613, ,0.014548051748960721,0.007917381591526194,0.005250102676334873,0.012504796107850954,0.010851704881662193,0.024946225247620857, ,1.1864161491394043
0.011123226324472282,0.02089164555267472,-0.08345712744907983, ,0.011354563860321156,0.020790063938482636,-0.08371894848908688, ,0.0003638490577490488, ,0.0018474669991644824,0.000430247560935621,-0.004850527385232062,0.0017158055266511462,-0.0018913849954646225,-0.008116853319201077, ,0.005208249532384086, ,0.002553688140974177, ,3.810674783196351e-05, ,0.1352327753605454,-0.22175055175048258,0.09342362030000001,3.018486736459728,0.20768747964346948,-0.08130553174703443, ,0.013839425631977653,0.009111686706013882,0.005026447308299148,0.012504796107850954,0.010851704881662193,0.008756124222657072, ,1.1982159614562988
0.011141915571414134,0.020895242512178076,-0.08350761860278844, ,0.01137947135505337,0.020796553897575964,-0.08378457761833727, ,0.00037799271062589966, ,0.0018556634511691671,0.00040703841293963385,-0.005018163288003036,0.0052867954506282955,-0.02354372000498045,-0.01776415343967324, ,0.005365736659460183, ,0.02413000113194209, ,3.8269864365397754e-05, ,0.13537178455228144,-0.22165787895599187,0.09347547190000001,3.018486736459728,0.20768747964346948,-0.08106049552661278, ,0.013650308049262193,0.009785918334287453,0.005183472671656362,0.012504796107850954,0.010851704881662193,-0.015457112558388974, ,1.2097911834716797
0.011163171462500615,0.020899650301870305,-0.08356429683211092, ,0.011404365748753389,0.02080297955537891,-0.08385005380788076, ,0.00038623434097619086, ,0.001938723877672954,0.0006104179617142391,-0.005304933647157418,-0.00021165189599935434,-0.010810628645065257,0.015461151241199112, ,0.005680984189608833, ,0.010812700126477658, ,3.844162821215887e-05, ,0.13552623920976592,-0.22155748342862697,0.09353380495000001,3.0186964264032126,0.20768747964346948,-0.08089713804633163, ,0.014708143452955793,0.008168597659147665,0.005519338711018712,-0.012875332652479513,0.010851704881662193,0.006018470969714284, ,1.2230570316314697
0.011189300869517447,0.020906380414912523,-0.0836316236566532, ,0.011429247074872159,0.020809341132009725,-0.08391537744176973, ,0.00038406641933182606, ,0.0019863849280840943,0.0004213793818276014,-0.0050267613722287195,-0.006692345872311876,-0.005392748898034195,0.017638792966795155, ,0.005421403467671431, ,0.008594721097416106, ,3.860682220906506e-05, ,0.13572703026449576,-0.2214416424355136,0.09360380461000001,3.0186964264032126,0.20782411614323493,-0.08100855595002802, ,0.015633763024459766,0.009164482489122506,0.005205493960784314,-0.012875332652479513,0.0066030575683686645,0.013612293629642988, ,1.2345349788665771
0.011227634370171753,0.0209155112952739,-0.08373308074615324, ,0.011454115366814725,0.020815638847297094,-0.08398054890353457, ,0.00035001233781537617, ,0.0019825182549199185,0.00047554267588185506,-0.005498397289536941,-0.005583479731990658,-0.0002493259283406061,-0.008244393384276683, ,0.005864204312714792, ,0.005589043237494076, ,3.8720285341855845e-05, ,0.13602049411371628,-0.22126401957940642,0.09370880410000001,3.018486736459728,0.20796075264300035,-0.08095661637344334, ,0.01419975184175831,0.009553863934593992,0.005668616199288257,0.012726359576783546,0.0043535566855470754,0.011790571036869786, ,1.2467601299285889
0.011242548630486994,0.020919024692822506,-0.08377465560055472, ,0.011478970657939559,0.020821872920780752,-0.08404556857618461, ,0.0003724616520398816, ,0.001900673476691699,0.0005042386654626851,-0.005391550341874782,-0.0037873490130540992,-0.008181240502423373,-0.010759992893245286, ,0.005738957343082189, ,0.009015359346655904, ,3.886312992586555e-05, ,0.13612861237395543,-0.2211945149835384,0.09375158167000001,3.018486736459728,0.20796075264300035,-0.08087493763330275, ,0.013418685175123131,0.008890483322669363,0.005561735865921788,0.011556912207555576,0.004004183502413034,0.002463335350884537, ,1.2588961124420166
0.011268179724469706,0.020926089095724777,-0.08384623190068329, ,0.011503812981559015,0.020828043571711235,-0.08411043684220787, ,0.0003673420854620602, ,0.002139922128306205,0.0006368087031118465,-0.006041036876934289,-0.005785992924800917,-0.0042727713823836316,-0.006708984148696385, ,0.006440412920617243, ,0.007192654681435873, ,3.899604509459777e-05, ,0.13631395796293683,-0.22108639672329927,0.09382547020000001,3.018486736459728,0.20796075264300035,-0.0806299014128811, ,0.015181081676287116,0.009039866587941661,0.00624904335817968,0.010007434516984456,0.0035267674653273024,0.009190633116509837, ,1.2704331874847412
0.011290079323205391,0.020933071901251276,-0.08391159106137851, ,0.011528642370939491,0.02083415101905012,-0.08417515408357129, ,0.0003690028934128175, ,0.002180058894226386,0.0007865879628322294,-0.006720331465864792,-0.009368449627245869,0.005519279150305761,0.006482242902425375, ,0.007108743378168926, ,0.01087337468543663, ,3.912868401414284e-05, ,0.1364606898875471,-0.22099372392880856,0.09389287728000001,3.0186964264032126,0.20796075264300035,-0.08046654393259994, ,0.014721833937088235,0.009003434373235808,0.006943684184829993,0.0014010272231231666,0.003227146466448545,0.02166703680082207, ,1.2815980911254883
0.01131076595612842,0.02094125038747837,-0.08397387869792122, ,0.011553458859300926,0.020840195481470272,-0.08423972068172142, ,0.00037387685088733334, ,0.002113663469521453,0.0006370859249755535,-0.00617739070218616,-0.011823671665003496,0.006877694897102948,0.0006484197043224948, ,0.006560000581223103, ,0.013678519281849976, ,3.931923846181747e-05, ,0.13659969907928313,-0.2209087738671921,0.09395769178,3.018906116346697,0.2080973891427658,-0.08041460435601529, ,0.014628787044623214,0.00897693571959348,0.006371524608000002,0.007084033201976379,0.0,0.0221172043438998, ,1.2919330596923828
0.011330589280049479,0.02094786427682274,-0.08403262905380526, ,0.011578262479817386,0.020846177177356002,-0.08430413701758427, ,0.00038131201722035115, ,0.0018739115318148571,0.00047618591822547055,-0.005417871690528787,-0.008927181975625968,0.016727151370069835,0.004763751699187122, ,0.0057525325825081765, ,0.018960278645500796, ,3.951678817166726e-05, ,0.13673870827101917,-0.22081610107270142,0.09401861741,3.018906116346697,0.20823402564253127,-0.08036266477943055, ,0.013089233318409764,0.009279144220095742,0.005579268483362522,0.007084033201976379,0.004795935249908951,0.030694458786282137, ,1.3059701919555664
0.01134859132530713,0.020952615023633707,-0.08407996364032426, ,0.011603053265616715,0.020852096324802945,-0.08436840347156593, ,0.00039755807642088395, ,0.0019045741612127012,0.00039491785933479,-0.0048893240442558356,-0.0004613985359408657,0.0017328755715935447,-0.002761585053158151, ,0.005262019808107803, ,0.0017932494420688158, ,3.973303796599459e-05, ,0.13686999472988098,-0.22073115101108493,0.09406787643,3.0191158062901815,0.2083706621422967,-0.08031072520284588, ,0.014308947762133713,0.009444786742581318,0.005064804934817171,0.009059746697167963,0.010387187857754443,0.014209887277325821, ,1.315721035003662
0.011369121793170067,0.020956012191968115,-0.08413291961916412, ,0.011627831249780627,0.020857953141618715,-0.08443252042355281, ,0.00040780731024039776, ,0.0020335875219525917,0.0005116384525383508,-0.005536741304032521,-0.005231658061876733,0.021309828622352728,0.005874159402268358, ,0.005920536832360462, ,0.02194263058038474, ,3.9959520696535275e-05, ,0.13702444938736547,-0.22063075548372002,0.09412232061,3.0191158062901815,0.2083706621422967,-0.07998401024228363, ,0.014628787044623214,0.009683283229306127,0.005604789415904294,0.009059746697167963,0.009844229702863031,0.03659915100072837, ,1.3252489566802979
0.011391357169836459,0.020961099868665355,-0.0841933028815151, ,0.011652596465345003,0.020863747845322536,-0.08449648825291187, ,0.0004118795399091099, ,0.00224652844539919,0.0005829809258024914,-0.006132454795804412,-0.003827120543262966,0.004398780201877801,-0.0009523012032099573, ,0.006556962607672989, ,0.005830618341483943, ,4.018779976249005e-05, ,0.1371866267777242,-0.2205303599563551,0.09418454253000001,3.0191158062901815,0.2083706621422967,-0.07982065276200251, ,0.016238354133893015,0.010362565681358004,0.006348669398166602,0.008964367395247475,0.0088418873645872,0.019530822585415178, ,1.3350350856781006
0.01141406555205892,0.020969087431071256,-0.08425804476889624, ,0.011677348945299424,0.020869480653145717,-0.08456030733849074, ,0.0004130403325860658, ,0.002291971833338606,0.0007763724349906112,-0.006455604901219054,-0.013302654030896598,0.029228848529709483,0.01033395728902714, ,0.0068942529459887275, ,0.03211364475462709, ,4.0414001780925745e-05, ,0.1373488041680829,-0.2204376871618644,0.09425194961000001,3.0191158062901815,0.20850729864206213,-0.07960535570513666, ,0.0161581715577168,0.00835029340750452,0.006701224871687001,0.008100307213922114,0.0023463270725719164,0.0480309333721903, ,1.346196174621582
0.011433606102707616,0.020975736430745944,-0.0843141169570019, ,0.011702088722587805,0.020875151782031583,-0.08462397805861852, ,0.0004221541081522034, ,0.002284802845498171,0.00081462318835653,-0.006888015819018854,0.001548595934891854,-0.0033384618997919398,-0.0026521067024793997, ,0.007302649991945299, ,0.0036801442527386, ,4.0648558043937036e-05, ,0.13748781335981894,-0.22035273710024794,0.09431028266000001,3.0191158062901815,0.20864393514182755,-0.07955341612855196, ,0.015498438928380006,0.009997458183375838,0.007142964807174889,0.0075027371912901805,0.012458139349300757,0.01001386167539047, ,1.3589701652526855
0.011467080619651331,0.020989418799830937,-0.08441614400219227, ,0.011726815830107753,0.02088076144863593,-0.08468750079110539, ,0.0003910285237790125, ,0.002235003855849736,0.0008594242160727952,-0.006851373911430624,-0.003564664415426049,0.011323950845583294,0.007134947954617791, ,0.007257766646363583, ,0.011871759770601472, ,4.083915024020049e-05, ,0.13771177261317147,-0.2202137279085119,0.09441657844000001,3.0193254962336664,0.20891720814135845,-0.07920450075496085, ,0.014984516273246611,0.00909493899492574,0.007107903400267739,0.003953008290291218,0.009827153488191407,0.026906821878502733, ,1.368990182876587
0.011490271504409235,0.020996752704123,-0.08448097191263663, ,0.011751530300711336,0.02088630986932675,-0.08475087591324351, ,0.00039153792657500137, ,0.0021816039947098204,0.0005376304982254157,-0.005564976156506475,0.015792878554312516,-0.03241634073055441,-0.019980603667625774, ,0.006001450005193872, ,0.03605875974092048, ,4.102745747044959e-05, ,0.13786622727065595,-0.2201210551140212,0.09448009665000001,3.019535186177151,0.20905384464112386,-0.07915256117837616, ,0.016406801790883607,0.010473731648158171,0.005979283603603605,0.013006857960884737,0.020830113422304918,-0.024217607706764684, ,1.378587007522583
0.011510027826235098,0.02099931949997915,-0.08452748439717378, ,0.011776232167204182,0.02089179726018487,-0.08481410380180707, ,0.0004056802513230128, ,0.002078384879695552,0.00042106047800688105,-0.004601050605024151,0.010728608793934278,-0.00733420296768787,-0.007677160357289663, ,0.005066225646798569, ,0.012995906192433931, ,4.123092112669999e-05, ,0.13802840466101465,-0.2200206595866563,0.09453194825000001,3.019535186177151,0.20905384464112386,-0.07890752495795447, ,0.016698388449493364,0.009355487131628688,0.004834237183611533,0.011923316216434386,0.019656268971749134,0.004905892583454006, ,1.388965129852295
0.011525377173214538,0.02100102666151822,-0.08456133810291305, ,0.011800921462346592,0.020897223837003633,-0.08487718483305218, ,0.00043180879864828184, ,0.0022189282236321746,0.00034878888246710595,-0.004609362998134849,0.005787548583150262,-0.0021937673265484898,-0.0043581658915976314, ,0.005127526050127758, ,0.006189372472608175, ,4.146436830630516e-05, ,0.13815196838700225,-0.21995115499078827,0.09456694808,3.019535186177151,0.20905384464112386,-0.07882584621781391, ,0.018281052120684028,0.009921177666659963,0.004838642624544351,0.011182624975664612,0.016717060727607203,0.012924022078768355, ,1.399691104888916
0.011557234340529968,0.021004143780037867,-0.0846276084341841, ,0.011825598218852625,0.020902589815289373,-0.0849401193827179, ,0.0004242587322589934, ,0.0020924089120465967,0.0003780453465101355,-0.004301272825709278,0.005634506196601579,-0.013578507843636832,-0.008666794573550388, ,0.004798128933283793, ,0.014701140563472858, ,4.168481117366843e-05, ,0.13841454130472589,-0.21981214579905223,0.09463565145000001,3.019535186177151,0.20905384464112386,-0.07849913125725166, ,0.017260265834570892,0.008393175229206934,0.004526516487638534,0.009935616171361896,0.012871864337156085,-1.5737091470850034e-05, ,1.410290002822876
0.011579282341581567,0.021006916780402708,-0.08467778687806957, ,0.01185026246939069,0.02090789541026136,-0.08500290782602615, ,0.00043467124613011637, ,0.0023309782136277995,0.00046495158673205087,-0.0057945387652555596,-0.0024082047397227134,-0.0034568239409091977,0.005668045595827822, ,0.006263091801375861, ,0.004212965142763602, ,4.191493882839175e-05, ,0.13858444142795884,-0.2197117502716873,0.09468750305000001,3.019744876120635,0.20905384464112386,-0.07849913125725166, ,0.01778095213761866,0.010966605816494333,0.006013141381653455,0.0002937964425025971,0.011151790840081688,0.01433643937189977, ,1.4203200340270996
0.011603907287594376,0.021013529688837747,-0.08474257916182189, ,0.011874914246583226,0.020913140836852223,-0.0850655505376819, ,0.00043339728085010773, ,0.0023970179867256413,0.0006720394087008251,-0.006707793884597755,-0.01153741980515331,0.0016095744585345908,-0.003778921542946314, ,0.007154846678565534, ,0.011649153279013417, ,4.2140072055965706e-05, ,0.13876206428406598,-0.21960363201144817,0.09475491013000001,3.01995456606412,0.2091904811408893,-0.07852887042080753, ,0.016692513906503215,0.009822843259528848,0.00693159770234987,0.009802505215542842,0.0,0.01791489748924578, ,1.4307160377502441
0.011653212739121444,0.02102893872332988,-0.08487857910146338, ,0.01189955358300699,0.020918326309707778,-0.08512804789187366, ,0.00036763241805139917, ,0.002628695373164579,0.0008222201299923977,-0.0072897117289644564,-0.006176105570003278,0.0008709508847386013,-0.008279252953215728, ,0.007792687751890457, ,0.006237212107216634, ,4.228109415143942e-05, ,0.13910958726340608,-0.21941056368959255,0.09489620574,3.0201642560076043,0.2093271176406548,-0.07823189462380115, ,0.018323410225617065,0.010138730928691315,0.007567131363420429,0.01488413452639074,0.0049287646552018585,0.017033420143658124, ,1.4457030296325684
0.011680276545233716,0.021037201266069443,-0.08495069737826699, ,0.01192418051119315,0.020923452043187248,-0.08519040026227385, ,0.00036039631368571366, ,0.002331904333559471,0.0006223838359080969,-0.005995241399276036,-0.005561551679346343,-0.023579120618363498,0.003537720451443087, ,0.006462821279879741, ,0.024226138331813463, ,4.241122799141147e-05, ,0.1393026555852617,-0.2193024454293534,0.09497139056000001,3.0203739459510888,0.2094637541404202,-0.07809827630707589, ,0.017409088526595264,0.008839754050034202,0.006231929389671363,-0.006688398524946008,0.003179515967042562,-0.0056402971476229545, ,1.4558780193328857
0.011702192530011934,0.021040812163044934,-0.08500201417750179, ,0.011948795063626767,0.020928518251363645,-0.08525260802203855, ,0.00036907994676716116, ,0.002305312093311742,0.00025562435803045866,-0.005021294847807711,-0.011867469210739355,-0.0015174627071018552,0.013455826667417112, ,0.005531112872524671, ,0.011964092750525457, ,4.254998414010238e-05, ,0.13947255570849465,-0.21920977263486272,0.09502453845000002,3.0203739459510888,0.2094637541404202,-0.07801659756693533, ,0.018654794880768776,0.010480181514598808,0.005203793374714146,-0.006688398524946008,0.0030107257494496357,0.020206326571113015, ,1.4658019542694092
0.011725572656469344,0.02104364583924003,-0.08505038227082852, ,0.011973397272747476,0.020933525148023734,-0.08531467154380853, ,0.00037867192512736265, ,0.0021217088548759755,0.00010452323939901908,-0.0045084849768385095,-0.012620421933618658,0.002978124239385934,0.014819862824103438, ,0.004983875034429748, ,0.012967045612052003, ,4.269826781833164e-05, ,0.13966562403035027,-0.21910165437462356,0.09507509376,3.0203739459510888,0.20960039064018565,-0.07796465799035063, ,0.017348618200817328,0.010849607892886326,0.004650747889051096,-0.006688398524946008,0.00324327849733564,0.02370935742613724, ,1.4760160446166992
0.011746272395571206,0.02104600554598417,-0.08509384527452474, ,0.011997987170949222,0.020938472946668098,-0.08537659119970899, ,0.00039353379304396855, ,0.0022185890199954085,0.00025633202874784347,-0.004496620157783489,-0.004488042974031312,0.007339253039880797,0.018315586030581345, ,0.005020700767023562, ,0.008602741602639791, ,4.286216302851538e-05, ,0.1398355241535832,-0.21900125884725866,0.09512046391000001,3.0203739459510888,0.2097370271399511,-0.07783103967362537, ,0.018570830050581365,0.01000241066019668,0.004702926341895483,-0.006688398524946008,0.011602732566600951,0.028802332897461543, ,1.487598180770874
0.01176956634313801,0.021048775287596265,-0.08514786259253064, ,0.012022564790580205,0.020943361860511475,-0.08543836736135016, ,0.0003993910686592824, ,0.002332501511923552,0.0005196376635667693,-0.0058013356424844184,0.00019576332828468432,-0.0016593510074043197,-0.006910482553636382, ,0.0062742395428675565, ,0.0016708568087500106, ,4.303066787506537e-05, ,0.14002086974256459,-0.2188931405870195,0.09517620438,3.0201642560076043,0.2097370271399511,-0.07758600345320368, ,0.01731064238571156,0.010299809295503415,0.0060359270632815475,0.012772168479793842,0.011128904946835074,0.01281088642424958, ,1.497636079788208
0.011793699467883912,0.0210550578725636,-0.08521436120474647, ,0.012047130163942968,0.02094819210248287,-0.08550000039982746, ,0.0003965314114751028, ,0.002447849394755755,0.000756546274177608,-0.007035379037746759,-0.005633838197039039,0.0199748540551843,0.0032303079444979087, ,0.007487381860780486, ,0.020754154044920464, ,4.3193429527094446e-05, ,0.14019076986579754,-0.2187927450596546,0.09524490775000001,3.0201642560076043,0.2097370271399511,-0.07725928849264144, ,0.01661651927131339,0.010577759435708484,0.007293411868131869,0.011641058643186302,0.00984189768048551,0.03645337297965574, ,1.507444143295288
0.011817945224047173,0.021062009861390247,-0.08528447391234277, ,0.012071683323294578,0.020952963885225565,-0.0855614906857218, ,0.0003911679187519406, ,0.002281162363984325,0.0005598156652049445,-0.006526059591857679,-0.011795832100811275,0.012245781146340536,0.006554937160590831, ,0.006935888487161902, ,0.017002964417925197, ,4.334764371119418e-05, ,0.14035294725615624,-0.21867690406654122,0.09531749999000001,3.0203739459510888,0.20987366363971652,-0.07720734891605671, ,0.01558242061715448,0.01078688783390407,0.006723854588433939,0.004207064822816705,0.0035223464602270747,0.029360531091762412, ,1.5173799991607666
0.011840734021172696,0.02106876530334112,-0.08534516232990814, ,0.0120962243008464,0.020957677421097463,-0.08562283858909975, ,0.0003933445124922562, ,0.0024229115067643503,0.0006167178129798533,-0.006579607306466205,0.005788363548775483,-0.018051202012114197,-0.012350802394322964, ,0.007038613026567182, ,0.01895655649963631, ,4.355276135804236e-05, ,0.14051512464651494,-0.21856878580630207,0.09538101820000001,3.0205836358945732,0.2101469366392474,-0.07718514850302788, ,0.017086233625940004,0.011475209184384667,0.006827608881268754,0.01132367323754477,0.01490849799497348,-0.005736387094315957, ,1.528623104095459
0.011866673122489818,0.021074457735706542,-0.08541264898664004, ,0.012120753128764417,0.020962332922171045,-0.08568404447951432, ,0.0003883093315275105, ,0.0024405905749445627,0.000586714812372823,-0.006183221266419033,-0.0004388978556334616,0.010239508199021058,-0.002852281782007673, ,0.0066733006717113, ,0.010248909719939277, ,4.3749696144113143e-05, ,0.14070047023549634,-0.21844522208031447,0.09545101786000001,3.0207933258380577,0.21028357313901283,-0.07705153018630258, ,0.01781767584650221,0.010649286438056127,0.006438484850444625,0.014201504872092789,0.012971752891521906,0.02598615015645712, ,1.5375339984893799
0.011890670722418633,0.021079278612627612,-0.0854727769687079, ,0.012145269839168872,0.02096693060023369,-0.08574510872600467, ,0.00038936791363851754, ,0.002280578898877196,0.0005470818823695427,-0.005609798040445796,0.0032588507136726112,-0.002716706971335856,-0.008764692534701775, ,0.006080310251509409, ,0.004242711301331177, ,4.394558527490299e-05, ,0.14086264762585507,-0.2183525492858238,0.09550935091000001,3.0207933258380577,0.21028357313901283,-0.07688817270602145, ,0.01668957818474688,0.009275023280125014,0.005877790228782289,0.014201504872092789,0.012971752891521906,0.011475086666289078, ,1.5462381839752197
0.011914690314871577,0.0210840870801218,-0.0855329009368245, ,0.012169774464134779,0.020971470666787697,-0.0858060316970963, ,0.0003903213957294942, ,0.002688741552415572,0.0006174171805068979,-0.006823010578888754,-0.004654497336212459,0.023005039857055713,0.003271988823798827, ,0.007359620130828699, ,0.023471177846254875, ,4.4140326678276255e-05, ,0.14105571594771066,-0.21824443102558463,0.0955754617,3.0207933258380577,0.21028357313901283,-0.07656145774545921, ,0.01956637970277748,0.01189398468587488,0.0070952389844098004,0.014201504872092789,0.012799291599217834,0.04208935032223085, ,1.5548760890960693
0.011914690314871577,0.0210840870801218,-0.0855329009368245, ,0.012194267035691379,0.020975953333050565,-0.08586681376080228, ,0.0004487246640166275, ,0.002688741552415572,0.0006174171805068979,-0.006823010578888754,-0.004654497336212459,0.023005039857055713,0.003271988823798827, ,0.007359620130828699, ,0.023471177846254875, ,4.4399149641528525e-05, ,0.1412256160709436,-0.2181285900324713,0.09564675765000001,3.0207933258380577,0.21042020963877828,-0.07650951816887452, ,0.016760321716437793,0.010227222896174976,0.006883669628349179,0.014201504872092789,0.008702248021530846,0.014015162879442903, ,1.5631461143493652
0.01193914620756547,0.021090634332797273,-0.08560171740990588, ,0.012218747585822675,0.020980378809955052,-0.08592745528462259, ,0.00044321368894191277, ,0.0024236362048367342,0.0006803860993078227,-0.006631470819260175,-0.0021048437528963884,-1.2948403363559607e-05,-0.008213689844384402, ,0.0070931898976571844, ,0.002104880533544507, ,4.4648831290212803e-05, ,0.1412256160709436,-0.2181285900324713,0.09564675765000001,3.0207933258380577,0.21042020963877828,-0.07650951816887452, ,0.016760321716437793,0.010227222896174976,0.006883669628349179,0.014201504872092789,0.008702248021530846,0.014015162879442903, ,1.5726840496063232
0.011963045185962489,0.021097660083130364,-0.0856664490122965, ,0.01224321614646726,0.020984747308149185,-0.08598795663554466, ,0.0004411487432497085, ,0.0024458206826653305,0.0006960029548617555,-0.006853915918225274,0.0013396674016377948,-0.0037065775804507443,-0.008031663508111495, ,0.007310446110808259, ,0.003941244851815737, ,4.4893393116024974e-05, ,0.14139551619417653,-0.21802819450510635,0.09571416473000001,3.0207933258380577,0.21055684613854375,-0.07645757859228984, ,0.01670132727181816,0.010944669018999398,0.007111076571428573,0.012789731307872592,0.012374581475086301,0.009718975648073608, ,1.5813121795654297
0.01199177629117439,0.02110732277678564,-0.08575544377480669, ,0.012267672749518168,0.020989059037996867,-0.08604831818004413, ,0.00041938119280926717, ,0.0025380956540329205,0.0008638564863768881,-0.008010276267295809,-0.005030298960037334,0.00704881212486117,-0.002635630289641481, ,0.008447052945050049, ,0.008659655132852762, ,4.51109313160575e-05, ,0.14158086178315793,-0.21789690804624454,0.09580620132,3.0207933258380577,0.21069348263830917,-0.076242281535424, ,0.01582670806512188,0.011533448154149483,0.008270410965732087,0.011295008259614199,0.008778482902646056,0.021494605943567224, ,1.5893821716308594
0.012018168531624594,0.021114704249981197,-0.08583344330143117, ,0.012292117426823207,0.020993314209577424,-0.08610854028408417, ,0.0004067700689020234, ,0.0026690373041573304,0.0007449820986569614,-0.007390713583920316,-0.006378777599152115,0.0007734766928783809,0.0018507717753518252, ,0.007893123953026902, ,0.006425499809562641, ,4.531205829976642e-05, ,0.14175076190639088,-0.21778106705313116,0.09588657130000001,3.0210030157815426,0.21069348263830917,-0.07607892405514288, ,0.01841228978627683,0.011226064056269372,0.007661766002886004,0.005446012372520193,0.007459710519270239,0.018980285691330697, ,1.5976049900054932
0.012044905536099548,0.02112161996524048,-0.08590048604439497, ,0.012316550210184863,0.020997513032686203,-0.08616862331311685, ,0.0004013613764982601, ,0.002617321039487019,0.00048631974930029784,-0.006588908930468461,-0.014442191456943672,0.01946640575995142,0.000970034339877069, ,0.0071063772216445106, ,0.024238767189600073, ,4.550499547967749e-05, ,0.1419438302282465,-0.21767294879289203,0.09595657096000001,3.021212705725027,0.21083011913807462,-0.07586362699827703, ,0.018854945670270372,0.011581271852388428,0.006813007493584261,0.013496998837904983,0.002011510099469638,0.03896252565216365, ,1.6059801578521729
0.012057883297484313,0.021124706765318146,-0.08593268300230109, ,0.01234097113136014,0.0210016557168346,-0.08622856763208303, ,0.0004275839056402927, ,0.0027300915313948097,0.0005826107998202611,-0.006715736960854237,0.003926345999838551,-0.009477027359874941,-0.003392770256182876, ,0.007272823251065886, ,0.010258178533721764, ,4.5724599133071454e-05, ,0.14203650302273718,-0.21761116692989824,0.09599027450000001,3.021422395668511,0.21096675563784006,-0.0758933661618329, ,0.02022526461177979,0.012305101343162705,0.006998599086115994,0.007790865733263322,0.01675511422236578,0.007870995623706424, ,1.6173210144042969
0.012099602182450235,0.021132567935420586,-0.08603215604041876, ,0.012365380222060851,0.021005742471250033,-0.08628837360541193, ,0.00039034613525993326, ,0.002584286924836366,0.0005217143570992876,-0.005885709269270251,-0.000647696365436609,0.015508253605840244,0.008135937083350885, ,0.006449209128463542, ,0.015521772882688958, ,4.590115277891707e-05, ,0.1423531350705804,-0.21741809860804262,0.09609397770000001,3.021422395668511,0.21124002863737093,-0.07570780826852294, ,0.019869543877401755,0.010791488125631006,0.006164400743034057,0.0071153685585221334,0.015575042605630057,0.03547346078588726, ,1.6261370182037354
0.012124346877203047,0.021135639245315436,-0.0860912239663453, ,0.012389777513953796,0.02100977350487642,-0.08634804159702279, ,0.0003901934173829284, ,0.0025381559348737655,0.0003571693871428721,-0.0060023093022772015,0.00037080979539688013,-5.136971107025682e-05,0.0014144375356024046, ,0.0065266777521990746, ,0.00037434070123607395, ,4.607562362961017e-05, ,0.1425384806595618,-0.21730225761492925,0.09615490333000001,3.021422395668511,0.21124002863737093,-0.0753810933079607, ,0.019140165703604432,0.012834317224570027,0.006231929389671363,0.0064853459907185315,0.015575042605630057,0.017577872339417863, ,1.6346189975738525
0.012124346877203047,0.021135639245315436,-0.0860912239663453, ,0.012414163038659947,0.021013749026374085,-0.08640757197032353, ,0.0004460119869871118, ,0.0025381559348737655,0.0003571693871428721,-0.0060023093022772015,0.00037080979539688013,-5.136971107025682e-05,0.0014144375356024046, ,0.0065266777521990746, ,0.00037434070123607395, ,4.630848957868042e-05, ,0.1425384806595618,-0.21730225761492925,0.09615490333000001,3.021422395668511,0.21124002863737093,-0.0753810933079607, ,0.019140165703604432,0.012834317224570027,0.006231929389671363,0.0064853459907185315,0.015575042605630057,0.017577872339417863, ,1.6427171230316162
0.01215219110447088,0.021137969208449865,-0.08615382866840446, ,0.012438536827755683,0.021017669244119963,-0.08646696508821303, ,0.0004410446372781343, ,0.0025186602638240818,0.00023407802799533086,-0.005362908121027996,-0.0015784248393628684,0.009056600162754657,0.006367807931006476, ,0.005929521528955317, ,0.009193118461404743, ,4.65335187831753e-05, ,0.14275471718004007,-0.21715552569031898,0.09621971783000001,3.021422395668511,0.21137666513713638,-0.07508411751095427, ,0.019944712391439846,0.012612565332066823,0.005585137279102384,0.005899347749072555,0.015433605520217374,0.028718038520600838, ,1.6510701179504395
0.012175757299767682,0.021141791942220045,-0.08620833955794185, ,0.01246289891277181,0.02102153436620771,-0.08652622131307951, ,0.00044492808492650716, ,0.0026714186351843826,0.0003326671210991481,-0.0065027932162868415,-0.005896728651440249,-0.005513877750497746,0.005393882337270041, ,0.007038001460049362, ,0.008073056732631848, ,4.676029281203282e-05, ,0.14293234003614722,-0.2170319619643314,0.09627675459000001,3.021632085611996,0.21164993813666727,-0.07522527457820657, ,0.019857070842952664,0.013785145490771467,0.006718182842682413,0.00010229055688008908,0.010489717216184044,0.014507546089295179, ,1.66212797164917
0.012191186831203729,0.021143833007515343,-0.08624471883457367, ,0.012487249325194238,0.02102534460044793,-0.08658534100680161, ,0.00046660043631627007, ,0.00289433800395457,0.000516541904862318,-0.007293636663315034,-0.008654041638451794,0.006319752715676363,0.011052532051210828, ,0.007863914025284595, ,0.010715954947032796, ,4.7007688106672674e-05, ,0.1430481810292606,-0.21696245736846337,0.09631434700000001,3.021632085611996,0.21164993813666727,-0.07506191709792545, ,0.02107415979535216,0.013695618640275764,0.007552779288762448,0.00010229055688008908,0.010172541976094462,0.02900585303856121, ,1.6704251766204834
0.012235549208301598,0.0211534946035544,-0.08635545680945914, ,0.012511588096463354,0.02102910015436841,-0.08664432453074966, ,0.00041846864538391007, ,0.0027504693916956193,0.0004710076086559085,-0.006608263103442782,0.00880387555601143,-0.01011178729464835,-0.00957473831128525, ,0.007173288735746628, ,0.013407328387715054, ,4.7201588957466066e-05, ,0.1433648130771038,-0.21676166631373353,0.09642971681000001,3.022051465498965,0.21192321113619814,-0.07479468046447493, ,0.020351049015327208,0.01366013265560253,0.006883669628349179,0.013789297257264837,0.02177295852168021,0.005248442016639262, ,1.678380012512207
0.012263020426469741,0.021156028301886183,-0.08641938724229332, ,0.012535915257974891,0.021032801235214033,-0.08670317224578362, ,0.0004125414248640209, ,0.0028620022986109665,0.0002755820247921964,-0.006682155539004525,-0.008818391095274433,0.020785447371900263,0.004484172870090752, ,0.0072744900341599125, ,0.022578725177406223, ,4.738721827405565e-05, ,0.14357332686470786,-0.21661493438912327,0.09649582760000001,3.022051465498965,0.21205984763596358,-0.07449770466746855, ,0.021373185035691616,0.015005841486159199,0.006907550529054641,0.012379764964803225,0.011926713704453147,0.04221625094422508, ,1.6864509582519531
0.012263020426469741,0.021156028301886183,-0.08641938724229332, ,0.012560230841079215,0.02103644804994707,-0.08676188451225578, ,0.00046897531612856804, ,0.0028620022986109665,0.0002755820247921964,-0.006682155539004525,-0.008818391095274433,0.020785447371900263,0.004484172870090752, ,0.0072744900341599125, ,0.022578725177406223, ,4.762993712840533e-05, ,0.14376639518656348,-0.21647592519738723,0.09656193839,3.022051465498965,0.212196484135729,-0.07444576509088383, ,0.020255483790495365,0.01411316798906466,0.007313503911845732,0.011059423524760737,0.011105373602570762,0.011049277095209996, ,1.6951141357421875
0.012289160006129821,0.021159217273117117,-0.08648334051385792, ,0.012584534877081686,0.021040040805247358,-0.08682046169000963, ,0.0004637887798272591, ,0.0028210269712769754,0.0004317716614210161,-0.007072443107412945,-0.003478914112713069,-0.006612287009812354,-0.00650616471587849, ,0.007626537317018208, ,0.0074716240007711805, ,4.786473327219849e-05, ,0.14376639518656348,-0.21647592519738723,0.09656193839,3.022051465498965,0.212196484135729,-0.07444576509088383, ,0.020255483790495365,0.01411316798906466,0.007313503911845732,0.011059423524760737,0.011105373602570762,0.011049277095209996, ,1.7040801048278809
0.01233307946809452,0.021168958432357367,-0.08659543766060464, ,0.012608827397242756,0.02104357970751235,-0.08687890413838081, ,0.0004148614095045884, ,0.003031374460651044,0.0006348658471042076,-0.00801358513352588,-0.005976619756519611,0.013979330025126892,0.004738656413510543, ,0.00859126489271363, ,0.015203342350228936, ,4.809623842910605e-05, ,0.1440830272344067,-0.2162751341426574,0.09667860449000001,3.022051465498965,0.2124697571352599,-0.07417852845743328, ,0.021097585940077986,0.014380503342699013,0.008300579218342888,0.009466427854531776,0.013308639872262665,0.03489106787251663, ,1.710827112197876
0.01233307946809452,0.021168958432357367,-0.08659543766060464, ,0.012633108432777663,0.02104706496285739,-0.0869372122161968, ,0.000470834625325919, ,0.003031374460651044,0.0006348658471042076,-0.00801358513352588,-0.005976619756519611,0.013979330025126892,0.004738656413510543, ,0.00859126489271363, ,0.015203342350228936, ,4.838359619134495e-05, ,0.1440830272344067,-0.2162751341426574,0.09667860449000001,3.022051465498965,0.2124697571352599,-0.07417852845743328, ,0.021097585940077986,0.014380503342699013,0.008300579218342888,0.009466427854531776,0.013308639872262665,0.03489106787251663, ,1.7172610759735107
0.012362869981600778,0.02117335932048966,-0.08667362140924818, ,0.012657378014856807,0.021050496777115686,-0.08699538628177785, ,0.0004531697467954859, ,0.0030883095983621823,0.0004963256947563216,-0.007897223067526448,-0.0034390912617600442,-0.0069571061518695345,-0.0033070134248720656, ,0.008494123118302629, ,0.007760711565222231, ,4.865043623454135e-05, ,0.14429154102201075,-0.21612840221804713,0.09675897447000001,3.022051465498965,0.2124697571352599,-0.07385181349687103, ,0.02191109248637053,0.01560035205629965,0.008164434402870324,0.008619626409766847,0.013308639872262665,0.012800273351540646, ,1.7237310409545898
0.012394987066296558,0.021178663709548174,-0.08675638751021728, ,0.012681636174605736,0.02105387535583869,-0.0870534266929367, ,0.0004312448499247169, ,0.003227043295967017,0.0006728368028674045,-0.008661628581196222,-0.006657903079746102,0.008353245608445962,0.012867265865311284, ,0.009267703462883014, ,0.010681963155792765, ,4.889265026216321e-05, ,0.14451550027536325,-0.2159662248276884,0.09684452961000001,3.0222611554424494,0.21260639363502531,-0.07363651644000521, ,0.022423662939147163,0.015721825970588268,0.00891371657526581,0.0,0.017601562402008386,0.03179415236093678, ,1.7305150032043457
0.012394987066296558,0.021178663709548174,-0.08675638751021728, ,0.012705882943104785,0.021057200904295935,-0.08711133380697936, ,0.00048723334539131825, ,0.003227043295967017,0.0006728368028674045,-0.008661628581196222,-0.006657903079746102,0.008353245608445962,0.012867265865311284, ,0.009267703462883014, ,0.010681963155792765, ,4.9189961928159806e-05, ,0.14451550027536325,-0.2159662248276884,0.09684452961000001,3.0222611554424494,0.21260639363502531,-0.07363651644000521, ,0.022423662939147163,0.015721825970588268,0.00891371657526581,0.0,0.017601562402008386,0.03179415236093678, ,1.736997127532959
0.012428752098038474,0.021187838847788378,-0.08685118841766683, ,0.01273011835138965,0.021060473627475682,-0.08716910798070515, ,0.00045619772748963324, ,0.003295183138112023,0.0008910667232040472,-0.009660930634186281,-0.004158135296870362,0.009890005171577426,-0.002763841420936482, ,0.01024625846528665, ,0.010728569675544876, ,4.945335063859331e-05, ,0.14473945952871575,-0.2158040474373297,0.09694304765,3.022470845385934,0.21287966663455624,-0.07353263728683582, ,0.021135176293646054,0.01562089572978943,0.009986715686520379,0.014849963308612171,0.014576054986525883,0.028970686956419037, ,1.7451171875
0.012462047278944358,0.02119475032003674,-0.08694145989480888, ,0.012754342430450899,0.021063693730084442,-0.087226749570407, ,0.00042895510763603335, ,0.003298097859379765,0.0006984202314965012,-0.008754226924798932,-0.0021475305211255853,0.010939334954598999,0.0037947572392046064, ,0.009380923694428155, ,0.011148133708077636, ,4.968706318164858e-05, ,0.14496341878206828,-0.215641870046971,0.09703638053000001,3.022680535329419,0.21301630313432166,-0.07331734022997, ,0.02275706032577237,0.015890311714412388,0.009076245880341883,0.010128043999329272,0.0182204987270198,0.03258565551137825, ,1.753875970840454
0.012490520760367222,0.021200018413259674,-0.08701530779632125, ,0.012778555211234504,0.02106686141654766,-0.08728425893187165, ,0.0004159679602729444, ,0.002632951350394523,0.0003888120627100174,-0.0063362491654982795,0.007361772495686988,-0.008596260030666882,-0.004366326621596153, ,0.006872529455806705, ,0.011317745825910237, ,4.990581414594501e-05, ,0.14516420983679812,-0.21550286085523496,0.09711286164,3.022680535329419,0.2131529396340871,-0.07310204317310418, ,0.019268414529638737,0.013615056177685908,0.006590323342987175,0.009015517904797654,0.021224798356354484,0.006961316325733737, ,1.7607381343841553
0.012490520760367222,0.021200018413259674,-0.08701530779632125, ,0.012802756724641588,0.02106997689100952,-0.08734163642038041, ,0.00046999198479955924, ,0.002632951350394523,0.0003888120627100174,-0.0063362491654982795,0.007361772495686988,-0.008596260030666882,-0.004366326621596153, ,0.006872529455806705, ,0.011317745825910237, ,5.0176996420985905e-05, ,0.14516420983679812,-0.21550286085523496,0.09711286164,3.022680535329419,0.2131529396340871,-0.07310204317310418, ,0.019268414529638737,0.013615056177685908,0.006590323342987175,0.009015517904797654,0.021224798356354484,0.006961316325733737, ,1.7676329612731934
0.012519302740479878,0.021199777614290677,-0.08707697886443103, ,0.012826947001528255,0.021073040357333286,-0.08739888239070864, ,0.00046295702164137224, ,0.0030840572170631056,-5.25429946854946e-05,-0.006741620474652888,-0.007251102576260938,0.0009303892344621535,0.0010481314472380345, ,0.0074137450933161025, ,0.0073105470912386535, ,5.0438983469894424e-05, ,0.14538816909015062,-0.215332960732002,0.09717637985000001,3.022680535329419,0.21328957613385255,-0.07280506737609777, ,0.023582738955882403,0.018810097434781126,0.006928582653327534,0.0081413612842166,0.014597913487935836,0.02335157549070825, ,1.774096965789795
0.012549366004405657,0.021202851905708076,-0.08714817902763292, ,0.012851126072706052,0.02107605201910129,-0.08745599719712675, ,0.00044932101612843456, ,0.0031366057872270372,0.000422459974207041,-0.007349378948097134,0.001373171682856971,-0.006413077118632821,-0.0005944360689065166, ,0.008001883479344503, ,0.00655844014676728, ,5.0685316885067415e-05, ,0.14561212834350312,-0.21516306060876905,0.09725026838,3.022680535329419,0.21356284913338341,-0.0728645457032095, ,0.023196514680633287,0.015478215879704904,0.007639717755395685,0.0074162455599106674,0.018557511109475906,0.014454925580448507, ,1.780817985534668
0.012549366004405657,0.021202851905708076,-0.08714817902763292, ,0.012875293968941704,0.02107901207961535,-0.08751298119340016, ,0.0005046245740565547, ,0.0031366057872270372,0.000422459974207041,-0.007349378948097134,0.001373171682856971,-0.006413077118632821,-0.0005944360689065166, ,0.008001883479344503, ,0.00655844014676728, ,5.098450747626294e-05, ,0.14561212834350312,-0.21516306060876905,0.09725026838,3.022680535329419,0.21356284913338341,-0.0728645457032095, ,0.023196514680633287,0.015478215879704904,0.007639717755395685,0.0074162455599106674,0.018557511109475906,0.014454925580448507, ,1.7874431610107422
0.012583090629511738,0.021206739762062568,-0.0872215864666805, ,0.012899450720957134,0.021081920741896732,-0.08756983473278984, ,0.0004867651899043926, ,0.003443579874213578,0.00039266178797380067,-0.007745265934401449,0.0009601536835827211,-0.010241543349025458,0.006926064334754087, ,0.008485373888310587, ,0.010286451156409403, ,5.126370506757522e-05, ,0.14586697852835254,-0.21500860595128457,0.09732674949,3.022890225272903,0.21369948563314886,-0.07256756990620311, ,0.02613520836091181,0.017003573115655042,0.008061139433198382,0.0,0.020835303836315378,0.014934985868292519, ,1.7943711280822754
0.012618071986145615,0.021212005384952416,-0.08730793687575014, ,0.01292359635942976,0.0210847782086861,-0.08762655816805222, ,0.00045940333581681196, ,0.0035842631692581247,0.0008269274742357577,-0.009518487064582042,0.0030197037657315323,-0.006453006260781455,-0.010558935865655223, ,0.010204525834783403, ,0.007124592795419024, ,5.1513801936352515e-05, ,0.14611410598032773,-0.21483870582805165,0.09741619350000001,3.0230999152163878,0.21383612213291428,-0.07243395158947782, ,0.024345033750249045,0.016381312197215742,0.0098875304283054,0.01726143751235983,0.019498569402535654,0.013247297541160505, ,1.80134916305542
0.012618071986145615,0.021212005384952416,-0.08730793687575014, ,0.012947730914992185,0.021087584682444187,-0.08768315185143977, ,0.0005147249737118605, ,0.0035842631692581247,0.0008269274742357577,-0.009518487064582042,0.0030197037657315323,-0.006453006260781455,-0.010558935865655223, ,0.010204525834783403, ,0.007124592795419024, ,5.181612296080545e-05, ,0.14611410598032773,-0.21483870582805165,0.09741619350000001,3.0230999152163878,0.21383612213291428,-0.07243395158947782, ,0.024345033750249045,0.016381312197215742,0.0098875304283054,0.01726143751235983,0.019498569402535654,0.013247297541160505, ,1.8078081607818604
0.012657218775372995,0.021221382965789966,-0.08741287878798314, ,0.012971854418232379,0.02109034036535138,-0.08773961613470113, ,0.00047214938804107355, ,0.0037219382183005705,0.0008540481518657401,-0.010096524436479716,-0.009003149999436605,-0.004000407483116453,-0.005269701966225545, ,0.01079453695361611, ,0.009851896519098964, ,5.207454724977897e-05, ,0.14637667889805137,-0.2146688057048187,0.09752508186000002,3.0233096051598722,0.21397275863267975,-0.07221865453261203, ,0.024855144462669142,0.016406801790883607,0.010451976062992127,0.012298068816121272,0.008990752068549357,0.019048677677178702, ,1.8141629695892334
0.012692486065130614,0.02122986824046303,-0.08750891510903389, ,0.01299596689969377,0.02109304545930833,-0.08779595136908162, ,0.00043955762417713774, ,0.003486708875118342,0.0005641138270635147,-0.009205300534342866,-0.008651238555960273,0.014973960858265575,0.004492939782714797, ,0.009859661308446975, ,0.017293448650826375, ,5.229928916929114e-05, ,0.1466160836171523,-0.21449890558158577,0.09762489619,3.0233096051598722,0.21424603163221062,-0.07211477537944261, ,0.02373610344133836,0.017874729997828364,0.00950406415274463,0.010840625586714538,0.014509810478961124,0.03846790946169068, ,1.8211109638214111
0.012692486065130614,0.02122986824046303,-0.08750891510903389, ,0.013020068389875029,0.021095700165935777,-0.08785215790532323, ,0.0004930789682310902, ,0.003486708875118342,0.0005641138270635147,-0.009205300534342866,-0.008651238555960273,0.014973960858265575,0.004492939782714797, ,0.009859661308446975, ,0.017293448650826375, ,5.25741021524024e-05, ,0.1466160836171523,-0.21449890558158577,0.09762489619,3.0233096051598722,0.21424603163221062,-0.07211477537944261, ,0.02373610344133836,0.017874729997828364,0.00950406415274463,0.010840625586714538,0.014509810478961124,0.03846790946169068, ,1.8275201320648193
0.012727413185181998,0.021235298355634154,-0.08759765251998722, ,0.013044158919230543,0.021098304686574913,-0.0879082360936653, ,0.0004642814681191912, ,0.0035148651675046393,0.0006192648333445093,-0.008706240458000947,0.015201064770291761,-0.022203025089921235,-0.007758153187647815, ,0.009409377715454257, ,0.02690811482198579, ,5.2819025064176344e-05, ,0.1468632110691275,-0.21431355999260437,0.09771693278000002,3.0233096051598722,0.21451930463174151,-0.07192921748613264, ,0.02505199090772724,0.017747698065919353,0.009071077175398635,0.009611651782792772,0.03150870460039327,-0.0031330283655257793, ,1.8352651596069336
0.012748862941406008,0.021237709821070105,-0.08764916698938756, ,0.013068238518169876,0.02110085922228737,-0.08796418628384428, ,0.00046900533184651315, ,0.0038154285985232067,0.000623684885092254,-0.008687831765391948,0.01073713220437899,-0.0030085342227627507,0.0026836479685596803, ,0.009509200755587963, ,0.011150660816711223, ,5.306660357675061e-05, ,0.14701766572661198,-0.21421316446523944,0.09777008067000001,3.0233096051598722,0.21451930463174151,-0.07168418126571095, ,0.028420767163363513,0.017737746085695474,0.009096979737292977,0.009027819105924526,0.03150870460039327,0.021997468254654644, ,1.8459630012512207
0.012802515982863786,0.02124530994831432,-0.08776560985742736, ,0.013092307217058265,0.021103363973855448,-0.08802000882509439, ,0.0004109093012224111, ,0.003759576123474162,0.00042276727796456987,-0.0076708788259358136,-0.003172025943563946,-0.007061445035274614,0.0008372774067147907, ,0.008553100418076769, ,0.007741170971693986, ,5.3256692463751e-05, ,0.14742697056894588,-0.21398148247901272,0.09789193193000001,3.0233096051598722,0.21479257763127238,-0.07133526589211983, ,0.02923504052941182,0.015922305630615904,0.008036736387487387,0.00786520000829837,0.015406894973101647,0.020742808715791736, ,1.8528330326080322
0.012802515982863786,0.02124530994831432,-0.08776560985742736, ,0.01311636504621633,0.02110581914178236,-0.08807570406614823, ,0.00046272814692476736, ,0.003759576123474162,0.00042276727796456987,-0.0076708788259358136,-0.003172025943563946,-0.007061445035274614,0.0008372774067147907, ,0.008553100418076769, ,0.007741170971693986, ,5.354577459116847e-05, ,0.14742697056894588,-0.21398148247901272,0.09789193193000001,3.0233096051598722,0.21479257763127238,-0.07133526589211983, ,0.02923504052941182,0.015922305630615904,0.008036736387487387,0.00786520000829837,0.015406894973101647,0.020742808715791736, ,1.8576161861419678
0.012838927342930998,0.02124798269816606,-0.08783456776100126, ,0.013140412035920278,0.021108224926292222,-0.08813127235523596, ,0.0004454872289369882, ,0.0033800351597896485,-6.109029600508305e-05,-0.006138443911848474,-0.00593790110154501,0.03127218554739878,0.007891659516695914, ,0.0070077716404424745, ,0.03183093227800882, ,5.381680209370271e-05, ,0.1477127116852922,-0.21381158235577977,0.09796452417000001,3.023728985046841,0.21506585063080325,-0.07106802925866931, ,0.027363593298290304,0.01789495409362074,0.0064048297225572995,0.01645070682673163,0.020046345977575535,0.05853008846012016, ,1.8627140522003174
0.012838927342930998,0.02124798269816606,-0.08783456776100126, ,0.013164448216401958,0.021110581527330217,-0.08818671404008699, ,0.0004988485969573107, ,0.0033800351597896485,-6.109029600508305e-05,-0.006138443911848474,-0.00593790110154501,0.03127218554739878,0.007891659516695914, ,0.0070077716404424745, ,0.03183093227800882, ,5.413691422906913e-05, ,0.1477127116852922,-0.21381158235577977,0.09796452417000001,3.023728985046841,0.21506585063080325,-0.07106802925866931, ,0.027363593298290304,0.01789495409362074,0.0064048297225572995,0.01645070682673163,0.020046345977575535,0.05853008846012016, ,1.8678531646728516
0.012874026976891918,0.021247289969881688,-0.08790182698734636, ,0.013188473617848577,0.021112889144562857,-0.08824202946792926, ,0.0004823670797743874, ,0.0033950126362559275,4.2221913219940045e-05,-0.006937276170686297,0.013809519675573863,-0.022288359255238598,-0.012934007143344854, ,0.007723580397630707, ,0.026219721125390845, ,5.443961653473344e-05, ,0.1479907300687643,-0.21361079130104993,0.09803452383000001,3.0239386749903256,0.21533912363033417,-0.07096415010549992, ,0.026331004871939727,0.01968816214906033,0.007220676119673619,0.014716989992949299,0.03131693985549921,-0.0029572087210415036, ,1.8730261325836182
0.012874026976891918,0.021247289969881688,-0.08790182698734636, ,0.013212488270403297,0.021115147977378134,-0.08829721898548987, ,0.0005369845301162035, ,0.0033950126362559275,4.2221913219940045e-05,-0.006937276170686297,0.013809519675573863,-0.022288359255238598,-0.012934007143344854, ,0.007723580397630707, ,0.026219721125390845, ,5.479213132766929e-05, ,0.1479907300687643,-0.21361079130104993,0.09803452383000001,3.0239386749903256,0.21533912363033417,-0.07096415010549992, ,0.026331004871939727,0.01968816214906033,0.007220676119673619,0.014716989992949299,0.03131693985549921,-0.0029572087210415036, ,1.8779120445251465
0.012907317377794629,0.021249291425260906,-0.08797432618958258, ,0.013236492204164617,0.02111735822488532,-0.0883522829389954, ,0.0005182795964571274, ,0.0037197751164454607,0.0005360389589635665,-0.008432236131424246,0.01000014635756883,-0.023045505651607404,-0.014137509561068164, ,0.00923182922602829, ,0.025121668242400155, ,5.512506002237684e-05, ,0.14823785752073945,-0.213440891177817,0.09810970865000002,3.0241483649338106,0.2154757601300996,-0.07091221052891522, ,0.02732419854836475,0.017313800685727198,0.00881018336283186,0.01556797941200918,0.025049413871867456,-0.0020907121948270813, ,1.8868019580841064
0.012949771220068032,0.021255308018773636,-0.08807707202432902, ,0.013260485449186838,0.02111952008591581,-0.08840722167417209, ,0.000473265766962071, ,0.004226518015048886,0.0008971693969813169,-0.010768491146773225,0.0012958282112154607,-0.024836874814468474,-0.015309173744081165, ,0.01160296380398327, ,0.02487065291665369, ,5.541388796505502e-05, ,0.14853904410283422,-0.2132555455888356,0.09821600443,3.0241483649338106,0.2154757601300996,-0.07091221052891522, ,0.02891436366802888,0.018176008726004746,0.011201695864978904,0.01556797941200918,0.017160143950266417,-0.0013097533842530273, ,1.891813039779663
0.012949771220068032,0.021255308018773636,-0.08807707202432902, ,0.013284468035479986,0.0211216337590226,-0.0884620355362464, ,0.0005273401857194825, ,0.004226518015048886,0.0008971693969813169,-0.010768491146773225,0.0012958282112154607,-0.024836874814468474,-0.015309173744081165, ,0.01160296380398327, ,0.02487065291665369, ,5.5751678911569814e-05, ,0.14853904410283422,-0.2132555455888356,0.09821600443,3.0241483649338106,0.2154757601300996,-0.07091221052891522, ,0.02891436366802888,0.018176008726004746,0.011201695864978904,0.01556797941200918,0.017160143950266417,-0.0013097533842530273, ,1.896636962890625
0.012992617726069643,0.021263752454455616,-0.08819128286442392, ,0.013308439993009723,0.0211236994424807,-0.08851672486994477, ,0.0004746272742014033, ,0.00434332181146415,0.000978106096782757,-0.011580313077931215,-0.004153530501259703,-0.019829470970779882,-0.013775206024315081, ,0.012406642852819153, ,0.020259800747983368, ,5.603840674502755e-05, ,0.14882478521918052,-0.21307019999985422,0.09833396682000001,3.0241483649338106,0.2154757601300996,-0.07066717430849351, ,0.028739231241208592,0.018784034354408306,0.012012678371040725,0.01556797941200918,0.013244900654110688,0.004541344802458477, ,1.9015440940856934
0.012992617726069643,0.021263752454455616,-0.08819128286442392, ,0.013332401351697411,0.021125717334287367,-0.08857129001949464, ,0.0005281212403885661, ,0.00434332181146415,0.000978106096782757,-0.011580313077931215,-0.004153530501259703,-0.019829470970779882,-0.013775206024315081, ,0.012406642852819153, ,0.020259800747983368, ,5.637329606610057e-05, ,0.14882478521918052,-0.21307019999985422,0.09833396682000001,3.0241483649338106,0.2154757601300996,-0.07066717430849351, ,0.028739231241208592,0.018784034354408306,0.012012678371040725,0.01556797941200918,0.013244900654110688,0.004541344802458477, ,1.9064021110534668
