NicholasDascanio/dvrk_moveit_final/test/execution/third_experiment_notsharpbends/thirdexp_700vel3.0/thirdexp_700vel3.0_20.csv
Current Position (x),Current Position (y),Current Position (z), ,Planned Position (x),Planned Position (y),Planned Position (z), ,Position Error,,Cartesian linear Velocity(x),Cartesian linear Velocity(y),Cartesian linear Velocity(z),Cartesian Angular Velocity(x),Cartesian Angular Velocity(y),Cartesian Angular Velocity(z), ,Total Linear Velocity, ,Total Angular Velocity, ,MSE, ,Joint 1 Position,Joint 2 Position,Joint 3 Position,Joint 4 Position,Joint 5 Position,Joint 6 Position, ,Joint 1 Velocity,Joint 2 Velocity,Joint 3 Velocity,Joint 4 Velocity,Joint 5 Velocity,Joint 6 Velocity, ,Time Stamp
0.009435109182299162,0.02047776371049255,-0.07854767569028162, ,0.009499148525033075,0.02038143770525774,-0.0786178825275762, ,0.0001353097805230514, ,-9.719316844592517e-06,-1.0989249616381214e-06,-2.2500856803364e-06,0.003407137972219006,-0.019906483325840142,-0.008330829674387866, ,1.0036714679901293e-05, ,0.02019595671325546, ,1.1275815043587617e-05, ,0.12259066164543987,-0.23056991269284696,0.08839271881,3.012405728098677,0.20714093364440772,-0.08094153887238933, ,-0.0001165869363645174,-3.546964678111679e-05,0.0,-0.0006599088018750585,-0.00045901768401592754,-0.022070632296508352, ,0.01847386360168457
0.009437564262456365,0.020473521434984262,-0.07856362428037349, ,0.009521388304111065,0.020389392191248072,-0.07867837557581504, ,0.0001651425427213336, ,0.00039198344939829195,-0.0005630207496529384,-0.0019059614387064948,-0.03888054258788021,-0.3760022385328272,-0.1782336517188724, ,0.0020256683822822705, ,0.3780071163002092, ,1.3656923783835683e-05, ,0.12258293891256564,-0.23057763542572118,0.08840568171,3.012405728098677,0.20618447814604965,-0.08685927023804049, ,0.0003615551629412093,1.905962949812563e-05,0.0015507306391802562,-0.0006474134479686412,-0.11204161711608528,-0.40241207918923605, ,0.03508281707763672
0.009449089375362506,0.020437629864630224,-0.07859726972599934, ,0.00954366334808945,0.02039726998922819,-0.0787388500058451, ,0.00017498037461677855, ,0.00041459052799755415,-0.0013097744789020635,-0.001180458397613186,-0.1424032543813174,-0.17283118949696624,-0.09362795401846974, ,0.0018113190000615446, ,0.22394040930864656, ,1.4857271808161362e-05, ,0.12260610711118831,-0.23056991269284696,0.08842253348000001,3.012405728098677,0.20140220065425923,-0.09161759006356533, ,0.0008127198226329961,6.240545470681644e-05,0.0005713116869783025,0.0008151363478726734,-0.1752475373926753,-0.16688134145804745, ,0.05186104774475098
0.009450900868864912,0.020433133232660217,-0.07860183777472217, ,0.009565973483030692,0.02040507138128076,-0.07879930565451741, ,0.00023026666624723993, ,0.00038195584862408193,-0.0009400859133418088,-0.0008803716251311218,-0.1192646803875833,-0.03379965526667116,-0.02699512148363504, ,0.0013433934617593827, ,0.12396160971888708, ,1.6802365812104847e-05, ,0.12261382984406254,-0.23056218995997274,0.08842512606000001,3.012405728098677,0.20085565465519745,-0.09215206333046637, ,0.001599044788373993,0.0002718594864881863,0.0004538840375481677,0.0008151363478726734,-0.12478542047863718,-0.01858730458543631, ,0.06906604766845703
0.00946414176954868,0.020440685706011562,-0.07866233039949845, ,0.009588318535342462,0.02041279664907706,-0.07885974235902563, ,0.00023488114105661654, ,0.0006675735619685168,0.0006778196709985243,-0.003233069393009285,0.02764390061413868,-0.12498612169805541,-0.05498674745405523, ,0.003370138226697135, ,0.12800670239457093, ,1.808808663778885e-05, ,0.12267561170705633,-0.2305235762956016,0.08848345911000001,3.0126154180421616,0.20044574515590113,-0.0928796332412044, ,0.0034105840913670913,0.0016984562628245274,0.003585954867176948,0.0015443241997865084,0.005351822007986713,-0.15056592295099175, ,0.08588504791259766
0.009471079896050439,0.020446866243551003,-0.07869359102376765, ,0.009610698331777506,0.020420446073877403,-0.07892015995690627, ,0.00026744123545935583, ,0.0007565954049208216,0.000556485089651185,-0.003179842620618066,-0.03085082081631553,0.08857553988302136,0.03810993419607398, ,0.0033156464458157417, ,0.09379445298248723, ,1.9484221622973806e-05, ,0.12271422537142745,-0.23050813082985316,0.08851845894,3.0126154180421616,0.20044574515590113,-0.09418649308345342, ,0.004358971886943479,0.001186268423800083,0.0032654390159901603,0.0015254826996540648,-0.011702243214616952,0.10442681489862138, ,0.10525393486022949
0.009493919172527263,0.020478104425081235,-0.0788013228028651, ,0.009633112699433257,0.02042801993653135,-0.07898055828603798, ,0.00023239761692850366, ,0.0006932577547000893,0.0010107403040159892,-0.002688604095674741,0.06475162675633743,-0.09468533280725291,-0.036725126197044475, ,0.0029547917456046093, ,0.11470869808463434, ,2.000582441045666e-05, ,0.12284551183028927,-0.2304849626312305,0.08863382875,3.0126154180421616,0.2012655641544938,-0.09011763357747936, ,0.005170866521838278,0.0007989638757908977,0.0029952635426852207,0.0014862362481943422,0.04754623769677295,-0.10641614479254152, ,0.12131881713867188
0.009502415153361428,0.02048513163981426,-0.07883329275004436, ,0.009655561465751826,0.02043551851747778,-0.0790409371846413, ,0.0002627383986512683, ,0.0008610840694281126,0.000715069366767306,-0.0036081231994299205,-0.006912589643523009,0.021351348950545676,0.01127086918813799, ,0.003777743108811964, ,0.022442459690867108, ,2.0770216539074973e-05, ,0.12289957096040885,-0.2304617944326078,0.08866753229,3.0128251079856456,0.20140220065425923,-0.09047408770159743, ,0.0051866159067548954,0.0017773951766303833,0.0037479556517647063,0.00023178515631740675,0.0,0.029418323556398007, ,0.1379380226135254
0.009523208376920606,0.020498349065352812,-0.07890149571598874, ,0.009678044458519466,0.020442942096745294,-0.07910129649127932, ,0.00025877498747344343, ,0.0009041947234471993,0.0005913714393460602,-0.003212990314603866,-0.0015477758055734577,-0.025033966216238098,-0.009092820437307442, ,0.0033897780220719822, ,0.02508176776301181, ,2.1325355909539037e-05, ,0.12305402561789333,-0.2304231807682367,0.08873882824000001,3.0128251079856456,0.20140220065425923,-0.0903924089614569, ,0.006273689287366946,0.0017918369508546888,0.0033365755173858404,0.00023178515631740675,-0.0034576916061778216,-0.020416328334905927, ,0.15703892707824707
0.009541603046451132,0.020510946802255355,-0.07897014725688063, ,0.009700561505866526,0.020450290953952507,-0.07916163604485638, ,0.0002561540155325947, ,0.0008849197534701781,0.0006292533164448411,-0.0035258209574193194,-0.0069646507796633055,0.004705459974081677,0.003745994741388677, ,0.00368923516871937, ,0.00840521942042377, ,2.1745948619707708e-05, ,0.12311580748088713,-0.230400012569614,0.08877512436000001,3.0128251079856456,0.20140220065425923,-0.09055576644173802, ,0.005734159920379015,0.00270739300709937,0.003620184436363637,0.00023178515631740675,-0.0030821019064629224,0.023916405775676653, ,0.17355990409851074
0.009559588306376692,0.020521420595024133,-0.07903535392973866, ,0.009723112436267115,0.02045756536830796,-0.07922195568461804, ,0.00025619884066766636, ,0.0011372689505621098,0.0007024993342761199,-0.0038554054658216834,-0.004845740420697423,-0.007171727827833695,-0.0003165691923616154, ,0.00408056825533635, ,0.008655338203067528, ,2.2091835713195114e-05, ,0.12330115306986852,-0.23031506250799755,0.08887753127,3.0128251079856456,0.20140220065425923,-0.09039240896145687, ,0.00818301967581744,0.002447955227136811,0.004011284694031731,0.00023178515631740675,-0.0022453662816810838,0.001376236937559012, ,0.19886088371276855
0.00958434192712427,0.020531638315560846,-0.07910384974977397, ,0.009745697078538782,0.020464765618610915,-0.07928225525015171, ,0.0002496717145581204, ,0.0010155881580545829,0.00015702106946216326,-0.0024086964577440606,-0.006108998458624559,-0.006861972457480449,-0.006237457178544173, ,0.0026187580164239166, ,0.009187302547190777, ,2.2327518970786665e-05, ,0.12349422139172414,-0.2302378351792553,0.08894882722000001,3.013244487872615,0.20140220065425923,-0.09031073022131633, ,0.008765232410446121,0.004937443615986589,0.0024707323592368545,0.005901711921745332,-0.001799457684272688,0.0008669816327330896, ,0.215073823928833
0.009594134989802817,0.020533565770766385,-0.07912777623967243, ,0.009768315261842278,0.02047189198325108,-0.07934253458138527, ,0.0002833082571501759, ,0.0009627372868021146,0.0002412454326020364,-0.0023428905270570085,-0.004894328402337565,-0.005892827621777529,-0.00572138353403525, ,0.0025444446277967827, ,0.007660278573219101, ,2.278231493625871e-05, ,0.1235791714533406,-0.23019149878200995,0.08897345673000001,3.013244487872615,0.20140220065425923,-0.0903924089614569, ,0.008209376201554637,0.003754818988988555,0.0024226329307984796,0.005738626637395603,-0.0016520904191651882,0.0013471689595116881, ,0.23159384727478027
0.009609562706668696,0.020539062584955463,-0.07916896523646222, ,0.00979096681568134,0.020478944740209174,-0.07940279351858769, ,0.0003019888599689684, ,0.001051895955508312,0.0004303024116279193,-0.003247671749053591,-0.0060927198258730435,-0.008054075488429808,0.003272681607896583, ,0.0034407872727427306, ,0.010098978487382691, ,2.3304608672923366e-05, ,0.1237027351793282,-0.2301374396518904,0.08901623430000001,3.0134541778160995,0.20140220065425923,-0.0903924089614569, ,0.008125500461717573,0.004026249644656067,0.0033506124358435004,-0.0036367308147475267,-0.0014773685486016927,0.0012046949896608737, ,0.2500429153442383
0.009638832375774465,0.020552286485673334,-0.07926443347802216, ,0.009813651569902406,0.02048592416705707,-0.07946303190236809, ,0.00027277654246718973, ,0.0011401683083647458,0.0005753745969168836,-0.003946531982586433,-0.006341790911561748,-0.006834988686528577,0.0038011259656684704, ,0.004148030181634916, ,0.009323914486607786, ,2.356599325014676e-05, ,0.12391897169980648,-0.23002159865877703,0.08911475234,3.0134541778160995,0.20140220065425923,-0.09014737274103518, ,0.00812498710369847,0.004277381356490293,0.004069701461420542,-0.0036367308147475267,-0.0012400179117648454,0.002524531036418499, ,0.2671349048614502
0.009663528341962163,0.02056117141573165,-0.07934158747092684, ,0.00983636935469447,0.020492830540957834,-0.07952324957367618, ,0.00025989538361134853, ,0.001223339457861562,0.0005077225155546532,-0.0037177220989660703,-0.0055872613249865685,-0.007348196457030989,0.004264869990012109, ,0.003946618703029575, ,0.009231114752542458, ,2.3715594800207754e-05, ,0.12410431728878787,-0.2299212031314121,0.08919382603,3.0134541778160995,0.2012655641544938,-0.08995427609719825, ,0.009512063402384622,0.0046002940888503225,0.0038447529616220132,-0.0036367308147475267,0.0,0.003322820114404783, ,0.2874729633331299
0.009675201223482349,0.020566060402406862,-0.07937529590618207, ,0.009859120000588514,0.020499664138666548,-0.07958344637380169, ,0.00028558921124784245, ,0.0011892982778974,0.0004511851514464795,-0.00333217201247734,-0.006129399392263044,-0.002681988244933495,0.0064463594498347515, ,0.003566702784846642, ,0.006690485591123394, ,2.413751794667543e-05, ,0.12419699008327857,-0.229882589467041,0.08922882586000001,3.0134541778160995,0.2012655641544938,-0.08970923987677654, ,0.00967834102084866,0.004195776800079785,0.003456023328270775,-0.0036367308147475267,0.0,0.008688074269291959, ,0.3022308349609375
0.009699791551640517,0.020574519187411947,-0.07944559589290914, ,0.009881903338457588,0.020506425236529773,-0.07964362214437418, ,0.0002775173603826299, ,0.0011959785557601474,0.00047716445251078034,-0.003762737621652978,-0.006038662703551662,-5.6118288965026366e-05,-0.001475743972215709, ,0.0039769642983035125, ,0.006038923393732086, ,2.4472405162578487e-05, ,0.1243977811380084,-0.22978219393967605,0.08930141810000002,3.013244487872615,0.2012655641544938,-0.08970923987677654, ,0.008893974116854626,0.005085515183330104,0.0038775101071080826,0.00444604931884253,0.0,0.008688074269291959, ,0.317857027053833
0.00971306355104853,0.020579625172544504,-0.0794801672232854, ,0.009904719199516316,0.020513114110486428,-0.07970377672736263, ,0.0003019218761192517, ,0.0013708967104622926,0.0004159283937942139,-0.003406665398786665,-0.004817585084661982,-0.003451178523589662,-0.007483684723080201, ,0.003695635717817826, ,0.005926192604937742, ,2.4904522779806245e-05, ,0.12450589939824755,-0.22972813480955648,0.08933771422,3.0134541778160995,0.20140220065425923,-0.08965730030019184, ,0.011484562696172186,0.004902129808670115,0.003540522676150256,0.009767634793701874,0.0,0.006449775642295461, ,0.3336598873138428
0.009738909334027573,0.020586062909901195,-0.07954408966666131, ,0.009927567415320818,0.02051973103606775,-0.0797639099650754, ,0.0002971746165444924, ,0.001371557399907926,0.00038565669465195494,-0.00341742113805272,-0.005196717156329484,-0.003910654079510269,-0.007089082587266151, ,0.0037025218462801283, ,0.006503774601442237, ,2.527338091882764e-05, ,0.12472213591872583,-0.22962001654931735,0.08940382501000001,3.013663867759584,0.20140220065425923,-0.08965730030019184, ,0.01147068071539596,0.005278331465350283,0.0035436733081201342,0.009156710426431578,0.0,0.006079269294834424, ,0.3493380546569824
0.009765134413405657,0.020595328506411003,-0.07961508609974559, ,0.009950447817768283,0.02052627628839764,-0.07982402170016031, ,0.000287686203648512, ,0.0013804553019203627,0.00043911028903361056,-0.0035855462650192117,-0.006348389606056199,0.0019565845071442475,-0.003169881344039134, ,0.003867119949669061, ,0.006643062014708188, ,2.5564326693605722e-05, ,0.12493837243920412,-0.2295118982890782,0.08947771354,3.013663867759584,0.20153883715402465,-0.0892786457630449, ,0.011328272837348786,0.005098778453572365,0.003719946641756189,0.00786919676800267,0.0,0.012761380812141277, ,0.367063045501709
0.009780543839623011,0.02059985501124728,-0.07965516154632543, ,0.00997336023909677,0.02053275014219273,-0.0798841117756039, ,0.0003067563118234307, ,0.0014936557501921174,0.00045560414372153714,-0.0038797265454203183,-0.009040004349255625,0.006022118982409291,0.005718329345945736, ,0.004182207635101022, ,0.010862209480295485, ,2.5919314524999145e-05, ,0.1250619361651917,-0.2294501164260844,0.08951919482000001,3.0138735577030684,0.20153883715402465,-0.08911528828276374, ,0.01239996623003669,0.00571796928126714,0.004020396648157497,0.00158178802108658,-3.545409163164521e-05,0.02005669636134584, ,0.38147902488708496
0.00981058425318093,0.020612778334750573,-0.07973370868437343, ,0.009996304511885015,0.02053915287176287,-0.07994418003473104, ,0.000290191165638481, ,0.001432655662821413,0.0005768685768218684,-0.003934366296187968,0.0033750625881839415,-0.0002665219551466452,0.0037165432792185807, ,0.004226643793332788, ,0.0033855694475277134, ,2.6172280457947982e-05, ,0.12531678635004112,-0.22933427543297105,0.08960215738,3.0138735577030684,0.20194874665332097,-0.08920450577343131, ,0.011689505925810707,0.005568661135017306,0.0041138459504132235,0.00158178802108658,0.010816812560044265,0.010793983390895606, ,0.3970799446105957
0.009825171753257077,0.02061815797791841,-0.07977500787451862, ,0.010019280469052075,0.020545484751011193,-0.08000422632120571, ,0.00030903185557209974, ,0.0014791991930535112,0.0005720929018447108,-0.003964253606550324,0.003999583843028346,-0.00473272234158471,0.00195527806329784, ,0.004269733855654063, ,0.006196396590026604, ,2.6486303241924765e-05, ,0.1254326273431545,-0.22928021630285148,0.08964493495,3.0138735577030684,0.20194874665332097,-0.08912282703329075, ,0.012205394412665051,0.005716330921222157,0.004147048039573028,0.00158178802108658,0.010816812560044265,0.006407875951682263, ,0.4132518768310547
0.0098544187061877,0.02062718410015464,-0.07984995243903796, ,0.010042287943857095,0.02055174605343441,-0.08006425047902942, ,0.0002948040014986623, ,0.0013728341868119152,0.0004329469405856839,-0.0031413584834043416,0.005913357432019384,-0.005302137294712367,-0.005595988470815503, ,0.0034554666658931123, ,0.007942320549114913, ,2.6718514239131926e-05, ,0.12566430932938122,-0.22917982077548654,0.08972141606,3.0140832476465533,0.20194874665332097,-0.08863275459244738, ,0.011959651973681618,0.0047036586976159445,0.003317811189335555,0.008416476562555862,0.010816812560044265,0.003823454988596325, ,0.4287688732147217
0.009867367954781403,0.02062994807267831,-0.07987999265721682, ,0.010065326769899047,0.020557937052123214,-0.0801242523525422, ,0.0003225462421492675, ,0.0013454116459045557,0.0003353214628327623,-0.003103679349806727,0.004065978296886039,-0.001154037755571854,-0.00508404751770212, ,0.003399323239527041, ,0.00422658045753764, ,2.7044226993088592e-05, ,0.1257801503224946,-0.22911803891249274,0.08975382331000001,3.0142929375900374,0.20194874665332097,-0.08855107585230682, ,0.011683648606851083,0.006091254773350302,0.003244817991444286,0.009380024672238982,0.010552253452566822,0.007875812273254179, ,0.4434089660644531
0.009896056491449264,0.020638845599700084,-0.07994940651127833, ,0.010088396781116572,0.02056405801976217,-0.08018423178642162, ,0.0003126193835775323, ,0.0016302585392213385,0.0005229461879241585,-0.003982359413333009,-0.002297397290290216,0.0004545720818823943,-0.002737419981212776, ,0.004334789743128325, ,0.0023419370370360913, ,2.7309442857608653e-05, ,0.1260272777744698,-0.22900992065225362,0.08982641555000001,3.0142929375900374,0.2020853831530864,-0.088335778795441, ,0.01374521169734513,0.005744200286526989,0.004161131536050157,0.008204358213574507,0.004781418676829473,0.013039767758288818, ,0.4612579345703125
0.009926010620142714,0.02065267148614797,-0.08003467807227668, ,0.010111497811787482,0.020570109228630312,-0.08024418862568272, ,0.00029174765914944306, ,0.001337420689935503,0.0005059143513045687,-0.0036787570966617944,0.0006915424977247938,-0.0023189970987657076,-0.003901078135794927, ,0.003946884493998145, ,0.0024199127869579695, ,2.747967498142704e-05, ,0.12626668249357073,-0.22890180239201446,0.08991585956,3.0142929375900374,0.2023586561526173,-0.08847693586269328, ,0.010635393370588367,0.00516361704321762,0.003832726544754572,0.007066945120269805,0.0062292944971167686,0.006597618505441969, ,0.4773578643798828
0.009939578304758495,0.020657133974536085,-0.08007228458797463, ,0.010134629696528792,0.020576090950601107,-0.08030412271567766, ,0.00031362706295359814, ,0.0014125742384615595,0.00046837518027397916,-0.003795603120173966,-0.0005662428897902547,-0.004071534691198317,-0.004027660660278841, ,0.004076928296467364, ,0.004110720735356656, ,2.7717345189745158e-05, ,0.12637480075380988,-0.2288477432618949,0.08995474826000001,3.0142929375900374,0.2023586561526173,-0.0882318996422716, ,0.01136714806219159,0.0058653926456780385,0.0039437513047784105,0.0066168160384714025,0.005546255838931715,0.005671717649076173, ,0.49211883544921875
0.009959796202234679,0.020663214161857135,-0.08012751867798566, ,0.010157792270296138,0.020582003457143082,-0.08036403390209612, ,0.000318962494290429, ,0.001465777463076627,0.00046824702230747117,-0.0036422808584906092,-0.004285662087021956,0.012255474756807402,0.004125026539528631, ,0.003953981372906334, ,0.012983203009961268, ,2.795868681329628e-05, ,0.1265369781441686,-0.22876279320027842,0.09001178502000001,3.0142929375900374,0.2023586561526173,-0.08790518468170935, ,0.012246264920559658,0.005382469209438592,0.003801625661097852,0.0060712618265697325,0.004801289916903355,0.02501310894435903, ,0.5088999271392822
0.009983182440699935,0.0206714174093109,-0.08018292388889899, ,0.010180985368383851,0.020587847019319473,-0.08042392203096423, ,0.0003227849326758385, ,0.001356999587943982,0.00042426967115886277,-0.003579321613066765,-0.004525064765706542,-0.006557642327083661,-0.008022627761290112, ,0.003851362855576225, ,0.007967363644035821, ,2.8198271834697533e-05, ,0.1267300464660242,-0.22868556587153618,0.09007011807000001,3.0147123174770067,0.20249529265238275,-0.08760820888470297, ,0.010865232603442956,0.005181205542559647,0.003709550889613414,0.008692327755230505,0.0,0.0025943837165708656, ,0.525580883026123
0.010009717057679522,0.020679919473660147,-0.08025403195265768, ,0.010204208826424517,0.02059362190778908,-0.0804837869486448, ,0.00031314800999826173, ,0.0013736323155263013,0.000496396682436475,-0.003708872972458306,0.002795438526171058,0.005301503603959198,-0.0017986096178499067, ,0.003986102624171108, ,0.005993364356903353, ,2.8392270408181143e-05, ,0.12694628298650248,-0.2285697248784228,0.0901440066,3.0147123174770067,0.2026319291521482,-0.08763794804825883, ,0.010988529592226815,0.0057643138567430585,0.0038709140996354805,0.008692327755230505,0.01018916540087424,0.014503467847319047, ,0.5405590534210205
0.010023835516666219,0.02068461311455066,-0.08029554612655448, ,0.010227462480388553,0.02059932839280619,-0.08054362850183715, ,0.00033208777310177623, ,0.0014967988621959766,0.000619818292527614,-0.004416970166809865,0.001560301573723602,0.004226487185059779,-0.002254707757575887, ,0.004704700522255522, ,0.004505300572129175, ,2.8726504834411487e-05, ,0.12694628298650248,-0.2285697248784228,0.0901440066,3.0147123174770067,0.2026319291521482,-0.08763794804825883, ,0.010988529592226815,0.0057643138567430585,0.0038709140996354805,0.008692327755230505,0.01018916540087424,0.014503467847319047, ,0.555548906326294
0.010050558812823698,0.020694007879096216,-0.08036774081252286, ,0.01025074616658436,0.020604966744220826,-0.0806034465375764, ,0.0003218081557832338, ,0.001401110298945379,0.0002818302358225191,-0.0033305898928929142,-0.005754494232423167,0.002407534043572049,-0.0036383498711202, ,0.0036242747393478627, ,0.0062378220263260105, ,2.9012207061454784e-05, ,0.12727063776721992,-0.22839982475518988,0.09026196899000001,3.0147123174770067,0.20276856565191362,-0.08734097225125245, ,0.011770248737139636,0.006360351726857225,0.0034440673556756763,0.008692327755230505,0.0018540434654820937,0.013300408489369609, ,0.5688619613647461
0.010065825852695063,0.020697142098229405,-0.08040816052089428, ,0.010274059721657673,0.020610537231479084,-0.08066324090323396, ,0.000340481642063908, ,0.0015526520644612715,0.0003440701116583396,-0.0038959911162363935,-0.006310178635409936,-0.0007940429840598026,-0.004330306724732148, ,0.004208070751877317, ,0.00635994164860844, ,2.934064338137075e-05, ,0.12739420149320752,-0.22832259742644762,0.09030345027000002,3.0147123174770067,0.20276856565191362,-0.08725929351111189, ,0.012734425866676164,0.007186418269040098,0.004021411643524363,0.008306309902207596,0.001745828946720905,0.010928773958327313, ,0.5820448398590088
0.010091127925270074,0.020704597846394508,-0.08047451675810016, ,0.010297402982591559,0.02061604012362334,-0.08072301144651664, ,0.00033487531964389343, ,0.0015979797846797095,0.0005565051282335651,-0.00458802819796153,-0.006127055153991852,-0.002210477999613221,-0.0008808112080274625, ,0.0048901165727705705, ,0.006513602368418331, ,2.963694566714864e-05, ,0.12759499254793735,-0.2282222018990827,0.09037215364000001,3.014922007420491,0.20276856565191362,-0.08709593603083075, ,0.012268512160112576,0.006547879364694795,0.0047449542806076855,0.0043515838182373295,0.0015906954258545917,0.00985421943670018, ,0.5966358184814453
0.010115416278159876,0.020712878735719687,-0.08054752346038718, ,0.010320775786705962,0.02062147568929238,-0.08078275801546687, ,0.0003253649344198337, ,0.0017318643656216183,0.0006676958662082835,-0.005357795109253566,-0.007822994571448295,0.002088560895817616,0.0002986371555383754, ,0.00567019756123215, ,0.008096994891035192, ,2.989205945062449e-05, ,0.12777261540404453,-0.22811408363884356,0.09044733846000001,3.0151316973639757,0.20276856565191362,-0.08685089981040908, ,0.012656300554610665,0.007339653985522881,0.005528917570288095,0.005073707038191007,0.0014699236771154192,0.014891460871395267, ,0.6094770431518555
0.01013288240435072,0.020720958204883653,-0.08060098288637108, ,0.01034417797165754,0.020626844196722043,-0.0808424804584622, ,0.0003344014662373043, ,0.0017168218739898756,0.0006272637560950391,-0.005146170755762257,-0.010517504529351678,0.009580173557876293,0.00353292642542871, ,0.005461136384872955, ,0.014226651865940979, ,3.016116959365361e-05, ,0.12790390186290632,-0.22804457904297554,0.09050307893000001,3.0151316973639757,0.20290520215167906,-0.0867172814936838, ,0.012766977204153205,0.007074005607311066,0.005311374298099368,0.005073707038191007,0.0,0.023530827589427046, ,0.6222519874572754
0.010148793105594798,0.020726644462328213,-0.08064716312676444, ,0.010367609375439485,0.020632145913744803,-0.08090217862421475, ,0.000349060796385021, ,0.0016795531118521862,0.0004662073510450712,-0.0046813073617925725,-0.0036172983188263986,0.006078535621442147,0.002743600892295233, ,0.004995286434757687, ,0.007073431994464994, ,3.04588807528685e-05, ,0.1280274655888939,-0.2279673517142333,0.09055104166000001,3.0151316973639757,0.2030418386514445,-0.0866653419170991, ,0.013132707107455132,0.008488251249383879,0.004832770485436894,0.005073707038191007,0.007659976868197933,0.019006528570522045, ,0.6363818645477295
0.010189641572288698,0.0207343684992498,-0.08074787048828341, ,0.010391069836381132,0.02063738110779064,-0.08096185236177224, ,0.00030946428204096677, ,0.0016922074741217443,0.00034985302040574547,-0.0037724534621199077,-0.006193187369917974,0.01776873409262565,0.008592313009603345, ,0.004149381688302607, ,0.018817106055111204, ,3.063670030967396e-05, ,0.1283672658353598,-0.22777428339237768,0.09065474486000001,3.0151316973639757,0.2030418386514445,-0.08625694821639628, ,0.014662691835363223,0.007270584865393936,0.003930128675055515,0.005073707038191007,0.006460553027274934,0.033842103041719473, ,0.6513359546661377
0.010205923522338073,0.020737736686014172,-0.08078380824060254, ,0.010414559193147613,0.020642550045887012,-0.0810215015205163, ,0.00033028387019200635, ,0.0016936583267349809,0.0001704452149053448,-0.0037980039585061498,-0.011421975177466353,0.008017731989409159,0.0021652566629135326, ,0.004162014436283379, ,0.013955126026603258, ,3.086207138828405e-05, ,0.12850627502709583,-0.22769705606363544,0.09069233727,3.01534138730746,0.20317847515120993,-0.08620500863981158, ,0.014519115905518786,0.008803960724720734,0.0039012519030124913,0.006281454068004055,0.0006386921953908866,0.02335226678744961, ,0.6647379398345947
0.010223046347339192,0.020739258316861204,-0.08082304044791296, ,0.010438077284739921,0.020647652994659003,-0.08108112595016295, ,0.0003481924260618524, ,0.001613366574445687,0.00019427035822685147,-0.003917250085642681,-0.009293831689960065,-0.0019744102463231774,-0.0024820106612934113, ,0.004240936324574067, ,0.009501242149304432, ,3.112449588298763e-05, ,0.12865300695170612,-0.22760438326914476,0.09073252226,3.01534138730746,0.20317847515120993,-0.08604165115953046, ,0.013345090923705635,0.008809613778406557,0.004012295093198993,0.006026399253938514,0.0006386921953908866,0.01102330209576953, ,0.6778609752655029
0.010257388504823843,0.0207453397708253,-0.08090879321237404, ,0.010461623950494386,0.0206526902203298,-0.08114072550076247, ,0.0003226277155985774, ,0.0017195250823738078,0.00037482006048952083,-0.004483069782098957,-0.012507105018039071,0.014214938018084896,0.008420071174380702, ,0.004816136548918314, ,0.01893388858579833, ,3.1311378493481733e-05, ,0.1289310253351782,-0.2274344831459118,0.09082066998,3.015551077250945,0.20317847515120993,-0.08571493619896821, ,0.013789151635930074,0.008234662782098104,0.0046143718192352265,0.002727582867489854,0.0006504390141006081,0.03030538020436597, ,0.6913900375366211
0.010274368653884305,0.020748975914584227,-0.08095153751115057, ,0.0104851990300824,0.02065766198872075,-0.08120030002269857, ,0.00033863028177659964, ,0.0017675346943882139,0.0004374144709857093,-0.004330862509786026,-0.012991385701656708,0.02161432070956565,0.012169878691582191, ,0.004698071986886095, ,0.025218147447058144, ,3.153063036867762e-05, ,0.12907003452691423,-0.22735725581716956,0.09086474384000001,3.015551077250945,0.20317847515120993,-0.08555157871868707, ,0.014597283734574801,0.007114426038701971,0.004489518466741827,0.002727582867489854,0.0006551952435625009,0.03941147439083158, ,0.7048740386962891
0.010291788769357511,0.020753095297604777,-0.08099386643063908, ,0.010508802363510298,0.02066256856525176,-0.08125984936668905, ,0.00035501677648723594, ,0.0017921756307078072,0.00026732800572291265,-0.004343623155041785,-0.006044137681397704,-0.017521838005680995,-0.005040890341388989, ,0.004706423256249046, ,0.018535004878953668, ,3.178129313340399e-05, ,0.1292167664515245,-0.2272723057555531,0.0909088177,3.015551077250945,0.20331511165097538,-0.08549963914210239, ,0.014881126165668931,0.009275235118604938,0.004465604575273339,0.002727582867489854,0.002168082117737683,-0.0039070464354052925, ,0.7182168960571289
0.01032419087402293,0.020761011791676925,-0.08107668109282459, ,0.010532433791119076,0.020667410214941274,-0.08131937338378414, ,0.00033320551582965687, ,0.0019873316573682746,0.0005118312480671113,-0.004852108052288871,-0.009794153515484723,0.0074437674570186655,0.006791352117667711, ,0.00526824552331823, ,0.01230183377995618, ,3.197018110173515e-05, ,0.12947933936924813,-0.22713329656381706,0.09099437284,3.015551077250945,0.20331511165097538,-0.08525460292168069, ,0.01641531595891209,0.00784681159999631,0.00503916846567542,0.002727582867489854,0.002168082117737683,0.025498322926058532, ,0.7354860305786133
0.010347867449928997,0.020767150793645214,-0.0811381409621399, ,0.010556093153583962,0.02067218720240693,-0.08137887192536883, ,0.00033215572248660987, ,0.0016976353106675527,0.0004570021413655926,-0.004290753086555419,-0.007110735041188987,0.004730876175865541,0.0002854826818043612, ,0.004636957909559122, ,0.008540710787927404, ,3.214951038265705e-05, ,0.12966468495822953,-0.22703290103645213,0.09105789105,3.015760767194429,0.20331511165097538,-0.08509124544139958, ,0.013677852631661975,0.006896295220839671,0.004450631886001677,0.006698884441079762,0.002168082117737683,0.01845800980114979, ,0.7488000392913818
0.01037837854922703,0.020772403331722596,-0.08120410829931529, ,0.01057978029191448,0.02067689979186534,-0.08143834484315914, ,0.0003233424601791677, ,0.001619540358469353,0.0003086542076482367,-0.0037405780272646134,-0.007229188776734796,0.012435538639267203,0.006121721727097561, ,0.004087799208702015, ,0.014384150683515111, ,3.2301921389841175e-05, ,0.12992725787595316,-0.2268938918447161,0.09112659442000001,3.0159704571379136,0.20345174815074082,-0.08495762712467428, ,0.013654236195463422,0.00733686822106142,0.0038793988114953727,0.004542711497072314,0.004336746161130034,0.027225544115900273, ,0.7621898651123047
0.010395096253054159,0.020776041976818788,-0.0812441735078128, ,0.010603495047453733,0.020681548247132836,-0.08149779198920516, ,0.000341586675034212, ,0.00163519505893247,0.00041230730350209194,-0.0038832322293812466,-0.004987676555562696,0.00419408935097539,0.0025627874330605006, ,0.004233598084441127, ,0.0065166941023698894, ,3.256376543815257e-05, ,0.1300662670676892,-0.22682438724884807,0.0911680757,3.0159704571379136,0.20345174815074082,-0.0847125909042526, ,0.013601396238852053,0.006495265153121251,0.004043871926884997,0.004542711497072314,0.00412964043610871,0.018050785028007846, ,0.7770848274230957
0.010404589169000967,0.020778417217821716,-0.08126796174087995, ,0.01062723726187865,0.020686132831625167,-0.08155721321588859, ,0.0003765036480466208, ,0.001718552638450845,0.00048298114978599063,-0.004164079834865625,-0.005042287212935288,0.003451436590602407,0.002471199952438017, ,0.004530591002651805, ,0.006110406993376635, ,3.2895366531856925e-05, ,0.13014349439643144,-0.22678577358447696,0.09119270521,3.0159704571379136,0.20345174815074082,-0.08463091216411203, ,0.014155271712182395,0.006429979601653023,0.0043414585772690115,0.004542711497072314,0.003974207967071988,0.017862262021670003, ,0.7900660037994385
0.010447056554289713,0.020791775458636606,-0.0813855740647218, ,0.010651006777199266,0.020690653808358266,-0.08161660837592387, ,0.0003243426190504202, ,0.0016872236825718405,0.00045415884294393327,-0.00463415144318766,-0.00951122561161608,0.005622308411765746,0.001190851309993394, ,0.004952609777486384, ,0.011048699578450139, ,3.310212489081829e-05, ,0.13046784917714888,-0.22660042799549557,0.09131455647,3.0161801470813985,0.20358838465050627,-0.08441561510724624, ,0.012923456565228213,0.007632126641748438,0.004777687918416317,0.005665544623956765,0.000698008289559071,0.019068075507165695, ,0.8013458251953125
0.010463239285033184,0.020796796350625535,-0.08142915613511087, ,0.010674803435758896,0.020695111439948073,-0.08167597732235711, ,0.0003406169540780656, ,0.001770430895322452,0.000536396994126268,-0.004853682788752889,-0.007061805439224312,0.016556472932858043,0.003246570915188679, ,0.005194264520050551, ,0.017999608033070366, ,3.333784367835582e-05, ,0.13059141290313647,-0.22652320066675333,0.09135992662,3.016389837024883,0.20372502115027172,-0.08436367553066151, ,0.01355089840903481,0.007733541846139552,0.005026447308299148,0.008903322881493422,0.004925321727665355,0.030517669580746358, ,0.8130209445953369
0.010477478909097167,0.020801038093394456,-0.08146937546624106, ,0.010698627080233399,0.02069950598861105,-0.08173531990856618, ,0.00036047431018349966, ,0.0018908590844895678,0.000603872851918472,-0.005216418738652027,-0.004350620485153329,0.0006814032355218003,-0.0033751850556926616, ,0.005581311221894088, ,0.0044036581512159915, ,3.3608865862652215e-05, ,0.1306995311633756,-0.22646141880375953,0.09140140790000001,3.016389837024883,0.20372502115027172,-0.08428199679052098, ,0.014415455196486524,0.007944538275040191,0.005406928553971487,0.008903322881493422,0.004925321727665355,0.013865274298938206, ,0.8252298831939697
0.010477478909097167,0.020801038093394456,-0.08146937546624106, ,0.010722477553631336,0.020703837716164287,-0.08179463598826062, ,0.00041864860723726783, ,0.0018908590844895678,0.000603872851918472,-0.005216418738652027,-0.004350620485153329,0.0006814032355218003,-0.0033751850556926616, ,0.005581311221894088, ,0.0044036581512159915, ,3.399413171601083e-05, ,0.1306995311633756,-0.22646141880375953,0.09140140790000001,3.016389837024883,0.20372502115027172,-0.08428199679052098, ,0.014415455196486524,0.007944538275040191,0.005406928553971487,0.008903322881493422,0.004925321727665355,0.013865274298938206, ,0.8380169868469238
0.010520516302263017,0.02081816029479834,-0.08159806306871412, ,0.01074635469929355,0.020708106884025735,-0.08185392541548095, ,0.00035858091874643223, ,0.0018104706174923665,0.0006391648602685363,-0.0057683496102120015,-0.008801352385497233,0.020383740153121648,0.004313870189342305, ,0.006079489518128823, ,0.022202717402544578, ,3.42438666988977e-05, ,0.1310161632112188,-0.22629151868052658,0.09153492577000001,3.016389837024883,0.20386165765003716,-0.08398502099351454, ,0.01252599545386362,0.008937321796534451,0.005936940559075662,0.008903322881493422,0.004925830045719702,0.03362725218102666, ,0.8496038913726807
0.010538419770982587,0.020822746376188552,-0.0816511950882651, ,0.010770258360892761,0.02071231375321472,-0.08191318804459924, ,0.00036685801770865113, ,0.0017609970620729746,0.00039650181597915,-0.0048164766197121255,-0.006447039332004258,0.006055705845694732,-0.0016190871008160243, ,0.005143614621152906, ,0.00884510524787116, ,3.4503358435257635e-05, ,0.13114744967008063,-0.2261988458860359,0.09158936995000001,3.016389837024883,0.20386165765003716,-0.08382166351323342, ,0.013424379906418274,0.00920028534774686,0.004956070790292471,0.008903322881493422,0.004925830045719702,0.018729198066416156, ,0.8622448444366455
0.010574140421002767,0.02083005487781743,-0.08174129455849365, ,0.010794188382433515,0.02071645858435175,-0.08197242373031784, ,0.00033874166747996186, ,0.001936558277630616,0.0003420285601052242,-0.00444782559177546,-0.00024055947839621758,-0.0037070906570644217,-0.0011153895299192682, ,0.004863167074390929, ,0.003714887382085922, ,3.469896841198431e-05, ,0.1314177453206785,-0.22600577756418028,0.09168011025000002,3.0165995269683674,0.20413493064956803,-0.08371778436006402, ,0.016177453385351308,0.009472853290059516,0.004622406128845038,0.006074807909069445,0.010508441540603715,0.02132042767598626, ,0.8737719058990479
0.010593386638228817,0.02083227985280447,-0.08178675952824041, ,0.010818144608251864,0.020720541637659066,-0.0820316323276699, ,0.00035066260381340353, ,0.0018918158716172977,0.00027339113689724744,-0.004461058978836565,-0.0005186359601148582,-0.004783410640663505,-0.0031069265622858, ,0.004853324347135211, ,0.0048114445699319035, ,3.49127974297016e-05, ,0.1315876454439114,-0.22590538203681534,0.09172936927000001,3.016809216911852,0.20413493064956803,-0.0835544268797829, ,0.01562604010513268,0.010271744096015641,0.004610365128798843,0.007155208412215396,0.010508441540603715,0.008835294848088471, ,0.8850820064544678
0.010612123428228261,0.02083352104584734,-0.08183118994757518, ,0.010842126883015113,0.020724563172960765,-0.08209081369201911, ,0.00036356278131422946, ,0.001988374358970447,0.0002722431588479384,-0.004639076625077057,-0.0015968826665880417,-0.007048138873162173,-0.003882844016633872, ,0.005054580186552289, ,0.0072267761607523445, ,3.51460130839214e-05, ,0.13174210010139592,-0.22579726377657622,0.09177473942000001,3.016809216911852,0.20413493064956803,-0.08339106939950178, ,0.016472303690066095,0.010672132598180832,0.004792061227436824,0.007155208412215396,0.009554056932659935,0.007390740602871812, ,0.8964910507202148
0.010632119418794467,0.020837323893160703,-0.08188130616697867, ,0.01086613505172137,0.020728523449683157,-0.08214996767905901, ,0.0003725316913074429, ,0.0019858111895780127,0.00029068123424780376,-0.005174722341457647,-0.009108979879069085,0.0007851276257691503,-0.0015384464682206655, ,0.0055502876476609736, ,0.009142753202154547, ,3.539024011040787e-05, ,0.13190427749175462,-0.22568914551633706,0.09182659102000001,3.016809216911852,0.20427156714933348,-0.08333912982291708, ,0.015493378213627883,0.011265960776965154,0.00530253379494008,0.007155208412215396,0.0039834854595054685,0.01574389613887002, ,0.9147179126739502
0.010670942022864381,0.020839336712378153,-0.08197683354321453, ,0.010890168959699723,0.02073242272685481,-0.0822090941448131, ,0.00033680266802628547, ,0.0017410412377117097,2.1261504248275363e-05,-0.003996878855203555,-0.008155274919374934,-0.0020151389121448654,-0.003864447451882626, ,0.004359669394134021, ,0.00840055312618253, ,3.555989913374774e-05, ,0.13221318680672361,-0.22544974079723612,0.09192381277000002,3.0170189068553364,0.20427156714933348,-0.0830940936024954, ,0.014384863052671028,0.011175523703832551,0.0040738648388746815,0.007736280437378313,0.0039834854595054685,0.011265412830439886, ,0.9270789623260498
0.010689404166052794,0.020839957003616474,-0.0820187485676321, ,0.010914228452609458,0.02073626126310714,-0.08226819294563482, ,0.000351455920625418, ,0.001977238901971955,7.258917543381512e-05,-0.004276064650076033,-0.008283278133630433,-0.005972017851251047,-0.004438994121028526, ,0.004711631538595871, ,0.010211644942178461, ,3.575263715384019e-05, ,0.1323676414642081,-0.22534162253699697,0.09196659034000002,3.0170189068553364,0.20427156714933348,-0.0830940936024954, ,0.01666905701009499,0.011371712589391346,0.004386893836408704,0.007596628604570721,0.0037698675418995718,0.009617898634627942, ,0.9385600090026855
0.010710130544456364,0.02084138653318378,-0.08206127216993091, ,0.010938313376440127,0.020740039316674112,-0.08232726393820648, ,0.0003648154107171939, ,0.0020722293750314006,4.738763619081148e-05,-0.004151000316518784,-0.006300134722893939,-0.01666240957256187,-0.00502219095635527, ,0.004639739626158544, ,0.017813691056543582, ,3.596515468749569e-05, ,0.13254526432031527,-0.2252257815438836,0.09201066420000001,3.0172285967988213,0.2044082036490989,-0.08312383276605126, ,0.018155144740476522,0.011416702788167123,0.004271604054706356,0.004367110786482144,0.0045389217674735825,-3.479490674468833e-05, ,0.949847936630249
0.010750227610309443,0.02084152820055743,-0.0821489922768606, ,0.01096242357751128,0.020743757145393085,-0.08238630697954019, ,0.0003330233863148031, ,0.0020795804817010113,0.0002293190445259172,-0.004848931689724366,-0.01020841836525244,0.005129768905783338,0.004070819218635967, ,0.005281039740019695, ,0.011424812115136742, ,3.611399590270143e-05, ,0.1327151644435482,-0.22510994055077024,0.09205214548000001,3.0172285967988213,0.2044082036490989,-0.08296047528577011, ,0.016778101407084647,0.012442236994686086,0.004370044312757203,0.004367110786482144,0.0045389217674735825,0.005249573862808694, ,0.9620308876037598
0.010750227610309443,0.02084152820055743,-0.0821489922768606, ,0.01098655890247207,0.020747415006704607,-0.08244532192697661, ,0.0003905394147206084, ,0.001980839804137314,0.00029985932552873177,-0.005176701582772124,-0.010225888159088493,0.003621764039600319,0.0025831567811933605, ,0.005550845090780025, ,0.010848315983741561, ,3.6428951408687657e-05, ,0.13288506456678115,-0.22498637682478265,0.09210010821,3.0172285967988213,0.2044082036490989,-0.08271543906534842, ,0.017086233625940004,0.011108588275426488,0.004988666307547761,0.004367110786482144,0.004353130335714071,0.022969934206713356, ,0.972585916519165
0.010790957777433793,0.02084996512322201,-0.0822540211354834, ,0.011010719198300975,0.02075101315765301,-0.08250430863818542, ,0.000347462814701581, ,0.002052954660237957,0.00043241415536176956,-0.005541517013228102,-0.005209297750792207,0.01056761479822132,0.0064552753415991395, ,0.005925370507119911, ,0.011781819059649, ,3.6659935470066606e-05, ,0.13320941934749858,-0.2247546948385559,0.09220899657,3.0172285967988213,0.20481811314839524,-0.08272297781587545, ,0.015690631871440274,0.010915503880995513,0.005705161719197709,0.004367110786482144,0.01016032181145772,0.02678598035666718, ,0.9825530052185059
0.010813271924249218,0.02085637713114483,-0.08231257489552392, ,0.011034904312305725,0.020754551854886217,-0.0825632669711646, ,0.00034976537723137725, ,0.0022772533938794255,0.0007664744416399046,-0.006115782018225488,0.005389383263072831,-0.0024030710793599436,-0.00024751104860576417, ,0.006570856548736457, ,0.005900863836164858, ,3.689008753462508e-05, ,0.1333793194707315,-0.224654299311191,0.0922699222,3.0174382867423053,0.20495474964816068,-0.0825893594991502, ,0.017457126850344146,0.009552250875699579,0.006384293194388779,0.006891909483736263,0.016537301656904892,0.012777236660939892, ,0.9930078983306885
0.010836372626601538,0.020861238374428624,-0.08237569329727162, ,0.011059114092122877,0.020758031354656408,-0.08262219678424046, ,0.00034789282614140115, ,0.0023230512040029617,0.0006516829492981646,-0.006254858937557727,-0.0006729229403216694,0.0216033291327284,0.008289527430577606, ,0.006704067264845374, ,0.02161380682172234, ,3.711210911521043e-05, ,0.13354921959396446,-0.22453845831807762,0.0923347367,3.0176479766857898,0.20495474964816068,-0.08218096579844739, ,0.017714568146065108,0.011222500918191892,0.006496252659053834,0.008646239281676212,0.016537301656904892,0.039251980882153426, ,1.003695011138916
0.010859534418262698,0.020867913316552772,-0.08243540916993856, ,0.011083348385717678,0.020761451912820104,-0.0826810979360675, ,0.0003489837995016762, ,0.0020803343939334107,0.000515056572916107,-0.005369568508868404,0.004180609403730832,0.002535917877515191,-0.007071151278823918, ,0.005781465249858174, ,0.0048896185949768994, ,3.7331399297172955e-05, ,0.13371911971719738,-0.2244380627907127,0.09239566233,3.0178576666292747,0.2050913861479261,-0.08212902622186269, ,0.016108800128750767,0.0103016614385834,0.005600847932489452,0.014565885977423918,0.015429574118193297,0.0059826567032519595, ,1.0133090019226074
0.010882347209100916,0.02086973066513374,-0.08249124139631762, ,0.011107607041383593,0.0207648137848383,-0.08273997028562775, ,0.00035159010820612986, ,0.0021272540743559306,0.00027333509589768973,-0.005302930338652702,-0.009119771836603799,0.023359454732026656,0.029355739127261072, ,0.00572022658188612, ,0.02507656993162713, ,3.755064622573497e-05, ,0.13390446530617878,-0.2243067763318509,0.09245399538000001,3.018067356572759,0.2050913861479261,-0.08172063252115988, ,0.01724771747700305,0.012570796338385318,0.005458811350239891,-0.011145538240445793,0.013103748047848241,0.04602531916609186, ,1.022878885269165
0.010903242503633111,0.020874536894599664,-0.08254633043253802, ,0.011131889907742328,0.02076811722577694,-0.08279881369223124, ,0.0003568649292709176, ,0.0021272540743559306,0.00027333509589768973,-0.005302930338652702,-0.009119771836603799,0.023359454732026656,0.029355739127261072, ,0.00572022658188612, ,0.02507656993162713, ,3.777438951130726e-05, ,0.13406664269653748,-0.22419865807161174,0.09251103214,3.018067356572759,0.20522802264769155,-0.08158701420443461, ,0.016858579065281716,0.009997429571874876,0.005760872159132007,-0.011145538240445793,0.0038910635990715035,0.016780619434508367, ,1.0326108932495117
0.010903242503633111,0.020874536894599664,-0.08254633043253802, ,0.011156196833743259,0.020771362490306908,-0.08285762801551486, ,0.0004141702982951075, ,0.002143839300329623,0.00047784481951252864,-0.005578611326726438,-0.010483907346088641,-0.003734156475658102,0.016680262831772614, ,0.005995438845643685, ,0.011129071498697725, ,3.809008641573027e-05, ,0.1342597110183931,-0.22408281707849836,0.09257843922,3.018067356572759,0.20563793214698786,-0.08151287421482106, ,0.017399512570310006,0.011393658431924534,0.006612209016189291,-0.011145538240445793,0.023139418138911814,0.01693826055028383, ,1.0453169345855713
0.010951744818923427,0.02089053786972788,-0.08267912809557089, ,0.011180527668663556,0.02077454983270448,-0.08291641311544318, ,0.00034942667002326556, ,0.0023182234637216335,0.0009073152702688938,-0.006609523269519611,0.021094370907638493,-0.019984807296264097,0.012929603882116319, ,0.007062802480441729, ,0.02905795922021879, ,3.8291563334945074e-05, ,0.13443733387450027,-0.22396697608538502,0.09264973517000001,3.018067356572759,0.2057745686467533,-0.08154261337837691, ,0.01760611160639532,0.010806994699169034,0.006928582653327534,-0.011145538240445793,0.03317672481293222,-0.004312361858293077, ,1.0570199489593506
0.010974024673562713,0.02089557457673869,-0.08274093941860412, ,0.011204882262107543,0.020777679506851512,-0.08297516885230694, ,0.0003493678595766604, ,0.0022189825654390285,0.0005396886352055869,-0.0057624990882987285,0.011468581555867307,-0.00030278062599123096,-0.005321314782825036, ,0.006198511368976919, ,0.011472577419958907, ,3.8488953565253636e-05, ,0.1346072339977332,-0.22385885782514586,0.09271325338000001,3.0178576666292747,0.2057745686467533,-0.08129757715795524, ,0.017113966015955055,0.01190079129233434,0.005997293493975904,0.01287538256863836,0.024215468701799747,0.01224056278079917, ,1.0670528411865234
0.010995562552166402,0.0208973410540848,-0.08279423730760273, ,0.011229260464006675,0.020780751766235502,-0.08303389508672426, ,0.0003544624481283975, ,0.0020882009865775663,0.00022563359998573995,-0.004925856289511639,0.004714282409415419,0.0008714534294473738,-0.00423376917033783, ,0.005354956028456949, ,0.004794151313355458, ,3.86907978899871e-05, ,0.13477713412096615,-0.22373529409915827,0.09276769756000001,3.0178576666292747,0.2057745686467533,-0.08097086219739298, ,0.016840628493073787,0.012686756892843688,0.005090703585810164,0.011561208798071699,0.018660314303516452,0.014304988374639817, ,1.0767779350280762
0.011018355646414024,0.020896459690474146,-0.08284129378036173, ,0.011253662124619103,0.020783766863950164,-0.08309259167963931, ,0.000362242247696989, ,0.0021756892362298297,1.1139440009363651e-05,-0.00440107281214943,0.0010859637990083097,-0.004116432950481657,-0.006909270409587704, ,0.004909499937632239, ,0.004257268602918303, ,3.8901311579885264e-05, ,0.13496247970994754,-0.22359628490742223,0.09281566029,3.0182770465162436,0.2057745686467533,-0.08080750471711186, ,0.018636477132456947,0.013418685175123131,0.004539416221145626,0.012301541086978809,0.015012904257902101,0.011077434852110164, ,1.0883479118347168
0.011040586634687264,0.020898434417770867,-0.08289285352219841, ,0.011278087094529557,0.02078672505269546,-0.08315125849232262, ,0.00036831858391308864, ,0.002224940474884172,0.00020135796789745022,-0.005347465212508052,-0.01502371423343702,0.012305100514891858,-0.005578006693839779, ,0.005795367921624768, ,0.01941977043316859, ,3.9117514647888106e-05, ,0.1351401025660547,-0.2234649984485604,0.09286880818000001,3.018486736459728,0.20591120514651876,-0.0806738864003866, ,0.017396322925475854,0.012150696742441841,0.005477583053645117,0.015930252656586406,0.0,0.029014430778370633, ,1.0987069606781006
0.011062581561273533,0.02090192809965114,-0.08294540514043981, ,0.011302535224649145,0.02078962658477782,-0.08320989538637055, ,0.00037435875975155625, ,0.0022679049825145075,0.00024325418902199384,-0.005305461411052026,0.00041890415798507045,-0.028608571336755,-0.022376275679667705, ,0.005774987999498616, ,0.028611638024066906, ,3.933918714291069e-05, ,0.13531772542216186,-0.22334915745544703,0.09292325236000001,3.018486736459728,0.2060478416462842,-0.08062194682380192, ,0.0180515391969699,0.012372482602147428,0.005466304571036377,0.015930252656586406,0.007826129548644,-0.016655038639220677, ,1.1083359718322754
0.011084804585952795,0.020905284191427852,-0.08299771953463822, ,0.011327006366214762,0.020792471712110513,-0.08326850222370516, ,0.00038040980869335405, ,0.0021881352539100418,0.00017020336734761355,-0.0053216022072450535,-0.007761094497059409,-0.02172982380650141,0.02052523330220305, ,0.005756418602552793, ,0.023074224281349153, ,3.9566191365923095e-05, ,0.13549534827826903,-0.22321787099658522,0.09297769654000002,3.0186964264032126,0.20632111464581507,-0.08084478263119473, ,0.01789495409362074,0.013143620714469636,0.005455072438356166,-0.02170835219334859,0.008286170826498403,-2.1969554880682356e-05, ,1.1179449558258057
0.011104235849656419,0.020906723246959066,-0.08304731767333759, ,0.011351500370789237,0.02079526068621377,-0.08332707886657426, ,0.0003896536553147475, ,0.002290476008054586,0.0002048926342465519,-0.0058020507779234605,-0.004846513089468502,-0.0031613255124652356,-0.016547676257614115, ,0.0062411581108512545, ,0.005786420443328795, ,3.9803351034333076e-05, ,0.13564980293575352,-0.22310203000347187,0.09302825185000001,3.018486736459728,0.20632111464581507,-0.0806814251509136, ,0.017377209587707523,0.014104777282769142,0.005939154183445191,0.020470156109851038,0.008286170826498403,0.009639199179004037, ,1.1288259029388428
0.011131600081294105,0.020909184998111712,-0.0831185020020522, ,0.011376017090260895,0.020797993758215078,-0.08338562517755069, ,0.0003787584414774365, ,0.002223287238513813,0.0003878676447640608,-0.006013539645628105,-0.005581855631401614,0.007573790433200653,-0.009486357742605329, ,0.006423091664014627, ,0.009408475219275327, ,4.0019305255430976e-05, ,0.13585831672335758,-0.22293985261311314,0.09310084409000001,3.018486736459728,0.20632111464581507,-0.08035471019035136, ,0.016266188131379977,0.012524342293581996,0.0061787476803723835,0.017985687623318942,0.008286170826498403,0.020920140087337648, ,1.1391370296478271
0.011154345331174775,0.02091127635625458,-0.08317961174731257, ,0.011400556376843132,0.020800671178849466,-0.0834441410195326, ,0.0003779274006197201, ,0.0024227293582130263,0.00023752430033068808,-0.00629147312759297,-0.010876591786995874,0.017810197490241406,-0.0013967078922382907, ,0.0067460113735168985, ,0.020868717586017646, ,4.0291634312617145e-05, ,0.13602821684659053,-0.2228008434213771,0.09316306601,3.018486736459728,0.20632111464581507,-0.08019135271007023, ,0.01821088880415866,0.0149656113481266,0.006435883442424243,0.015068916376877024,0.008286170826498403,0.03513886896012768, ,1.1476938724517822
0.011177708467270696,0.02091475840819122,-0.08324139443597993, ,0.011425118083074384,0.0208032931984598,-0.08350262625574244, ,0.00037666706071679435, ,0.0023534623045694245,0.00037437832107373864,-0.006107213507104803,-0.0029373726197218226,-0.0061697791793227375,-0.009447827139230558, ,0.006555684614720461, ,0.006833324559295863, ,4.0557909220145575e-05, ,0.13620583970269767,-0.22266183422964106,0.09322658422,3.018486736459728,0.20645775114558051,-0.08013941313348552, ,0.017731117630506495,0.013078409806845477,0.0062860345382794005,0.01299720015475929,0.009959712986463188,0.008312035019371047, ,1.156095027923584
0.011197157503015722,0.02091920336082579,-0.08328704842314527, ,0.01144970206181785,0.020805860066996768,-0.08356108074972807, ,0.00038951145355297804, ,0.0024905403163336722,0.0003243335657664185,-0.005803005683683268,-0.008483051107051345,0.016025672305829304,0.015284620985946493, ,0.0063232000042720855, ,0.018132410825868608, ,4.083954105642348e-05, ,0.13620583970269767,-0.22266183422964106,0.09322658422,3.018486736459728,0.20645775114558051,-0.08013941313348552, ,0.017731117630506495,0.013078409806845477,0.0062860345382794005,0.01299720015475929,0.009959712986463188,0.008312035019371047, ,1.1649458408355713
0.011226629463699095,0.02092396987614691,-0.08335687225020785, ,0.011474308166261077,0.020808372034019428,-0.08361950436536084, ,0.00037905570661453776, ,0.0023859197518683256,0.0006234551994592811,-0.005823753250004917,0.03299892537754657,-0.01983592729030741,-0.022033595391420354, ,0.0063243506674623175, ,0.0385018581478891, ,4.110130453147201e-05, ,0.13658425361353468,-0.22239926131191742,0.09334713919000001,3.0193254962336664,0.2070042971446423,-0.08001333356728729, ,0.0187025899799903,0.012756679870744827,0.006131182263279446,0.022895524895809816,0.041288282252601255,-0.012299352587869402, ,1.1761629581451416
0.01125176172860308,0.020925915267606912,-0.08342037358992373, ,0.011498936249915923,0.020810829348695246,-0.08367789696683683, ,0.00037504440053773107, ,0.0024242892868980223,0.0001804351963783186,-0.005786785718185574,0.007120124734207868,0.022429191052267972,-0.005444599877804863, ,0.00627667303233625, ,0.02353220731254674, ,4.135321816873853e-05, ,0.1367773219353903,-0.22225252938730716,0.09341195369000001,3.0193254962336664,0.2070042971446423,-0.07952326112644392, ,0.019002190940823144,0.016194017330797058,0.00597031916041979,0.022895524895809816,0.02709491786861476,0.03675802104702317, ,1.1842408180236816
0.01125176172860308,0.020925915267606912,-0.08342037358992373, ,0.011523586166617994,0.020813232259800352,-0.08373625841867559, ,0.00043170500389276247, ,0.0024242892868980223,0.0001804351963783186,-0.005786785718185574,0.007120124734207868,0.022429191052267972,-0.005444599877804863, ,0.00627667303233625, ,0.02353220731254674, ,4.168498647707049e-05, ,0.1367773219353903,-0.22225252938730716,0.09341195369000001,3.0193254962336664,0.2070042971446423,-0.07952326112644392, ,0.019002190940823144,0.016194017330797058,0.00597031916041979,0.022895524895809816,0.02709491786861476,0.03675802104702317, ,1.1922919750213623
0.011276335481783225,0.020926666600910027,-0.08348154908718523, ,0.011548257770526671,0.02081558101572017,-0.08379458858572053, ,0.0004292731834108409, ,0.0022765531477315715,0.00045061516881932367,-0.006315479572451801,0.0007415310618353729,-0.014402522857885328,0.03816940745406042, ,0.006728375026324899, ,0.014421599181113218, ,4.200833677139771e-05, ,0.13696266752437167,-0.22209807472982268,0.09347417561000002,3.019535186177151,0.2070042971446423,-0.07927822490602222, ,0.017557250982140758,0.0136248300873612,0.006514851337423314,-0.03421690374120737,0.02081148019920513,0.009111107403990066, ,1.200990915298462
0.01130115738547058,0.020930319782265325,-0.08355004331749548, ,0.01157295091612469,0.020817875864448884,-0.08385288733313892, ,0.00042217277952324495, ,0.002635448597012023,0.00047593606288193636,-0.006919830963741976,-0.002938054563646859,0.01996565566803621,0.003176576581584381, ,0.007419984165091352, ,0.020180672808585643, ,4.2316666852307965e-05, ,0.13714801311335306,-0.22195906553808664,0.09354417527000002,3.0193254962336664,0.2070042971446423,-0.07895150994545996, ,0.019671836973149,0.014689929033819004,0.007142964807174889,0.013173971981810263,0.016933565683210663,0.03848370137319002, ,1.2106828689575195
0.011309347732968886,0.02093267060473674,-0.08357236263513755, ,0.011597665458218036,0.020820117053590437,-0.08391115452642017, ,0.000458884907321372, ,0.0027239868256095845,0.0003184969917009229,-0.007153948769334475,-0.021343682885707118,0.022746787086328275,0.003560769686643893, ,0.007661626952160968, ,0.031192452663074178, ,4.2673523379089826e-05, ,0.13720979497634686,-0.22191272914084129,0.09356750849,3.0193254962336664,0.20714093364440772,-0.07898124910901583, ,0.02012233705650356,0.015343078667497297,0.007313503911845732,0.012301416990942452,0.0,0.04451353227073935, ,1.2204668521881104
0.01135492016377654,0.02094226934241288,-0.08369107843179092, ,0.011622401251935388,0.02082230483035838,-0.08396939003137768, ,0.0004042214283528967, ,0.0026079730928074973,0.00037727336420341614,-0.006679582910572864,-0.008828471186282605,0.01427431539407307,0.004510562766832365, ,0.00718057704529116, ,0.01678386040694173, ,4.2946952908398495e-05, ,0.13755731795568696,-0.2216656016888661,0.09369065604000001,3.0193254962336664,0.20755084314370403,-0.07890710911940227, ,0.0196799961755435,0.01447261576307317,0.006874756806214934,0.008946522437448716,0.010490793622199079,0.03407263542319183, ,1.2294039726257324
0.011382818181236496,0.020945357486159707,-0.08376038901653694, ,0.011647158152728142,0.02082443944157624,-0.08402759371414711, ,0.00039483559168220454, ,0.002732889248370756,0.00035925096678390573,-0.006394776917911659,0.017710767574946645,-0.019794670125017542,-0.005837292812721821, ,0.0069635419673361185, ,0.026561254540370793, ,4.320314185169894e-05, ,0.13777355447616527,-0.2215034242985074,0.09376195199000001,3.0193254962336664,0.20768747964346948,-0.07877349080267701, ,0.021885826005182372,0.016238354133893015,0.006650860759916493,0.007674774025580199,0.032762087213148196,-0.003871882745234187, ,1.2375319004058838
0.011409636991665952,0.02094629335100095,-0.08382253238523922, ,0.011671936016370087,0.020826521133677743,-0.0840857654411866, ,0.00039043284204412233, ,0.0025920902817150567,0.00020366311151259016,-0.005955624458557048,0.002178902451157611,0.007393866867553245,0.012796100884599752, ,0.006498451614262859, ,0.0077082342760254555, ,4.344949373416451e-05, ,0.13798206826376933,-0.2213489696410229,0.09382547020000001,3.019535186177151,0.20768747964346948,-0.07844677584211476, ,0.020797050527826162,0.015922305630615904,0.006143004828384112,0.0,0.023754273606761803,0.02837964155543085, ,1.245811939239502
0.011409636991665952,0.02094629335100095,-0.08382253238523922, ,0.011696734698956967,0.020828550152707032,-0.08414390507927692, ,0.0004467314212693003, ,0.0025920902817150567,0.00020366311151259016,-0.005955624458557048,0.002178902451157611,0.007393866867553245,0.012796100884599752, ,0.006498451614262859, ,0.0077082342760254555, ,4.377135061017921e-05, ,0.13798206826376933,-0.2213489696410229,0.09382547020000001,3.019535186177151,0.20768747964346948,-0.07844677584211476, ,0.020797050527826162,0.015922305630615904,0.006143004828384112,0.0,0.023754273606761803,0.02837964155543085, ,1.253829002380371
0.01143877587147029,0.020947876981642216,-0.08388799405058936, ,0.01172155405690654,0.020830526744318796,-0.0842020124955202, ,0.0004385683118001863, ,0.0028274846633195355,8.85406358386246e-05,-0.00661374857761476,-0.01903347981513392,-9.664303250457259e-05,-0.0011249546937746996, ,0.00719334270095643, ,0.019033724835001004, ,4.4077355566654535e-05, ,0.13819058205137338,-0.22118679225066418,0.09388769212,3.019744876120635,0.20782411614323493,-0.07823147878524894, ,0.02195671947211263,0.016458019694497186,0.006639771371404753,0.007999953247899188,-0.0001129003333702958,0.024368432459097235, ,1.2636640071868896
0.011467799532211156,0.020950944656793806,-0.08395713572635279, ,0.011746393946958075,0.020832451153778905,-0.08426008755734134, ,0.0004282935559686098, ,0.003116141993795208,0.0003188848005542225,-0.007539560448417826,-0.015004625695936767,0.005847705382654054,-0.004756387164377114, ,0.008164373839852319, ,0.016103863702680868, ,4.4364916808888746e-05, ,0.13843770950334855,-0.22101689212743125,0.09396417323,3.01995456606412,0.20796075264300035,-0.07793450298824253, ,0.023873444417225356,0.01677513550618186,0.007747476420233463,0.015011845185969949,0.004696754679539391,0.02867456026900485, ,1.2719249725341797
0.011497600388568303,0.02095620050291314,-0.08403076798259908, ,0.01177125422617198,0.020834323625964244,-0.08431813013248571, ,0.0004151113117677021, ,0.003003933729182242,0.0003904504197492129,-0.0071850584601283515,-0.003938663953815013,-0.0067759276980180385,-0.008409921851278675, ,0.007797508220903846, ,0.00783749008041543, ,4.4630420555761356e-05, ,0.1386693914895753,-0.22085471473707252,0.09404065434000002,3.01995456606412,0.20823402564253127,-0.07807566005549482, ,0.023219217410929967,0.015805619846514123,0.007422558956197579,0.013929673710203656,0.012402707364142732,0.013214557855520916, ,1.2804169654846191
0.011525304298640576,0.020958607148405105,-0.08409754622180528, ,0.011796134751929954,0.02083614440536316,-0.08437614008902117, ,0.0004073828674755384, ,0.002890472883726361,0.0003212424788155031,-0.006930469664980268,0.012798749714444316,-0.016006339821376087,-0.00949224334227886, ,0.007515945715541366, ,0.02049416728588043, ,4.49430724481828e-05, ,0.13888562801005358,-0.22069253734671382,0.09410935771000001,3.01995456606412,0.2083706621422967,-0.07802372047891012, ,0.0225194450779475,0.017576762652059787,0.007175140324324325,0.01240556931122105,0.029198661142864613,0.0003772898676092703, ,1.287268877029419
0.011525304298640576,0.020958607148405105,-0.08409754622180528, ,0.011821035381934413,0.02083791373607554,-0.08443411729533591, ,0.0004640084707669292, ,0.002890472883726361,0.0003212424788155031,-0.006930469664980268,0.012798749714444316,-0.016006339821376087,-0.00949224334227886, ,0.007515945715541366, ,0.02049416728588043, ,4.532926291146296e-05, ,0.13888562801005358,-0.22069253734671382,0.09410935771000001,3.01995456606412,0.2083706621422967,-0.07802372047891012, ,0.0225194450779475,0.017576762652059787,0.007175140324324325,0.01240556931122105,0.029198661142864613,0.0003772898676092703, ,1.2938988208770752
0.011550581820825152,0.020959391409540968,-0.08415990561690101, ,0.011845955974208176,0.020839631861813306,-0.08449206162013907, ,0.00046034318746534803, ,0.0029529156135013478,0.00030494138920533894,-0.007449100821562269,0.005763370488768102,-0.005122491178876177,-0.00421982586919562, ,0.008018840497298235, ,0.007710793236261997, ,4.5706325257164984e-05, ,0.1390786963319092,-0.22053808268922934,0.09417287592000001,3.01995456606412,0.2083706621422967,-0.07761532677820732, ,0.022344464694718808,0.01866580282424681,0.007672837919075146,0.011312994944145664,0.025519673418765453,0.012994333016517874, ,1.3031229972839355
0.011564016156068132,0.020959828552382206,-0.08419433103106716, ,0.011870896387094562,0.020841299025900463,-0.08454997293246101, ,0.00048446453623547664, ,0.0030072682154488966,0.00031574742422623477,-0.007738474017662993,0.0018950901488022755,-0.0022835777796657154,-0.00277493397926207, ,0.008308269294961491, ,0.00296750170968743, ,4.6111754336744035e-05, ,0.1391790918592741,-0.22045313262761285,0.09420787575,3.01995456606412,0.2083706621422967,-0.07753364803806675, ,0.022460814570052258,0.018971799591857415,0.007956449310689312,0.010819397466422645,0.022621510608756997,0.01676956107892459, ,1.3096318244934082
0.011622190175587924,0.02096758173666075,-0.08433664860872822, ,0.011895856479256658,0.020842915471273427,-0.08460785110165184, ,0.00040495149790723684, ,0.0032755355141254926,0.0005000532905930634,-0.00806950654585686,-0.005960649781274549,-0.00015777695563151846,0.009521953399238996, ,0.008723309125060112, ,0.0059627347053421076, ,4.6406546423054545e-05, ,0.1396192876331049,-0.22016739151126655,0.09435435652000002,3.0201642560076043,0.2083706621422967,-0.0767985393768017, ,0.02509173494406948,0.017037152883028865,0.00834406051335778,0.0006922155082981458,0.015586670001410736,0.025417419898428512, ,1.3161799907684326
0.011622190175587924,0.02096758173666075,-0.08433664860872822, ,0.011920836109677391,0.020844481440481188,-0.08466569599738218, ,0.0004611022238589326, ,0.0032755355141254926,0.0005000532905930634,-0.00806950654585686,-0.005960649781274549,-0.00015777695563151846,0.009521953399238996, ,0.008723309125060112, ,0.0059627347053421076, ,4.677287094189326e-05, ,0.1396192876331049,-0.22016739151126655,0.09435435652000002,3.0201642560076043,0.2083706621422967,-0.0767985393768017, ,0.02509173494406948,0.017037152883028865,0.00834406051335778,0.0006922155082981458,0.015586670001410736,0.025417419898428512, ,1.3225109577178955
0.011655656857038437,0.020972707865930112,-0.0844162659555169, ,0.01194583513765928,0.02084599717568569,-0.08472350748964289, ,0.00044119881443445874, ,0.0034449788119997786,0.00033317734911073775,-0.008633770653788704,-0.012165030836601129,0.007255947228947642,0.00036886948318142247, ,0.009301660167051412, ,0.014164628391564104, ,4.710899174965369e-05, ,0.13987413781795432,-0.21997432318941093,0.09443731908000001,3.0205836358945732,0.208780571641593,-0.07672439938718814, ,0.025794221679388635,0.01996149380699848,0.00886411325542571,0.01187443887168173,0.011856220667786022,0.032201954044897604, ,1.3289999961853027
0.011689357674802055,0.020979678622983028,-0.08449918359471466, ,0.011970853422823852,0.02084746291866196,-0.08478128544874372, ,0.000419883679928265, ,0.0033562258583430668,0.000586250392154724,-0.00772989993768133,0.03198693665615998,-0.025382434743561298,-0.008503572832779551, ,0.008447443079481391, ,0.040834202362221586, ,4.741352821403481e-05, ,0.14013671073567796,-0.21978125486755531,0.09452417051,3.0205836358945732,0.2093271176406548,-0.07676167730127104, ,0.026663934127134248,0.018541801789462832,0.008106265404580152,0.011271506955014374,0.04848061508698463,-0.007632702282894272, ,1.3358378410339355
0.011689357674802055,0.020979678622983028,-0.08449918359471466, ,0.011995890825111771,0.020848878910798403,-0.08483902974531489, ,0.00047599006609820604, ,0.0033562258583430668,0.000586250392154724,-0.00772989993768133,0.03198693665615998,-0.025382434743561298,-0.008503572832779551, ,0.008447443079481391, ,0.040834202362221586, ,4.778831349314746e-05, ,0.14013671073567796,-0.21978125486755531,0.09452417051,3.0205836358945732,0.2093271176406548,-0.07676167730127104, ,0.026663934127134248,0.018541801789462832,0.008106265404580152,0.011271506955014374,0.04848061508698463,-0.007632702282894272, ,1.3449079990386963
0.011725938000377332,0.020982213252732064,-0.08458486448256175, ,0.01202094720478242,0.020850245393096975,-0.08489674025030544, ,0.00044912408214891676, ,0.0033275213627454933,0.00023632225813443762,-0.007692207800161277,-0.0041098125410240745,0.01234757726966106,0.005910863330238271, ,0.008384408593936687, ,0.013013577395222672, ,4.812421300900205e-05, ,0.14042245185202426,-0.21957274107995126,0.09461231823,3.0205836358945732,0.2094637541404202,-0.07654638024440522, ,0.026020548823271393,0.019506051707804888,0.007936627563527655,0.009863905930126355,0.020834448983249584,0.037417456985397286, ,1.3523879051208496
0.011760328537931691,0.020984621021494898,-0.08466413307036805, ,0.012046022422413413,0.020851562606173536,-0.08495441683498352, ,0.0004284742717100033, ,0.0033024224083429126,0.00016976527183167273,-0.007699025291691028,-0.020856672436775796,-0.002238925640296776,-0.0018206948630595863, ,0.008379129098703732, ,0.020976499853574894, ,4.842988324174038e-05, ,0.14069274750262212,-0.21937967275809564,0.09469398450000001,3.0205836358945732,0.20960039064018565,-0.07624940444739882, ,0.025427905026385523,0.018123938418348126,0.007889455928677564,0.008853722443239127,0.0,0.023561552411784464, ,1.35919189453125
0.011760328537931691,0.020984621021494898,-0.08466413307036805, ,0.012071116338900734,0.02085283079025799,-0.08501205937093595, ,0.0004847787463446775, ,0.0033024224083429126,0.00016976527183167273,-0.007699025291691028,-0.020856672436775796,-0.002238925640296776,-0.0018206948630595863, ,0.008379129098703732, ,0.020976499853574894, ,4.88049595476395e-05, ,0.14069274750262212,-0.21937967275809564,0.09469398450000001,3.0205836358945732,0.20960039064018565,-0.07624940444739882, ,0.025427905026385523,0.018123938418348126,0.007889455928677564,0.008853722443239127,0.0,0.023561552411784464, ,1.365699052810669
0.011795175119785332,0.020986383370360028,-0.08474348789711436, ,0.012096228815458205,0.020854050185194754,-0.08506966773006835, ,0.0004631832067337677, ,0.0033891259585342877,8.115703798695353e-05,-0.007821440116472867,-0.023028514538540424,0.009306236413444472,0.012954988858115688, ,0.008524534399203094, ,0.024837843883154447, ,4.91485023278231e-05, ,0.14096304315321997,-0.2191788817033658,0.09477565077000001,3.0207933258380577,0.2097370271399511,-0.07595242865039244, ,0.02641161746687191,0.01971679650082501,0.008004427899497488,0.0002259166952662855,0.003368178606737371,0.039084899653863116, ,1.3724229335784912
0.01182921054871221,0.020988492772931286,-0.08482151210348461, ,0.012121359713617311,0.02085522103044256,-0.08512724178460436, ,0.000443376961307545, ,0.0035370375855522593,0.00018586075838539955,-0.008095442299499916,-0.011730738689206589,-0.007800693814754345,-0.012778175463162478, ,0.008836366058943543, ,0.014087619366526683, ,4.946327650128771e-05, ,0.1412256160709436,-0.21898581338151019,0.09485602075,3.0210030157815426,0.20987366363971652,-0.07590048907380771, ,0.027284917066840362,0.019786685062233272,0.008322263072100313,0.018322936588016862,0.008328253516474435,0.016094875684181373, ,1.3794059753417969
0.01182921054871221,0.020988492772931286,-0.08482151210348461, ,0.012146508895227085,0.020856343565075052,-0.08518478140708616, ,0.0005001062294925508, ,0.0035370375855522593,0.00018586075838539955,-0.008095442299499916,-0.011730738689206589,-0.007800693814754345,-0.012778175463162478, ,0.008836366058943543, ,0.014087619366526683, ,4.9846846454951924e-05, ,0.1412256160709436,-0.21898581338151019,0.09485602075,3.0210030157815426,0.20987366363971652,-0.07590048907380771, ,0.027284917066840362,0.019786685062233272,0.008322263072100313,0.018322936588016862,0.008328253516474435,0.016094875684181373, ,1.386610984802246
0.01185670438372635,0.020991345097089928,-0.08488250008123342, ,0.012171676222453326,0.02085741802778113,-0.08524228647037362, ,0.0004965782565671134, ,0.003508645331211778,0.00013912999631084805,-0.007638952794165278,0.002231892499108513,-0.004492620035447986,-0.0038427687482038755, ,0.008407350891189993, ,0.0050164681698144815, ,5.022208745337024e-05, ,0.1414418525914219,-0.2188313587240257,0.09491953896000001,3.021212705725027,0.2101469366392474,-0.07571493118049775, ,0.027984942954429604,0.020806170041322247,0.007897278889439764,0.01321163627352551,0.02495791025038807,0.019610882143798466, ,1.3940370082855225
0.011899317781365167,0.020991425228934834,-0.08497597358362773, ,0.012196861557779107,0.02085844465686487,-0.08529975684764421, ,0.000459403671609068, ,0.003384669390768311,0.0001955938036161337,-0.007313475385760543,0.007129461911088139,-0.014367441219506527,-0.006509643896171545, ,0.008061089630995446, ,0.016039095155739598, ,5.061043639582176e-05, ,0.14178165283788777,-0.2185765085391763,0.09501546442000001,3.021212705725027,0.21028357313901283,-0.07549963412363189, ,0.02708246049043116,0.0194780257714431,0.007585148342857144,0.011662784010174452,0.02672723977288085,0.007814386316550683, ,1.3988828659057617
0.011899317781365167,0.020991425228934834,-0.08497597358362773, ,0.01222206476400391,0.020859423690245807,-0.08535719241239292, ,0.0005166408969717684, ,0.003384669390768311,0.0001955938036161337,-0.007313475385760543,0.007129461911088139,-0.014367441219506527,-0.006509643896171545, ,0.008061089630995446, ,0.016039095155739598, ,5.106759126773191e-05, ,0.14178165283788777,-0.2185765085391763,0.09501546442000001,3.021212705725027,0.21028357313901283,-0.07549963412363189, ,0.02708246049043116,0.0194780257714431,0.007585148342857144,0.011662784010174452,0.02672723977288085,0.007814386316550683, ,1.4037179946899414
0.011937186504641418,0.020991863608624362,-0.08505923036428671, ,0.012247285704243561,0.020860355365459403,-0.08541459303843188, ,0.0004896310465951164, ,0.0037850604840315777,-7.863421317437329e-05,-0.008530296579182226,-0.021784807302882923,0.012185119537018523,0.004926434429811852, ,0.009332675175750354, ,0.024961068129954557, ,5.1487601595811704e-05, ,0.14205967122135985,-0.21836799475157223,0.09509453811000002,3.021212705725027,0.21042020963877828,-0.07528433706676607, ,0.02923504052941182,0.02333913958644141,0.008568483873050026,0.010238827854427581,0.00786955923598995,0.04291086273545637, ,1.4084579944610596
0.011937186504641418,0.020991863608624362,-0.08505923036428671, ,0.012272524241930063,0.02086123991965717,-0.08547195859989024, ,0.0005475934099618656, ,0.0037850604840315777,-7.863421317437329e-05,-0.008530296579182226,-0.021784807302882923,0.012185119537018523,0.004926434429811852, ,0.009332675175750354, ,0.024961068129954557, ,5.197657001020777e-05, ,0.14205967122135985,-0.21836799475157223,0.09509453811000002,3.021212705725027,0.21042020963877828,-0.07528433706676607, ,0.02923504052941182,0.02333913958644141,0.008568483873050026,0.010238827854427581,0.00786955923598995,0.04291086273545637, ,1.4133868217468262
0.011975072036445702,0.020993563292190938,-0.0851515911440357, ,0.012297780240811176,0.020862077589606894,-0.08552928897121373, ,0.0005138917432726602, ,0.004189231672859098,0.0005114283968533691,-0.01075149527717673,-0.017780879334512105,-0.006887275528652872,-0.0017774538564161568, ,0.01155014596051268, ,0.019068143340484282, ,5.242014130294883e-05, ,0.14236858053632884,-0.21812086729959707,0.09519564873000001,3.021212705725027,0.21055684613854375,-0.07498736126975972, ,0.030376741856104606,0.022589131530223943,0.011046332538141471,0.009116965976691436,0.007475513776824469,0.022867217925535123, ,1.4183950424194336
0.011975072036445702,0.020993563292190938,-0.0851515911440357, ,0.012323053564950295,0.020862868611692863,-0.08558658402716497, ,0.0005721809609415578, ,0.004189231672859098,0.0005114283968533691,-0.01075149527717673,-0.017780879334512105,-0.006887275528652872,-0.0017774538564161568, ,0.01155014596051268, ,0.019068143340484282, ,5.293238887953243e-05, ,0.14236858053632884,-0.21812086729959707,0.09519564873000001,3.021212705725027,0.21055684613854375,-0.07498736126975972, ,0.030376741856104606,0.022589131530223943,0.011046332538141471,0.009116965976691436,0.007475513776824469,0.022867217925535123, ,1.4237048625946045
0.011975072036445702,0.020993563292190938,-0.0851515911440357, ,0.012348344078726045,0.0208636132219162,-0.08564384364282224, ,0.0006312935615655673, ,0.004189231672859098,0.0005114283968533691,-0.01075149527717673,-0.017780879334512105,-0.006887275528652872,-0.0017774538564161568, ,0.01155014596051268, ,0.019068143340484282, ,5.351356525705638e-05, ,0.14236858053632884,-0.21812086729959707,0.09519564873000001,3.021212705725027,0.21055684613854375,-0.07498736126975972, ,0.030376741856104606,0.022589131530223943,0.011046332538141471,0.009116965976691436,0.007475513776824469,0.022867217925535123, ,1.4294228553771973
0.01201564328739532,0.021002457383716772,-0.08525771149968954, ,0.012373651646832181,0.020864311655894974,-0.0857010676935806, ,0.0005863607611391263, ,0.004531741880219266,0.0009509954177274512,-0.012096802328050717,-0.007003711227688077,0.008257391436481637,-0.004251450210146025, ,0.012952748871085438, ,0.010827567836980837, ,5.403540357245829e-05, ,0.14265432165267514,-0.21792007624486723,0.09530583338000001,3.021632085611996,0.21083011913807462,-0.07488348211659027, ,0.03193033026866446,0.022260600881649256,0.012512813448546743,0.019637258099171582,0.01923029334768829,0.03733021003814669, ,1.435858964920044
0.012065843024588567,0.021016939721609708,-0.08539856136077426, ,0.012398976134277097,0.020864964148864573,-0.08575825605515006, ,0.0005132782058923431, ,0.004464889762153316,0.0014877945483675924,-0.012873961488836379,0.03690469527855497,-0.02905066494343688,-0.01533115865941781, ,0.01370721188361718, ,0.04696698109969512, ,5.446418500734836e-05, ,0.142994121899141,-0.21768067152576626,0.09545231415000001,3.022051465498965,0.21124002863737093,-0.0747276633868362, ,0.030250858003975385,0.021720517637553394,0.013442035037974686,0.018087181000525292,0.05527703598233894,-0.01012923084419668, ,1.4407799243927002
0.012065843024588567,0.021016939721609708,-0.08539856136077426, ,0.012424317406383964,0.02086557093567785,-0.08581540860355708, ,0.0005702438211622419, ,0.004464889762153316,0.0014877945483675924,-0.012873961488836379,0.03690469527855497,-0.02905066494343688,-0.01533115865941781, ,0.01370721188361718, ,0.04696698109969512, ,5.4959137885864415e-05, ,0.142994121899141,-0.21768067152576626,0.09545231415000001,3.022051465498965,0.21124002863737093,-0.0747276633868362, ,0.030250858003975385,0.021720517637553394,0.013442035037974686,0.018087181000525292,0.05527703598233894,-0.01012923084419668, ,1.4456689357757568
0.012113253377399377,0.021025722935102024,-0.08553224855073319, ,0.012449675328789989,0.020866132250805518,-0.08587252521514302, ,0.0005044176089646124, ,0.004660068100141447,0.0007557201861490533,-0.013268948184127704,-0.007407699144581497,0.014615721283582213,-0.00011645788482958323, ,0.014083761344568962, ,0.016385753078008613, ,5.537070175896383e-05, ,0.14331847667985845,-0.21742582134091684,0.09558972089000001,3.022051465498965,0.21137666513713638,-0.07410397262926752, ,0.0313708897713953,0.027763879917633346,0.013626014987168523,0.018087181000525292,0.025649142595309975,0.04331467082019499, ,1.4504659175872803
0.012113253377399377,0.021025722935102024,-0.08553224855073319, ,0.012475049767446436,0.02086664832833618,-0.08592960576656412, ,0.0005604410007678833, ,0.004660068100141447,0.0007557201861490533,-0.013268948184127704,-0.007407699144581497,0.014615721283582213,-0.00011645788482958323, ,0.014083761344568962, ,0.016385753078008613, ,5.584694438636841e-05, ,0.14331847667985845,-0.21742582134091684,0.09558972089000001,3.022051465498965,0.21137666513713638,-0.07410397262926752, ,0.0313708897713953,0.027763879917633346,0.013626014987168523,0.018087181000525292,0.025649142595309975,0.04331467082019499, ,1.4552929401397705
0.012158810416021576,0.02103321493800675,-0.0856581726197451, ,0.012500440588618305,0.020867119401976754,-0.08598665013479208, ,0.0005021915768001342, ,0.004577498474756881,0.0007178107161958007,-0.011881243640652961,-0.016465781286413097,0.02397394906852927,0.003740675208800994, ,0.012752752446403228, ,0.029083877845840732, ,5.624965286247073e-05, ,0.14363510872770166,-0.2171632484231932,0.09571934989000001,3.022051465498965,0.21164993813666727,-0.07359169977539534, ,0.03248782662049667,0.023647381400067474,0.012252931938461541,0.018087181000525292,0.014561327697782412,0.05635527966312534, ,1.4603028297424316
0.012158810416021576,0.02103321493800675,-0.0856581726197451, ,0.012525847658884245,0.02086754570505255,-0.08604365819711303, ,0.000557460099697328, ,0.004577498474756881,0.0007178107161958007,-0.011881243640652961,-0.016465781286413097,0.02397394906852927,0.003740675208800994, ,0.012752752446403228, ,0.029083877845840732, ,5.671573336739869e-05, ,0.14363510872770166,-0.2171632484231932,0.09571934989000001,3.022051465498965,0.21164993813666727,-0.07359169977539534, ,0.03248782662049667,0.023647381400067474,0.012252931938461541,0.018087181000525292,0.014561327697782412,0.05635527966312534, ,1.465268850326538
0.012193939130945025,0.021039412116101337,-0.08574522414777168, ,0.01255127084513587,0.020867927470507745,-0.08610062983112705, ,0.0005323590305444529, ,0.004486986038806887,0.0005821884382960505,-0.010652471460586154,0.038904779820497885,-0.037297182669799624,-0.017276474704043893, ,0.01157355327065703, ,0.05389491247620789, ,5.714848346350652e-05, ,0.1438976816454253,-0.2169701801013376,0.09581009019000002,3.022051465498965,0.21205984763596358,-0.07343588104564122, ,0.03398887591635773,0.026754141967429035,0.011107957824267782,0.018087181000525292,0.06136376450522341,-0.015897605069704064, ,1.4710259437561035
0.012193939130945025,0.021039412116101337,-0.08574522414777168, ,0.012576710014577887,0.020868264930905402,-0.08615756491474934, ,0.000588072968660606, ,0.004486986038806887,0.0005821884382960505,-0.010652471460586154,0.038904779820497885,-0.037297182669799624,-0.017276474704043893, ,0.01157355327065703, ,0.05389491247620789, ,5.7644468604304244e-05, ,0.1438976816454253,-0.2169701801013376,0.09581009019000002,3.022051465498965,0.21205984763596358,-0.07343588104564122, ,0.03398887591635773,0.026754141967429035,0.011107957824267782,0.018087181000525292,0.06136376450522341,-0.015897605069704064, ,1.4762749671936035
0.012253021642695035,0.02104579238242893,-0.08588060524438657, ,0.012602165034727697,0.02086855831842773,-0.08621446332620816, ,0.0005145621832587875, ,0.004926226083830987,0.0004502148153246767,-0.011169597709142715,0.015578987713537863,-0.010232260878955086,-0.0033370619380702574, ,0.01221598582976588, ,0.018638772680044394, ,5.811866485852061e-05, ,0.14435332288500455,-0.21661493438912327,0.09595138580000001,3.0222611554424494,0.21287966663455624,-0.0733692798065547, ,0.03788301060218394,0.027935514147327284,0.011609920932944608,0.015793500135747263,0.04564052194748156,0.020999644975909483, ,1.4796319007873535
0.012253021642695035,0.02104579238242893,-0.08588060524438657, ,0.01262763577341506,0.020868807864876566,-0.08627132494404606, ,0.0005694920105588557, ,0.004926226083830987,0.0004502148153246767,-0.011169597709142715,0.015578987713537863,-0.010232260878955086,-0.0033370619380702574, ,0.01221598582976588, ,0.018638772680044394, ,5.8655696470892426e-05, ,0.14435332288500455,-0.21661493438912327,0.09595138580000001,3.0222611554424494,0.21287966663455624,-0.0733692798065547, ,0.03788301060218394,0.027935514147327284,0.011609920932944608,0.015793500135747263,0.04564052194748156,0.020999644975909483, ,1.4828839302062988
0.012253021642695035,0.02104579238242893,-0.08588060524438657, ,0.012653122098782074,0.02086901380167337,-0.08632814964711905, ,0.0006258011137671289, ,0.004926226083830987,0.0004502148153246767,-0.011169597709142715,0.015578987713537863,-0.010232260878955086,-0.0033370619380702574, ,0.01221598582976588, ,0.018638772680044394, ,5.925674815035501e-05, ,0.14435332288500455,-0.21661493438912327,0.09595138580000001,3.0222611554424494,0.21287966663455624,-0.0733692798065547, ,0.03788301060218394,0.027935514147327284,0.011609920932944608,0.015793500135747263,0.04564052194748156,0.020999644975909483, ,1.4861879348754883
0.0123011047884064,0.021047211970313555,-0.08598764381891374, ,0.012678623879282553,0.020869176359859586,-0.08638493731459605, ,0.0005762460102049667, ,0.004995805330012005,7.967372311395646e-05,-0.0111774131139522,-0.015115427591642309,0.01691990422214048,0.006602119258249821, ,0.012243324006064768, ,0.022688303940583847, ,5.979652705826097e-05, ,0.1447162913300931,-0.2163446387385254,0.09606157045000001,3.022680535329419,0.21301630313432166,-0.07274558904898606, ,0.03829577948283728,0.029636771254987752,0.011500946945848377,0.014925620106575489,0.022140631098468835,0.05478873304495067, ,1.489434003829956
0.0123011047884064,0.021047211970313555,-0.08598764381891374, ,0.01270414098368209,0.02086929577009672,-0.0864416878259596, ,0.0006326518073444147, ,0.004995805330012005,7.967372311395646e-05,-0.0111774131139522,-0.015115427591642309,0.01691990422214048,0.006602119258249821, ,0.012243324006064768, ,0.022688303940583847, ,6.040012559147025e-05, ,0.1447162913300931,-0.2163446387385254,0.09606157045000001,3.022680535329419,0.21301630313432166,-0.07274558904898606, ,0.03829577948283728,0.029636771254987752,0.011500946945848377,0.014925620106575489,0.022140631098468835,0.05478873304495067, ,1.4926838874816895
0.0123011047884064,0.021047211970313555,-0.08598764381891374, ,0.012729673281057723,0.020869372262666865,-0.08649840106100416, ,0.0006900513566808613, ,0.004995805330012005,7.967372311395646e-05,-0.0111774131139522,-0.015115427591642309,0.01691990422214048,0.006602119258249821, ,0.012243324006064768, ,0.022688303940583847, ,6.106826069181993e-05, ,0.1447162913300931,-0.2163446387385254,0.09606157045000001,3.022680535329419,0.21301630313432166,-0.07274558904898606, ,0.03829577948283728,0.029636771254987752,0.011500946945848377,0.014925620106575489,0.022140631098468835,0.05478873304495067, ,1.4959988594055176
0.012353867171558909,0.0210487204965715,-0.08610854089373689, ,0.012755220640797356,0.020869406067472836,-0.08655507689983791, ,0.0006266040827327622, ,0.005552556147251683,7.099424659796558e-05,-0.013032782975209751,-0.022150485603597357,-0.007716882592779823,-0.034889691730712005, ,0.014166486933264352, ,0.023456212682947734, ,6.165897212197112e-05, ,0.14511015070667854,-0.2160280066906822,0.09618601429000001,3.0230999152163878,0.21328957613385255,-0.0723149949352544, ,0.040658501096174283,0.03301911675660083,0.013340713165829148,0.04297401624493945,0.009023798207301627,0.025137443941385097, ,1.4992458820343018
0.012353867171558909,0.0210487204965715,-0.08610854089373689, ,0.012780782932600144,0.020869397414038114,-0.08661171522288057, ,0.0006838115533272923, ,0.005552556147251683,7.099424659796558e-05,-0.013032782975209751,-0.022150485603597357,-0.007716882592779823,-0.034889691730712005, ,0.014166486933264352, ,0.023456212682947734, ,6.231375437557317e-05, ,0.14511015070667854,-0.2160280066906822,0.09618601429000001,3.0230999152163878,0.21328957613385255,-0.0723149949352544, ,0.040658501096174283,0.03301911675660083,0.013340713165829148,0.04297401624493945,0.009023798207301627,0.025137443941385097, ,1.5024850368499756
0.012353867171558909,0.0210487204965715,-0.08610854089373689, ,0.012806360026475495,0.02086934653150773,-0.08666831591086416, ,0.0007418037967637374, ,0.005552556147251683,7.099424659796558e-05,-0.013032782975209751,-0.022150485603597357,-0.007716882592779823,-0.034889691730712005, ,0.014166486933264352, ,0.023456212682947734, ,6.303307405857152e-05, ,0.14511015070667854,-0.2160280066906822,0.09618601429000001,3.0230999152163878,0.21328957613385255,-0.0723149949352544, ,0.040658501096174283,0.03301911675660083,0.013340713165829148,0.04297401624493945,0.009023798207301627,0.025137443941385097, ,1.505897045135498
0.012409892116068732,0.02105337614021682,-0.08624923452727429, ,0.012831951792743407,0.020869253648647758,-0.08672487884483257, ,0.0006620218874038947, ,0.0056588571670863255,0.000668170245023374,-0.014490689836395055,0.032021803742995014,-0.012221148832733899,-0.027103383001656014, ,0.015570780579290872, ,0.03427465178274547, ,6.365627840657937e-05, ,0.14551945554901244,-0.21567276097846788,0.09633119877000001,3.0230999152163878,0.21383612213291428,-0.07235227284933726, ,0.04005780563886483,0.035409306551668206,0.014998880903954804,0.03947891032968308,0.06513805286320705,0.013148161072323993, ,1.5094349384307861
0.012409892116068732,0.02105337614021682,-0.08624923452727429, ,0.012857558102033826,0.020869118993846154,-0.08678140390614163, ,0.0007194162764233309, ,0.0056588571670863255,0.000668170245023374,-0.014490689836395055,0.032021803742995014,-0.012221148832733899,-0.027103383001656014, ,0.015570780579290872, ,0.03427465178274547, ,6.434317367294848e-05, ,0.14551945554901244,-0.21567276097846788,0.09633119877000001,3.0230999152163878,0.21383612213291428,-0.07235227284933726, ,0.04005780563886483,0.035409306551668206,0.014998880903954804,0.03947891032968308,0.06513805286320705,0.013148161072323993, ,1.512850046157837
0.012409892116068732,0.02105337614021682,-0.08624923452727429, ,0.012883178825286584,0.020868942795112772,-0.0868378909764581, ,0.0007775168056538855, ,0.0056588571670863255,0.000668170245023374,-0.014490689836395055,0.032021803742995014,-0.012221148832733899,-0.027103383001656014, ,0.015570780579290872, ,0.03427465178274547, ,6.509413485154569e-05, ,0.14551945554901244,-0.21567276097846788,0.09633119877000001,3.0230999152163878,0.21383612213291428,-0.07235227284933726, ,0.04005780563886483,0.035409306551668206,0.014998880903954804,0.03947891032968308,0.06513805286320705,0.013148161072323993, ,1.516441822052002
0.012472813464975143,0.021061948654352,-0.08641648456407441, ,0.01290881383375113,0.020868725280079457,-0.08689433993776048, ,0.0006751128439740395, ,0.00662716069376611,0.001060497550579755,-0.017867684911484934,-0.010884082521732024,0.006201505474602675,-0.01121299605876966, ,0.019086594196238642, ,0.012526775377542149, ,6.572337800890244e-05, ,0.14595965132284322,-0.21530979253337934,0.09650360534,3.0230999152163878,0.21424603163221062,-0.07195141789916149, ,0.04501752445847759,0.035702385838401345,0.018414811005780348,0.030006474093396563,0.02881462423267139,0.045963783323088134, ,1.5198910236358643
0.012472813464975143,0.021061948654352,-0.08641648456407441, ,0.012934462998986044,0.020868466676000626,-0.08695075067233772, ,0.0007321173694415829, ,0.00662716069376611,0.001060497550579755,-0.017867684911484934,-0.010884082521732024,0.006201505474602675,-0.01121299605876966, ,0.019086594196238642, ,0.012526775377542149, ,6.641539484464413e-05, ,0.14595965132284322,-0.21530979253337934,0.09650360534,3.0230999152163878,0.21424603163221062,-0.07195141789916149, ,0.04501752445847759,0.035702385838401345,0.018414811005780348,0.030006474093396563,0.02881462423267139,0.045963783323088134, ,1.523176908493042
0.012472813464975143,0.021061948654352,-0.08641648456407441, ,0.012960126192859177,0.020868167209753177,-0.08700712306278989, ,0.0007898599744217056, ,0.00662716069376611,0.001060497550579755,-0.017867684911484934,-0.010884082521732024,0.006201505474602675,-0.01121299605876966, ,0.019086594196238642, ,0.012526775377542149, ,6.717060080410667e-05, ,0.14595965132284322,-0.21530979253337934,0.09650360534,3.0230999152163878,0.21424603163221062,-0.07195141789916149, ,0.04501752445847759,0.035702385838401345,0.018414811005780348,0.030006474093396563,0.02881462423267139,0.045963783323088134, ,1.5264358520507812
0.01253955316025289,0.02107269904838683,-0.08660197378863435, ,0.012985803287546983,0.020867827107837016,-0.08706345699202728, ,0.0006738534225990386, ,0.007292127575877579,0.0011768270213101577,-0.02080429094271513,-0.04298715865369353,0.027908779079358882,0.0015581996437666317, ,0.022076652102393124, ,0.051252237624434475, ,6.778930747955488e-05, ,0.14640756982954825,-0.214954546821165,0.09669415997000001,3.0230999152163878,0.21438266813197607,-0.07116436966131172, ,0.04728298034801733,0.03913275940555496,0.021323710200803217,0.024729832709393045,0.005736331521690543,0.07673188116297444, ,1.5297999382019043
0.01253955316025289,0.02107269904838683,-0.08660197378863435, ,0.01301149415553457,0.020867446596374992,-0.08711975234327077, ,0.0007300352756721497, ,0.007292127575877579,0.0011768270213101577,-0.02080429094271513,-0.04298715865369353,0.027908779079358882,0.0015581996437666317, ,0.022076652102393124, ,0.051252237624434475, ,6.846946384192677e-05, ,0.14640756982954825,-0.214954546821165,0.09669415997000001,3.0230999152163878,0.21438266813197607,-0.07116436966131172, ,0.04728298034801733,0.03913275940555496,0.021323710200803217,0.024729832709393045,0.005736331521690543,0.07673188116297444, ,1.5331578254699707
0.01253955316025289,0.02107269904838683,-0.08660197378863435, ,0.013037198669615065,0.020867025901113657,-0.08717600900005076, ,0.00078706347929724, ,0.007292127575877579,0.0011768270213101577,-0.02080429094271513,-0.04298715865369353,0.027908779079358882,0.0015581996437666317, ,0.022076652102393124, ,0.051252237624434475, ,6.921161515655392e-05, ,0.14640756982954825,-0.214954546821165,0.09669415997000001,3.0230999152163878,0.21438266813197607,-0.07116436966131172, ,0.04728298034801733,0.03913275940555496,0.021323710200803217,0.024729832709393045,0.005736331521690543,0.07673188116297444, ,1.536409854888916
0.012615631893908918,0.021088848755555827,-0.08680801395535387, ,0.01306291670288995,0.020866565247422742,-0.08723222684620825, ,0.000655309266758973, ,0.007414507246051552,0.0018001682242663403,-0.01990195240026382,0.048554867211933674,-0.015430902632769977,-0.0033522671416741324, ,0.021314390272296695, ,0.05094786319074936, ,6.980032362631004e-05, ,0.14691727019924708,-0.21455296471170532,0.09690804782000001,3.023728985046841,0.21506585063080325,-0.07082299303824763, ,0.05096505991324961,0.038280331407208865,0.02076768125162973,0.022596532170779754,0.08904762392728895,0.022705693433195645, ,1.5396618843078613
0.012615631893908918,0.021088848755555827,-0.08680801395535387, ,0.013088648128768117,0.0208660648602962,-0.08728840576589295, ,0.0007100375441203363, ,0.007414507246051552,0.0018001682242663403,-0.01990195240026382,0.048554867211933674,-0.015430902632769977,-0.0033522671416741324, ,0.021314390272296695, ,0.05094786319074936, ,7.044854737275061e-05, ,0.14691727019924708,-0.21455296471170532,0.09690804782000001,3.023728985046841,0.21506585063080325,-0.07082299303824763, ,0.05096505991324961,0.038280331407208865,0.02076768125162973,0.022596532170779754,0.08904762392728895,0.022705693433195645, ,1.5429649353027344
0.012615631893908918,0.021088848755555827,-0.08680801395535387, ,0.013114392820966147,0.0208655249643518,-0.0873445456435646, ,0.0007658343362183387, ,0.007414507246051552,0.0018001682242663403,-0.01990195240026382,0.048554867211933674,-0.015430902632769977,-0.0033522671416741324, ,0.021314390272296695, ,0.05094786319074936, ,7.115709299800327e-05, ,0.14691727019924708,-0.21455296471170532,0.09690804782000001,3.023728985046841,0.21506585063080325,-0.07082299303824763, ,0.05096505991324961,0.038280331407208865,0.02076768125162973,0.022596532170779754,0.08904762392728895,0.022705693433195645, ,1.5462608337402344
0.012694226111325346,0.021101816666182008,-0.08700633544897676, ,0.013140150653507814,0.02086494578383186,-0.08740064636399172, ,0.000640654048551882, ,0.007871391846858724,0.0006391390441144954,-0.018804380073179403,0.02360419938082777,-0.032754621717015785,-0.09044597448243732, ,0.020395392084024574, ,0.040373520047238085, ,7.17208258741977e-05, ,0.14746558423331702,-0.2141359371364972,0.09711415793000001,3.024358054877295,0.21574903312963048,-0.07080833137574577, ,0.05569069340285844,0.0451245561381221,0.01944909831501832,0.09484917052582835,0.05511559566172491,-0.0038998197500722184, ,1.5495388507843018
0.012694226111325346,0.021101816666182008,-0.08700633544897676, ,0.01316592150072366,0.02086432754260316,-0.08745670781225179, ,0.0006940698018209752, ,0.007871391846858724,0.0006391390441144954,-0.018804380073179403,0.02360419938082777,-0.032754621717015785,-0.09044597448243732, ,0.020395392084024574, ,0.040373520047238085, ,7.234230234154823e-05, ,0.14746558423331702,-0.2141359371364972,0.09711415793000001,3.024358054877295,0.21574903312963048,-0.07080833137574577, ,0.05569069340285844,0.0451245561381221,0.01944909831501832,0.09484917052582835,0.05511559566172491,-0.0038998197500722184, ,1.5554449558258057
0.012694226111325346,0.021101816666182008,-0.08700633544897676, ,0.013191705237251107,0.020863670464157418,-0.08751272987373093, ,0.000748755238841574, ,0.007871391846858724,0.0006391390441144954,-0.018804380073179403,0.02360419938082777,-0.032754621717015785,-0.09044597448243732, ,0.020395392084024574, ,0.040373520047238085, ,7.302256206469968e-05, ,0.14746558423331702,-0.2141359371364972,0.09711415793000001,3.024358054877295,0.21574903312963048,-0.07080833137574577, ,0.05569069340285844,0.0451245561381221,0.01944909831501832,0.09484917052582835,0.05511559566172491,-0.0038998197500722184, ,1.5620019435882568
0.012718032485089754,0.021102471346903035,-0.08706306194659029, ,0.013217501738033993,0.020862974771611267,-0.0875687124341235, ,0.0007500070398041137, ,0.007836922138889927,0.00017852943601997032,-0.01834572586138919,-0.009677487833662653,-0.026692083167020614,-0.06505550210642269, ,0.019973306328841745, ,0.028392234791000292, ,7.378407441311297e-05, ,0.14763548435654994,-0.21398920521188694,0.09717249098000001,3.024567744820779,0.2158856696293959,-0.07067471305902054, ,0.056218567273975575,0.04633639724534706,0.01885066452071006,0.07043672428531064,0.028816913126136663,0.01249925103565781, ,1.5641100406646729
0.012718032485089754,0.021102471346903035,-0.08706306194659029, ,0.013243310878322286,0.0208622406877068,-0.08762465537943254, ,0.000805614885554102, ,0.007836922138889927,0.00017852943601997032,-0.01834572586138919,-0.009677487833662653,-0.026692083167020614,-0.06505550210642269, ,0.01995031024199355, ,0.028392234791000292, ,7.460635622338374e-05, ,0.14763548435654994,-0.21398920521188694,0.09717249098000001,3.024567744820779,0.2158856696293959,-0.07067471305902054, ,0.056218567273975575,0.04633639724534706,0.01885066452071006,0.07043672428531064,0.028816913126136663,0.01249925103565781, ,1.5662329196929932
0.012718032485089754,0.021102471346903035,-0.08706306194659029, ,0.013269132533671842,0.0208614684348116,-0.08768055859596853, ,0.000862030033802237, ,0.007836922138889927,0.00017852943601997032,-0.01834572586138919,-0.009677487833662653,-0.026692083167020614,-0.06505550210642269, ,0.01995031024199355, ,0.028392234791000292, ,7.549010894793913e-05, ,0.14763548435654994,-0.21398920521188694,0.09717249098000001,3.024567744820779,0.2158856696293959,-0.07067471305902054, ,0.056218567273975575,0.04633639724534706,0.01885066452071006,0.07043672428531064,0.028816913126136663,0.01249925103565781, ,1.567903995513916
0.012718032485089754,0.021102471346903035,-0.08706306194659029, ,0.013294966579944176,0.0208606582349191,-0.08773642197035014, ,0.0009190975206857634, ,0.007836922138889927,0.00017852943601997032,-0.01834572586138919,-0.009677487833662653,-0.026692083167020614,-0.06505550210642269, ,0.01995031024199355, ,0.028392234791000292, ,7.643585716737615e-05, ,0.14763548435654994,-0.21398920521188694,0.09717249098000001,3.024567744820779,0.2158856696293959,-0.07067471305902054, ,0.056218567273975575,0.04633639724534706,0.01885066452071006,0.07043672428531064,0.028816913126136663,0.01249925103565781, ,1.5696079730987549
0.012718032485089754,0.021102471346903035,-0.08706306194659029, ,0.013320812893306236,0.020859810309648712,-0.08779224538950316, ,0.0009766970323233483, ,0.007836922138889927,0.00017852943601997032,-0.01834572586138919,-0.009677487833662653,-0.026692083167020614,-0.06505550210642269, ,0.01995031024199355, ,0.028392234791000292, ,7.744398838255642e-05, ,0.14763548435654994,-0.21398920521188694,0.09717249098000001,3.024567744820779,0.2158856696293959,-0.07067471305902054, ,0.056218567273975575,0.04633639724534706,0.01885066452071006,0.07043672428531064,0.028816913126136663,0.01249925103565781, ,1.5714879035949707
0.012718032485089754,0.021102471346903035,-0.08706306194659029, ,0.013346671350230066,0.020858924880246255,-0.08784802874066092, ,0.0010347340585770916, ,0.007836922138889927,0.00017852943601997032,-0.01834572586138919,-0.009677487833662653,-0.026692083167020614,-0.06505550210642269, ,0.01995031024199355, ,0.028392234791000292, ,7.851478264451899e-05, ,0.14763548435654994,-0.21398920521188694,0.09717249098000001,3.024567744820779,0.2158856696293959,-0.07067471305902054, ,0.056218567273975575,0.04633639724534706,0.01885066452071006,0.07043672428531064,0.028816913126136663,0.01249925103565781, ,1.5732450485229492
0.012878564680801211,0.021090480403244398,-0.0873886446021605, ,0.013372541827492576,0.02085800216758393,-0.0879037719113635, ,0.0007506102158882935, ,0.0070475146130891545,-0.0013163470877788595,-0.011516588457263879,-0.0011730884592589651,-0.01942359678415333,0.028191565277456622, ,0.013565840982821252, ,0.019458983683020098, ,7.926572726266846e-05, ,0.14889428981504854,-0.21298524993823775,0.09750693380000001,3.024777434764264,0.2165688521282231,-0.06951654903455085, ,0.060443911820682025,0.04856547674435557,0.011878308366890382,-0.010014756506378826,0.05659998459258709,0.04064672842864665, ,1.5749049186706543
