NicholasDascanio/dvrk_moveit_final/test/execution/third_experiment_notsharpbends/thirdexp_700vel3.0/thirdexp_700vel3.0_6.csv
Current Position (x),Current Position (y),Current Position (z), ,Planned Position (x),Planned Position (y),Planned Position (z), ,Position Error,,Cartesian linear Velocity(x),Cartesian linear Velocity(y),Cartesian linear Velocity(z),Cartesian Angular Velocity(x),Cartesian Angular Velocity(y),Cartesian Angular Velocity(z), ,Total Linear Velocity, ,Total Angular Velocity, ,MSE, ,Joint 1 Position,Joint 2 Position,Joint 3 Position,Joint 4 Position,Joint 5 Position,Joint 6 Position, ,Joint 1 Velocity,Joint 2 Velocity,Joint 3 Velocity,Joint 4 Velocity,Joint 5 Velocity,Joint 6 Velocity, ,Time Stamp
0.009536411233904193,0.020284427782413305,-0.07969210174739344, ,0.009652894492849158,0.020179247034526136,-0.07953457559700722, ,0.00022236417741184546, ,-6.71746901420771e-06,6.047534714456688e-06,7.35458507448106e-07,0.00020934590086532667,0.0003681681938921033,-0.001115270708952894, ,9.068515054603881e-06, ,0.0004235251175584378, ,1.8530348117653787e-05, ,0.042251071554882294,-0.18882854150766348,0.09344695352000001,4.040305831059816,1.0456791327049157,-0.19034831318889386, ,-0.00015353000401909832,-0.0001620475820162146,0.0,0.0011434441806105202,0.0,0.0, ,0.01789093017578125
0.009540215770027411,0.020282041648311135,-0.07967388186715828, ,0.009674881349376408,0.020190010646720012,-0.07957937692014025, ,0.00018850917358618523, ,0.0005311537071447419,0.00040891834362314586,1.1877205540374226e-05,0.42902651111156886,0.03374559300813825,0.8796309484508522, ,0.0006704323533187728, ,0.4303516147106178, ,1.8676061409001394e-05, ,0.042258794287756515,-0.18882854150766348,0.09343528691000001,4.0405155210033,1.0464989517035084,-0.18088865683364264, ,0.0004574604379786269,-0.00021711281707429404,0.0011707146002283783,0.0012019491727835333,0.13706325934133914,0.9705740355729748, ,0.03431391716003418
0.00955161919280828,0.02028660607452598,-0.07964982291725228, ,0.009696889544539407,0.02020067664866322,-0.07962418901497244, ,0.00017071742227224907, ,0.0016895492693060942,0.0006786464197962084,0.003699986537960465,0.5714937154587615,-0.25485583789074606,0.6649302752317293, ,0.004123716537009259, ,0.6257448081419034, ,1.817471166469624e-05, ,0.042274239753504965,-0.18882854150766348,0.09343787949000001,4.0405155210033,1.0496415911981134,-0.17177120877856006, ,0.0020131264115137606,-0.00021711281707429404,0.0003134099659819611,0.0011855100223562805,0.4730879991878648,0.7811525253039311, ,0.05320096015930176
0.009589885614786228,0.020303583043059716,-0.07957772892133473, ,0.009718918964899105,0.020211245389295286,-0.07966901176614222, ,0.0001830530128138279, ,0.0013362409565875367,0.0005838885215329182,0.0032573550273735596,0.3177429687567754,-0.2831555018583357,0.1282852205205433, ,0.0035688692150309563, ,0.42560266966665256, ,1.820580443057399e-05, ,0.04229740795212764,-0.1888362642405377,0.09345862013,4.040725210946784,1.0605725111793487,-0.1633687481644744, ,0.0009607683555630374,-0.0008305137620120474,0.0001590275195609455,0.000535993846751088,0.40052225885442083,0.19046188993159952, ,0.06951904296875
0.009605880083818415,0.02031218967917989,-0.07959442293379575, ,0.009740969497256106,0.02022171721704051,-0.07971384505843548, ,0.00020173264456197973, ,0.00014548701955525832,5.058902531373291e-05,-0.0013041547407302003,-0.3430631801447052,-0.05266469884458087,-0.7866288860950716, ,0.0013132194447655432, ,0.3470820019467807, ,1.858416212780937e-05, ,0.042374635280869884,-0.1888362642405377,0.09349621254000001,4.040934900890268,1.0628953316753613,-0.16853000213293617, ,0.004520255865361524,-0.0006665225708103767,0.0006584729956392634,0.00400887284691337,-0.08399092236627141,-0.8522066794787015, ,0.08649706840515137
0.009593196526108122,0.020304649116067122,-0.07968379633803602, ,0.009763041028651063,0.02023209247980787,-0.07975868877678523, ,0.00019930001979708982, ,-0.00019840916894771745,0.000100225231978912,-0.004926801792578761,-0.11233525671199213,0.24229099703893256,0.1999286395305106, ,0.00493181378387354, ,0.26706579178877693, ,1.8801233071664147e-05, ,0.04248275354110903,-0.1888362642405377,0.09352084205000001,4.041354280777238,1.0551070511887313,-0.17247070287995103, ,0.006737501051730056,-0.0005256281503829176,0.002621163653118315,0.01222724466541561,-0.2864680616136721,0.19123304140717573, ,0.10669994354248047
0.009607699438111576,0.020312303511449338,-0.07972730361963107, ,0.009785133446363899,0.02024237152499172,-0.07980354280627219, ,0.00020539163467408884, ,0.000892495850649143,0.00037341416317747254,-0.0020538564106054183,0.039248535280712135,-0.01168886525908799,0.039478541526970175, ,0.002270311242114711, ,0.04095213172338984, ,1.904261229329536e-05, ,0.04262176273284507,-0.1888362642405377,0.09356750849,4.0415639707207225,1.0552436876884965,-0.17201036960266336, ,0.007723150395357163,-0.00043836936732887714,0.0023514631709477415,0.021584536536593014,0.022646590640625314,0.0683062742124386, ,0.12391185760498047
0.009615313842880946,0.0203177166183029,-0.07974942067878325, ,0.009807246637914229,0.020252554699471917,-0.07984840703212434, ,0.00022557165518475648, ,0.0008293192058640709,0.00034643403021656407,-0.002316590420629517,0.03637900954224315,0.007565591838712402,0.0729642938591403, ,0.002484829583585069, ,0.03715737497560735, ,1.9471216345146615e-05, ,0.04269899006158731,-0.18884398697341193,0.093592138,4.0415639707207225,1.055380324188262,-0.1713050001049543, ,0.007865836635277502,0.0,0.0024382077942752185,0.018713105093433713,0.0021662221021670606,0.09871732074861961, ,0.14605498313903809
0.00961603845444909,0.02031820331600217,-0.07975189058470784, ,0.009829380491060706,0.0202626423496141,-0.07989328133971667, ,0.00026190301864150784, ,0.0008391515118708274,0.00034095788149216737,-0.0022739344441757283,0.03596179054065519,0.006789705665481788,0.07127895941072486, ,0.0024476938928786624, ,0.03659713761830335, ,2.0201551727647068e-05, ,0.042992453910807846,-0.18885170970628615,0.09363750815,4.041773660664207,1.0562001431868546,-0.17148343508628944, ,0.008375041929031397,-0.00026313016588978643,0.0015859394433403763,0.0,-0.01198028763948416,0.007387655771575409, ,0.1625080108642578
0.009653454139516755,0.020328728004198268,-0.07980135159279717, ,0.009851534893800935,0.020272634821270116,-0.07993816561457154, ,0.00024718516731972294, ,0.0009070683739144807,0.000310542311685187,-0.0019503782339861191,-0.0028878493234812865,0.0005087394737972005,-0.004663699270444225, ,0.002173288940272198, ,0.0029323181169696373, ,2.064439143395346e-05, ,0.043085126705298536,-0.18885170970628615,0.09365565621000001,4.041983350607691,1.0562001431868546,-0.17132007760600826, ,0.00992974983131468,-0.00026313016588978643,0.0019975936192626036,0.012103431786046323,-0.009447609576225344,0.006535886873543732, ,0.17920207977294922
0.009676445293856393,0.020335429585018723,-0.07985691035268039, ,0.009873709734371511,0.02028253245977831,-0.07998305974235854, ,0.0002400521482232847, ,0.0011681451992536472,0.0003805199554351008,-0.002850530709419291,0.0012181982045110628,-0.003174004631453786,-0.02888849845540606, ,0.003104010948493275, ,0.0033997517670794966, ,2.094446495077266e-05, ,0.04330908595865105,-0.18885170970628615,0.09371269297000001,4.042612420438145,1.0560635066870894,-0.1712903384424525, ,0.011134190866841292,-0.00026313016588978643,0.002971238858421936,0.03210672811912718,-0.0020583602916053943,0.0025416078797950463, ,0.19754600524902344
0.009695713922484209,0.020346587047301464,-0.07991178282445231, ,0.009895904901247452,0.02029233560996377,-0.08002796360889423, ,0.00023773434986331182, ,0.0012832594908474102,0.00038191617566809416,-0.002614234338214833,0.0019572501863892562,-0.0072655445456283035,-0.027628558921137757, ,0.0029371476062990845, ,0.007524557509550182, ,2.117634774057254e-05, ,0.04352532247912934,-0.1888594324391604,0.09376972973000001,4.042612420438145,1.0559268701873237,-0.17109724179861524, ,0.01278762182434588,-0.00046804454616124354,0.0027721565471632444,0.02887470404550118,0.0,0.0007384910006013926, ,0.2145099639892578
0.009706130666805254,0.020352317803095658,-0.07993721467680087, ,0.009918120283142444,0.02030204461613874,-0.08007287710014217, ,0.00025665401588213847, ,0.001254104392618376,0.00037900152673178114,-0.0026109688261070772,0.0016766537072324065,-0.007963914365965899,-0.022154662092845473, ,0.002921228884519783, ,0.008138494919889853, ,2.1516427577515063e-05, ,0.04364116347224271,-0.18886715517203462,0.09379695182000002,4.042612420438145,1.0559268701873237,-0.1710155630584747, ,0.012710546686106453,-8.597700033276167e-05,0.0027649386425967716,0.024106348385458966,0.0,0.0016123934769089483, ,0.23137593269348145
0.009723549208339637,0.020357853448252902,-0.0799712298029127, ,0.009940355769008372,0.020311659822102698,-0.0801178001022131, ,0.000265747602967403, ,0.001097629785956515,0.0004576309499360429,-0.0024553291864184757,0.0006665160183050942,-0.010549294723788799,-0.005692434763011053, ,0.0027281603044976527, ,0.010570329355454244, ,2.187264819154501e-05, ,0.043826509061224095,-0.18886715517203462,0.09383324794,4.042822110381629,1.0559268701873237,-0.17093388431833423, ,0.011908262210875991,-8.597700033276167e-05,0.0026155683940886705,0.006614627827394215,0.0,0.0008559278700324743, ,0.25224900245666504
0.009754335249669906,0.020366085689117353,-0.08003750616370059, ,0.009962611248035056,0.020321181571143092,-0.08016273250136464, ,0.00024713742523300346, ,0.0013078345720508385,0.0001024571064626381,-0.00196819147335698,0.0016307411839291113,-0.00428240718054781,-0.04295644673038972, ,0.002365313172142585, ,0.004582393265471109, ,2.2059562292318386e-05, ,0.04412769564331885,-0.18887487790490884,0.09390195131000001,4.043660870155568,1.0557902336875584,-0.1707407876744974, ,0.012499597149429767,0.00026595806507234866,0.002082197584313726,0.043764907286570245,0.0,0.0, ,0.26961302757263184
0.009777439265205162,0.02037302021504407,-0.08008359124533827, ,0.009984886609650452,0.02033061020603523,-0.08020767418400107, ,0.00024541716575807876, ,0.001072045448043573,0.000594575243912049,-0.00235985374610678,0.00011675903670517636,-0.01469886547311496,0.024231404601769153, ,0.00265926885935932, ,0.01469932919544963, ,2.2212781692533785e-05, ,0.04438254582816826,-0.18886715517203462,0.09394991404000001,4.043870560099052,1.0556535971877927,-0.17054769103066036, ,0.013250061652955987,-4.258149076150268e-05,0.0025412909253350355,-0.019034033580440635,-0.0017368053422197674,0.005757095954703356, ,0.28643107414245605
0.009787990418525985,0.020378924215231894,-0.08010627587995639, ,0.010007181743519982,0.020339946069042852,-0.08025262503667362, ,0.00026642486465193503, ,0.0012353784478106144,0.0004959858020183822,-0.002590789086383257,0.0015162157432784106,-0.01074239796355603,0.002874996679931466, ,0.00291279074346946, ,0.010848872018364583, ,2.26017280634059e-05, ,0.044513832287030076,-0.18886715517203462,0.09397454355000001,4.043660870155568,1.0556535971877927,-0.17046601229051977, ,0.013747202891274922,-4.258149076150268e-05,0.002759669355509356,0.0038357026391631103,-0.0017368053422197674,0.006925080023148898, ,0.30138587951660156
0.009816745303763138,0.02038648837739524,-0.08016223031483441, ,0.010029496539546741,0.020349189501918222,-0.08029758494608037, ,0.0002549022766454451, ,0.0014163428837777382,0.00047135842744362255,-0.003017226816067213,0.002201345247163845,-0.005731975125731164,-0.01598902321621126, ,0.0033662833498006458, ,0.006140151422331064, ,2.288776541937696e-05, ,0.044807296136250604,-0.18887487790490884,0.09403287660000001,4.0442899399860215,1.0555169606880275,-0.17027291564668268, ,0.01453023144364887,-0.00041520968530386567,0.003172438064130652,0.025070030315509948,-0.003753595159229002,0.008771252302332012, ,0.3189990520477295
0.009841825879772205,0.020397586752375983,-0.08022309437562579, ,0.010051830887871155,0.020358340845902753,-0.08034255379906609, ,0.0002447711144114723, ,0.0013431624021554875,0.00042775041220716355,-0.0030529285994878507,0.0017742188004502037,-0.0032820057589440814,-0.025014610280267423, ,0.003362652031846047, ,0.0037308730732104976, ,2.309295708941442e-05, ,0.04507759178684846,-0.18888260063778306,0.09409639481000001,4.044499629929506,1.055380324188262,-0.1699981402627052, ,0.013091038978958585,-0.00037883151464638816,0.0032521052511229076,0.03171498914244628,-0.005161573661599472,0.009000084107708426, ,0.3335258960723877
0.009853482257071833,0.020403988764402727,-0.08025729822193006, ,0.01007418467887068,0.02036740044172706,-0.08038753148262219, ,0.00025886090190408996, ,0.001422438707470658,0.0005036491060843506,-0.003292765192165862,-0.00011110651859883329,-0.0011743807959403274,-0.011938928986582343, ,0.003622056999732258, ,0.0011796247391716766, ,2.3350655514158665e-05, ,0.04520887824571028,-0.18888260063778306,0.09413139464,4.044499629929506,1.0552436876884965,-0.1698867223590087, ,0.014669491661535132,-0.00034250232421971705,0.0034065037467921307,0.024907872272095528,-0.009264531844500526,0.012257548144620769, ,0.34839487075805664
0.009883379863097657,0.02041318469753642,-0.08031804806798848, ,0.010096557803159871,0.020376368629611234,-0.08043251788388674, ,0.00024475211079461956, ,0.0013907104961349425,0.0004221259638858652,-0.0025934315443415373,-0.0013395459877364397,-0.0030034459415448937,-0.0035653762574179232, ,0.002972903158300351, ,0.003288627503947928, ,2.3517786969072636e-05, ,0.045525510293553485,-0.18888260063778306,0.09419491285,4.044919009816475,1.0551070511887313,-0.16969362571517188, ,0.015242040083275099,-0.0002862248952803308,0.00270117204002035,0.01566991057754139,-0.010030806946306849,0.01141843278894632, ,0.36516904830932617
0.009897294353003908,0.020415078134854308,-0.08034238947559917, ,0.010118950151589968,0.020385245749265608,-0.0804775128901442, ,0.0002613036575232791, ,0.0014117774069924258,0.0003924693457384497,-0.002575841448766904,-0.00046189355773158325,-0.0037324906459070177,-0.0099863478302942, ,0.002963461962540469, ,0.003760961574791994, ,2.3747618333894976e-05, ,0.045664519485289524,-0.18888260063778306,0.09421954236,4.045338389703444,1.0549704146889656,-0.16958220781147526, ,0.015127840197428789,-0.00026627807410955774,0.0026943185926928286,0.020450026634089832,-0.008057257835912055,0.009808879528844659, ,0.3801589012145996
0.009926996335110662,0.020424546884146633,-0.08039772090017108, ,0.01014136161524881,0.020394032139890283,-0.08052251638882564, ,0.0002499150594387364, ,0.0012891764247417586,0.0006386154324730115,-0.002797709025016148,-0.0030079753079010584,-0.007617236527479281,0.023817308579099958, ,0.003145946807140807, ,0.00818964026054297, ,2.3908447198044673e-05, ,0.04598115153313273,-0.1888980461035315,0.09427787541,4.045757769590413,1.0548337781892003,-0.16938911116763844, ,0.015549228503763852,-0.00036792805755776824,0.0029324027098674528,-0.01177957904596122,-0.011063044430427535,0.011767605375026118, ,0.39600586891174316
0.009947878183219905,0.020435606052771726,-0.08044674552276009, ,0.010163792085460721,0.02040272814017625,-0.08056752826750833, ,0.0002495761241513565, ,0.00138347293516434,0.000563431808705521,-0.0030197447606660948,-0.0014145285054534698,-0.005815408383685021,0.0034842943440224414, ,0.003369022289175858, ,0.005984969950690803, ,2.405545616970687e-05, ,0.04623600171798214,-0.18890576883640572,0.09432843072000001,4.045548079646928,1.0545605051896694,-0.1690845966201049, ,0.015330685227539704,-0.00030585675849981403,0.003156720475624257,0.007057502297736938,-0.008830653843464889,0.010065200374434409, ,0.4141719341278076
0.009967869696871698,0.020440971292730453,-0.08048313847224653, ,0.01018624145378608,0.02041133408830512,-0.0806125484139167, ,0.0002555611885774121, ,0.001483455465084031,0.0004354261466947057,-0.0026579167945334783,-0.00021526196357558815,-0.0044751633731382945,-0.00444224000990767, ,0.003074858977705514, ,0.004480337576186759, ,2.421620548267004e-05, ,0.046436792772711975,-0.18891349156927995,0.09436731942000001,4.045967459533897,1.0545605051896694,-0.16900291787996435, ,0.016152670903569494,-0.00033669439312747986,0.002787681400070004,0.017078641361821894,-0.008830653843464889,0.012115899160673044, ,0.428973913192749
0.009983247719244543,0.020443594594475326,-0.08051112700310073, ,0.010208709612021421,0.020419850321949904,-0.08065757671592069, ,0.0002698969691518294, ,0.0014876747832503331,0.0003362879289598344,-0.0027813223284727934,0.000976802751791646,0.0004650512492111302,-0.022325221093619743, ,0.003172068682538942, ,0.0010818577142401788, ,2.4422360720002575e-05, ,0.046591247430196464,-0.18891349156927995,0.09439583780000001,4.046386839420867,1.054423868689904,-0.16880982123612748, ,0.014967971854648387,-0.00033669439312747986,0.0028830428090497744,0.036220981436706434,-0.008866942734248207,0.013079165903415482, ,0.44631004333496094
0.010013295919099621,0.020455183829872742,-0.08057228132566173, ,0.010231196452199071,0.020428277178274754,-0.0807026130615369, ,0.0002553252271152881, ,0.0014554813747934383,0.00032551075728148946,-0.0024110311141857395,0.0010479987933048455,-0.002671066435707946,-0.014877182904646504, ,0.0028350404439881093, ,0.0028693025795933223, ,2.4558467925501675e-05, ,0.04693877040953657,-0.18891349156927995,0.09445935601000001,4.046386839420867,1.054150595690373,-0.1684236279484535, ,0.015234699238797684,-0.00033669439312747986,0.0025291856970466823,0.02739584080033812,-0.0074939085316940955,0.011951697588218603, ,0.4615669250488281
0.010042553792959742,0.02046097145185952,-0.08061516724504984, ,0.010253701866586992,0.02043661499393588,-0.08074765733892787, ,0.00025046031824401543, ,0.001388104258054551,0.00033998471761101487,-0.0020689614396342047,0.000619445499295225,-0.0057464547667147306,-0.00372486086567592, ,0.0025145624824472862, ,0.005779745243052227, ,2.466748313629612e-05, ,0.047255402457379775,-0.18891349156927995,0.09450472616000001,4.046806219307836,1.0540139591906077,-0.1683122100447571, ,0.015298555788887759,-0.00033669439312747986,0.0021998082474796303,0.015053365845157065,-0.006760169865510883,0.01101466503684526, ,0.47736096382141113
0.010061812295480237,0.02046262913983645,-0.08064664781373893, ,0.010276225747688692,0.020444864105081423,-0.08079270943640271, ,0.0002600436935650862, ,0.0016034392148043565,0.0001279152542911033,-0.0026319490679212114,9.054527867986828e-05,0.010441500867361331,-0.04216352371244629, ,0.003084564073574109, ,0.010441893443447089, ,2.4803814123172183e-05, ,0.04744847077923539,-0.18891349156927995,0.09453583712000001,4.0474352891382885,1.0537406861910767,-0.16800769549722366, ,0.015154414174140972,-0.00031245812544273703,0.002657016100083403,0.06179860511827348,-0.0149304993640036,0.017969942050959684, ,0.49646496772766113
0.010090641962308005,0.02047283267893158,-0.08070588972608292, ,0.010298767988242835,0.020453024847352008,-0.0808377692424163, ,0.00024718616403762695, ,0.0011654851155950188,0.0007542394936778875,-0.003026772925242348,-0.005005742568116018,-0.003199632742844098,0.0491584120265523, ,0.0033299530191095985, ,0.005940968615746972, ,2.4886980223620367e-05, ,0.04774965736133014,-0.18892893703502842,0.09459805904000002,4.047854669025258,1.0536040496913115,-0.16773292011324625, ,0.015034369701912352,-0.0002807764674961513,0.003114746093077826,-0.027652992629176015,-0.018254968121752837,0.021384527978535305, ,0.5110559463500977
0.01010229007628213,0.02047995796931701,-0.08073481262406507, ,0.01032132848122324,0.020461097555881,-0.08088283664557001, ,0.00026503707094785786, ,0.0011966230884999228,0.0005768045453291095,-0.0029917359305188206,-0.0030931099890152275,0.001480401178989046,0.019972327466965232, ,0.003273391845991055, ,0.003429127704712453, ,2.502521001801523e-05, ,0.047888666553066186,-0.18892893703502842,0.09462917000000001,4.047644979081774,1.0536040496913115,-0.16773292011324625, ,0.01367391088738772,-0.0002807764674961513,0.003056766747265401,0.0,-0.016175368926477054,0.019435757376906716, ,0.5258359909057617
0.010128508319698732,0.020488179317553354,-0.08079085371935461, ,0.010343907119838701,0.020469082565294613,-0.0809279115346107, ,0.0002560198698760309, ,0.0014637595201653234,0.00045881527238911604,-0.002873191822700048,-0.0004122420359541634,-0.0064296542360116945,-0.013704788203906715, ,0.0032570438494258164, ,0.006442856268384858, ,2.5125840670675018e-05, ,0.048158962203664044,-0.18892893703502842,0.09468750305000001,4.048064358968743,1.0534674131915458,-0.16737646598912798, ,0.01535300785608652,-0.00024823088848442124,0.0030242664742737803,0.019990298425997987,-0.005693090119989639,0.005624614701653601, ,0.5428440570831299
0.010143662361091245,0.020491745371821284,-0.08082235248138951, ,0.010366503797532602,0.020476980209712607,-0.08097299379843156, ,0.00026938656649414954, ,0.0014817042481446892,0.0002806686199292946,-0.002850499783977765,0.0020716189372843308,0.002062915706030924,-0.02977544641555378, ,0.0032248366426286335, ,0.0029235639283775607, ,2.5343610865352565e-05, ,0.04831341686114853,-0.18893665976790264,0.09471861401000001,4.048483738855712,1.0531941401920148,-0.16723530892187566, ,0.014210383581681757,-0.00010426877484570499,0.0029448717914586807,0.044327184667623545,-0.007849832517252563,0.013764068189027935, ,0.5557460784912109
0.010156449274305016,0.0204969321727911,-0.08084999578867634, ,0.010389118407982957,0.020484790822748282,-0.08101808332607138, ,0.0002872903729240433, ,0.0014777341663084367,0.00024179253185637492,-0.0026238219435072234,0.0015542900272423263,0.0024920407375165826,-0.02819202493239527, ,0.0030210268926255572, ,0.002937019646149766, ,2.5606162064114124e-05, ,0.0484601487857588,-0.18893665976790264,0.09474713239000002,4.048483738855712,1.0530575036922496,-0.16712389101817926, ,0.014395773901467047,-0.00010408929605433418,0.002708520918211189,0.04322604034386473,-0.00883657364389886,0.014181026271290148, ,0.5702810287475586
0.010181914056401432,0.020507718606023823,-0.0809054719156233, ,0.010411750845102024,0.020492514737508998,-0.08106318000671531, ,0.00027915577918771354, ,0.0012878134784374694,0.0003938614789590272,-0.0030327348742918737,-0.003500506012674206,0.009496916291259642,-0.004032166000776007, ,0.0033182934224687175, ,0.010121509824695668, ,2.5831333223734735e-05, ,0.048745889902105106,-0.18893665976790264,0.09480546544000001,4.048483738855712,1.0529208671924841,-0.16684911563420185, ,0.013276013088762,-9.324499108306974e-05,0.003039269513451632,0.02623937296510415,-0.019379044869695227,0.020916848132282964, ,0.5847949981689453
0.010197405388247448,0.020511239739593165,-0.08093615967135077, ,0.010434401003036393,0.020500152286596202,-0.08110828372969373, ,0.0002931152409950698, ,0.0014704548983077899,0.0005557488404102212,-0.0033686678819777075,-0.0029282398910219286,0.0011672983040863665,0.005542470620806466, ,0.003717393936703891, ,0.0031523283071871805, ,2.6087145576412815e-05, ,0.048892621826715374,-0.18893665976790264,0.09483787269,4.048903118742681,1.0529208671924841,-0.16684911563420185, ,0.015932998918480656,-8.864319936933618e-05,0.003453026559722524,0.013149989988022049,-0.01576205150889205,0.01785782661245524, ,0.5977480411529541
0.010213882460606314,0.02051449691036043,-0.0809729271633925, ,0.010457068776166388,0.020507703802106165,-0.08115339438448285, ,0.0003029094720927594, ,0.001640826585754612,0.00030355583356852156,-0.0035851481819899776,0.0024237431872593303,0.0068752058137329,-0.0435288086515245, ,0.00395445894092209, ,0.007289923554241232, ,2.6359435482428587e-05, ,0.04904707648419986,-0.18894438250077686,0.09487416881,4.049532188573134,1.0526475941929532,-0.1665446010866684, ,0.014756171910818034,-4.0775690399632505e-05,0.003663480110395585,0.061316883389433904,-0.010141609632504654,0.0166155858268846, ,0.6115989685058594
0.010243400302927218,0.0205269689571441,-0.08104432365270388, ,0.010479754059106285,0.020515169615629818,-0.08119851186070491, ,0.0002824470322143504, ,0.0015764829105804113,0.0004016202563015003,-0.0034469461920990166,-0.00553672411224065,0.018593817488489043,-0.002759524311053195, ,0.0038115659837984804, ,0.01940065365403206, ,2.6561614997555488e-05, ,0.04937143126491729,-0.18895210523365108,0.09494676105000001,4.0497418785166195,1.052237684693657,-0.16604698989529815, ,0.016350265602768914,-0.0003584473828346408,0.003394887365728901,0.03717816270596933,-0.030397112199113577,0.03244068684681892, ,0.6247789859771729
0.010257556792725104,0.020533299606380402,-0.08107580359652708, ,0.010502456746703958,0.020522550058253538,-0.08124363604812755, ,0.0002970846210324617, ,0.0015811389892401346,0.0005275235214793684,-0.003705500864549546,-0.0036312199107281316,0.010384372233329282,-0.0007990104686500038, ,0.004063129117587422, ,0.011000951959798704, ,2.679529372974338e-05, ,0.04952588592240178,-0.18895210523365108,0.09498046459000001,4.0497418785166195,1.052237684693657,-0.1659653111551576, ,0.01644661032209199,-0.0003584473828346408,0.0037304008243559724,0.028372380217147403,-0.02316066170989375,0.026165256679971705, ,0.6380000114440918
0.010292574654810581,0.02054291467048189,-0.08114510371259115, ,0.010525176734040607,0.02052984546055905,-0.081288766836664, ,0.0002737035343734345, ,0.0017234644487619597,0.0005692740142436837,-0.003137430765295752,0.002711648460151854,-0.014824810139614925,-0.010200923528497717, ,0.003624620589311904, ,0.0150707674901803, ,2.6955675309569023e-05, ,0.049703508778508945,-0.18895210523365108,0.095018057,4.049951568460103,1.052237684693657,-0.1659653111551576, ,0.017787617911615893,-0.00033624727392847064,0.0035515744749163884,0.0,-0.018045265275807174,0.021708514155461777, ,0.6532959938049316
0.010310873522713322,0.02054505455017955,-0.0811792285593716, ,0.010547913916430698,0.02053705615262397,-0.08133390411637285, ,0.00028315481728339854, ,0.001799596742809017,0.00015984141779924591,-0.003083983535554969,0.003178474973992141,0.008053990358850608,-0.0537417715900365, ,0.003574220497275878, ,0.008658490837425488, ,2.7134271645036866e-05, ,0.05005875449072327,-0.18895210523365108,0.09508546408000002,4.051000018177526,1.0518277751943608,-0.16546769996378724, ,0.016291320439222448,-0.00029491494180025856,0.003162988784749802,0.07255142518375139,-0.010773086163150848,0.017403081322015727, ,0.6665620803833008
0.010325277409741757,0.020550316031848176,-0.08120903173718327, ,0.010570668189421643,0.02054418246402209,-0.08137904777745857, ,0.00029859623131759305, ,0.001753038116056397,0.0002658245071927828,-0.0031400077802429547,-0.007210013135321546,0.023271523395978762,-0.007475800269266058, ,0.0036060302501444903, ,0.024362842409617308, ,2.7345468686895155e-05, ,0.05022865461395621,-0.18895210523365108,0.09511657504000001,4.051000018177526,1.0515545021948298,-0.16516318541625363, ,0.018330489001056747,-0.0002781626875232805,0.0030456618585086048,0.046424529291087896,-0.0360167211213368,0.036434706450567685, ,0.6798028945922852
0.010353193336613303,0.02056102943824807,-0.08126178830979613, ,0.010593439448793925,0.020551224723823536,-0.08142419771027053, ,0.0002901570957348831, ,0.0016792685460826169,0.00048533227014417243,-0.0034333078830345843,-0.002626988865648919,0.009117128143969337,0.005240713306632839, ,0.003852673523932847, ,0.009488050148305041, ,2.7526670073290386e-05, ,0.050537563928925194,-0.18895210523365108,0.09517361180000002,4.051000018177526,1.0515545021948298,-0.1649998279359725, ,0.01789495409362074,-0.00025283069483609844,0.003468817839721255,0.025791124880950325,-0.02333653927072442,0.029934061662741394, ,0.6942799091339111
0.01037549590600646,0.020569628922895822,-0.08130774237103613, ,0.01061622759056038,0.020558183260595473,-0.08146935380530378, ,0.00029017409053826057, ,0.0018175213286337672,0.0008339570804599151,-0.004408736870124311,-0.0066333204170248,-0.004831367991233182,0.013740182016070388, ,0.0048410565976944936, ,0.008206281420718517, ,2.7700701739837492e-05, ,0.050769245915151924,-0.1889598279665253,0.09522287082000001,4.051209708121011,1.0515545021948298,-0.16483647045569144, ,0.020242521663496323,0.0,0.004556296201372999,0.0,-0.017671120640600835,0.012570946440308418, ,0.708698034286499
0.010414450119892331,0.02057747677243777,-0.08138337987233442, ,0.010639032510966585,0.02056505840240186,-0.08151451595319875, ,0.0002603615524601027, ,0.001682445999831683,0.0006198591542109149,-0.003823693865738306,-0.003282154334733475,-0.0013273015554864708,-0.0014031101775885714, ,0.0042232078675212585, ,0.0035403764882908175, ,2.7795228419206768e-05, ,0.05114765982598893,-0.1889598279665253,0.09530064822,4.052258157838433,1.0512812291952989,-0.16461363464829865, ,0.018713654418945132,0.0,0.003240197624084622,0.07435494134780743,-0.007626815876508913,0.021460936629002718, ,0.721642017364502
0.010430439927772397,0.020583712849394087,-0.08141808912754067, ,0.010661854106490246,0.02057185047680419,-0.08155968404474077, ,0.0002715554429062726, ,0.001841749276385734,0.0003041307613599329,-0.0030151896233076908,0.003690699274798874,0.00027419802340754827,-0.023363292641519543, ,0.0035462521598971387, ,0.003700870903426264, ,2.79129164946915e-05, ,0.051333005414970316,-0.1889598279665253,0.09533564805000001,4.052258157838433,1.051007956195768,-0.16439079884090563, ,0.01833757324801368,0.0,0.0031454999052132706,0.044885576344838175,-0.009424776072075113,0.021069079683190793, ,0.7355520725250244
0.010445906590258645,0.020589532749439848,-0.08144520463065222, ,0.010684692273841256,0.0205785598108616,-0.08160485797086073, ,0.0002874512082159177, ,0.001661118814726895,0.00027251978112185593,-0.002838117272010839,-0.005517565747194704,0.01820099836500495,0.007550135456302738, ,0.0032997715674616987, ,0.019018934593540923, ,2.8063498363842638e-05, ,0.05151062827107748,-0.18896755069939952,0.09536416643000001,4.052258157838433,1.0508713196960024,-0.16411602345692822, ,0.017996764945661062,0.0001571988224302756,0.002773604652620582,0.031923615107758305,-0.032289220163779546,0.03780455681028019, ,0.7497320175170898
0.010480069001109002,0.020598018203568463,-0.08150306514198581, ,0.01070754690996134,0.0205851867311313,-0.08165003762263419, ,0.0002711305142706672, ,0.0016204709153447747,0.0005844834455358157,-0.003170041642511663,-0.002059288007194638,0.001710259970361941,0.012736202991248256, ,0.0036078679162133685, ,0.0026768742859292487, ,2.8170923542091316e-05, ,0.05186587398329181,-0.1889598279665253,0.09542638835000002,4.052677537725402,1.0508713196960024,-0.16395266597664698, ,0.01788146628198055,-0.0007608439799543695,0.003269460492610838,0.011286319997068557,-0.018430924778495516,0.02328008005488459, ,0.7639579772949219
0.010498353326101818,0.02060056701019257,-0.08153734670827524, ,0.010730417912023971,0.02059173156366881,-0.08169522289128239, ,0.00028081475444748723, ,0.0017814054559459553,0.00028720205816400624,-0.003167102033073795,0.006916002268788933,-0.0023003483691552713,-0.05722455783567873, ,0.003645054966470029, ,0.007288531380375725, ,2.836053417622476e-05, ,0.05202805137365052,-0.1889598279665253,0.09546009189000002,4.0533066075558555,1.050734683196237,-0.16375956933280983, ,0.015853147604154825,-0.0007608439799543695,0.0033414750409062307,0.06601906163491296,0.0,0.008134094525067286, ,0.7753870487213135
0.010509656107372707,0.020603738640673518,-0.08156163569589799, ,0.010753305177434266,0.020598194634028295,-0.08174041366817134, ,0.00030225348421766065, ,0.001908490361621348,0.00031800939926689684,-0.0035785650454252024,0.006022110298167006,0.0038982537555506958,-0.05288199776348605, ,0.00406811912593065, ,0.007173715508652445, ,2.8592073785564244e-05, ,0.052151615099638116,-0.1889598279665253,0.09548601769000001,4.05351629749934,1.0505980466964715,-0.163566472688973, ,0.017086233625940004,-0.0007608439799543695,0.00372168493457944,0.07092903869177256,-0.006878336650782646,0.01706646952146643, ,0.7908029556274414
0.010546205929721171,0.020621736960769632,-0.08165750379608053, ,0.010776208603828472,0.020604576267262777,-0.08178560984481152, ,0.000263831156650638, ,0.0016068854835881237,0.0005804786428622816,-0.0038546902902924078,0.006333316480960999,0.014454887081531753,0.024495170439563778, ,0.004216357865060797, ,0.015781465627019903, ,2.8732044423260262e-05, ,0.05255319720909779,-0.1889598279665253,0.09558453573,4.05351629749934,1.0501881371971753,-0.16282382527718098, ,0.01639546329621126,-0.0006708441248204517,0.003892671436950147,0.02886062879285223,-0.02329311945768015,0.05390662840333781, ,0.8029279708862305
0.01056242001482548,0.020626612942274247,-0.08169011528583568, ,0.010799128089074173,0.02061087678792472,-0.08183081131285926, ,0.00027581463157065275, ,0.0016508450584617916,0.0006741702968337984,-0.0027998977746512897,0.013807060148886175,-0.03060690140039181,0.003600180922183948, ,0.0033195214330800655, ,0.03357703565111421, ,2.889371178388327e-05, ,0.05272309733233073,-0.1889598279665253,0.09561823927000002,4.053725987442824,1.0500515006974098,-0.16263072863334382, ,0.017492523789579866,-0.0005957323255759772,0.0032101595163240636,0.0,0.017950941569870617,0.006086696830970245, ,0.8143289089202881
0.010580785344282237,0.020628767801426168,-0.08171833708374872, ,0.01082206353126992,0.020617096520066065,-0.08187601796411498, ,0.00028846948254144454, ,0.0016085870924883038,0.0005071952977173902,-0.0029414097253380373,0.0010966069088598474,-0.0062151314287653275,-0.00614347938443948, ,0.003390677023318469, ,0.006311133429836975, ,2.9077535877815598e-05, ,0.05288527472268944,-0.1889598279665253,0.09564935023000001,4.054355057273279,1.0501881371971753,-0.1624971103166188, ,0.016894595256982517,-0.0005359522445369529,0.0031129199765487594,0.01835927124256999,-0.007235447043043562,0.011839111276816583, ,0.8293180465698242
0.010621394676126331,0.02063894037080105,-0.08179340046228069, ,0.010845014828744877,0.020623235787238636,-0.08192122969052451, ,0.0002580560369288455, ,0.0016350288566997213,0.0005245494587300917,-0.003033545704503199,0.0026813483728996075,-0.005846906345797285,-0.0018511351742008686, ,0.0034858099544015078, ,0.006432413439486199, ,2.9192059587446134e-05, ,0.053286856832149114,-0.18896755069939952,0.09572842392000001,4.055193817047217,1.0500515006974098,-0.16230401367278174, ,0.015053448851280262,0.0002701804134537938,0.0032487888068529476,-0.02274824817819952,-0.0016275340735068566,0.009765962540242694, ,0.8472790718078613
0.010635188188135344,0.020645585585983194,-0.08182692817453265, ,0.010867981880059038,0.020629294912494402,-0.08196644638417772, ,0.00027188898444907236, ,0.0015832168285173573,0.0004639988069554328,-0.0030412904804938386,-8.647299166009983e-05,0.00023903335549884953,-0.0025672349098295522, ,0.0034599592780405765, ,0.0002541933577777733, ,2.9331903412160314e-05, ,0.05345675695538206,-0.1889598279665253,0.09576212746000001,4.054984127103732,1.049778227697879,-0.16199949912524847, ,0.016515304830920778,-0.00027386404322533224,0.0031535956285883987,0.02198390499546065,-0.012949779282273156,0.01882065122176562, ,0.8595180511474609
0.010650690415313038,0.02064997381061733,-0.08185706195256952, ,0.01089096458400271,0.020635274218385975,-0.08201166793730995, ,0.0002860957264078567, ,0.0015077172774946106,0.0005271203535313395,-0.0028326417223897295,0.0008994152838204487,-0.002309554671529557,0.018192013328103322, ,0.0032519111893447856, ,0.002478505689156631, ,2.9496745049961813e-05, ,0.05361893434574077,-0.1889598279665253,0.09579323842000001,4.055193817047217,1.0496415911981134,-0.16180640248141137, ,0.016671985516245744,-0.00027386404322533224,0.0029585459732540866,0.005740522903345694,-0.01288582264387968,0.02402766604816592, ,0.8715450763702393
0.010666425599038486,0.020653800288451957,-0.08188222385932561, ,0.01091396283959626,0.020641174026966663,-0.08205689424230057, ,0.00030322244414071863, ,0.001553491317842793,0.00047546177030331825,-0.0028208870030532788,-0.003795474459804962,-0.0029357922209286183,-0.003290362332385971, ,0.0032552730536205116, ,0.004798385370192501, ,2.9691403457991965e-05, ,0.053781111736099486,-0.1889598279665253,0.09582046051000001,4.055403506990701,1.0496415911981134,-0.16172472374127084, ,0.0167632823809346,-0.00027386404322533224,0.0029405227099870783,0.013607143460604855,-0.01288582264387968,0.009205106434659705, ,0.8844640254974365
0.010686903377708869,0.020658287167267503,-0.08191733254383644, ,0.010936976546090433,0.02064699465979099,-0.08210212519167381, ,0.0003111469636108432, ,0.0017112575974159556,0.0005137430705389218,-0.0033288557020312182,-0.003988360394913245,-0.0024612846499346536,-0.014872524837796485, ,0.0037780437784899136, ,0.0046866768993552785, ,2.9896377940938195e-05, ,0.053981902790829324,-0.1889598279665253,0.09585805292,4.05582288687767,1.0496415911981134,-0.1616430450011302, ,0.017757661219773724,-0.00027386404322533224,0.0034612802086049547,0.02331960247315459,-0.012810847448732971,0.007000564802456394, ,0.8961629867553711
0.010706042151172249,0.020662923204772043,-0.08195737173602621, ,0.010960005602965554,0.020652736437914893,-0.08214736067809872, ,0.00031732791111971576, ,0.0019633288217425307,0.0003875250401578535,-0.003798493129217864,0.001270546675914511,0.004494867000570468,-0.0398623974258738, ,0.0042934119033409286, ,0.004670986771305701, ,3.010783247231422e-05, ,0.05417497111268493,-0.1889598279665253,0.09589823791,4.056242266764639,1.0493683181985825,-0.16142020919373729, ,0.018462439991920387,-0.00027386404322533224,0.003917563089030989,0.05786228569799172,-0.012641930906025944,0.01659196681679568, ,0.9074540138244629
0.010731144932859614,0.020675078730548576,-0.08202396579943538, ,0.010983049909931583,0.02065839968189607,-0.08219260059438818, ,0.000303598422601888, ,0.0017694512735466309,0.0005862949944271062,-0.004356008785077231,-0.006679068414393908,0.01861602499723593,0.0017100793405942464, ,0.004738091616422807, ,0.01977792557407158, ,3.0287067212267283e-05, ,0.05445298949615702,-0.1889598279665253,0.09596564499000002,4.056242266764639,1.0489584086992862,-0.16100427674250745, ,0.018000178596068055,-0.00027386404322533224,0.004328481391304349,0.033974673748380334,-0.032983553409077306,0.0336033913640915, ,0.9228360652923584
0.010756607837821286,0.020685947709309236,-0.08208335415079465, ,0.011006109366928288,0.020663984711794276,-0.08223784483349984, ,0.0002942800661432752, ,0.0015782259190818518,0.0006554752293118575,-0.003631137090229589,-0.0032584601588725682,-0.0018496695835339416,0.02116764909117321, ,0.004013178465498911, ,0.0037468439444342037, ,3.0443773108757578e-05, ,0.054715562413880654,-0.18896755069939952,0.09602786691000001,4.056451956708123,1.048821772199521,-0.16081118009867057, ,0.017396322925475854,0.0003376006480841649,0.003745311902186692,0.0,-0.016346363214024284,0.02078173720860051, ,0.9342060089111328
0.010777294577550172,0.02068785780311501,-0.08211907228362664, ,0.011029183874124293,0.020669491847171605,-0.08228309328853599, ,0.0003011451744886408, ,0.0020063475416845712,0.00022034422844322823,-0.00361454987781735,0.001931276767970537,0.006723665839816042,-0.05272628525559693, ,0.004139921841805879, ,0.006995535123422072, ,3.06092595048616e-05, ,0.054893185269987814,-0.18896755069939952,0.09606545932,4.057290716482062,1.048821772199521,-0.16081118009867057, ,0.018242395532193537,0.0003052738143935838,0.0037104149825297,0.07107142123771591,-0.011988940001994304,0.016805819966141708, ,0.9455349445343018
0.010797080803017339,0.020691855431685405,-0.08215169578515928, ,0.011052273331917542,0.02067492140709298,-0.08232834585274262, ,0.0003108299122873746, ,0.0020074746043335315,0.00016861616290949136,-0.003250393121215024,0.0025441808528759054,0.0039303008504214774,-0.05426881865148518, ,0.003824060818015364, ,0.0046818928462913365, ,3.0788415526667434e-05, ,0.05508625359184343,-0.18896755069939952,0.09610045915000001,4.057710096369031,1.048821772199521,-0.1606478226183894, ,0.01844808350670116,0.000278424704762397,0.0033654788759771817,0.06979455452204085,-0.0094434656290762,0.01411036526547115, ,0.9596090316772461
0.010813913167058535,0.020697849775402725,-0.08218497250959712, ,0.011075377640934941,0.02068027371012621,-0.0823736024195105, ,0.0003228836200304977, ,0.0020694324416803142,0.0003723160915103394,-0.003298425491610234,0.0008846969474169148,-0.002942251408748383,-0.022453883524156098, ,0.003911621227366051, ,0.003072382080833934, ,3.098505419213232e-05, ,0.05527932191369904,-0.18896755069939952,0.09613416269000001,4.057710096369031,1.04854849919999,-0.16026162933071553, ,0.020962434627451024,0.00025599535120704084,0.003459776611642051,0.03957358381549462,-0.010753616479543154,0.016291757819558817, ,0.9711499214172363
0.010837950221401771,0.020705866486421295,-0.08222992126064195, ,0.011098496702032003,0.02068554907434241,-0.0824188628823745, ,0.0003224844216784898, ,0.0017769231602055946,0.00033874327806549345,-0.0030671667305847902,-0.007399640229380429,0.022582554520100464,0.02425254745058316, ,0.003560858699655995, ,0.023763973655643682, ,3.117599278586389e-05, ,0.055557340297171125,-0.18896755069939952,0.09617953284000001,4.057710096369031,1.0481385897006936,-0.1596823393992045, ,0.01971679650082501,0.00022984641628916877,0.0029717931940298516,0.02455754094503842,-0.04016457311761822,0.04708553566487821, ,0.9823060035705566
0.010858102019402443,0.020711396335816992,-0.08226344406436584, ,0.011121630416292846,0.020690747817316422,-0.08246412713501348, ,0.00033188442586006196, ,0.0016858300310120971,0.0006777027378653529,-0.0038294730348817467,-0.013255031449194724,0.0033922503710618673,0.012546589969056391, ,0.004238651627494156, ,0.01368222279001299, ,3.143507770383327e-05, ,0.055765854084775184,-0.18896755069939952,0.09621582896000001,4.057919786312516,1.0481385897006936,-0.15960066065906398, ,0.018933946839279885,0.00021359250211731786,0.0038784542293645,0.0,-0.026875257452874127,0.01019721656074072, ,0.9926180839538574
0.01088111387861139,0.02071452017939268,-0.08230524300601808, ,0.011144778685029806,0.020695870256126882,-0.08250939507125038, ,0.00033398355576299947, ,0.0021099300802647027,0.00031083483899588217,-0.0043447764731598705,0.0010325357587710124,0.015190173531236799,-0.047058131378955356, ,0.004839990272971934, ,0.015225225793202273, ,3.169237520744389e-05, ,0.05596664513950502,-0.18896755069939952,0.09625990282,4.0587585460864535,1.0481385897006936,-0.1596823393992045, ,0.01895664034328222,0.00019968105596710855,0.004389311523835768,0.07676035430579971,-0.02046300529516585,0.027860753378093885, ,1.0036990642547607
0.010908169193697805,0.020719664302517316,-0.08235912729604634, ,0.01116794140978347,0.020700916707356826,-0.08255466658505244, ,0.0003256818848498744, ,0.0017334048055376884,0.0010616485176336028,-0.004229535797255592,-0.00016563839177707873,-0.026004405091204538,0.040309857096502436, ,0.004692628565646473, ,0.026004932587314632, ,3.1929726579782266e-05, ,0.05621377259148021,-0.18896755069939952,0.09631564329000002,4.059597305860391,1.0480019532009284,-0.1594892427553677, ,0.020084008795443548,0.00018516266963839486,0.004565437523645744,-0.0356603019555278,0.0,0.00576009267922328, ,1.0139820575714111
0.010923600233343702,0.020727120263030287,-0.08240026069689671, ,0.011191118492322518,0.020705887487093688,-0.0825999415705306, ,0.00033449858139643276, ,0.0016643279490714204,0.0009809453885854047,-0.004309428858590347,-0.0012841181077946628,-0.01415974277907726,0.041296689030300114, ,0.0047226495174529474, ,0.014217850519615256, ,3.2177421938391866e-05, ,0.056383672714713146,-0.18896755069939952,0.09635712457000001,4.059597305860391,1.0477286802013974,-0.1591030494676936, ,0.018952854315652242,0.0001759943087909394,0.004545893698630138,-0.024853744722840555,-0.009161513576854498,0.017100548332398578, ,1.0238518714904785
0.010944200141175215,0.020736685829939334,-0.08244822800852053, ,0.011214309834643242,0.020710782910929877,-0.08264521992193981, ,0.00033531480979997054, ,0.0018736883310361873,0.0007601119251606375,-0.00422426020706986,-0.006784835759464911,0.009652080962585598,0.03963490368909411, ,0.004683252331197463, ,0.011798163494634452, ,3.242141898499499e-05, ,0.056623077433814104,-0.1889598279665253,0.09640638359,4.059387615916907,1.0474554072018665,-0.15871685618001974, ,0.021097585940077986,0.0,0.0042613192937399685,0.0,-0.0327025219559446,0.03863996194449996, ,1.0338490009307861
0.01096573463393864,0.020742292165767028,-0.08249303818584104, ,0.011237515338969526,0.020715603293963096,-0.08269050153367907, ,0.0003369997347842503, ,0.0021506529215150295,0.0007234466489910497,-0.0047721816383551555,-0.0025005779145775672,0.008413884127629176,0.012096381221802694, ,0.005284165083739493, ,0.008777604089100194, ,3.2663305607871524e-05, ,0.05683931395429239,-0.1889598279665253,0.09645175374,4.059806995803876,1.0471821342023355,-0.15833066289234554, ,0.022312941819532278,0.0,0.00486079082087275,0.02543540060917023,-0.026900744539342648,0.036564052313889234, ,1.046334981918335
0.010990088069318008,0.020747918850734046,-0.08254072202492174, ,0.011260734907752729,0.020720348950796275,-0.08273578630029098, ,0.0003347534646013593, ,0.002453580877100809,0.0003621712472219943,-0.004805815786473204,-0.005496178201546808,0.008199057256754265,-0.08345935998030617, ,0.005408058108628658, ,0.00987079085783807, ,3.289653860107175e-05, ,0.0570632732076449,-0.1889598279665253,0.09650230905000001,4.06043606563433,1.0471821342023355,-0.15816730541206442, ,0.021900978896485294,0.0,0.004916299851851852,0.08776043693487717,-0.017323514924911115,0.0006628310996018606, ,1.0560860633850098
0.011012504695178463,0.020756368400538197,-0.0825892926356028, ,0.011283968443671485,0.020725020195538426,-0.08278107411646217, ,0.0003338493868546156, ,0.002204112225835369,0.0006463413936036531,-0.004892588950244849,0.001102209360695449,0.0003570538848617147,-0.02788817672520711, ,0.005404932426702525, ,0.0011585983549289706, ,3.312361040680916e-05, ,0.057287232460997414,-0.1889598279665253,0.09655416065000001,4.060645755577815,1.0471821342023355,-0.158248984152205, ,0.02095317764594188,0.0,0.005071254861509074,0.04721060247698415,-0.012774406401184669,0.018243163206047283, ,1.0657849311828613
0.011032004032970985,0.020765209576217705,-0.082635180672737, ,0.011307215849631286,0.020729617341804372,-0.08282636487702257, ,0.000336986277388715, ,0.0022259108731439064,0.0007013607457215505,-0.004442037501956373,0.006214673733604778,-0.014313390876293523,-0.018317121970709296, ,0.005017796655864621, ,0.015604336777423688, ,3.3351361008041216e-05, ,0.05749574624860147,-0.1889598279665253,0.09660212338000002,4.060645755577815,1.0470454977025703,-0.1580558875083682, ,0.021880779699901032,0.0,0.004747782867362146,0.030953197619814046,0.0,0.01295645661853783, ,1.075355052947998
0.011051542256895957,0.020771294273080734,-0.08268118042632887, ,0.011330477028764612,0.02073414070271569,-0.08287165847694608, ,0.0003398041826040738, ,0.0019845670577197157,0.0008217352341776173,-0.0043137565453226,-0.0032555396696891236,-0.005359789888888597,0.021509741243844287, ,0.004818947056566279, ,0.006271035377049088, ,3.357925010519591e-05, ,0.05770426003620554,-0.18895210523365108,0.09664749353,4.060855445521299,1.0466355882032738,-0.1576399550571383, ,0.021572389533637368,1.693131367187328e-05,0.004494585643340858,0.0,-0.017105709530850072,0.021058082401485108, ,1.0857808589935303
0.01106331303609903,0.020774293285591668,-0.08270646299918309, ,0.011353751884430609,0.020738590590900483,-0.08291695481135007, ,0.00036046665590276866, ,0.0019769637288657806,0.0006643004329787367,-0.004656625843005647,-0.01879812752746629,0.04133537248025905,0.05466507444994776, ,0.005102337198995641, ,0.045409058726547984, ,3.38361017292211e-05, ,0.05782782376219313,-0.18895210523365108,0.09667212304000002,4.061065135464783,1.046362315203743,-0.15725376176946437, ,0.02270261759772028,1.7107885797218945e-05,0.004408749382784391,0.012800237490488307,-0.06778760087582501,0.06404910896865502, ,1.0958268642425537
0.011096814659244208,0.020780631670706595,-0.08277170954579355, ,0.011377040320214773,0.0207429673184939,-0.0829622537754956, ,0.00034095766301219806, ,0.002641588716507124,0.00032438376812927473,-0.004072106126982512,0.008581706508267525,-0.010860014213968322,-0.07569184676815453, ,0.004864695682734123, ,0.013841444801824384, ,3.4056807413440097e-05, ,0.058159901275784784,-0.18895210523365108,0.09673693754000001,4.061903895238721,1.045815769204681,-0.15680809015467856, ,0.024000238128090736,1.7404535019228263e-05,0.004380861254125413,0.08148278012904878,0.0036328692153032843,0.00497582904936927, ,1.105557918548584
0.011121339785569343,0.020786172037346562,-0.0828153446398825, ,0.011400342239928961,0.020747271197138702,-0.08300755526478718, ,0.00034102869268408555, ,0.0022094331728193728,0.0010216150351329892,-0.0042908686981689235,0.002914676163732005,-0.032434363850061786,0.022275764016281827, ,0.004933238937056499, ,0.03256506247565143, ,3.427342840900815e-05, ,0.05838386052913729,-0.18894438250077686,0.09677971511000001,4.06232327512569,1.045815769204681,-0.15680809015467856, ,0.024439078433806535,2.8147262559800334e-05,0.00470709560283688,-0.021226674694794872,0.005517536913093179,0.002319701071782917, ,1.115778923034668
0.011141050953077242,0.020795422652364996,-0.0828522681979974, ,0.011423657547611186,0.02075150253798498,-0.08305285917477245, ,0.00034933108033038723, ,0.0022993435878828844,0.0008617949864609554,-0.004782390840169128,0.0027454265484009328,-0.01896990546445889,-0.00934872942669173, ,0.0053759588616321225, ,0.019167542298415018, ,3.44990022078721e-05, ,0.05861554251536403,-0.18894438250077686,0.09682508526000001,4.062113585182206,1.0459524057044467,-0.15691950805837518, ,0.02329902812631249,2.8147262559800334e-05,0.005121804347266882,0.015772350633041703,-0.0006203769156089154,0.0065110646619023615, ,1.1273128986358643
0.011166569622509415,0.020802722516210792,-0.0829129615030675, ,0.011446986147525096,0.020755661651691043,-0.08309816540114286, ,0.0003393355807066567, ,0.002291281470019546,0.0007050629893758161,-0.0051601232534372295,-0.010471988783038712,0.024392561618962926,0.011279024416186296, ,0.005689811647542132, ,0.02654542536386476, ,3.47048211308261e-05, ,0.058878115433087665,-0.18893665976790264,0.0968847146,4.062532965069175,1.0454058597053848,-0.1562288002231676, ,0.023742041921058485,-0.00021690645172187337,0.005113583152487962,0.035304624457902875,-0.04547215812469314,0.04384152588001151, ,1.1369929313659668
0.01119016910156322,0.020808801670626802,-0.08296750361003669, ,0.011470327944160435,0.020759748848423416,-0.08314347383973296, ,0.00033445579407582007, ,0.002485606575620811,0.00038350333881852867,-0.005614215597592324,-0.010104672952079695,0.043569953904000945,-0.02805363232390365, ,0.0061518071845518135, ,0.044726337800983465, ,3.489931553343144e-05, ,0.059109797419314394,-0.18894438250077686,0.09693786249000001,4.063162034899628,1.0448593137063231,-0.15570144986824141, ,0.023196514680633287,0.00040289918615989546,0.005429042781186094,0.08683569753042096,-0.05499259848589306,0.05477857992799954, ,1.1467509269714355
0.011213052630712076,0.020816425157501546,-0.08301561575619054, ,0.011493682842232131,0.02076376443785729,-0.08318878438652044, ,0.0003339368825715061, ,0.002349328764243912,0.00045756367713513423,-0.0037872598893249993,0.005464964107435412,-0.013202069029530989,-0.034887025276575244, ,0.004480183883550681, ,0.014288472926695163, ,3.51431080485757e-05, ,0.05934920213841536,-0.18894438250077686,0.09698712151000001,4.063371724843113,1.0445860407067922,-0.1554786140608485, ,0.02285021467817741,0.00040289918615989546,0.004074907014581735,0.04452404670459686,0.0,0.009468663806355561, ,1.1547908782958984
0.011235353171493238,0.020824216411145215,-0.08305359960794538, ,0.011517050746680727,0.020767708729176663,-0.08323409693762665, ,0.0003393021190768472, ,0.0025286450156463366,0.0006103407726697873,-0.004010247252182012,0.005245704398737248,-0.02157109533253278,-0.023663881685811027, ,0.004780025574991163, ,0.022199765031345825, ,3.539134261433287e-05, ,0.05958860685751632,-0.18894438250077686,0.09702860279000002,4.063371724843113,1.0445860407067922,-0.1554786140608485, ,0.025537390085702577,0.00040289918615989546,0.004373644019769358,0.029430939512219118,0.0030344191249040585,0.005987692347625383, ,1.1643218994140625
0.011236787669200641,0.02082470336449794,-0.08305596797846136, ,0.011540431562671727,0.0207715820310749,-0.08327941138931572, ,0.00038072095813226496, ,0.0025308958174243773,0.000617590780192076,-0.004024962245155896,0.005214104063153573,-0.021819741717804684,-0.02315351202732126, ,0.004794494038515936, ,0.02243408141103058, ,3.569821647737594e-05, ,0.05960405232326477,-0.18894438250077686,0.09703119537,4.063371724843113,1.0445860407067922,-0.1554786140608485, ,0.025585586831617897,0.00040289918615989546,0.004390521367144433,0.028784091807517707,0.003113850953200254,0.005863939234741938, ,1.1740520000457764
0.011287467029621794,0.02083293829905953,-0.0831407074534724, ,0.011563825195595666,0.020775384651754835,-0.08332472763799481, ,0.00033697134378189405, ,0.0027228725373110788,0.00020057194795763283,-0.00457801052742512,0.005711906607845298,0.008511416478782232,-0.07916271439914677, ,0.005330332480246013, ,0.010250370020694998, ,3.593510775001423e-05, ,0.06008286176146668,-0.18893665976790264,0.09712063938000001,4.0646298645040195,1.0444494042070267,-0.15512215993673034, ,0.02387945182648988,0.0004181366124437669,0.00473226723707665,0.1034686727495129,-0.012659360412015744,0.02247691488337654, ,1.1822199821472168
0.011310518838428311,0.02083804189604853,-0.0831901786532902, ,0.01158723155106789,0.020779116898929147,-0.08337004558021457, ,0.0003352524303015413, ,0.0023447303454089455,0.0004709142827569379,-0.005402823101891479,-0.0185278527171798,0.055965728587318575,0.021467026365190375, ,0.0059084700324803455, ,0.05895289728262089, ,3.6165933998606914e-05, ,0.06032226648056765,-0.18892893703502842,0.09716860211000002,4.065049244390989,1.043902858207965,-0.1544314521015231, ,0.024214580647734314,0.0005023471440491036,0.005071254861509074,0.05604715587642432,-0.07626829086937131,0.07303835079487536, ,1.1903109550476074
0.011310518838428311,0.02083804189604853,-0.0831901786532902, ,0.011610650534928279,0.02078277907982067,-0.08341536511266832, ,0.0003792650202544877, ,0.0023447303454089455,0.0004709142827569379,-0.005402823101891479,-0.0185278527171798,0.055965728587318575,0.021467026365190375, ,0.0059084700324803455, ,0.05895289728262089, ,3.645818046438225e-05, ,0.06032226648056765,-0.18892893703502842,0.09716860211000002,4.065049244390989,1.043902858207965,-0.1544314521015231, ,0.024214580647734314,0.0005023471440491036,0.005071254861509074,0.05604715587642432,-0.07626829086937131,0.07303835079487536, ,1.1984329223632812
0.011330131077513694,0.02084639433570131,-0.08323345414664357, ,0.011634082053241148,0.020786371501162807,-0.08346068613219228, ,0.0003842177918422256, ,0.0023976193597800193,0.0007274057132849476,-0.0054392739068527055,-0.0063727577618392095,0.017792998300832998,0.012175010642331958, ,0.005988605705828379, ,0.018899810191201842, ,3.6753395215142946e-05, ,0.060530780268171706,-0.18892893703502842,0.09721397226,4.065049244390989,1.0437662217081998,-0.15423835545768627, ,0.02437630145349879,0.0005023471440491036,0.005460682728830992,0.0339464151837939,-0.03800691786212261,0.044361426220927695, ,1.210150957107544
0.011344274292071363,0.020852480760973145,-0.08326356274477496, ,0.01165752601229503,0.020789894469199648,-0.08350600853576548, ,0.0004010282355521375, ,0.0025385756567569257,0.0007622437784912536,-0.005181849909297556,-0.0032156212444162165,0.004679977604958693,0.009368947461643195, ,0.00582039091688991, ,0.005678239747871443, ,3.706872360335256e-05, ,0.060677512192781974,-0.18892893703502842,0.09724637951000001,4.065049244390989,1.0437662217081998,-0.15423835545768627, ,0.026149611892662104,0.0004736644535746626,0.005322021891079186,0.026680088575097648,-0.026892474817860144,0.03501874007696245, ,1.2192120552062988
0.011387102606896328,0.020864108950696097,-0.08334743297587482, ,0.011680982318602368,0.02079334828968645,-0.08355133222051025, ,0.00036461933308842284, ,0.002565640611743008,0.0008015489266389383,-0.0051594031880580074,0.0010289634452393137,-0.005814493113450103,5.2601473116592446e-05, ,0.005817596899697005, ,0.005904836346764567, ,3.73270459593636e-05, ,0.06107909430224165,-0.18892893703502842,0.09733582352,4.065888004164927,1.0437662217081998,-0.15415667671754568, ,0.025942302230309123,0.00039647982310849194,0.005403260352781548,0.026209900744454173,-0.014919050282210014,0.025939472564717132, ,1.2272839546203613
0.011414776981872194,0.02087004284236774,-0.08339825665501989, ,0.011704450878899528,0.0207967332678899,-0.08359665708369136, ,0.0003586753273172677, ,0.002885036678408277,0.0005059290350044429,-0.0048675559315881035,0.00560679968104979,-0.012634334700473924,-0.06568600358365032, ,0.0056808891532365005, ,0.013822540043514204, ,3.757316913178198e-05, ,0.06134166721996528,-0.18892893703502842,0.09738897141000001,4.066517073995381,1.043629585208434,-0.15388190133356788, ,0.02671648129461452,0.00035944531955658054,0.005203793374714146,0.07152707914926631,0.0,0.004800672460738772, ,1.2357120513916016
0.01143802390124712,0.02087821620685349,-0.08344959767538143, ,0.011727931600146657,0.020800049708588213,-0.08364198302271614, ,0.000356607062747466, ,0.0024617715416568723,0.0006504872801056326,-0.005153890032040411,-0.00758024365744939,0.027024165831022223,0.019041303849369955, ,0.005748568107560036, ,0.02806716282655688, ,3.7812858360600943e-05, ,0.06160424013768891,-0.18892121430215417,0.09743952672000002,4.066517073995381,1.0430830392093724,-0.15319119349836086, ,0.02535995231386178,0.00010225950409539718,0.005103752489586671,0.039001970890997294,-0.04779528591372911,0.05589327131092606, ,1.244520902633667
0.011462290592169466,0.02088405218723534,-0.08349524497674311, ,0.011751424389527105,0.020803297916071873,-0.08368730993513487, ,0.0003563825940300947, ,0.002426591311480531,0.0007501872599256403,-0.004449980860142495,-0.002804552229709295,0.012902851312495914,0.0641521530125683, ,0.005123812640362846, ,0.013204131302609947, ,3.8048850324249875e-05, ,0.06185909032253832,-0.18890576883640572,0.09748619316000001,4.066726763938865,1.0428097662098414,-0.15264164273040565, ,0.027292764325128206,0.0005417497663025805,0.004500935721955355,0.0,-0.0401345535142324,0.06426373176691409, ,1.2547309398651123
0.011491812696297232,0.02088723555516838,-0.0835400643675581, ,0.011774929154447692,0.020806478194143715,-0.08373263771864053, ,0.00035179706619363065, ,0.002759734727807712,0.0003192434072248258,-0.004542911661164649,0.007452658261023679,0.012900246537019834,-0.0269227709933883, ,0.005325044458224755, ,0.014898270837132042, ,3.827511477042968e-05, ,0.06212938597313618,-0.1888980461035315,0.09753415589000002,4.067565523712803,1.0428097662098414,-0.1525599639902651, ,0.02605627170743294,0.0006268312447642572,0.0046616363827919225,0.0770677492774445,-0.022635549430817147,0.049668999063744446, ,1.2647199630737305
0.011518623772050339,0.02089276056785989,-0.08358332252347223, ,0.011798445802538192,0.020809590846118987,-0.08377796627106805, ,0.00035086145390873596, ,0.002707045798168531,0.0003863041743608839,-0.004566278855427267,0.009223711224063513,-0.0023865599636995766,-0.034054628020628364, ,0.005322427120593827, ,0.0095274611109158, ,3.8496931015292806e-05, ,0.062391958890859814,-0.18889032337065728,0.09758082233000001,4.067984903599773,1.0428097662098414,-0.1525599639902651, ,0.02535995231386178,0.0011628083014236707,0.004803622291917975,0.06612160769051953,-0.007898015742328577,0.03225102769320657, ,1.272799015045166
0.011544631600153408,0.02090167871599028,-0.08363226205540868, ,0.011821974241651354,0.020812636174826125,-0.08382329549039555, ,0.00034834076450067234, ,0.002707363725209386,0.000670005743474039,-0.004849851733773039,0.0026549221156194295,-0.01594733866334648,-0.029189332244832483, ,0.005594621334500593, ,0.016166824648035774, ,3.871220188466326e-05, ,0.06266997727433189,-0.18888260063778306,0.09763267393000001,4.067984903599773,1.042673129710076,-0.15228518860628737, ,0.026485331163402397,0.0007780753196440025,0.005183472671656362,0.03794115284997096,-0.00291595887978001,0.008318677507608913, ,1.2812669277191162
0.011544631600153408,0.02090167871599028,-0.08363226205540868, ,0.011845514379862618,0.020815614482606767,-0.08386862527474329, ,0.0003921798960268798, ,0.002707363725209386,0.000670005743474039,-0.004849851733773039,0.0026549221156194295,-0.01594733866334648,-0.029189332244832483, ,0.005594621334500593, ,0.016166824648035774, ,3.898465577575183e-05, ,0.06266997727433189,-0.18888260063778306,0.09763267393000001,4.067984903599773,1.042673129710076,-0.15228518860628737, ,0.026485331163402397,0.0007780753196440025,0.005183472671656362,0.03794115284997096,-0.00291595887978001,0.008318677507608913, ,1.2893688678741455
0.011569759746073806,0.020909695591339303,-0.08368767855629387, ,0.011869066125469896,0.02081852607131621,-0.08391395552237388, ,0.00038613139668616575, ,0.0024512964689622483,0.0009166385099429052,-0.00530242354166242,-0.007644473562926503,0.005835920149830309,0.041243584302161254, ,0.005913102058296726, ,0.009617480743830606, ,3.929869775881207e-05, ,0.06293255019205553,-0.18887487790490884,0.0976884144,4.068194593543257,1.0422632202107798,-0.1517058986747764, ,0.026574332556278574,0.0006804179888221242,0.005412440203873599,0.0,-0.03432093146399065,0.040318482951029064, ,1.2981669902801514
0.011597832290534382,0.02091423579344047,-0.08374220871494334, ,0.011892629386993491,0.02082137124232345,-0.08395928613169218, ,0.00037769267638813984, ,0.0027687660449587474,0.00045688401687483775,-0.0057291390808521855,-0.0016394860368522165,0.04278120314857961,0.005314091785175698, ,0.006379486109737995, ,0.042812606217477275, ,3.959788077828682e-05, ,0.06319512310977916,-0.18887487790490884,0.09774285858000001,4.069033353317195,1.0418533107114833,-0.15104493000312502, ,0.026574332556278574,0.0005459829169959682,0.005596911988756149,0.0776347897223178,-0.05576854107753256,0.08099208616279854, ,1.30460786819458
0.011626524515338495,0.020919997278172557,-0.08379557865731611, ,0.011916204073175785,0.020824150296511988,-0.08400461700124558, ,0.0003698620274575662, ,0.0030252576902717442,0.0006267623554477161,-0.005805130747727557,-0.0026295497020884517,0.00913554834458647,-0.046044402219456444, ,0.006576059469086833, ,0.009506459309300174, ,3.988326607429818e-05, ,0.06346541876037702,-0.18886715517203462,0.09779859905,4.069662423147649,1.041716674211718,-0.15077015461914745, ,0.02844632540721546,8.739314164063724e-05,0.005968082248032972,0.07358448292003195,-0.025938098222217508,0.024972228915047773, ,1.311363935470581
0.011626524515338495,0.020919997278172557,-0.08379557865731611, ,0.011939790092981198,0.020826863534279632,-0.08404994802972379, ,0.0004141412730052457, ,0.0030252576902717442,0.0006267623554477161,-0.005805130747727557,-0.0026295497020884517,0.00913554834458647,-0.046044402219456444, ,0.006576059469086833, ,0.009506459309300174, ,4.0225022059141205e-05, ,0.06346541876037702,-0.18886715517203462,0.09779859905,4.069662423147649,1.041716674211718,-0.15077015461914745, ,0.02844632540721546,8.739314164063724e-05,0.005968082248032972,0.07358448292003195,-0.025938098222217508,0.024972228915047773, ,1.317939043045044
0.011655344042840816,0.02093200091749934,-0.0838583982364964, ,0.011963387355595774,0.020829511255539085,-0.08409527911595815, ,0.00040187978848947803, ,0.0030508406598879134,0.0010002303483761413,-0.006795970421802544,0.00237472032791302,-0.0050873872818081,-0.006691366215175454, ,0.0075162027284961545, ,0.005614338028173793, ,4.054675730647487e-05, ,0.06375888260959756,-0.1888594324391604,0.09786600613000002,4.069662423147649,1.041716674211718,-0.15077015461914745, ,0.029507755459723495,0.0008661751399162952,0.007088923684913219,0.038413611168630395,-0.01648968694658592,0.031416844141183446, ,1.3245549201965332
0.01168242567098757,0.020940103688714927,-0.08391916384027714, ,0.011986995770427382,0.020832093759718173,-0.08414061015892248, ,0.0003917493615517839, ,0.0029668733941681453,0.0011114516707670897,-0.006462720483879542,0.0026298776288573335,-0.014962575426345335,0.008300693609897164, ,0.0071975286457387575, ,0.015191935638945678, ,4.085162096162213e-05, ,0.06402145552732119,-0.18885170970628615,0.09792822805000001,4.070081803034618,1.0414434012121871,-0.15046564007161412, ,0.029692409749208632,0.0006641421904851277,0.006827608881268754,0.01639583593943103,-0.010516448744286385,0.025027063273203913, ,1.3341128826141357
0.01168242567098757,0.020940103688714927,-0.08391916384027714, ,0.01201061524710498,0.020834611345760305,-0.08418594105773274, ,0.00043589805694396885, ,0.0029668733941681453,0.0011114516707670897,-0.006462720483879542,0.0026298776288573335,-0.014962575426345335,0.008300693609897164, ,0.0071975286457387575, ,0.015191935638945678, ,4.121158340957124e-05, ,0.06402145552732119,-0.18885170970628615,0.09792822805000001,4.070081803034618,1.0414434012121871,-0.15046564007161412, ,0.029692409749208632,0.0006641421904851277,0.006827608881268754,0.01639583593943103,-0.010516448744286385,0.025027063273203913, ,1.342637062072754
0.01168242567098757,0.020940103688714927,-0.08391916384027714, ,0.012034245695478878,0.020837064312124492,-0.08423127171164664, ,0.00048146211287286957, ,0.0029668733941681453,0.0011114516707670897,-0.006462720483879542,0.0026298776288573335,-0.014962575426345335,0.008300693609897164, ,0.0071975286457387575, ,0.015191935638945678, ,4.1627635681890013e-05, ,0.06402145552732119,-0.18885170970628615,0.09792822805000001,4.070081803034618,1.0414434012121871,-0.15046564007161412, ,0.029692409749208632,0.0006641421904851277,0.006827608881268754,0.01639583593943103,-0.010516448744286385,0.025027063273203913, ,1.3492310047149658
0.011747282401289447,0.020947837258475044,-0.08406372595284768, ,0.01205788702562046,0.020839452956785937,-0.08427660202006396, ,0.00039184003049958177, ,0.003129527143372625,8.69488553840005e-05,-0.006572429673726584,-0.007269904954055717,0.07103609243858526,-0.03346852070149296, ,0.007279995333833693, ,0.071407128038595, ,4.1922184031918796e-05, ,0.06460838322576225,-0.18882081877478926,0.09806822737000001,4.072388392412948,1.0400770362145326,-0.14869803111352525, ,0.027886259641043427,0.0018938112765289259,0.006212484992199689,0.13321304649160395,-0.07746916064039233,0.09542781732460504, ,1.3564479351043701
0.01178010541129371,0.020953571401596295,-0.08412560331573507, ,0.012081539147821717,0.020841777577236185,-0.08432193188252629, ,0.0003767028840088566, ,0.0027962055672144112,0.000922032521819113,-0.005858440718044214,-0.012370572263906508,0.001227933716826262,0.031485010919335005, ,0.006556694074932228, ,0.012431366475511886, ,4.2193983964144003e-05, ,0.06492501527360545,-0.1887976505761666,0.09813174558000001,4.073017462243401,1.0398037632150017,-0.14823015908571074, ,0.029954842663658703,0.0019085626017592914,0.0059995523615819215,0.0,-0.03443951546412548,0.02991558402608744, ,1.3632149696350098
0.01178010541129371,0.020953571401596295,-0.08412560331573507, ,0.012105201972595639,0.020844038470483498,-0.08436726119871728, ,0.0004196233663369354, ,0.0027962055672144112,0.000922032521819113,-0.005858440718044214,-0.012370572263906508,0.001227933716826262,0.031485010919335005, ,0.006556694074932228, ,0.012431366475511886, ,4.25184955171587e-05, ,0.06492501527360545,-0.1887976505761666,0.09813174558000001,4.073017462243401,1.0398037632150017,-0.14823015908571074, ,0.029954842663658703,0.0019085626017592914,0.0059995523615819215,0.0,-0.03443951546412548,0.02991558402608744, ,1.369683027267456
0.011806554095821554,0.020964582277207915,-0.08418197305567966, ,0.012128875410675274,0.020846235933053087,-0.084412589868462, ,0.0004136193921006735, ,0.00285245958319584,0.0011651354020851587,-0.006061003437087766,-0.01584359633533266,-0.03953587116471138,-0.007321673487953078, ,0.0067992520797031525, ,0.04259230735015656, ,4.283193877331319e-05, ,0.06521075638995176,-0.18878220511041813,0.09819137492,4.0728077722999165,1.0396671267152364,-0.1477920262214521, ,0.03028948022932358,0.0024954857499489107,0.006517516988543373,-0.024834068187594878,0.0,-0.03393624391514549, ,1.3799450397491455
0.011836015283953453,0.02097641358678322,-0.08423829326358959, ,0.012152559373014175,0.02084837026098766,-0.08445791779172769, ,0.00040599284102057164, ,0.0030017834721095165,0.0010789881793490646,-0.005770152817124759,-0.002930819250153871,-0.03157573860363096,-0.005050432731661103, ,0.006593146671929699, ,0.03171146422739714, ,4.313240623288723e-05, ,0.06551966570492074,-0.18876675964466968,0.09825359684000001,4.072598082356432,1.0398037632150017,-0.14798512286528898, ,0.030991816315633827,0.001719346198479904,0.0062221920000000005,0.0,0.0,-0.00583453231081425, ,1.3870010375976562
0.011868460741532635,0.02098572496602146,-0.0842972104012157, ,0.012176253770785808,0.02085044174984739,-0.08450324486862276, ,0.00039432004665621365, ,0.0030748238703172826,0.0009672202823442729,-0.005363984054334917,-0.003441347934277146,-0.03158028792437978,-0.013631867267956694, ,0.006257985446068914, ,0.03176723873034804, ,4.341494180196323e-05, ,0.06584402048563817,-0.18875131417892124,0.09831711505000001,4.0728077722999165,1.0398037632150017,-0.1479034441251484, ,0.0316428614733147,0.0010396198674997158,0.005828324742041714,0.006164966559683209,0.0,-0.008100497820050994, ,1.393481969833374
0.011868460741532635,0.02098572496602146,-0.0842972104012157, ,0.012199958515383752,0.02085245069471046,-0.08454857099939769, ,0.0004368466044049505, ,0.0030748238703172826,0.0009672202823442729,-0.005363984054334917,-0.003441347934277146,-0.03158028792437978,-0.013631867267956694, ,0.006257985446068914, ,0.03176723873034804, ,4.374851193782773e-05, ,0.06584402048563817,-0.18875131417892124,0.09831711505000001,4.0728077722999165,1.0398037632150017,-0.1479034441251484, ,0.0316428614733147,0.0010396198674997158,0.005828324742041714,0.006164966559683209,0.0,-0.008100497820050994, ,1.3998429775238037
0.011901537801846997,0.02098876525326368,-0.08435566760776395, ,0.012223673518420977,0.02085439739017329,-0.084593896084444, ,0.00042258602630163553, ,0.003389589274081456,0.00031920353706487445,-0.0056571479852401945,0.0010001247292247654,-0.008427175706797588,-0.07656914651539222, ,0.006602615366046243, ,0.008486314516509713, ,4.40607338527714e-05, ,0.06615292980060715,-0.18872042324742436,0.09837674439,4.073646532073854,1.0395304902154707,-0.1475989295776151, ,0.03098169819081645,0.0030261200971434215,0.005948025212845408,0.08584552130102538,-0.006887553383216605,0.007543952474750684, ,1.406507968902588
0.011933195685889263,0.02099302071158692,-0.08441746082174056, ,0.012247398691730065,0.020856282130351,-0.08463922002429539, ,0.00040816432033625587, ,0.003197310521300837,0.0005168195865490046,-0.006661523728850471,-0.013329128867224142,0.04841830322659669,0.010947144296617355, ,0.0074071448915691935, ,0.05021949572211695, ,4.435172680750812e-05, ,0.0664541163827019,-0.1887049777816759,0.09843767002,4.074485291847793,1.0389839442164093,-0.1469899004825484, ,0.03153770075057188,0.0020043830668944685,0.006461992503042598,0.07070394991483678,-0.07116509812246832,0.07808846481845774, ,1.4134888648986816
0.011933195685889263,0.02099302071158692,-0.08441746082174056, ,0.012271133947363167,0.020858105208877372,-0.08468454271962653, ,0.0004513725751723762, ,0.003197310521300837,0.0005168195865490046,-0.006661523728850471,-0.013329128867224142,0.04841830322659669,0.010947144296617355, ,0.0074071448915691935, ,0.05021949572211695, ,4.474962355094543e-05, ,0.0664541163827019,-0.1887049777816759,0.09843767002,4.074485291847793,1.0389839442164093,-0.1469899004825484, ,0.03153770075057188,0.0020043830668944685,0.006461992503042598,0.07070394991483678,-0.07116509812246832,0.07808846481845774, ,1.4196228981018066
0.011963820186712795,0.0210034335174136,-0.08448486746797287, ,0.012294879197591164,0.02085986691890556,-0.08472986407125327, ,0.0004361591137530708, ,0.003199435041330333,0.0008573660350874378,-0.006942375476607162,-0.008238134377613377,0.021240863707298066,0.023951447422984457, ,0.0076920763360753585, ,0.022782474249499626, ,4.512560143774522e-05, ,0.06677847116341934,-0.18868180958305322,0.09850637339000001,4.074485291847793,1.0385740347171128,-0.1465739680313185, ,0.03214666041953617,0.0019068997892822126,0.006983258009644893,0.03723355165630486,-0.04861885036365873,0.05945790723275429, ,1.4264168739318848
0.011963820186712795,0.0210034335174136,-0.08448486746797287, ,0.012318634354904188,0.02086156755310804,-0.08477518398013358, ,0.00047989865910507773, ,0.003205203494894211,0.0010077416195713872,-0.007135053710624709,0.0012718313930803592,-0.008140769392595917,0.034747707054453875, ,0.00788656224656839, ,0.008239518366006062, ,4.5553047907710286e-05, ,0.06710282594413676,-0.1886509186515563,0.09857896563000001,4.074904671734762,1.0384373982173474,-0.14621751390720034, ,0.03222307013869975,0.0034443241992953857,0.007419101779226828,0.010605656385850428,-0.020029034130146638,0.046494247031818335, ,1.4320039749145508
0.011997603451077744,0.02101165530666963,-0.08455429097280516, ,0.01234239933201093,0.020863207403677315,-0.08482050234736588, ,0.0004602059053910702, ,0.003205203494894211,0.0010077416195713872,-0.007135053710624709,0.0012718313930803592,-0.008140769392595917,0.034747707054453875, ,0.00788656224656839, ,0.008239518366006062, ,4.5952982100130485e-05, ,0.06710282594413676,-0.1886509186515563,0.09857896563000001,4.074904671734762,1.0384373982173474,-0.14621751390720034, ,0.03222307013869975,0.0034443241992953857,0.007419101779226828,0.010605656385850428,-0.020029034130146638,0.046494247031818335, ,1.4371888637542725
0.012036797105861682,0.02101719230916867,-0.08463031958119717, ,0.012366174041838705,0.02086478676232587,-0.08486581907419032, ,0.000432639142776164, ,0.003949682985277283,0.0001673084285586917,-0.006695428007086458,0.013290969423668399,-0.0021640472923884456,-0.13193897645350303, ,0.007775393494385566, ,0.013465992553441188, ,4.631601189874597e-05, ,0.06745034892347687,-0.18862002772005942,0.09865803932000002,4.0759531214521845,1.038300761717582,-0.14594273852322287, ,0.03270053120553783,0.0025924229166874764,0.00704502942061035,0.15059640267790947,0.0,0.017046845923725556, ,1.4421460628509521
0.012036797105861682,0.02101719230916867,-0.08463031958119717, ,0.012389958397533249,0.020866305920286793,-0.08491113406198811, ,0.0004757587339259544, ,0.003949682985277283,0.0001673084285586917,-0.006695428007086458,0.013290969423668399,-0.0021640472923884456,-0.13193897645350303, ,0.007775393494385566, ,0.013465992553441188, ,4.6729276559150526e-05, ,0.06745034892347687,-0.18862002772005942,0.09865803932000002,4.0759531214521845,1.038300761717582,-0.14594273852322287, ,0.03270053120553783,0.0025924229166874764,0.00704502942061035,0.15059640267790947,0.0,0.017046845923725556, ,1.4471230506896973
0.012072177623374581,0.021020516820662794,-0.08470118234978193, ,0.012413752312458394,0.02086776516831363,-0.08495644721228156, ,0.0004529530721223334, ,0.003469675893974104,0.0007994988349383351,-0.007962977706883582,-0.012218661486319057,0.02824373782951767,0.031301507806896944, ,0.008722778408088657, ,0.030773436322305888, ,4.711163015627141e-05, ,0.06777470370419429,-0.18858913678856254,0.09872803898000002,4.077001571169607,1.0377542157185202,-0.1452520306880154, ,0.034570834811829064,0.004269750961939482,0.007924781850746269,0.04048389912352539,-0.057939253070551866,0.0698931199232145, ,1.452131986618042
0.012072177623374581,0.021020516820662794,-0.08470118234978193, ,0.012437555700196189,0.020869164796681265,-0.08500175842673374, ,0.0004967439503616591, ,0.003469675893974104,0.0007994988349383351,-0.007962977706883582,-0.012218661486319057,0.02824373782951767,0.031301507806896944, ,0.008722778408088657, ,0.030773436322305888, ,4.754452791497159e-05, ,0.06777470370419429,-0.18858913678856254,0.09872803898000002,4.077001571169607,1.0377542157185202,-0.1452520306880154, ,0.034570834811829064,0.004269750961939482,0.007924781850746269,0.04048389912352539,-0.057939253070551866,0.0698931199232145, ,1.4588608741760254
0.012106146032017474,0.021030217673495496,-0.08478647833227312, ,0.012461368474546076,0.020870505095185808,-0.08504706760714933, ,0.00046861269885356706, ,0.0033814578350334925,0.0011501554724371393,-0.008884217303668559,-0.016761195231368035,0.034997764425221047,0.09382853073084514, ,0.009575303222336636, ,0.03880439569172642, ,4.794013363719082e-05, ,0.0681222266835344,-0.18854280039131718,0.09881229783,4.077211261113091,1.0370710332196929,-0.14428654746883046, ,0.03562197505948603,0.004724428300535379,0.008771371982378857,0.0,-0.07346376038061281,0.0927341342656044, ,1.4639019966125488
0.012106146032017474,0.021030217673495496,-0.08478647833227312, ,0.012485190549525476,0.02087178635314512,-0.08509237465547359, ,0.0005121989750755086, ,0.0033814578350334925,0.0011501554724371393,-0.008884217303668559,-0.016761195231368035,0.034997764425221047,0.09382853073084514, ,0.009575303222336636, ,0.03880439569172642, ,4.838557326737697e-05, ,0.0681222266835344,-0.18854280039131718,0.09881229783,4.077211261113091,1.0370710332196929,-0.14428654746883046, ,0.03562197505948603,0.004724428300535379,0.008771371982378857,0.0,-0.07346376038061281,0.0927341342656044, ,1.469214916229248
0.012145179264375734,0.02103974347256119,-0.08487704245255345, ,0.012509021839369224,0.020873008859398967,-0.08513767947379261, ,0.00047761229825525934, ,0.003772457060585728,0.0009767944270576796,-0.007407841132983125,0.010436822539271771,-0.050664815573354595,-0.035388217318830406, ,0.00837028493411131, ,0.05172862630585125, ,4.8786122157079526e-05, ,0.06847747239574872,-0.18849646399407183,0.09889914926000001,4.077630641000061,1.0366611237203966,-0.14362557879717902, ,0.03538290140136867,0.004790468322847064,0.008139402922841084,0.027997511112679778,0.024934847502627783,-0.005272381564036897, ,1.4741489887237549
0.012145179264375734,0.02103974347256119,-0.08487704245255345, ,0.012532862258529159,0.020874172902309515,-0.0851829819643333, ,0.0005208749394598669, ,0.003772457060585728,0.0009767944270576796,-0.007407841132983125,0.010436822539271771,-0.050664815573354595,-0.035388217318830406, ,0.00837028493411131, ,0.05172862630585125, ,4.923572188455687e-05, ,0.06847747239574872,-0.18849646399407183,0.09889914926000001,4.077630641000061,1.0366611237203966,-0.14362557879717902, ,0.03538290140136867,0.004790468322847064,0.008139402922841084,0.027997511112679778,0.024934847502627783,-0.005272381564036897, ,1.479006052017212
0.01218693370718267,0.021045410871126366,-0.0849532167070778, ,0.012556711721674366,0.02087527876976152,-0.0852282820294638, ,0.0004912653493739937, ,0.0045804617321617965,0.0005090396155363859,-0.008756352374749027,0.01019267885848249,-0.012460114159777245,-0.11183912458069806, ,0.009895122936111354, ,0.01609798421261156, ,4.964667664977257e-05, ,0.06886360903945996,-0.18845012759682647,0.09898600069,4.0786790907174835,1.0367977602201621,-0.1435736392205944, ,0.03927853541327433,0.004753644836580906,0.009207405502890174,0.13047703357453352,0.0,0.017618134738783865, ,1.484015941619873
0.01218693370718267,0.021045410871126366,-0.0849532167070778, ,0.01258057014369082,0.0208763267491626,-0.08527357957169235, ,0.0005349499504356774, ,0.0045804617321617965,0.0005090396155363859,-0.008756352374749027,0.01019267885848249,-0.012460114159777245,-0.11183912458069806, ,0.009895122936111354, ,0.01609798421261156, ,5.010675998765857e-05, ,0.06886360903945996,-0.18845012759682647,0.09898600069,4.0786790907174835,1.0367977602201621,-0.1435736392205944, ,0.03927853541327433,0.004753644836580906,0.009207405502890174,0.13047703357453352,0.0,0.017618134738783865, ,1.488821029663086
0.012228972918332626,0.021051712735230835,-0.0850497917044157, ,0.012604437439681024,0.020877317127443663,-0.08531887449366843, ,0.000493753969380362, ,0.004159159330667046,0.000790954312833127,-0.010094373757767172,-0.000865220050011029,0.005143833030046293,-0.01131540410276331, ,0.01094625948095342, ,0.005216082741611742, ,5.051463847865309e-05, ,0.06924202295029695,-0.18837290026808423,0.09908451873000002,4.079517850491421,1.0365244872206312,-0.14310576719277984, ,0.037852788814707126,0.007953763341581686,0.010296581460892051,0.06779653390517439,-0.028630030685662763,0.05660338357614314, ,1.493933916091919
0.012228972918332626,0.021051712735230835,-0.0850497917044157, ,0.012628313524964139,0.02087825019105921,-0.08536416669818175, ,0.0005370231010307836, ,0.004159159330667046,0.000790954312833127,-0.010094373757767172,-0.000865220050011029,0.005143833030046293,-0.01131540410276331, ,0.01094625948095342, ,0.005216082741611742, ,5.0970826863972415e-05, ,0.06924202295029695,-0.18837290026808423,0.09908451873000002,4.079517850491421,1.0365244872206312,-0.14310576719277984, ,0.037852788814707126,0.007953763341581686,0.010296581460892051,0.06779653390517439,-0.028630030685662763,0.05660338357614314, ,1.4987239837646484
0.012228972918332626,0.021051712735230835,-0.0850497917044157, ,0.012652198315075398,0.02087912622598753,-0.08540945608816244, ,0.0005816049419982496, ,0.004159159330667046,0.000790954312833127,-0.010094373757767172,-0.000865220050011029,0.005143833030046293,-0.01131540410276331, ,0.01094625948095342, ,0.005216082741611742, ,5.153713535071421e-05, ,0.06964360505975663,-0.18831111840509043,0.09918433306,4.079517850491421,1.0357046682220388,-0.14202886606989856, ,0.04104538994743546,0.006188814796427669,0.009549647194244606,0.03257014681984471,-0.07969531178092211,0.10472388066530536, ,1.5022289752960205
0.012267450487118851,0.021064097037148507,-0.08515090677799178, ,0.012676091725766449,0.020879945517731084,-0.08545474256668169, ,0.0005414938877919181, ,0.004058085717847127,0.0009567194202919202,-0.009685438034058635,-0.015422070401913254,0.042338742015811635,0.07354636163306201, ,0.010544718187516827, ,0.04506006264678587, ,5.205353065941915e-05, ,0.06964360505975663,-0.18831111840509043,0.09918433306,4.079517850491421,1.0357046682220388,-0.14202886606989856, ,0.04104538994743546,0.006188814796427669,0.009549647194244606,0.03257014681984471,-0.07969531178092211,0.10472388066530536, ,1.5058059692382812
0.012267450487118851,0.021064097037148507,-0.08515090677799178, ,0.012699993673004605,0.0208807083513169,-0.08550002603695073, ,0.0005853283477871929, ,0.004058085717847127,0.0009567194202919202,-0.009685438034058635,-0.015422070401913254,0.042338742015811635,0.07354636163306201, ,0.010544718187516827, ,0.04506006264678587, ,5.261900808182614e-05, ,0.06964360505975663,-0.18831111840509043,0.09918433306,4.079517850491421,1.0357046682220388,-0.14202886606989856, ,0.04104538994743546,0.006188814796427669,0.009549647194244606,0.03257014681984471,-0.07969531178092211,0.10472388066530536, ,1.5097529888153076
0.012290444228803044,0.021068674454812582,-0.08520496931380002, ,0.01272390407297306,0.0208814150112967,-0.08554530640232152, ,0.0005820505729892098, ,0.004068314943585088,0.001119149930670327,-0.009881512614177988,-0.015223533408872196,0.0120807630418815,0.07425044504787054, ,0.010744671916427967, ,0.019434523686233426, ,5.317799114961695e-05, ,0.06986756431310914,-0.1882647820078451,0.09923877724,4.079727540434906,1.0354313952225078,-0.14164267278222453, ,0.04163972863469539,0.00788940151224434,0.009961733283302064,0.0,-0.05514732299264461,0.07412126252278901, ,1.5180518627166748
0.012290444228803044,0.021068674454812582,-0.08520496931380002, ,0.012747822842070487,0.020882065781747363,-0.08559058356628586, ,0.0006266708421953489, ,0.004068314943585088,0.001119149930670327,-0.009881512614177988,-0.015223533408872196,0.0120807630418815,0.07425044504787054, ,0.010744671916427967, ,0.019434523686233426, ,5.378654654130832e-05, ,0.06986756431310914,-0.1882647820078451,0.09923877724,4.079727540434906,1.0354313952225078,-0.14164267278222453, ,0.04163972863469539,0.00788940151224434,0.009961733283302064,0.0,-0.05514732299264461,0.07412126252278901, ,1.5213840007781982
0.012377876787849993,0.02106671886192214,-0.0853839899513922, ,0.012771749896910961,0.02088266094627111,-0.08563585743247609, ,0.000502444594341209, ,0.0064090989295193,-0.0007829427288467382,-0.01226685263829563,0.023707918032565944,0.034696848604487525,-0.3044044789464983, ,0.0138623671158529, ,0.042023046090974035, ,5.4247306752811924e-05, ,0.07056261027178934,-0.1881103273503606,0.09942025784000001,4.083292269474143,1.0350214857232114,-0.14065498915001073, ,0.045755516662714935,0.010493729219210138,0.012473619044635868,0.3539868148836152,-0.010276028768146815,0.04536659880982599, ,1.5253019332885742
0.012377876787849993,0.02106671886192214,-0.0853839899513922, ,0.012795685154323716,0.020883200787996,-0.08568112790466484, ,0.0005445490591563421, ,0.0064090989295193,-0.0007829427288467382,-0.01226685263829563,0.023707918032565944,0.034696848604487525,-0.3044044789464983, ,0.0138623671158529, ,0.042023046090974035, ,5.4754937073709154e-05, ,0.07056261027178934,-0.1881103273503606,0.09942025784000001,4.083292269474143,1.0350214857232114,-0.14065498915001073, ,0.045755516662714935,0.010493729219210138,0.012473619044635868,0.3539868148836152,-0.010276028768146815,0.04536659880982599, ,1.5298268795013428
0.01243427326073081,0.02107051302594228,-0.08550187158044655, ,0.012819628531352859,0.02088368558957615,-0.08572639488676506, ,0.00048354305977392633, ,0.005148482306694825,0.000771060638881695,-0.010700896103841093,0.0010158182852250952,-0.010446097228471172,-0.030533280627244738, ,0.011900024453604446, ,0.010495365347683585, ,5.518935424632995e-05, ,0.07104141970999127,-0.1880176545558699,0.09954081281,4.0849697890220185,1.0347482127236804,-0.14026879586233676, ,0.047495966745981374,0.009167948760226832,0.011084767933194156,0.07816402193184561,-0.020140940329012463,0.047978323834534264, ,1.533653974533081
0.01243427326073081,0.02107051302594228,-0.08550187158044655, ,0.012843579945257548,0.020884115633191817,-0.0857716582828294, ,0.0005244624055211739, ,0.005148482306694825,0.000771060638881695,-0.010700896103841093,0.0010158182852250952,-0.010446097228471172,-0.030533280627244738, ,0.011900024453604446, ,0.010495365347683585, ,5.566917313048814e-05, ,0.07104141970999127,-0.1880176545558699,0.09954081281,4.0849697890220185,1.0347482127236804,-0.14026879586233676, ,0.047495966745981374,0.009167948760226832,0.011084767933194156,0.07816402193184561,-0.020140940329012463,0.047978323834534264, ,1.5370869636535645
0.01243427326073081,0.02107051302594228,-0.08550187158044655, ,0.012867539313511162,0.020884491200550127,-0.08581691799705096, ,0.0005670783337682543, ,0.005148482306694825,0.000771060638881695,-0.010700896103841093,0.0010158182852250952,-0.010446097228471172,-0.030533280627244738, ,0.011900024453604446, ,0.010495365347683585, ,5.6196040168068804e-05, ,0.07104141970999127,-0.1880176545558699,0.09954081281,4.0849697890220185,1.0347482127236804,-0.14026879586233676, ,0.047495966745981374,0.009167948760226832,0.011084767933194156,0.07816402193184561,-0.020140940329012463,0.047978323834534264, ,1.540700912475586
0.012476735042825596,0.02108320795519361,-0.08560496260868025, ,0.012891506553801887,0.020884812572885172,-0.08586217393376239, ,0.0005268337496681228, ,0.0040080927954630734,0.0014948036486444804,-0.01032475050045243,-0.031240014032201155,0.02590815526073039,0.2875105963690469, ,0.011175854271671429, ,0.04058535288030984, ,5.667405824111608e-05, ,0.0715279518810674,-0.18789409082988232,0.09964321972000001,4.0841310292480815,1.0339283937250878,-0.13902853725917425, ,0.049684262596058,0.013203971275702069,0.010126390031786397,-0.13963523879717693,-0.10223485007176508,0.15147663969968575, ,1.543992042541504
0.012476735042825596,0.02108320795519361,-0.08560496260868025, ,0.012915481584032013,0.020885080030958052,-0.08590742599743685, ,0.0005685396233514521, ,0.0040080927954630734,0.0014948036486444804,-0.01032475050045243,-0.031240014032201155,0.02590815526073039,0.2875105963690469, ,0.011175854271671429, ,0.04058535288030984, ,5.719786895097709e-05, ,0.0715279518810674,-0.18789409082988232,0.09964321972000001,4.0841310292480815,1.0339283937250878,-0.13902853725917425, ,0.049684262596058,0.013203971275702069,0.010126390031786397,-0.13963523879717693,-0.10223485007176508,0.15147663969968575, ,1.5473639965057373
0.012476735042825596,0.02108320795519361,-0.08560496260868025, ,0.012939464322317663,0.020885293855057906,-0.08595267409268724, ,0.0006117120672686744, ,0.0040080927954630734,0.0014948036486444804,-0.01032475050045243,-0.031240014032201155,0.02590815526073039,0.2875105963690469, ,0.011175854271671429, ,0.04058535288030984, ,5.776884062648424e-05, ,0.0715279518810674,-0.18789409082988232,0.09964321972000001,4.0841310292480815,1.0339283937250878,-0.13902853725917425, ,0.049684262596058,0.013203971275702069,0.010126390031786397,-0.13963523879717693,-0.10223485007176508,0.15147663969968575, ,1.5515639781951904
0.012523180860947615,0.02109220412265316,-0.08570224304725438, ,0.012963454686989062,0.020885454325001346,-0.08599791812426578, ,0.0005692190016961313, ,0.005291064913904106,0.0006073771410547539,-0.010257553916228148,-0.02259682555110955,-0.01445684626739739,0.03497355939233231, ,0.011557754421121358, ,0.02682567455681399, ,5.828852140591512e-05, ,0.072029929517892,-0.1877628043710205,0.09974173776,4.083711649361112,1.0333818477260261,-0.13825615068382635, ,0.05382696628387452,0.014439583316870173,0.010493288221343874,0.008799968483009528,-0.04007748722535958,0.04344235531645014, ,1.5556578636169434
0.012523180860947615,0.02109220412265316,-0.08570224304725438, ,0.012987452596589854,0.020885561720133512,-0.08604315799706505, ,0.0006119414433095387, ,0.005291064913904106,0.0006073771410547539,-0.010257553916228148,-0.02259682555110955,-0.01445684626739739,0.03497355939233231, ,0.011557754421121358, ,0.02682567455681399, ,5.8854652149341076e-05, ,0.072029929517892,-0.1877628043710205,0.09974173776,4.083711649361112,1.0333818477260261,-0.13825615068382635, ,0.05382696628387452,0.014439583316870173,0.010493288221343874,0.008799968483009528,-0.04007748722535958,0.04344235531645014, ,1.5589959621429443
0.012523180860947615,0.02109220412265316,-0.08570224304725438, ,0.013011457969877535,0.020885616319327945,-0.08608839361611731, ,0.0006559003868125573, ,0.005291064913904106,0.0006073771410547539,-0.010257553916228148,-0.02259682555110955,-0.01445684626739739,0.03497355939233231, ,0.011557754421121358, ,0.02682567455681399, ,5.9468324991432156e-05, ,0.072029929517892,-0.1877628043710205,0.09974173776,4.083711649361112,1.0333818477260261,-0.13825615068382635, ,0.05382696628387452,0.014439583316870173,0.010493288221343874,0.008799968483009528,-0.04007748722535958,0.04344235531645014, ,1.5623469352722168
0.012584204470532,0.021091958459215653,-0.0858096358062976, ,0.013035470725822547,0.020885618400986954,-0.08613362488659436, ,0.0005926098015940334, ,0.0062241376469084455,-0.00011492608655680036,-0.010525330444461085,0.008517744903331025,-0.012077020057990311,-0.12432090483889882, ,0.012228478172615498, ,0.014778574442220548, ,6.0007202297019376e-05, ,0.07257824355196195,-0.18763151791215868,0.09985192241000002,4.085179478965504,1.0331085747264952,-0.13762492117573066, ,0.054507146213940705,0.012958752090464397,0.010955166107290235,0.16537822004703823,-0.007630982240801305,0.04079594283117098, ,1.565614938735962
0.012584204470532,0.021091958459215653,-0.0858096358062976, ,0.013059490783608473,0.020885568243042146,-0.0861788517138075, ,0.0006362502550791928, ,0.0062241376469084455,-0.00011492608655680036,-0.010525330444461085,0.008517744903331025,-0.012077020057990311,-0.12432090483889882, ,0.012228478172615498, ,0.014778574442220548, ,6.0593168075095604e-05, ,0.07257824355196195,-0.18763151791215868,0.09985192241000002,4.085179478965504,1.0331085747264952,-0.13762492117573066, ,0.054507146213940705,0.012958752090464397,0.010955166107290235,0.16537822004703823,-0.007630982240801305,0.04079594283117098, ,1.56886887550354
0.012649426666480704,0.021091080891552275,-0.0859320630016858, ,0.013083518062631886,0.020885466122954475,-0.08622407400320767, ,0.0005621238282512295, ,0.006124731883141188,0.0001430157792117739,-0.012266584773145763,-0.015226721956739202,0.02898681307457437,0.0008559605490237104, ,0.013711378346112444, ,0.03274275669581013, ,6.109253103330742e-05, ,0.07317289398327723,-0.18746934052179998,0.09997506996000001,4.086647308569895,1.0325620287274335,-0.13693421334052341, ,0.05786398875516511,0.016500946193439538,0.01223411023041475,0.10019283180213948,-0.06865194816961426,0.10008965950041405, ,1.574044942855835
0.012649426666480704,0.021091080891552275,-0.0859320630016858, ,0.013107552482502125,0.020885312317714694,-0.08626929166038548, ,0.0006049323412852336, ,0.006124731883141188,0.0001430157792117739,-0.012266584773145763,-0.015226721956739202,0.02898681307457437,0.0008559605490237104, ,0.013711378346112444, ,0.03274275669581013, ,6.163800818496687e-05, ,0.07317289398327723,-0.18746934052179998,0.09997506996000001,4.086647308569895,1.0325620287274335,-0.13693421334052341, ,0.05786398875516511,0.016500946193439538,0.01223411023041475,0.10019283180213948,-0.06865194816961426,0.10008965950041405, ,1.5774428844451904
0.012649426666480704,0.021091080891552275,-0.0859320630016858, ,0.013131593963040936,0.02088510710384368,-0.08631450459107085, ,0.000648977713320413, ,0.006124731883141188,0.0001430157792117739,-0.012266584773145763,-0.015226721956739202,0.02898681307457437,0.0008559605490237104, ,0.013711378346112444, ,0.03274275669581013, ,6.223068202594826e-05, ,0.07317289398327723,-0.18746934052179998,0.09997506996000001,4.086647308569895,1.0325620287274335,-0.13693421334052341, ,0.05786398875516511,0.016500946193439538,0.01223411023041475,0.10019283180213948,-0.06865194816961426,0.10008965950041405, ,1.5807340145111084
0.01270884511474827,0.021095504763285592,-0.08606043218366559, ,0.013155642424282346,0.02088485075739273,-0.08635971270113321, ,0.0005775567280720466, ,0.006109691882501458,0.0004788322040103904,-0.013410344265515125,-0.019413391875081183,0.020443442923393736,0.027829772672189116, ,0.01474431919412816, ,0.02819244063481071, ,6.274035060189893e-05, ,0.07374437621596984,-0.18729944039856702,0.10010340267000001,4.087276378400349,1.0318788462286064,-0.1358870513811979, ,0.05821898255120907,0.01753454204701973,0.013430701112984824,0.0672317357275368,-0.0669469378345746,0.09467741490063217, ,1.58406400680542
0.01270884511474827,0.021095504763285592,-0.08606043218366559, ,0.013179697786472756,0.020884543553943636,-0.08640491589658097, ,0.0006203836706273604, ,0.006109691882501458,0.0004788322040103904,-0.013410344265515125,-0.019413391875081183,0.020443442923393736,0.027829772672189116, ,0.01474431919412816, ,0.02819244063481071, ,6.32957972566953e-05, ,0.07374437621596984,-0.18729944039856702,0.10010340267000001,4.087276378400349,1.0318788462286064,-0.1358870513811979, ,0.05821898255120907,0.01753454204701973,0.013430701112984824,0.0672317357275368,-0.0669469378345746,0.09467741490063217, ,1.5875239372253418
0.01270884511474827,0.021095504763285592,-0.08606043218366559, ,0.01320375997007045,0.020884185768609464,-0.08645011408356239, ,0.0006644158446610697, ,0.006109691882501458,0.0004788322040103904,-0.013410344265515125,-0.019413391875081183,0.020443442923393736,0.027829772672189116, ,0.01474431919412816, ,0.02819244063481071, ,6.38980640541731e-05, ,0.07374437621596984,-0.18729944039856702,0.10010340267000001,4.087276378400349,1.0318788462286064,-0.1358870513811979, ,0.05821898255120907,0.01753454204701973,0.013430701112984824,0.0672317357275368,-0.0669469378345746,0.09467741490063217, ,1.5917868614196777
0.012756876943302109,0.02109787438354878,-0.08616066106082824, ,0.013227828895745336,0.02088377767603447,-0.0864953071683645, ,0.0006161340430196335, ,0.006109691882501458,0.0004788322040103904,-0.013410344265515125,-0.019413391875081183,-0.009490540631368961,-0.035232590408301664, ,0.01474431919412816, ,0.02819244063481071, ,6.451577767717697e-05, ,0.07374437621596984,-0.18729944039856702,0.10010340267000001,4.087276378400349,1.0318788462286064,-0.1358870513811979, ,0.05821898255120907,0.01753454204701973,0.013430701112984824,0.0672317357275368,-0.0669469378345746,0.09467741490063217, ,1.5947768688201904
0.012756876943302109,0.02109787438354878,-0.08616066106082824, ,0.013251904484379106,0.020883319550394578,-0.08654049505741379, ,0.000659818086912381, ,0.00655206622333448,0.0005636913534826692,-0.013442132067020536,-0.010879303582815504,-0.009490540631368961,-0.035232590408301664, ,0.014964565955756065, ,0.014437076194568643, ,6.518091992213251e-05, ,0.07418457198980064,-0.18717587667257943,0.10020451329,4.088115138174286,1.03146893672931,-0.13538944018982735, ,0.06052100864698392,0.016152670903569494,0.013791178805194806,0.08960161197150818,-0.03392548447527393,0.054047701552992336, ,1.596721887588501
0.012756876943302109,0.02109787438354878,-0.08616066106082824, ,0.013275986657064741,0.020882811665397672,-0.08658567765727562, ,0.0007045324512873611, ,0.00655206622333448,0.0005636913534826692,-0.013442132067020536,-0.010879303582815504,-0.009490540631368961,-0.035232590408301664, ,0.014964565955756065, ,0.014437076194568643, ,6.589448189910263e-05, ,0.07418457198980064,-0.18717587667257943,0.10020451329,4.088115138174286,1.03146893672931,-0.13538944018982735, ,0.06052100864698392,0.016152670903569494,0.013791178805194806,0.08960161197150818,-0.03392548447527393,0.054047701552992336, ,1.5983870029449463
0.012756876943302109,0.02109787438354878,-0.08616066106082824, ,0.013300075335106486,0.020882254294283864,-0.08663085487465456, ,0.000750092486506838, ,0.00655206622333448,0.0005636913534826692,-0.013442132067020536,-0.010879303582815504,-0.009490540631368961,-0.035232590408301664, ,0.014964565955756065, ,0.014437076194568643, ,6.665724444604547e-05, ,0.07418457198980064,-0.18717587667257943,0.10020451329,4.088115138174286,1.03146893672931,-0.13538944018982735, ,0.06052100864698392,0.016152670903569494,0.013791178805194806,0.08960161197150818,-0.03392548447527393,0.054047701552992336, ,1.6000280380249023
0.012756876943302109,0.02109787438354878,-0.08616066106082824, ,0.013324170440019496,0.02088164770982584,-0.08667602661639419, ,0.0007963526490889078, ,0.00655206622333448,0.0005636913534826692,-0.013442132067020536,-0.010879303582815504,-0.009490540631368961,-0.035232590408301664, ,0.014964565955756065, ,0.014437076194568643, ,6.746982284765223e-05, ,0.07418457198980064,-0.18717587667257943,0.10020451329,4.088115138174286,1.03146893672931,-0.13538944018982735, ,0.06052100864698392,0.016152670903569494,0.013791178805194806,0.08960161197150818,-0.03392548447527393,0.054047701552992336, ,1.6016740798950195
0.012756876943302109,0.02109787438354878,-0.08616066106082824, ,0.01334827189352983,0.020880992184329164,-0.08672119278947688, ,0.0008431973044993726, ,0.00655206622333448,0.0005636913534826692,-0.013442132067020536,-0.010879303582815504,-0.009490540631368961,-0.035232590408301664, ,0.014964565955756065, ,0.014437076194568643, ,6.833270102524035e-05, ,0.07418457198980064,-0.18717587667257943,0.10020451329,4.088115138174286,1.03146893672931,-0.13538944018982735, ,0.06052100864698392,0.016152670903569494,0.013791178805194806,0.08960161197150818,-0.03392548447527393,0.054047701552992336, ,1.6033198833465576
0.012841767915001355,0.021104270647898046,-0.08632723888994841, ,0.013372379617574195,0.0208802879896327,-0.08676635330102436, ,0.0007242502855542705, ,0.006700999935776466,0.00047137508682092676,-0.013088260781366066,0.0014984616600700789,-0.037853041701194697,-0.030251430238463738, ,0.014711497710729412, ,0.03788268429387881, ,6.906149834138371e-05, ,0.07497229074297154,-0.18695964015210115,0.10037691986000001,4.08916358789171,1.0311956637297792,-0.1346765319415913, ,0.06174166659627246,0.018326948929793505,0.013672799587982834,0.07538365787094428,-0.004243311300289644,0.04801460828605092, ,1.6049699783325195
