NicholasDascanio/dvrk_moveit_final/test/execution/third_experiment_notsharpbends/thirdexp_700vel3.0/thirdexp_700vel3.0_17.csv
Current Position (x),Current Position (y),Current Position (z), ,Planned Position (x),Planned Position (y),Planned Position (z), ,Position Error,,Cartesian linear Velocity(x),Cartesian linear Velocity(y),Cartesian linear Velocity(z),Cartesian Angular Velocity(x),Cartesian Angular Velocity(y),Cartesian Angular Velocity(z), ,Total Linear Velocity, ,Total Angular Velocity, ,MSE, ,Joint 1 Position,Joint 2 Position,Joint 3 Position,Joint 4 Position,Joint 5 Position,Joint 6 Position, ,Joint 1 Velocity,Joint 2 Velocity,Joint 3 Velocity,Joint 4 Velocity,Joint 5 Velocity,Joint 6 Velocity, ,Time Stamp
0.009311395047813857,0.020626740763823533,-0.07819717705760468, ,0.009350327619047846,0.02061019453029377,-0.0782047650110643, ,4.297790111925538e-05, ,-2.500953230248475e-05,-1.0071071456056062e-06,-3.243684526571171e-06,-0.003097258864779669,0.016168882705213248,0.006912327454480302, ,2.5239105770602797e-05, ,0.0164628606387347, ,3.581491759937948e-06, ,0.12135502438556395,-0.23504909775989719,0.08805438712000001,3.012196038155192,0.19170100917091293,-0.0968571960637499, ,-0.00032023492444295494,1.2788777621618145e-05,0.0,0.0,0.0,0.01756404991274385, ,0.017407894134521484
0.009309803569479264,0.020629709856220237,-0.07819435486791293, ,0.009369656896935627,0.02061236286350139,-0.07826642695988535, ,9.527709801031703e-05, ,4.1763112536466006e-05,-4.603552848617008e-06,3.7577701751764892e-06,-0.12035878397589936,0.6172807391372153,0.26990641706957424, ,4.218377773804736e-05, ,0.6289051977762181, ,6.284318142253291e-06, ,0.12134730165268973,-0.23503365229414871,0.08805309083000001,3.012196038155192,0.19224755516997472,-0.09093192594757177, ,0.0005322266459984176,5.8460563124269084e-05,0.0,0.0,0.0,0.6848491995618429, ,0.0351109504699707
0.009304582486804039,0.020677429076939702,-0.07819480453497561, ,0.009389050529265244,0.020614477932280967,-0.07832808262807144, ,0.00016988451050737945, ,-0.0002635425919702917,0.002819659183292253,-0.000578728745991989,0.2705848693776792,0.22950047549073566,0.13150372157018114, ,0.0028904773946779472, ,0.3548050729437355, ,9.629359676154746e-06, ,0.12136274711843817,-0.2349950386297776,0.08807383147,3.012196038155192,0.19784965166035778,-0.08373832141888406, ,0.00041020002033922265,0.0022270108638366955,0.0017456063088022798,0.0,0.3161343078737963,0.21142283714528864, ,0.051753997802734375
0.009303716044299935,0.020699961737100248,-0.07820103642382857, ,0.009408508243072357,0.020616539971043003,-0.07838973178714469, ,0.000231401244838202, ,-6.95230904631496e-05,0.002291393690878098,-0.0010837578722808102,0.2067030790460699,0.1526186628570132,0.09063437893358572, ,0.0025357148168581828, ,0.2569408864688277, ,1.2846208439884616e-05, ,0.12137819258418663,-0.23497959316402917,0.08808938695000001,3.012196038155192,0.20030910865613571,-0.08182326415867267, ,0.0009201618584108921,0.0014219053240448517,0.001997844164053681,0.0,0.23697802528126072,0.13774276742868186, ,0.06945300102233887
0.009311864679248473,0.020727536663248593,-0.07826217916182546, ,0.009428029765865324,0.02061854921383915,-0.07845137420907569, ,0.0002473203537549922, ,0.0006563516649041139,0.0003567514206939857,-0.0039009291371202366,0.0728767120842627,-0.5964045573760978,-0.2711885014744566, ,0.003971815355353672, ,0.6008405871962115, ,1.5131944389041269e-05, ,0.12140908351568351,-0.23491781130103537,0.08815679403000001,3.012196038155192,0.20249529265238275,-0.08662806400301622, ,0.0016201212803659748,0.001799415339868329,0.00406243599081867,0.0,0.0,-0.6040508706048977, ,0.08667683601379395
0.009319748331260612,0.0207145868727521,-0.07829353672706925, ,0.009447614825624954,0.02062050589436242,-0.07851300966628243, ,0.00027086794185111055, ,0.001113044383173555,-0.0020833759822289303,-0.004183960341027687,-0.29194853941995674,-0.04519249748776591,-0.046893158741013685, ,0.004804669334879881, ,0.29542564461695875, ,1.7060145969052525e-05, ,0.12143997444718041,-0.23487147490379,0.08818401612000001,3.012196038155192,0.20044574515590113,-0.09059262851726868, ,0.0033024780603784307,0.005269879491171677,0.0031436375606867972,0.0,-0.293375731105667,-0.005644874703954583, ,0.10268998146057129
0.009339495184546803,0.020705037838971402,-0.07838035278440418, ,0.009467263150803974,0.0206224102459475,-0.07857463793163072, ,0.0002467766009232947, ,0.0006709182131524967,0.0010888342460132787,-0.0032352926213689293,0.04934172660939183,0.15952507426285265,0.0776388136557194, ,0.0034789092557747582, ,0.16698160169015674, ,1.8118134041729876e-05, ,0.12151720177592266,-0.23478652484217355,0.08826308981000001,3.012196038155192,0.19784965166035778,-0.0875772222054905, ,0.004673511755222063,0.00578041963306561,0.0035989181021238137,0.0024377901146318366,0.08637340508075084,0.1697893324209544, ,0.11963796615600586
0.00934981525195463,0.02072494304611037,-0.07843837087561913, ,0.009486974470326953,0.020624262501570744,-0.07863625877843321, ,0.00026097671412112194, ,0.0005313878746822845,0.0013117922765898398,-0.002970264295668275,0.11069812788646724,0.0637519424068255,0.038703702152379144, ,0.003290234343690714, ,0.12774343692722792, ,1.9091248355191136e-05, ,0.12157898363891646,-0.23466296111618595,0.08832790431000001,3.012405728098677,0.19962592615730848,-0.08453332424581306, ,0.003945402605690485,0.007021601299183927,0.003456023328270775,0.0026402503495923687,0.12981430180869377,0.0565131699908194, ,0.13565492630004883
0.009355595783375349,0.020736023778580824,-0.0784695814825465, ,0.0095067485135899,0.02062606289385055,-0.07869787198044961, ,0.0002950510048361627, ,0.000628417682370268,0.0007455855803470398,-0.003126156334478915,0.03800759235678359,0.06564772688804692,0.032880124897330595, ,0.003274699996753855, ,0.07585645076081834, ,2.0223188803932997e-05, ,0.12161759730328758,-0.23460117925319215,0.08836160785000001,3.012405728098677,0.20058238165566658,-0.0842514259498607, ,0.003867253217577357,0.006371723679290663,0.0033309936260978675,0.0025898653209627687,0.05723636534471876,0.06784521045444808, ,0.15341401100158691
0.00936739139351161,0.020739130904354582,-0.07851704878526794, ,0.009526585010459927,0.020627811655047755,-0.07875947731188618, ,0.0003106544277193114, ,0.0007246009444355141,0.00021887478732926123,-0.0031213741018533215,0.00961062417616556,-0.020237365968636227,-0.00939366436171931, ,0.0032118419925217206, ,0.022403461297480696, ,2.1286154879226935e-05, ,0.12169482463202982,-0.23448533826007878,0.08841086687000001,3.012405728098677,0.20071901815543203,-0.0839544501528543, ,0.004448953822118793,0.007965566088967278,0.0031598515215235075,0.0025164150557002002,0.013936021532043971,-0.02015850809793834, ,0.17269587516784668
0.009385564979724427,0.020739690443090493,-0.07859141043385588, ,0.009546483691274843,0.02062950901706531,-0.07882107454739529, ,0.00030129783174763925, ,0.0008152406246600601,-5.6632357138610605e-05,-0.003101664743359235,-0.008992205709596591,-0.006610927107329803,-0.004288073929293344, ,0.003207514408411739, ,0.011160829738647056, ,2.207576454847131e-05, ,0.12181066562514319,-0.23426137900672628,0.0884847554,3.012405728098677,0.20085565465519745,-0.0849643341980969, ,0.005407149969786599,0.009694143245125407,0.0030591149452659882,0.0024066157328467247,0.0,-0.0019606887463078215, ,0.18956398963928223
0.009403524342355089,0.020737828421280316,-0.0786549777367395, ,0.009566444286843034,0.020631155211449204,-0.07888266346207533, ,0.0002996045252150378, ,0.000935991977578262,4.041508532535076e-05,-0.00329318515294878,-0.006466469451589407,-0.01082550457950692,-0.00533692997705904, ,0.003423854963752846, ,0.012609788903147215, ,2.27220504479002e-05, ,0.12193422935113078,-0.2340837561506191,0.08854697732000001,3.012405728098677,0.20058238165566658,-0.08465981965056352, ,0.006640686764849781,0.00927108828717716,0.0032842910350515467,0.0023276413844397553,0.0015259005846080202,-0.005467825625580584, ,0.21499896049499512
0.00942190795775474,0.020737314609781912,-0.07871632462450659, ,0.009586466528443091,0.020632750469387947,-0.0789442438314706, ,0.0002999339052965244, ,0.0007590669228879282,-0.0001335194114078903,-0.002482253776450301,-0.006938840630684448,-0.008341195612816411,-0.0022202098055983505, ,0.002599152522909542, ,0.010850025504811777, ,2.3272909545002645e-05, ,0.1220655158099926,-0.23389841056163774,0.08860790295000001,3.0126154180421616,0.20058238165566658,-0.08465981965056352, ,0.005709612179861142,0.00896746880063697,0.002440823095311064,8.486797350627102e-05,0.0014251181100196867,-0.0031468557931559, ,0.23142790794372559
0.009439435135182316,0.020737055268049018,-0.07877365493128385, ,0.009606550147823335,0.02063429502171343,-0.07900581543157048, ,0.00030394998531056954, ,0.0009894510876566887,0.00019238148742457893,-0.003483351768276327,-0.006225340270741295,-0.009018832064560217,-0.0018206539403258816, ,0.003626260282042991, ,0.010958749599402625, ,2.3774465107400835e-05, ,0.12219680226885442,-0.23372851043840479,0.08866493971000002,3.0126154180421616,0.20058238165566658,-0.08465981965056352, ,0.007042912592740378,0.007957492498370645,0.0035116427513227516,8.486797350627102e-05,0.0012652561967719687,-0.002395225983099253, ,0.24876093864440918
0.009462684050399005,0.020741937593253632,-0.07884917766067201, ,0.00962669487720168,0.020635789098900723,-0.07906737803880969, ,0.00029287959843818265, ,0.0011701074987827582,0.0002971290698582682,-0.0038818054655950737,-0.0056129533354441164,-0.008615483235995322,-0.007883817059533824, ,0.004065199984697711, ,0.010282596736923909, ,2.4137195024270404e-05, ,0.12236670239208736,-0.23356633304804608,0.08874142082000001,3.0128251079856456,0.20058238165566658,-0.08465981965056352, ,0.008525387494060425,0.00788005017224219,0.003941799435783223,0.006538968078609466,0.0011121243392588393,-0.0019375253799891992, ,0.2650868892669678
0.009474372842175177,0.020744488819620793,-0.07888892392797806, ,0.00964690044926528,0.020637232931068533,-0.07912893143006766, ,0.0003144410944782251, ,0.0011875157123858579,0.0003034076900584419,-0.0039598382537075335,-0.00568724749739463,-0.009361915249342836,-0.008176081039656695, ,0.004145186218865857, ,0.010954005671848288, ,2.4588239124489665e-05, ,0.12245165245370383,-0.2334813829864296,0.08878160581000001,3.0128251079856456,0.20058238165566658,-0.08457814091042296, ,0.008613770545806558,0.008014906387445371,0.004020396648157497,0.0065170052797305774,0.001046265735909889,-0.002653729488924567, ,0.2816150188446045
0.009497975890862716,0.020752816880105423,-0.07897135474738763, ,0.009667166597170108,0.02063862674797922,-0.07919047538266832, ,0.0002994640782825347, ,0.0012253475124461934,0.0003708170843554075,-0.003922260127834813,-0.005974352462553794,-0.009124592203483179,-0.007151532776684948, ,0.004125906730248599, ,0.01090646914901437, ,2.4899760560755e-05, ,0.12262155257693677,-0.2333269283289451,0.08886586466000002,3.0128251079856456,0.20071901815543203,-0.08468955881411938, ,0.009124709620945875,0.006994862649023016,0.004004226123680242,0.00589254994296326,0.0,-0.0015147713064853157, ,0.29889392852783203
0.009509947956139117,0.02075597796839686,-0.0790082048522418, ,0.009687493054540756,0.0206399707790392,-0.07925200967437997, ,0.0003231419521617917, ,0.0012426104402507407,0.00028096565445485337,-0.003666902466226026,-0.006369054540432398,-0.009692877823284384,-0.0069078157922262805, ,0.003881906245907788, ,0.011598135004092094, ,2.5446965572440068e-05, ,0.12271422537142745,-0.2332574237330771,0.08890345707000001,3.0128251079856456,0.20071901815543203,-0.08468955881411938, ,0.00972946866655204,0.00734399776491921,0.0037382801032621454,0.00563928914659183,0.0,-0.0014086374794543897, ,0.31328392028808594
0.009522557117521036,0.020758519017272693,-0.0790451398029316, ,0.00970787955547013,0.020641265253299006,-0.07931353408341435, ,0.0003465953562430523, ,0.0012468439318042454,0.00021913734789098588,-0.0035896699200279217,-0.007175158543069955,-0.008652241806671119,-0.005969716024555782, ,0.0038063592975796476, ,0.011240293047926337, ,2.6065769078182654e-05, ,0.12281462089879237,-0.23318019640433485,0.08894104948,3.0128251079856456,0.20071901815543203,-0.08460788007397882, ,0.010322185023648836,0.008013842563472772,0.0036846660929909783,0.005397569070044152,0.0,-0.0013082347475791344, ,0.33010292053222656
0.009558794901472222,0.020766471499704446,-0.0791546924720207, ,0.009728325834518978,0.020642510399453612,-0.07937504838842731, ,0.000304407328312735, ,0.0012497648150067053,0.00028263884813336366,-0.004029499134763212,-0.00821591990691016,-0.009189726379130623,-0.0012467940701859468, ,0.00422831646029012, ,0.012326897816471585, ,2.6416600267173064e-05, ,0.12309263928226447,-0.23295623715098235,0.08905253042000001,3.0130347979291305,0.20071901815543203,-0.08468955881411938, ,0.009344638498235344,0.008294176608972643,0.004088503983572896,0.00027824794270542313,0.0,0.00010080070025844911, ,0.34611082077026367
0.00957340732463589,0.020768983987536082,-0.07919948066552007, ,0.009748831626715665,0.02064370644584261,-0.07943655236851788, ,0.0003204233770735441, ,0.0012771256904703788,0.00025995148227716614,-0.004132570982838215,-0.008437269435799574,-0.008624927977157654,-0.004052331211852228, ,0.004333216787860255, ,0.012065525141414964, ,2.6814071299235502e-05, ,0.1232007575425036,-0.23285584162361742,0.08909790057000001,3.013244487872615,0.20071901815543203,-0.08468955881411938, ,0.009451128207455639,0.008856457409714443,0.004185184319495534,0.0031184518367000417,0.0,0.00011847552579601069, ,0.36041688919067383
0.009589807230987039,0.02077280210739746,-0.07925292041132315, ,0.009769396667556086,0.02064485362045042,-0.0794980458032283, ,0.0003297114477780266, ,0.0013495753592598003,0.00019678381373771118,-0.004073679178150958,-0.009143846282965835,-0.009003650638730048,-0.0038600569730399435, ,0.004295921270946552, ,0.012832601004822206, ,2.7221374553082996e-05, ,0.1233243212684912,-0.23273227789762982,0.08915234475000001,3.013244487872615,0.20085565465519745,-0.08471929797767522, ,0.010429374451251942,0.009450747613521954,0.004121296641655886,0.0031184518367000417,0.0,0.0007853105741084524, ,0.37842392921447754
0.009612316106549487,0.02077680867827559,-0.07932040556602826, ,0.009790020693002858,0.02064595215090654,-0.07955952847254313, ,0.00032539532145034055, ,0.0012898517016286496,8.976507517591183e-05,-0.003710230018891288,-0.0053416695917657365,-0.009843119335562747,-0.003970003109465256, ,0.00392906884312272, ,0.011199126375688635, ,2.7577139820660845e-05, ,0.12350194412459836,-0.23257010050727112,0.08922104812000001,3.013244487872615,0.2009922911549629,-0.08466735840109052, ,0.010290294953328658,0.010125547443748514,0.003745311902186692,0.0031184518367000417,0.0042587153395326665,-0.0008914716552921826, ,0.39337587356567383
0.009637191749711834,0.02077746144739414,-0.0793954508226072, ,0.00981070343948541,0.020647002264485712,-0.07962100015688955, ,0.0003130469726549529, ,0.0012524371277641356,6.094559620535914e-05,-0.003923021629039242,-0.008730989658253481,0.0018790747518127632,0.0007252639459582578, ,0.004118544867621162, ,0.008930907087538287, ,2.785310881755023e-05, ,0.12369501244645398,-0.23236158671966706,0.08929623294000001,3.013244487872615,0.2009922911549629,-0.0842589647003877, ,0.00947273045602588,0.010979487996935986,0.003937901488257108,0.0031184518367000417,0.003851819943697546,0.011285653297413621, ,0.40790700912475586
0.009649831036093392,0.020780301202291757,-0.0794345251387431, ,0.009831444643899494,0.020648004188108186,-0.07968246063713713, ,0.0003346012759481509, ,0.001218479931048185,0.00013453237283671867,-0.003714474769012859,-0.007063099880821281,0.011408379926245162,0.005296322847712996, ,0.0039115361574886915, ,0.01341784303682604, ,2.8197056754395306e-05, ,0.1237954079738189,-0.2322534684594279,0.08933641793000001,3.013244487872615,0.2012655641544938,-0.08431844302749944, ,0.009396261132896693,0.009760721661256293,0.003755909342136289,0.0031184518367000417,0.006149621435360409,0.021475968235761703, ,0.4228198528289795
0.009674373226335908,0.02078215594988543,-0.0795072442400215, ,0.009852244043606958,0.020648958148339936,-0.07974390969459698, ,0.00032463859807891797, ,0.0012468256455689941,0.00022505557398806437,-0.003855581103526747,0.02174765444055565,-0.012075489845271138,-0.0035686102978314833, ,0.004058414696369034, ,0.024875247291575763, ,2.847715591364179e-05, ,0.1239884762956745,-0.23202178647320118,0.08941030646,3.0134541778160995,0.2016754736537901,-0.08432598177802644, ,0.009863803997892742,0.01187127598810631,0.003960420566882148,0.003965864611870216,0.032281839621246665,-0.007934986197320516, ,0.43764305114746094
0.009683157403143489,0.02078334670701388,-0.07953395654370803, ,0.009873101376435324,0.02064986437139285,-0.07980534711102198, ,0.00035714015027678606, ,0.001364300274461293,-0.00019911995901365602,-0.003997776373680828,-0.04006879489149767,0.0225800399884418,0.006759079065321012, ,0.004228850899586482, ,0.045993113929319714, ,2.8862063345145646e-05, ,0.12405798089154252,-0.2319445591444589,0.08943752855,3.0134541778160995,0.20181211015355555,-0.08435572094158231, ,0.010307917497431983,0.011390822417293337,0.003914674740722536,0.003965864611870216,-0.02287506870239604,0.03870843424810452, ,0.456589937210083
0.009718120618262334,0.020778009700622428,-0.07962977575597512, ,0.009894016380677554,0.02065072308312483,-0.07986677266860638, ,0.0003214167681163559, ,0.0011870493926400777,-0.00029866214321347287,-0.0032485030768531495,-0.00886975297523698,-0.020972806533099797,-0.013681914306779177, ,0.003471463319218629, ,0.022771278649974892, ,2.9089584371012973e-05, ,0.12433599927501461,-0.2316202043637415,0.08953215772,3.013663867759584,0.2016754736537901,-0.08383590933718307, ,0.00952084212807494,0.012926977463352508,0.0031876749089453675,0.006609848213527612,0.0006216090576566661,-0.014499416692632432, ,0.47231101989746094
0.00973081849484641,0.02077642494045956,-0.07966640132542273, ,0.00991498879509166,0.020651534509040382,-0.07992818614998472, ,0.00034358057821047604, ,0.0013307525495320196,-1.075063025269738e-05,-0.0037147084224879914,-0.007495838161373125,-0.015795707559549933,-0.010609142348565918, ,0.003945893636204608, ,0.017484048911536137, ,2.9381635509839254e-05, ,0.12443639480237953,-0.2314966406377539,0.08956845384,3.013663867759584,0.2016754736537901,-0.08375423059704251, ,0.010576408052213682,0.010929722952325195,0.0037260377824561404,0.006609848213527612,0.0012282476877137072,-0.007655052053852067, ,0.48703694343566895
0.009756680661142172,0.02077911009233471,-0.07974569168614541, ,0.009936018358900517,0.02065229887429038,-0.07998958733823301, ,0.00032821971903952614, ,0.001407178820553608,0.0001908718240717438,-0.004581926074901856,-0.005046840913435185,-0.008432315084680642,-0.00714720244593307, ,0.0047969397371766765, ,0.009827234548608886, ,2.9602344850500063e-05, ,0.12463718585710937,-0.23127268138440138,0.08964882382000001,3.013663867759584,0.20194874665332097,-0.08389538766429477, ,0.010218171808197306,0.011402617166354335,0.004626433784490271,0.006609848213527612,0.005494132990469973,-0.000457347028331204, ,0.5022289752960205
0.009770637847420733,0.020780494911886115,-0.0797921718006428, ,0.009957104811791326,0.02065301640367255,-0.0800509760168675, ,0.0003435117482614309, ,0.0013556050262502881,0.00017745995831785913,-0.004504469047246979,-0.005435084272792995,-0.0076145464612167885,-0.007050805431145337, ,0.004707377021400276, ,0.00935529032194771, ,2.9861038288778355e-05, ,0.12473758138447429,-0.23115684039128803,0.08969549026000001,3.013663867759584,0.20194874665332097,-0.08389538766429477, ,0.009682925406306934,0.011268253215192049,0.004542004995722841,0.006609848213527612,0.005029449684127775,-7.84289503341206e-05, ,0.517082929611206
0.00978963972700017,0.020781310541855818,-0.07985008466869359, ,0.009978247893915566,0.020653687321631604,-0.08011235196984409, ,0.00034733969571638853, ,0.0013050666838441325,8.725056161557835e-07,-0.003766265475869446,-0.008462967247594086,-0.0027140715705629252,-0.00458490562736523, ,0.0039859698249324555, ,0.008887519247022087, ,3.0117032917825207e-05, ,0.12488431330908455,-0.23098694026805508,0.08975382331000001,3.013663867759584,0.2020853831530864,-0.08384344808771008, ,0.01016222408175089,0.011056383730452146,0.0037790774661921713,0.006363504547458291,0.002894066561315922,0.006258402621717072, ,0.5351419448852539
0.009821796233575639,0.020779148204772568,-0.07993839908096048, ,0.009999447345888434,0.02065431185225954,-0.08017371498155917, ,0.0003201837061583623, ,0.0013484409230741022,-8.300112354621457e-05,-0.0036616883372446404,-0.01035095986915351,-0.001116097658715991,-0.0008329246165853699, ,0.0039029659989095844, ,0.010410957858830448, ,3.027250889851488e-05, ,0.12503104523369482,-0.23081704014482216,0.08980826749000001,3.0138735577030684,0.2020853831530864,-0.08368009060742895, ,0.00902302072948699,0.009455191992075932,0.003119626227967098,0.003776155003378841,0.002769824007662823,0.007381958468248965, ,0.5508139133453369
0.009835186153915777,0.020779547245601344,-0.07997822013022347, ,0.01002070290878874,0.020654890219295757,-0.08023506483684746, ,0.000340477670144033, ,0.0012783863575412259,-7.131874946180177e-05,-0.003940899000345338,-0.012652114722042467,0.012511570642406582,0.004867927203807536, ,0.004143675056528347, ,0.017793690059375, ,3.0481816867922258e-05, ,0.12523955902129888,-0.2305853581585954,0.08988215602,3.0140832476465533,0.20222201965285186,-0.08346479355056312, ,0.00960016444451015,0.012374095913218251,0.00392722177514793,0.003477359867782648,0.0033493806704734527,0.023223538293593055, ,0.5656490325927734
0.009859388489930827,0.02078323943569704,-0.08005449239998112, ,0.010042014324158337,0.020655422646127262,-0.0802964013209844, ,0.0003289517488693234, ,0.0012686993836763913,0.00023591441694915906,-0.004529039652994548,-0.0024704091458185753,0.022050897840480803,0.009884175098416935, ,0.004709294418133388, ,0.02218884888887817, ,3.0645336020790594e-05, ,0.12542490461028027,-0.23036912163811712,0.08995993342000001,3.0140832476465533,0.2026319291521482,-0.08330897482080903, ,0.008704213476420313,0.01152361160394302,0.004586470348401959,0.003477359867782648,0.014326776030376033,0.03132039462288262, ,0.5855038166046143
0.009873848783095246,0.020786225374011737,-0.08010563945772896, ,0.010063381334002157,0.02065590935578908,-0.08035772421968329, ,0.00034125002515496104, ,0.0012149371383997172,0.0003780886499645676,-0.003955870956611986,0.012516828225255728,0.0018368615401632318,0.0022249271394599417, ,0.004155470888222074, ,0.012650891200604874, ,3.092629314648836e-05, ,0.12552530013764518,-0.23024555791212953,0.09001178502000001,3.0140832476465533,0.20276856565191362,-0.08325703524422434, ,0.009043961969483748,0.009201928350343034,0.004079081055057619,0.003477359867782648,0.02308676582712127,0.008032428011754966, ,0.5986578464508057
0.009899538073386742,0.020784995499717893,-0.08017964624517504, ,0.010084803680787473,0.020656350570964044,-0.0804190333190963, ,0.00032890581347891986, ,0.0012721181692006735,-2.8737583602137136e-05,-0.003548470834841291,-0.001628065264750987,0.030315574400425347,0.0144963092371497, ,0.003769715606095639, ,0.030359259661121598, ,3.115913734165125e-05, ,0.12572609119237502,-0.23002159865877703,0.09008567355000001,3.0140832476465533,0.20276856565191362,-0.08276696280338097, ,0.009667879745817077,0.010666473431212064,0.003895527395451211,0.003477359867782648,0.01462761228808053,0.008647042578242982, ,0.611785888671875
0.009899538073386742,0.020784995499717893,-0.08017964624517504, ,0.01010628110744396,0.0206567465139837,-0.08048032840581401, ,0.0003867819103830388, ,0.0014560026764666618,9.28465164970688e-05,-0.004183516050334236,-0.0022115179588150947,-0.010014874721537299,-0.003664008674821992, ,0.004430617430213072, ,0.010256145771623088, ,3.154324016748877e-05, ,0.12572609119237502,-0.23002159865877703,0.09008567355000001,3.0140832476465533,0.20276856565191362,-0.08276696280338097, ,0.009667879745817077,0.010666473431212064,0.003895527395451211,0.003477359867782648,0.01462761228808053,0.008647042578242982, ,0.6259689331054688
0.009918399064401728,0.020788917999838685,-0.08023492761927777, ,0.010127813357363062,0.02065709740682775,-0.08054160926686502, ,0.00039406173095732117, ,0.00140963406147203,0.0001438650270906743,-0.004425145655832835,-0.004896986913717984,0.01403126604225811,0.005409160682187145, ,0.004646469563939717, ,0.014861255192106845, ,3.193044183311011e-05, ,0.12587282311698528,-0.22986714400129254,0.09014271031000001,3.0142929375900374,0.20317847515120993,-0.08277450155390796, ,0.010473070497890695,0.011953261312315252,0.004475642461365553,0.00471044507561057,0.010913366386874304,0.024536210122864766, ,0.6398239135742188
0.009958051711781124,0.02079440445805237,-0.080368354886215, ,0.010149400174398082,0.020657403471124786,-0.08060287568971548, ,0.000332240141824435, ,0.001419236512152216,0.0002651163954384228,-0.004616360042794816,0.011766084933099235,-0.01112538080604278,-0.004189697901512158, ,0.004836868721111708, ,0.016193049454499082, ,3.2135780354927097e-05, ,0.12615084150045736,-0.22952734375482664,0.09027752447000001,3.0145026275335223,0.20345174815074082,-0.08258894366059796, ,0.010437326667772119,0.012301911013543011,0.004711272262644188,0.004319762658974868,0.023010762689958327,-0.005012031819494469, ,0.653357982635498
0.009973443121308474,0.020795563052467724,-0.08042007666166574, ,0.010171041302863334,0.020657664928152367,-0.08066412746226914, ,0.0003429602416004529, ,0.0014839611713844169,0.0001923275130687862,-0.004798877993889937,0.00933298610394031,-0.029455089393583503,-0.012725680417064948, ,0.005026764429600908, ,0.030898331965581498, ,3.2360581398804156e-05, ,0.1262589597606965,-0.22939605729596482,0.09032937607000001,3.0145026275335223,0.20345174815074082,-0.08234390744017628, ,0.010861682799240603,0.013109123022305675,0.0048682186797066014,0.004319762658974868,0.017905156293205583,-0.024204081018265995, ,0.6671168804168701
0.009981615481204026,0.020795529552013678,-0.08044468756988554, ,0.010192736487534266,0.020657881998837245,-0.08072536437286697, ,0.0003772245961509215, ,0.0015673823181606749,0.00011243538572002464,-0.004524437209315903,0.0062657941382053385,-0.024122641366694855,-0.009907630602656814, ,0.004789557506522603, ,0.024923121810732578, ,3.26640171551131e-05, ,0.1263207416236903,-0.2293265527000968,0.09035400558000001,3.0145026275335223,0.20345174815074082,-0.08226222870003572, ,0.012278088120877564,0.013138161644534234,0.004591758869991353,0.004319762658974868,0.01619184331122131,-0.01647028188644665, ,0.6809380054473877
0.010020248858091857,0.020798156733359503,-0.08055849566943167, ,0.010214485473646884,0.02065805490375551,-0.08078658621028657, ,0.00033072901340544644, ,0.0016047600516990953,-7.343645048712532e-05,-0.004555482658797292,-0.01674869410743582,0.007599187454938062,0.002541142810660417, ,0.004830431656735481, ,0.01839202007170135, ,3.283843141683306e-05, ,0.12662192820578505,-0.22899447518650518,0.09046937539000001,3.0145026275335223,0.20386165765003716,-0.08235144619070331, ,0.012299304121878008,0.013847503510648005,0.004756288898178561,0.004319762658974868,0.009192962918455089,-0.016143252817135547, ,0.693842887878418
0.010035914923627829,0.020798911352622632,-0.08060330186432237, ,0.010236288006897624,0.0206581838631328,-0.08084779276374222, ,0.00034601936173614053, ,0.0015352567050157108,3.076616182664995e-05,-0.00462387823462424,-0.003872714895372384,-0.007478313774345683,-0.0035472229568254098, ,0.0048721873563771145, ,0.008421585091582404, ,3.304363316659039e-05, ,0.12674549193177265,-0.22886318872764336,0.09051474554000001,3.0145026275335223,0.20399829414980258,-0.08246286409439973, ,0.011590576493291621,0.013605296280784343,0.004653465241016653,0.004319762658974868,0.009660637923864204,0.0021550165556269846, ,0.7073938846588135
0.010053533327370459,0.020797247549500332,-0.08065411208251205, ,0.010258143833442942,0.020658269096844727,-0.08090898382288438, ,0.00035516203842499947, ,0.0015554833221806165,-7.141247956155591e-05,-0.004207768305670177,-0.0035661367061282727,-0.009482050102142654,-0.004982691506931819, ,0.004486640415948402, ,0.01013047895349946, ,3.326298817405966e-05, ,0.12687677839063446,-0.22870101133728463,0.09056530085,3.0147123174770067,0.20399829414980258,-0.08246286409439973, ,0.012450399049917446,0.013668002528945813,0.004230760031872511,0.005183024288602012,0.009660637923864204,0.0006694807208808135, ,0.722463846206665
0.010085748546691448,0.02079289699568527,-0.08073479254613686, ,0.010280052699898923,0.020658310824416902,-0.08097015917779975, ,0.0003335640759294779, ,0.0017041846980789602,-0.00010321850913409098,-0.004364134287316326,-0.0027310416858891415,-0.017786018911074043,-0.010102453379185557, ,0.004686210369106824, ,0.017994472923987318, ,3.342284639808098e-05, ,0.1271393513083581,-0.22842299295381255,0.09064567083000001,3.014922007420491,0.20399829414980258,-0.08229950661411861, ,0.013982163188223188,0.014483660189021792,0.004364057950684932,0.007063733404817558,0.009660637923864204,-0.007338140754242409, ,0.7353219985961914
0.01010216382159609,0.020791561081745,-0.08077891711202322, ,0.010302014353341113,0.02065830926502502,-0.08103131861901026, ,0.00034842904934473666, ,0.0015925138004794634,-9.471131192041629e-05,-0.004180910951262114,-0.002823933825842697,-0.014562902867810368,-0.009109219312710325, ,0.004474939867719643, ,0.014834174763448643, ,3.361132611473235e-05, ,0.12727063776721992,-0.2282839837620765,0.09068974469,3.014922007420491,0.20399829414980258,-0.08221782787397805, ,0.012855180379093847,0.01380720814178245,0.004203961868566905,0.007063733404817558,0.009312733145764968,-0.0049449573536603135, ,0.7497138977050781
0.010114009457736503,0.02079125196579564,-0.08080828417068679, ,0.010324028541304028,0.02065826463749554,-0.08109246193747356, ,0.0003775588008335353, ,0.001662130887387048,-0.0001401622035373919,-0.0041057267936244505,-0.0060685025364480925,-0.01023678395174089,-0.0070117395569361494, ,0.004431626906001025, ,0.011900355773791843, ,3.3859427009517e-05, ,0.12737103329458485,-0.22818358823471158,0.09071955936000001,3.014922007420491,0.20413493064956803,-0.08224756703753391, ,0.013781141672737552,0.013926759841278365,0.00412556630924631,0.007063733404817558,0.007219928716453137,0.001175081366703963, ,0.7655580043792725
0.010143593337134807,0.020790113640120695,-0.08088686159869911, ,0.01034609501178107,0.020658177160305394,-0.08115358892458213, ,0.0003599411470133735, ,0.0015256392975019667,-7.104701102123435e-05,-0.004161876105465669,-0.00926823178524183,-0.003588819254788319,-0.00507453005033538, ,0.00443326467302635, ,0.00993879986818539, ,3.405912595780677e-05, ,0.1276104380136858,-0.2279364607827364,0.09079863305000001,3.014922007420491,0.20427156714933348,-0.08211394872080865, ,0.01196065215882598,0.012858664167814468,0.004175311014416776,0.007063733404817558,0.003916038073945587,0.0069898955759314695, ,0.7784619331359863
0.010174241399416693,0.02078835359972669,-0.08096545443164721, ,0.010368213513223893,0.020658047051582466,-0.08121469937216363, ,0.0003416548225872606, ,0.0015641529611907256,1.6728964778757027e-05,-0.004254404152443936,-0.010388764296822417,0.0008399056291407898,-0.0007632674524414427, ,0.004532858814986022, ,0.010422661065534857, ,3.4211508810064057e-05, ,0.127857565465661,-0.227681610597887,0.09087770674000001,3.0151316973639757,0.2044082036490989,-0.0818986516639428, ,0.012294961304297154,0.011998601790172054,0.004290011182332346,0.005027813544439987,0.003214590173136054,0.012887640473723438, ,0.7928030490875244
0.010192096137127201,0.02078802648550879,-0.0810115822099557, ,0.01039038379454251,0.020657874529105794,-0.08127579307247952, ,0.0003550562021910863, ,0.0017506570506142004,-6.53244015181118e-05,-0.004400830701340736,-0.014414607302361132,0.008508277945777961,0.0032599832221364543, ,0.00473670542129887, ,0.01673833013275742, ,3.4387621649264435e-05, ,0.12800429739027125,-0.22753487867327674,0.09092437318,3.0151316973639757,0.20454484014886434,-0.08192839082749867, ,0.014304633940076994,0.013296474927626561,0.004432056627712855,0.005027813544439987,0.0023680768783810066,0.023751533059526136, ,0.8110740184783936
0.01022689739609808,0.020788546545822142,-0.08110633565766696, ,0.010412605605104578,0.020657659810305765,-0.08133686981822627, ,0.00032367402677897886, ,0.001500408689447808,-1.89702624244191e-05,-0.004253691191280025,-0.0015393776917984906,-0.0005662275364613468,-0.00028213084349665106, ,0.004510595842790642, ,0.0016402121534859558, ,3.4490968571785415e-05, ,0.12828231577374333,-0.2272491375569304,0.09102029864000001,3.0151316973639757,0.20481811314839524,-0.08182451167432928, ,0.011625430869556263,0.013378956937610431,0.004290011182332346,0.00447933603409692,0.013078391728696999,0.009375964388328216, ,0.8242378234863281
0.010241550575934956,0.020787833737447328,-0.08114779943659281, ,0.010434878694735217,0.020657403112264286,-0.08139792940253361, ,0.00034198378523847187, ,0.0013978510149366434,-2.0868367658032766e-05,-0.0038133835124447334,-0.0009218576300249895,-0.009017897223054683,-0.0017382947857783786, ,0.00406156580172148, ,0.009064893325859335, ,3.470175893915643e-05, ,0.12839043403398248,-0.22712557383094284,0.09106177992,3.01534138730746,0.20481811314839524,-0.08174283293418871, ,0.011083317237473593,0.011957779934283113,0.0038503291080493117,0.002086939175664347,0.010942666395117156,0.00028094649760830245, ,0.8362689018249512
0.010254820282031308,0.020786576354701294,-0.0811814881928033, ,0.010457202813716874,0.020657104651715035,-0.08145897161896556, ,0.0003670404103097799, ,0.0014855880755436249,-5.6235199578176217e-05,-0.0036735947102184514,-0.003581764180717274,-0.0037156678235165156,0.0010183750969549464, ,0.00396300800186096, ,0.005160932217336215, ,3.495822195100702e-05, ,0.1284985522942216,-0.22701745557070369,0.09109548346000002,3.01534138730746,0.20481811314839524,-0.08157947545390759, ,0.012335492208302453,0.011862138240304137,0.003715608005598321,0.002086939175664347,0.009472388803821466,0.007759197562770942, ,0.8494808673858643
0.010273183345328398,0.020788325656057663,-0.08123104668440584, ,0.010479577712788568,0.02065676464504374,-0.08151999626151837, ,0.00037868033042633956, ,0.0015190394840596945,0.0001441606704306877,-0.004651557184566545,-0.013424344423498345,0.011683940353103595,0.00656657177334948, ,0.004895431287876893, ,0.017796839135024087, ,3.523107893017054e-05, ,0.12863756148595765,-0.22688616911184187,0.09114474248000001,3.01534138730746,0.20495474964816068,-0.08144585713718233, ,0.010918642118102118,0.011341386262670486,0.004690462756183746,0.002086939175664347,0.0019067738368373566,0.024506359958508604, ,0.8609230518341064
0.01028960128212429,0.0207921056506776,-0.08128144071259037, ,0.010502003143146211,0.020656383308288225,-0.08158100312462235, ,0.00039150063025703144, ,0.0016376548924665075,0.00023329690822241353,-0.0049682833979226215,-0.0029702820200832748,-0.000544780729282178,0.0024446222646429022, ,0.005236428259441656, ,0.0030198275273088204, ,3.5522008805162176e-05, ,0.12876884794481946,-0.22676260538585427,0.09119789037,3.01534138730746,0.20522802264769155,-0.08158701420443462, ,0.012138263182203988,0.012117463791053787,0.005053556954314722,0.002086939175664347,0.010912072422319757,0.010866185506573575, ,0.872189998626709
0.010305072447226851,0.020795383406191154,-0.08133501153267457, ,0.010524478856441656,0.020655960857138986,-0.08164199200314015, ,0.0004022621394513885, ,0.0015801488505818276,0.00038153116279770246,-0.00575725137659085,-0.005598257326435494,0.0023426772628758136,-0.0020513885903227004, ,0.005982338993356869, ,0.006068658461782081, ,3.582618321667753e-05, ,0.1288692434721844,-0.22663904165986667,0.09125233455000001,3.015551077250945,0.205364659147457,-0.0815350746278499, ,0.010052597283204937,0.012136710776118529,0.005836867541223892,0.006335931562118828,0.007752290819592493,0.01112855000360104, ,0.8870759010314941
0.010317915156772453,0.02079797645685231,-0.08137989034250731, ,0.010547004604782716,0.020655497506938757,-0.08170296269236679, ,0.00042090137752428777, ,0.0017254664080011955,0.0004422700139508043,-0.006271029810801575,-0.008147209593655329,0.010811258441609649,0.0022042997989290022, ,0.006519099015841271, ,0.013537367674550103, ,3.615844512098914e-05, ,0.12895419353380086,-0.226546368865376,0.09129770470000001,3.015551077250945,0.205364659147457,-0.08145339588770933, ,0.010996169357876106,0.012825644216579375,0.006363887942469038,0.0061568638170391935,0.007752290819592493,0.02162432893019403, ,0.8999538421630859
0.010356815414641823,0.020805365945124898,-0.08151029073775358, ,0.010569580140732834,0.020654993472683562,-0.08176391498802946, ,0.00036360138815013336, ,0.0015799944301210112,-9.131299577917729e-05,-0.004297592884507098,-0.005848844065484766,-0.002359646410832559,0.0013285681330765817, ,0.0045797407201038825, ,0.006306893579293774, ,3.637133967263309e-05, ,0.1292167664515245,-0.2262683504819039,0.09142862999000001,3.015760767194429,0.20550129564722242,-0.08107474135056239, ,0.012409695509150095,0.01356833593915796,0.004321435572436246,0.0021424036325732136,0.009449114396752192,0.009341520321001119, ,0.9113810062408447
0.010373862127833079,0.020804310562670954,-0.08155397568915727, ,0.010592205217310741,0.0206544489690222,-0.08182484868628731, ,0.00037881972301848706, ,0.0016965794777778782,-8.043640675491461e-05,-0.004691726329602555,-0.000453611401101233,-0.02723411868840057,-0.009255892636378622, ,0.004989704188810651, ,0.027237896059787062, ,3.660750002493357e-05, ,0.12935577564326053,-0.22611389582441943,0.09147400014000001,3.015760767194429,0.20563793214698786,-0.08102280177397769, ,0.01320764670264033,0.014977421331829352,0.004719647857777778,0.0021424036325732136,0.011256059086412425,-0.0176347506219542, ,0.9229168891906738
0.010406082731906878,0.020804593154617926,-0.08164635393435903, ,0.010614879587990043,0.020653864210256855,-0.08188576358373101, ,0.00035161388196547724, ,0.0016058135830698153,-7.863757059804201e-05,-0.004707086957649955,-0.0068786779975816975,-0.005986050916889393,-0.0006519057788941631, ,0.004974081699968286, ,0.00911860813190333, ,3.678641443729932e-05, ,0.12960290309523573,-0.22583587744094732,0.09156733302,3.015760767194429,0.20591120514651876,-0.08116395884122998, ,0.012021401261524041,0.014640071206181852,0.004719647857777778,0.0021424036325732136,0.00841869677786122,0.0050249025675088155, ,0.937082052230835
0.010422818408815024,0.02080226715241914,-0.08169601861731575, ,0.010637603006699014,0.020653239410343124,-0.08194665947738197, ,0.0003621636814082802, ,0.001570346867381554,-0.00021627900251985693,-0.004598272586986665,-0.00929598301465465,0.00024149710694274613,0.0018089979837063023, ,0.004863833536939672, ,0.00929911925967422, ,3.6980226993497805e-05, ,0.12972646682122332,-0.22567370005058862,0.09161659204000001,3.015760767194429,0.20591120514651876,-0.08100060136094885, ,0.011750488058255421,0.015906292584390008,0.0045772446896551735,0.0021424036325732136,0.00841869677786122,0.0116377521497925, ,0.9483258724212646
0.01043945826816381,0.02079910312928035,-0.08174186235228459, ,0.010660375227820195,0.020652574782890613,-0.08200753616469356, ,0.00037530978399110093, ,0.0017544920087519344,-0.0002169694033615152,-0.004821948226549074,-0.008161276473957361,-0.007412671896264862,-0.0048001701720282825, ,0.005135805937755944, ,0.011025159215141283, ,3.7193112176380104e-05, ,0.1298500305472109,-0.22551152266022992,0.09166196219000002,3.0159704571379136,0.20591120514651876,-0.08083724388066772, ,0.013518082843087005,0.016552754501739188,0.004815239274486094,0.005830844279513361,0.00841869677786122,0.004188802472215599, ,0.95989990234375
0.010458028165367221,0.020797082766561403,-0.08179255427105175, ,0.010683196006190216,0.02065187054116253,-0.08206839344354877, ,0.0003845444005963695, ,0.001826950624367241,-9.428719798432747e-05,-0.005253528360022183,-0.008896505240862721,-0.0006511977053460882,-0.005768048983196822, ,0.005562930782342788, ,0.008920306045778117, ,3.741728657233987e-05, ,0.12998903973894696,-0.2253493452698712,0.09171251750000001,3.0161801470813985,0.20591120514651876,-0.0806738864003866, ,0.013605296280784343,0.016252259215357216,0.0052692065894806486,0.009575830570213079,0.008082388677404318,0.010909598984211104, ,0.9757919311523438
0.010497154752570353,0.02079899533605034,-0.0819046847575659, ,0.010706065097099322,0.02065112689807639,-0.08212923111226193, ,0.0003404844672042229, ,0.0018818481252546374,3.509424537510419e-05,-0.005492616232479658,-0.0021095618778201077,0.0010368398438255128,-0.00413497798182519, ,0.0058061533780879295, ,0.0023505920911431485, ,3.755732839265688e-05, ,0.1302902263210417,-0.2250095450234053,0.09182659102000001,3.0161801470813985,0.20645775114558051,-0.08087452179475059, ,0.013943129820521713,0.016095139341667362,0.005550108543554008,0.009575830570213079,0.015080203091332072,0.012215747984105522, ,0.9887359142303467
0.010515387549135249,0.020799597455251527,-0.08195402916572911, ,0.010728982256291065,0.020650344066204217,-0.08219004896957666, ,0.00035157448837383167, ,0.0017234369395366165,-0.00011410614585942815,-0.0041406897593888195,0.03298708096144365,-0.040129811361645756,-0.01927022029910362, ,0.004486487131441444, ,0.0519475626864332, ,3.7713443163123836e-05, ,0.13043695824565196,-0.2248396449001724,0.09187714633,3.0161801470813985,0.20686766064487683,-0.08096373928541815, ,0.01453023144364887,0.017135597970110286,0.004240897635782748,0.009575830570213079,0.04319017888444681,-0.03663680854219316, ,1.0004339218139648
0.010532969826556686,0.020792718219554397,-0.081989895457346, ,0.010751947239962182,0.020649522257772345,-0.08225084681466668, ,0.0003695291625027108, ,0.0016353412962664664,-0.0004724137593972019,-0.003166236723762162,0.007293532908477088,0.009631928037911096,0.001597694756538274, ,0.0035947977559582446, ,0.012081790417662603, ,3.7896982398534e-05, ,0.13059141290313647,-0.2246620220440652,0.09191214616000001,3.0161801470813985,0.20686766064487683,-0.08071870306499646, ,0.014788365522591676,0.017009668678700626,0.003178769012173219,0.009166576056328698,0.027252630409477153,0.021152582352473182, ,1.0118248462677002
0.010551429144761919,0.02078599156664145,-0.08203234163528501, ,0.010774959804762034,0.020648661684662114,-0.08231162444713519, ,0.0003831766452166494, ,0.0017197235982312877,-0.00039995138741330104,-0.004082413758852875,-0.0029051288654723126,0.012710779476445689,0.0024075875366428106, ,0.004447866057457064, ,0.013038546218421224, ,3.809955588380361e-05, ,0.13074586756062095,-0.2244689537222096,0.09195362744,3.0161801470813985,0.20686766064487683,-0.08031030936429365, ,0.014235964830253642,0.01763883672090535,0.0040738648388746815,0.008504278410563856,0.018317074503089604,0.0253299004222412, ,1.0239589214324951
0.010574636419349316,0.020782467580425977,-0.08208817948614064, ,0.010798019707792414,0.020647762558409874,-0.08237238166701463, ,0.0003857673082643803, ,0.0018015871877086944,-5.953066561798252e-05,-0.004669367895508878,-0.004544235452027555,0.006226469387362971,0.004073638876046847, ,0.005005222955940529, ,0.007708371725309554, ,3.830171278885922e-05, ,0.13093121314960235,-0.22427588540035398,0.09200936791000001,3.016389837024883,0.20686766064487683,-0.08014695188401252, ,0.014274509861382487,0.014512454742081479,0.004700150935379168,0.004148387294512633,0.013419067608202146,0.020521216275087108, ,1.0352129936218262
0.010594496957108018,0.02078162525855604,-0.08214217879239964, ,0.010821126706607228,0.020646825090207092,-0.08243311827476624, ,0.00039265495176391365, ,0.0020372044106588202,-0.00014342366091473933,-0.0060040751054199655,-0.016840760092828897,-0.015460853888483237,-0.007030028875191326, ,0.006341899559977413, ,0.022861522164169274, ,3.851067749060737e-05, ,0.13108566780708683,-0.22410598527712106,0.09206381209,3.016389837024883,0.2070042971446423,-0.08009501230742785, ,0.014925596344521987,0.017976310202400224,0.00597031916041979,0.004148387294512633,0.0,-0.0016122225981188352, ,1.0463919639587402
0.010616237237925288,0.020783530919407874,-0.08220846967668852, ,0.010844280559212171,0.020645849490900835,-0.08249383407128003, ,0.00039037516550091895, ,0.0019810468394717015,6.453657598178963e-05,-0.005842767705494212,-0.01037510348448946,-0.01341152159275261,-0.007080123401754845, ,0.0061698173400990056, ,0.01695616928842071, ,3.877531387027062e-05, ,0.1312401224645713,-0.22392063968813966,0.09213121917000001,3.0165995269683674,0.20727757014417317,-0.08015449063453955, ,0.014400142876854443,0.01542788840163726,0.005890832662721894,0.0055679546916757895,0.004146011368916856,-0.0008343370068688042, ,1.0564730167388916
0.010633748307550855,0.020783449928911738,-0.08226280897836018, ,0.010867481024064322,0.020644835970993754,-0.08255452885787389, ,0.00039867944542193977, ,0.0019121086988448553,-2.5327483486906662e-05,-0.005814140165650792,-0.012121046825902083,-0.010043411566645068,-0.006105871995471968, ,0.006120541399537443, ,0.01574134318947286, ,3.904838551862641e-05, ,0.1313636861905589,-0.2237739077635294,0.09218566335,3.0165995269683674,0.20727757014417317,-0.08015449063453955, ,0.013597498432221059,0.016296915946843685,0.005832593013548151,0.0055679546916757895,0.0037618385509015817,0.0020655032678558384, ,1.0682079792022705
0.010646097750343371,0.020783526726831227,-0.08229756565197206, ,0.010890727860072003,0.020643784740644357,-0.08261520243629421, ,0.0004245760709741032, ,0.001977759472516444,-1.3241714798879582e-05,-0.005471333353113099,-0.011412310495562591,-0.011176762801145369,-0.005923275460178468, ,0.005817834350944272, ,0.015973755120733193, ,3.9358297176382676e-05, ,0.1314563589850496,-0.2236812349690387,0.09222066318000001,3.0165995269683674,0.20727757014417317,-0.08015449063453955, ,0.014906839704440901,0.015256743015831315,0.005513607310488058,0.0055679546916757895,0.0034741806897613907,0.0023000689653455714, ,1.0787339210510254
0.010678606933080297,0.020782435936963564,-0.08238499697735008, ,0.010914020826594276,0.02064269600966743,-0.08267585460871484, ,0.0003994309831037863, ,0.0022095184700312094,-9.56508942934523e-05,-0.0057526631160027845,-0.016554601355390438,-0.008704701160506248,-0.008095096366864023, ,0.006163136692399988, ,0.018703653173365715, ,3.962165395064959e-05, ,0.13169576370415056,-0.22343410751706352,0.09230492203000001,3.016809216911852,0.20741420664393861,-0.08010255105795486, ,0.016973160715162007,0.01666905701009499,0.005802845726775957,0.009060832369072255,0.0,0.0071363273450984165, ,1.0882568359375
0.01069929775765205,0.020783709049100953,-0.08243967836952565, ,0.010937359683440749,0.020641569987533935,-0.0827364851777372, ,0.0004061665603346788, ,0.0021440437317024924,0.00013620581811130128,-0.0057616643785653905,0.0006474082009954342,-0.017707757536587907,-0.010043283386335516, ,0.006149166769536294, ,0.01771958825717455, ,3.9890722060283424e-05, ,0.13186566382738352,-0.2232719301267048,0.09236455137,3.016809216911852,0.20755084314370403,-0.08021396896165126, ,0.01645516586760374,0.015417862154097607,0.0058691273102431845,0.008408535597626268,0.01419573311643181,-0.005367709368270781, ,1.098175048828125
0.010719557329914519,0.020784610242446645,-0.08249585226284412, ,0.010960744190871249,0.02064040688337142,-0.08279709394638979, ,0.00041196148190355116, ,0.002157162065596111,2.908233788975756e-05,-0.006160023130774069,-0.005594307806858501,-0.01445207910061959,-0.008920429049748982, ,0.00652687359547399, ,0.015497059763022361, ,4.0163850461457234e-05, ,0.132020118484868,-0.2231174754692203,0.09242158813000001,3.016809216911852,0.20768747964346948,-0.08016202938506656, ,0.015919634550993253,0.01724771747700305,0.0062221920000000005,0.007878238631440136,0.010400822715962247,-0.001706698730068961, ,1.1104209423065186
0.010740782959254083,0.020783590980352033,-0.08255800657313506, ,0.010984174109595402,0.020639206905964158,-0.08285768071812785, ,0.0004121778817191391, ,0.002045395250345857,1.0756623907377371e-05,-0.00581618245582028,-0.007216677860078253,-0.007708108769665918,-0.0058003321460931975, ,0.006165365828114898, ,0.010559136966887959, ,4.043218083598764e-05, ,0.13217457314235248,-0.22293985261311314,0.09248381005,3.016809216911852,0.20768747964346948,-0.07991699316464491, ,0.015103762781867067,0.016386969704450145,0.005871290645042389,0.0073791515175430505,0.009168578349468501,0.00516067714937242, ,1.1204679012298584
0.010763406784224466,0.020782526537258456,-0.08262267869364141, ,0.011007649200772492,0.020637970263753455,-0.08291824529683325, ,0.0004097688265024986, ,0.0020360883049338908,-0.00019682717646789987,-0.005935138444312092,-0.012044260980684942,-0.00873184475258545,0.0007567180796428825, ,0.006277759542706, ,0.014876468935517502, ,4.069177049668107e-05, ,0.1323367505327112,-0.22275450702413177,0.09254862455000001,3.0170189068553364,0.20768747964346948,-0.07983531442450434, ,0.014920902760765844,0.018858692678551427,0.005932518256983241,0.00027205848804459735,0.007779421627818896,0.005753617944045434, ,1.1300358772277832
0.010785094180067331,0.02078346505025757,-0.08268244484021603, ,0.011031169226010898,0.020636697164837722,-0.08297878748681406, ,0.0004122046877698833, ,0.002290120049950763,0.00020559603497224228,-0.006502914461559504,-0.00022078922791178882,-0.013283460125519625,-0.011770995759661272, ,0.006897449968440694, ,0.013285294470221188, ,4.09503152117423e-05, ,0.13249892792306991,-0.2225768841680246,0.09260955018000001,3.0172285967988213,0.20796075264300035,-0.07997647149175657, ,0.016849598998308023,0.01654698196311609,0.006620453665835412,0.011942394605271672,0.014771656520533118,-0.0009510418012732566, ,1.1401820182800293
0.010808089362781196,0.020786170100421685,-0.08274697873043373, ,0.011054733947368053,0.02063538781697286,-0.08303930709280444, ,0.00041112616014358307, ,0.0023963507137962393,0.00010621178092134684,-0.006420331781115891,-0.0018860381049381663,-0.00932379157243638,-0.011083340658885152, ,0.006853790036580125, ,0.009512634656626613, ,4.1202486353317194e-05, ,0.13266882804630284,-0.22240698404479164,0.09267566097,3.0174382867423053,0.20823402564253127,-0.0800359498188683, ,0.01818297404837532,0.017482855850860495,0.006530878031980321,0.01337117112811903,0.014815137521893174,0.0045712359852447945, ,1.1552350521087646
0.010823329176122137,0.020786293191819714,-0.08278805758528932, ,0.011078343127349979,0.020634042427572382,-0.08309980391996397, ,0.00043057889836569074, ,0.0024189496364887993,0.00014831289100022352,-0.006612852575102435,-0.002282090874334802,-0.007240075866271352,-0.010193440386205704, ,0.007042949186068649, ,0.007591220235400126, ,4.1479471217736814e-05, ,0.13278466903941621,-0.22229886578455252,0.09271714225000001,3.0174382867423053,0.20823402564253127,-0.07995427107872777, ,0.018127400488724122,0.01748607730946578,0.0067295359188846654,0.01337117112811903,0.014815137521893174,0.00682252058376771, ,1.166252851486206
0.01086312998828192,0.020780519897726463,-0.08288237855654779, ,0.011101996528910932,0.02063266120370756,-0.08316027777387783, ,0.0003951548969982476, ,0.001843584516200587,-0.000601678901870251,-0.003271166163338158,-0.0008910299420289817,-0.008980336848034171,-0.010432768839886869, ,0.0038028080989577725, ,0.00902443260749393, ,4.169845036398206e-05, ,0.13310902382013365,-0.22196678827096086,0.09281177142000001,3.0174382867423053,0.2083706621422967,-0.07982065276200251, ,0.016596177257515003,0.01735496370857183,0.003262095334835143,0.012339536137320407,0.015612338467057674,0.003342656486655953, ,1.1758270263671875
0.010883068751004168,0.020773010439598033,-0.08291935673348143, ,0.011125693915453089,0.020631244352107874,-0.08322072846055611, ,0.00041205522914545455, ,0.0020906900389161,-0.0006409466892873445,-0.004326629212769952,-0.0061232868436329885,-0.009490238646361794,-0.00955671373365956, ,0.004847836408350198, ,0.011294213997358828, ,4.193860544849476e-05, ,0.13328664667624082,-0.22178144268197947,0.09284806754000001,3.0174382867423053,0.2083706621422967,-0.0795756165415808, ,0.017831067560779925,0.02033796432886215,0.004296954820609658,0.01124802416202145,0.013670627086099136,0.004675405810691753, ,1.1856968402862549
0.010904893447377596,0.02076797491329955,-0.08297027628471577, ,0.011149435050826462,0.020629792079160915,-0.0832811557864338, ,0.0004189763192071568, ,0.002276669246913255,-0.00017521925473851273,-0.0054892659766222675,-0.007092688018955792,-0.0054274320868910545,-0.006586314816012014, ,0.005945247312700667, ,0.00893102667156078, ,4.2184700575724455e-05, ,0.13346426953234797,-0.22158837436012385,0.09289862285000001,3.0174382867423053,0.2083706621422967,-0.07949393780144023, ,0.018151672065507034,0.01779095267312913,0.00554817538140021,0.010332009003542275,0.011194013100719699,0.010094000958991415, ,1.196678876876831
0.010916662331944918,0.0207681755878464,-0.08300076151411373, ,0.01117321969932825,0.020628304590912833,-0.0833415595583702, ,0.00044891968715004595, ,0.0022864719410151664,-0.00016134448228797898,-0.005560555327811344,-0.016337414038031607,0.0008782601276179174,-0.0042322224759799194, ,0.006014462696921942, ,0.01636100342233825, ,4.247014005633043e-05, ,0.13355694232683868,-0.22149570156563317,0.09292973381000001,3.0174382867423053,0.20850729864206213,-0.0795236769649961, ,0.018034386461130897,0.016900612922256593,0.0056067622386483645,0.009901396358450824,0.002373916748166816,0.018245632645002615, ,1.206737995147705
0.01095752883989864,0.02076866689951853,-0.08311011637615942, ,0.011197047625702714,0.02062678209306854,-0.08340193958364926, ,0.0004033129448506067, ,0.0022416336295999918,0.0001768982342259611,-0.006489356953170489,0.017532516312231874,-0.02439641789380083,-0.011722595887932041, ,0.006867893998911753, ,0.030042874742264893, ,4.2684724022389134e-05, ,0.13387357437468186,-0.2211559013191673,0.09304121475,3.0174382867423053,0.20905384464112386,-0.07980599109950065, ,0.016403965697229177,0.018455258957306646,0.006628718901373285,0.00867834525880953,0.032657623986610075,-0.015353665290876499, ,1.2164978981018066
0.010981835753570842,0.020767019274351328,-0.08317600250065846, ,0.011220918595140801,0.020625224790991728,-0.08346229566997806, ,0.00039903641368106636, ,0.002349062811478818,4.026486307906994e-05,-0.006418126706224924,0.011423223254023281,-0.02290633283349264,-0.0024171432066951966, ,0.00683462272321078, ,0.025596681474356425, ,4.288949203033574e-05, ,0.13405119723078904,-0.22096283299731168,0.09310732554000001,3.0176479766857898,0.20905384464112386,-0.07964263361921953, ,0.01789495409362074,0.019486024960671616,0.006536237800574478,0.0007186495347353788,0.02953909342031965,-0.009684544088830141, ,1.2260959148406982
0.011006081187919712,0.020765677407312968,-0.08324316034850221, ,0.011244832373279827,0.020623632889705416,-0.08352262762548768, ,0.00039405676291480414, ,0.0023033215854592667,4.854965995113253e-05,-0.006618208519573704,0.001406491683929631,-0.0013590904613705345,-0.0021551305526035375, ,0.007007733685299543, ,0.0019558458635892217, ,4.314498179244545e-05, ,0.134221097354022,-0.22076976467545606,0.09317473262,3.018067356572759,0.20905384464112386,-0.07923423991851672, ,0.016739626311249037,0.019082433452336775,0.006712520657395703,0.00816033590909084,0.021820405096820237,0.012165324286616439, ,1.2345948219299316
0.011028826526174795,0.020765133403156402,-0.08330603086959845, ,0.011268788726203268,0.020622006593891837,-0.08358293525873291, ,0.00039337409891181943, ,0.0025130198782726647,-0.0002034299847509381,-0.006705827007781717,-0.02613435681625941,0.0210884681952015,0.006326496149652269, ,0.007164130688756594, ,0.033581662904917715, ,4.33958987274025e-05, ,0.13439099747725491,-0.22058441908647466,0.09323825083000001,3.018067356572759,0.2091904811408893,-0.07910062160179146, ,0.01876546204438813,0.019957295806197848,0.006726694054054055,0.007962169121140039,0.0,0.042262520455997515, ,1.2433209419250488
0.0110541427359522,0.020765321022039696,-0.08336947824136365, ,0.011292787420440287,0.02062034610789277,-0.08364321837869074, ,0.00039102771506656803, ,0.002476739263949754,-4.576600834356719e-06,-0.006141091335977096,-0.0009457948333668669,-0.030031723432089843,-0.013325263927667969, ,0.006621726445850699, ,0.03004661264492329, ,4.3640005629828244e-05, ,0.13459178853198475,-0.22039135076461905,0.09330306533,3.018067356572759,0.2094637541404202,-0.07916009992890319, ,0.01939442909431244,0.017599581149568024,0.00624904335817968,0.007253555846793877,0.013129699652709582,-0.015305325002050542, ,1.2536289691925049
0.011078601487465731,0.020767254697328607,-0.08343235650471278, ,0.011316828222965328,0.02061865163571001,-0.08370347679476169, ,0.00039030892778082246, ,0.0023770026549720124,8.228742169266853e-05,-0.006007801816798736,0.023469021929172232,-0.033464985179195036,-0.011965619866429333, ,0.006461470073554703, ,0.0408741998763159, ,4.3879711618173206e-05, ,0.13478485685384037,-0.22020600517563768,0.09336787983000001,3.018067356572759,0.20987366363971652,-0.07941267489985188, ,0.018739522424658525,0.018754336276377626,0.006171565873692368,0.006640827043580432,0.037920162367505776,-0.022996932719389265, ,1.2615878582000732
0.011078601487465731,0.020767254697328607,-0.08343235650471278, ,0.01134091090119832,0.0206169233810051,-0.08376371031676791, ,0.00044855443589797965, ,0.0023770026549720124,8.228742169266853e-05,-0.006007801816798736,0.023469021929172232,-0.033464985179195036,-0.011965619866429333, ,0.006461470073554703, ,0.0408741998763159, ,4.419666303975981e-05, ,0.13478485685384037,-0.22020600517563768,0.09336787983000001,3.018067356572759,0.20987366363971652,-0.07941267489985188, ,0.018739522424658525,0.018754336276377626,0.006171565873692368,0.006640827043580432,0.037920162367505776,-0.022996932719389265, ,1.269697904586792
0.01110196043497253,0.02076430160409988,-0.08349327509535577, ,0.011365035223003627,0.02061516154709991,-0.08382391875495446, ,0.00044808071854563565, ,0.0023330279361493855,-9.796821759933344e-05,-0.006420204291727851,0.008453627522844441,-0.021997381196183774,-0.00845280487210687, ,0.0068316645314325675, ,0.023565835161887108, ,4.4508610022379095e-05, ,0.13496247970994754,-0.22001293685378207,0.09342880546000001,3.018067356572759,0.20987366363971652,-0.07924931741957075, ,0.017402703385012062,0.020643232881981895,0.00650155572244898,0.006162836453731445,0.02686185765279247,-0.010168775222300164, ,1.2778120040893555
0.011126429149999421,0.020761067713495653,-0.08356218799282245, ,0.01138920095669017,0.020613366336976746,-0.08388410191998733, ,0.00044101394027832685, ,0.0022985492299857947,-0.00011669734217421542,-0.00657616821219221,-0.005137931837510611,0.005277850031213156,0.0027329204416139926, ,0.006967276023481925, ,0.007365733651173528, ,4.48066603500277e-05, ,0.1351401025660547,-0.21979670033330376,0.09349750883,3.018067356572759,0.20987366363971652,-0.0789226024590085, ,0.01661651927131339,0.020316193868223247,0.006628718901373285,0.0057195226081399675,0.018198588701731196,0.02046836610457808, ,1.2864539623260498
0.011151135406712647,0.02076000191126577,-0.08363456276317799, ,0.011413407871011355,0.020611537953278587,-0.08394425962295515, ,0.00043213486009158533, ,0.002508777943601084,0.0001065118406907658,-0.007607294357691022,-0.010693788852694442,0.007566018276285133,0.009769340814447625, ,0.008011007364062543, ,0.013099684236878658, ,4.508864078138467e-05, ,0.13531000268928764,-0.21959590927857392,0.09357010107000001,3.0182770465162436,0.20987366363971652,-0.07867756623858682, ,0.017479635579014694,0.019957295806197848,0.0076950780289855095,0.0,0.013902803181133424,0.025918224594215417, ,1.2947089672088623
0.011177771776393043,0.020762190334858745,-0.08371346094619903, ,0.011437655735163952,0.02060967659830931,-0.08400439167536708, ,0.0004188565399238334, ,0.0026503740680727363,3.084057661310348e-05,-0.007671964086988611,-0.012470454353809172,0.0047496770619463915,-0.007318340222117528, ,0.008116924712840524, ,0.013344348519301146, ,4.534895482716785e-05, ,0.13549534827826903,-0.21938739549096986,0.09365047105,3.018486736459728,0.2101469366392474,-0.07873704456569855, ,0.018618195322438844,0.020607370588158695,0.007751246481751827,0.014900166090263369,0.009859574868581182,0.021003029031139497, ,1.3031740188598633
0.01120396976448284,0.02076536310290163,-0.08378519230603955, ,0.011461944318788638,0.02060778247403371,-0.08406449788915309, ,0.00041157518635369367, ,0.0028234240445622347,0.0003767316583287643,-0.007729141589265728,0.028310076655566004,-0.018615758857325703,-0.005628714650416749, ,0.008237310227538869, ,0.03388225037529506, ,4.559605430874252e-05, ,0.13568841660012462,-0.21919432716911427,0.09372435958000001,3.0186964264032126,0.21055684613854375,-0.0789079407965067, ,0.021149307233891416,0.020715333236950618,0.007976370315473212,0.008565484344809105,0.047694099252300795,-0.005583699323680431, ,1.3115549087524414
0.01120396976448284,0.02076536310290163,-0.08378519230603955, ,0.011486273391969051,0.02060585578207811,-0.08412457807666418, ,0.0004693832387193283, ,0.0028234240445622347,0.0003767316583287643,-0.007729141589265728,0.028310076655566004,-0.018615758857325703,-0.005628714650416749, ,0.008237310227538869, ,0.03388225037529506, ,4.591664257856406e-05, ,0.13568841660012462,-0.21919432716911427,0.09372435958000001,3.0186964264032126,0.21055684613854375,-0.0789079407965067, ,0.021149307233891416,0.020715333236950618,0.007976370315473212,0.008565484344809105,0.047694099252300795,-0.005583699323680431, ,1.3199069499969482
0.011226043584730415,0.02076564210781149,-0.08384655325677122, ,0.011510642725231847,0.020603896723730288,-0.08418463205067184, ,0.00047059059800534203, ,0.002811938742943214,8.217079988170244e-05,-0.0076197021954037165,0.01269104453561842,-0.02421603143232381,-0.009571029093830655, ,0.008122414239686283, ,0.027340057864802127, ,4.623459427396316e-05, ,0.13585059399048335,-0.21902442704588132,0.09378658150000001,3.0186964264032126,0.21069348263830917,-0.078856001219922, ,0.020971699791927242,0.022172182607119343,0.007773944128843339,0.008163409015693743,0.03251115683657996,-0.009877453836674745, ,1.3301239013671875
0.011246313247516446,0.02076318069568051,-0.0838983010779905, ,0.01153505208954627,0.020601905499939656,-0.08424465962436715, ,0.0004788987892092915, ,0.0028120633295391335,-0.00016232752119306904,-0.006889241957329714,-1.4482653271580915e-05,-0.012446585056263833,-0.00440632743373854, ,0.007442829108619084, ,0.012446592858742098, ,4.6559267691839276e-05, ,0.13600504864796784,-0.21886224965552262,0.09383843310000001,3.0186964264032126,0.21069348263830917,-0.07861096499950032, ,0.021997436615315436,0.022043424287681943,0.006995525480895917,0.00754912662584199,0.022296715176926298,0.005813705300777074, ,1.338433027267456
0.011290271997105474,0.020756712786551463,-0.08400708959165949, ,0.01155950125632376,0.020599882311317697,-0.08430466061136144, ,0.0004308464967337341, ,0.002793308639767016,-0.0003017223758011887,-0.007070958053341747,-0.005863078448124327,-0.03507080600507785,-0.014579112998568258, ,0.00760868302278224, ,0.035557518263489185, ,4.681714550209258e-05, ,0.1363448488944337,-0.21850700394330827,0.09394732146000001,3.0186964264032126,0.21069348263830917,-0.07820257129879751, ,0.021334744055411595,0.023061225166092537,0.007120613106839519,0.006470283407762088,0.013149224062787805,-0.018525977507380862, ,1.3467998504638672
0.01131748253560748,0.020754756931892313,-0.0840774712584294, ,0.011583989997417858,0.02059782735813801,-0.08436463482568504, ,0.0004220379517037536, ,0.0028213195436580726,-0.0002513588085040811,-0.007386623744491751,-0.013672160041727064,-0.017916944892268517,-0.007117882256304189, ,0.007911083083922766, ,0.022537631918392604, ,4.706029197582258e-05, ,0.13655336268203777,-0.21827532195708155,0.09401861741,3.0186964264032126,0.21096675563784006,-0.07818037088576864, ,0.02106948080783099,0.02276798022036247,0.007432949846010267,0.005948460614991682,0.008431371925695005,0.000948191381129785, ,1.3549139499664307
0.011345611065523845,0.020754312761539176,-0.0841513861330563, ,0.011608518085123422,0.020595740840336628,-0.08442458208178803, ,0.00041097588925876504, ,0.002729053654204069,-0.000228130970920237,-0.007196164614840082,-0.009721481719499424,-0.012756699409061139,0.0018352153906930086, ,0.007699646923807227, ,0.016038720875992788, ,4.728609458427972e-05, ,0.13676187646964183,-0.21805136270372902,0.09409380223000001,3.018906116346697,0.21124002863737093,-0.07832152795302094, ,0.020465158843750438,0.022524790305832133,0.007253557158469946,0.0,0.01404973601680478,0.006684269119802232, ,1.363847017288208
0.011345611065523845,0.020754312761539176,-0.0841513861330563, ,0.011633085292176916,0.020593622957512096,-0.08448450219453878, ,0.0004684324439293694, ,0.002729053654204069,-0.000228130970920237,-0.007196164614840082,-0.009721481719499424,-0.012756699409061139,0.0018352153906930086, ,0.007699646923807227, ,0.016038720875992788, ,4.758239339782757e-05, ,0.13676187646964183,-0.21805136270372902,0.09409380223000001,3.018906116346697,0.21124002863737093,-0.07832152795302094, ,0.020465158843750438,0.022524790305832133,0.007253557158469946,0.0,0.01404973601680478,0.006684269119802232, ,1.3728199005126953
0.011379776680883125,0.020751808838070335,-0.0842370998740161, ,0.011657691391755699,0.020591473908925895,-0.08454439497922482, ,0.00044426811466542846, ,0.0029138806518696847,-0.0001576534823348034,-0.00748332673260045,0.014063824681876459,-0.029968524338785406,-0.017029669505430077, ,0.008032168702205234, ,0.03310443463131591, ,4.784426668168073e-05, ,0.13701672665449124,-0.21777334432025694,0.09418065366000002,3.0193254962336664,0.2115133016369018,-0.07821764879985152, ,0.02207932563017003,0.024552895616680667,0.0076068822922636115,0.013188881049344622,0.03445422162008615,-0.016451684211916683, ,1.3812189102172852
0.011415355115905506,0.020746307961742268,-0.08432383384256595, ,0.01168233615747781,0.020589293893502388,-0.08460426025155161, ,0.00041781726273679186, ,0.0026523229865934466,-0.0003792358816286658,-0.005984622581719422,-0.002303263750771692,-0.0027852470234194368,-0.006595402892841124, ,0.006557007284177187, ,0.0036142242888650296, ,4.8130176020077286e-05, ,0.1372870223050891,-0.21748760320391064,0.09426750509000001,3.019535186177151,0.2115133016369018,-0.0780542913195704, ,0.021220246323450532,0.021825423541506617,0.00605428031927024,0.01311262400025604,0.020530805612643213,0.01459051362541415, ,1.3877618312835693
0.011415355115905506,0.020746307961742268,-0.08432383384256595, ,0.0117070193634015,0.020587083109829485,-0.08466409782764277, ,0.0004756050528268284, ,0.0026523229865934466,-0.0003792358816286658,-0.005984622581719422,-0.002303263750771692,-0.0027852470234194368,-0.006595402892841124, ,0.006557007284177187, ,0.0036142242888650296, ,4.84858096240302e-05, ,0.1372870223050891,-0.21748760320391064,0.09426750509000001,3.019535186177151,0.2115133016369018,-0.0780542913195704, ,0.021220246323450532,0.021825423541506617,0.00605428031927024,0.01311262400025604,0.020530805612643213,0.01459051362541415, ,1.394232988357544
0.011445597425486379,0.020739481198005623,-0.0843871295037932, ,0.011731740784025354,0.020584841756158198,-0.08472390752403947, ,0.0004681995445660293, ,0.0030742688608461372,-0.0006886779356982575,-0.006965781221286691,-0.036758718883708505,0.00079186978899215,0.04643512343001246, ,0.007645097406228133, ,0.03676724704589707, ,4.882863000661758e-05, ,0.1375341497570643,-0.21723275301906123,0.09433102330000001,3.019744876120635,0.21164993813666727,-0.07792067300284515, ,0.025353177012682547,0.025571797779162162,0.0069467123942433505,-0.03629407019415717,0.0,0.037643353291509994, ,1.400846004486084
0.011474282984827772,0.02073734519663037,-0.08445730571086585, ,0.011756500194287402,0.020582570030403514,-0.08478368915770054, ,0.0004583972728577542, ,0.0030427530810090515,-0.00025431993989194577,-0.00800923092285033,-0.017355408158019593,-0.018282524474650595,0.030627437564805467, ,0.008571511238944896, ,0.025208349024483236, ,4.915584736088535e-05, ,0.1377581090104168,-0.2170010710328345,0.09440231925,3.019744876120635,0.21192321113619814,-0.07789847258981629, ,0.023259054303546762,0.024546544634886387,0.008073396614292957,-0.02864177038908481,0.012922781664471271,0.010649459380750341, ,1.4082489013671875
0.011474282984827772,0.02073734519663037,-0.08445730571086585, ,0.011781297369565185,0.02058026813014421,-0.08484344254600205, ,0.0005177187389892264, ,0.0030427530810090515,-0.00025431993989194577,-0.00800923092285033,-0.017355408158019593,-0.018282524474650595,0.030627437564805467, ,0.008571511238944896, ,0.025208349024483236, ,4.9553242595471596e-05, ,0.1377581090104168,-0.2170010710328345,0.09440231925,3.019744876120635,0.21192321113619814,-0.07789847258981629, ,0.023259054303546762,0.024546544634886387,0.008073396614292957,-0.02864177038908481,0.012922781664471271,0.010649459380750341, ,1.4151208400726318
0.011524581745341222,0.020738472919307378,-0.08458809279640185, ,0.011806132085675412,0.02057793625262309,-0.08490316750673617, ,0.00045201182350095026, ,0.00317768680595551,0.0003244947396025687,-0.008499523709504922,0.02219864292009649,-0.04052651754327981,0.017861240308693887, ,0.009079917045943194, ,0.046207989864541985, ,4.9865802759411324e-05, ,0.1381365229212538,-0.21663810258774593,0.09453583712000001,3.019744876120635,0.21233312063549445,-0.07798769008048385, ,0.024214580647734314,0.022524790305832133,0.008756905728422212,-0.021765023529631975,0.04506925169278946,-0.018822102788288306, ,1.4225900173187256
0.011524581745341222,0.020738472919307378,-0.08458809279640185, ,0.011831004118873485,0.020575574594747473,-0.08496286385811261, ,0.0005107679354084183, ,0.00317768680595551,0.0003244947396025687,-0.008499523709504922,0.02219864292009649,-0.04052651754327981,0.017861240308693887, ,0.009079917045943194, ,0.046207989864541985, ,5.0247303647120606e-05, ,0.1381365229212538,-0.21663810258774593,0.09453583712000001,3.019744876120635,0.21233312063549445,-0.07798769008048385, ,0.024214580647734314,0.022524790305832133,0.008756905728422212,-0.021765023529631975,0.04506925169278946,-0.018822102788288306, ,1.4292948246002197
0.011555798302746634,0.020736738538625198,-0.08467174938845244, ,0.011855913245853292,0.02057318335308908,-0.08502253141875658, ,0.0004897625042568714, ,0.003185178720905249,-0.00018392284213456216,-0.008385783010487773,-0.0010307823760659514,-0.0074978762289790325,0.006577378236347602, ,0.008972209749830408, ,0.007568396050909228, ,5.059946619549669e-05, ,0.13836820490748053,-0.2164064206015192,0.09462009597000001,3.019535186177151,0.21233312063549445,-0.07774265386006214, ,0.02373610344133836,0.026200149519180226,0.008499899423692638,0.0,0.027997358783172076,0.014305309300570675, ,1.43595290184021
0.011590399179941658,0.020733178290439774,-0.08476321039167917, ,0.011880859243746742,0.020570762723884584,-0.08508217000770946, ,0.0004609567241979304, ,0.003432574615564154,-0.00029876860126452865,-0.009075927028724942,-0.032093800344685626,0.0057772795269470266,0.00981547822222318, ,0.00970794945388865, ,0.032609644550575155, ,5.091325121905973e-05, ,0.13862305509232994,-0.2161206794851729,0.09471213256000001,3.019535186177151,0.2124697571352599,-0.07744567806305579, ,0.025078472927714267,0.026360261544019662,0.009123030652920965,0.0,0.0,0.03419112537583119, ,1.4426429271697998
0.011590399179941658,0.020733178290439774,-0.08476321039167917, ,0.011905841890123722,0.020568312903035398,-0.08514177944442843, ,0.0005196144985183449, ,0.003432574615564154,-0.00029876860126452865,-0.009075927028724942,-0.032093800344685626,0.0057772795269470266,0.00981547822222318, ,0.00970794945388865, ,0.032609644550575155, ,5.129484722587387e-05, ,0.13862305509232994,-0.2161206794851729,0.09471213256000001,3.019535186177151,0.2124697571352599,-0.07744567806305579, ,0.025078472927714267,0.026360261544019662,0.009123030652920965,0.0,0.0,0.03419112537583119, ,1.449199914932251
0.011622249696724105,0.020733315334896904,-0.08484715678023497, ,0.011930860962991495,0.020565834086108382,-0.08520135954878605, ,0.0004987489184070237, ,0.0033265474302289523,-0.00020208131709851867,-0.00861880035161527,-0.01581421915476104,-0.004272412677885258,0.0011661264022899223, ,0.009240696627705436, ,0.01638117791875217, ,5.1647695218065607e-05, ,0.1388547370785567,-0.21588127476607194,0.09479768770000001,3.019744876120635,0.21274303013479076,-0.07750515639016752, ,0.024578332441976374,0.025346405330788135,0.008713791859956238,0.005231329524051211,0.012270693498017958,0.019644613504349623, ,1.4592628479003906
0.011630869053381423,0.020732513783156933,-0.08486770554945239, ,0.011955916240794676,0.020563326468335634,-0.08526091014106972, ,0.0005374847648172564, ,0.003467862833423359,-0.00031185677137324794,-0.008537732045750063,-0.015574269365366183,-0.004574499502183188,-0.007731100248453257, ,0.009220422753991164, ,0.016232186131150857, ,5.2043501418956746e-05, ,0.1389165189415505,-0.21581949290307814,0.09481842834000001,3.01995456606412,0.21274303013479076,-0.07742347765002695, ,0.02613520836091181,0.026426327362425724,0.008628825308775734,0.01399243015197066,0.012270693498017958,0.018958079041823915, ,1.4676380157470703
0.011693567373596897,0.020731239970735622,-0.0850180897024189, ,0.01198100750241456,0.020560790244615015,-0.08532043104198148, ,0.00045064977798484957, ,0.003320580297492376,-0.000191619222940398,-0.007572497168473918,0.015565696239408365,-0.028642756910245967,-0.011040486727702798, ,0.008270772926712494, ,0.03259905516939394, ,5.2332163052657964e-05, ,0.13940305111262663,-0.21534068346487623,0.09497268685000002,3.0201642560076043,0.21356284913338341,-0.07768359137150267, ,0.026309104951059266,0.025225130664133646,0.007755020214216165,0.010174714201257052,0.038202604361361574,-0.010004995351694081, ,1.4741179943084717
0.011693567373596897,0.020731239970735622,-0.0850180897024189, ,0.012006134527169067,0.020558225609510157,-0.08537992207263861, ,0.0005084828992417313, ,0.003320580297492376,-0.000191619222940398,-0.007572497168473918,0.015565696239408365,-0.028642756910245967,-0.011040486727702798, ,0.008270772926712494, ,0.03259905516939394, ,5.268661121264742e-05, ,0.1396733467632245,-0.21506266508140415,0.09504787167,3.0201642560076043,0.21356284913338341,-0.07719351893065926, ,0.02754628201987541,0.028739231241208592,0.0073881315027829325,0.010174714201257052,0.021799222560290092,0.03198293620139918, ,1.4808390140533447
0.011727575271311899,0.020723425498114213,-0.08509336750051093, ,0.01203129709481246,0.02055563275725074,-0.0854393830545714, ,0.0004900286865161637, ,0.003416355161015,-0.0007105521440910257,-0.007333065947486726,-0.011318950235429438,0.006069680335174965,0.002313547221054542, ,0.00812097427196119, ,0.012843661183589431, ,5.301595347876249e-05, ,0.1396733467632245,-0.21506266508140415,0.09504787167,3.0201642560076043,0.21356284913338341,-0.07719351893065926, ,0.02754628201987541,0.028739231241208592,0.0073881315027829325,0.010174714201257052,0.021799222560290092,0.03198293620139918, ,1.4875319004058838
0.011759602979350341,0.020714463413071756,-0.08516380053840217, ,0.012056494985534714,0.020553011881732794,-0.08549881380972536, ,0.0004758627452013303, ,0.003307024175552397,-0.0007853886897046412,-0.007312970877536144,-0.015604383704048522,-0.0037849908138019132,-0.003308830478730253, ,0.008064290876902677, ,0.016056865364329157, ,5.332557663754921e-05, ,0.1399281969480739,-0.21478464669793207,0.09511787133,3.0201642560076043,0.21356284913338341,-0.07678512522995648, ,0.026192917901868833,0.028800285753708885,0.00732696022079117,0.010174714201257052,0.015415540536270249,0.020401551018978, ,1.4947929382324219
0.011797151468624475,0.02071007720322048,-0.0852466543594532, ,0.0120817279799615,0.020550363176518885,-0.08555821416045849, ,0.0004511783136770283, ,0.0036647340060505093,-0.0003869944161670573,-0.008729566574484529,-0.022485939407147115,-0.0025178459373844516,-0.0026985073872549197, ,0.009475514370819404, ,0.0226264661070061, ,5.3603469169239424e-05, ,0.1399281969480739,-0.21478464669793207,0.09511787133,3.0201642560076043,0.21356284913338341,-0.07678512522995648, ,0.026192917901868833,0.028800285753708885,0.00732696022079117,0.010174714201257052,0.015415540536270249,0.020401551018978, ,1.5021300315856934
0.011797151468624475,0.02071007720322048,-0.0852466543594532, ,0.012106995859153872,0.02054768683483817,-0.08561758392954277, ,0.0005098655941056578, ,0.0036647340060505093,-0.0003869944161670573,-0.008729566574484529,-0.022485939407147115,-0.0025178459373844516,-0.0026985073872549197, ,0.009475514370819404, ,0.0226264661070061, ,5.400981979391689e-05, ,0.14022938353016864,-0.21449890558158577,0.09520213018000001,3.0201642560076043,0.21383612213291428,-0.07668124607678703, ,0.02785351968255673,0.027043870492582153,0.008819939933554817,0.010174714201257052,0.007379800567556091,0.024701697685178506, ,1.5084269046783447
0.011832859945219732,0.02070947427306548,-0.08533910105821682, ,0.012132298404607694,0.020544983049586872,-0.0856769229401627, ,0.00048046267022900025, ,0.003759569622137011,0.00015497999293241204,-0.010042003795733574,0.04322608276804776,-0.06328358725558865,-0.023197597175306554, ,0.010723815681716665, ,0.07663750090711408, ,5.43792318714659e-05, ,0.14049195644789228,-0.21420544173236522,0.09529675935000001,3.0203739459510888,0.21438266813197607,-0.07688188147115108, ,0.02745860577502048,0.029785606264428992,0.010323273830200909,0.010018704163503955,0.06384948907138706,-0.05041182561345695, ,1.5141420364379883
0.011832859945219732,0.02070947427306548,-0.08533910105821682, ,0.01215763539825353,0.020542252013328308,-0.08573623101591615, ,0.0005395874186331525, ,0.003759569622137011,0.00015497999293241204,-0.010042003795733574,0.04322608276804776,-0.06328358725558865,-0.023197597175306554, ,0.010723815681716665, ,0.07663750090711408, ,5.4814433863395095e-05, ,0.14049195644789228,-0.21420544173236522,0.09529675935000001,3.0203739459510888,0.21438266813197607,-0.07688188147115108, ,0.02745860577502048,0.029785606264428992,0.010323273830200909,0.010018704163503955,0.06384948907138706,-0.05041182561345695, ,1.519028902053833
0.01187161389830452,0.02070843231621845,-0.0854400320606961, ,0.012183006622456336,0.020539493918293048,-0.08579550798081277, ,0.0005018652615305068, ,0.0039483100929836815,-0.00010909437878756003,-0.010151445357625938,0.001441588164237507,-0.012646380117737756,-0.010243971352658674, ,0.010892791057516208, ,0.012728275559260089, ,5.5203168840284866e-05, ,0.14076997483136436,-0.21392742334889314,0.09539916626000002,3.0205836358945732,0.21451930463174151,-0.07674826315442582, ,0.028844055184945525,0.029711002366459228,0.010336671979234265,0.015715061858778134,0.03112940697288045,0.010180505794712264, ,1.5239808559417725
0.01187161389830452,0.02070843231621845,-0.0854400320606961, ,0.012208411860014977,0.02053670895637948,-0.08585475365927447, ,0.0005611735771168348, ,0.0039483100929836815,-0.00010909437878756003,-0.010151445357625938,0.001441588164237507,-0.012646380117737756,-0.010243971352658674, ,0.010892791057516208, ,0.012728275559260089, ,5.565731817506785e-05, ,0.14076997483136436,-0.21392742334889314,0.09539916626000002,3.0205836358945732,0.21451930463174151,-0.07674826315442582, ,0.028844055184945525,0.029711002366459228,0.010336671979234265,0.015715061858778134,0.03112940697288045,0.010180505794712264, ,1.528831958770752
0.01191327213098604,0.0207037003315366,-0.08554572095458221, ,0.012233850894162103,0.020533897319153695,-0.08591396787613535, ,0.0005169232067214319, ,0.004149099068675327,-0.0003178454719529166,-0.010583799648025196,-0.017780118106631344,0.007332460521237758,0.0027016366637059057, ,0.011372460763408317, ,0.019232718070470948, ,5.605772006545255e-05, ,0.14107116141345913,-0.21361079130104993,0.09550546204,3.0207933258380577,0.21451930463174151,-0.07633986945372298, ,0.030328201201173147,0.031812585168780015,0.010712045406859449,0.010740985239698691,0.01905003238727909,0.036708822900560385, ,1.5337328910827637
0.01191327213098604,0.0207037003315366,-0.08554572095458221, ,0.012259323508563744,0.02053105919784963,-0.0859731504566407, ,0.0005764134767630894, ,0.004149099068675327,-0.0003178454719529166,-0.010583799648025196,-0.017780118106631344,0.007332460521237758,0.0027016366637059057, ,0.011372460763408317, ,0.019232718070470948, ,5.652321643554005e-05, ,0.14107116141345913,-0.21361079130104993,0.09550546204,3.0207933258380577,0.21451930463174151,-0.07633986945372298, ,0.030328201201173147,0.031812585168780015,0.010712045406859449,0.010740985239698691,0.01905003238727909,0.036708822900560385, ,1.5385708808898926
0.011956097040421434,0.02070235072421204,-0.0856593342683406, ,0.012284829487318849,0.020528194783369754,-0.08603230122644716, ,0.0005267823698768588, ,0.004324148465046717,-7.424510126214593e-05,-0.01148743502325073,-0.017919122121497606,-0.02348609508144037,-0.00975393289063403, ,0.012274564582755464, ,0.02954135067562579, ,5.692913998164259e-05, ,0.1413800707284281,-0.2132864365203325,0.09562083185,3.0207933258380577,0.21479257763127238,-0.07623599030055356, ,0.03072092637049879,0.03054294868312545,0.011652385896122898,0.009405355143815233,0.012015054217372222,0.004241069231112169, ,1.5436229705810547
0.011956097040421434,0.02070235072421204,-0.0856593342683406, ,0.012310368614959237,0.020525304266284714,-0.08609142001162229, ,0.00058613299372872, ,0.004324148465046717,-7.424510126214593e-05,-0.01148743502325073,-0.017919122121497606,-0.02348609508144037,-0.00975393289063403, ,0.012274564582755464, ,0.02954135067562579, ,5.7399520019902834e-05, ,0.1413800707284281,-0.2132864365203325,0.09562083185,3.0207933258380577,0.21479257763127238,-0.07623599030055356, ,0.03072092637049879,0.03054294868312545,0.011652385896122898,0.009405355143815233,0.012015054217372222,0.004241069231112169, ,1.5489628314971924
0.011997581806124728,0.020704498013546194,-0.08577067878467164, ,0.01233594067644921,0.020522387836834056,-0.08615050663864447, ,0.0005402962522940494, ,0.004378179975321575,0.00028941693782975637,-0.011993526910517659,0.030471361116701675,-0.059343346859088465,-0.016006376350060143, ,0.012770940052068244, ,0.06670934279829872, ,5.781498016915153e-05, ,0.14167353457764864,-0.21299297267111197,0.09573490537000001,3.0210030157815426,0.21520248713056872,-0.07624352905108059, ,0.031062828660710567,0.03199492297992946,0.012309746151468317,0.005217721016888382,0.0556282396372583,-0.039792772542372026, ,1.5549159049987793
0.011997581806124728,0.020704498013546194,-0.08577067878467164, ,0.012361545457185062,0.02051944568492598,-0.08620956093440227, ,0.0005994426119096914, ,0.004378179975321575,0.00028941693782975637,-0.011993526910517659,0.030471361116701675,-0.059343346859088465,-0.016006376350060143, ,0.012770940052068244, ,0.06670934279829872, ,5.8294167651043806e-05, ,0.14167353457764864,-0.21299297267111197,0.09573490537000001,3.0210030157815426,0.21520248713056872,-0.07624352905108059, ,0.031062828660710567,0.03199492297992946,0.012309746151468317,0.005217721016888382,0.0556282396372583,-0.039792772542372026, ,1.5598859786987305
0.012046866803371298,0.020704201640708235,-0.08590193223939939, ,0.01238718274299492,0.02051647800013795,-0.08626858272619443, ,0.0005343104747783952, ,0.004636127121755051,-2.297077678819169e-06,-0.01252455151008186,-0.013675970621543835,0.006312747089799375,-0.008340934011233694, ,0.01335507658137281, ,0.015062623943938607, ,5.8697113807798584e-05, ,0.14202105755698874,-0.21263772695889765,0.09586842324000001,3.021212705725027,0.2154757601300996,-0.07597629241763007, ,0.03226689614364868,0.033215590324981024,0.012732862925659475,0.02173869785913273,0.02273127168953606,0.034694457138487844, ,1.5649030208587646
0.012046866803371298,0.020704201640708235,-0.08590193223939939, ,0.012412852320138435,0.020513484971716775,-0.08632757184172923, ,0.0005928636583448292, ,0.004636127121755051,-2.297077678819169e-06,-0.01252455151008186,-0.013675970621543835,0.006312747089799375,-0.008340934011233694, ,0.01335507658137281, ,0.015062623943938607, ,5.916278120100689e-05, ,0.14202105755698874,-0.21263772695889765,0.09586842324000001,3.021212705725027,0.2154757601300996,-0.07597629241763007, ,0.03226689614364868,0.033215590324981024,0.012732862925659475,0.02173869785913273,0.02273127168953606,0.034694457138487844, ,1.5696849822998047
0.012092075071549675,0.02070358391367165,-0.08602195289389614, ,0.012438553975306306,0.020510466788578593,-0.08638652810912495, ,0.0005387549928415879, ,0.0047240865349301425,-0.00029440725122217414,-0.011997830290191292,-0.038533686050150506,0.01115586034752037,-0.0010358869389186316, ,0.012897736270032512, ,0.04011605578939454, ,5.956508259214115e-05, ,0.14233768960483195,-0.21232109491105444,0.09599027450000001,3.021422395668511,0.21561239662986503,-0.07559763788048313, ,0.03390387336851403,0.03285905178617409,0.012131615780654989,0.015077869384458202,0.0,0.04638446543958766, ,1.5750038623809814
0.012092075071549675,0.02070358391367165,-0.08602195289389614, ,0.01246428749562021,0.02050742363930949,-0.08644545135690834, ,0.0005969689188257651, ,0.0047240865349301425,-0.00029440725122217414,-0.011997830290191292,-0.038533686050150506,0.01115586034752037,-0.0010358869389186316, ,0.012897736270032512, ,0.04011605578939454, ,6.00293153014079e-05, ,0.14233768960483195,-0.21232109491105444,0.09599027450000001,3.021422395668511,0.21561239662986503,-0.07559763788048313, ,0.03390387336851403,0.03285905178617409,0.012131615780654989,0.015077869384458202,0.0,0.04638446543958766, ,1.579845905303955
0.012139962277395003,0.020702573513493736,-0.08613848235936918, ,0.01249005266863215,0.02050435571216542,-0.08650434141401574, ,0.0005437889541604219, ,0.004654580475210314,-0.00041128504197906514,-0.011200937126666657,-0.006287312297267121,-0.007355683384625389,0.00013264256034353338, ,0.012136526162848426, ,0.009676579853972703, ,6.043163942558511e-05, ,0.14269293531704627,-0.21198129466458857,0.09610953318000001,3.021632085611996,0.21602230612916135,-0.07552349789086957, ,0.03482456570953056,0.03533020906867862,0.011385855268048606,0.009909686462213983,0.032155867647025695,0.023946194460158603, ,1.5850999355316162
0.012139962277395003,0.020702573513493736,-0.08613848235936918, ,0.01251584928232461,0.02050126319507261,-0.08656319810979193, ,0.0006018308345664352, ,0.004654580475210314,-0.00041128504197906514,-0.011200937126666657,-0.006287312297267121,-0.007355683384625389,0.00013264256034353338, ,0.012136526162848426, ,0.009676579853972703, ,6.089529534211177e-05, ,0.14269293531704627,-0.21198129466458857,0.09610953318000001,3.021632085611996,0.21602230612916135,-0.07552349789086957, ,0.03482456570953056,0.03533020906867862,0.011385855268048606,0.009909686462213983,0.032155867647025695,0.023946194460158603, ,1.5916848182678223
0.01220714334837461,0.020696110847611675,-0.0862988098480843, ,0.012541677125109719,0.020498146275627512,-0.08662202127398932, ,0.0005055377783836601, ,0.004654580475210314,-0.00041128504197906514,-0.011200937126666657,-0.006287312297267121,-0.007355683384625389,0.00013264256034353338, ,0.012136526162848426, ,0.009676579853972703, ,6.125007764140554e-05, ,0.14320263568674507,-0.21144842609626707,0.09627286572,3.021632085611996,0.21670548862798855,-0.07526380000794604, ,0.03605506898118191,0.036597355016764664,0.010438277536041943,0.009909686462213983,0.025142588788502205,0.06289768272780491, ,1.596987009048462
0.01220714334837461,0.020696110847611675,-0.0862988098480843, ,0.012567535985829355,0.020495005141097297,-0.08668081073676927, ,0.000562362016214056, ,0.004654580475210314,-0.00041128504197906514,-0.011200937126666657,-0.006287312297267121,-0.007355683384625389,0.00013264256034353338, ,0.012136526162848426, ,0.009676579853972703, ,6.173238231347927e-05, ,0.14320263568674507,-0.21144842609626707,0.09627286572,3.021632085611996,0.21670548862798855,-0.07526380000794604, ,0.03605506898118191,0.036597355016764664,0.010438277536041943,0.009909686462213983,0.025142588788502205,0.06289768272780491, ,1.6007118225097656
0.01220714334837461,0.020696110847611675,-0.0862988098480843, ,0.012593425653754457,0.020491839978420055,-0.08673956632870042, ,0.0006206503707039693, ,0.004655156859816347,-0.0007901090750307904,-0.01031775424838497,-0.02121334155839125,0.02575517649983002,0.014081132993243064, ,0.011346841431429599, ,0.0333666728889828, ,6.22763490597342e-05, ,0.14320263568674507,-0.21144842609626707,0.09627286572,3.021632085611996,0.21670548862798855,-0.07526380000794604, ,0.03605506898118191,0.036597355016764664,0.010438277536041943,0.009909686462213983,0.025142588788502205,0.06289768272780491, ,1.6042840480804443
0.012249600713107826,0.020689420687153334,-0.08638941334629163, ,0.012619345918585148,0.020488650974204752,-0.08679828788075876, ,0.0005866842247296521, ,0.004448220516214674,-0.000840025482989303,-0.009224941677643945,-0.011866362274421451,-0.008057964946706164,-0.0029904729953925137, ,0.010275789873721478, ,0.014343684530264399, ,6.278085945996365e-05, ,0.14353471320033673,-0.21112407131554964,0.09636490231000001,3.0218417755554805,0.21697876162751942,-0.07483320589421441, ,0.035369713588695784,0.0344954349540061,0.009347894084507044,0.012156886392822298,0.025322203665130008,0.02415081954589262, ,1.607832908630371
0.012249600713107826,0.020689420687153334,-0.08638941334629163, ,0.01264529657045001,0.02048543831473179,-0.08685697522432753, ,0.0006455990470632257, ,0.004448220516214674,-0.000840025482989303,-0.009224941677643945,-0.011866362274421451,-0.008057964946706164,-0.0029904729953925137, ,0.010275789873721478, ,0.014343684530264399, ,6.334734892417204e-05, ,0.14353471320033673,-0.21112407131554964,0.09636490231000001,3.0218417755554805,0.21697876162751942,-0.07483320589421441, ,0.035369713588695784,0.0344954349540061,0.009347894084507044,0.012156886392822298,0.025322203665130008,0.02415081954589262, ,1.6111400127410889
0.012249600713107826,0.020689420687153334,-0.08638941334629163, ,0.012671277399905916,0.020482202185952845,-0.08691562819119705, ,0.0007054451066012346, ,0.004448220516214674,-0.000840025482989303,-0.009224941677643945,-0.011866362274421451,-0.008057964946706164,-0.0029904729953925137, ,0.010275789873721478, ,0.014343684530264399, ,6.397642545542518e-05, ,0.14353471320033673,-0.21112407131554964,0.09636490231000001,3.0218417755554805,0.21697876162751942,-0.07483320589421441, ,0.035369713588695784,0.0344954349540061,0.009347894084507044,0.012156886392822298,0.025322203665130008,0.02415081954589262, ,1.6143829822540283
0.012299523857392327,0.02068110455359644,-0.08649361987519436, ,0.01269728819793782,0.020478942773491493,-0.08697424661356366, ,0.000655810885530509, ,0.005026222928191082,-0.0007574715304089945,-0.010743371471087178,0.023104133609154948,-0.012821719471430348,0.0007411758050804326, ,0.011885146638095121, ,0.026423424019473157, ,6.45489395927567e-05, ,0.1439362953097964,-0.21072248920608996,0.09647119809000002,3.0218417755554805,0.2175253076265812,-0.07470712632801617, ,0.039839186212624174,0.04129544889402558,0.010985387255172415,0.012156886392822298,0.06689847043754332,0.018451856848972978, ,1.6178150177001953
0.012299523857392327,0.02068110455359644,-0.08649361987519436, ,0.012723328755958224,0.020475660262643133,-0.08703283032403046, ,0.000715937048117913, ,0.005026222928191082,-0.0007574715304089945,-0.010743371471087178,0.023104133609154948,-0.012821719471430348,0.0007411758050804326, ,0.011885146638095121, ,0.026423424019473157, ,6.518404691844112e-05, ,0.1439362953097964,-0.21072248920608996,0.09647119809000002,3.0218417755554805,0.2175253076265812,-0.07470712632801617, ,0.039839186212624174,0.04129544889402558,0.010985387255172415,0.012156886392822298,0.06689847043754332,0.018451856848972978, ,1.6212279796600342
0.012299523857392327,0.02068110455359644,-0.08649361987519436, ,0.012749398865807044,0.020472354838375274,-0.08709137915560608, ,0.0007767110943712615, ,0.005026222928191082,-0.0007574715304089945,-0.010743371471087178,0.023104133609154948,-0.012821719471430348,0.0007411758050804326, ,0.011885146638095121, ,0.026423424019473157, ,6.588204151945015e-05, ,0.1439362953097964,-0.21072248920608996,0.09647119809000002,3.0218417755554805,0.2175253076265812,-0.07470712632801617, ,0.039839186212624174,0.04129544889402558,0.010985387255172415,0.012156886392822298,0.06689847043754332,0.018451856848972978, ,1.6245708465576172
0.012357825715512548,0.020675381340287416,-0.08663120812663351, ,0.012775498319751402,0.0204690266853278,-0.08714989294170492, ,0.0006971847569624757, ,0.005940294721077998,-0.0002122160755136035,-0.015318167264924644,-0.018694925592136053,0.02503177625815501,-0.00046203057512697425, ,0.01643101900042059, ,0.031242426636434322, ,6.649133103876435e-05, ,0.14436104561787877,-0.21028229343225918,0.09661119741000002,3.022470845385934,0.21793521712587752,-0.07422459263769979, ,0.041804820069810913,0.042650310812795855,0.015585921252446186,0.025609217394395416,0.0317360043869901,0.06401583076224654, ,1.6279408931732178
0.012357825715512548,0.020675381340287416,-0.08663120812663351, ,0.012801626910484823,0.020465675987813133,-0.08720837151614727, ,0.0007576631267985761, ,0.005940294721077998,-0.0002122160755136035,-0.015318167264924644,-0.018694925592136053,0.02503177625815501,-0.00046203057512697425, ,0.01643101900042059, ,0.031242426636434322, ,6.716303046319559e-05, ,0.14436104561787877,-0.21028229343225918,0.09661119741000002,3.022470845385934,0.21793521712587752,-0.07422459263769979, ,0.041804820069810913,0.042650310812795855,0.015585921252446186,0.025609217394395416,0.0317360043869901,0.06401583076224654, ,1.631263017654419
0.012357825715512548,0.020675381340287416,-0.08663120812663351, ,0.012827784431127464,0.020462302929816514,-0.08726681471315748, ,0.0008186936766727067, ,0.005940294721077998,-0.0002122160755136035,-0.015318167264924644,-0.018694925592136053,0.02503177625815501,-0.00046203057512697425, ,0.01643101900042059, ,0.031242426636434322, ,6.789733048009078e-05, ,0.14436104561787877,-0.21028229343225918,0.09661119741000002,3.022470845385934,0.21793521712587752,-0.07422459263769979, ,0.041804820069810913,0.042650310812795855,0.015585921252446186,0.025609217394395416,0.0317360043869901,0.06401583076224654, ,1.6345069408416748
0.012415105504806205,0.020680027944403507,-0.08678636060695621, ,0.01285397067522544,0.02045890769499611,-0.08732522236736581, ,0.0007292933561584289, ,0.006601728433161859,0.0009160995574289095,-0.018292237463305314,0.016453892551427596,0.007377634043333829,-0.026316708919822646, ,0.01946864166084243, ,0.01803213842425444, ,6.85327680552495e-05, ,0.14475490499446422,-0.20990387952142217,0.09677064108000001,3.022680535329419,0.21848176312493928,-0.07377179811093927, ,0.04405614742733091,0.039839186212624174,0.01885066452071006,0.04691497358889472,0.057220569360105125,0.03878517085638192, ,1.6379749774932861
0.012415105504806205,0.020680027944403507,-0.08678636060695621, ,0.0128801854367507,0.020455490466683397,-0.08738359431380589, ,0.0007895597017299031, ,0.006601728433161859,0.0009160995574289095,-0.018292237463305314,0.016453892551427596,0.007377634043333829,-0.026316708919822646, ,0.01946864166084243, ,0.01803213842425444, ,6.922987720655228e-05, ,0.14475490499446422,-0.20990387952142217,0.09677064108000001,3.022680535329419,0.21848176312493928,-0.07377179811093927, ,0.04405614742733091,0.039839186212624174,0.01885066452071006,0.04691497358889472,0.057220569360105125,0.03878517085638192, ,1.641671895980835
0.012415105504806205,0.020680027944403507,-0.08678636060695621, ,0.01290642851010066,0.020452051427883245,-0.0874419303879166, ,0.0008503783424598376, ,0.006601728433161859,0.0009160995574289095,-0.018292237463305314,0.016453892551427596,0.007377634043333829,-0.026316708919822646, ,0.01946864166084243, ,0.01803213842425444, ,6.998885224711383e-05, ,0.14475490499446422,-0.20990387952142217,0.09677064108000001,3.022680535329419,0.21848176312493928,-0.07377179811093927, ,0.04405614742733091,0.039839186212624174,0.01885066452071006,0.04691497358889472,0.057220569360105125,0.03878517085638192, ,1.6453578472137451
0.012474061407659475,0.020690408161298628,-0.08695307741377793, ,0.01293269969009776,0.02044859076127407,-0.08750023042554009, ,0.0007537911828570127, ,0.007225507217536853,0.0013070189237975507,-0.020698826424726747,0.048247173278315264,-0.005565770630089081,-0.029291646196052488, ,0.02196264256365359, ,0.04856710545766141, ,7.06418453092019e-05, ,0.14514876437104965,-0.20954863380920785,0.09694304765,3.022890225272903,0.21916494562376648,-0.0736754577082969, ,0.04730655112585781,0.044489892901299004,0.021409692903225808,0.04891284300485084,0.09132270774653571,0.023247698617708965, ,1.651655912399292
0.012474061407659475,0.020690408161298628,-0.08695307741377793, ,0.012958998771989413,0.020445108649208267,-0.08755849426292202, ,0.0008135512640163422, ,0.007225507217536853,0.0013070189237975507,-0.020698826424726747,0.048247173278315264,-0.005565770630089081,-0.029291646196052488, ,0.02196264256365359, ,0.04856710545766141, ,7.135550515357339e-05, ,0.14514876437104965,-0.20954863380920785,0.09694304765,3.022890225272903,0.21916494562376648,-0.0736754577082969, ,0.04730655112585781,0.044489892901299004,0.021409692903225808,0.04891284300485084,0.09132270774653571,0.023247698617708965, ,1.6550118923187256
0.012558093321482536,0.02070129763916906,-0.08720077240980346, ,0.012985325551447366,0.020441605273712336,-0.08761672173671214, ,0.0006503701604109868, ,0.006859640839749861,0.0005607879944406471,-0.019842607155851517,-0.022330917270163887,0.008950905808595647,0.03386535484684466, ,0.0210023383071153, ,0.02405796136145506, ,7.189327967698848e-05, ,0.14568935567224536,-0.20900804250801214,0.09719712049000001,3.0230999152163878,0.2198481281225937,-0.07333408108523284, ,0.04501752445847759,0.04453164784536405,0.020265663511450382,-0.012066932427130994,0.03430448414160578,0.05816151316713667, ,1.6585378646850586
0.012558093321482536,0.02070129763916906,-0.08720077240980346, ,0.013011679824567681,0.02043808081648691,-0.08767491268396188, ,0.0007069885508994569, ,0.006859640839749861,0.0005607879944406471,-0.019842607155851517,-0.022330917270163887,0.008950905808595647,0.03386535484684466, ,0.0210023383071153, ,0.02405796136145506, ,7.248863061942556e-05, ,0.14568935567224536,-0.20900804250801214,0.09719712049000001,3.0230999152163878,0.2198481281225937,-0.07333408108523284, ,0.04501752445847759,0.04453164784536405,0.020265663511450382,-0.012066932427130994,0.03430448414160578,0.05816151316713667, ,1.6618459224700928
0.012558093321482536,0.02070129763916906,-0.08720077240980346, ,0.013038061387870179,0.02043453545890731,-0.08773306694212693, ,0.0007647672029522123, ,0.006859640839749861,0.0005607879944406471,-0.019842607155851517,-0.022330917270163887,0.008950905808595647,0.03386535484684466, ,0.0210023383071153, ,0.02405796136145506, ,7.314241747777299e-05, ,0.14568935567224536,-0.20900804250801214,0.09719712049000001,3.0230999152163878,0.2198481281225937,-0.07333408108523284, ,0.04501752445847759,0.04453164784536405,0.020265663511450382,-0.012066932427130994,0.03430448414160578,0.05816151316713667, ,1.665191888809204
0.012625976682600919,0.020700098724702284,-0.08738174337226949, ,0.013064470038298297,0.02043096938202342,-0.08779118434906415, ,0.0006575324627423856, ,0.006920673496055828,-0.0008665364723279105,-0.01642387587145359,-0.03726133082168582,-0.011287975889934947,-0.003589562610852022, ,0.017843494773664703, ,0.03893358420780632, ,7.368057287544334e-05, ,0.14616044237757306,-0.20853695580268444,0.09738119367,3.022890225272903,0.22012140112212455,-0.07274012949122005, ,0.05034320507080678,0.05047709657365467,0.016627151899791234,0.014479000098161459,0.01756901889078173,0.03768483704107289, ,1.668442964553833
