NicholasDascanio/dvrk_moveit_final/test/execution/third_experiment_notsharpbends/thirdexp_200vel4.0/thirdexp_200vel4.0_6.csv
Current Position (x),Current Position (y),Current Position (z), ,Planned Position (x),Planned Position (y),Planned Position (z), ,Position Error,,Cartesian linear Velocity(x),Cartesian linear Velocity(y),Cartesian linear Velocity(z),Cartesian Angular Velocity(x),Cartesian Angular Velocity(y),Cartesian Angular Velocity(z), ,Total Linear Velocity, ,Total Angular Velocity, ,MSE, ,Joint 1 Position,Joint 2 Position,Joint 3 Position,Joint 4 Position,Joint 5 Position,Joint 6 Position, ,Joint 1 Velocity,Joint 2 Velocity,Joint 3 Velocity,Joint 4 Velocity,Joint 5 Velocity,Joint 6 Velocity, ,Time Stamp
0.010186840097001285,0.019856428736047343,-0.08050791412389655, ,0.010339313020576649,0.019854750972902235,-0.08055670219366363, ,0.00016009710510933155, ,0.0013964937891442774,0.0006259366828399685,-0.001627979467153619,0.22404942587143648,-0.13208484572712798,-0.11978918096913427, ,0.0022343475064360574, ,0.26008566224240054, ,1.3341425425777629e-05, ,0.1788121569697943,-0.23365128310966254,0.09102807638,1.6991176120551008,0.49599049414854884,-1.2946635792099976, ,-0.00026176625893278654,-0.003537208466908989,0.0013466765445978345,0.006369090315778048,-0.13887623905895932,-0.24465570112817003, ,0.052308082580566406
0.010242381765262352,0.019889507380441162,-0.08054517489783763, ,0.010373584516991547,0.019971899001304347,-0.08063755089186254, ,0.00018037700940492864, ,0.0011566686877953728,0.000785668585089995,-0.0006398418924562948,-0.02300262133497005,-0.11363232926086772,-0.035859970459331, ,0.0015377110347089393, ,0.11593716764493674, ,1.5476096114284553e-05, ,0.1788121569697943,-0.2339601924246315,0.09105529847,1.69953699194207,0.48997848815886946,-1.3020946812085799, ,0.0006609516543044902,-0.007547519845927467,0.00047863269041285936,0.015474878726471736,-0.12085068335525337,0.024051535827240178, ,0.10468220710754395
0.010257758906376646,0.019972730321513706,-0.08060185713455068, ,0.01040937972699638,0.020085328088841392,-0.080721823444806, ,0.00022373878977248685, ,0.00043755704086614514,0.0018194092239189744,-0.001706122881515787,0.03567707884355136,-0.0006456339813882988,-0.022431972837327348, ,0.002532303570847049, ,0.03568292025650994, ,1.7631653258960843e-05, ,0.1789357206957819,-0.23471702024630553,0.09113437216,1.700375751716008,0.49066167065769667,-1.2966075439566602, ,0.0010269144559251614,-0.015385366659933654,0.0021181930212765964,0.018969587421625744,-0.004154911400939912,-0.018598030114190964, ,0.15706515312194824
0.010274190894692156,0.020054639596383064,-0.08066062422287655, ,0.010446681082673463,0.020195091993843478,-0.08080946746648267, ,0.00026764538492078416, ,0.00037953441999095196,0.002116386503632294,-0.001492826157296953,0.0007790580213333481,0.0032520587997108687,-0.007360753252070869, ,0.002617569128910406, ,0.003344072043178322, ,2.0289226566037346e-05, ,0.17898977982590147,-0.23548157080085375,0.09121214956000001,1.7007951316029768,0.4905250341579312,-1.2969045197536666, ,0.0011965674666264696,-0.019370675966211632,0.0019937442934979386,0.018942097056877046,0.0,0.022768759633142576, ,0.20438504219055176
0.010300634341114837,0.020171087269573347,-0.08075191421289775, ,0.010485471133139116,0.02030124411819335,-0.0809004309134807, ,0.00027048596133730067, ,0.0006698358442123051,0.0022310055969365305,-0.002056921997196291,0.005358586982726737,-0.003580511633702693,0.008392227238148127, ,0.0031075704552437286, ,0.006444727920844161, ,2.2046885010896635e-05, ,0.17910562081901482,-0.2365395852046225,0.09133140824000001,1.7014242014334306,0.4905250341579312,-1.295352623690996, ,0.00360012795103583,-0.019940521445360532,0.002602746980392157,0.0,0.0,0.015061711489621332, ,0.2514631748199463
0.010330698518931668,0.02025858289883963,-0.0808316196960174, ,0.010525732544204608,0.02040383750831994,-0.08099466208408851, ,0.00029277976859300295, ,0.0006947433939261423,0.0020989102936969633,-0.001793443448913339,0.02020665129327855,0.004333932189656282,-0.03066580075306302, ,0.0028468460107356104, ,0.020666197635127285, ,2.3646169815895504e-05, ,0.17927552094224777,-0.23728096756054806,0.09143251886,1.7022629612073688,0.4903883976581658,-1.2949961695668781, ,0.004219442972196378,-0.017241450137803555,0.0023213074205770917,0.03636412346703234,0.0,0.0032325566941726657, ,0.29929113388061523
0.010366912169761985,0.020357672560679194,-0.08092236187413508, ,0.010567448098037207,0.020502924856192765,-0.08109210961739403, ,0.0003002118988692384, ,0.000661264706704052,0.0018238832025055842,-0.0017577040427835613,0.01779267733250683,-0.004137369336383207,0.0021442180169917668, ,0.002617889312162013, ,0.018267380536562128, ,2.493141055892755e-05, ,0.17949948019560028,-0.23815363637533543,0.09154788867000001,1.7024726511508534,0.4902517611584003,-1.2936595705610732, ,0.004134103780501484,-0.01596516513433223,0.002217570864541278,0.0,0.0,-0.0022004406858970203, ,0.34744906425476074
0.01040154622416652,0.020439814397568746,-0.08102368912109674, ,0.010610600692819978,0.02059855850031421,-0.08119272249238421, ,0.0003122110530222312, ,0.0008941851299819255,0.0020840406632384244,-0.0027727818401556944,-0.004303182599696184,-0.0009253351739026601,-0.004723491016459522, ,0.0035820541126299647, ,0.00440154808067453, ,2.6415091724069797e-05, ,0.1796925485174559,-0.23878690047102183,0.09166973993000001,1.7028920310378222,0.4902517611584003,-1.2932511768603703, ,0.0045974405528289505,-0.01522492243838774,0.003288359108175062,0.015564627052191181,-4.666655348383874e-05,0.023208919002590894, ,0.38961219787597656
0.010441740189777605,0.02053922248608384,-0.0811441142463637, ,0.010655173342411336,0.02069079042671173,-0.08129645002704318, ,0.0003028741344924993, ,0.0007408453522461304,0.001932054022196234,-0.00213987497673457,0.025869657103648087,-0.0022679776472809728,-0.007907360945032482, ,0.0029767011097327385, ,0.025968882941397917, ,2.7505013160973855e-05, ,0.17990878503793417,-0.23955145102557007,0.09181492441000001,1.703521100868276,0.4902517611584003,-1.292189353238543, ,0.004182902910579091,-0.01562346749398597,0.002624186411861615,0.007981436190108403,3.892793230399958e-05,-0.009615698782738354, ,0.4325990676879883
0.010472662073968662,0.020613710592909545,-0.0812302723621982, ,0.010701149176004506,0.02077967226993015,-0.08140324187744992, ,0.00033116172369802486, ,0.0009870758284801825,0.0021634132748087915,-0.0028247721628524187,0.0015134679169180587,-0.0012427663690565737,-0.008345282838450135, ,0.0036924265003943774, ,0.0019583291867675315, ,2.8712856839345968e-05, ,0.18008640789404134,-0.24011521052538845,0.0919199239,1.704359860642214,0.4902517611584003,-1.2917809595378402, ,0.005569633045346588,-0.01575052971924826,0.0033718906689246407,0.01775678946652039,6.80087570549058e-05,0.0180307990468991, ,0.47521209716796875
0.010522715900845104,0.020706711993687725,-0.08136037124395704, ,0.010748511437786105,0.020865255314022904,-0.08151304803687612, ,0.00031532493085931933, ,0.0012132564930422741,0.002204583702278714,-0.003045923174089337,-0.006533195228001215,-0.0077799811986152,0.010615956017949929, ,0.003950927562069016, ,0.01015926902271058, ,2.986775515231463e-05, ,0.18040303994188456,-0.24080253375119443,0.09207418241000001,1.704359860642214,0.4902517611584003,-1.2909641721364344, ,0.007905997878932173,-0.016358721178843436,0.0036243029624573385,0.0,8.618264204479096e-05,0.023894707821711922, ,0.512902021408081
0.010558888250283232,0.020772756501727576,-0.0814479243359678, ,0.010797243486594083,0.020947590493541814,-0.08162581883488301, ,0.0003450023132020954, ,0.0013158534478804086,0.0020705429863799116,-0.0026778387140945366,-0.0010743206972748812,-0.0075956016302573415,0.00020821872614518725, ,0.0036317266876031962, ,0.00767120127153922, ,3.115009503095513e-05, ,0.1806424446609855,-0.24128134318939637,0.0921791819,1.704779240529183,0.4902517611584003,-1.2905557784357318, ,0.009862703050832897,-0.015323258769331627,0.00325077786122449,0.008963161388992884,9.281604637241744e-05,0.01870629195877668, ,0.5494811534881592
0.010616673493587712,0.02086015035484709,-0.08157162602216511, ,0.01084732879557626,0.021026728394528803,-0.08174150493641774, ,0.00033137434594018085, ,0.0014972746412689965,0.002153880682044835,-0.0030850540451875324,-0.011319524670231104,-0.006203081058518847,-0.006209727245524608, ,0.004049517478120212, ,0.012907743919797512, ,3.2152959462136504e-05, ,0.18105947223619362,-0.24188371635358588,0.09232695896000001,1.7054083103596365,0.4902517611584003,-1.289738991034326, ,0.011038423361006583,-0.014488082680682562,0.003687224888888889,0.019518660093939197,9.728196667706577e-05,0.03060256943143588, ,0.5862290859222412
0.010676076400373172,0.020944047732647516,-0.08170134711086137, ,0.010898750951847194,0.021102719255504273,-0.08186005734090972, ,0.00031614797984779, ,0.0015000467643752535,0.0020832947282097103,-0.0033987310388588574,0.003979380848112923,-0.00975315313667776,0.003427386407098191, ,0.004259299225741442, ,0.010533729994086053, ,3.291193665891012e-05, ,0.18148422254427599,-0.24244747585340426,0.09247992118000001,1.705618000303121,0.4902517611584003,-1.2893305973336233, ,0.010794892973874976,-0.01376315323545624,0.003910830228332925,0.0024866798991730484,9.873395614292696e-05,0.010546611254001009, ,0.6236422061920166
0.010723063190278832,0.021006536663590775,-0.0818044614495814, ,0.010951493656146156,0.021175612968458442,-0.08198142738136617, ,0.0003347898081132705, ,0.0015569601589671101,0.0020305630867821518,-0.0034132404070635544,0.014192099754177621,-0.007457041416837633,-0.011300257987191984, ,0.004265855302565304, ,0.01603194191798642, ,3.400176354906734e-05, ,0.18180857732499342,-0.24282588976424127,0.09259788357000001,1.70603738019009,0.4902517611584003,-1.2891672398533423, ,0.011062828346755746,-0.012244199049672062,0.003965350141896938,0.01446929101005896,9.861383722652994e-05,0.0004560123129315064, ,0.6550681591033936
0.010776135912349258,0.021076305719969882,-0.08193317530452768, ,0.01100554072249332,0.021245459079838342,-0.08210556672346765, ,0.0003331039288212604, ,0.0017423041841270119,0.0021196803790616272,-0.004099884843854236,-0.008756918129942993,-0.008249758271215286,-0.0033953719771292645, ,0.004933327934799288, ,0.012030882158412574, ,3.497974345457383e-05, ,0.18216382303720774,-0.24322747187370095,0.09274825321,1.7064567600770593,0.4902517611584003,-1.288432131192077, ,0.011676140493833876,-0.011320965121075766,0.00468908198999117,0.01360185930668991,9.769166691034293e-05,0.023522551760008538, ,0.6870942115783691
0.010828462337446493,0.02113644849146793,-0.08205096027352927, ,0.011060876077847157,0.021312306791538758,-0.08223242736466395, ,0.00034332578347060963, ,0.0018670858403453071,0.0021008687549750093,-0.004016701920664919,-0.001981216636486885,-0.010328505488236791,-0.004100610686588814, ,0.004902402817019573, ,0.010516807687491114, ,3.594675303966924e-05, ,0.18252679148229628,-0.24355182665441835,0.09288306737,1.7066664500205435,0.4902517611584003,-1.2881054162315149, ,0.013318868990662563,-0.011344208564121041,0.004621065134899913,0.011853890952445283,9.647093971235263e-05,0.016073848104931645, ,0.7187111377716064
0.010865336318107285,0.021179602312285453,-0.0821374040415503, ,0.011117483761760335,0.02137620496188985,-0.08236196163326714, ,0.0003907135103498527, ,0.0017800406731089198,0.0019622898256277947,-0.0037432427234038077,-0.008179374129570949,-0.011937163302716183,0.005297642123376793, ,0.004585955979291556, ,0.014470591837664713, ,3.742213587289656e-05, ,0.18277391893427147,-0.24377578590777088,0.09298158541000001,1.7068761399640284,0.4902517611584003,-1.2877787012709527, ,0.012916420519731969,-0.010960570183847605,0.004313244386677499,0.0034635649748358324,9.540879654278032e-05,0.02065501831678529, ,0.7452781200408936
0.010929694953559478,0.02125205926254035,-0.08229295797143842, ,0.011175347926036213,0.021437202106645233,-0.08249412218754851, ,0.0003675463201463024, ,0.002268023893435614,0.0024038336502072185,-0.005343537100328466,-0.006485740013674784,-0.011303362148636581,-0.00600762049085095, ,0.006282972015030001, ,0.013031915248022751, ,3.8641295607908857e-05, ,0.18320639197522803,-0.24411558615423676,0.09315788085000001,1.7072955198509974,0.4903883976581658,-1.2874000467338056, ,0.015048674525605897,-0.010672117248340324,0.006024512677760969,0.015268215749783588,0.0,0.020760794967927147, ,0.7719461917877197
0.010971591349641877,0.021294390526060837,-0.08239239664657731, ,0.011234452834384803,0.02149534639997137,-0.08262886201483123, ,0.0004066882021940925, ,0.0021693631573574874,0.002369316624361815,-0.0052899786325192304,-0.004452674348260498,-0.010934929610971542,-0.004170837896928497, ,0.00618899601773077, ,0.011806734955354585, ,4.003660099453989e-05, ,0.18348441035870014,-0.24430093174321815,0.09326936179,1.7072955198509974,0.4903883976581658,-1.287155010513384, ,0.013980103352750557,-0.01058218891409686,0.00595247067264574,0.012399350418707563,0.0,0.017988666358909198, ,0.7982051372528076
0.011048252026818594,0.021374717877756317,-0.0825703890702667, ,0.01129478286207829,0.02155068567543352,-0.08276613443058534, ,0.0003606360556565036, ,0.002411237954499044,0.002371774139409044,-0.0054861538092703934,0.019591699735248495,-0.011715959184378224,-0.018639363852135, ,0.006444941012961895, ,0.022827579660497106, ,4.105212663177916e-05, ,0.18399411072839894,-0.24464073198968403,0.09347028674,1.7081342796249355,0.4903883976581658,-1.2865015805922595, ,0.016294117712649513,-0.009593234902424207,0.006173957953488373,0.018993245673773917,0.0,-0.007160851001123403, ,0.8245470523834229
0.011098532233998827,0.021420604889111797,-0.0826847263740489, ,0.011356322495606783,0.021603267426984964,-0.08290589307752078, ,0.0003856632370952408, ,0.0025446238929258107,0.002342533921062018,-0.005783918899574514,-0.005922430078135804,-0.012146889559085562,-0.01059427335988942, ,0.006739161206309755, ,0.013513774362403329, ,4.2419131141458934e-05, ,0.18434935644061326,-0.24481835484579118,0.09359861945,1.7081342796249355,0.4905250341579312,-1.2864496410156747, ,0.0172039415443203,-0.008346870013048159,0.006472495538399026,0.018993245673773917,0.000414422743964616,0.018503164020633595, ,0.846127986907959
0.011151256891341001,0.02146745930957855,-0.08280576359429614, ,0.011419056332333965,0.021653138809954363,-0.08304809192468296, ,0.00040609904846480014, ,0.0027103409850086856,0.0024040463969991887,-0.006305027711894987,-0.004890370295600231,-0.01384114357981506,-0.007930600786972084, ,0.007271778446962363, ,0.014679678717911895, ,4.384336321313944e-05, ,0.1847046021528276,-0.24498825496902413,0.09373343361000001,1.7081342796249355,0.4905250341579312,-1.2862862835353936, ,0.017983123281878108,-0.007678661988425343,0.007010920563380283,0.015243608427760931,0.000414422743964616,0.01602129874119113, ,0.867347002029419
0.011207995989496403,0.02151887571608951,-0.08294418556391898, ,0.01148296908015188,0.021700346642032218,-0.08319268526654415, ,0.0004126669356174841, ,0.002762951955259259,0.00224682121087135,-0.005990230482768067,0.005146437248984629,-0.015848675491428436,-0.004984397499421065, ,0.006968857172978659, ,0.016663322702193627, ,4.523920722940372e-05, ,0.1850907387965388,-0.2451349868936344,0.09388769212,1.7085536595119044,0.4907983071574621,-1.2863457618625054, ,0.01939442909431244,-0.007073738381947633,0.006681548456375841,0.008232772170689337,0.0015990332640159978,0.0036081773563596967, ,0.8884680271148682
0.011265305374220814,0.02156239090311929,-0.08306273412143995, ,0.011548045557136195,0.02174493740425848,-0.08333962772209833, ,0.00043581567456751826, ,0.0031624341755050137,0.0023086002462735828,-0.0069085804477852005,-0.0022361112202646197,-0.019043485698154738,-0.0013193583923075537, ,0.007940976565575325, ,0.019174319419145356, ,4.697387805529567e-05, ,0.18550004363887274,-0.24525082788674776,0.09401991370000001,1.7089730393988736,0.4907983071574621,-1.2861007256420836, ,0.022017851869714798,-0.005154253906560288,0.00763239651173934,0.00579693220300754,0.0015990332640159978,0.008946906934954825, ,0.904332160949707
0.011296268187880857,0.021586438936919153,-0.08313537940029643, ,0.01161427069120145,0.02178695724200997,-0.0834888742339541, ,0.0005160346695885067, ,0.003493236197977179,0.002677320940684218,-0.008005946413831988,-0.013108599548770318,-0.01772564803142275,0.0036932528938638004, ,0.00913596872452142, ,0.022046177613680308, ,4.9105202120196914e-05, ,0.18597113034420043,-0.2453589461469869,0.0942013943,1.7089730393988736,0.4913448531565239,-1.2859746460758854, ,0.023600333638018098,-0.003793940818612685,0.01047259140039448,0.00579693220300754,0.015688912176202933,0.032056591269809, ,0.9203181266784668
0.011369549024536586,0.02164395990192045,-0.08332412197121865, ,0.011681629519755531,0.02182645196598688,-0.08364038006742765, ,0.0004803298578696406, ,0.0036835395090323245,0.0029695690120664217,-0.010069568754860127,0.009131077765224774,0.011802760988284668,0.003927363088232601, ,0.011125781695722892, ,0.014922521387955287, ,5.0965616933096634e-05, ,0.18621053506330137,-0.2453898370784838,0.09430769008,1.7089730393988736,0.4914814896562893,-1.2859227064993006, ,0.024276526364407976,-0.003130202722090307,0.011038677422037424,0.00579693220300754,0.03609168818200145,-0.0018310725564368979, ,0.9364421367645264
0.011452573597849349,0.021706046601558542,-0.08354166526108982, ,0.011750107189354372,0.02186346705319894,-0.08379410080963602, ,0.00042075068964693, ,0.004141838304967562,0.002882055358398581,-0.010483000262358102,-0.020317186341568098,-0.02152046958436198,-0.003746396285929394, ,0.011634189362992617, ,0.02959592109347365, ,5.243734132236938e-05, ,0.18671251270012598,-0.24543617347572913,0.09454361486000001,1.709182729342358,0.49161812615605477,-1.2854623732220132, ,0.02518496325861751,-0.0008988067620889062,0.011337232398576515,0.012500373831119991,0.000568545554612438,0.02478027308944003, ,0.9523060321807861
0.011494546102436547,0.021737209061459706,-0.08364973735322676, ,0.011819688955357009,0.021898047647953674,-0.08394999236858992, ,0.00047089276906889466, ,0.004282167035140303,0.0029414899083641897,-0.010501087416910273,0.020197650014857117,0.018106316732921575,-0.0020776810583909727, ,0.011715893236772086, ,0.027125332146561366, ,5.442657005293545e-05, ,0.18701369928222072,-0.2454516189414776,0.09466287354000001,1.7093924192858423,0.4921646721551165,-1.2855813298762366, ,0.031236649624249765,-0.0009565488478525512,0.011576171162790699,0.011229000669414136,0.04856611662654024,-0.013510796232617991, ,0.962785005569458
0.011540976419588206,0.021768086725078642,-0.0837664672387453, ,0.011890360181579372,0.021930238562840976,-0.08410801097228597, ,0.0005147954482643608, ,0.004877690023594022,0.003373160651707244,-0.01227117505605108,0.01605030874670489,0.012501728731160134,-0.00046008119165962766, ,0.013629079572911184, ,0.020344664015040773, ,5.6609055580669264e-05, ,0.18732260859718972,-0.2454516189414776,0.09478990996000002,1.7093924192858423,0.49243794515464734,-1.285722486943489, ,0.03392811639559198,-0.0007288405630702363,0.01345338810810811,0.009949963908300353,0.045844225999078975,-0.009878702756976965, ,0.9734280109405518
0.011592448115940908,0.02180213346225585,-0.08389301890959976, ,0.01196210633994929,0.021960084279720966,-0.08426811316780024, ,0.000549810299876147, ,0.005567129825894466,0.003640196885192546,-0.013800288727019855,-0.02717270229463263,-0.02915876994709653,0.001888253079218464, ,0.015319658508284073, ,0.03985710870444622, ,5.893135445681187e-05, ,0.18765468611078137,-0.24545934167435182,0.09492731670000001,1.7093924192858423,0.4925745816544128,-1.2856705473669043, ,0.03445785822747668,0.0002508095551160086,0.01491461752808989,0.008946218414699387,0.003152730040630792,0.03039878091550214, ,0.9841690063476562
0.011650481503890857,0.02183918144542764,-0.08403541410657235, ,0.012034913010160454,0.021987628950709583,-0.08443025582038007, ,0.0005707225453753836, ,0.006145993836597211,0.003884233002957946,-0.015127454867555267,-0.01940540592128859,-0.03663765314223696,0.005270178474306631, ,0.01678393270454455, ,0.04145945748018051, ,6.131482728029481e-05, ,0.18802537728874413,-0.24544389620860338,0.09508157521,1.7096021092293272,0.49271121815417823,-1.285536929050179, ,0.03797396620987226,0.0010163878667353654,0.01632050360655738,0.0011111227286526226,0.001041964335580355,0.019718549251551736, ,0.9946320056915283
0.011711362227242287,0.02188219648247912,-0.08420252126989725, ,0.01210876587932653,0.02201291639916498,-0.08459439611253718, ,0.0005732218171025271, ,0.0058549762715395725,0.004171601404586165,-0.01634852638860811,0.06447141402709862,0.030858776923823168,-0.009553315126660892, ,0.017859376262850068, ,0.07147605313684942, ,6.366166146020074e-05, ,0.18841151393245537,-0.2454207280099807,0.09526305581000001,1.7098117991728115,0.49325776415324,-1.285737564444543, ,0.03815719403235657,0.002224346136449773,0.01779755477094972,0.008236087728691133,0.06997409367311931,-0.06198469626469873, ,1.0050630569458008
0.011711362227242287,0.02188219648247912,-0.08420252126989725, ,0.012183650741635868,0.022035990120674153,-0.08476049154313947, ,0.0007470205819114789, ,0.0058549762715395725,0.004171601404586165,-0.01634852638860811,0.06447141402709862,0.030858776923823168,-0.009553315126660892, ,0.017859376262850068, ,0.07147605313684942, ,6.720238125528507e-05, ,0.18841151393245537,-0.2454207280099807,0.09526305581000001,1.7098117991728115,0.49325776415324,-1.285737564444543, ,0.03815719403235657,0.002224346136449773,0.01779755477094972,0.008236087728691133,0.06997409367311931,-0.06198469626469873, ,1.0103909969329834
0.011774335081028778,0.02192304469569771,-0.08436773859076621, ,0.012259553498004777,0.022056893284038235,-0.0849284999265038, ,0.0007535287867305701, ,0.006702097254242839,0.004215249824483659,-0.017107485759917027,0.004900944471364788,-0.010597507953223539,-0.0017806064689208784, ,0.01885079594377656, ,0.011675828288187444, ,0.00038121078802779416, ,0.18881309604191504,-0.2453898370784838,0.09544194383000001,1.7098117991728115,0.49366767365253633,-1.2859901394154916, ,0.04247848771641485,0.0036934350113400575,0.018500361811846694,0.008236087728691133,0.031117953139241775,-0.004427326292779206, ,1.017834186553955
0.011849484668118014,0.021967545182505117,-0.08455728069506095, ,0.012336460155732127,0.022075668732259097,-0.0850983793914878, ,0.0007359508317973703, ,0.007734276784531287,0.00465564824130759,-0.019843783554140838,0.023319029156706604,-0.01589262022119326,-0.009349562975672793, ,0.021800684477101182, ,0.028219663735460664, ,0.00039079835677832323, ,0.18929962821299118,-0.24532805521549,0.09564675765000001,1.7098117991728115,0.49407758315183264,-1.2859976781660187, ,0.04817103632409685,0.006711978372754614,0.02138095506040269,0.008236087728691133,0.03160545204486214,-0.02692414952017081, ,1.023271083831787
0.011849484668118014,0.021967545182505117,-0.08455728069506095, ,0.012414356828152971,0.02209235898352529,-0.08527008838058278, ,0.0009180162518423343, ,0.007734276784531287,0.00465564824130759,-0.019843783554140838,0.023319029156706604,-0.01589262022119326,-0.009349562975672793, ,0.021800684477101182, ,0.028219663735460664, ,0.00040467251191158665, ,0.18929962821299118,-0.24532805521549,0.09564675765000001,1.7098117991728115,0.49407758315183264,-1.2859976781660187, ,0.04817103632409685,0.006711978372754614,0.02138095506040269,0.008236087728691133,0.03160545204486214,-0.02692414952017081, ,1.0285630226135254
0.011930988929619607,0.02201829288858817,-0.08477286042800922, ,0.012493229734292408,0.022107006232197378,-0.08544358564900482, ,0.0008796914810619976, ,0.009056477178449205,0.0056758844181375645,-0.024154697351772052,0.049431166707369245,0.03217515351784116,-0.0009260140889350105, ,0.02641372459475437, ,0.058980272323637, ,0.0004168524854795459, ,0.18982477404843845,-0.24525855061962198,0.09588008985,1.7098117991728115,0.4947607656506599,-1.2864730889443603, ,0.05931058847404423,0.008446498935375859,0.02619870315789474,0.008236087728691133,0.09330292868163938,-0.05035163133932463, ,1.0338129997253418
0.011930988929619607,0.02201829288858817,-0.08477286042800922, ,0.012573065198519499,0.022119652349794537,-0.08561883026378783, ,0.0010668648642202761, ,0.009056477178449205,0.0056758844181375645,-0.024154697351772052,0.049431166707369245,0.03217515351784116,-0.0009260140889350105, ,0.02641372459475437, ,0.058980272323637, ,0.0004331027949480641, ,0.18982477404843845,-0.24525855061962198,0.09588008985,1.7098117991728115,0.4947607656506599,-1.2864730889443603, ,0.05931058847404423,0.008446498935375859,0.02619870315789474,0.008236087728691133,0.09330292868163938,-0.05035163133932463, ,1.0390491485595703
0.0120288015387735,0.022080488607411446,-0.0850460241832862, ,0.012653849650200985,0.022130338885980073,-0.08579578160287513, ,0.0009773977594107097, ,0.010983768014087071,0.007067837562398924,-0.030868722170932915,0.061661494703602285,0.009121122996310264,-0.012279181911781751, ,0.03351828599528897, ,0.06233222910920086, ,0.0004463782818861774, ,0.19041942447975374,-0.24515043235938283,0.09617434768000001,1.7098117991728115,0.49558058464925253,-1.2869782388862576, ,0.06390366434913858,0.011826774326992109,0.03297890583850932,0.008236087728691133,0.07635713065519223,-0.06999994263233376, ,1.0443120002746582
0.0120288015387735,0.022080488607411446,-0.0850460241832862, ,0.012735569623354932,0.022139107069546828,-0.08597439935421124, ,0.0011682626877017462, ,0.010983768014087071,0.007067837562398924,-0.030868722170932915,0.061661494703602285,0.009121122996310264,-0.012279181911781751, ,0.03351828599528897, ,0.06233222910920086, ,0.00046356600583416713, ,0.19041942447975374,-0.24515043235938283,0.09617434768000001,1.7098117991728115,0.49558058464925253,-1.2869782388862576, ,0.06390366434913858,0.011826774326992109,0.03297890583850932,0.008236087728691133,0.07635713065519223,-0.06999994263233376, ,1.0495259761810303
0.012143198137250105,0.022153238250355874,-0.08536591500204657, ,0.012818211756304215,0.02214599780940315,-0.08615464351483403, ,0.001038165919676439, ,0.012575243273006905,0.007907207534237138,-0.0354243557140203,0.03301675411881772,-0.012768536753966877,-0.008759589789941232, ,0.03841283186798709, ,0.03539895195285817, ,0.0004769287945281735, ,0.19108357950693705,-0.24502686863339523,0.09651786453000001,1.7098117991728115,0.49626376714807974,-1.2873719709244587, ,0.0705553468836214,0.01540034754275735,0.03792574171428572,0.007632007085820949,0.058342480245466476,-0.04371186447926552, ,1.0547981262207031
0.012143198137250105,0.022153238250355874,-0.08536591500204657, ,0.01290176279133061,0.022151051695559025,-0.08633647438996704, ,0.0012318322292109067, ,0.012575243273006905,0.007907207534237138,-0.0354243557140203,0.03301675411881772,-0.012768536753966877,-0.008759589789941232, ,0.03841283186798709, ,0.03539895195285817, ,0.0004940856907709629, ,0.19108357950693705,-0.24502686863339523,0.09651786453000001,1.7098117991728115,0.49626376714807974,-1.2873719709244587, ,0.0705553468836214,0.01540034754275735,0.03792574171428572,0.007632007085820949,0.058342480245466476,-0.04371186447926552, ,1.0601201057434082
0.012279184775535473,0.022235216455988728,-0.08575127100879582, ,0.01298620957432775,0.022154309000110544,-0.08651985259211037, ,0.0010474482005016989, ,0.013227655481607859,0.0077959067809448435,-0.03729731719231952,0.04374761211629108,0.012784509329526347,-0.00569976741009052, ,0.040334066269368196, ,0.04557658466228607, ,0.0005063826354316459, ,0.1918558527943595,-0.24481835484579118,0.09693008475,1.7098117991728115,0.49708358614667236,-1.2881221570867778, ,0.07616126930856403,0.022094747743532196,0.03992183338345865,0.006953028591233803,0.09097724083507341,-0.05898482710199085, ,1.0654351711273193
0.012279184775535473,0.022235216455988728,-0.08575127100879582, ,0.013071539054455138,0.02215580967822685,-0.08670473904013348, ,0.0012422689026373294, ,0.013227655481607859,0.0077959067809448435,-0.03729731719231952,0.04374761211629108,0.012784509329526347,-0.00569976741009052, ,0.040334066269368196, ,0.04557658466228607, ,0.0005223801629795956, ,0.1918558527943595,-0.24481835484579118,0.09693008475,1.7098117991728115,0.49708358614667236,-1.2881221570867778, ,0.07616126930856403,0.022094747743532196,0.03992183338345865,0.006953028591233803,0.09097724083507341,-0.05898482710199085, ,1.0708811283111572
0.012420430251475708,0.022311973545844153,-0.0861379252516723, ,0.013157738283791052,0.0221555933691342,-0.08689109495836625, ,0.0010655245193171357, ,0.014367780992602438,0.007409978541629246,-0.03826390074299761,0.045983107581621184,0.00879511832651909,-0.007593527040336632, ,0.04153874110645106, ,0.04681579075746311, ,0.0005339364258803943, ,0.19268990794477575,-0.24454805919519332,0.09734360126000001,1.7098117991728115,0.4980400416450304,-1.2889020824126525, ,0.08682245339292843,0.02914525232139766,0.04094810159383034,0.006403767850447386,0.09806988940276813,-0.0680810895950866, ,1.0762569904327393
0.01257202204630023,0.022381812755011627,-0.08652263343335659, ,0.013244794416986767,0.022153699397103172,-0.08707888187569121, ,0.0009022586638071969, ,0.01527823723054467,0.006369391173384257,-0.037290805926779365,0.02404675786959083,-0.01847972929992885,-0.009549111315806534, ,0.04079948386268029, ,0.03032614131109445, ,0.0005416098058372026, ,0.19362435862255692,-0.24420825894872744,0.09775452519000001,1.7098117991728115,0.49885986064362303,-1.289570589834831, ,0.096734904748696,0.03762765327457208,0.039822028800000006,0.00593757665643996,0.08007800689411433,-0.055529048889509984, ,1.0815720558166504
0.01257202204630023,0.022381812755011627,-0.08652263343335659, ,0.01333269471091943,0.02215016677243306,-0.08726806162463535, ,0.001089929333625255, ,0.01527823723054467,0.006369391173384257,-0.037290805926779365,0.02404675786959083,-0.01847972929992885,-0.009549111315806534, ,0.04079948386268029, ,0.03032614131109445, ,0.0005528000002818568, ,0.19362435862255692,-0.24420825894872744,0.09775452519000001,1.7098117991728115,0.49885986064362303,-1.289570589834831, ,0.096734904748696,0.03762765327457208,0.039822028800000006,0.00593757665643996,0.08007800689411433,-0.055529048889509984, ,1.0870530605316162
0.012724676750538639,0.022438966409597125,-0.08687871210963362, ,0.013421426524345092,0.022145034192436793,-0.08745859634046126, ,0.0009529544148314191, ,0.015509526311203944,0.005003695541416975,-0.034268422285244085,0.03582879573954859,-0.012940529293750334,-0.003021105315454735, ,0.03794610838266471, ,0.038093472473242705, ,0.000560803088572848, ,0.19455880930033806,-0.24382984503789046,0.09810970865000002,1.7100214891162964,0.4996796796422157,-1.2901574185168692, ,0.10591176513222186,0.04259288220757216,0.036787093579676675,-0.0033964493051276243,0.09483782776467486,-0.07114165132882568, ,1.0926721096038818
0.012724676750538639,0.022438966409597125,-0.08687871210963362, ,0.013510977317553137,0.022138340042428303,-0.08765044846025938, ,0.001142025301471736, ,0.015509526311203944,0.005003695541416975,-0.034268422285244085,0.03582879573954859,-0.012940529293750334,-0.003021105315454735, ,0.03794610838266471, ,0.038093472473242705, ,0.0005721996025512576, ,0.19455880930033806,-0.24382984503789046,0.09810970865000002,1.7100214891162964,0.4996796796422157,-1.2901574185168692, ,0.10591176513222186,0.04259288220757216,0.036787093579676675,-0.0033964493051276243,0.09483782776467486,-0.07114165132882568, ,1.097944974899292
0.012871618379644137,0.022476067389723374,-0.08718934016376154, ,0.013601334652018321,0.022130122396705552,-0.08784358072203935, ,0.0010393240517073774, ,0.015461497034711393,0.0031301699205864785,-0.03179111591457545,0.047377370139313535,0.003297249065955244,-0.005847150027358331, ,0.03548987046158532, ,0.04749162641180192, ,0.0005811827650350291, ,0.19567860556710062,-0.24332014466819163,0.09846748469000001,1.7098117991728115,0.5007727716403392,-1.2909670830062998, ,0.1131072009040176,0.05720129087309873,0.033963350788912584,-0.004730397009923666,0.12252748955999025,-0.09848526317378538, ,1.10341215133667
0.012871618379644137,0.022476067389723374,-0.08718934016376154, ,0.013692486190055144,0.0221204190195382,-0.0880379561638221, ,0.001233068871127284, ,0.015461497034711393,0.0031301699205864785,-0.03179111591457545,0.047377370139313535,0.003297249065955244,-0.005847150027358331, ,0.03548987046158532, ,0.04749162641180192, ,0.0005934825028858264, ,0.19567860556710062,-0.24332014466819163,0.09846748469000001,1.7098117991728115,0.5007727716403392,-1.2909670830062998, ,0.1131072009040176,0.05720129087309873,0.033963350788912584,-0.004730397009923666,0.12252748955999025,-0.09848526317378538, ,1.108640193939209
0.013032952579628354,0.022502578472606463,-0.08751682681078923, ,0.01378441969447046,0.022109267366151323,-0.08823353812273108, ,0.0011104375515153839, ,0.016193301758221746,0.002027245578590255,-0.03148355232642496,0.024554796523096813,-0.01777053056135155,-0.0028532594844889957, ,0.03546190651332046, ,0.03031004546292779, ,0.0006030557445271145, ,0.19686018369685698,-0.24267915783963098,0.09881618670000002,1.7096021092293272,0.5020025001382282,-1.2919698441395677, ,0.11981937065463481,0.06759041421543502,0.03346388974789917,-0.010245169629110549,0.10890314977093617,-0.08759011085956028, ,1.1139190196990967
0.013032952579628354,0.022502578472606463,-0.08751682681078923, ,0.013877123028216936,0.02209670458371147,-0.08843029023408393, ,0.0013083473490072327, ,0.016193301758221746,0.002027245578590255,-0.03148355232642496,0.024554796523096813,-0.01777053056135155,-0.0028532594844889957, ,0.03546190651332046, ,0.03031004546292779, ,0.0006158792282449348, ,0.19686018369685698,-0.24267915783963098,0.09881618670000002,1.7096021092293272,0.5020025001382282,-1.2919698441395677, ,0.11981937065463481,0.06759041421543502,0.03346388974789917,-0.010245169629110549,0.10890314977093617,-0.08759011085956028, ,1.119246006011963
0.013198883100035124,0.022517038395883066,-0.08784189492942765, ,0.013970584154046117,0.0220827675123118,-0.08862817643048443, ,0.0011842095743505652, ,0.016343217776232,0.0010137059640691038,-0.03229719178940763,0.06637244263537549,0.035145106241329264,0.040573340063444006, ,0.03621100612444667, ,0.07510289270271775, ,0.0006260279844253925, ,0.19810354368960711,-0.24193777548370543,0.09916099984000001,1.7089730393988736,0.5033688651358826,-1.2931657019166725, ,0.1255250549715222,0.07855707082654866,0.034329335172413794,-0.05782320846176203,0.18172710557551044,-0.14590119492846446, ,1.1245691776275635
0.013198883100035124,0.022517038395883066,-0.08784189492942765, ,0.014064791134161777,0.02206749268595752,-0.08882716094091388, ,0.001386591930694653, ,0.016343217776232,0.0010137059640691038,-0.03229719178940763,0.06637244263537549,0.035145106241329264,0.040573340063444006, ,0.03621100612444667, ,0.07510289270271775, ,0.0006393712115529234, ,0.19810354368960711,-0.24193777548370543,0.09916099984000001,1.7089730393988736,0.5033688651358826,-1.2931657019166725, ,0.1255250549715222,0.07855707082654866,0.034329335172413794,-0.05782320846176203,0.18172710557551044,-0.14590119492846446, ,1.1298980712890625
0.013362913656760211,0.022524882357586637,-0.08816622044505143, ,0.01415973212987308,0.022050916333550927,-0.08902720828982252, ,0.0012652523621308586, ,0.017218648019127362,0.00040043959840345964,-0.03393051988497106,0.011273971501791102,-0.008749183326614056,0.03883985172927255, ,0.03805157514667408, ,0.014269045841690763, ,0.0006501622658732326, ,0.19933918094948305,-0.24111144306616342,0.09950451669000002,1.7087633494553889,0.5050085031330679,-1.29458439550117, ,0.12652925541129437,0.08860592115636862,0.03571482403587444,-0.0561110108012149,0.1365260050185875,-0.1021755918589209, ,1.1352272033691406
0.013362913656760211,0.022524882357586637,-0.08816622044505143, ,0.014255395401247404,0.022033074379876883,-0.08922828329622141, ,0.0014718614917909826, ,0.017218648019127362,0.00040043959840345964,-0.03393051988497106,0.011273971501791102,-0.008749183326614056,0.03883985172927255, ,0.03805157514667408, ,0.014269045841690763, ,0.0006640893713972623, ,0.19933918094948305,-0.24111144306616342,0.09950451669000002,1.7087633494553889,0.5050085031330679,-1.29458439550117, ,0.12652925541129437,0.08860592115636862,0.03571482403587444,-0.0561110108012149,0.1365260050185875,-0.1021755918589209, ,1.1404540538787842
0.013557742190840017,0.022527876326488082,-0.08853910478524527, ,0.014351769306764326,0.02201400244658867,-0.08943035107277456, ,0.0012995635306904754, ,0.01949703660311011,-8.985418823194746e-05,-0.037579371048724636,-0.04423807446665073,-0.06829822334514693,0.015226622254503297, ,0.042336174112641324, ,0.08137308891015345, ,0.0006746806073854825, ,0.20074471833259191,-0.24009976505964,0.09989599627000001,1.7087633494553889,0.5061015951311915,-1.2953940599906009, ,0.1371343086105069,0.10359928117736984,0.03923352591133005,-0.03590728929865774,0.08052203344787905,-0.06026753371129774, ,1.1457080841064453
0.013557742190840017,0.022527876326488082,-0.08853910478524527, ,0.014448842302967406,0.02199373585319165,-0.08963337702488851, ,0.0015089059578053967, ,0.01949703660311011,-8.985418823194746e-05,-0.037579371048724636,-0.04423807446665073,-0.06829822334514693,0.015226622254503297, ,0.042336174112641324, ,0.08137308891015345, ,0.0006883564328022024, ,0.20074471833259191,-0.24009976505964,0.09989599627000001,1.7087633494553889,0.5061015951311915,-1.2953940599906009, ,0.1371343086105069,0.10359928117736984,0.03923352591133005,-0.03590728929865774,0.08052203344787905,-0.06026753371129774, ,1.1509602069854736
0.013747004269441527,0.022524188361932575,-0.08890747107640218, ,0.014546602944118619,0.02197230961803017,-0.08983732684980666, ,0.0013448271070477102, ,0.01964818406948525,-0.0006240253059424141,-0.03874403496237714,0.008210871571837771,-0.004493047289474727,-0.011241537082066252, ,0.043445837429801404, ,0.00935513676571817, ,0.0006989446694835816, ,0.20208847385270698,-0.23904947338874546,0.1002809944,1.7085536595119044,0.5071946871293149,-1.2962037244800317, ,0.1403800910628266,0.11324217369745916,0.040531327022900764,-0.011193369070493744,0.1441479592721351,-0.1146122189297668, ,1.156144142150879
0.013747004269441527,0.022524188361932575,-0.08890747107640218, ,0.014645039881850251,0.021949758459271437,-0.09004216653569853, ,0.0015569108707865604, ,0.01964818406948525,-0.0006240253059424141,-0.03874403496237714,0.008210871571837771,-0.004493047289474727,-0.011241537082066252, ,0.043445837429801404, ,0.00935513676571817, ,0.0007125631806153749, ,0.20208847385270698,-0.23904947338874546,0.1002809944,1.7085536595119044,0.5071946871293149,-1.2962037244800317, ,0.1403800910628266,0.11324217369745916,0.040531327022900764,-0.011193369070493744,0.1441479592721351,-0.1146122189297668, ,1.1620020866394043
0.013943098209129444,0.022510559944792074,-0.08929704066065827, ,0.014744141864819036,0.021926116795892094,-0.09024786236075288, ,0.0013737927929595051, ,0.019312522781419504,-0.001712065418352764,-0.037763437175612584,0.049480222013436305,0.03536078044120142,0.020147803171852927, ,0.04244975726074303, ,0.06081611928225299, ,0.0007228948933082519, ,0.20350945670156428,-0.2378601725261149,0.10068802946000001,1.707924589681451,0.5089709616262656,-1.2975704784879447, ,0.1424879002379441,0.11981937065463481,0.039525586898263035,-0.049461983094057,0.19705017867971125,-0.16809882066991866, ,1.1681950092315674
0.01413241819664454,0.02248463967380942,-0.08965315698785552, ,0.014843897738358534,0.02190141874866239,-0.09045438089226832, ,0.0012199629218994316, ,0.018205741008040403,-0.003598132921350286,-0.03206849953766417,-0.04140901847109128,-0.04611666591177926,0.043297303759302824, ,0.037051102935927775, ,0.06197918820418799, ,0.0007305420937481162, ,0.20490727135179893,-0.23663998073198741,0.10105876840000001,1.7072955198509974,0.5106105996234509,-1.2989891720724422, ,0.1346055908630791,0.12197550328852286,0.03311603226611227,-0.07127052047775742,0.10930536350127497,-0.08719918500188913, ,1.1734590530395508
0.01413241819664454,0.02248463967380942,-0.08965315698785552, ,0.014944296444132154,0.021875698141131356,-0.090661688985745, ,0.0014307665322234886, ,0.018205741008040403,-0.003598132921350286,-0.03206849953766417,-0.04140901847109128,-0.04611666591177926,0.043297303759302824, ,0.037051102935927775, ,0.06197918820418799, ,0.0007411515549371369, ,0.20490727135179893,-0.23663998073198741,0.10105876840000001,1.7072955198509974,0.5106105996234509,-1.2989891720724422, ,0.1346055908630791,0.12197550328852286,0.03311603226611227,-0.07127052047775742,0.10930536350127497,-0.08719918500188913, ,1.1788370609283447
0.014330346809461826,0.02243608501376863,-0.09000006953626648, ,0.015045327019786487,0.02184898850061264,-0.09086975378397687, ,0.0012697360779435239, ,0.020041887180029423,-0.004932420190437944,-0.03729171971427255,-0.029111836655257444,-0.010585166791002276,0.006318151995145842, ,0.042622510131618614, ,0.030975355823348785, ,0.0007490408761760383, ,0.20636686786502734,-0.23518810695163322,0.10141524815000001,1.7072955198509974,0.5118403281213398,-1.29999193320571, ,0.14465997188791277,0.15039134953798858,0.03829041230769231,-0.0389501685117389,0.14873915734933088,-0.11919381268527102, ,1.184084177017212
0.014330346809461826,0.02243608501376863,-0.09000006953626648, ,0.015146978598604244,0.02182132305916933,-0.09107854271614213, ,0.0014859085232852662, ,0.020041887180029423,-0.004932420190437944,-0.03729171971427255,-0.029111836655257444,-0.010585166791002276,0.006318151995145842, ,0.042622510131618614, ,0.030975355823348785, ,0.0007598771651041151, ,0.20636686786502734,-0.23518810695163322,0.10141524815000001,1.7072955198509974,0.5118403281213398,-1.29999193320571, ,0.14465997188791277,0.15039134953798858,0.03829041230769231,-0.0389501685117389,0.14873915734933088,-0.11919381268527102, ,1.189357042312622
0.01452715229310253,0.02239399868385198,-0.09038406168440986, ,0.015249240409157046,0.021792734754599204,-0.0912880234968958, ,0.0013038698241774381, ,0.019701534738758353,-0.0038614290851059032,-0.039300454108403785,0.04739919482082055,0.06298952586231385,-0.017482490662881586, ,0.04413147174940527, ,0.07883064305487408, ,0.0007677611166848879, ,0.20778012798101042,-0.233736233171279,0.10181191289000001,1.7068761399640284,0.513753239118056,-1.3014701051173194, ,0.1407966491965442,0.14465997188791277,0.04073864838874681,-0.016736025918385872,0.2156697892251422,-0.18331586010043244, ,1.1946191787719727
0.01452715229310253,0.02239399868385198,-0.09038406168440986, ,0.01535210177495855,0.021763256231419306,-0.09149816412546065, ,0.0015230239453372424, ,0.019701534738758353,-0.0038614290851059032,-0.039300454108403785,0.04739919482082055,0.06298952586231385,-0.017482490662881586, ,0.04413147174940527, ,0.07883064305487408, ,0.0007785505856656359, ,0.20778012798101042,-0.233736233171279,0.10181191289000001,1.7068761399640284,0.513753239118056,-1.3014701051173194, ,0.1407966491965442,0.14465997188791277,0.04073864838874681,-0.016736025918385872,0.2156697892251422,-0.18331586010043244, ,1.1999120712280273
0.01452715229310253,0.02239399868385198,-0.09038406168440986, ,0.015455552114117511,0.021732919841852213,-0.0917089328847187, ,0.001747637021926511, ,0.019701534738758353,-0.0038614290851059032,-0.039300454108403785,0.04739919482082055,0.06298952586231385,-0.017482490662881586, ,0.04413147174940527, ,0.07883064305487408, ,0.0007921996904017046, ,0.20778012798101042,-0.233736233171279,0.10181191289000001,1.7068761399640284,0.513753239118056,-1.3014701051173194, ,0.1407966491965442,0.14465997188791277,0.04073864838874681,-0.016736025918385872,0.2156697892251422,-0.18331586010043244, ,1.2053840160369873
0.01452715229310253,0.02239399868385198,-0.09038406168440986, ,0.015559580938990342,0.021701757646809816,-0.09192029834030327, ,0.001976140082363977, ,0.019701534738758353,-0.0038614290851059032,-0.039300454108403785,0.04739919482082055,0.06298952586231385,-0.017482490662881586, ,0.04413147174940527, ,0.07883064305487408, ,0.0008086433069567361, ,0.20778012798101042,-0.233736233171279,0.10181191289000001,1.7068761399640284,0.513753239118056,-1.3014701051173194, ,0.1407966491965442,0.14465997188791277,0.04073864838874681,-0.016736025918385872,0.2156697892251422,-0.18331586010043244, ,1.2110581398010254
0.014843408119590683,0.022321166742537098,-0.09101716104885478, ,0.015664177855834648,0.021669801416879728,-0.09213222933969016, ,0.0015301362817178262, ,0.020336809938951147,-0.005018942343715915,-0.04119464661486101,-0.022750904566835886,0.0008348316545478484,0.05765621832443924, ,0.04621444071354588, ,0.022763610652510122, ,0.0008185267723644223, ,0.21001199778166132,-0.23138079964464053,0.10246524305000002,1.7051986204161522,0.5170325151124266,-1.3041441348060334, ,0.1375317993601026,0.15506036202364507,0.04225148944297083,-0.09805282633777386,0.16676414908183376,-0.14218223504378913, ,1.2165122032165527
0.014968985527048805,0.022291625533366572,-0.09127433293179105, ,0.015769332564461787,0.021637082633309577,-0.09234469501128903, ,0.0014881722916174746, ,0.019551012083295904,-0.005109620071080884,-0.040023898247373485,-0.06861947092959926,-0.03958971671433187,0.014906064244619875, ,0.0448359534488571, ,0.07922041879412063, ,0.0008275760361381123, ,0.21083060746632912,-0.23040773530248826,0.10272838992000001,1.7051986204161522,0.5178523341110194,-1.304812642228212, ,0.1251938542987741,0.15355492161564852,0.04073864838874681,-0.05232586693060378,0.10114185625620224,-0.08828937946040179, ,1.2217509746551514
0.014968985527048805,0.022291625533366572,-0.09127433293179105, ,0.015875034857889683,0.021603632488992233,-0.09255766476353547, ,0.0017149928307118858, ,0.019551012083295904,-0.005109620071080884,-0.040023898247373485,-0.06861947092959926,-0.03958971671433187,0.014906064244619875, ,0.0448359534488571, ,0.07922041879412063, ,0.0008394082600657625, ,0.21083060746632912,-0.23040773530248826,0.10272838992000001,1.7051986204161522,0.5178523341110194,-1.304812642228212, ,0.1251938542987741,0.15355492161564852,0.04073864838874681,-0.05232586693060378,0.10114185625620224,-0.08828937946040179, ,1.2271361351013184
0.015257018217047117,0.022187433259072655,-0.0917974860820088, ,0.01598127462199645,0.02156948188945157,-0.09277110828398204, ,0.001361745727917633, ,0.018356800128147777,-0.009055079357937553,-0.03029071272709556,-0.14702653159688298,-0.10913636309609906,-0.037729821296548775, ,0.03655808871698221, ,0.18310521904857138, ,0.000846281121484866, ,0.21270723155476567,-0.22800596537860443,0.10325338737,1.7049889304726675,0.5181256071105501,-1.3050354780356048, ,0.12569131332247785,0.17037152883028864,0.02999776180790961,0.0,0.017174160139721457,-0.019044006052169403, ,1.2324411869049072
0.015257018217047117,0.022187433259072655,-0.0917974860820088, ,0.016088041835172474,0.02153466145382674,-0.09298499553839017, ,0.0015896194489881338, ,0.018356800128147777,-0.009055079357937553,-0.03029071272709556,-0.14702653159688298,-0.10913636309609906,-0.037729821296548775, ,0.03655808871698221, ,0.18310521904857138, ,0.0008559348659978954, ,0.21270723155476567,-0.22800596537860443,0.10325338737,1.7049889304726675,0.5181256071105501,-1.3050354780356048, ,0.12569131332247785,0.17037152883028864,0.02999776180790961,0.0,0.017174160139721457,-0.019044006052169403, ,1.2376501560211182
0.015444997604653022,0.022101971895987185,-0.09215893615119057, ,0.01619532656797373,0.02149920151585752,-0.09319929676982151, ,0.001417277637288385, ,0.018469551152997976,-0.006695994385602082,-0.04060777798673455,0.144183242410168,0.15933131709878648,-0.03868444623038711, ,0.0451104455046184, ,0.21488407474904545, ,0.0008631315681939273, ,0.21402009614338383,-0.22621429135178434,0.10361894115,1.704779240529183,0.5200385181072663,-1.3072487586084793, ,0.12636077437878931,0.17098548028553293,0.0416984594764398,-0.02143846179331844,0.3012720813058913,-0.30629142340773907, ,1.2429540157318115
0.015444997604653022,0.022101971895987185,-0.09215893615119057, ,0.01630311898277446,0.021463132124869378,-0.09341398249772889, ,0.0016491300387507584, ,0.018469551152997976,-0.006695994385602082,-0.04060777798673455,0.144183242410168,0.15933131709878648,-0.03868444623038711, ,0.0451104455046184, ,0.21488407474904545, ,0.0008730809159224949, ,0.21402009614338383,-0.22621429135178434,0.10361894115,1.704779240529183,0.5200385181072663,-1.3072487586084793, ,0.12636077437878931,0.17098548028553293,0.0416984594764398,-0.02143846179331844,0.3012720813058913,-0.30629142340773907, ,1.248337984085083
0.01563270091952637,0.02203775950925518,-0.09258057285070001, ,0.016411409333420328,0.021426483046758732,-0.09362902351704944, ,0.0014419759038347241, ,0.019086087190744262,-0.006186990158381373,-0.042267180650062665,0.17015950674559444,0.17232086558053983,0.07817181115122718, ,0.046787521109561164, ,0.24217473763575767, ,0.0008801921032713979, ,0.21522484247176285,-0.22467746750981366,0.10401949476000001,1.703521100868276,0.5234544306014023,-1.3107693148621549, ,0.13253762787495918,0.1630531641898123,0.044369948523676886,-0.1457275762256652,0.35806980360796165,-0.3583407829271538, ,1.2538161277770996
0.01563270091952637,0.02203775950925518,-0.09258057285070001, ,0.016520187964881576,0.02138928376497829,-0.0938443908972945, ,0.0016749298795730807, ,0.019086087190744262,-0.006186990158381373,-0.042267180650062665,0.17015950674559444,0.17232086558053983,0.07817181115122718, ,0.046787521109561164, ,0.24217473763575767, ,0.0008900036807566039, ,0.21522484247176285,-0.22467746750981366,0.10401949476000001,1.703521100868276,0.5234544306014023,-1.3107693148621549, ,0.13253762787495918,0.1630531641898123,0.044369948523676886,-0.1457275762256652,0.35806980360796165,-0.3583407829271538, ,1.2590980529785156
0.01581792492173293,0.021980891703811366,-0.09296931636012601, ,0.016629445312905274,0.021351563481521653,-0.09406005598164217, ,0.0014981095682906748, ,0.02071826346930244,-0.005797498326113377,-0.04321125794054559,-0.0874003261076534,-0.01959363867309761,0.024638394368487776, ,0.04827080112064729, ,0.08956883958626519, ,0.0008974196062143364, ,0.2165608752590037,-0.22302480267472963,0.10445504820000001,1.7028920310378222,0.5259138875971804,-1.3129381946089718, ,0.12686756892843687,0.16249476294258697,0.044124131634349036,-0.05676083560941012,0.12395624406317601,-0.07710387034828461, ,1.2643799781799316
0.01581792492173293,0.021980891703811366,-0.09296931636012601, ,0.01673917190366776,0.021313351117907546,-0.09427599038602807, ,0.0017325424801487434, ,0.02071826346930244,-0.005797498326113377,-0.04321125794054559,-0.0874003261076534,-0.01959363867309761,0.024638394368487776, ,0.04827080112064729, ,0.08956883958626519, ,0.0009074813275870401, ,0.2165608752590037,-0.22302480267472963,0.10445504820000001,1.7028920310378222,0.5259138875971804,-1.3129381946089718, ,0.12686756892843687,0.16249476294258697,0.044124131634349036,-0.05676083560941012,0.12395624406317601,-0.07710387034828461, ,1.2696151733398438
0.016044302827317204,0.021925474970872112,-0.09346528249757041, ,0.01684935835342963,0.02127467531616754,-0.09449216599823765, ,0.0014581304175657075, ,0.02227595526486237,-0.005402335939073017,-0.051244516749279954,-0.15457924176491528,-0.08044943774465652,-0.023537108857721936, ,0.056137366463238934, ,0.17425986526472637, ,0.00091403667389631, ,0.21782740345037652,-0.22127174231228064,0.10495930501,1.7026823410943377,0.5265970700960074,-1.313413605387313, ,0.11601093100057551,0.17671683716661224,0.05188537954397395,-0.011470946190572512,0.039384068388203,-0.018114838040004282, ,1.2756500244140625
0.01625715709274229,0.021868453762905145,-0.09396433674110109, ,0.01695999536818619,0.021235564439828263,-0.09470855497699741, ,0.0012034913042204747, ,0.020376432306555222,-0.005705584428119034,-0.04730691439852852,-0.02117512281554603,0.03184376476991305,-0.00975084778575522, ,0.05182370921807631, ,0.038238387116978724, ,0.0009174420224883589, ,0.21897036791576174,-0.21953412741558015,0.10546615440000001,1.7020532712638843,0.527690162094131,-1.314223269876744, ,0.1141960788910599,0.16855584646264793,0.048269125818181824,-0.036829755479555755,0.15932490658564943,-0.14583712549844513, ,1.2809062004089355
0.01625715709274229,0.021868453762905145,-0.09396433674110109, ,0.017071073743321567,0.02119604657489797,-0.09492512975106622, ,0.0014274855335770496, ,0.020376432306555222,-0.005705584428119034,-0.04730691439852852,-0.02117512281554603,0.03184376476991305,-0.00975084778575522, ,0.05182370921807631, ,0.038238387116978724, ,0.0009233727609893902, ,0.21897036791576174,-0.21953412741558015,0.10546615440000001,1.7020532712638843,0.527690162094131,-1.314223269876744, ,0.1141960788910599,0.16855584646264793,0.048269125818181824,-0.036829755479555755,0.15932490658564943,-0.14583712549844513, ,1.286229133605957
0.016452363964144227,0.021803477974420143,-0.09440055864745359, ,0.017182584363261408,0.021156149530851244,-0.09514186301832726, ,0.001225474649030573, ,0.0193600124397794,-0.007176367953406159,-0.04099112693509074,-0.06791195078693193,-0.020195963472091655,0.06658558785366375, ,0.04589752527184673, ,0.07085050648628617, ,0.0009268451964841163, ,0.2200901641825243,-0.21790463077911876,0.10590948558,1.7007951316029768,0.5290565270917854,-1.3155008063939893, ,0.11460983280008549,0.16361541648012204,0.04158958621409923,-0.11407109221370106,0.12301400292894764,-0.11207004305730427, ,1.2915711402893066
0.016452363964144227,0.021803477974420143,-0.09440055864745359, ,0.017294518201125517,0.0211159008416141,-0.09535872774487913, ,0.001449163238453352, ,0.0193600124397794,-0.007176367953406159,-0.04099112693509074,-0.06791195078693193,-0.020195963472091655,0.06658558785366375, ,0.04589752527184673, ,0.07085050648628617, ,0.0009327806287792214, ,0.2200901641825243,-0.21790463077911876,0.10590948558,1.7007951316029768,0.5290565270917854,-1.3155008063939893, ,0.11460983280008549,0.16361541648012204,0.04158958621409923,-0.11407109221370106,0.12301400292894764,-0.11207004305730427, ,1.2968640327453613
0.01666400741613102,0.021722563709614732,-0.09483170188147028, ,0.017406866318381016,0.021075327766549,-0.09557569716412775, ,0.001234618441165058, ,0.020475663623576213,-0.008026812321113715,-0.040401162008701426,-0.04853546812366544,-0.014220496077983853,-0.03118831933387923, ,0.04599930878304113, ,0.05057476184600016, ,0.0009361720648734443, ,0.2212871877780291,-0.21622107501253782,0.10631911322000001,1.700375751716008,0.5302862555896743,-1.3169119612279598, ,0.12453666871190391,0.1741228285476528,0.04073864838874681,-0.018841577448940664,0.11854347553335784,-0.12206930846396402, ,1.302117109298706
0.01666400741613102,0.021722563709614732,-0.09483170188147028, ,0.017519619864494858,0.021034457291439927,-0.09579274477587799, ,0.0014591663885315028, ,0.020475663623576213,-0.008026812321113715,-0.040401162008701426,-0.04853546812366544,-0.014220496077983853,-0.03118831933387923, ,0.04599930878304113, ,0.05057476184600016, ,0.0009419831129140893, ,0.2212871877780291,-0.21622107501253782,0.10631911322000001,1.700375751716008,0.5302862555896743,-1.3169119612279598, ,0.12453666871190391,0.1741228285476528,0.04073864838874681,-0.018841577448940664,0.11854347553335784,-0.12206930846396402, ,1.3073651790618896
0.016861737003300237,0.021646938738736146,-0.09520547435582272, ,0.017632770076586923,0.02099331612947746,-0.09600984434542459, ,0.0012917916223633592, ,0.020209742544951104,-0.00822105269615843,-0.03751891814156964,-0.0008883324708047409,-0.005545020213537322,-0.04545828611807489, ,0.04340148176825331, ,0.0056091032069958005, ,0.0009458271624684768, ,0.22260777509952148,-0.21446801465008886,0.10672874086,1.700375751716008,0.5315159840875633,-1.318404794802071, ,0.12893606190009615,0.16885576789763485,0.03829041230769231,-0.014253526001894489,0.13064780541489154,-0.16503143718799843, ,1.3126840591430664
0.016861737003300237,0.021646938738736146,-0.09520547435582272, ,0.01774630827908272,0.020951930722243637,-0.09622696990264461, ,0.0015195248063474504, ,0.020209742544951104,-0.00822105269615843,-0.03751891814156964,-0.0008883324708047409,-0.005545020213537322,-0.04545828611807489, ,0.04340148176825331, ,0.0056091032069958005, ,0.0009520630064236832, ,0.22260777509952148,-0.21446801465008886,0.10672874086,1.700375751716008,0.5315159840875633,-1.318404794802071, ,0.12893606190009615,0.16885576789763485,0.03829041230769231,-0.014253526001894489,0.13064780541489154,-0.16503143718799843, ,1.318162202835083
0.01704264065542756,0.021570255652578304,-0.09554100053022874, ,0.017860225883366544,0.020910327240697607,-0.09644409574108839, ,0.00138547178738113, ,0.01987431897005234,-0.008513290523966816,-0.03659035749922241,-0.0025007947254274197,-0.010419036616424786,-0.029577087874148634, ,0.04250081095684819, ,0.010711895674095988, ,0.0009567233158963438, ,0.22376618503065518,-0.21295435900674087,0.10707096142000001,1.6997466818855542,0.5327457125854522,-1.3200609858564634, ,0.12652925541129437,0.1676624409160261,0.03730400824355972,-0.03243343794321594,0.1270193431680467,-0.16660718862234666, ,1.3237051963806152
0.01704264065542756,0.021570255652578304,-0.09554100053022874, ,0.01797451438743341,0.02086853158615943,-0.09666119641707085, ,0.0016172953170933092, ,0.01987431897005234,-0.008513290523966816,-0.03659035749922241,-0.0025007947254274197,-0.010419036616424786,-0.029577087874148634, ,0.04250081095684819, ,0.010711895674095988, ,0.0009637506776112053, ,0.22376618503065518,-0.21295435900674087,0.10707096142000001,1.6997466818855542,0.5327457125854522,-1.3200609858564634, ,0.12652925541129437,0.1676624409160261,0.03730400824355972,-0.03243343794321594,0.1270193431680467,-0.16660718862234666, ,1.3291471004486084
0.01725791909988551,0.02146556268561902,-0.095947616326239, ,0.018089165375542893,0.020826569391296356,-0.09687824674876377, ,0.0014019114752052832, ,0.019111378225031735,-0.009627918059677687,-0.03683701849557851,-0.04796226172593382,-0.0392024621628021,0.054598673360847276, ,0.04260173136701932, ,0.06194468306003348, ,0.0009683628965332482, ,0.22510221781789602,-0.21105456671968162,0.10748188535000001,1.698278852281163,0.5339754410833412,-1.3217171769108556, ,0.11601093100057551,0.17316960138407075,0.03713009678321679,-0.12105167980632113,0.10540007572925285,-0.14664206888910336, ,1.3344600200653076
0.01725791909988551,0.02146556268561902,-0.095947616326239, ,0.01820417051787179,0.0207844660211076,-0.09709522181528689, ,0.00163593483089715, ,0.019111378225031735,-0.009627918059677687,-0.03683701849557851,-0.04796226172593382,-0.0392024621628021,0.054598673360847276, ,0.04260173136701932, ,0.06194468306003348, ,0.0009753167708495388, ,0.22510221781789602,-0.21105456671968162,0.10748188535000001,1.698278852281163,0.5339754410833412,-1.3217171769108556, ,0.11601093100057551,0.17316960138407075,0.03713009678321679,-0.12105167980632113,0.10540007572925285,-0.14664206888910336, ,1.3396940231323242
0.017448200971932382,0.021378306025797236,-0.09631986275176485, ,0.018319521570166274,0.02074224657390874,-0.09731209695579952, ,0.0014657079950998702, ,0.01964011198068975,-0.00823840724719356,-0.03934613769331414,-0.04138056732586451,-0.012076878324742843,-0.01115116277683881, ,0.044740629230777255, ,0.04310577736837539, ,0.0009803723504809856, ,0.226237459550407,-0.20936328822022646,0.10785910574000002,1.698069162337678,0.5350685330814648,-1.3230169138411298, ,0.11488733844851184,0.16736673996202958,0.040022139497487445,-0.04276282721308159,0.11523297628573875,-0.1288125071388001, ,1.3449552059173584
0.01762995067242803,0.021311249269698476,-0.09668949023445483, ,0.018435210373395655,0.020699935882317614,-0.09752884776859247, ,0.0013140275163432266, ,0.02127107818745716,-0.006768115989190435,-0.043220138308257196,0.012444656979938361,0.012432366357234796,-0.0582100133916476, ,0.048644079975727075, ,0.01758642687907194, ,0.0009837769950306002, ,0.22729547395417576,-0.20788824624124957,0.10823762242000001,1.6978594723941938,0.5362982615793538,-1.32434638993496, ,0.12292349942807097,0.16249476294258697,0.044493886927374306,0.0,0.13965430625490544,-0.16865061618260271, ,1.352545976638794
0.01762995067242803,0.021311249269698476,-0.09668949023445483, ,0.018551228853403958,0.020657558514238294,-0.09774545011017799, ,0.0015463234945035547, ,0.02127107818745716,-0.006768115989190435,-0.043220138308257196,0.012444656979938361,0.012432366357234796,-0.0582100133916476, ,0.048644079975727075, ,0.01758642687907194, ,0.0009894592829040644, ,0.22729547395417576,-0.20788824624124957,0.10823762242000001,1.6978594723941938,0.5362982615793538,-1.32434638993496, ,0.12292349942807097,0.16249476294258697,0.044493886927374306,0.0,0.13965430625490544,-0.16865061618260271, ,1.357842206954956
0.01787178039288876,0.021230562420246242,-0.09716662803318396, ,0.018667569020564673,0.020615138773847748,-0.09796188009438479, ,0.001282361745112862, ,0.021945063252353153,-0.007751802549220381,-0.04226388071391089,-0.039611130428356095,-0.01828297380138234,0.03977997395243595, ,0.04824843890647209, ,0.043625381787493735, ,0.0009923883075261524, ,0.22871645680303307,-0.20608112674868104,0.10872891633000001,1.6970207126202554,0.5378012630767736,-1.3259803805763233, ,0.13071204071414708,0.1644661032209199,0.04352134295081967,-0.0945356024157769,0.13584597218253572,-0.13826698175298913, ,1.3631861209869385
0.01787178039288876,0.021230562420246242,-0.09716662803318396, ,0.018784222969431146,0.02057270070257874,-0.09817811409144495, ,0.0015127582560065863, ,0.021945063252353153,-0.007751802549220381,-0.04226388071391089,-0.039611130428356095,-0.01828297380138234,0.03977997395243595, ,0.04824843890647209, ,0.043625381787493735, ,0.0009975404852338794, ,0.22871645680303307,-0.20608112674868104,0.10872891633000001,1.6970207126202554,0.5378012630767736,-1.3259803805763233, ,0.13071204071414708,0.1644661032209199,0.04352134295081967,-0.0945356024157769,0.13584597218253572,-0.13826698175298913, ,1.368488073348999
0.01809708223729863,0.021147291461877406,-0.09758948914268133, ,0.01890118287839146,0.020530268080106835,-0.09839412872708977, ,0.0012941176745004655, ,0.02162263013666463,-0.008292717546731665,-0.040090585590035546,-0.03759141235284184,-0.028516868549798027,0.040195278990749296, ,0.0462986214836774, ,0.04718286245882832, ,0.001000448104736493, ,0.2300756577888966,-0.20438984824922588,0.10916446977000001,1.6959722629028329,0.539167628074428,-1.3273395958337093, ,0.13053224423448526,0.16361541648012204,0.04126635108808291,-0.09866349575388532,0.12572029170601082,-0.14151028149327768, ,1.373854160308838
0.01809708223729863,0.021147291461877406,-0.09758948914268133, ,0.019018441009320305,0.02048786442533428,-0.09860990088163853, ,0.0015247905168602662, ,0.02162263013666463,-0.008292717546731665,-0.040090585590035546,-0.03759141235284184,-0.028516868549798027,0.040195278990749296, ,0.0462986214836774, ,0.04718286245882832, ,0.0010055388077668207, ,0.2300756577888966,-0.20438984824922588,0.10916446977000001,1.6959722629028329,0.539167628074428,-1.3273395958337093, ,0.13053224423448526,0.16361541648012204,0.04126635108808291,-0.09866349575388532,0.12572029170601082,-0.14151028149327768, ,1.3792130947113037
0.018314656298064433,0.02106805573225963,-0.09799414269423634, ,0.019135989707231797,0.020445512997375404,-0.09882540768909137, ,0.0013240655261137757, ,0.021330851988278013,-0.007970414680072745,-0.03977601588237257,-0.04217530379290195,-0.006595205608302703,-0.01029072452965765, ,0.0458330033512195, ,0.04268668905065449, ,0.0010086015646740031, ,0.2313730769117663,-0.2027526288798903,0.10958187515000001,1.6957625729593484,0.5403973565723169,-1.32875075066768, ,0.12737844504492724,0.16138935639195712,0.04105363793814434,-0.036728761235769576,0.13202245633374549,-0.11932342307719164, ,1.384491205215454
0.018314656298064433,0.02106805573225963,-0.09799414269423634, ,0.01925382139993238,0.020403236796541407,-0.09904062653622017, ,0.0015553596810350268, ,0.021330851988278013,-0.007970414680072745,-0.03977601588237257,-0.04217530379290195,-0.006595205608302703,-0.01029072452965765, ,0.0458330033512195, ,0.04268668905065449, ,0.0010138087848298224, ,0.2313730769117663,-0.2027526288798903,0.10958187515000001,1.6957625729593484,0.5403973565723169,-1.32875075066768, ,0.12737844504492724,0.16138935639195712,0.04105363793814434,-0.036728761235769576,0.13202245633374549,-0.11932342307719164, ,1.3898561000823975
0.01851731777354976,0.020991520556024896,-0.09836894887263167, ,0.019371928597673723,0.020361058565325642,-0.09925553506166059, ,0.0013834294535693225, ,0.020587624394112256,-0.008018000256329623,-0.037190570971945856,-0.013033825145450605,0.005578722925568439,-0.049658425350622995, ,0.04325826135575596, ,0.014175034361553904, ,0.001017295772270761, ,0.23259326870589378,-0.2012158050379196,0.10996946586,1.695552883015864,0.5417637215699714,-1.3300282871849252, ,0.12502890850918416,0.1571141416530973,0.03847539014492755,0.0,0.1345387298974552,-0.13673421936389363, ,1.3952741622924805
0.01851731777354976,0.020991520556024896,-0.09836894887263167, ,0.01949030389280551,0.020319000789388596,-0.09947011115500332, ,0.0016160269790132936, ,0.02073359253914087,-0.008082848347449987,-0.03698737059220466,-0.0070862962490787825,0.006974462043656933,-0.018453676009684866, ,0.04325826135575596, ,0.00993929019790005, ,0.0010228913910253642, ,0.23386751963014082,-0.19963264479870357,0.11035187141000001,1.6949238131854105,0.5431300865676258,-1.3313875024423112, ,0.12686756892843687,0.1548074087413879,0.038382678361445786,-0.033954019863424556,0.14474863587238693,-0.1479867764858296, ,1.401158094406128
0.018725162649446,0.020906181242961678,-0.0987388109682817, ,0.019608939959428678,0.020277085698543338,-0.09968433295588629, ,0.0014390397377039147, ,0.02073359253914087,-0.008082848347449987,-0.03698737059220466,-0.0070862962490787825,0.006974462043656933,-0.018453676009684866, ,0.04316572575912606, ,0.00993929019790005, ,0.001026744616457573, ,0.23386751963014082,-0.19963264479870357,0.11035187141000001,1.6949238131854105,0.5431300865676258,-1.3313875024423112, ,0.12686756892843687,0.1548074087413879,0.038382678361445786,-0.033954019863424556,0.14474863587238693,-0.1479867764858296, ,1.4065790176391602
0.01893350192201699,0.02082678755772491,-0.09912238701789178, ,0.019727829553046847,0.020235335267739057,-0.0998981788530848, ,0.001258024311489717, ,0.02163524640820685,-0.0074514465379888995,-0.040356656038218655,-0.02766707834953386,-0.018458639612720765,0.05702693449840993, ,0.04639253850824963, ,0.03325780439859001, ,0.001028866448522088, ,0.2351186023557652,-0.19811898915535558,0.11074983244000002,1.6936656735245033,0.5446330880650456,-1.332939814343534, ,0.12636077437878931,0.15063006596582662,0.04191792505263159,-0.11306189626891147,0.13387820366488673,-0.14207239583336817, ,1.4118092060089111
0.01893350192201699,0.02082678755772491,-0.09912238701789178, ,0.019846965510220492,0.020193771218047853,-0.10011162748360457, ,0.0014878582298980694, ,0.02163524640820685,-0.0074514465379888995,-0.040356656038218655,-0.02766707834953386,-0.018458639612720765,0.05702693449840993, ,0.04639253850824963, ,0.03325780439859001, ,0.0010330391010800516, ,0.2351186023557652,-0.19811898915535558,0.11074983244000002,1.6936656735245033,0.5446330880650456,-1.332939814343534, ,0.12636077437878931,0.15063006596582662,0.04191792505263159,-0.11306189626891147,0.13387820366488673,-0.14207239583336817, ,1.4172031879425049
0.019161834352460015,0.020754959520731833,-0.0995478101055482, ,0.019966340748219433,0.020152415017648775,-0.10032465773177253, ,0.0012703474538030138, ,0.022190320539639333,-0.007036584411412998,-0.04112877343221085,0.031598081485820315,0.006285689083220701,-0.04202601653240489, ,0.04725991800531411, ,0.03221538380579849, ,0.0010351770141676458, ,0.23643918967725758,-0.19656671984763643,0.11119316362000001,1.693246293637534,0.5459994530627,-1.3343807083410604, ,0.12893606190009615,0.15135078398480187,0.04293480194070081,-0.020980440420825277,0.1433063614236004,-0.182408794170464, ,1.4228250980377197
0.019161834352460015,0.020754959520731833,-0.0995478101055482, ,0.02008594826467578,0.020111287882813488,-0.10053724872832884, ,0.0014990958903490015, ,0.022190320539639333,-0.007036584411412998,-0.04112877343221085,0.031598081485820315,0.006285689083220701,-0.04202601653240489, ,0.04725991800531411, ,0.03221538380579849, ,0.0010393191469906936, ,0.23643918967725758,-0.19656671984763643,0.11119316362000001,1.693246293637534,0.5459994530627,-1.3343807083410604, ,0.12893606190009615,0.15135078398480187,0.04293480194070081,-0.020980440420825277,0.1433063614236004,-0.182408794170464, ,1.4281840324401855
0.019379198633728143,0.020687538995223177,-0.09994838526859484, ,0.020205781137235826,0.020070410778890373,-0.10074937984951762, ,0.0013060161519547905, ,0.021879591665022964,-0.006818035043646485,-0.040733264937282604,0.009145634866875646,0.01231178021560589,-0.037994954126117975, ,0.04673757595057097, ,0.01533331121854074, ,0.0010416792974771015, ,0.23769799513575618,-0.1950994006015338,0.11161186529000001,1.693246293637534,0.5473658180603544,-1.3359032810787275, ,0.12585801267701696,0.14758466805360929,0.04259040513368984,-0.014589273601221553,0.145033318166157,-0.15316872577216611, ,1.4333910942077637
0.019379198633728143,0.020687538995223177,-0.09994838526859484, ,0.020325832523213436,0.02002980442129011,-0.10096103071617953, ,0.0015343341529741666, ,0.021879591665022964,-0.006818035043646485,-0.040733264937282604,0.009145634866875646,0.01231178021560589,-0.037994954126117975, ,0.04673757595057097, ,0.01533331121854074, ,0.0010460008312972511, ,0.23769799513575618,-0.1950994006015338,0.11161186529000001,1.693246293637534,0.5473658180603544,-1.3359032810787275, ,0.12585801267701696,0.14758466805360929,0.04259040513368984,-0.014589273601221553,0.145033318166157,-0.15316872577216611, ,1.4386341571807861
0.019603905948092647,0.020610690900800237,-0.10035979462791352, ,0.02044609565924386,0.019989489276471224,-0.10117218119284294, ,0.0013248195720609616, ,0.021975963576368718,-0.007468775594540074,-0.03939022097928397,0.03320743082235093,-0.011539852173615792,-0.02225522052082389, ,0.04571996383187879, ,0.03515404416010035, ,0.0010484253420865008, ,0.2389954142586259,-0.19357029949243734,0.11204093728000002,1.6924075338635962,0.5487321830580089,-1.3376708900368162, ,0.12772132107465783,0.14850851574095583,0.041159719689922485,-0.04718524071435419,0.12883030257688788,-0.18877949754480378, ,1.443864107131958
0.019603905948092647,0.020610690900800237,-0.10035979462791352, ,0.020566563860934802,0.019949485562924103,-0.1013828113868149, ,0.0015525675653531499, ,0.021975963576368718,-0.007468775594540074,-0.03939022097928397,0.03320743082235093,-0.011539852173615792,-0.02225522052082389, ,0.04571996383187879, ,0.03515404416010035, ,0.0010527713957353513, ,0.2389954142586259,-0.19357029949243734,0.11204093728000002,1.6924075338635962,0.5487321830580089,-1.3376708900368162, ,0.12772132107465783,0.14850851574095583,0.041159719689922485,-0.04718524071435419,0.12883030257688788,-0.18877949754480378, ,1.4491322040557861
0.019826588111359768,0.02053387786263993,-0.10075900071614306, ,0.02068723052251969,0.019909813252156235,-0.10159290164727339, ,0.001351130179103907, ,0.022198118320056616,-0.007327121604780681,-0.03895828077439495,0.0038822632220406363,-0.02868287697607438,0.044471745269509685, ,0.045433366690782094, ,0.028942868840084297, ,0.0010553214708068773, ,0.24020788331987916,-0.19219565304082536,0.11242982428000001,1.6911493942026892,0.5499619115558978,-1.339408759831349, ,0.12981797750816795,0.14313264186798005,0.04094810159383034,-0.11958929781392501,0.12327210837506353,-0.16689998201530198, ,1.4544761180877686
0.019826588111359768,0.02053387786263993,-0.10075900071614306, ,0.02080808911651169,0.019870492069678072,-0.10180243256435911, ,0.0015786623943356071, ,0.022198118320056616,-0.007327121604780681,-0.03895828077439495,0.0038822632220406363,-0.02868287697607438,0.044471745269509685, ,0.045433366690782094, ,0.028942868840084297, ,0.0010597565633791548, ,0.24020788331987916,-0.19219565304082536,0.11242982428000001,1.6911493942026892,0.5499619115558978,-1.339408759831349, ,0.12981797750816795,0.14313264186798005,0.04094810159383034,-0.11958929781392501,0.12327210837506353,-0.16689998201530198, ,1.4599370956420898
0.02004668647549465,0.02046567479635194,-0.10114161010413683, ,0.02092913319335535,0.019831541495987343,-0.10201138496826687, ,0.0013918856155470674, ,0.02251608205612828,-0.007126375438480417,-0.03927751192837447,0.0063844654112403245,-0.021411391501293803,-0.019912537033344852, ,0.04583101702266793, ,0.022340895334859442, ,0.0010625475638175405, ,0.24156708430574267,-0.19069744286322582,0.11286019256000002,1.6909397042592043,0.5511916400537868,-1.3409832721456008, ,0.13017413108157858,0.14334885431793168,0.04126635108808291,-0.03968709047628869,0.11944852007500084,-0.15426071201905592, ,1.4654061794281006
0.02004668647549465,0.02046567479635194,-0.10114161010413683, ,0.02105035638107882,0.01979298076755351,-0.1022197399283354, ,0.0016193314835396834, ,0.02251608205612828,-0.007126375438480417,-0.03927751192837447,0.0063844654112403245,-0.021411391501293803,-0.019912537033344852, ,0.04583101702266793, ,0.022340895334859442, ,0.0010671874298152251, ,0.24156708430574267,-0.19069744286322582,0.11286019256000002,1.6909397042592043,0.5511916400537868,-1.3409832721456008, ,0.13017413108157858,0.14334885431793168,0.04126635108808291,-0.03968709047628869,0.11944852007500084,-0.15426071201905592, ,1.470677137374878
0.020275130213442474,0.02039771335323089,-0.10154505127802127, ,0.02117175238494853,0.019754828877804345,-0.10242747875214218, ,0.0014127667940124142, ,0.022797585401731983,-0.006357644787627123,-0.04125543150080787,0.0019097903906112339,0.005864573125080238,-0.02483545739453895, ,0.04756217168835708, ,0.006158003481966758, ,0.0010700434576185077, ,0.24287994889436082,-0.18926101454862007,0.11328537568000001,1.6909397042592043,0.5525580050514411,-1.3425875236234082, ,0.1287611147333389,0.13955432582128055,0.04352134295081967,-0.02402518606697985,0.14291262421074144,-0.13999908426688096, ,1.476741075515747
0.020493194271412697,0.020333523395727457,-0.10193869816476378, ,0.02129331498712017,0.01971710457810953,-0.10263458298459249, ,0.0012265484095158091, ,0.022723791011243916,-0.006452235446387306,-0.04082246573830703,0.039846100809862596,0.04161728737992429,-0.03096224704729352, ,0.04716434807281404, ,0.05761594387953698, ,0.0010713262850930757, ,0.2441310316199852,-0.187917259028505,0.11370148477000001,1.6903106344287508,0.5541976430486265,-1.3443329321684683, ,0.13107312369954527,0.13873821865273506,0.04316751089430895,-0.02145813562769415,0.18569291451236242,-0.1821183942777709, ,1.4819941520690918
0.020493194271412697,0.020333523395727457,-0.10193869816476378, ,0.021415038046293293,0.019679826378766835,-0.10284103440701199, ,0.001446141911896597, ,0.022723791011243916,-0.006452235446387306,-0.04082246573830703,0.039846100809862596,0.04161728737992429,-0.03096224704729352, ,0.04716434807281404, ,0.05761594387953698, ,0.0010743735666118035, ,0.2441310316199852,-0.187917259028505,0.11370148477000001,1.6903106344287508,0.5541976430486265,-1.3443329321684683, ,0.13107312369954527,0.13873821865273506,0.04316751089430895,-0.02145813562769415,0.18569291451236242,-0.1821183942777709, ,1.4872550964355469
0.020724678794831808,0.02026153187560778,-0.10234342341957743, ,0.021536915497361853,0.019643012549985753,-0.10304681503623779, ,0.0012397799738231307, ,0.023265336594779303,-0.007304041246647495,-0.039775553717889996,-0.08003818111723866,-0.07420520417237984,0.06757254837784676, ,0.04665532744463227, ,0.10914404795348469, ,0.0010757074892506046, ,0.24544389620860338,-0.18651944437827037,0.11412796418000001,1.6890524947678438,0.5554273715465154,-1.3455807295221578, ,0.13017413108157858,0.13914507559893075,0.04180790425196851,-0.11598366547672298,0.07945954135276634,-0.08124577000653925, ,1.4925739765167236
0.020724678794831808,0.02026153187560778,-0.10234342341957743, ,0.021658941351068592,0.019606681122873688,-0.1032519071237104, ,0.0014584302084836524, ,0.023265336594779303,-0.007304041246647495,-0.039775553717889996,-0.08003818111723866,-0.07420520417237984,0.06757254837784676, ,0.04665532744463227, ,0.10914404795348469, ,0.001078769271004469, ,0.24544389620860338,-0.18651944437827037,0.11412796418000001,1.6890524947678438,0.5554273715465154,-1.3455807295221578, ,0.13017413108157858,0.13914507559893075,0.04180790425196851,-0.11598366547672298,0.07945954135276634,-0.08124577000653925, ,1.4982550144195557
0.02095578917705288,0.020192373580968377,-0.10273842323751664, ,0.021781109693658145,0.019570849890420957,-0.10345629315456546, ,0.001258086988584236, ,0.022410770809422234,-0.007037611601165047,-0.038569008865292374,0.0073342740077381365,0.00042300156652432116,-0.008043239213129836, ,0.0451590419536587, ,0.007340651042898616, ,0.0010801924274931973, ,0.2467490380643473,-0.18512935246090995,0.11454536956000001,1.6888428048243591,0.5565204635446389,-1.3467171089721508, ,0.12806604798714005,0.13693642360529693,0.040843106461538464,-0.04557347661902501,0.14039484545528202,-0.1488978020446018, ,1.5035669803619385
0.02095578917705288,0.020192373580968377,-0.10273842323751664, ,0.021903414686528268,0.019535536408484846,-0.10365995584672466, ,0.0014760255848725635, ,0.022410770809422234,-0.007037611601165047,-0.038569008865292374,0.0073342740077381365,0.00042300156652432116,-0.008043239213129836, ,0.0451590419536587, ,0.007340651042898616, ,0.0010833092240079953, ,0.2467490380643473,-0.18512935246090995,0.11454536956000001,1.6888428048243591,0.5565204635446389,-1.3467171089721508, ,0.12806604798714005,0.13693642360529693,0.040843106461538464,-0.04557347661902501,0.14039484545528202,-0.1488978020446018, ,1.5088181495666504
0.021193639888302127,0.02012181782051182,-0.10314548641357037, ,0.022025850565883815,0.019500757996775486,-0.10386287814998772, ,0.0012621175935784614, ,0.022128275855017105,-0.006657771529683102,-0.03784640592242665,0.0020438419744980003,0.030431960918947152,-0.014719798990029571, ,0.044343398102787326, ,0.030499244066878702, ,0.0010847061643952647, ,0.24811596178308504,-0.18370064687917842,0.11497833042000001,1.6888428048243591,0.5581601015418242,-1.3483808387770702, ,0.12789345223513582,0.13216844228199273,0.04032610511392406,-0.026244299932481913,0.16727201827657942,-0.13158117156024177, ,1.5140612125396729
0.021193639888302127,0.02012181782051182,-0.10314548641357037, ,0.022148411642389336,0.01946653173984082,-0.10406504324512378, ,0.0014787067716016164, ,0.022128275855017105,-0.006657771529683102,-0.03784640592242665,0.0020438419744980003,0.030431960918947152,-0.014719798990029571, ,0.044343398102787326, ,0.030499244066878702, ,0.0010877604326681822, ,0.24811596178308504,-0.18370064687917842,0.11497833042000001,1.6888428048243591,0.5581601015418242,-1.3483808387770702, ,0.12789345223513582,0.13216844228199273,0.04032610511392406,-0.026244299932481913,0.16727201827657942,-0.13158117156024177, ,1.51934814453125
0.02141943655988808,0.020049745800087112,-0.10352192715679433, ,0.02227109230082228,0.01943287448805166,-0.10426643454296393, ,0.0012884638003217673, ,0.02228969274526018,-0.006895138107185831,-0.03660953675429191,0.024482701388480906,0.024453132038540177,-0.03643492263357351, ,0.04341234287111352, ,0.0346019157324284, ,0.0010893043047270558, ,0.24944427183745166,-0.18234144589331489,0.11538018032000001,1.68842342493739,0.559936376038775,-1.3500743077455453, ,0.13071204071414708,0.1319846196918926,0.039137129041769046,-0.011856902887506458,0.1613094940950928,-0.1518644998767236, ,1.5248541831970215
0.02141943655988808,0.020049745800087112,-0.10352192715679433, ,0.02239388699972416,0.01939980285858592,-0.10446703568349086, ,0.001505061332351092, ,0.02228969274526018,-0.006895138107185831,-0.03660953675429191,0.024482701388480906,0.024453132038540177,-0.03643492263357351, ,0.04341234287111352, ,0.0346019157324284, ,0.0010924780224951783, ,0.24944427183745166,-0.18234144589331489,0.11538018032000001,1.68842342493739,0.559936376038775,-1.3500743077455453, ,0.13071204071414708,0.1319846196918926,0.039137129041769046,-0.011856902887506458,0.1613094940950928,-0.1518644998767236, ,1.531081199645996
0.021624811483244803,0.019978806497632035,-0.1038594597889078, ,0.022516790271055,0.019367333236414392,-0.10466683053493211, ,0.0013495826127448978, ,0.021839531728430835,-0.007825914010579662,-0.034983739292182084,-0.0580139069960238,-0.02379763155597895,0.09581238797434156, ,0.041977042428945475, ,0.06270477073265825, ,0.0010944257845425247, ,0.25064129543295643,-0.1811135313663132,0.11573925265000001,1.687165285276483,0.5613027410364293,-1.35127016552265, ,0.12806604798714005,0.13089233318409763,0.037216849345794396,-0.1392613502108346,0.13248112019556532,-0.09879838834908893, ,1.5365149974822998
0.02184646352765683,0.019900649489860932,-0.10420394673294878, ,0.022639796719846207,0.019335481775286215,-0.10486580319285076, ,0.0011776442896481837, ,0.021160033829063035,-0.00759019292337088,-0.03207245989783784,-0.06291346672429297,-0.04008953227301775,0.0008856862952763394, ,0.03916632155512562, ,0.07460054260582251, ,0.0010950514875884317, ,0.25193871455582617,-0.17978522131194657,0.11610610272,1.6865362154460295,0.562395833034553,-1.3520798300120807, ,0.12437344896260916,0.12720769645907612,0.034181998969957085,-0.03658597118702914,0.09298837670848727,-0.06635877471375726, ,1.5420351028442383
0.02184646352765683,0.019900649489860932,-0.10420394673294878, ,0.022762901023851267,0.019304264398712277,-0.10506393797923755, ,0.0013910851178374495, ,0.021160033829063035,-0.00759019292337088,-0.03207245989783784,-0.06291346672429297,-0.04008953227301775,0.0008856862952763394, ,0.03916632155512562, ,0.07460054260582251, ,0.00109726069378432, ,0.25193871455582617,-0.17978522131194657,0.11610610272,1.6865362154460295,0.562395833034553,-1.3520798300120807, ,0.12437344896260916,0.12720769645907612,0.034181998969957085,-0.03658597118702914,0.09298837670848727,-0.06635877471375726, ,1.5472869873046875
0.022067399054252482,0.01982619574914438,-0.1045481656931171, ,0.02288609793320189,0.019273696800952474,-0.105261219441602, ,0.001218182494692207, ,0.02214805932610841,-0.006744980492922026,-0.03629675809682144,0.022102343835949365,0.03226907194635943,-0.060815920242822015, ,0.04305213051757008, ,0.0391119368929709, ,0.0010981564108280821, ,0.25322841094582166,-0.17848007945620264,0.11647424908000001,1.686326525502545,0.5636255615324419,-1.353000912405208, ,0.12703740503142005,0.1287611147333389,0.03894574943765281,0.017558684266003627,0.1599239320479521,-0.13872625023018514, ,1.5525519847869873
0.022067399054252482,0.01982619574914438,-0.1045481656931171, ,0.02300938227005779,0.01924379444799886,-0.10545763235206429, ,0.0014330573115446093, ,0.02214805932610841,-0.006744980492922026,-0.03629675809682144,0.022102343835949365,0.03226907194635943,-0.060815920242822015, ,0.04305213051757008, ,0.0391119368929709, ,0.0011006189174509978, ,0.25322841094582166,-0.17848007945620264,0.11647424908000001,1.686326525502545,0.5636255615324419,-1.353000912405208, ,0.12703740503142005,0.1287611147333389,0.03894574943765281,0.017558684266003627,0.1599239320479521,-0.13872625023018514, ,1.5578041076660156
0.02229585959001578,0.019765281865231438,-0.10492968003929626, ,0.023132748928260824,0.019214572578561438,-0.10565316170644663, ,0.001235754913239471, ,0.0227022107189535,-0.005434141289601798,-0.038227521772063164,0.038948837996440035,0.04390470408167282,-0.04218651736266171, ,0.04479133492001199, ,0.05869031765086377, ,0.0011016053115808406, ,0.2545258300686914,-0.17722127399770404,0.11688517301000001,1.6865362154460295,0.5654018360293926,-1.354531023893402, ,0.12772132107465783,0.11862117694808846,0.04126635108808291,0.0,0.17576537726327363,-0.14950688156836356, ,1.563080072402954
0.02229585959001578,0.019765281865231438,-0.10492968003929626, ,0.023256192872987105,0.01918604620505284,-0.10584779272336436, ,0.0014493739562486138, ,0.0227022107189535,-0.005434141289601798,-0.038227521772063164,0.038948837996440035,0.04390470408167282,-0.04218651736266171, ,0.04479133492001199, ,0.05869031765086377, ,0.0011041253742233607, ,0.2545258300686914,-0.17722127399770404,0.11688517301000001,1.6865362154460295,0.5654018360293926,-1.354531023893402, ,0.12772132107465783,0.11862117694808846,0.04126635108808291,0.0,0.17576537726327363,-0.14950688156836356, ,1.5684092044830322
0.022514661187046627,0.01971247915991408,-0.10529173563744303, ,0.023379709140400946,0.01915823011457404,-0.10604151084331892, ,0.001271873745781822, ,0.022958215878025743,-0.005139496714701434,-0.03778078362824856,-0.007441663052251708,-0.01069833201323928,-0.012222374352817724, ,0.04450709734802973, ,0.01302903223355383, ,0.0011053321970403282, ,0.25574602186281886,-0.17610920046381573,0.11727535630000001,1.6861168355590603,0.5667682010270471,-1.3556452029303663, ,0.12652925541129437,0.11297254947436998,0.04073864838874681,-0.026607562680682866,0.12336645612400823,-0.10558680255403165, ,1.5739820003509521
0.022514661187046627,0.01971247915991408,-0.10529173563744303, ,0.02350329283730774,0.019131138869899488,-0.10623430172778832, ,0.0014845133570840887, ,0.022958215878025743,-0.005139496714701434,-0.03778078362824856,-0.007441663052251708,-0.01069833201323928,-0.012222374352817724, ,0.04450709734802973, ,0.01302903223355383, ,0.0011080406338977835, ,0.25574602186281886,-0.17610920046381573,0.11727535630000001,1.6861168355590603,0.5667682010270471,-1.3556452029303663, ,0.12652925541129437,0.11297254947436998,0.04073864838874681,-0.026607562680682866,0.12336645612400823,-0.10558680255403165, ,1.5792551040649414
0.022758490477689974,0.019652771544377244,-0.10569237640565497, ,0.02362693914080344,0.019104786810460097,-0.10642615125831814, ,0.0012621077146862984, ,0.023664074507476467,-0.00602019403531132,-0.03944110114479034,-0.056870116628100646,-0.04681821582262044,0.05609235841936645, ,0.046387839117938846, ,0.07366179508314306, ,0.001109133308229617, ,0.2570743319171855,-0.1749044541354367,0.11770572458000002,1.6850683858416375,0.5678612930251705,-1.3566182249000782, ,0.12652925541129437,0.11951755863787251,0.04225148944297083,-0.0971383172627606,0.09884399657050953,-0.08060065143477835, ,1.5844922065734863
0.022758490477689974,0.019652771544377244,-0.10569237640565497, ,0.023750643297932254,0.019079188053331142,-0.10661704553561473, ,0.001472541422105291, ,0.023664074507476467,-0.00602019403531132,-0.03944110114479034,-0.056870116628100646,-0.04681821582262044,0.05609235841936645, ,0.046387839117938846, ,0.07366179508314306, ,0.0011116925202991638, ,0.2570743319171855,-0.1749044541354367,0.11770572458000002,1.6850683858416375,0.5678612930251705,-1.3566182249000782, ,0.12652925541129437,0.11951755863787251,0.04225148944297083,-0.0971383172627606,0.09884399657050953,-0.08060065143477835, ,1.5897300243377686
0.02299654916057324,0.019597542146878096,-0.10609577205588268, ,0.023874400625337282,0.019054356494216204,-0.10680697087863612, ,0.0012535859016964035, ,0.02287554604494459,-0.005083015296038271,-0.03876307405055959,0.01676955900788297,0.026010036396380724,-0.003002900337564553, ,0.04529573447029318, ,0.030945962352713276, ,0.0011126847817075362, ,0.25834858284143253,-0.1737074305399319,0.11813998173000001,1.6848586958981533,0.5692276580228249,-1.3578140826771832, ,0.12404828961891604,0.1120388920406975,0.04191792505263159,-0.03735530572637529,0.16011501736241596,-0.13056306049599717, ,1.5949680805206299
0.02299654916057324,0.019597542146878096,-0.10609577205588268, ,0.0239982065089096,0.019030305808429744,-0.10699591382368186, ,0.0014612767394539439, ,0.02287554604494459,-0.005083015296038271,-0.03876307405055959,0.01676955900788297,0.026010036396380724,-0.003002900337564553, ,0.04529573447029318, ,0.030945962352713276, ,0.0011151055591918863, ,0.25834858284143253,-0.1737074305399319,0.11813998173000001,1.6848586958981533,0.5692276580228249,-1.3578140826771832, ,0.12404828961891604,0.1120388920406975,0.04191792505263159,-0.03735530572637529,0.16011501736241596,-0.13056306049599717, ,1.6002471446990967
0.02322190777030881,0.019549878457601245,-0.10647462484372858, ,0.024122056403449024,0.019007049451887102,-0.1071838611234879, ,0.0012680484973831452, ,0.022523347294865124,-0.004811313250457283,-0.03671554550781191,0.026100594811674246,0.02652546160730142,-0.04310481550987031, ,0.04334144887397445, ,0.037212557610872866, ,0.001116160338075964, ,0.25957649736843424,-0.17262624793754047,0.11855090566000001,1.6846490059546686,0.5708672960200102,-1.3591510975215402, ,0.12404828961891604,0.10747105499260563,0.03992183338345865,0.00611626076947091,0.1529404966422823,-0.12471271992055732, ,1.605600118637085
0.02322190777030881,0.019549878457601245,-0.10647462484372858, ,0.024245945832310222,0.01898460066208553,-0.10737079974631608, ,0.0014735407678644111, ,0.022523347294865124,-0.004811313250457283,-0.03671554550781191,0.026100594811674246,0.02652546160730142,-0.04310481550987031, ,0.04334144887397445, ,0.037212557610872866, ,0.0011186081492388987, ,0.25957649736843424,-0.17262624793754047,0.11855090566000001,1.6846490059546686,0.5708672960200102,-1.3591510975215402, ,0.12404828961891604,0.10747105499260563,0.03992183338345865,0.00611626076947091,0.1529404966422823,-0.12471271992055732, ,1.6108570098876953
0.023444411930451492,0.019501680068650072,-0.1068261861555774, ,0.02436987038705761,0.01896297245909023,-0.10755671687504476, ,0.0012962848358238817, ,0.022523347294865124,-0.004811313250457283,-0.03671554550781191,0.026100594811674246,0.02652546160730142,-0.04310481550987031, ,0.04334144887397445, ,0.037212557610872866, ,0.0011198168341816537, ,0.2608044118954359,-0.17158367899952015,0.11893331121000002,1.6846490059546686,0.5720970245178991,-1.3602355373949484, ,0.12502890850918416,0.10520725228211839,0.038198588776978425,-0.00882149721022674,0.11570001538836609,-0.09277959284907558, ,1.6161739826202393
0.023444411930451492,0.019501680068650072,-0.1068261861555774, ,0.02449382572711753,0.018942177646519388,-0.10774159990626246, ,0.0015007646757391445, ,0.022588843688496753,-0.005013336609734051,-0.03509185245085805,-0.00821933339001977,-0.013427521381819353,-0.025674035854489092, ,0.04203364737420049, ,0.015741745683159624, ,0.001122390806084069, ,0.2608044118954359,-0.17158367899952015,0.11893331121000002,1.6846490059546686,0.5720970245178991,-1.3602355373949484, ,0.12502890850918416,0.10520725228211839,0.038198588776978425,-0.00882149721022674,0.11570001538836609,-0.09277959284907558, ,1.6215200424194336
0.02366202410426876,0.01944972913815703,-0.10715963136902275, ,0.024617807579434672,0.018922228812531066,-0.10792543644935902, ,0.001333505180344108, ,0.022839998895449215,-0.005135117473268846,-0.03500107934635503,-0.033154580214205046,-0.038417880027709454,0.030559217834240145, ,0.04210831908801672, ,0.05074551374288828, ,0.001123807681079103, ,0.2620168809566892,-0.17057200099299674,0.11929627241000001,1.684019936124215,0.5731901165160227,-1.3611268806245198, ,0.12585801267701696,0.10292509930419824,0.038107204593301434,-0.06650163158484632,0.10095116207476917,-0.08075289192400822, ,1.6268541812896729
0.023894127093201916,0.019398808854864728,-0.1075048614368973, ,0.024741811738118014,0.018903138330804387,-0.10810821432561567, ,0.0011525160449961543, ,0.022458771049541547,-0.004890258909018754,-0.03355764192717423,0.0012863616761859423,-0.0053656277507670835,0.026067823094693708, ,0.04067464026842038, ,0.0055138128256836125, ,0.0011239990701718834, ,0.26332974554530736,-0.1695526002535991,0.11967478909000001,1.6833908662937616,0.5744198450139116,-1.3621296417577875, ,0.12737844504492724,0.09823699954293041,0.036872248888888896,-0.06317966221028355,0.13560528229856184,-0.10912129482875599, ,1.632507085800171
0.023894127093201916,0.019398808854864728,-0.1075048614368973, ,0.024865834064100745,0.018884918361528606,-0.10828992156729852, ,0.0013507839519257712, ,0.022458771049541547,-0.004890258909018754,-0.03355764192717423,0.0012863616761859423,-0.0053656277507670835,0.026067823094693708, ,0.04067464026842038, ,0.0055138128256836125, ,0.0011255009568060153, ,0.26332974554530736,-0.1695526002535991,0.11967478909000001,1.6833908662937616,0.5744198450139116,-1.3621296417577875, ,0.12737844504492724,0.09823699954293041,0.036872248888888896,-0.06317966221028355,0.13560528229856184,-0.10912129482875599, ,1.637878179550171
0.024111777485976364,0.019353117296307905,-0.10782847345829666, ,0.02498987048478753,0.01886758085238515,-0.10847054641674869, ,0.0011912391182771357, ,0.022073635247302843,-0.00450423366916837,-0.032625923465251,0.031412908401220435,0.019133820221079487,-0.046106560090610614, ,0.039648258170288594, ,0.03678093152012541, ,0.0011259334447104306, ,0.26456538280518327,-0.1686027041100695,0.12003126884000001,1.683181176350277,0.575786210011566,-1.3632438207947517, ,0.12569131332247785,0.09614685061648508,0.03603803511312218,0.012220272516495406,0.14591120985642458,-0.1176357715802341, ,1.643315076828003
0.024111777485976364,0.019353117296307905,-0.10782847345829666, ,0.025113916993711224,0.018851137539534504,-0.10865007732547459, ,0.0013897122665268093, ,0.022073635247302843,-0.00450423366916837,-0.032625923465251,0.031412908401220435,0.019133820221079487,-0.046106560090610614, ,0.039648258170288594, ,0.03678093152012541, ,0.0011276574892974658, ,0.26456538280518327,-0.1686027041100695,0.12003126884000001,1.683181176350277,0.575786210011566,-1.3632438207947517, ,0.12569131332247785,0.09614685061648508,0.03603803511312218,0.012220272516495406,0.14591120985642458,-0.1176357715802341, ,1.6485590934753418
0.02433468724793978,0.019309714573225792,-0.10816165362828108, ,0.025237969650182292,0.018835599948599912,-0.10882850295324349, ,0.001218766506632001, ,0.022307541932358513,-0.003827246520860723,-0.032899083066436234,0.028471575396017124,0.008864539154016986,-0.04237334744934577, ,0.03993274232516025, ,0.02981898924008007, ,0.0011282491062931446, ,0.26582418826368187,-0.1676528079665399,0.12039941520000001,1.683181176350277,0.5772892115089859,-1.3643877389952719, ,0.1255250549715222,0.08994970763836094,0.03645036961098399,0.010412251325866912,0.13556972220379246,-0.10939083453118618, ,1.6537930965423584
0.02433468724793978,0.019309714573225792,-0.10816165362828108, ,0.025362024578945777,0.018820979395654133,-0.1090058121671727, ,0.0014166466405770234, ,0.022307541932358513,-0.003827246520860723,-0.032899083066436234,0.028471575396017124,0.008864539154016986,-0.04237334744934577, ,0.03993274232516025, ,0.02981898924008007, ,0.001130109735546589, ,0.26582418826368187,-0.1676528079665399,0.12039941520000001,1.683181176350277,0.5772892115089859,-1.3643877389952719, ,0.1255250549715222,0.08994970763836094,0.03645036961098399,0.010412251325866912,0.13556972220379246,-0.10939083453118618, ,1.6590750217437744
0.024575733069612898,0.019274145798989263,-0.1085179185376661, ,0.025486077969828356,0.018807286988201815,-0.10918199404082127, ,0.001219705399040668, ,0.023996858656083725,-0.0032815075950870737,-0.03561091798935383,-0.029718083225452982,-0.062497471164232585,-0.027480887421397135, ,0.043066866585591744, ,0.06920289808970452, ,0.001130684066722833, ,0.2671293301194258,-0.16673380275450717,0.12079219107000001,1.6833908662937616,0.5781090305075786,-1.3650562464174505, ,0.12823911021414972,0.08811229485466182,0.03923352591133005,0.0,0.0672061896429436,-0.053644957695292726, ,1.6643199920654297
0.024575733069612898,0.019274145798989263,-0.1085179185376661, ,0.025610126077396836,0.018794533626167242,-0.10935703785328171, ,0.0014156687312752879, ,0.023996858656083725,-0.0032815075950870737,-0.03561091798935383,-0.029718083225452982,-0.062497471164232585,-0.027480887421397135, ,0.043066866585591744, ,0.06920289808970452, ,0.001132499255669027, ,0.2671293301194258,-0.16673380275450717,0.12079219107000001,1.6833908662937616,0.5781090305075786,-1.3650562464174505, ,0.12823911021414972,0.08811229485466182,0.03923352591133005,0.0,0.0672061896429436,-0.053644957695292726, ,1.6696760654449463
0.02481980302763003,0.01924150741991365,-0.1088875019548798, ,0.025734165220609246,0.01878273000287895,-0.10953093308827194, ,0.0012085274352488186, ,0.023859158431446502,-0.0028573522782021567,-0.03565514953984508,0.02055839466236644,-0.012285634981707188,0.0014466359881057569, ,0.042996669543202144, ,0.02394841942483669, ,0.0011329804466790258, ,0.2681950672560688,-0.16601558859720428,0.12112404131000001,1.682761796463308,0.5789288495061712,-1.3656430750994883, ,0.12893606190009615,0.08360964013962183,0.03962390925373134,-0.03499025222945139,0.11560497840690642,-0.09801345234651034, ,1.674964189529419
0.02481980302763003,0.01924150741991365,-0.1088875019548798, ,0.02585819178246309,0.01877188660605179,-0.1097036694332256, ,0.0014017575638052991, ,0.023859158431446502,-0.0028573522782021567,-0.03565514953984508,0.02055839466236644,-0.012285634981707188,0.0014466359881057569, ,0.042996669543202144, ,0.02394841942483669, ,0.001134670868799317, ,0.2681950672560688,-0.16601558859720428,0.12112404131000001,1.682761796463308,0.5789288495061712,-1.3656430750994883, ,0.12893606190009615,0.08360964013962183,0.03962390925373134,-0.03499025222945139,0.11560497840690642,-0.09801345234651034, ,1.6802680492401123
0.025057628577295037,0.019212727190209916,-0.10924135903020649, ,0.025982202209655362,0.018762013718775953,-0.10987523677838458, ,0.0012082135716103139, ,0.023193321908148268,-0.0027577379296134315,-0.0341841422876848,0.03453873029176831,0.00429349893182198,0.024363460288892583, ,0.04140158068924542, ,0.034803898402930425, ,0.0011351305106918857, ,0.2697473365637879,-0.16505024698792622,0.12159459458,1.6821327266328545,0.5805684875033564,-1.3669800899438453, ,0.1284126408098387,0.07810447864894715,0.038198588776978425,-0.05942030196542071,0.14552156285888404,-0.12240842097581782, ,1.685542106628418
0.025057628577295037,0.019212727190209916,-0.10924135903020649, ,0.026106193012229544,0.018753121420499303,-0.11004562521589034, ,0.0013991314931754142, ,0.023193321908148268,-0.0027577379296134315,-0.0341841422876848,0.03453873029176831,0.00429349893182198,0.024363460288892583, ,0.04140158068924542, ,0.034803898402930425, ,0.001136770268347063, ,0.2697473365637879,-0.16505024698792622,0.12159459458,1.6821327266328545,0.5805684875033564,-1.3669800899438453, ,0.1284126408098387,0.07810447864894715,0.038198588776978425,-0.05942030196542071,0.14552156285888404,-0.12240842097581782, ,1.6908071041107178
0.025279221445665887,0.019189827986669076,-0.10956053172906463, ,0.026230160763232886,0.018745219588014377,-0.1102148250388758, ,0.0012369567288764512, ,0.02388126271689965,-0.002114168500768298,-0.03395916990357378,0.046909231895221316,-0.0005856468542488771,-0.056835936912144884, ,0.04156933530792877, ,0.04691240620531769, ,0.0011373887032886023, ,0.27097525109078957,-0.16433203283062334,0.12195237062000001,1.6819230366893698,0.5817982160012454,-1.3679828510771133, ,0.13253762787495918,0.07567539199240093,0.038198588776978425,0.027622869597154286,0.13014354925204508,-0.10986868201858196, ,1.6960501670837402
0.025279221445665887,0.019189827986669076,-0.10956053172906463, ,0.026354102098365292,0.01873831789644151,-0.11038282674055669, ,0.0014266740570465031, ,0.02388126271689965,-0.002114168500768298,-0.03395916990357378,0.046909231895221316,-0.0005856468542488771,-0.056835936912144884, ,0.04156933530792877, ,0.04691240620531769, ,0.0011391634600601231, ,0.27097525109078957,-0.16433203283062334,0.12195237062000001,1.6819230366893698,0.5817982160012454,-1.3679828510771133, ,0.13253762787495918,0.07567539199240093,0.038198588776978425,0.027622869597154286,0.13014354925204508,-0.10986868201858196, ,1.7013270854949951
