NicholasDascanio/dvrk_moveit_final/test/execution/third_experiment_notsharpbends/thirdexp_200vel4.0/thirdexp_200vel4.0_28.csv
Current Position (x),Current Position (y),Current Position (z), ,Planned Position (x),Planned Position (y),Planned Position (z), ,Position Error,,Cartesian linear Velocity(x),Cartesian linear Velocity(y),Cartesian linear Velocity(z),Cartesian Angular Velocity(x),Cartesian Angular Velocity(y),Cartesian Angular Velocity(z), ,Total Linear Velocity, ,Total Angular Velocity, ,MSE, ,Joint 1 Position,Joint 2 Position,Joint 3 Position,Joint 4 Position,Joint 5 Position,Joint 6 Position, ,Joint 1 Velocity,Joint 2 Velocity,Joint 3 Velocity,Joint 4 Velocity,Joint 5 Velocity,Joint 6 Velocity, ,Time Stamp
0.009714761036607388,0.020232648472772043,-0.07972987533726987, ,0.00990371363876895,0.020216821362061408,-0.07990515725916347, ,0.0002582195489109751, ,0.0014843773648638328,0.0003507858897968906,-0.0013196118385504884,0.18889959559640515,-0.14642130154630334,-0.038619116584057554, ,0.002016879348459717, ,0.2390026250127703, ,2.151829574258126e-05, ,0.13752642702419007,-0.24626250589327117,0.08941289904000001,1.6045474475435806,0.14428814375230511,-1.3084516588126778, ,-0.0010252294346702092,-0.00023019455075716703,0.0013524734348042402,-0.0008755488975385703,-0.15241916429711555,-0.18880276988409017, ,0.052124977111816406
0.00977924259115943,0.020270030541691367,-0.07987726508640958, ,0.009972316685990764,0.02026764671608419,-0.0801311466097342, ,0.0003189656981637571, ,0.002200459728868772,0.0011354863837849105,-0.00441331055283348,0.011697513293322276,-0.16487263874255964,-0.04083334012524084, ,0.005060500210639806, ,0.1652870800199089, ,2.6235693048851464e-05, ,0.13751870429131585,-0.24626250589327117,0.08956586126,1.6045474475435806,0.13936922976074928,-1.3162840315999882, ,0.0006254460582556687,-0.0001773636023800618,0.004594407706951255,-0.0008755488975385703,-0.16925056796745067,-0.011642657179325666, ,0.10433387756347656
0.009852059137092138,0.02033640905227084,-0.08013950891100396, ,0.010041788829759125,0.020316644265450576,-0.08035552341061718, ,0.00028818443247459875, ,0.0010376266712094162,0.0009775433835044634,-0.0039093101679757184,0.009320142166243352,0.009976695569202781,0.005391382189602869, ,0.00416112558869314, ,0.013652820352091173, ,2.7042802485916595e-05, ,0.13798206826376933,-0.24624706042752273,0.08984326732,1.6045474475435806,0.1395058662605147,-1.3128015849374999, ,0.008183428022873245,0.0003937325624799773,0.00414596864133264,-0.0008755488975385703,0.018940781229089685,-0.00982873757988488, ,0.1575617790222168
0.009902253268052504,0.020377208337869143,-0.08031016846109074, ,0.010112118442901604,0.02036384098565932,-0.08057831169102275, ,0.0003407680581831566, ,0.001267779298511274,0.0011604654575499583,-0.004924912364368077,0.008701679316107882,-0.0016674488191405078,0.002238240380491101, ,0.00521619652856427, ,0.008860000315323866, ,2.9417993603231406e-05, ,0.13830642304448673,-0.2462084467631516,0.09002345163000001,1.6045474475435806,0.1395058662605147,-1.3131282998980622, ,0.007862211191034644,0.0012525176532911528,0.005181786441119064,-0.0008755488975385703,0.00659580903085967,-0.010060519375144097, ,0.20465779304504395
0.009965645864432446,0.020437778300198023,-0.08055632278416153, ,0.010183293978935965,0.020409263684660377,-0.0807995352766425, ,0.0003276218880737471, ,0.0011232509087756761,0.0010679876193361896,-0.00460078294375098,0.000792644334301176,-0.0022335858246252645,-0.00140190703189013, ,0.0048548423099654524, ,0.002370060888518167, ,3.067519251612469e-05, ,0.13866166875670108,-0.24616983309878046,0.09028270963000001,1.6049668274305493,0.1395058662605147,-1.3132099786382028, ,0.006271726727385454,0.0013669496176068603,0.004826912581818183,0.002179157988341158,0.003616168820421852,-0.00185375002341978, ,0.2522439956665039
0.010022348011676783,0.02048765166294266,-0.08076646769683213, ,0.01025530397183656,0.02045293900328345,-0.08101921779032101, ,0.0003454794608558037, ,0.0013345792428368752,0.0010848106768233986,-0.004703015115794425,-0.003167173631589998,-0.01091871705741345,0.012536481926036534, ,0.005007620906114193, ,0.01136878923595976, ,3.185150994342438e-05, ,0.13904008266753806,-0.2461157739686609,0.09050437522,1.605176517374034,0.139915775759811,-1.313544232349292, ,0.008304489114964427,0.0012960618904134086,0.00495144902704383,-0.013086630348217904,0.0005925435328495101,0.00012469621185760013, ,0.2997138500213623
0.010092767871414927,0.020543249612500654,-0.08100996637169695, ,0.01032813703579979,0.02049489341566444,-0.08123738265272559, ,0.00033084003716688816, ,0.001563291907967122,0.0009985094188807036,-0.004408560172429529,0.005459073623661341,-0.006336636611747312,0.009838029568416912, ,0.004782918088681934, ,0.00836387749268391, ,3.250116358571951e-05, ,0.13951116937286576,-0.24603082390704442,0.09076104064000001,1.605176517374034,0.1401890487593419,-1.3136853894165443, ,0.012378760311730769,0.001614762332422374,0.004683567044986769,-0.008385171941058853,0.008331736796006347,-0.008187616400163533, ,0.34847593307495117
0.010163159928828581,0.0205846021864742,-0.08120199587492465, ,0.010401781865010267,0.020535153229673427,-0.0814540530830192, ,0.0003505972959225489, ,0.00201052101886817,0.000948340447178314,-0.004973199415705424,-0.00067421327644752,-0.014220538121581866,0.006700117677663427, ,0.005447408264435285, ,0.014236511685358881, ,3.369311078620362e-05, ,0.14005176067406147,-0.24593042837967952,0.09096455817000001,1.605176517374034,0.14032568525910732,-1.3137151285801, ,0.016263400438469716,0.0039724868458441455,0.005263982656972903,-0.006609809725124893,0.0037631731774223362,-0.004154106605895159, ,0.390819787979126
0.010240481073780072,0.020627793053412006,-0.08141405148918826, ,0.010476227233406585,0.020573744587341413,-0.08166925209953026, ,0.0003516032422805015, ,0.0017933343714310803,0.0009687425745406106,-0.005066528421273604,0.004730355781559951,-0.004567933733209911,0.000679254001603387, ,0.005461155609123116, ,0.006575886333615168, ,3.466999597657115e-05, ,0.14065413383825098,-0.24579141918794348,0.09118881634,1.605176517374034,0.14059895825863825,-1.313937964387493, ,0.014023487743234933,0.00404463889058816,0.005339863064029502,0.001088286892036155,0.009471513832333772,-0.008587698658883496, ,0.43374180793762207
0.010308277152245105,0.020658234910378225,-0.08158874723609469, ,0.010551461994447182,0.020610693465288273,-0.08188300252042433, ,0.0003846884828455429, ,0.0016876166641771027,0.000929369987557927,-0.004856456898438977,0.002984309211478605,-0.0056063520694106545,0.0011072182475426052, ,0.005224648522664199, ,0.006351163853534756, ,3.5836610270407824e-05, ,0.14120244787232095,-0.2456137963318363,0.09137288952000001,1.6053862073175185,0.1408722312581691,-1.3141608001948857, ,0.012816982922537922,0.0038204834058421376,0.005113583152487962,0.00015023995303835742,0.007394050784241659,-0.006746026907370913, ,0.47588300704956055
0.010396339416048275,0.02071289851392611,-0.08186770480360327, ,0.01062747508087631,0.02064602567514961,-0.08209532696437513, ,0.0003312212556524385, ,0.0017612076108934642,0.0010838613041974554,-0.005448420947669122,0.004546194152427855,-0.002870905291810847,0.0017514436870918028, ,0.005827683793618642, ,0.005376799574549749, ,3.628189400529958e-05, ,0.14182798923513312,-0.24541300527710647,0.09166585106000001,1.6053862073175185,0.14128214075746542,-1.314331696425694, ,0.012919937584543332,0.003750076032322909,0.0057339134341252715,0.00022430160038304828,0.010300952353839469,-0.008228819852012207, ,0.5186557769775391
0.010449247820208939,0.020742327624344883,-0.08201620348656764, ,0.010704255504489538,0.02067976686400409,-0.08230624785123612, ,0.00039123969795064713, ,0.0017936633669175454,0.0008684818784157094,-0.004986752451665905,0.0027217491289490466,-0.0028844908900389266,0.0018965699955687282, ,0.005370213129956238, ,0.003965879843342741, ,3.756475792972528e-05, ,0.1422295713445928,-0.2453048870168673,0.09182140586000001,1.6053862073175185,0.1415554137569963,-1.3144728534929462, ,0.014085934623492767,0.004899759418845303,0.00524837282372323,0.0002494683149680985,0.01159516022028453,-0.0075354197930687155, ,0.5551149845123291
0.010529673505974158,0.02079171099790321,-0.08226524223370499, ,0.010781792355900068,0.02071194251480098,-0.08251578740271068, ,0.00036427984722803915, ,0.0022269597887281615,0.0012430789787728712,-0.006708839660104065,-0.006043895829065183,-0.009609841918883203,0.008654305447088615, ,0.007177264439399206, ,0.011352432554653888, ,3.8453587243058285e-05, ,0.1428010535772854,-0.24512726416076017,0.09208455273,1.6060152771479719,0.14182868675652718,-1.3146140105601987, ,0.01599476513710952,0.00550230842476914,0.007041914907161805,-0.0076596751543012214,0.008502880210631395,-0.0004570837827205967, ,0.5917809009552002
0.01061636960870301,0.020825557815971237,-0.08248352261026384, ,0.010860074804303819,0.020742577946786814,-0.08272396764302441, ,0.0003522665110848899, ,0.002096930125222551,0.0007403328509671257,-0.004819910575258116,-0.00010490159207189118,-0.00729371415903808,0.00939703984781824, ,0.0053081773363153565, ,0.007294468313485572, ,3.9140293031351525e-05, ,0.14350382226883984,-0.24486469124303653,0.09231399606000001,1.6060152771479719,0.1422385962558235,-1.3148665855311472, ,0.018075607915899194,0.005831465504918455,0.005092331048593351,-0.007371620398328566,0.012959706707005362,-0.006686862046736792, ,0.6288728713989258
0.010682407204777096,0.02084807921468755,-0.08264278118722142, ,0.010939092097245945,0.020771698315933305,-0.08293081039959549, ,0.0003932963296257404, ,0.0023291898517709044,0.000870095748116983,-0.005578624795128171,-0.00833393069106036,-0.014396663127845849,0.0065355720950652525, ,0.006107638380037136, ,0.01663485210565649, ,4.007243583140058e-05, ,0.14404441357003556,-0.24464845472255825,0.09248121747000002,1.6060152771479719,0.1425118692553544,-1.3150077425983993, ,0.018706276672278886,0.0065437097526373725,0.005875622102545187,-0.0062518231643715364,0.006006992874014493,0.0009878588577148179, ,0.6657857894897461
0.01075225665379587,0.020873437015438395,-0.08280871918022473, ,0.011018833560386179,0.02079932861536401,-0.08313633730370609, ,0.00042882273368175704, ,0.002342855186639121,0.0010162666162560124,-0.005968159932441679,-0.0018309215101987872,-0.006384107720823704,0.00041343232369948045, ,0.006491586958524129, ,0.00664146801511043, ,4.1478317314186806e-05, ,0.14463134126847663,-0.2444476636678284,0.09265621662000001,1.6058055872044876,0.14292177875465073,-1.3151786388292075, ,0.01879519539680546,0.006104151699188835,0.006295972932806325,0.0017863985205082014,0.01234984169224388,-0.00396246794937412, ,0.697058916091919
0.010854497287820269,0.0209228668883318,-0.08308677080983466, ,0.011099288597264561,0.020825493675781622,-0.0833405697911735, ,0.0003658117693984539, ,0.0024641304745436766,0.0012691827648834365,-0.0065919922551302525,0.00796064656680939,-0.00513323615509329,-0.0043603525547026845, ,0.007151022708532622, ,0.009472169484235045, ,4.231361635356775e-05, ,0.1454190600216475,-0.24418509075010478,0.09294917816,1.6062249670914566,0.14346832475371246,-1.3153792742235715, ,0.018629160101780676,0.006089031434698213,0.006986320842105265,0.006518305246589277,0.008510498293676097,-0.001858493470559162, ,0.7293848991394043
0.010924403101252119,0.02095146969821679,-0.0832624200401542, ,0.011180446689067427,0.020850218165895412,-0.08354352910302187, ,0.00039348760702861084, ,0.0025020684164622584,0.001032007315121158,-0.006293945671091868,0.012596561571547055,0.002551061001464845,-0.0007188630783991507, ,0.006851214313519729, ,0.012852286402901262, ,4.3269821209096555e-05, ,0.14599826498721435,-0.24399202242824916,0.09313454763000001,1.6062249670914566,0.14401487075277425,-1.3155799096179357, ,0.02103212357235611,0.006917831497361124,0.006648084941569284,0.005486600620344825,0.02293891950926534,-0.01866810623389846, ,0.7608358860015869
0.01100611450885999,0.020984240763234515,-0.08346406102745947, ,0.01126229739439297,0.02087352659284804,-0.08374523628615188, ,0.0003961651479687642, ,0.0028588653036726616,0.0011903461161164896,-0.007350163756797702,2.3889565618494747e-05,-0.013282069115424547,0.0009455124284740996, ,0.00797589756406384, ,0.013282089792099968, ,4.4168151608531984e-05, ,0.146639251815775,-0.24376806317489666,0.09334713919000001,1.606434657034941,0.14428814375230511,-1.3158027454253283, ,0.021775342257565576,0.008030160232071003,0.00773243277669903,0.0,0.008753595899550836,-0.007967852662915609, ,0.7924168109893799
0.011058635220529541,0.02100433008520007,-0.08359978588147879, ,0.011344830349017006,0.020895443302642955,-0.08394571219401417, ,0.0004619837623660863, ,0.002634590972793559,0.0008791075394986171,-0.006906918192302896,0.004379038534345476,0.003953450799146556,0.004922750815878216, ,0.007444421977231901, ,0.005899638631956749, ,4.570409431122896e-05, ,0.14731112957583253,-0.24349004479142455,0.09356880478000001,1.606434657034941,0.14469805325160143,-1.3162186778765583, ,0.023843452652882107,0.00973180225410324,0.007944544399002496,0.0,0.023880107273103312,-0.012974103875257544, ,0.8191537857055664
0.011162859992283164,0.02104014876283959,-0.08386480274645808, ,0.011428035265658873,0.020915992480571414,-0.08414497748727817, ,0.0004052537395634296, ,0.0029331301493409146,0.0009211446103854509,-0.007796067643628609,-0.005168199363884829,-0.006999705571467143,-0.005718263550517655, ,0.008380359811502591, ,0.008700927189274076, ,4.6795040410039364e-05, ,0.1478671663427767,-0.24322747187370095,0.09376713715000001,1.6066443469784255,0.14510796275089774,-1.3165529315876476, ,0.022177364234276884,0.012326335439877423,0.008114524462557312,0.00754615429482182,0.013771800878405476,-0.005944717398219607, ,0.8459019660949707
0.011214297202969644,0.021056790078797172,-0.0840041781902935, ,0.011511901933746807,0.02093519815163949,-0.08434305263450528, ,0.0004671071199101016, ,0.0027150281486606827,0.0006408722159773611,-0.006578030618843193,0.011978578645988579,0.01063107811919057,-8.009186960071198e-05, ,0.007145108947221879, ,0.01601580956549462, ,4.819103991818251e-05, ,0.14826874845223637,-0.24301123535322264,0.09391232163,1.6066443469784255,0.14551787225019408,-1.3168871852987367, ,0.023807561856114094,0.012050976044296315,0.006871790992234686,0.006756399155518419,0.03381675118335359,-0.02293121304348528, ,0.8722999095916748
0.011307132282784623,0.02107275370306101,-0.08421091361848312, ,0.011596420219184016,0.020953084180995594,-0.08453995791281854, ,0.00045417887697720707, ,0.0031389381161694694,0.0007222605766034061,-0.007190447185601857,-0.003076214942445348,-0.011576441566126396,-5.7521643371895385e-05, ,0.0078789037033452, ,0.011978191786947935, ,4.9430712461126085e-05, ,0.14903329900678458,-0.2425864850451403,0.09412750577000001,1.6068540369219102,0.1459277817494904,-1.3171397602696855, ,0.02544153929181522,0.012766977204153205,0.007513590339622642,0.0015872117110581551,0.013896636422775919,-0.009320401665565109, ,0.8983979225158691
0.011381020368879731,0.021091215571179215,-0.08439121943389367, ,0.011681580064113968,0.020969674274356934,-0.08473571340857501, ,0.00047305868116364274, ,0.003145322841015526,0.000890227741875389,-0.007918134857149303,0.005923987656562294,0.00012167522201453602,0.001579096197457843, ,0.00856635399820842, ,0.005925234467039126, ,5.099512059362119e-05, ,0.14962022670522565,-0.24226985299729709,0.09431546782000001,1.6070637268653947,0.14633769124878673,-1.317228977760353, ,0.025366731237228223,0.012889667777935734,0.008270410965732087,0.0027934679680838544,0.025578700161106555,-0.01826245334298683, ,0.9197478294372559
0.011452742943554238,0.02111441106985014,-0.08458103743381604, ,0.011767371486686874,0.020984991978437454,-0.0849303390180363, ,0.0004875982138140344, ,0.0036351649884193704,0.00129096407176851,-0.009711523531501143,0.0281031051045865,0.022146660558491103,0.008282522092954391, ,0.010449626884751798, ,0.035780707148235065, ,5.257077465717425e-05, ,0.15019170893791828,-0.2419841118809508,0.09451380019000001,1.6070637268653947,0.1470208737476139,-1.3177043885386945, ,0.030760759014091015,0.013529646643637122,0.010191178195777351,0.0027934679680838544,0.05382926460756564,-0.041073671947769404, ,0.9408237934112549
0.011533075210516322,0.021143041673503525,-0.08479136977121653, ,0.011853784580824235,0.020999060681373926,-0.08512385444804, ,0.00048387094004531423, ,0.004334733372240651,0.0014658722157105005,-0.011235941180244671,-0.016001371182972134,-0.022088447168395243,-0.005456095566808764, ,0.012131985367907713, ,0.02727532216063005, ,5.4057665099655866e-05, ,0.15080952756785623,-0.2416983707646045,0.09473416949,1.6072734168088794,0.1475674197466757,-1.3179050239330585, ,0.031205834119852276,0.015784587750909976,0.011738254620486369,0.005256563719041126,0.008100079748942866,0.0011637054790531436, ,0.9618208408355713
0.011614673245901088,0.021167040886182223,-0.08499438571398842, ,0.011940809515985551,0.0210119036131538,-0.08531627921667094, ,0.00048378493901373706, ,0.003748152017333335,0.0010986237211872995,-0.00950433039378739,0.04221548847112825,0.029067253680933124,0.004258242396723393, ,0.010275597980656217, ,0.05125478149258927, ,5.548082615611924e-05, ,0.15146595986216532,-0.24138173871676127,0.09494676105000001,1.6074831067523636,0.14825060224550288,-1.3183804347114, ,0.03295032693002458,0.015120608916263666,0.00997420884157796,0.008669321408742521,0.06177176763114634,-0.055879681034591365, ,0.9829859733581543
0.011698711403350655,0.021183027802749797,-0.08517779798273917, ,0.012028436536933647,0.021023543846042096,-0.08550763265393216, ,0.0004928942142939537, ,0.004355374939037274,0.0006525281750824748,-0.008780059385151986,-0.0161246284240331,-0.019461808019815716,-0.0074227255623348495, ,0.009822653749657772, ,0.02527381176307442, ,5.7189997547876284e-05, ,0.1521532830879713,-0.24103421573742118,0.09513861197000001,1.6074831067523636,0.14866051174479922,-1.3186330096823489, ,0.03623403648662496,0.01799335258977451,0.009154489379310347,0.008669321408742521,0.015533501078189897,-0.0008346134838866396, ,0.9998459815979004
0.011729547442885685,0.02118689570845902,-0.08523862134106167, ,0.012116655963500157,0.021034004295008044,-0.08569793390241659, ,0.0006198361235502365, ,0.00457429321841866,0.0007759385921538671,-0.009491502854808464,-0.018099909209780652,-0.02333600245587315,-0.008259144260292738, ,0.010564793684199512, ,0.029532620049534327, ,5.9500647707188695e-05, ,0.15240041053994646,-0.24090292927855936,0.09520213018000001,1.6074831067523636,0.14866051174479922,-1.318551330942208, ,0.03705464332622834,0.01866947502625827,0.009936875558328137,0.008669321408742521,0.012004910298765086,0.0009256453481249613, ,1.0156447887420654
0.01183836943494272,0.021205889275965378,-0.08548007761516908, ,0.012205458190351444,0.021043307718152698,-0.08588720191797822, ,0.0005717841509049953, ,0.005036724144852057,0.001031111438249288,-0.011338887229355749,0.007528890452847121,-0.004550850990608073,-0.0024732720015791312, ,0.012449985723263744, ,0.008797400113331669, ,6.149700409187615e-05, ,0.1533503066834761,-0.24042411984035744,0.09545490673000001,1.6074831067523636,0.14989024024268818,-1.3194724133353355, ,0.041349429872972014,0.02093007092158597,0.011869457168405368,0.00822195804075746,0.03588750348796183,-0.026997155557878186, ,1.031294822692871
0.011902089415413866,0.021221196435324143,-0.08562491855402996, ,0.012294833686754391,0.021051476717135822,-0.08607545547040282, ,0.0006213182424711955, ,0.0060582045918187695,0.001331677336840371,-0.013428812237315605,-0.022619816954225075,-0.043437516183420705,-0.011696888928529442, ,0.014792167032279807, ,0.04897421254622417, ,6.368114024285398e-05, ,0.15383683885455224,-0.24017699238838225,0.09560657266000001,1.6079024866393328,0.15002687674245363,-1.319420473758751, ,0.0454487268000339,0.023379389396026306,0.014046571005291006,0.008454552141101194,0.0,0.0007748815723293994, ,1.047407865524292
0.011959026888973878,0.02123471893942282,-0.08575864497067029, ,0.012384772996341852,0.021058533737602633,-0.08626271314408002, ,0.0006829243711598095, ,0.005805442199637978,0.001352808152376024,-0.013208376217448107,-0.00020337029033000838,-0.017382150593465113,-0.010873296284081447, ,0.014491185297694638, ,0.01738332870049224, ,6.643144762242875e-05, ,0.1542924800941315,-0.23994531040215553,0.09574657198000001,1.6081121765828172,0.15043678624174994,-1.31975472746984, ,0.0454487268000339,0.022578382478817695,0.013839106446568205,0.014079372158487542,0.025471816006439305,-0.01999567642388942, ,1.057856798171997
0.012013132249791844,0.02124756358683554,-0.0858900424657113, ,0.01247526673687844,0.02106450106961117,-0.0864489933386738, ,0.0007480015025070809, ,0.005791310666760403,0.0012910917189932177,-0.014398974477101647,0.031001348600784327,0.019903315652284065,0.021354877409608456, ,0.015573588637754958, ,0.03684053433473262, ,6.944683295214553e-05, ,0.15473267586796227,-0.23971362841592878,0.09588397872000001,1.608321866526302,0.15098333224081167,-1.3202003990846256, ,0.04785524032197215,0.026128012543631823,0.015027180679245284,-0.008498957706132746,0.07190008606657856,-0.05805352182714075, ,1.0683929920196533
0.0120761086541304,0.021261940037112646,-0.0860427014144584, ,0.012566305600026039,0.021069400848059045,-0.0866343142697941, ,0.0007920670146428816, ,0.006895277355337263,0.0015812874975686584,-0.016323843724216688,-0.007255144650867129,-0.02082225892992744,0.012231323672378185, ,0.017790817684683363, ,0.022049998452910113, ,7.26175773634979e-05, ,0.15523465350478688,-0.23944333276533092,0.09604342239000001,1.608321866526302,0.15152987823987346,-1.320727749439552, ,0.05301505114998367,0.02822633597812932,0.01705440205567452,-0.008498957706132746,0.0352430861783953,-0.02189347920779434, ,1.0789837837219238
0.012153213905270686,0.02128116025147835,-0.08622870272603295, ,0.012657880351110165,0.021073255053111088,-0.08681869396966847, ,0.0008037427826307228, ,0.007354462147441124,0.0019503478824103144,-0.01778602135275645,-0.010540280299873254,-0.02737323692477478,0.011074388744425012, ,0.019345142178368066, ,0.02933240236745241, ,7.578347942072736e-05, ,0.15582158120322792,-0.23913442345036195,0.09623786589000001,1.608321866526302,0.15193978773916977,-1.3210620031506413, ,0.054885449137345735,0.028092641077107988,0.018608424672897198,-0.008498957706132746,0.03041496828754039,-0.018483487213436716, ,1.0894358158111572
0.012227732372995612,0.021299427808507236,-0.08640987518287167, ,0.012749981828884368,0.02107608551062522,-0.08700215028781241, ,0.000820619324737046, ,0.0076049174496471235,0.0019108866928807828,-0.018849430432830938,0.010128920203583403,-0.0007379633076540233,-0.00994852148427154, ,0.02041536884337653, ,0.010155650388042295, ,7.896944306784922e-05, ,0.15638534070304633,-0.23883323686826718,0.09642712423000001,1.6081121765828172,0.15234969723846611,-1.3213962568617306, ,0.05804094284921761,0.03176998378254797,0.01968950744128554,0.018768963346625984,0.054442150809669215,-0.03866918650568274, ,1.099843978881836
0.012379078762548295,0.02133116318084532,-0.08678114479286157, ,0.01284260094529732,0.021077913892580676,-0.08718470089170166, ,0.0006647146311147372, ,0.0077482996073166355,0.001116699360067191,-0.01795742288055303,0.03325939150673287,0.025472910981726448,0.010787229718048293, ,0.01958959419632084, ,0.04189336999998328, ,8.135989469510884e-05, ,0.15761325523004802,-0.2381459136424612,0.09681471494,1.608321866526302,0.1541259717354168,-1.3228446896097839, ,0.06451185693981698,0.03771738535710285,0.018717757367802585,0.005247720144128809,0.0913751208889882,-0.0697043413037436, ,1.1109678745269775
0.012379078762548295,0.02133116318084532,-0.08678114479286157, ,0.012935728685257341,0.021078761717504144,-0.08736636326744296, ,0.0008461951891497134, ,0.0077482996073166355,0.001116699360067191,-0.01795742288055303,0.03325939150673287,0.025472910981726448,0.010787229718048293, ,0.01958959419632084, ,0.04189336999998328, ,8.495067072541215e-05, ,0.15761325523004802,-0.2381459136424612,0.09681471494,1.608321866526302,0.1541259717354168,-1.3228446896097839, ,0.06451185693981698,0.03771738535710285,0.018717757367802585,0.005247720144128809,0.0913751208889882,-0.0697043413037436, ,1.1164968013763428
0.01246290115407741,0.02134134429633378,-0.08696635598762431, ,0.013029356106399048,0.021078650350897316,-0.08754715472044507, ,0.0008527640295092657, ,0.00870162142717856,0.0008468097620302727,-0.018472645819922397,0.014640365791548857,0.001973353805924003,-0.008847960534846308, ,0.020437072829133315, ,0.014772687119424617, ,0.00047368142235055134, ,0.1583083011887282,-0.2377366088001273,0.09700786215000001,1.6087412464132707,0.15494579073400946,-1.3233498395516814, ,0.07194612703447369,0.042308043494636995,0.019260957097944377,0.019911232612652898,0.07128973570122915,-0.05334296147337479, ,1.121757984161377
0.01246290115407741,0.02134134429633378,-0.08696635598762431, ,0.01312347433884797,0.021077601005663346,-0.08772709237609116, ,0.0010414592207807177, ,0.00870162142717856,0.0008468097620302727,-0.018472645819922397,0.014640365791548857,0.001973353805924003,-0.008847960534846308, ,0.020437072829133315, ,0.014772687119424617, ,0.000487529661336653, ,0.1583083011887282,-0.2377366088001273,0.09700786215000001,1.6087412464132707,0.15494579073400946,-1.3233498395516814, ,0.07194612703447369,0.042308043494636995,0.019260957097944377,0.019911232612652898,0.07128973570122915,-0.05334296147337479, ,1.1270058155059814
0.012558169933866324,0.021351811575925847,-0.08717404459232475, ,0.01321807458498752,0.02107563474253458,-0.0879061931804084, ,0.0010236158199765687, ,0.01053758239870098,0.001709582000114523,-0.024416741057150082,0.034503325284042194,0.024349047159313124,-0.013946721677101084, ,0.02664846256871955, ,0.04222969186302905, ,0.0005002936174947462, ,0.1590882972090249,-0.23727324482767384,0.09722434258000001,1.6089509363567556,0.15576560973260212,-1.3237733107534382, ,0.08488098529380213,0.04911849977146521,0.025486098432000007,0.03227499929004793,0.10466278218735024,-0.07798441816411299, ,1.1322219371795654
0.012558169933866324,0.021351811575925847,-0.08717404459232475, ,0.013313148119223541,0.021072772470498942,-0.08808447390074098, ,0.0012152104378855434, ,0.01053758239870098,0.001709582000114523,-0.024416741057150082,0.034503325284042194,0.024349047159313124,-0.013946721677101084, ,0.02664846256871955, ,0.04222969186302905, ,0.000516919590061974, ,0.1590882972090249,-0.23727324482767384,0.09722434258000001,1.6089509363567556,0.15576560973260212,-1.3237733107534382, ,0.08488098529380213,0.04911849977146521,0.025486098432000007,0.03227499929004793,0.10466278218735024,-0.07798441816411299, ,1.137537956237793
0.012670685489174304,0.02137716185924822,-0.08746084912480698, ,0.013408686287750354,0.021069034947226953,-0.0882619511264203, ,0.0011319681044974343, ,0.011633942293451075,0.003290301404964127,-0.031616679843201774,0.09583396772131954,0.09413161574320299,0.004198894993351587, ,0.0338495072479701, ,0.134331228161334, ,0.0005308979653900526, ,0.15998413422243493,-0.236763544457975,0.09752378557000001,1.6089509363567556,0.15726861123002195,-1.3249172289539581, ,0.09159936443867836,0.05099244575952218,0.03304732680497926,0.03227499929004793,0.18339069244193004,-0.14111888625686128, ,1.1428658962249756
0.012670685489174304,0.02137716185924822,-0.08746084912480698, ,0.013504680508316755,0.0210644427794989,-0.0884386412694367, ,0.0013226558104409696, ,0.011633942293451075,0.003290301404964127,-0.031616679843201774,0.09583396772131954,0.09413161574320299,0.004198894993351587, ,0.0338495072479701, ,0.134331228161334, ,0.0005484925841689619, ,0.15998413422243493,-0.236763544457975,0.09752378557000001,1.6089509363567556,0.15726861123002195,-1.3249172289539581, ,0.09159936443867836,0.05099244575952218,0.03304732680497926,0.03227499929004793,0.18339069244193004,-0.14111888625686128, ,1.1481058597564697
0.012791646353716745,0.021410691734394822,-0.08779362871677397, ,0.013601122269991358,0.02105901642363206,-0.08861456056511094, ,0.0012053447153584974, ,0.013333339388526388,0.0035842336861098842,-0.03588483184099132,0.09203785556690666,0.08794708408078322,0.00838193170156432, ,0.038449263017937, ,0.12730120561296343, ,0.0005627719783252562, ,0.16092630763309032,-0.2362229531567793,0.09787119129,1.6089509363567556,0.15918152222673815,-1.326313722125427, ,0.1027023177039727,0.058905612388870744,0.03747955651764706,0.027800016736066812,0.1894693603275101,-0.14581815977234538, ,1.1533429622650146
0.012791646353716745,0.021410691734394822,-0.08779362871677397, ,0.013698003132928169,0.021052776185907045,-0.08878972507276509, ,0.0013934827237861924, ,0.013333339388526388,0.0035842336861098842,-0.03588483184099132,0.09203785556690666,0.08794708408078322,0.00838193170156432, ,0.038449263017937, ,0.12730120561296343, ,0.000580446675037191, ,0.16092630763309032,-0.2362229531567793,0.09787119129,1.6089509363567556,0.15918152222673815,-1.326313722125427, ,0.1027023177039727,0.058905612388870744,0.03747955651764706,0.027800016736066812,0.1894693603275101,-0.14581815977234538, ,1.1587438583374023
0.012941185710441666,0.021450254389792284,-0.08819241769548654, ,0.013795314728132717,0.02104574222299527,-0.08896415067639389, ,0.001220138625635973, ,0.014915318445685433,0.0035722476052849933,-0.03897786778626889,0.03220970026612539,0.03936216254552551,0.0017987685081736304, ,0.04188677421876178, ,0.05086014808287981, ,0.0005937735906746657, ,0.1619534311053622,-0.23562057999258978,0.098258782,1.6089509363567556,0.16068452372415798,-1.3272126041055254, ,0.10882676784228298,0.06585492127582983,0.04073864838874681,0.023213323292922697,0.14798809450706193,-0.09605753489172326, ,1.1641478538513184
0.012941185710441666,0.021450254389792284,-0.08819241769548654, ,0.013893048757227345,0.021037934542385867,-0.08913785308533678, ,0.0014035309019692613, ,0.014915318445685433,0.0035722476052849933,-0.03897786778626889,0.03220970026612539,0.03936216254552551,0.0017987685081736304, ,0.04188677421876178, ,0.05086014808287981, ,0.000610299250088841, ,0.1619534311053622,-0.23562057999258978,0.098258782,1.6089509363567556,0.16068452372415798,-1.3272126041055254, ,0.10882676784228298,0.06585492127582983,0.04073864838874681,0.023213323292922697,0.14798809450706193,-0.09605753489172326, ,1.169724941253662
0.013080268704061093,0.021481004933263655,-0.0885492990685591, ,0.013991196992216993,0.021029373002812365,-0.08931084783494796, ,0.0012703221128336647, ,0.015967600434438248,0.0030596438017176973,-0.03915893454868906,-0.021364713473356573,0.02066438681149189,0.007038008318437583, ,0.042399856589566146, ,0.02972163835357662, ,0.0006234997073437374, ,0.1630577819063763,-0.23494097949965803,0.09865933561000001,1.6093703162437245,0.1621875252215778,-1.3277847711250617, ,0.11906768075090436,0.07227489836898002,0.040843106461538464,0.01471704695457952,0.14023269287711052,-0.04758757226506251, ,1.175062894821167
0.013080268704061093,0.021481004933263655,-0.0885492990685591, ,0.014089751275254947,0.021020077314679995,-0.08948315028726893, ,0.0014503749273216174, ,0.015967600434438248,0.0030596438017176973,-0.03915893454868906,-0.021364713473356573,0.02066438681149189,0.007038008318437583, ,0.042399856589566146, ,0.02972163835357662, ,0.0006397129469511469, ,0.1630577819063763,-0.23494097949965803,0.09865933561000001,1.6093703162437245,0.1621875252215778,-1.3277847711250617, ,0.11906768075090436,0.07227489836898002,0.040843106461538464,0.01471704695457952,0.14023269287711052,-0.04758757226506251, ,1.1804468631744385
0.013256055203143267,0.021506970480953673,-0.08895525278298194, ,0.014188703518408424,0.021010067040492485,-0.08965477563169955, ,0.0012673113764924127, ,0.016465118133599663,0.001833400250743631,-0.03676079547621631,0.010750171866146479,0.04947639310376942,-0.03195936990034755, ,0.040321427996501125, ,0.050630154438793554, ,0.0006517821475192482, ,0.1644169828922398,-0.23412236981499024,0.09908322244000001,1.6099993860741781,0.16382716321876312,-1.3285500347884347, ,0.13071204071414708,0.07961152815307952,0.038382678361445786,0.06122998852845298,0.1707519741395454,-0.07941681538641629, ,1.1864848136901855
0.013425584592302198,0.0215141835640033,-0.08929887183500962, ,0.01428804570342441,0.02099936159527902,-0.08982573888566839, ,0.0011342264838863421, ,0.01681824412836227,8.788359037185923e-05,-0.03169108638961578,0.031146999043832023,0.022827449136327543,0.05880622140039614, ,0.035877374703853944, ,0.038616007272940206, ,0.0006608848708469292, ,0.16582252027534866,-0.23327286919882553,0.09944229477000001,1.6104187659611469,0.1656034377157138,-1.3296717525759258, ,0.14356572096591644,0.08346256953251607,0.033185024,-0.03249870585291315,0.1788761834252523,-0.11851672426610013, ,1.1916959285736084
0.013425584592302198,0.0215141835640033,-0.08929887183500962, ,0.014387769881495099,0.020987980247021233,-0.08999605489530554, ,0.0012995209429269503, ,0.01681824412836227,8.788359037185923e-05,-0.03169108638961578,0.031146999043832023,0.022827449136327543,0.05880622140039614, ,0.035877374703853944, ,0.038616007272940206, ,0.0006727114647743371, ,0.16582252027534866,-0.23327286919882553,0.09944229477000001,1.6104187659611469,0.1656034377157138,-1.3296717525759258, ,0.14356572096591644,0.08346256953251607,0.033185024,-0.03249870585291315,0.1788761834252523,-0.11851672426610013, ,1.1969587802886963
0.013425584592302198,0.0215141835640033,-0.08929887183500962, ,0.014487868173023992,0.020975942117080267,-0.0901657383361127, ,0.001472958856109573, ,0.017549401121208733,-0.00192302037846879,-0.028083539087897784,-0.03914011246420888,-0.019429917430886092,0.04037182426042866, ,0.03317174482583892, ,0.043697283970956395, ,0.0006872614173440687, ,0.1673747895830678,-0.23235386398679284,0.09975858953000001,1.6104187659611469,0.1672430757128991,-1.330682052459721, ,0.15355492161564852,0.09537381061152843,0.02933482784530387,-0.02396636434684081,0.14359349448940648,-0.058682668231425004, ,1.2022268772125244
0.013603829212971964,0.02150402948213348,-0.08960082066995967, ,0.01458833276739091,0.020963266180623445,-0.0903348037136355, ,0.0013417910811028718, ,0.017549401121208733,-0.00192302037846879,-0.028083539087897784,-0.03914011246420888,-0.019429917430886092,0.04037182426042866, ,0.03317174482583892, ,0.043697283970956395, ,0.0006989494470540472, ,0.1673747895830678,-0.23235386398679284,0.09975858953000001,1.6104187659611469,0.1672430757128991,-1.330682052459721, ,0.15355492161564852,0.09537381061152843,0.02933482784530387,-0.02396636434684081,0.14359349448940648,-0.058682668231425004, ,1.2076318264007568
0.013768997444486415,0.02148049204377879,-0.08985148034999527, ,0.014689155922718447,0.020949971267051566,-0.09050326536413422, ,0.0012461812164599763, ,0.017782743421197303,-0.0029022036307937444,-0.025741003169007275,-0.021728273137989,-0.028042165637554833,0.014057799456966134, ,0.03142050275927441, ,0.035474915164532626, ,0.000708550004412046, ,0.16884210882917045,-0.2314348587747601,0.10002044011000001,1.6102090760176624,0.16860944071055353,-1.331469516536123, ,0.15763611554563253,0.09874811816698312,0.026636808561872914,0.0,0.1340040708067007,-0.07957171220635756, ,1.2132158279418945
0.013768997444486415,0.02148049204377879,-0.08985148034999527, ,0.014790329965637023,0.0209360760604256,-0.09067113745525512, ,0.0014182195358593988, ,0.017782743421197303,-0.0029022036307937444,-0.025741003169007275,-0.021728273137989,-0.028042165637554833,0.014057799456966134, ,0.03142050275927441, ,0.035474915164532626, ,0.0007207856859887244, ,0.16884210882917045,-0.2314348587747601,0.10002044011000001,1.6102090760176624,0.16860944071055353,-1.331469516536123, ,0.15763611554563253,0.09874811816698312,0.026636808561872914,0.0,0.1340040708067007,-0.07957171220635756, ,1.2185258865356445
0.01396702733264943,0.021443573181405415,-0.0901294088580554, ,0.014891847291051183,0.020921599099893908,-0.09083843398670223, ,0.0012768968361933771, ,0.018596357438063385,-0.0038941054861053592,-0.02606446753824487,-0.02742995937334328,-0.011540273796839726,0.018148129277885446, ,0.03225438009873003, ,0.029758504013481867, ,0.0007302112987040575, ,0.1706183373902421,-0.2302996170422491,0.10031080907,1.6102090760176624,0.17011244220797336,-1.3321233622957993, ,0.16825698857884888,0.11073155374383986,0.027182272218430035,0.0,0.16102162187625593,-0.08167812863892006, ,1.2238349914550781
0.01396702733264943,0.021443573181405415,-0.0901294088580554, ,0.014993700361904443,0.020906558780118652,-0.09100516879090856, ,0.0014523764788029357, ,0.018596357438063385,-0.0038941054861053592,-0.02606446753824487,-0.02742995937334328,-0.011540273796839726,0.018148129277885446, ,0.03225438009873003, ,0.029758504013481867, ,0.0007422473850390388, ,0.1706183373902421,-0.2302996170422491,0.10031080907,1.6102090760176624,0.17011244220797336,-1.3321233622957993, ,0.16825698857884888,0.11073155374383986,0.027182272218430035,0.0,0.16102162187625593,-0.08167812863892006, ,1.2290678024291992
0.014156087644831367,0.021406087446346832,-0.09041191432844296, ,0.015095881708946043,0.020890973351703562,-0.09117135553370669, ,0.0013135091768608814, ,0.01944406649518057,-0.0034933650692021995,-0.030066414432523926,0.06755767741800318,0.03419647428922913,0.01082009241076419, ,0.03597588912318928, ,0.0757193110227296, ,0.0007516123324459543, ,0.17231733862257148,-0.22914892984398966,0.10060506690000001,1.6106284559046316,0.17202535320468954,-1.3334381767271277, ,0.17348618200817328,0.11629527151773382,0.03135592818897638,0.017408093830776322,0.20923882531770177,-0.17915975281545557, ,1.2342958450317383
0.014156087644831367,0.021406087446346832,-0.09041191432844296, ,0.015198383930495468,0.020874860921620126,-0.09133700771500129, ,0.001491435865713425, ,0.01944406649518057,-0.0034933650692021995,-0.030066414432523926,0.06755767741800318,0.03419647428922913,0.01082009241076419, ,0.03597588912318928, ,0.0757193110227296, ,0.0007635449700793005, ,0.17231733862257148,-0.22914892984398966,0.10060506690000001,1.6106284559046316,0.17202535320468954,-1.3334381767271277, ,0.17348618200817328,0.11629527151773382,0.03135592818897638,0.017408093830776322,0.20923882531770177,-0.17915975281545557, ,1.2395758628845215
0.01434774836420202,0.021375698957303624,-0.09070832101970018, ,0.015301199692209425,0.020858239453635036,-0.09150213866943975, ,0.0013442396489666863, ,0.021172443125534846,-0.002956534211402373,-0.03231896682845402,0.022387104879428337,-0.007073382323067606,-0.01945737483565624, ,0.038749568504770626, ,0.02347722176838498, ,0.0007727623459346559, ,0.1739931716562782,-0.22804457904297554,0.10091488021000002,1.6110478357916007,0.17380162770164026,-1.3348049307350407, ,0.1828457448140092,0.11629527151773382,0.03389108834042554,0.03967525117093434,0.17130993881223963,-0.13014673446270683, ,1.2449510097503662
0.01434774836420202,0.021375698957303624,-0.09070832101970018, ,0.015404321726846438,0.020841126768736905,-0.09166676156708413, ,0.00152339193194279, ,0.021172443125534846,-0.002956534211402373,-0.03231896682845402,0.022387104879428337,-0.007073382323067606,-0.01945737483565624, ,0.038749568504770626, ,0.02347722176838498, ,0.000784490933216033, ,0.1739931716562782,-0.22804457904297554,0.10091488021000002,1.6110478357916007,0.17380162770164026,-1.3348049307350407, ,0.1828457448140092,0.11629527151773382,0.03389108834042554,0.03967525117093434,0.17130993881223963,-0.13014673446270683, ,1.250436782836914
0.014567499668545092,0.021343641292656246,-0.09104512701678324, ,0.015507742834032688,0.02082354054556304,-0.09183088941408091, ,0.0013311590973208332, ,0.022083082572849147,-0.0035075965849995306,-0.03379322187852236,-0.02809443776140272,-0.04270258400212295,-0.028999192392879725, ,0.0405209527856073, ,0.051115203639284706, ,0.000792901212663799, ,0.17585435027896631,-0.2268321099817223,0.10126747109,1.6110478357916007,0.1753046291990601,-1.3359488489355607, ,0.18498429153698007,0.12486439678746157,0.03531887254988914,0.03967525117093434,0.13692044142840207,-0.08803950638961294, ,1.2557549476623535
0.014793663096705056,0.021308462087388364,-0.09139080208691097, ,0.015611455880028564,0.02080549832082692,-0.09199453505333491, ,0.0011341300990965419, ,0.02289162171243075,-0.003475390182188862,-0.03437318773003674,-0.03300092758672946,-0.06048029286152591,-0.027086032169468213, ,0.04144418796728721, ,0.06889759837550996, ,0.0007980713473067194, ,0.1777386971002771,-0.22557330452322372,0.10162913600000001,1.6110478357916007,0.1766709941967145,-1.3370630279725249, ,0.18979388311694156,0.1251938542987741,0.03603803511312218,0.034408106628525906,0.1248194694476532,-0.08428003453776385, ,1.2616767883300781
0.014793663096705056,0.021308462087388364,-0.09139080208691097, ,0.015715453797493853,0.020787017489744857,-0.09215771116517842, ,0.0013075748922342161, ,0.02289162171243075,-0.003475390182188862,-0.03437318773003674,-0.03300092758672946,-0.06048029286152591,-0.027086032169468213, ,0.04144418796728721, ,0.06889759837550996, ,0.0008056758778280254, ,0.1777386971002771,-0.22557330452322372,0.10162913600000001,1.6110478357916007,0.1766709941967145,-1.3370630279725249, ,0.18979388311694156,0.1251938542987741,0.03603803511312218,0.034408106628525906,0.1248194694476532,-0.08428003453776385, ,1.2670269012451172
0.015026011727441984,0.021267046569212335,-0.0917287600669615, ,0.015819729585252313,0.020768115306462387,-0.0923204302680433, ,0.0011086000494337264, ,0.022630414206837986,-0.004258803920535041,-0.03221742377661789,-0.059133524062376715,-0.09107643507942838,-0.028321254641235173, ,0.03960095267552036, ,0.1085893916773558, ,0.000810130645057521, ,0.179661657585959,-0.22427588540035398,0.10198302317,1.6110478357916007,0.17776408619483802,-1.3379543712020963, ,0.18643799913255554,0.12703740503142005,0.03374748203389831,0.027266231869732944,0.09162095348261806,-0.06111965643273389, ,1.2723419666290283
0.015026011727441984,0.021267046569212335,-0.0917287600669615, ,0.01592427630805942,0.020748808884482245,-0.09248270471913296, ,0.0012821396543294993, ,0.022630414206837986,-0.004258803920535041,-0.03221742377661789,-0.059133524062376715,-0.09107643507942838,-0.028321254641235173, ,0.03960095267552036, ,0.1085893916773558, ,0.0008169713553368251, ,0.179661657585959,-0.22427588540035398,0.10198302317,1.6110478357916007,0.17776408619483802,-1.3379543712020963, ,0.18643799913255554,0.12703740503142005,0.03374748203389831,0.027266231869732944,0.09162095348261806,-0.06111965643273389, ,1.2776389122009277
0.015253709485953514,0.021220159763969765,-0.09204533662117023, ,0.01602908709636705,0.02072911519709078,-0.09264454671509284, ,0.0010960784379097676, ,0.022458487717127686,-0.0046204340138620015,-0.030661133872269666,-0.025754259934431183,-0.06335639665818837,0.0022890740509980967, ,0.03828625355594446, ,0.06839069968966323, ,0.0008209585993735814, ,0.18156144987301823,-0.22297846627748427,0.10231487341,1.6112575257350852,0.17885717819296154,-1.3387640356915271, ,0.18979388311694156,0.12602515479212587,0.03224455773279353,0.0038783267629308817,0.12882110866132682,-0.0975310742989739, ,1.2830278873443604
0.015253709485953514,0.021220159763969765,-0.09204533662117023, ,0.016134155146088427,0.02070905107778452,-0.09280596829268191, ,0.0012708175279130581, ,0.022458487717127686,-0.0046204340138620015,-0.030661133872269666,-0.025754259934431183,-0.06335639665818837,0.0022890740509980967, ,0.03828625355594446, ,0.06839069968966323, ,0.0008272946406206162, ,0.18156144987301823,-0.22297846627748427,0.10231487341,1.6112575257350852,0.17885717819296154,-1.3387640356915271, ,0.18979388311694156,0.12602515479212587,0.03224455773279353,0.0038783267629308817,0.12882110866132682,-0.0975310742989739, ,1.2882800102233887
0.015479341950603197,0.021169706257498394,-0.09234619826121813, ,0.016239473718365125,0.020688633220697885,-0.09296698132944439, ,0.0010929790432088547, ,0.022191230117389788,-0.0053530507093741625,-0.028864494318109623,-0.036316292408657476,-0.07250452011160027,-0.0062243084275170005, ,0.03680033801828811, ,0.08109105064383586, ,0.0008309847017676751, ,0.18346896489295167,-0.22168876988748878,0.10263116817000001,1.6114672156785694,0.1800869066908505,-1.3397667968247948, ,0.18791473575934806,0.12858664167814468,0.030340593371428574,0.009028480541691423,0.11633408157381843,-0.08851763257612265, ,1.2936248779296875
0.015479341950603197,0.021169706257498394,-0.09234619826121813, ,0.016345036139331956,0.0206678781810295,-0.09312759754438113, ,0.0012695836665847806, ,0.022191230117389788,-0.0053530507093741625,-0.028864494318109623,-0.036316292408657476,-0.07250452011160027,-0.0062243084275170005, ,0.03680033801828811, ,0.08109105064383586, ,0.0008369929067651696, ,0.18346896489295167,-0.22168876988748878,0.10263116817000001,1.6114672156785694,0.1800869066908505,-1.3397667968247948, ,0.18791473575934806,0.12858664167814468,0.030340593371428574,0.009028480541691423,0.11633408157381843,-0.08851763257612265, ,1.2988429069519043
0.01569033000182637,0.021118740693091914,-0.09262490482623333, ,0.016450835799883275,0.02064680237546954,-0.0932878284986201, ,0.0011138054767010175, ,0.02166678921450467,-0.005099072131265366,-0.02905756362702083,-0.014318021549709807,-0.045608584674224115,-0.005454889514707607, ,0.03660317329691494, ,0.04780301268285059, ,0.0008407336171697081, ,0.18525291618689754,-0.22045313262761285,0.10292412971,1.6118865955655386,0.1813166351887395,-1.3407695579580627, ,0.1828457448140092,0.12569131332247785,0.030573534587332057,0.013411408428423557,0.13775131247325623,-0.10679411541963042, ,1.3040568828582764
0.01569033000182637,0.021118740693091914,-0.09262490482623333, ,0.016556866155438024,0.020625422082626466,-0.0934476855960891, ,0.0012927553334610902, ,0.02166678921450467,-0.005099072131265366,-0.02905756362702083,-0.014318021549709807,-0.045608584674224115,-0.005454889514707607, ,0.03660317329691494, ,0.04780301268285059, ,0.0008467605733869266, ,0.18525291618689754,-0.22045313262761285,0.10292412971,1.6118865955655386,0.1813166351887395,-1.3407695579580627, ,0.1828457448140092,0.12569131332247785,0.030573534587332057,0.013411408428423557,0.13775131247325623,-0.10679411541963042, ,1.309311866760254
0.015910916636422048,0.02107000018554333,-0.09293023550098004, ,0.01666312072570568,0.02060375344345394,-0.09360718008418571, ,0.001114204193662677, ,0.021552105816278217,-0.005043483452932236,-0.029946156407259623,-0.002215296799822529,-0.027152830895047754,-0.03346420670188466, ,0.037238451552449266, ,0.02724260785628924, ,0.0008502795683905549, ,0.1870986493438372,-0.21918660443624002,0.10324560963000001,1.6120962855090233,0.18281963668615933,-1.3419951548987235, ,0.1793893035131773,0.12686756892843687,0.031479864664031625,0.043990463227103,0.14630476418490773,-0.11442833159777577, ,1.3146088123321533
0.015910916636422048,0.02107000018554333,-0.09293023550098004, ,0.016769593094451973,0.020581812461677798,-0.09376632305444992, ,0.001294100038781808, ,0.021552105816278217,-0.005043483452932236,-0.029946156407259623,-0.002215296799822529,-0.027152830895047754,-0.03346420670188466, ,0.037238451552449266, ,0.02724260785628924, ,0.0008560434706034282, ,0.1870986493438372,-0.21918660443624002,0.10324560963000001,1.6120962855090233,0.18281963668615933,-1.3419951548987235, ,0.1793893035131773,0.12686756892843687,0.031479864664031625,0.043990463227103,0.14630476418490773,-0.11442833159777577, ,1.3199927806854248
0.016127696569543333,0.021019877836371895,-0.09323358142811415, ,0.016876276909265,0.02055961500422319,-0.09392512544323452, ,0.0011182341098911924, ,0.021019904935922328,-0.004891024583724505,-0.029921824915806642,-0.025138126433426257,-0.051195006057363414,0.02860978014321575, ,0.036892738191763384, ,0.05703358712863608, ,0.0008594048890558354, ,0.18888260063778306,-0.21792007624486723,0.10356449697000002,1.6123059754525078,0.18418600168381372,-1.3431093339356877, ,0.17098548028553293,0.12308293327946923,0.03141777420118344,-0.02450053407153445,0.12825234133085142,-0.10022163828343943, ,1.3252828121185303
0.016127696569543333,0.021019877836371895,-0.09323358142811415, ,0.01698316588132022,0.020537176801641237,-0.09408359803237708, ,0.0012989827788869044, ,0.021019904935922328,-0.004891024583724505,-0.029921824915806642,-0.025138126433426257,-0.051195006057363414,0.02860978014321575, ,0.036892738191763384, ,0.05703358712863608, ,0.0008649691661423046, ,0.18888260063778306,-0.21792007624486723,0.10356449697000002,1.6123059754525078,0.18418600168381372,-1.3431093339356877, ,0.17098548028553293,0.12308293327946923,0.03141777420118344,-0.02450053407153445,0.12825234133085142,-0.10022163828343943, ,1.3305518627166748
0.016341979151788998,0.020969998540490833,-0.09353841596008265, ,0.01709025378514641,0.02051451344853603,-0.09424175144987063, ,0.001123415509557587, ,0.020713549811297402,-0.005045228896608077,-0.02966253227039946,-0.025511990319931267,-0.0465829714953496,-0.014017937109799277, ,0.036529047360925763, ,0.05311131630604036, ,0.0008681997454349957, ,0.19061249280160936,-0.21666899351924285,0.10388468060000002,1.6120962855090233,0.18541573018170268,-1.3441120950689553, ,0.1661942934474094,0.12388634668207675,0.031110960000000003,0.017300748872424634,0.11876786332613025,-0.09294782200286587, ,1.3357748985290527
0.016341979151788998,0.020969998540490833,-0.09353841596008265, ,0.01719753445839161,0.02049164040399169,-0.09439959617053595, ,0.0013047730623703142, ,0.020713549811297402,-0.005045228896608077,-0.02966253227039946,-0.025511990319931267,-0.0465829714953496,-0.014017937109799277, ,0.036529047360925763, ,0.05311131630604036, ,0.0008735895394712342, ,0.19061249280160936,-0.21666899351924285,0.10388468060000002,1.6120962855090233,0.18541573018170268,-1.3441120950689553, ,0.1661942934474094,0.12388634668207675,0.031110960000000003,0.017300748872424634,0.11876786332613025,-0.09294782200286587, ,1.3410789966583252
0.016548544837903467,0.020920096184060866,-0.09383204940425749, ,0.017305001801588428,0.020468572991999136,-0.0945571425166919, ,0.001140990952013598, ,0.020527804675909627,-0.004827048388331922,-0.029016682180659916,-0.002524815582921808,-0.029010797292358934,-0.005910908397992487, ,0.03587002935221857, ,0.029120104447859483, ,0.0008768505323071168, ,0.19221109850657384,-0.2154874153894865,0.10418282730000002,1.6120962855090233,0.18664545867959165,-1.3450331774620825, ,0.1661942934474094,0.11921726326441054,0.030573534587332057,0.013801594604626044,0.13754692830396664,-0.11227231453688741, ,1.3462939262390137
0.016548544837903467,0.020920096184060866,-0.09383204940425749, ,0.017412649777920435,0.02044532640188338,-0.0947144006588277, ,0.001323112780481021, ,0.020527804675909627,-0.004827048388331922,-0.029016682180659916,-0.002524815582921808,-0.029010797292358934,-0.005910908397992487, ,0.03587002935221857, ,0.029120104447859483, ,0.0008822271858995734, ,0.1939409906704001,-0.21423633266386213,0.10450430722000001,1.6120962855090233,0.18814846017701148,-1.346258774402743, ,0.161664295670308,0.1178843994515165,0.03135592818897638,0.011122463754873843,0.14731585814849857,-0.12028912425428381, ,1.3517978191375732
0.016754831480350493,0.02087071853558619,-0.09412746121710103, ,0.017520472412986817,0.02042191568872985,-0.09487138061627379, ,0.0011580354508995549, ,0.020255753874139148,-0.0045840661648670926,-0.02976793410784145,0.006646560266460765,-0.015458444395639377,-0.0013403588772591235, ,0.036296544307445756, ,0.01682607773507963, ,0.0008855106176257636, ,0.1939409906704001,-0.21423633266386213,0.10450430722000001,1.6120962855090233,0.18814846017701148,-1.346258774402743, ,0.161664295670308,0.1178843994515165,0.03135592818897638,0.011122463754873843,0.14731585814849857,-0.12028912425428381, ,1.3571059703826904
0.01695206514188932,0.020828521143379915,-0.0944146400355124, ,0.01762846379456893,0.020398355773811903,-0.09502809225787283, ,0.0010093963600297537, ,0.020779409801889807,-0.004365972718409505,-0.03025143817451316,0.004428012562235314,-0.022986058505906872,-0.004583750379774896, ,0.03695937095134551, ,0.023408136306641375, ,0.0008869680969481635, ,0.1955087054438677,-0.21311653639709957,0.10480763908000001,1.6125156653959922,0.18951482517466592,-1.3473729534397072, ,0.1644661032209199,0.11629527151773382,0.031985565301204825,0.013307830319362498,0.1420212147793863,-0.11600108950401333, ,1.3624508380889893
0.01695206514188932,0.020828521143379915,-0.0944146400355124, ,0.017736618072395696,0.020374661445017477,-0.09518454530265172, ,0.0011892291818369762, ,0.020779409801889807,-0.004365972718409505,-0.03025143817451316,0.004428012562235314,-0.022986058505906872,-0.004583750379774896, ,0.03695937095134551, ,0.023408136306641375, ,0.0008904827607259403, ,0.1955087054438677,-0.21311653639709957,0.10480763908000001,1.6125156653959922,0.18951482517466592,-1.3473729534397072, ,0.1644661032209199,0.11629527151773382,0.031985565301204825,0.013307830319362498,0.1420212147793863,-0.11600108950401333, ,1.3677098751068115
0.017157423799271636,0.020788174913983208,-0.09471597484672846, ,0.017844929457909452,0.020350847357276092,-0.09534074932049301, ,0.00102677288899844, ,0.020419903237046087,-0.004053020600443872,-0.029976052615766812,-0.004947599776588686,-0.0336817521120751,-0.01824827093270393, ,0.036496070399717945, ,0.03404284015355897, ,0.0008920493139244749, ,0.19710731114883215,-0.2119890173974628,0.10512652642,1.6129350452829614,0.19074455367255488,-1.3483757145729751, ,0.15842561195070248,0.11190677070574384,0.03173070023904383,0.023793951477561085,0.12264410247761515,-0.10021968175362699, ,1.3729948997497559
0.017157423799271636,0.020788174913983208,-0.09471597484672846, ,0.01795339222403106,0.020326928032985775,-0.09549671373280552, ,0.0012065933974113687, ,0.020419903237046087,-0.004053020600443872,-0.029976052615766812,-0.004947599776588686,-0.0336817521120751,-0.01824827093270393, ,0.036496070399717945, ,0.03404284015355897, ,0.0008956236785095532, ,0.19710731114883215,-0.2119890173974628,0.10512652642,1.6129350452829614,0.19074455367255488,-1.3483757145729751, ,0.15842561195070248,0.11190677070574384,0.03173070023904383,0.023793951477561085,0.12264410247761515,-0.10021968175362699, ,1.3782730102539062
0.017359829512859647,0.02074843348531392,-0.09502003897485728, ,0.01806200070492676,0.02030291786244003,-0.09565244781319615, ,0.001044734172889345, ,0.02030350167209139,-0.003908836548243217,-0.030871605136074558,-0.002624765787148709,-0.027363040960871984,-0.01792273792285017, ,0.03715598453798802, ,0.02748813134606808, ,0.0008972990773228093, ,0.1986595804565513,-0.21087694386357447,0.10544800634000001,1.6129350452829614,0.19197428217044385,-1.3492967969661023, ,0.1545552794111902,0.11164346065702443,0.03264100721311476,0.023793951477561085,0.12514363368000817,-0.10222827253043129, ,1.383516788482666
0.017359829512859647,0.02074843348531392,-0.09502003897485728, ,0.018170749295772858,0.020278831104254706,-0.0958079606881414, ,0.0012243112009946982, ,0.02030350167209139,-0.003908836548243217,-0.030871605136074558,-0.002624765787148709,-0.027363040960871984,-0.01792273792285017, ,0.03715598453798802, ,0.02748813134606808, ,0.0009009325453636081, ,0.1986595804565513,-0.21087694386357447,0.10544800634000001,1.6129350452829614,0.19197428217044385,-1.3492967969661023, ,0.1545552794111902,0.11164346065702443,0.03264100721311476,0.023793951477561085,0.12514363368000817,-0.10222827253043129, ,1.3888349533081055
0.017560496158317628,0.020710426850602544,-0.09532997365133186, ,0.018279632452521205,0.020254681885794906,-0.09596326133765842, ,0.0010610908425960604, ,0.019592929836428713,-0.003943743629233466,-0.030055182014822334,0.008854539165955569,-0.011650947082264756,0.04065931057050043, ,0.036093627960243034, ,0.014632939125286357, ,0.0009026925266518768, ,0.20019640429852195,-0.20977259306256035,0.10577596771000002,1.613144735226446,0.19347728366786368,-1.350522393906763, ,0.15015338854188412,0.10845364749539518,0.031794034970059885,-0.03173116107420896,0.1485698631934679,-0.12129709424295154, ,1.3941538333892822
0.017560496158317628,0.020710426850602544,-0.09532997365133186, ,0.018388644691666123,0.02023048420360203,-0.09611835859597621, ,0.00124005070809181, ,0.019592929836428713,-0.003943743629233466,-0.030055182014822334,0.008854539165955569,-0.011650947082264756,0.04065931057050043, ,0.036093627960243034, ,0.014632939125286357, ,0.0009063594634066588, ,0.20019640429852195,-0.20977259306256035,0.10577596771000002,1.613144735226446,0.19347728366786368,-1.350522393906763, ,0.15015338854188412,0.10845364749539518,0.031794034970059885,-0.03173116107420896,0.1485698631934679,-0.12129709424295154, ,1.3994388580322266
0.01776244909194502,0.020670488429969727,-0.0956410817054861, ,0.01849778059000983,0.020206251923820976,-0.09627326115220781, ,0.0010751180393541945, ,0.0194949701571865,-0.0038202059901229378,-0.030077475771133566,0.018597192085741378,-0.0001685635292027378,-0.0014064510533074006, ,0.03604583726312499, ,0.018597294204684763, ,0.0009081740717501808, ,0.20173322814049263,-0.20866051952867204,0.10610522537000001,1.6129350452829614,0.1949802851652835,-1.3517479908474237, ,0.1480451506372399,0.10734948140098505,0.031857623040000005,0.01210087697692092,0.1487619728616364,-0.12142745902785183, ,1.4046859741210938
0.01776244909194502,0.020670488429969727,-0.0956410817054861, ,0.018607034784426817,0.02018199878262635,-0.09642797755102009, ,0.0012534561018341488, ,0.0194949701571865,-0.0038202059901229378,-0.030077475771133566,0.018597192085741378,-0.0001685635292027378,-0.0014064510533074006, ,0.03604583726312499, ,0.018597294204684763, ,0.0009118472848361804, ,0.20173322814049263,-0.20866051952867204,0.10610522537000001,1.6129350452829614,0.1949802851652835,-1.3517479908474237, ,0.1480451506372399,0.10734948140098505,0.031857623040000005,0.01210087697692092,0.1487619728616364,-0.12142745902785183, ,1.4099969863891602
0.01796278316319705,0.02063393675246752,-0.09595163653921202, ,0.01871640197163101,0.02015773838665,-0.09658251619330692, ,0.0010921150717683567, ,0.01933485602592668,-0.0036151032539785844,-0.029716995128579476,0.014273736044197365,-0.006693542948034347,-0.0008815047832246377, ,0.035637135526754335, ,0.01576451339574397, ,0.000913744840488098, ,0.2032314383180922,-0.20758705965915483,0.10643448303000001,1.6129350452829614,0.19634665016293792,-1.352862169884388, ,0.14532456593946522,0.10382597544690457,0.031542201029702975,0.009990339752417655,0.13971842587203523,-0.11403244234166422, ,1.415315866470337
0.01796278316319705,0.02063393675246752,-0.09595163653921202, ,0.018825876907941255,0.020133484213407986,-0.09673688533685948, ,0.0012696453167221546, ,0.01933485602592668,-0.0036151032539785844,-0.029716995128579476,0.014273736044197365,-0.006693542948034347,-0.0008815047832246377, ,0.035637135526754335, ,0.01576451339574397, ,0.0009174521371155361, ,0.2032314383180922,-0.20758705965915483,0.10643448303000001,1.6129350452829614,0.19634665016293792,-1.352862169884388, ,0.14532456593946522,0.10382597544690457,0.031542201029702975,0.009990339752417655,0.13971842587203523,-0.11403244234166422, ,1.420639991760254
0.018142366453427605,0.020596748265425204,-0.09622412133584818, ,0.018935454409045538,0.02010924961172675,-0.09689109309703728, ,0.0011452051226429833, ,0.019174619107494677,-0.004211954724450594,-0.02823308241289248,0.014762926210130544,-0.004353937702551514,0.0005374347992072752, ,0.03438769435497967, ,0.015390998183428447, ,0.0009198001060384995, ,0.2045906393039557,-0.2065985498512541,0.10672355570000001,1.6129350452829614,0.19771301516059234,-1.353976348921352, ,0.1462202489344696,0.10603010229996734,0.02999776180790961,0.008553082359222747,0.14329936781832686,-0.11693748346141276, ,1.425994873046875
0.018142366453427605,0.020596748265425204,-0.09622412133584818, ,0.019045129349769423,0.0200850478021713,-0.09704514744744062, ,0.0013232165684506601, ,0.019174619107494677,-0.004211954724450594,-0.02823308241289248,0.014762926210130544,-0.004353937702551514,0.0005374347992072752, ,0.03438769435497967, ,0.015390998183428447, ,0.0009239166005529094, ,0.2045906393039557,-0.2065985498512541,0.10672355570000001,1.6129350452829614,0.19771301516059234,-1.353976348921352, ,0.1462202489344696,0.10603010229996734,0.02999776180790961,0.008553082359222747,0.14329936781832686,-0.11693748346141276, ,1.431276798248291
0.018336035757829515,0.020553354372887675,-0.09650282414499561, ,0.019154896663838683,0.0200608918774708,-0.09719905622058085, ,0.0011822823672270925, ,0.018567534121274827,-0.00426798356900529,-0.026489138482685106,0.023180702345028205,0.0041050600893715004,0.010851918411946935, ,0.03262887470699646, ,0.023541101029839417, ,0.0009265263557718405, ,0.20608112674868104,-0.2055328127146111,0.10702040611000001,1.613144735226446,0.19921601665801217,-1.3552019458620128, ,0.14356572096591644,0.10214956034281031,0.028242573617021278,0.0,0.15101089025536948,-0.12321229013648387, ,1.436600923538208
0.01853090196242459,0.020506888213751778,-0.0967789182968336, ,0.019264751343648256,0.020036794802946917,-0.09735282710855239, ,0.001043500864097857, ,0.019142985193546295,-0.004500767032370108,-0.027468435583104828,0.026257309222026175,0.008877581130567535,-0.008347153878691125, ,0.03345930633781211, ,0.027717180533522817, ,0.0009276961008551006, ,0.20608112674868104,-0.2055328127146111,0.10702040611000001,1.613144735226446,0.19921601665801217,-1.3552019458620128, ,0.14356572096591644,0.10214956034281031,0.028242573617021278,0.0,0.15101089025536948,-0.12321229013648387, ,1.4427359104156494
0.01853090196242459,0.020506888213751778,-0.0967789182968336, ,0.01937468844002464,0.020012769416939316,-0.09750646766370384, ,0.0012187932910782593, ,0.019142985193546295,-0.004500767032370108,-0.027468435583104828,0.026257309222026175,0.008877581130567535,-0.008347153878691125, ,0.033782032789386456, ,0.027717180533522817, ,0.0009305782512533497, ,0.20757933692628058,-0.20444390737934545,0.10731466394000001,1.6135641151134148,0.20071901815543203,-1.3564275428026733, ,0.14667224352159317,0.10638670578303898,0.029280903529411772,0.01968013789010649,0.15499000290457823,-0.1263839548522901, ,1.4480319023132324
0.01872066959812123,0.020464376442023955,-0.09705458316606506, ,0.01948470306199375,0.01998882843123358,-0.09765998529930942, ,0.0010846219559922877, ,0.019319112009010687,-0.003977088646179632,-0.028103458459637288,0.024556034239733963,0.00547996233245759,-0.008693743869184773, ,0.03433438073285771, ,0.025159715301746998, ,0.0009320884836527511, ,0.2090312107066348,-0.20340906117419935,0.10760892177,1.6135641151134148,0.2023586561526173,-1.3576012001667492, ,0.14577103157983223,0.10203972210588257,0.03005436135849057,0.01968013789010649,0.1505648456077199,-0.12038390610274134, ,1.4532008171081543
0.01872066959812123,0.020464376442023955,-0.09705458316606506, ,0.01959479037654619,0.01996498443148784,-0.09781338729024029, ,0.0012606598329156441, ,0.019319112009010687,-0.003977088646179632,-0.028103458459637288,0.024556034239733963,0.00547996233245759,-0.008693743869184773, ,0.03433438073285771, ,0.025159715301746998, ,0.0009352784967523908, ,0.2090312107066348,-0.20340906117419935,0.10760892177,1.6135641151134148,0.2023586561526173,-1.3576012001667492, ,0.14577103157983223,0.10203972210588257,0.03005436135849057,0.01968013789010649,0.1505648456077199,-0.12038390610274134, ,1.4584839344024658
0.01891488445480152,0.02042559587564683,-0.09733145397242582, ,0.01970494560840302,0.01994124987765985,-0.09796668077363523, ,0.0011235215890987034, ,0.01876616547670501,-0.0037527226028466892,-0.02649635784280119,-0.005822084204011074,-0.011646973427066965,-0.010026734290051666, ,0.03268499460863905, ,0.013020583506837012, ,0.00093708852648649, ,0.21049080721986324,-0.20241282863342439,0.10790577218000001,1.6135641151134148,0.20372502115027172,-1.3583886642431513, ,0.1407966491965442,0.09585549652370785,0.02844430628571429,0.01730277738261071,0.12843738763909382,-0.0843964442608783, ,1.463927984237671
0.01891488445480152,0.02042559587564683,-0.09733145397242582, ,0.019815164039780727,0.019917637104433606,-0.09811987274957362, ,0.0013000498500219217, ,0.01876616547670501,-0.0037527226028466892,-0.02649635784280119,-0.005822084204011074,-0.011646973427066965,-0.010026734290051666, ,0.03268499460863905, ,0.013020583506837012, ,0.0009405453009963513, ,0.21049080721986324,-0.20241282863342439,0.10790577218000001,1.6135641151134148,0.20372502115027172,-1.3583886642431513, ,0.1407966491965442,0.09585549652370785,0.02844430628571429,0.01730277738261071,0.12843738763909382,-0.0843964442608783, ,1.469235897064209
0.01910813207760985,0.020385438914482246,-0.09760468191793717, ,0.019925441010157436,0.019894158321646514,-0.09827297008174522, ,0.001164456775498792, ,0.020053157654451967,-0.004399477972550789,-0.02860358904489618,-0.023447692726333815,-0.008674362722656193,-0.007807917504803623, ,0.03520866149961639, ,0.025000394311860234, ,0.0009426576733973178, ,0.211927235534469,-0.20141659609264945,0.10819873372000001,1.6135641151134148,0.20495474964816068,-1.358819674195435, ,0.14920902760765847,0.10614870420410602,0.030632329846153848,0.015037719897678173,0.1405158177386351,-0.07726170223123568, ,1.474545955657959
0.01910813207760985,0.020385438914482246,-0.09760468191793717, ,0.02003577191603942,0.019870825614716425,-0.09842597949812158, ,0.001341593169837368, ,0.020053157654451967,-0.004399477972550789,-0.02860358904489618,-0.023447692726333815,-0.008674362722656193,-0.007807917504803623, ,0.03520866149961639, ,0.025000394311860234, ,0.0009463860425229257, ,0.211927235534469,-0.20141659609264945,0.10819873372000001,1.6135641151134148,0.20495474964816068,-1.358819674195435, ,0.14920902760765847,0.10614870420410602,0.030632329846153848,0.015037719897678173,0.1405158177386351,-0.07726170223123568, ,1.479794979095459
0.019305434182186734,0.020344718980842634,-0.09790353462177157, ,0.02014615221072507,0.019847650945068317,-0.09857890759162882, ,0.001187439297021846, ,0.01919605058886741,-0.003657854682650479,-0.03024062239080801,0.09533899788424334,0.1163071332777258,0.02043684343295916, ,0.036005048280389564, ,0.15038899054975763, ,0.0009486180171016195, ,0.21342544571206856,-0.2003663044217549,0.10851891735000001,1.6135641151134148,0.20714093364440772,-1.360193966953875, ,0.14758466805360929,0.10171162010554209,0.0325077786122449,0.01330964849902717,0.26684509045100646,-0.1921261810041546, ,1.4850499629974365
0.019305434182186734,0.020344718980842634,-0.09790353462177157, ,0.02025657740407215,0.019824646150561398,-0.09873176082081739, ,0.0013642242536039274, ,0.01919605058886741,-0.003657854682650479,-0.03024062239080801,0.09533899788424334,0.1163071332777258,0.02043684343295916, ,0.036005048280389564, ,0.15038899054975763, ,0.0009524309183539342, ,0.21342544571206856,-0.2003663044217549,0.10851891735000001,1.6135641151134148,0.20714093364440772,-1.360193966953875, ,0.14758466805360929,0.10171162010554209,0.0325077786122449,0.01330964849902717,0.26684509045100646,-0.1921261810041546, ,1.491020917892456
0.019502762543376753,0.020311042359532502,-0.09820866957275436, ,0.020367043062262835,0.01980182294591609,-0.09888454551053398, ,0.001209584023455719, ,0.020506809334210434,-0.0034643790661058388,-0.030714300278927596,0.01275338947487072,0.0178814254548647,0.0014937706517433786, ,0.03709311786581797, ,0.02196285467327637, ,0.0009547686738548595, ,0.21490048769104544,-0.19937779461385416,0.10884687872000001,1.6135641151134148,0.2093271176406548,-1.3617316171925962, ,0.1496797185464839,0.10020796363090896,0.03304732680497926,0.011932110609979323,0.16867277388152999,-0.1082343530521419, ,1.4964029788970947
0.019502762543376753,0.020311042359532502,-0.09820866957275436, ,0.020477544807569005,0.01977919292314063,-0.0990372678525933, ,0.001385510517797025, ,0.020506809334210434,-0.0034643790661058388,-0.030714300278927596,0.01275338947487072,0.0178814254548647,0.0014937706517433786, ,0.03709311786581797, ,0.02196285467327637, ,0.0009586492310074917, ,0.21490048769104544,-0.19937779461385416,0.10884687872000001,1.6135641151134148,0.2093271176406548,-1.3617316171925962, ,0.1496797185464839,0.10020796363090896,0.03304732680497926,0.011932110609979323,0.16867277388152999,-0.1082343530521419, ,1.5017688274383545
0.019716094314620174,0.02027295956309304,-0.09851536358878077, ,0.020588078318119308,0.01975676755195866,-0.09918993390644885, ,0.0012173148352813894, ,0.020440484708857978,-0.0036814014135440657,-0.028665557593826226,-0.06893917567629954,-0.05135931004082723,-0.0018569320731308327, ,0.03539887461015773, ,0.08596725722858428, ,0.0009609587453313657, ,0.21644503426589035,-0.1983429484087081,0.10917743267,1.6137738050568995,0.21069348263830917,-1.3622740450485764, ,0.14599529470533967,0.09733019647022642,0.03092973110679612,0.0004620044256077743,0.09652431150280677,-0.026053380251672628, ,1.5070948600769043
0.019716094314620174,0.02027295956309304,-0.09851536358878077, ,0.02069863932766289,0.019734558180235364,-0.09934254959986409, ,0.0013926620008638533, ,0.020440484708857978,-0.0036814014135440657,-0.028665557593826226,-0.06893917567629954,-0.05135931004082723,-0.0018569320731308327, ,0.03539887461015773, ,0.08596725722858428, ,0.0009647791281236886, ,0.21791235351199298,-0.19736216133368156,0.1094846534,1.613983495000384,0.21178657463643272,-1.3626753158373042, ,0.14874128770920184,0.10214956034281031,0.030750601389961392,0.013508782836893996,0.1410913058606982,-0.04967828775707023, ,1.5134329795837402
0.019920097835763748,0.020235064610696383,-0.09879976917870562, ,0.020809223625337058,0.019712576034405044,-0.09949512072958466, ,0.001243805757081551, ,0.020377622710104352,-0.00423826264860074,-0.028492850452072935,-0.04722003643007305,-0.007877687241354665,-0.006622518706869474, ,0.03528530720396349, ,0.0478724452835448, ,0.0009672267301320909, ,0.21791235351199298,-0.19736216133368156,0.1094846534,1.613983495000384,0.21178657463643272,-1.3626753158373042, ,0.14874128770920184,0.10214956034281031,0.030750601389961392,0.013508782836893996,0.1410913058606982,-0.04967828775707023, ,1.51875901222229
0.020125402215953412,0.020190959114828693,-0.0990849530327039, ,0.020919827055431682,0.01969083221989775,-0.09964765296200875, ,0.0010944719946408084, ,0.0197661870200254,-0.004142234445885721,-0.027289468810024097,0.026032346475696903,0.03718611300981465,0.004399074638245351, ,0.03394960034298756, ,0.045392454538765344, ,0.0009683332106930363, ,0.21944145462108944,-0.1963273151285355,0.10979317042000002,1.613983495000384,0.21356284913338341,-1.363878712364936, ,0.14850851574095583,0.09833879954245676,0.02960745635687733,0.012254588352356238,0.18707371720580313,-0.11945022692245061, ,1.5240459442138672
0.020125402215953412,0.020190959114828693,-0.0990849530327039, ,0.021030445517156354,0.019669337721566534,-0.09980015183385928, ,0.0012659785069799431, ,0.0197661870200254,-0.004142234445885721,-0.027289468810024097,0.026032346475696903,0.03718611300981465,0.004399074638245351, ,0.03394960034298756, ,0.045392454538765344, ,0.0009708991184196476, ,0.21944145462108944,-0.1963273151285355,0.10979317042000002,1.613983495000384,0.21356284913338341,-1.363878712364936, ,0.14850851574095583,0.09833879954245676,0.02960745635687733,0.012254588352356238,0.18707371720580313,-0.11945022692245061, ,1.529331922531128
0.02032389602665136,0.020149600846697806,-0.09935308705726678, ,0.021141074964402783,0.01964810340411362,-0.09995262275285434, ,0.0011308068586220546, ,0.02001653305429128,-0.0045082825999654096,-0.02643131750652506,0.03122754713238243,0.012157283482091339,0.00779582593657374, ,0.03346043563143529, ,0.0335103915441157, ,0.0009722658512418904, ,0.22093194206581476,-0.1953542507863832,0.11008483567,1.6141931849438687,0.21533912363033417,-1.3650004301524272, ,0.1499161793972682,0.09957706354509001,0.02875236736462094,0.0034318946769081914,0.1647047479748503,-0.12767463380516508, ,1.5346808433532715
0.02032389602665136,0.020149600846697806,-0.09935308705726678, ,0.021251711405514892,0.019627140012518328,-0.10010507099837947, ,0.0013035668560524864, ,0.02001653305429128,-0.0045082825999654096,-0.02643131750652506,0.03122754713238243,0.012157283482091339,0.00779582593657374, ,0.03346043563143529, ,0.0335103915441157, ,0.0009750734868758785, ,0.22093194206581476,-0.1953542507863832,0.11008483567,1.6141931849438687,0.21533912363033417,-1.3650004301524272, ,0.1499161793972682,0.09957706354509001,0.02875236736462094,0.0034318946769081914,0.1647047479748503,-0.12767463380516508, ,1.5399270057678223
0.020532403133246828,0.02010434615215413,-0.0996255218434923, ,0.021362350903051712,0.01960645817246337,-0.10025750172215821, ,0.0011558997828372602, ,0.021076036723618005,-0.004380439708481628,-0.027605182526657425,-0.013194587417595988,-0.012992873079153798,0.0033328294295659824, ,0.03500619485669658, ,0.01851744737398709, ,0.0009765930355814362, ,0.22247648864065966,-0.19434257277985978,0.11038168608000001,1.6141931849438687,0.216842125127754,-1.3658993121325258, ,0.1548074087413879,0.10031389171085707,0.030111174896030254,0.0032752050173052534,0.14402820834755745,-0.08397518365931887, ,1.5451879501342773
0.020532403133246828,0.02010434615215413,-0.0996255218434923, ,0.021472989573553532,0.01958606839076205,-0.100409919948924, ,0.0013298853625208682, ,0.021076036723618005,-0.004380439708481628,-0.027605182526657425,-0.013194587417595988,-0.012992873079153798,0.0033328294295659824, ,0.03500619485669658, ,0.01851744737398709, ,0.0009795371383059315, ,0.22247648864065966,-0.19434257277985978,0.11038168608000001,1.6141931849438687,0.216842125127754,-1.3658993121325258, ,0.1548074087413879,0.10031389171085707,0.030111174896030254,0.0032752050173052534,0.14402820834755745,-0.08397518365931887, ,1.5503687858581543
0.020750730774039553,0.0200632157343325,-0.09992062427607348, ,0.021583623587308375,0.019565981055785178,-0.10056233057709078, ,0.001163073402976019, ,0.021276771257282376,-0.003933235629472218,-0.029062673295105854,0.010304264934613906,-0.013171416498009493,0.0032373931922649976, ,0.036232724389834756, ,0.016722540317174836, ,0.0009810539669395685, ,0.22404420341412726,-0.19333089477333637,0.110703166,1.6141931849438687,0.21820849012540838,-1.3667684549490684, ,0.15232253861712805,0.09823699954293041,0.031667617335984104,0.0030526901599684077,0.14132537348390317,-0.10546972725147975, ,1.5555689334869385
0.020750730774039553,0.0200632157343325,-0.09992062427607348, ,0.021694249168117182,0.019546206437887823,-0.10071473837942552, ,0.0013372145608374342, ,0.021276771257282376,-0.003933235629472218,-0.029062673295105854,0.010304264934613906,-0.013171416498009493,0.0032373931922649976, ,0.036232724389834756, ,0.016722540317174836, ,0.000983973316069879, ,0.22404420341412726,-0.19333089477333637,0.110703166,1.6141931849438687,0.21820849012540838,-1.3667684549490684, ,0.15232253861712805,0.09823699954293041,0.031667617335984104,0.0030526901599684077,0.14132537348390317,-0.10546972725147975, ,1.5608468055725098
0.020959071805994788,0.020026265774035792,-0.10020826414646625, ,0.021804862593058336,0.019526754689836476,-0.10086714800371877, ,0.0011827938603440201, ,0.020867672909745005,-0.0037517853546169383,-0.028423106023177904,0.004939962402905247,-0.003655393474804616,0.005253328455403574, ,0.0354599580092819, ,0.0061438244937468516, ,0.0009855897432590997, ,0.22553469085885258,-0.19238099862980676,0.11101686818,1.6141931849438687,0.21971149162282821,-1.3676673369291668, ,0.14944400245428469,0.09470752650545987,0.031050314853801175,0.0028613292675410376,0.1480998603057203,-0.09668517385252391, ,1.5661389827728271
0.020959071805994788,0.020026265774035792,-0.10020826414646625, ,0.02191546019225612,0.019507635847235895,-0.10101956397345511, ,0.001357152591133431, ,0.020867672909745005,-0.0037517853546169383,-0.028423106023177904,0.004939962402905247,-0.003655393474804616,0.005253328455403574, ,0.0354599580092819, ,0.0061438244937468516, ,0.0009885862178387313, ,0.22553469085885258,-0.19238099862980676,0.11101686818,1.6141931849438687,0.21971149162282821,-1.3676673369291668, ,0.14944400245428469,0.09470752650545987,0.031050314853801175,0.0028613292675410376,0.1480998603057203,-0.09668517385252391, ,1.5714309215545654
0.021160708658591286,0.019988491132682012,-0.10048526851171219, ,0.02202603834864346,0.01948885982895604,-0.10117199068848659, ,0.0012124414461005845, ,0.021025409791429514,-0.004181707861655985,-0.02933982876180356,0.0058317020032662755,0.002233124846176944,0.007680529250226572, ,0.0363370346796451, ,0.006242904245229331, ,0.0009903770596648262, ,0.2269633964405841,-0.1914465479520256,0.11131890375000002,1.6144028748873531,0.22107785662048265,-1.368781515966131, ,0.14850851574095583,0.09989151742996924,0.03192146597194389,-6.521340766645086e-06,0.15369756585194833,-0.1032094462147413, ,1.576697826385498
0.021160708658591286,0.019988491132682012,-0.10048526851171219, ,0.02213659349773114,0.019470436437559246,-0.10132443242570253, ,0.0013874177312350297, ,0.021025409791429514,-0.004181707861655985,-0.02933982876180356,0.0058317020032662755,0.002233124846176944,0.007680529250226572, ,0.0363370346796451, ,0.006242904245229331, ,0.0009935281761058595, ,0.2269633964405841,-0.1914465479520256,0.11131890375000002,1.6144028748873531,0.22107785662048265,-1.368781515966131, ,0.14850851574095583,0.09989151742996924,0.03192146597194389,-6.521340766645086e-06,0.15369756585194833,-0.1032094462147413, ,1.5819668769836426
0.02139117956451126,0.019946994603534583,-0.10080869495743282, ,0.022247122127368377,0.019452375359726586,-0.10147689333970124, ,0.0011932204093635583, ,0.02149368609337663,-0.003530023931340975,-0.030115702498048496,-0.0083120426300612,-0.0016629864437063201,-0.0067115975859596486, ,0.03716712455635244, ,0.008475305562179635, ,0.0009951005558952904, ,0.2284693293510579,-0.19045031541125063,0.11164816141000002,1.6146125648308374,0.22258085811790249,-1.3697620766863698, ,0.14850851574095583,0.09537381061152843,0.033534340042105266,0.014697346626431856,0.1477499397392501,-0.08033181222210099, ,1.587216854095459
0.02139117956451126,0.019946994603534583,-0.10080869495743282, ,0.022357620777513937,0.019434686166685453,-0.10162937746346123, ,0.0013674751655360932, ,0.02149368609337663,-0.003530023931340975,-0.030115702498048496,-0.0083120426300612,-0.0016629864437063201,-0.0067115975859596486, ,0.03716712455635244, ,0.008475305562179635, ,0.000998009732533109, ,0.2284693293510579,-0.19045031541125063,0.11164816141000002,1.6146125648308374,0.22258085811790249,-1.3697620766863698, ,0.14850851574095583,0.09537381061152843,0.033534340042105266,0.014697346626431856,0.1477499397392501,-0.08033181222210099, ,1.5924699306488037
0.021600337146803716,0.019913330310748534,-0.10109882770921025, ,0.02246808603999864,0.01941737831463616,-0.10178188870901271, ,0.001210590291362031, ,0.021874048781856684,-0.0035944522947972137,-0.02974644969010899,-0.0010988493786785113,-0.011094768917290753,-0.006956552120893364, ,0.037097781154360215, ,0.011148007757094803, ,0.0009996576438418604, ,0.23002932139165125,-0.18947725106909835,0.11198908568000002,1.614822254774322,0.22408385961532232,-1.3706609586664682, ,0.15256743015831317,0.09451886609409439,0.03264100721311476,0.013517663577981372,0.14162164414777295,-0.08791070821978889, ,1.5977659225463867
0.021817961350372696,0.019876856779393267,-0.10139277789967659, ,0.022578514558290783,0.019400461145178884,-0.10193443086810927, ,0.0010482279907467436, ,0.02183331064568888,-0.0036599189717384842,-0.03030221380802993,-0.023312731511371088,-0.014648177737786226,0.019822125338680743, ,0.037527491553505175, ,0.027532290363925314, ,0.0010000312618949749, ,0.23154297703499924,-0.18853507765844296,0.11231186189000002,1.6150319447178065,0.22545022461297673,-1.3713667440027297, ,0.1499161793972682,0.09499193349196275,0.033185024,-0.015067460934092822,0.14075353302397886,-0.0725304981182836, ,1.6037240028381348
0.021817961350372696,0.019876856779393267,-0.10139277789967659, ,0.022688903027264437,0.01938394388574076,-0.10208700761289834, ,0.0012179726680003288, ,0.02183331064568888,-0.0036599189717384842,-0.03030221380802993,-0.023312731511371088,-0.014648177737786226,0.019822125338680743, ,0.037527491553505175, ,0.027532290363925314, ,0.001001694936750741, ,0.23154297703499924,-0.18853507765844296,0.11231186189000002,1.6150319447178065,0.22545022461297673,-1.3713667440027297, ,0.1499161793972682,0.09499193349196275,0.033185024,-0.015067460934092822,0.14075353302397886,-0.0725304981182836, ,1.609118938446045
0.022039869523776956,0.019840165299580798,-0.10169873818076007, ,0.022799248192963813,0.01936783565000283,-0.10223962249659287, ,0.0010451349693701574, ,0.021582860490985498,-0.0035874579518337456,-0.029660065544031302,-0.006022810954688065,-0.007225466734179907,0.021304649883526684, ,0.03685660333787896, ,0.009405246791486306, ,0.0010020240279069487, ,0.2330720781440957,-0.1875774587820391,0.11264760100000001,1.6150319447178065,0.2269532261103966,-1.3723473047229686, ,0.14850851574095583,0.09258238200826417,0.03257425668711657,-0.015067460934092822,0.14684238475157993,-0.08747614206141503, ,1.6145119667053223
0.022039869523776956,0.019840165299580798,-0.10169873818076007, ,0.022909546852366888,0.019352145438326668,-0.10239227895414377, ,0.001214701957348994, ,0.021582860490985498,-0.0035874579518337456,-0.029660065544031302,-0.006022810954688065,-0.007225466734179907,0.021304649883526684, ,0.03685660333787896, ,0.009405246791486306, ,0.0010036231100832046, ,0.2330720781440957,-0.1875774587820391,0.11264760100000001,1.6150319447178065,0.2269532261103966,-1.3723473047229686, ,0.14850851574095583,0.09258238200826417,0.03257425668711657,-0.015067460934092822,0.14684238475157993,-0.08747614206141503, ,1.6197547912597656
0.022252968934368032,0.019802682715534422,-0.10198752354180447, ,0.02301979585315483,0.019336882138181685,-0.10254498030290901, ,0.0010562915041499486, ,0.020593916344505043,-0.0037767365326326265,-0.02762742240358092,-0.028815318174584898,-0.007833557958164792,0.020263534494086657, ,0.03466478902153133, ,0.029860862284671018, ,0.0010040161578001208, ,0.23454712012307258,-0.18665073083713218,0.11296519205000001,1.6150319447178065,0.22845622760781642,-1.3731645079629264, ,0.1422742752001061,0.08994970763836094,0.030398495267175574,-0.015067460934092822,0.13981825949005391,-0.06212309891386004, ,1.6249868869781494
0.022252968934368032,0.019802682715534422,-0.10198752354180447, ,0.023129992093474886,0.019322054524571957,-0.10269772974332722, ,0.0012266074874380099, ,0.020593916344505043,-0.0037767365326326265,-0.02762742240358092,-0.028815318174584898,-0.007833557958164792,0.020263534494086657, ,0.03466478902153133, ,0.029860862284671018, ,0.0010056649824641052, ,0.23454712012307258,-0.18665073083713218,0.11296519205000001,1.6150319447178065,0.22845622760781642,-1.3731645079629264, ,0.1422742752001061,0.08994970763836094,0.030398495267175574,-0.015067460934092822,0.13981825949005391,-0.06212309891386004, ,1.6302518844604492
0.022461602205720153,0.019764509344553927,-0.10227439734924647, ,0.023240132521707445,0.019307671260463073,-0.10285053035958724, ,0.0010708593435140763, ,0.020757648660042767,-0.003568825632906017,-0.02853403289097232,-0.005227728668844486,-0.00814656557085676,-0.01036607339007974, ,0.035465582292061024, ,0.009678675644120636, ,0.0010061443527659432, ,0.23597582570480413,-0.18573172562509946,0.11328019052000002,1.614822254774322,0.22995922910523628,-1.3740633899430248, ,0.14017273494604252,0.08969465175658865,0.03135592818897638,0.01518410183728845,0.13161297642577077,-0.07853722348386141, ,1.635680913925171
0.022461602205720153,0.019764509344553927,-0.10227439734924647, ,0.023350214136230917,0.01929374089720918,-0.10300338512030087, ,0.001242045596750906, ,0.020757648660042767,-0.003568825632906017,-0.02853403289097232,-0.005227728668844486,-0.00814656557085676,-0.01036607339007974, ,0.035465582292061024, ,0.009678675644120636, ,0.0010078662596563442, ,0.23597582570480413,-0.18573172562509946,0.11328019052000002,1.614822254774322,0.22995922910523628,-1.3740633899430248, ,0.14017273494604252,0.08969465175658865,0.03135592818897638,0.01518410183728845,0.13161297642577077,-0.07853722348386141, ,1.641007900238037
0.022675223209203694,0.019727656401499954,-0.10255556125999983, ,0.023460233985187665,0.019280271874979948,-0.10315629687917312, ,0.001085024477661218, ,0.020642282677879795,-0.0034638030306962707,-0.02647715712546604,-0.07513930803612127,-0.0697136710976536,-0.020661358837051034, ,0.03375117205424982, ,0.10249828553531108, ,0.0010084253771781187, ,0.23739680855366144,-0.18483588861168943,0.11359000383000001,1.614822254774322,0.23077904810382893,-1.374405182404641, ,0.13733276636537015,0.08450306461128297,0.029280903529411772,0.013928071757679723,0.06625120495303205,-0.003800660460881197, ,1.6463298797607422
0.022675223209203694,0.019727656401499954,-0.10255556125999983, ,0.02357018916625045,0.019267272523187454,-0.10330926837567443, ,0.0012573749623327167, ,0.020642282677879795,-0.0034638030306962707,-0.02647715712546604,-0.07513930803612127,-0.0697136710976536,-0.020661358837051034, ,0.03375117205424982, ,0.10249828553531108, ,0.001010216381387864, ,0.23739680855366144,-0.18483588861168943,0.11359000383000001,1.614822254774322,0.23077904810382893,-1.374405182404641, ,0.13733276636537015,0.08450306461128297,0.029280903529411772,0.013928071757679723,0.06625120495303205,-0.003800660460881197, ,1.6515908241271973
0.022881970444549992,0.019694379863275515,-0.10282348138469545, ,0.023680076826388223,0.01925475106091304,-0.10346230223571064, ,0.0011128069735085889, ,0.021015035154856945,-0.003371405756075327,-0.02752315220291253,0.018420310874338583,-0.020581631070882744,-0.008570141966785516, ,0.03479255648147546, ,0.02762056473520339, ,0.0010109491713315836, ,0.23878690047102183,-0.18400183346127316,0.11388685424000002,1.614822254774322,0.231735503602187,-1.3748583927699538, ,0.1422742752001061,0.08526230149009054,0.030514964597701155,0.01211284150665226,0.12165490953671308,-0.09850452785062934, ,1.656843900680542
0.022881970444549992,0.019694379863275515,-0.10282348138469545, ,0.023789894161630014,0.01924271559733453,-0.1036154009722959, ,0.0012866478610675455, ,0.021015035154856945,-0.003371405756075327,-0.02752315220291253,0.018420310874338583,-0.020581631070882744,-0.008570141966785516, ,0.03479255648147546, ,0.02762056473520339, ,0.001012904481187867, ,0.23878690047102183,-0.18400183346127316,0.11388685424000002,1.614822254774322,0.231735503602187,-1.3748583927699538, ,0.1422742752001061,0.08526230149009054,0.030514964597701155,0.01211284150665226,0.12165490953671308,-0.09850452785062934, ,1.6621589660644531
0.023084609835937138,0.019661678071358404,-0.10310163521704617, ,0.023899638416832604,0.01923117413215279,-0.10376856698622354, ,0.0011377184247809674, ,0.020735515989821866,-0.0031742501191668097,-0.029562916319746814,0.034217437391828316,0.03293025648180094,0.0018109833093044295, ,0.03624918631516494, ,0.04748907488017074, ,0.0010137834526216213, ,0.24015382418975958,-0.1831600555779827,0.11419407497000002,1.614822254774322,0.23323850509960684,-1.3757572747500522, ,0.13853568110725661,0.08642708702957265,0.03257425668711657,0.010753219415697226,0.17255896012211805,-0.11574159400550567, ,1.6674368381500244
0.023084609835937138,0.019661678071358404,-0.10310163521704617, ,0.02400930688544421,0.019220134556019078,-0.10392180256673655, ,0.00131251658686793, ,0.020735515989821866,-0.0031742501191668097,-0.029562916319746814,0.034217437391828316,0.03293025648180094,0.0018109833093044295, ,0.03624918631516494, ,0.04748907488017074, ,0.0010158724955184487, ,0.24015382418975958,-0.1831600555779827,0.11419407497000002,1.614822254774322,0.23323850509960684,-1.3757572747500522, ,0.13853568110725661,0.08642708702957265,0.03257425668711657,0.010753219415697226,0.17255896012211805,-0.11574159400550567, ,1.6727519035339355
0.023293838653309508,0.01963534234395421,-0.10339923036708536, ,0.024118896909272394,0.0192096046509617,-0.10407510989219991, ,0.0011483844484475477, ,0.02060751226129803,-0.00250937349890528,-0.028850863724029577,0.03277535017198844,0.019119222821637458,0.010527271385563622, ,0.03554347836916194, ,0.03794401495704521, ,0.0010167927174137897, ,0.24155163883999423,-0.18234144589331489,0.11452333263000002,1.6150319447178065,0.2350147795965576,-1.3771240287579651, ,0.13693642360529693,0.07842722442848825,0.031985565301204825,0.0006116596982157362,0.158736486845204,-0.10884527011751771, ,1.6782448291778564
0.023500683403348405,0.019610702248365176,-0.10368706204704858, ,0.024228405878249412,0.01919959209081302,-0.10422849103077123, ,0.0009958598829823086, ,0.02060751226129803,-0.00250937349890528,-0.028850863724029577,0.03277535017198844,0.019119222821637458,0.010527271385563622, ,0.03554347836916194, ,0.03794401495704521, ,0.0010166483530384002, ,0.24155163883999423,-0.18234144589331489,0.11452333263000002,1.6150319447178065,0.2350147795965576,-1.3771240287579651, ,0.13693642360529693,0.07842722442848825,0.031985565301204825,0.0006116596982157362,0.158736486845204,-0.10884527011751771, ,1.684340000152588
0.023500683403348405,0.019610702248365176,-0.10368706204704858, ,0.024337831230194933,0.019190104441636616,-0.10438194794107289, ,0.001166441342174007, ,0.02087040292766607,-0.0022400326456872444,-0.02985281064320225,-0.04333745023313013,-0.024442436372116686,-0.007175885129857676, ,0.03649358529818311, ,0.04975483472799459, ,0.0010176743324160412, ,0.2428953943601093,-0.18156144987301823,0.11484221997,1.615241634661291,0.23624450809444655,-1.3778000749306707, ,0.1319846196918926,0.0772776397055951,0.03297890583850932,0.00910208147792795,0.1077816302330906,-0.029546668714892577, ,1.6897609233856201
0.023715675188069975,0.01958870534961368,-0.10399552927342993, ,0.02444717045058637,0.01918114916215373,-0.10453548247286235, ,0.0009963617930240593, ,0.020860143869768966,-0.0019141416047457021,-0.02999103279141869,-0.025915594953468575,-0.027081694959849613,-0.0073708619028200984, ,0.036582394512202576, ,0.03748348969861371, ,0.0010175293491548713, ,0.24424687261309858,-0.18077373111984732,0.11518314424000001,1.6154513246047757,0.23733760009257007,-1.378119666979258, ,0.1303529417011961,0.07408036031106227,0.033185024,0.009139118857294277,0.10343299180781548,-0.043804577805264686, ,1.6950068473815918
0.023715675188069975,0.01958870534961368,-0.10399552927342993, ,0.024556421072322022,0.01917273360417069,-0.10468909636770392, ,0.0011665853801386765, ,0.020860143869768966,-0.0019141416047457021,-0.02999103279141869,-0.025915594953468575,-0.027081694959849613,-0.0073708619028200984, ,0.036582394512202576, ,0.03748348969861371, ,0.0010185364844993564, ,0.24424687261309858,-0.18077373111984732,0.11518314424000001,1.6154513246047757,0.23733760009257007,-1.378119666979258, ,0.1303529417011961,0.07408036031106227,0.033185024,0.009139118857294277,0.10343299180781548,-0.043804577805264686, ,1.7002718448638916
0.023922023046843644,0.01957069467367215,-0.10429279467284927, ,0.02466558067548526,0.019164865013005877,-0.10484279125964095, ,0.001009986092018175, ,0.020738937061905098,-0.0018391933079900914,-0.029665186508120524,-0.03363659581341607,-0.018048441870000067,0.020882169107973067, ,0.03624237068740665, ,0.03817255372533289, ,0.0010184790993149188, ,0.24553656900309406,-0.1800477942296702,0.1155124019,1.6156610145482602,0.23843069209069356,-1.3786026165081267, ,0.1303529417011961,0.07194612703447369,0.03291076760330579,-0.017380407703740646,0.11745546112010828,-0.04030628185727315, ,1.705528974533081
0.023922023046843644,0.01957069467367215,-0.10429279467284927, ,0.024774646887113817,0.019157550527916182,-0.10499656867586553, ,0.0011802344451383436, ,0.020738937061905098,-0.0018391933079900914,-0.029665186508120524,-0.03363659581341607,-0.018048441870000067,0.020882169107973067, ,0.03624237068740665, ,0.03817255372533289, ,0.001019557468287075, ,0.24553656900309406,-0.1800477942296702,0.1155124019,1.6156610145482602,0.23843069209069356,-1.3786026165081267, ,0.1303529417011961,0.07194612703447369,0.03291076760330579,-0.017380407703740646,0.11745546112010828,-0.04030628185727315, ,1.710852861404419
0.023922023046843644,0.01957069467367215,-0.10429279467284927, ,0.024883617380963157,0.019150797182524396,-0.10515043003739075, ,0.0013551811631642159, ,0.020738937061905098,-0.0018391933079900914,-0.029665186508120524,-0.03363659581341607,-0.018048441870000067,0.020882169107973067, ,0.03624237068740665, ,0.03817255372533289, ,0.0010217801417630825, ,0.24553656900309406,-0.1800477942296702,0.1155124019,1.6156610145482602,0.23843069209069356,-1.3786026165081267, ,0.1303529417011961,0.07194612703447369,0.03291076760330579,-0.017380407703740646,0.11745546112010828,-0.04030628185727315, ,1.7163269519805908
0.024121100963657903,0.01955429023080964,-0.1045811638053812, ,0.02499248987727221,0.019144611905246026,-0.10530437665972253, ,0.0012042390966461223, ,0.020347232818468113,-0.001785241374263211,-0.029238973190102376,0.020450732067500848,0.012413260147517568,0.02678374690962803, ,0.03566671450168704, ,0.0239227945543222, ,0.0010229805296241552, ,0.24679537446159266,-0.17936047100386424,0.11583258553000002,1.6156610145482602,0.239797057088348,-1.3793900805845285, ,0.12946376747403926,0.07034613903518962,0.0325077786122449,-0.017380407703740646,0.14753679091447536,-0.09285103101986031, ,1.722890853881836
0.02432024677741211,0.019535140611555205,-0.10485627728903145, ,0.025101262142530282,0.019139001519716134,-0.10545840975352935, ,0.0010627674653639306, ,0.01933482332857243,-0.002034958722644295,-0.025366868019217476,-0.01902640751293294,-0.010734713467067473,0.02269165231063057, ,0.03196020092637675, ,0.021845543082359562, ,0.0010232405749557878, ,0.24807734811871393,-0.17867314777805826,0.11613980626,1.6156610145482602,0.2411634220860024,-1.38009586592079, ,0.12619274143413667,0.06562720716353443,0.028495190554561723,-0.017380407703740646,0.12060662956696813,-0.048805979583094614, ,1.7281298637390137
0.02432024677741211,0.019535140611555205,-0.10485627728903145, ,0.025209931989240972,0.019133972745216644,-0.10561253042531558, ,0.0012346636138111423, ,0.01933482332857243,-0.002034958722644295,-0.025366868019217476,-0.01902640751293294,-0.010734713467067473,0.02269165231063057, ,0.03196020092637675, ,0.021845543082359562, ,0.001024613451831472, ,0.24807734811871393,-0.17867314777805826,0.11613980626,1.6156610145482602,0.2411634220860024,-1.38009586592079, ,0.12619274143413667,0.06562720716353443,0.028495190554561723,-0.017380407703740646,0.12060662956696813,-0.048805979583094614, ,1.733400821685791
0.024518383152628186,0.019513646066668992,-0.10511588317385007, ,0.02531849727569004,0.019129532197102655,-0.1057667396780913, ,0.0011006090422258886, ,0.019493486285736633,-0.0017229796410686395,-0.026479161937618238,-0.0007660943766625022,-0.014229175240685068,0.021740241214252925, ,0.03292583610683789, ,0.014249326696941098, ,0.0010251037459630488, ,0.24936704450870942,-0.1779935472851265,0.11643147151000001,1.6156610145482602,0.24239315058389135,-1.3806902333533548, ,0.12388634668207675,0.06429332083907234,0.029662591284916204,-0.017289154232304652,0.11466681258673454,-0.06576011139271745, ,1.7386589050292969
0.024712391539616498,0.019500273695196663,-0.10538853157155155, ,0.02542695590570975,0.01912568638722993,-0.1059210384120437, ,0.0009666857916360147, ,0.01943186786375838,-0.0011325807413490954,-0.027988381362905556,-0.00013100230844193428,0.001337614085199392,-0.004244770566803292, ,0.034091490421007994, ,0.0013376091938397485, ,0.0010247292718968497, ,0.2505717908370884,-0.17737572865518852,0.11673609966000001,1.6154513246047757,0.24348624258201487,-1.3811731828822236, ,0.11966827434863908,0.06162139062238363,0.031232963764705888,0.01168061868685812,0.1209674941623327,-0.0567713690709019, ,1.7448019981384277
0.024712391539616498,0.019500273695196663,-0.10538853157155155, ,0.025535305828444047,0.019122441724381743,-0.10607542742520949, ,0.0011365609700754783, ,0.01943186786375838,-0.0011325807413490954,-0.027988381362905556,-0.00013100230844193428,0.001337614085199392,-0.004244770566803292, ,0.034091490421007994, ,0.0013376091938397485, ,0.0010254415757069047, ,0.2505717908370884,-0.17737572865518852,0.11673609966000001,1.6154513246047757,0.24348624258201487,-1.3811731828822236, ,0.11966827434863908,0.06162139062238363,0.031232963764705888,0.01168061868685812,0.1209674941623327,-0.0567713690709019, ,1.7501039505004883
0.024903929959348384,0.019490399911654212,-0.10566332626957012, ,0.025643545038115695,0.01911980451469565,-0.10622990741414526, ,0.0010026891873232328, ,0.01923892289798943,-0.0007818407976393135,-0.027398875638861474,0.009085414912382078,-0.004971056588501223,0.0005265363850810833, ,0.03348799509647348, ,0.01035570988164537, ,0.0010252975732487804, ,0.2517533689668448,-0.17678107822387326,0.11704332039000001,1.6156610145482602,0.24471597107990384,-1.3818492290549291, ,0.11803102183889398,0.05706370508627226,0.030691351676300584,0.006389137940896425,0.11383761337807045,-0.06282126118062133, ,1.7554500102996826
0.024903929959348384,0.019490399911654212,-0.10566332626957012, ,0.02575167157379062,0.01911778096209068,-0.10638447897459925, ,0.0011737001109320038, ,0.01923892289798943,-0.0007818407976393135,-0.027398875638861474,0.009085414912382078,-0.004971056588501223,0.0005265363850810833, ,0.03348799509647348, ,0.01035570988164537, ,0.0010262309225423855, ,0.2517533689668448,-0.17678107822387326,0.11704332039000001,1.6156610145482602,0.24471597107990384,-1.3818492290549291, ,0.11803102183889398,0.05706370508627226,0.030691351676300584,0.006389137940896425,0.11383761337807045,-0.06282126118062133, ,1.7607088088989258
0.025101620588664747,0.01948518592548081,-0.10595078330823798, ,0.025859683519144968,0.019116377168694014,-0.10653914260218235, ,0.0010280301378955744, ,0.019710713271878857,-0.0003941867766384608,-0.02979533473904466,0.019926002017703316,0.00021536854341698452,-0.008038698762830128, ,0.035727154562220864, ,0.01992657666736779, ,0.001026242167638343, ,0.2529426698294754,-0.17620959599118063,0.11736480031000002,1.6158707044917449,0.24580906307802738,-1.382250499843657, ,0.11615292724415029,0.05737420892289647,0.033185024,0.01553110165156343,0.11557752123655006,-0.0716715186348151, ,1.766007900238037
0.025101620588664747,0.01948518592548081,-0.10595078330823798, ,0.025967579002230325,0.019115599135267794,-0.10669389869303912, ,0.001199457729414886, ,0.019710713271878857,-0.0003941867766384608,-0.02979533473904466,0.019926002017703316,0.00021536854341698452,-0.008038698762830128, ,0.035727154562220864, ,0.01992657666736779, ,0.0010273180406928555, ,0.2529426698294754,-0.17620959599118063,0.11736480031000002,1.6158707044917449,0.24580906307802738,-1.382250499843657, ,0.11615292724415029,0.05737420892289647,0.033185024,0.01553110165156343,0.11557752123655006,-0.0716715186348151, ,1.7713329792022705
0.025309496001515906,0.019484264766424883,-0.10627243023216687, ,0.026075356195237334,0.01911545276163719,-0.10684874754452117, ,0.00102698869308373, ,0.020409723160968615,8.898683022033819e-05,-0.031029970171396797,-0.02192685009150075,-0.004148648935109659,-0.005932468016960697, ,0.037140594596763075, ,0.022315225186241672, ,0.0010273160076829228, ,0.2541474161578544,-0.17562266829273956,0.11772257635000001,1.616080394435229,0.24703879157591632,-1.3827631885360816, ,0.11862117694808846,0.05485372344420276,0.03462785113043479,0.013416046885576174,0.11401103690552998,-0.027851762600036432, ,1.7766268253326416
