NicholasDascanio/dvrk_moveit_final/test/execution/third_experiment_notsharpbends/thirdexp_200vel4.0/thirdexp_200vel4.0_9.csv
Current Position (x),Current Position (y),Current Position (z), ,Planned Position (x),Planned Position (y),Planned Position (z), ,Position Error,,Cartesian linear Velocity(x),Cartesian linear Velocity(y),Cartesian linear Velocity(z),Cartesian Angular Velocity(x),Cartesian Angular Velocity(y),Cartesian Angular Velocity(z), ,Total Linear Velocity, ,Total Angular Velocity, ,MSE, ,Joint 1 Position,Joint 2 Position,Joint 3 Position,Joint 4 Position,Joint 5 Position,Joint 6 Position, ,Joint 1 Velocity,Joint 2 Velocity,Joint 3 Velocity,Joint 4 Velocity,Joint 5 Velocity,Joint 6 Velocity, ,Time Stamp
0.010068972301401299,0.020381022119030225,-0.07788997762578156, ,0.010232252753758516,0.020314711661955524,-0.07812664685790591, ,0.00029507610590110355, ,0.0016452760347412953,0.0001085788400270076,-0.001841777826034883,0.24903387426926796,-0.1508306502440381,-0.13097821859933598, ,0.0024720170216787404, ,0.2911490264221739, ,2.458967549175863e-05, ,0.18339173756420943,-0.24698072005057403,0.0886273473,1.7070858299075127,0.49776676864549957,-1.2814915174728903, ,0.0005924800241729441,0.002851562701367215,0.001390983604601462,-0.0022164855970020457,-0.15611094947874243,-0.28148404938535687, ,0.05332493782043457
0.010161449924049675,0.020417238243554396,-0.07814148418860839, ,0.010294467692889291,0.020317968800316426,-0.07842427034045311, ,0.0003278965642744577, ,0.0016440730059594506,0.0007606935484871418,-0.005934636285439057,-0.058884788920383145,-0.052362161851351605,0.001230355372114498, ,0.006204960802783882, ,0.07879856821404592, ,2.8316939553434604e-05, ,0.1834149057628321,-0.24670270166710195,0.08886845724,1.7068761399640284,0.492301308654882,-1.2891232548658367, ,0.0014800710618128887,0.008564797446144535,0.005897375609033692,-0.0012966007289212805,-0.052656019137616195,0.04806368413488734, ,0.10589003562927246
0.010212098965002496,0.020432058031831644,-0.07845751541789502, ,0.010357627562889403,0.020321038861028737,-0.07872200223732262, ,0.0003216474883154288, ,0.0007169666356326534,-4.6421239976361673e-05,-0.004953441956983802,0.01953448446081967,0.018441766739044182,-0.007451109118964713, ,0.005005275547793435, ,0.02686437865697122, ,2.951937995284344e-05, ,0.1834149057628321,-0.24593815111255374,0.08918345571000001,1.7064567600770593,0.49325776415324,-1.2863909943656675, ,-0.0005877051266767498,0.015724431078454146,0.004957613295985062,-0.0018602806623571502,0.01931128807491426,-0.036209003436614505, ,0.15994000434875488
0.01025652950319467,0.02043577980075198,-0.07870096031272314, ,0.010421723054726379,0.02032392461498084,-0.07901981199422976, ,0.000376120840756208, ,0.0011679889707905578,0.00011606757137041608,-0.006278063568092321,-0.004411398616800821,-0.002149074900078159,0.0001849935224268434, ,0.006386842105612155, ,0.004907030765103836, ,3.2213195103590196e-05, ,0.18342262849570634,-0.24525855061962198,0.08942715823000001,1.70603738019009,0.49339440065300544,-1.2869924847102072, ,0.00010308433342563217,0.017129411833658986,0.006212484992199689,-0.008414421410640112,0.0,-0.014696811278390638, ,0.20690107345581055
0.010321200889552141,0.02044417775312605,-0.0790205819948902, ,0.010486744908446784,0.02032662883212144,-0.0793176693254204, ,0.00035983809273435586, ,0.0012145022405501515,0.00026181414713497887,-0.006327463208962969,0.028960407083924132,0.0020466679662302506,-0.027430765071263, ,0.006448282949803095, ,0.029032637119077265, ,3.3611581839631075e-05, ,0.18349213309157436,-0.2444167727363315,0.08974474928000001,1.705618000303121,0.49339440065300544,-1.287972629591894, ,0.00042243674426519466,0.016412476921215974,0.0063034473763355775,0.010250709421183044,0.0,-0.04569685806707877, ,0.2539520263671875
0.010377258713163357,0.020451678979028037,-0.07932397410186734, ,0.010552683913061921,0.02032915428142188,-0.07961554421287029, ,0.0003616620410178577, ,0.0011074744497621056,9.62962535568359e-05,-0.005891264091483044,-0.02083358852596622,-0.00327145631200551,0.010086043751123392, ,0.005995228537839278, ,0.021088879301047758, ,3.461425649151545e-05, ,0.18349213309157436,-0.24362133125028637,0.09004548856000001,1.7051986204161522,0.49339440065300544,-1.2887894169932994, ,0.0002643481014396479,0.015753144349015733,0.005830458096632504,-0.012470046927375836,0.0,0.003311576303858153, ,0.30209994316101074
0.010425632977535945,0.020463764172595236,-0.07957617703460469, ,0.01061953090643331,0.020331503730837867,-0.07991340690548193, ,0.0004108688563233066, ,0.0011963266028649439,0.00021916621317476196,-0.006314512257939096,-0.005921311660547433,0.0012162271087655988,0.00668900627048379, ,0.006430575108447365, ,0.006044925981534642, ,3.607514690180468e-05, ,0.1835384694888197,-0.24301123535322264,0.09029826511000001,1.7051986204161522,0.49366767365253633,-1.2890122528006924, ,0.0009155979555769388,0.015539043975515109,0.006300953924050633,-0.012470046927375836,0.00534217463605683,-0.011713807828689249, ,0.34921813011169434
0.010495698567592632,0.02047451185269081,-0.07991554617250744, ,0.010687276775158258,0.02033367994727196,-0.08021122791828286, ,0.00037942526271027646, ,0.0013916543865698473,0.00039488790728881083,-0.007337233258266365,-0.0011462690564609096,0.005965706009004319,-0.0013356551391300294, ,0.00747847780482045, ,0.006074830011683783, ,3.7270200684644664e-05, ,0.18364658774905884,-0.2423393575931651,0.09056400456000001,1.704779240529183,0.4939409466520672,-1.2898068397890692, ,0.003025691587505157,0.017704653275834103,0.00693159770234987,-0.009773839857571673,0.006835514748700952,-0.013151523896922968, ,0.3913919925689697
0.010556113076727693,0.020485258549400108,-0.0802054808812712, ,0.010755912454455327,0.020335685696535086,-0.08050897803162194, ,0.0003929406442779191, ,0.001539813815381624,0.000294370930190814,-0.007316612858605348,-0.004269969783487858,0.006289118148496797,-0.00507678221488633, ,0.00748268030543138, ,0.007601685870250831, ,3.8398522575129925e-05, ,0.18377787420792066,-0.24144352057975507,0.09092826205000001,1.704359860642214,0.49435085615136354,-1.2905494872008614, ,0.003153095901837651,0.018103193734923844,0.0073472377859778604,0.0,0.009816913625039343,-0.013376379784924777, ,0.4339170455932617
0.010606039705630232,0.020486062808162456,-0.08043867438500153, ,0.010825428928049816,0.020337523743309546,-0.08080662829036857, ,0.0004534154399401281, ,0.001538906664745123,-9.887049906177066e-06,-0.00711336517027571,-0.002739082841457445,0.0002591991465024502,0.0038433946696978315, ,0.007277932091071226, ,0.0027513161935997874, ,3.998794930707654e-05, ,0.1838859924681598,-0.24077936555257176,0.09116029796000001,1.7041501706987296,0.49462412915089443,-1.2912623954490976, ,0.003391314498323054,0.020268462528507215,0.007066908393966283,-0.012728753811185156,0.006955426297730485,-0.01989323731762733, ,0.47690892219543457
0.010677897109890826,0.020486867905144403,-0.08077450839531033, ,0.010895817228059294,0.020339196851110446,-0.08110415000310935, ,0.0004218524714807011, ,0.0016657930045363644,0.0002830792761743623,-0.007542078291285,0.0029970983550958474,-0.0025673276509963782,0.0033352583772934615, ,0.007729032614915928, ,0.003946358500442741, ,4.100743807731743e-05, ,0.1840172789270216,-0.2398449148747906,0.09149344449,1.703521100868276,0.4947607656506599,-1.292108922014059, ,0.0037092187989249026,0.017891580233497507,0.007559948514475558,-0.013725522236351288,0.004580774203931876,-0.0238921598414934, ,0.5192520618438721
0.010742219057153302,0.02049906017879974,-0.0810808922961617, ,0.01096706843487871,0.020340707782248175,-0.0814015147413456, ,0.00042241150139743576, ,0.0015888964353710376,0.0003286465540574626,-0.007916399512946449,-0.007307475613346747,0.0005017544633622366,0.0037215948787213743, ,0.00808096415586701, ,0.007324679261912253, ,4.227247952457177e-05, ,0.18410995172151232,-0.23928887810784644,0.09172936927000001,1.703521100868276,0.49503403865019074,-1.2925767940418735, ,0.001952585643601153,0.01845884877620517,0.007924781850746269,-0.010415462782334314,0.005119500345227678,-0.012931120075407195, ,0.558319091796875
0.010795147296678305,0.02050756546740788,-0.08132639508435555, ,0.011039173677066312,0.02034205929779134,-0.08169869433869142, ,0.0004749188365241613, ,0.0016511154685201024,0.00019878319694687923,-0.008003145199085258,0.0027411679718008382,0.0018635835330806905,0.005262936717916997, ,0.008174107298501545, ,0.003314651203661086, ,4.384275566362579e-05, ,0.18424896091324836,-0.2385243275532982,0.09204696032000001,1.7028920310378222,0.49530731164972164,-1.2934530597703908, ,0.0028713985893338836,0.01985291664403154,0.008000407594173784,-0.015605669320320412,0.0087517996164679,-0.025636599983328637, ,0.5962939262390137
0.010864175900134727,0.0205184724743463,-0.08164931521807287, ,0.011112124131228137,0.02034325415752741,-0.08199566089007085, ,0.00046058127226682893, ,0.0019408873098962962,0.00027558014772453973,-0.008051724344526013,0.011380310050501254,0.005453218269978079,-0.010649395485051812, ,0.008286932658575743, ,0.012619390338065506, ,4.511285469355511e-05, ,0.18439569283785862,-0.2377366088001273,0.09237103282,1.7026823410943377,0.49571722114901795,-1.2942773859223236, ,0.0064396485470501206,0.019894537014354462,0.008118660305810398,0.0,0.01235736163591236,-0.03154189982931013, ,0.6333141326904297
0.01093669857331351,0.020518483909599518,-0.08194863045694212, ,0.011185911021904176,0.020344295119926612,-0.08229238675091538, ,0.0004589302437478924, ,0.0019086026027502867,9.533508036439081e-05,-0.007954826922193315,-0.0014806693367728995,0.00871033510548828,-0.03937383045593087, ,0.008181144420851206, ,0.008835286496855468, ,4.6231137981781727e-05, ,0.1846119293583369,-0.23691799911545952,0.09266917952,1.7020532712638843,0.49585385764878337,-1.2947155187865822, ,0.004698644186619594,0.018041243642294827,0.00801248064386318,-0.016109308437093548,0.006593697234815993,-0.011933976563461972, ,0.6698949337005615
0.010998424705147388,0.020529454664148135,-0.08223066404059419, ,0.011260525621452912,0.020345184942103214,-0.0825888445363617, ,0.00048056788109378164, ,0.0022562911846456223,0.00032044766692010504,-0.009755173638286848,-0.007677982598603172,0.0006533604009131076,0.001557075351385662, ,0.010017831568272184, ,0.0077057256799310725, ,4.774741449822271e-05, ,0.18475866128294716,-0.236246121355402,0.09295306703,1.7020532712638843,0.49626376714807974,-1.295539844938515, ,0.006092509283266303,0.023350625383481982,0.009802345550769233,-0.009403696091463088,0.009290327169968221,-0.01706052587611491, ,0.7012960910797119
0.011062559050789927,0.020532688556780438,-0.08251480938116112, ,0.011335959249936887,0.020345926379777963,-0.08288500712044805, ,0.0004966630103253631, ,0.0022679315794351,0.00019620482063359792,-0.009610092670058398,-0.0032644659083833263,-0.0032883653270658893,0.00799517948221057, ,0.009876026078729694, ,0.00463357337531904, ,4.924868966490862e-05, ,0.1849208386733059,-0.2355279071980991,0.09323695454000001,1.701214511489946,0.4965370401476106,-1.2961710744466104, ,0.006437184221022796,0.023718305813164406,0.009630478548972188,-0.018943531834703615,0.007851550333383623,-0.0240412586738919, ,0.7338221073150635
0.011127921307648104,0.020538416801056718,-0.08279542039370433, ,0.011412203275007518,0.020346522187240264,-0.08318084763531383, ,0.0005159398592396363, ,0.0022922265316863534,0.0002473815247076008,-0.009473905099657754,0.009116304343148002,-0.005666250345418182,7.436309412489697e-06, ,0.009750403987971714, ,0.010733746854321552, ,5.075860556388248e-05, ,0.18509846152941306,-0.2348096930407962,0.09351824947000001,1.701214511489946,0.49681031314714147,-1.2969656614349874, ,0.006655116462181425,0.02277891059972894,0.00950406415274463,-0.015167430096974958,0.004696057001659712,-0.035714307577129664, ,0.7665951251983643
0.011186199316143886,0.02054237817237901,-0.08303006213245871, ,0.011489249111790764,0.020346975117310952,-0.08347633947039468, ,0.0005737464552629124, ,0.002429938850752225,3.457981892046822e-05,-0.008880729682757287,0.01965328840301366,-0.005433133476527813,-0.018076590427054992, ,0.009207234018991695, ,0.02039045436441089, ,5.2529624128879964e-05, ,0.18526836165264599,-0.23421504260948092,0.09375287796000001,1.7010048215464617,0.49681031314714147,-1.2975374126159713, ,0.009382548285228446,0.024270317534135753,0.00889877738547486,0.0,0.004114412437388773,-0.04557138482225612, ,0.798759937286377
0.011268726635893359,0.02053703213816661,-0.08332980870447991, ,0.011567088222771825,0.020347287921304535,-0.08377145627162146, ,0.0005657517811896705, ,0.0025099229543988316,0.00027296445442488883,-0.009312615931831312,-0.012285392883308382,0.006487770699677058,-0.03505394625182669, ,0.009648784292551886, ,0.013893234933119242, ,5.4460220692862575e-05, ,0.18560816189911186,-0.23336554199331624,0.09405232095,1.7001660617725234,0.49708358614667236,-1.2984953570846292, ,0.00952427336437396,0.02426411187892375,0.009403076458087368,0.03250683821084838,0.008805126052670103,-0.005259853792592477, ,0.8257420063018799
0.011329018059464763,0.020549937788668766,-0.08357387461446024, ,0.011645712117679908,0.020347463348990208,-0.08406617194061733, ,0.0006193929952569246, ,0.002786579806500692,0.0005562435753631533,-0.011502246612474386,0.015679646939043373,0.02389570958950907,0.0035096768696592975, ,0.011848042499388188, ,0.028580693896176585, ,5.660276323479228e-05, ,0.1858398438853386,-0.23282495069212053,0.09430120863000001,1.700375751716008,0.49776676864549957,-1.2990524466031113, ,0.011046427357716621,0.024946619757747313,0.011738254620486369,-0.01217389411427307,0.03913909676097231,-0.041257770425168594, ,0.8521490097045898
0.011426836907564748,0.02056704199163536,-0.0839363660358172, ,0.011725112353373769,0.020347504148555955,-0.08436046063389409, ,0.0005630464760874794, ,0.0031808199355460977,0.000500039155126572,-0.011782885933887998,-0.01490240137930766,-0.0030792348661289473,0.018599938406717583, ,0.012214911196977356, ,0.01521719511306905, ,5.827960550972353e-05, ,0.18620281233042715,-0.2320681228704465,0.09466805870000002,1.69953699194207,0.49790340514526504,-1.2994089007272294, ,0.01282964517891381,0.025366731237228223,0.01195856720720721,-0.024867219489672594,0.016027545063985814,-0.013895850549373256, ,0.8798561096191406
0.01151716101612213,0.020574137675008777,-0.08426560643668464, ,0.011805280533726327,0.020347413066569477,-0.08465429676205156, ,0.0005343192617997926, ,0.0030158546056089064,-9.265968833630014e-05,-0.010634281101015398,0.016697345138051833,-0.007189698149818884,0.005003916315141186, ,0.01105404447953003, ,0.018179465287630918, ,5.9691938266997796e-05, ,0.18658122624126416,-0.23124951318577872,0.09500120523000001,1.69953699194207,0.4984499511443268,-1.3007530384835613, ,0.012935788107752286,0.02866977086358634,0.010676147131367292,-0.024867219489672594,0.011866885742059404,-0.05106667703782637, ,0.9061119556427002
0.011576336781974634,0.020573672153394177,-0.0844727184657126, ,0.011886208309509831,0.020347192847941543,-0.084947654988973, ,0.0006106373232140194, ,0.0030732210722049873,-0.00019903310982966792,-0.010791114078083473,-0.012342419830200721,-0.006899232659297659,0.00688187814871955, ,0.011221962617281549, ,0.014139822920486305, ,6.180483355191841e-05, ,0.1868129082274909,-0.23068575368596034,0.09520861163000001,1.69953699194207,0.4984499511443268,-1.3009163959638423, ,0.013015627699694249,0.030493875822130714,0.010806520705563096,-0.017459094129622245,0.010480311913833808,-0.02100764847426497, ,0.9274709224700928
0.011640634821613392,0.02057783609967717,-0.08473027010638107, ,0.011967887378280306,0.02034684623588704,-0.08524051023102361, ,0.000648687550222795, ,0.0032927399693846895,0.000534099660512745,-0.013166431059248864,0.03771771384190286,0.028477816710760658,-0.00499199727283769, ,0.013582426358765817, ,0.04726110013948858, ,6.40352125297802e-05, ,0.18706003567946608,-0.23006793505602235,0.09546916592000002,1.6989079221116163,0.499133133643154,-1.3019635579231679, ,0.013574158426329678,0.029073817879433455,0.013442035037974686,-0.011399036932251418,0.04624315201684216,-0.06809457783401977, ,0.9483950138092041
0.011720123461776024,0.02058934422116022,-0.08502915292680152, ,0.01205030948426286,0.020346375971888396,-0.08553283765624742, ,0.0006494264286867903, ,0.0041599265321732165,0.0006274678881919629,-0.01589410148512643,0.013106819009608911,-0.0014141780239993657,0.018230122098895282, ,0.016441446612852805, ,0.013182852108049993, ,6.617263415243058e-05, ,0.18733805406293816,-0.22941922549458751,0.09577120149000001,1.6984885422246472,0.4992697701429194,-1.3025650482677076, ,0.015561977953176579,0.033603732846483984,0.016122278866396764,-0.03762485015845766,0.023505964106272915,-0.05384002378862793, ,0.9701731204986572
0.011787048846932487,0.02060005787317326,-0.08527749416375925, ,0.012133466418236183,0.020345784795657178,-0.08582461268356495, ,0.0006957000836364967, ,0.004204502518656369,0.00040475801215544735,-0.01540108488625335,0.001558021724977015,-0.020694568689780184,0.004520800606647219, ,0.015969817974897934, ,0.02075311394647707, ,6.846523812597725e-05, ,0.1875774587820391,-0.2288786341933918,0.09602268175,1.6984885422246472,0.4994064066426849,-1.303084859872107, ,0.014806825020825521,0.034952832986545404,0.01551004042843233,-0.025908372422943932,0.0,-0.04286855918164019, ,0.9912469387054443
0.011892690280270115,0.02061037734182705,-0.08567605751338028, ,0.01221735001741748,0.020345075445096755,-0.08611581098197021, ,0.0006075953871370023, ,0.0039027569456801113,-4.606274758883475e-05,-0.014678206009880583,0.01268792728188386,0.010973766993228783,-0.0070249933918946645, ,0.015188264062171958, ,0.016775171515977697, ,7.057099557497761e-05, ,0.18797131815862456,-0.22795962898135907,0.09642582794000001,1.698069162337678,0.4999529526417466,-1.3044289976284387, ,0.015425380617436733,0.03871764241471676,0.01478998284122563,-0.01038400631350897,0.029759533698095326,-0.05294829513190079, ,1.007507085800171
0.01193442031375344,0.02060888341432586,-0.08582514402055129, ,0.012301952165347156,0.020344250656264162,-0.08640640846972816, ,0.0007368707610240357, ,0.004235821032298716,3.5186595500717204e-05,-0.015355931744678811,-0.022239376345526127,0.0011221194603389375,0.006866199626099872, ,0.015929471355365234, ,0.02226764824746046, ,7.327799441157092e-05, ,0.18812577281610907,-0.22757349233764784,0.09657490129000001,1.6976497824507093,0.4999529526417466,-1.3046740338488603, ,0.01658457559567822,0.0389240941585196,0.015286767293666029,-0.01523252463107538,0.022717920824567358,-0.01835498014005636, ,1.0258100032806396
0.012020376892072027,0.020608032453100774,-0.08614242153031586, ,0.012387264791773451,0.02034331316333278,-0.08669638131357245, ,0.0007152303648393875, ,0.004295940975490269,9.865935890911147e-05,-0.015876166561638465,0.03426619384279646,0.03197692577964902,-0.04106496660221989, ,0.01644741643015352, ,0.04686891095564049, ,7.57926968562647e-05, ,0.18848101852832339,-0.22676260538585427,0.09689508492000001,1.6970207126202554,0.5006361351405738,-1.3056395170680453, ,0.01845884877620517,0.04165800770784494,0.01610597726996967,0.02285750976814491,0.04683768440198637,-0.07092565593016509, ,1.0418901443481445
0.012119794064653387,0.020614769850061512,-0.08649118979879164, ,0.012473279872537242,0.020342265698554372,-0.08698570592790185, ,0.000666150831954801, ,0.0052191585549363545,0.00043166872414211304,-0.018513472051548123,-0.0064041894676418925,0.0012386306338041872,-0.014115276091747536, ,0.0192399220713708, ,0.006522704476216076, ,7.798656056319473e-05, ,0.1886509186515563,-0.22636874600926882,0.09705193601,1.6970207126202554,0.5009094081401047,-1.3061073890958597, ,0.01893016987003207,0.04187861498608596,0.01801901755656109,0.0168624520810722,0.040771091137525625,-0.08161187388841867, ,1.0576879978179932
0.012171793487483797,0.02062013050671159,-0.08667548917437097, ,0.012559989429456431,0.020341110992221065,-0.0872743589739782, ,0.0007662852052024446, ,0.005743655591796228,0.0007571380679293666,-0.019723362428908913,0.0065429160296785515,-0.022145679244039262,-0.024309264508183815, ,0.020556601448517106, ,0.023091943933397717, ,8.10079075140663e-05, ,0.18907566895963868,-0.22550379992735567,0.09743434156000001,1.6972304025637401,0.5010460446398701,-1.3067088794403996, ,0.022125656693511492,0.04245948168164241,0.019985961756587206,0.0,0.0,-0.050934026926019886, ,1.0682709217071533
0.012233029156219015,0.02062574450192465,-0.08690294354483807, ,0.012647385530210968,0.020339851772628353,-0.08756231735912404, ,0.0008295780157997584, ,0.0067491397732900235,0.0010662448895939027,-0.02470346162823853,-0.005213080343110677,-0.009908468392013243,0.001954423116003734, ,0.025631012119341753, ,0.011195747072568516, ,8.428027124333897e-05, ,0.18931507367873962,-0.2250095450234053,0.09766508118000002,1.6966013327332867,0.5014559541391664,-1.3076148843324729, ,0.02459107062930054,0.05055777387238721,0.025084742551181104,-0.023434222226633532,0.020588803636950426,-0.04968334656960871, ,1.0786960124969482
0.012300995388477372,0.020641063493422766,-0.08716493165654664, ,0.012735460288226925,0.020338490766036377,-0.08784955823591895, ,0.0008654614709248782, ,0.007102577719867406,0.0018260434379669993,-0.027727080731504213,0.045682756107644495,0.018109580620651246,0.0402544865981043, ,0.028680516919948485, ,0.049141171415050686, ,8.766328545905839e-05, ,0.18957764659646326,-0.22452301285232917,0.09793341321000001,1.6961819528463176,0.5021391366379937,-1.3086620462917984, ,0.025928126108871796,0.047686905305764214,0.028393603422459897,-0.07147412418675253,0.06194929437180413,-0.1062348427074143, ,1.0894601345062256
0.012376959658360045,0.02066073054161095,-0.0874484728071733, ,0.012824205862561397,0.020337030696632688,-0.08813605900139747, ,0.0008818081034437956, ,0.007846246525110784,0.002144475594081059,-0.02889388746114034,-0.008710698955352456,0.0024170620315084115,-0.038335889967968946, ,0.03001698007334291, ,0.00903871265870926, ,9.105983128850877e-05, ,0.18983249678131267,-0.22403648068125304,0.09822248588000002,1.6957625729593484,0.5022757731377591,-1.308936821675776, ,0.027690966314114614,0.05126793169015169,0.02955252601113173,0.02391934168599976,0.025612349309251665,-0.037126700081875505, ,1.1002309322357178
0.012455679423114305,0.020679736636997015,-0.08773499201755772, ,0.012913614457787288,0.02033547428649514,-0.08842179729624694, ,0.000894383895645155, ,0.00819476419847032,0.0021819410936169225,-0.03029884562592798,0.02173396832689953,-0.008212097402748256,-0.047267657054631054, ,0.0314632336778717, ,0.02323313126350721, ,9.445156573169037e-05, ,0.1900950696990363,-0.22351905757867999,0.09851415113,1.6957625729593484,0.5022757731377591,-1.3093452153764786, ,0.027538288322249208,0.053674740700492524,0.03092973110679612,0.018058534435778824,0.01582356436127964,-0.07372272955500304, ,1.1107110977172852
0.012540087692722291,0.020700663920963355,-0.08804345785622099, ,0.013003678323876652,0.020333824255551875,-0.08870675100400319, ,0.000888507407570766, ,0.008335985463413685,0.0015371874070305926,-0.029482175950492476,-0.0040776508141647325,-0.0087779760043271,-0.017426269075401433, ,0.030676543115976652, ,0.009677697294441179, ,9.775158590200823e-05, ,0.19041942447975374,-0.2229552980788616,0.09883044589000001,1.6959722629028329,0.5028223191368209,-1.3103626381722484, ,0.03155867693996368,0.057270332865703544,0.03005436135849057,-0.005016183599094988,0.024696807191417744,-0.05392935306804938, ,1.1211609840393066
0.012540087692722291,0.020700663920963355,-0.08804345785622099, ,0.013094389756086865,0.02033208332154661,-0.08899089825024992, ,0.0011579057543489118, ,0.008335985463413685,0.0015371874070305926,-0.029482175950492476,-0.0040776508141647325,-0.0087779760043271,-0.017426269075401433, ,0.030676543115976652, ,0.009677697294441179, ,0.00010272883551912983, ,0.19041942447975374,-0.2229552980788616,0.09883044589000001,1.6959722629028329,0.5028223191368209,-1.3103626381722484, ,0.03155867693996368,0.057270332865703544,0.03005436135849057,-0.005016183599094988,0.024696807191417744,-0.05392935306804938, ,1.1264829635620117
0.012620216957188443,0.02070977815596078,-0.08833108640960842, ,0.01318574109484354,0.02033025419999794,-0.0892742174018142, ,0.0011633366029998697, ,0.0082641835841115,0.0008588795726038024,-0.028465174525206253,0.03723337586911226,0.01620530200557801,0.006447416657732635, ,0.02965300263350383, ,0.04060686399398424, ,0.0005761144642143631, ,0.19074377926047117,-0.22236064764754632,0.09912340743,1.6953431930723792,0.5033688651358826,-1.311380060968018, ,0.03630334413101407,0.060482435665054665,0.029067174306569344,-0.037908850032260355,0.06286636173434139,-0.10406751375686565, ,1.1319711208343506
0.012620216957188443,0.02070977815596078,-0.08833108640960842, ,0.013277724725625927,0.02032833960416347,-0.08955668706596479, ,0.0014421888930421086, ,0.010145306748237744,0.0006866425850829173,-0.03341165203418976,-0.04490044584517852,-0.043423461347130723,0.05738878284310674, ,0.034924736487327496, ,0.062462832104158476, ,0.0005972382307711374, ,0.19114536136993085,-0.221696492620363,0.09942803558,1.6947141232419258,0.5036421381354135,-1.311929611735973, ,0.042497510774057674,0.07167442715896584,0.03389108834042554,-0.08362924021169087,0.018017314473122742,-0.041729670528107554, ,1.1375999450683594
0.01271217929826958,0.020714892951275588,-0.08863111567933421, ,0.013370333078850978,0.02032634224500117,-0.08983828608960925, ,0.0014287751571480916, ,0.010145306748237744,0.0006866425850829173,-0.03341165203418976,-0.04490044584517852,-0.043423461347130723,0.05738878284310674, ,0.034924736487327496, ,0.062462832104158476, ,0.0006170367290182077, ,0.19114536136993085,-0.221696492620363,0.09942803558,1.6947141232419258,0.5036421381354135,-1.311929611735973, ,0.042497510774057674,0.07167442715896584,0.03389108834042554,-0.08362924021169087,0.018017314473122742,-0.041729670528107554, ,1.1430559158325195
0.012824025899447547,0.020730303952318188,-0.08901539501281935, ,0.013463558629757512,0.02032426483113122,-0.09011899355849112, ,0.0013385812007797088, ,0.011907243382517927,0.0025987063759528965,-0.042994908367726965,0.06613440357944102,0.03171816594819466,0.0016153983323344376, ,0.04468890091899971, ,0.07334612782211733, ,0.0006338168330126613, ,0.19161644807525854,-0.22091649660006632,0.09982081145,1.6945044332984414,0.5043253206342407,-1.3132218099157202, ,0.04730655112585781,0.07659155896567456,0.044124131634349036,-0.04453271966050408,0.09162080490095086,-0.1502256376887764, ,1.148366928100586
0.012824025899447547,0.020730303952318188,-0.08901539501281935, ,0.013557393898291123,0.020322110068799186,-0.09039878879638745, ,0.0016180943200830439, ,0.011907243382517927,0.0025987063759528965,-0.042994908367726965,0.06613440357944102,0.03171816594819466,0.0016153983323344376, ,0.04468890091899971, ,0.07334612782211733, ,0.0006561867759006245, ,0.19161644807525854,-0.22091649660006632,0.09982081145,1.6945044332984414,0.5043253206342407,-1.3132218099157202, ,0.04730655112585781,0.07659155896567456,0.044124131634349036,-0.04453271966050408,0.09162080490095086,-0.1502256376887764, ,1.1536190509796143
0.012953053352659383,0.02076927490032802,-0.08949404868136379, ,0.013651831448987819,0.020319880661836806,-0.09067765136430565, ,0.0014460848248165335, ,0.01374848461455912,0.004524575977473038,-0.052094509080255556,0.13148982522752656,0.08598814713873798,-0.04912433306538607, ,0.05406783233388891, ,0.1571087264127436, ,0.0006737400658765336, ,0.19211842571208312,-0.22015966877839233,0.10031469794000002,1.6942947433549567,0.5055550491321297,-1.3151230371905342, ,0.05171495452777699,0.08001428461928396,0.05381355243243244,0.0,0.14206437719981074,-0.20985433495512734, ,1.1588621139526367
0.012953053352659383,0.02076927490032802,-0.08949404868136379, ,0.01374686389085935,0.020317579311625603,-0.09095556105968133, ,0.001723421743911206, ,0.01374848461455912,0.004524575977473038,-0.052094509080255556,0.13148982522752656,0.08598814713873798,-0.04912433306538607, ,0.05406783233388891, ,0.1571087264127436, ,0.0006965592327903308, ,0.19211842571208312,-0.22015966877839233,0.10031469794000002,1.6942947433549567,0.5055550491321297,-1.3151230371905342, ,0.05171495452777699,0.08001428461928396,0.05381355243243244,0.0,0.14206437719981074,-0.20985433495512734, ,1.1647131443023682
0.013108147422627706,0.02081606507085832,-0.09007360570072946, ,0.013842483877276537,0.02031520871705783,-0.09123249791557556, ,0.0014605267136890792, ,0.01568836086767453,0.004796256750178862,-0.05846987807647373,0.006329912534330985,0.0261391578324702,0.005248026571009369, ,0.0607277151538383, ,0.02688196397150576, ,0.0007128138600434956, ,0.19267446247902728,-0.2192715544978565,0.10091099134,1.6936656735245033,0.5066481411302531,-1.31666781034123, ,0.05428886816846154,0.08944103822664541,0.06010872271698114,-0.03418938752077123,0.09060723847194439,-0.09858871718834289, ,1.1702301502227783
0.013108147422627706,0.02081606507085832,-0.09007360570072946, ,0.013938684105853878,0.020312771574498633,-0.09150844219987157, ,0.0017325851508461798, ,0.01568836086767453,0.004796256750178862,-0.05846987807647373,0.006329912534330985,0.0261391578324702,0.005248026571009369, ,0.0607277151538383, ,0.02688196397150576, ,0.0007340590952685514, ,0.19267446247902728,-0.2192715544978565,0.10091099134,1.6936656735245033,0.5066481411302531,-1.31666781034123, ,0.05428886816846154,0.08944103822664541,0.06010872271698114,-0.03418938752077123,0.09060723847194439,-0.09858871718834289, ,1.1755549907684326
0.013260706222845555,0.020855669307494308,-0.0906264637278821, ,0.014035457318334325,0.020310270577749114,-0.09178337441447312, ,0.0014953733216549036, ,0.017176253039458966,0.004293178174644379,-0.061024375772292104,-0.046976805659782524,-0.044861837425301504,0.056209272556028096, ,0.06354077026376591, ,0.06495043065296496, ,0.0007495961202968444, ,0.19320733104734877,-0.21840660841594337,0.10147747007,1.6926172238070805,0.5071946871293149,-1.3173585181764373, ,0.05979643450439242,0.096734904748696,0.062465927529411776,-0.0913785360517969,0.03574017398888484,-0.06579024732670218, ,1.1808750629425049
0.013260706222845555,0.020855669307494308,-0.0906264637278821, ,0.014132796300473111,0.020307708418007463,-0.09205727529450083, ,0.0017629588704997036, ,0.017176253039458966,0.004293178174644379,-0.061024375772292104,-0.046976805659782524,-0.044861837425301504,0.056209272556028096, ,0.06354077026376591, ,0.06495043065296496, ,0.0007698633753009015, ,0.19320733104734877,-0.21840660841594337,0.10147747007,1.6926172238070805,0.5071946871293149,-1.3173585181764373, ,0.05979643450439242,0.096734904748696,0.062465927529411776,-0.0913785360517969,0.03574017398888484,-0.06579024732670218, ,1.1860949993133545
0.013443997135101467,0.02090017629334214,-0.09126153708789166, ,0.014230693881921507,0.02030508778383093,-0.09233012580748996, ,0.0014542709366766077, ,0.017326896780284824,0.0031201999360245224,-0.05908028197236961,-0.019907128526745328,0.0045401086573120045,0.010844297308845894, ,0.06164768217548907, ,0.02040065075477375, ,0.0007832831314063075, ,0.19389465427315478,-0.21735631674504882,0.10212950394,1.6926172238070805,0.5078778696281421,-1.3182423226554818, ,0.06846821180264846,0.10591176513222186,0.060565823269961974,-0.04223238899038895,0.0846114771559038,-0.09014738747037818, ,1.1913280487060547
0.013443997135101467,0.02090017629334214,-0.09126153708789166, ,0.01432914293611258,0.020302411361099008,-0.09260190715258804, ,0.0017138838681781858, ,0.017326896780284824,0.0031201999360245224,-0.05908028197236961,-0.019907128526745328,0.0045401086573120045,0.010844297308845894, ,0.06164768217548907, ,0.02040065075477375, ,0.0008011792994211513, ,0.19389465427315478,-0.21735631674504882,0.10212950394,1.6926172238070805,0.5078778696281421,-1.3182423226554818, ,0.06846821180264846,0.10591176513222186,0.060565823269961974,-0.04223238899038895,0.0846114771559038,-0.09014738747037818, ,1.1966581344604492
0.013552902100315265,0.020916099192257863,-0.09162352337528071, ,0.014428136380143553,0.0202996818329738,-0.0928726007597514, ,0.0016450531048599693, ,0.01729598098796708,0.0017930115998410663,-0.05576746828769235,0.04981817176761944,0.04829823938019522,-0.012521957865321825, ,0.05841554902722438, ,0.06938321679855874, ,0.0008171014466935818, ,0.19436574097848247,-0.21666127078636863,0.10250153917000002,1.6926172238070805,0.5086976886267348,-1.319155866298082, ,0.07894920262767952,0.11230407285026127,0.057297883165467633,-0.031025516628711156,0.13796971904002533,-0.1637998435581816, ,1.202009916305542
0.013791626428948333,0.02092398599147717,-0.09234858454812792, ,0.014527667174662137,0.02029690187986433,-0.09314218828894341, ,0.0012509186063947352, ,0.017208619852865696,-0.00016164550290856982,-0.05000445379012965,0.04022168857471703,0.057119973216600346,-0.03009998016966344, ,0.05288296630634732, ,0.06985816296511757, ,0.0008251350977991588, ,0.19553187364249036,-0.2150858332800268,0.10322875786,1.6921978439201113,0.5107472361232164,-1.321235528554231, ,0.08969465175658865,0.11906768075090436,0.0515495518446602,-0.007870827425093142,0.1588376230264709,-0.15077203246953905, ,1.2079169750213623
0.013791626428948333,0.02092398599147717,-0.09234858454812792, ,0.014627728323748482,0.020294074179385703,-0.09341065162933118, ,0.0014912550936967094, ,0.017208619852865696,-0.00016164550290856982,-0.05000445379012965,0.04022168857471703,0.057119973216600346,-0.03009998016966344, ,0.05288296630634732, ,0.06985816296511757, ,0.0008372463704518416, ,0.19553187364249036,-0.2150858332800268,0.10322875786,1.6921978439201113,0.5107472361232164,-1.321235528554231, ,0.08969465175658865,0.11906768075090436,0.0515495518446602,-0.007870827425093142,0.1588376230264709,-0.15077203246953905, ,1.2132790088653564
0.01395989386841033,0.02090837422026162,-0.09280928592478901, ,0.014728312874801069,0.020291201406323452,-0.09367797289848309, ,0.001313768286233405, ,0.017636662467383903,-0.0025120440443133596,-0.045645047281282866,-0.05370265013039737,-0.04812089219418518,0.08563181946689159, ,0.04899829149653635, ,0.07210684265969347, ,0.0008457556903765123, ,0.19646632432027153,-0.21385791875302512,0.10371745919000001,1.6911493942026892,0.5119769646211053,-1.3226466833882016, ,0.096734904748696,0.12602515479212587,0.04643968373177843,-0.12768982323133207,0.07788144083966371,-0.0932680941347757, ,1.2186529636383057
0.01395989386841033,0.02090837422026162,-0.09280928592478901, ,0.014829413918420381,0.020288286232594595,-0.09394413444156624, ,0.0015583502128372455, ,0.017636662467383903,-0.0025120440443133596,-0.045645047281282866,-0.05370265013039737,-0.04812089219418518,0.08563181946689159, ,0.04899829149653635, ,0.07210684265969347, ,0.0008582573486652971, ,0.19646632432027153,-0.21385791875302512,0.10371745919000001,1.6911493942026892,0.5119769646211053,-1.3226466833882016, ,0.096734904748696,0.12602515479212587,0.04643968373177843,-0.12768982323133207,0.07788144083966371,-0.0932680941347757, ,1.2238450050354004
0.014143860935777191,0.020878716590269436,-0.09327759116734369, ,0.014931024588293313,0.020285331327209933,-0.09420911883054409, ,0.0013562730084928744, ,0.01795842864656014,-0.0032094101667085153,-0.045737539120131544,-0.0595011177752977,-0.03818834203102383,0.017866312122326936, ,0.04924152676184328, ,0.07070029936095318, ,0.000866843825558876, ,0.19747027959392072,-0.2124909950342874,0.10419319762000001,1.69073001431572,0.5126601471199326,-1.3231220941665431, ,0.09813541009148995,0.1353736684143663,0.04643968373177843,-0.056535733327347015,0.07392591837239129,-0.08286001779130746, ,1.22918701171875
0.014143860935777191,0.020878716590269436,-0.09327759116734369, ,0.01503313806107677,0.02028233935623538,-0.0944729088633728, ,0.001604762912487553, ,0.01795842864656014,-0.0032094101667085153,-0.045737539120131544,-0.0595011177752977,-0.03818834203102383,0.017866312122326936, ,0.04924152676184328, ,0.07070029936095318, ,0.0008793509287271586, ,0.19747027959392072,-0.2124909950342874,0.10419319762000001,1.69073001431572,0.5126601471199326,-1.3231220941665431, ,0.09813541009148995,0.1353736684143663,0.04643968373177843,-0.056535733327347015,0.07392591837239129,-0.08286001779130746, ,1.2349529266357422
0.014143860935777191,0.020878716590269436,-0.09327759116734369, ,0.015135747556282672,0.020279312982754982,-0.09473548756319965, ,0.001862413931887571, ,0.01795842864656014,-0.0032094101667085153,-0.045737539120131544,-0.0595011177752977,-0.03818834203102383,0.017866312122326936, ,0.04924152676184328, ,0.07070029936095318, ,0.0008957353121131655, ,0.19747027959392072,-0.2124909950342874,0.10419319762000001,1.69073001431572,0.5126601471199326,-1.3231220941665431, ,0.09813541009148995,0.1353736684143663,0.04643968373177843,-0.056535733327347015,0.07392591837239129,-0.08286001779130746, ,1.2404510974884033
0.01424927613626602,0.020860471035837064,-0.0935565030692245, ,0.015238846336161455,0.020276254866831867,-0.09499683817756009, ,0.0018425859374673144, ,0.017371539710886074,-0.0033820966921877804,-0.0460987870995114,-0.026437064239443697,0.009121048449894486,-0.001127617222078389, ,0.049379217713611846, ,0.027962541128373913, ,0.0009112574535124139, ,0.19804176182661332,-0.21166466261674535,0.10447708513000001,1.69073001431572,0.5133433296187598,-1.3237608624251658, ,0.09395736787967403,0.1381323749031598,0.046849445647058834,-0.03817424539409496,0.1143075341646865,-0.11367697585510651, ,1.245863914489746
0.01424927613626602,0.020860471035837064,-0.0935565030692245, ,0.015342427705586756,0.020273167665470736,-0.09525694417757503, ,0.002105090393622191, ,0.017371539710886074,-0.0033820966921877804,-0.0460987870995114,-0.026437064239443697,0.009121048449894486,-0.001127617222078389, ,0.049379217713611846, ,0.027962541128373913, ,0.0009305128235141846, ,0.19804176182661332,-0.21166466261674535,0.10447708513000001,1.69073001431572,0.5133433296187598,-1.3237608624251658, ,0.09395736787967403,0.1381323749031598,0.046849445647058834,-0.03817424539409496,0.1143075341646865,-0.11367697585510651, ,1.2511780261993408
0.01457609802631155,0.02079804353975725,-0.09440696364990589, ,0.015446485011939457,0.020270054032579875,-0.09551578925714811, ,0.001505270956245396, ,0.019316850697689094,-0.0033784105595567483,-0.04880848951068165,-0.0037557414687706373,0.025647083651877015,-0.021658212180707688, ,0.05260059911350875, ,0.025915275335137277, ,0.0009396359684781721, ,0.19984888131918185,-0.20910071530250282,0.10534430314000001,1.69073001431572,0.5158027866145377,-1.3259297421719827, ,0.1087021094598749,0.14313264186798005,0.049933578432601884,-0.01952902798254176,0.14242797953557051,-0.13675791335982562, ,1.2564921379089355
0.01457609802631155,0.02079804353975725,-0.09440696364990589, ,0.01555101164499172,0.020266916618932897,-0.0957733573321634, ,0.0017605635645513219, ,0.019316850697689094,-0.0033784105595567483,-0.04880848951068165,-0.0037557414687706373,0.025647083651877015,-0.021658212180707688, ,0.05260059911350875, ,0.025915275335137277, ,0.000952462962166815, ,0.19984888131918185,-0.20910071530250282,0.10534430314000001,1.69073001431572,0.5158027866145377,-1.3259297421719827, ,0.1087021094598749,0.14313264186798005,0.049933578432601884,-0.01952902798254176,0.14242797953557051,-0.13675791335982562, ,1.261760950088501
0.014779254592702181,0.020765495560184234,-0.09491102745397924, ,0.015656001036791364,0.02026375807213058,-0.09602963253968244, ,0.0015072166970620017, ,0.02069929721200136,-0.0030532329422873535,-0.04984896749431277,-0.06498073383989429,-0.026175895147535932,-0.019422289776653848, ,0.054062026383772256, ,0.07005259059081441, ,0.0009609976350113564, ,0.20098412305169286,-0.20766428698789707,0.10586022656,1.6903106344287508,0.5170325151124266,-1.327014182045391, ,0.11544640092271385,0.14100585669906504,0.05105388307692308,-0.011298958106799107,0.0942472218084039,-0.07208823378218872, ,1.267854928970337
0.014996223772878188,0.020724429222015308,-0.0954255259413352, ,0.015761446661545598,0.020260581036562777,-0.09628459923714162, ,0.0012404548101627123, ,0.02104753968326496,-0.004246891077784748,-0.04860028233990894,-0.10717242640796136,-0.06621183790608569,0.07842605206202342, ,0.05313212261959846, ,0.12597485987625023, ,0.0009652318346348618, ,0.2021965921129461,-0.20617379954317175,0.10638522401000002,1.6890524947678438,0.5178523341110194,-1.32776436820771, ,0.11951755863787251,0.14422027592472764,0.04962246579439253,-0.11159958860698514,0.07829287490059819,-0.05301716025348123, ,1.2741820812225342
0.014996223772878188,0.020724429222015308,-0.0954255259413352, ,0.01586734203550643,0.02025738815337122,-0.09653824200155026, ,0.0014883250377337516, ,0.02104753968326496,-0.004246891077784748,-0.04860028233990894,-0.10717242640796136,-0.06621183790608569,0.07842605206202342, ,0.05313212261959846, ,0.12597485987625023, ,0.0009730391958751436, ,0.2021965921129461,-0.20617379954317175,0.10638522401000002,1.6890524947678438,0.5178523341110194,-1.32776436820771, ,0.11951755863787251,0.14422027592472764,0.04962246579439253,-0.11159958860698514,0.07829287490059819,-0.05301716025348123, ,1.2795910835266113
0.015200526384410542,0.02068521912529324,-0.09589368697919011, ,0.01597368071685314,0.020254182060409725,-0.09679054562868719, ,0.0012601253946555803, ,0.020453757277366248,-0.004007942789951128,-0.04576581383686859,-0.0547389017186315,-0.017507203155385974,-0.033086568131895526, ,0.05028846297432291, ,0.057468676254026435, ,0.000977261051739562, ,0.20337044750982824,-0.2047759848929371,0.10686485131000001,1.6886331148808746,0.5188087896093774,-1.3286259722737257, ,0.11966827434863908,0.13996599049921946,0.04698764460176992,0.0029246454671710735,0.10438828949315655,-0.07815515070878715, ,1.2849640846252441
0.015200526384410542,0.02068521912529324,-0.09589368697919011, ,0.01608045630557747,0.020250965392207432,-0.09704149513229804, ,0.0015100716960478495, ,0.020453757277366248,-0.004007942789951128,-0.04576581383686859,-0.0547389017186315,-0.017507203155385974,-0.033086568131895526, ,0.05028846297432291, ,0.057468676254026435, ,0.000984982945135334, ,0.20337044750982824,-0.2047759848929371,0.10686485131000001,1.6886331148808746,0.5188087896093774,-1.3286259722737257, ,0.11966827434863908,0.13996599049921946,0.04698764460176992,0.0029246454671710735,0.10438828949315655,-0.07815515070878715, ,1.2902710437774658
0.015409064833964137,0.020641166605311793,-0.09635260321965433, ,0.01618766244336877,0.020247740779931234,-0.0972910757432941, ,0.0012812996507740784, ,0.020252725454893747,-0.004330216657578012,-0.04431471428391933,-0.02016390834126167,0.008713435739028748,-0.042656601937815654, ,0.048915412363776216, ,0.021962155242053333, ,0.0009892160409301733, ,0.20461380750257838,-0.20333955657833133,0.10733670087000001,1.6886331148808746,0.5200385181072663,-1.329710412147134, ,0.12166274558778303,0.13934940023270306,0.04564129375358167,0.008222192885361032,0.1322925311763339,-0.11068407413846748, ,1.2955949306488037
0.015409064833964137,0.020641166605311793,-0.09635260321965433, ,0.01629529281349547,0.020244510851345238,-0.0975392729089477, ,0.0015332712644364642, ,0.020252725454893747,-0.004330216657578012,-0.04431471428391933,-0.02016390834126167,0.008713435739028748,-0.042656601937815654, ,0.048915412363776216, ,0.021962155242053333, ,0.0009968787905570223, ,0.20461380750257838,-0.20333955657833133,0.10733670087000001,1.6886331148808746,0.5200385181072663,-1.329710412147134, ,0.12166274558778303,0.13934940023270306,0.04564129375358167,0.008222192885361032,0.1322925311763339,-0.11068407413846748, ,1.300856113433838
0.015611029309116965,0.020605167902933177,-0.09679571171520784, ,0.016403341140691804,0.0202412782307751,-0.0977860722920913, ,0.0013194649689179762, ,0.020283548347055542,-0.003262256812512172,-0.045302668677245465,-0.013118990668839798,0.008105207384176702,-0.03310789800768856, ,0.04974330550273473, ,0.015414651636979802, ,0.001001359154145369, ,0.20576449470083782,-0.2020653056540843,0.10777743947000001,1.6888428048243591,0.5212682466051554,-1.3307131732804018, ,0.11862117694808846,0.12964063054435898,0.04698764460176992,0.0,0.13027884026505102,-0.10953427222691525, ,1.3060779571533203
0.015611029309116965,0.020605167902933177,-0.09679571171520784, ,0.0165118011910413,0.02023804553906911,-0.09803145977031386, ,0.001572654465867484, ,0.020283548347055542,-0.003262256812512172,-0.045302668677245465,-0.013118990668839798,0.008105207384176702,-0.03310789800768856, ,0.04974330550273473, ,0.015414651636979802, ,0.0010091851173196446, ,0.20576449470083782,-0.2020653056540843,0.10777743947000001,1.6888428048243591,0.5212682466051554,-1.3307131732804018, ,0.11862117694808846,0.12964063054435898,0.04698764460176992,0.0,0.13027884026505102,-0.10953427222691525, ,1.3114099502563477
0.01581986017074918,0.020575599128303097,-0.09726487567206625, ,0.01662066677185968,0.020234815393558994,-0.09827542143515866, ,0.0013336519431816952, ,0.021052695315015184,-0.0023670891410344673,-0.04769885838807019,-0.011311766592013477,-0.002300495368382161,-0.029403644082645394, ,0.05219195515166719, ,0.011532624665026277, ,0.0010135698041556182, ,0.20702330015933643,-0.2007369955997177,0.10828039999000001,1.6886331148808746,0.5226346116028098,-1.331990709797647, ,0.11936722208612675,0.12404828961891604,0.04946835875776398,-0.004499477655924087,0.12125448496072705,-0.10770357669662303, ,1.3168771266937256
0.01581986017074918,0.020575599128303097,-0.09726487567206625, ,0.016729931731581316,0.020231590408023716,-0.09851794359132085, ,0.001586427261404931, ,0.021052695315015184,-0.0023670891410344673,-0.04769885838807019,-0.011311766592013477,-0.002300495368382161,-0.029403644082645394, ,0.05219195515166719, ,0.011532624665026277, ,0.001021207903585609, ,0.20816626462472165,-0.19958630840145822,0.10874576810000001,1.6880040450504212,0.5237277036009332,-1.332963731767359, ,0.1170122583951551,0.11629527151773382,0.049011727753846164,-0.061904857647705064,0.10173241725692356,-0.09145767813891142, ,1.3223860263824463
0.016020535668451578,0.020551800391505073,-0.09771354060579782, ,0.016839589959641837,0.020228373192650133,-0.09875901275584477, ,0.0013669188349716046, ,0.020936881196962024,-0.002026290206140623,-0.047222968612063446,-0.03180665190360059,-0.02997565967206699,0.028063639112024096, ,0.05169591483658194, ,0.043703185709349036, ,0.0010257567316301615, ,0.20816626462472165,-0.19958630840145822,0.10874576810000001,1.6880040450504212,0.5237277036009332,-1.332963731767359, ,0.1170122583951551,0.11629527151773382,0.049011727753846164,-0.061904857647705064,0.10173241725692356,-0.09145767813891142, ,1.3279409408569336
0.01623790963164931,0.02053270324723435,-0.09820028578260766, ,0.016949635386362284,0.020225166353994514,-0.09899861565732122, ,0.0011128625609146616, ,0.02066465481800869,-0.0017050597562621873,-0.04673076584927418,-0.03226480444871514,-0.03303057197060915,0.03317486315768143, ,0.05112435490428769, ,0.04617156527418077, ,0.001026887976166324, ,0.20937101095310068,-0.19840473027170188,0.10925132120000002,1.687584665163452,0.5246841590992912,-1.333743657093234, ,0.11351308798860141,0.11047373871766097,0.04856344975609757,-0.06600980870874373,0.09603033359672071,-0.08680801125479157, ,1.3331811428070068
0.01623790963164931,0.02053270324723435,-0.09820028578260766, ,0.017060061982834794,0.020221972494945915,-0.09923673923508536, ,0.0013589421798334543, ,0.02066465481800869,-0.0017050597562621873,-0.04673076584927418,-0.03226480444871514,-0.03303057197060915,0.03317486315768143, ,0.05112435490428769, ,0.04617156527418077, ,0.0010311450813415435, ,0.20937101095310068,-0.19840473027170188,0.10925132120000002,1.687584665163452,0.5246841590992912,-1.333743657093234, ,0.11351308798860141,0.11047373871766097,0.04856344975609757,-0.06600980870874373,0.09603033359672071,-0.08680801125479157, ,1.3383989334106445
0.016448296853983226,0.020519035636093724,-0.09867138462056498, ,0.017170863760804452,0.02021879421468575,-0.09947337063841313, ,0.0011204594677123407, ,0.020404678781550764,-0.0010206725633918061,-0.045777377980883466,0.000954287245195617,-0.0036703023294882235,-0.029745564423837252, ,0.0501294426805705, ,0.003765734490679809, ,0.0010322756431943385, ,0.2105371436171086,-0.19730810220356199,0.10974261511000001,1.6873749752199676,0.5257772510974149,-1.3346350003228054, ,0.11270420612644985,0.10405366398955129,0.04783426882882884,0.0,0.11197856274557053,-0.09981272275197856, ,1.3436570167541504
0.016448296853983226,0.020519035636093724,-0.09867138462056498, ,0.017282034772556503,0.020215634108652642,-0.0997084972257204, ,0.0013648347736970737, ,0.020404678781550764,-0.0010206725633918061,-0.045777377980883466,0.000954287245195617,-0.0036703023294882235,-0.029745564423837252, ,0.0501294426805705, ,0.003765734490679809, ,0.0010364326323256227, ,0.2105371436171086,-0.19730810220356199,0.10974261511000001,1.6873749752199676,0.5257772510974149,-1.3346350003228054, ,0.11270420612644985,0.10405366398955129,0.04783426882882884,0.0,0.11197856274557053,-0.09981272275197856, ,1.3489980697631836
0.01665191884012941,0.020509096982036554,-0.09912049795795998, ,0.017393569110797206,0.020212494768500816,-0.09994210656375864, ,0.0011458877336712958, ,0.019814554235773822,-0.001017697946809333,-0.042549382476087305,0.026143894158132855,0.01650166847296832,-0.024564580845948834, ,0.046947867020448626, ,0.030913893297314757, ,0.0010377839298731002, ,0.21168010808249382,-0.19628097873129013,0.11021316838000002,1.687584665163452,0.5270069795953038,-1.335637761456073, ,0.1144715820970697,0.09683361383517426,0.04474385258426967,-0.004947139579028634,0.13552766178549844,-0.11816994245676364, ,1.3545629978179932
0.01665191884012941,0.020509096982036554,-0.09912049795795998, ,0.01750546090854102,0.02020937878206505,-0.10017418642681346, ,0.0013887492399052188, ,0.019814554235773822,-0.001017697946809333,-0.042549382476087305,0.026143894158132855,0.01650166847296832,-0.024564580845948834, ,0.046947867020448626, ,0.030913893297314757, ,0.0010420639946295894, ,0.21168010808249382,-0.19628097873129013,0.11021316838000002,1.687584665163452,0.5270069795953038,-1.335637761456073, ,0.1144715820970697,0.09683361383517426,0.04474385258426967,-0.004947139579028634,0.13552766178549844,-0.11816994245676364, ,1.359868049621582
0.01685263199651764,0.020501399911036146,-0.09954597591716376, ,0.017617704338992693,0.020206288733320078,-0.1004047247959016, ,0.0011873819659935579, ,0.020110964785583146,-0.0005447004580784729,-0.04203250664485891,0.022939550601591155,0.0047562410701409,-0.023890525751393756, ,0.04659913323277703, ,0.023424636884075527, ,0.0010438148135616856, ,0.2128462407465017,-0.19534652805350897,0.11066168472000001,1.6873749752199676,0.5283733445929583,-1.3367519404930372, ,0.11658100928559063,0.0906370024436206,0.044369948523676886,-0.0036980591054635525,0.12534863706000798,-0.10892476086727103, ,1.3651399612426758
0.01685263199651764,0.020501399911036146,-0.09954597591716376, ,0.017730293615433244,0.020203227202344565,-0.1006337098579689, ,0.001429112314517489, ,0.020110964785583146,-0.0005447004580784729,-0.04203250664485891,0.022939550601591155,0.0047562410701409,-0.023890525751393756, ,0.04659913323277703, ,0.023424636884075527, ,0.0010484016885730643, ,0.2128462407465017,-0.19534652805350897,0.11066168472000001,1.6873749752199676,0.5283733445929583,-1.3367519404930372, ,0.11658100928559063,0.0906370024436206,0.044369948523676886,-0.0036980591054635525,0.12534863706000798,-0.10892476086727103, ,1.3704121112823486
0.01704771923265126,0.020498838409459163,-0.09995546464637334, ,0.01784322299110218,0.020200196765280676,-0.10086113000508723, ,0.001241870687036912, ,0.020986498718125208,0.00019075213603716968,-0.04369123126800551,-0.028562014560846578,-0.058894684304334276,0.011906279024278274, ,0.04847053955278006, ,0.06545390213491122, ,0.0010506777944373448, ,0.2139505915475158,-0.19451247290309273,0.11109334929,1.6869555953329984,0.5293298000913162,-1.3375318658189124, ,0.11615292724415029,0.0843528369408629,0.04603702751445087,-0.03652268618463246,0.06603243929455375,-0.05985674118752371, ,1.3756990432739258
0.01704771923265126,0.020498838409459163,-0.09995546464637334, ,0.017956486759084674,0.02019719999429865,-0.1010869738336524, ,0.001482281077089418, ,0.020986498718125208,0.00019075213603716968,-0.04369123126800551,-0.028562014560846578,-0.058894684304334276,0.011906279024278274, ,0.04847053955278006, ,0.06545390213491122, ,0.0010556964372588804, ,0.2139505915475158,-0.19451247290309273,0.11109334929,1.6869555953329984,0.5293298000913162,-1.3375318658189124, ,0.11615292724415029,0.0843528369408629,0.04603702751445087,-0.03652268618463246,0.06603243929455375,-0.05985674118752371, ,1.3810670375823975
0.017257944725473953,0.02050389954921178,-0.10039392738792915, ,0.01807007925219146,0.02019423945755502,-0.10131123014358051, ,0.0012636835867324999, ,0.0210834802945314,0.0005905132760501608,-0.04398165292917114,-0.02984282609003758,-0.06349703967664759,0.04111064923878852, ,0.04877753213971729, ,0.07015913158000374, ,0.0010580870941493817, ,0.2151090014786495,-0.19370158595129916,0.11155612482,1.6865362154460295,0.5300129825901435,-1.3380889553373945, ,0.11558701773260752,0.07914674024893309,0.04643968373177843,-0.06577412104951695,0.0664578714887631,-0.05961569573440658, ,1.386713981628418
0.017257944725473953,0.02050389954921178,-0.10039392738792915, ,0.01818399484284876,0.020191317719158927,-0.10153388793750787, ,0.0015015945774292357, ,0.0210834802945314,0.0005905132760501608,-0.04398165292917114,-0.02984282609003758,-0.06349703967664759,0.04111064923878852, ,0.04877753213971729, ,0.07015913158000374, ,0.0010631269519139257, ,0.2151090014786495,-0.19370158595129916,0.11155612482,1.6865362154460295,0.5300129825901435,-1.3380889553373945, ,0.11558701773260752,0.07914674024893309,0.04643968373177843,-0.06577412104951695,0.0664578714887631,-0.05961569573440658, ,1.3920280933380127
0.01747224829875657,0.020514611031803943,-0.1008497856940661, ,0.018298227942976013,0.020188437339128798,-0.10175493641998506, ,0.001268041595173383, ,0.02055235640096956,0.0011550253611217263,-0.04433768863428858,0.00929467916029761,-0.019267721963720546,0.020147895886336708, ,0.04888316755948239, ,0.021388427427144845, ,0.001065429363635942, ,0.21626741140978317,-0.1928984217323798,0.11203834470000001,1.6865362154460295,0.5308328015887361,-1.3388391414997134, ,0.11138138680571688,0.07483985927324195,0.04698764460176992,-0.04479254340336941,0.10335805752157244,-0.0890777214146318, ,1.3973150253295898
0.01747224829875657,0.020514611031803943,-0.1008497856940661, ,0.01841277300387631,0.020185600873359105,-0.10197436499667789, ,0.0015025022506350216, ,0.02055235640096956,0.0011550253611217263,-0.04433768863428858,0.00929467916029761,-0.019267721963720546,0.020147895886336708, ,0.04888316755948239, ,0.021388427427144845, ,0.0010702857290470428, ,0.21626741140978317,-0.1928984217323798,0.11203834470000001,1.6865362154460295,0.5308328015887361,-1.3388391414997134, ,0.11138138680571688,0.07483985927324195,0.04698764460176992,-0.04479254340336941,0.10335805752157244,-0.0890777214146318, ,1.4026260375976562
0.017681962824828056,0.020529913922974045,-0.10129809131772541, ,0.018527624516116552,0.02018281087357884,-0.10219216327356251, ,0.001278666839026784, ,0.0207605389295391,0.001462136103109617,-0.044346825272202205,0.01784197630350393,-0.015245500519203804,0.00877903626059795, ,0.04898753647972265, ,0.02346465182616106, ,0.0010725756313545126, ,0.21741809860804262,-0.19215703937645426,0.11251537942,1.6865362154460295,0.5320625300866252,-1.3399235813731218, ,0.11243713454795115,0.07194612703447369,0.047126661301775154,-0.032893047403581496,0.1061995754675748,-0.09228714666045866, ,1.4085190296173096
0.017887613534561232,0.020544059475835413,-0.10172418530758345, ,0.018642777009412696,0.020180069887314175,-0.1024083210561234, ,0.0010820360514936188, ,0.02055215187962588,0.0014230381363596755,-0.041986132975906774,0.0007695125845815595,-0.032493964417638375,0.006480067330226792, ,0.0467680590434462, ,0.03250106763735578, ,0.0010726784620081985, ,0.2185456176076794,-0.1914542706848998,0.11296908092,1.6865362154460295,0.5330189855849832,-1.3408668641792778, ,0.11297254947436998,0.06759041421543502,0.04474385258426967,-0.0261428932673795,0.08769809874821859,-0.0696878039640738, ,1.4173369407653809
0.017887613534561232,0.020544059475835413,-0.10172418530758345, ,0.018758225052516075,0.020177380457851835,-0.10262282834855188, ,0.0013038317500759136, ,0.02055215187962588,0.0014230381363596755,-0.041986132975906774,0.0007695125845815595,-0.032493964417638375,0.006480067330226792, ,0.0467680590434462, ,0.03250106763735578, ,0.001075163981234733, ,0.2185456176076794,-0.1914542706848998,0.11296908092,1.6865362154460295,0.5330189855849832,-1.3408668641792778, ,0.11297254947436998,0.06759041421543502,0.04474385258426967,-0.0261428932673795,0.08769809874821859,-0.0696878039640738, ,1.4226880073547363
0.01808696683639901,0.020552795731523885,-0.10211592892066607, ,0.018873963253093783,0.020174745124197924,-0.10283567535294204, ,0.0011315125047315798, ,0.018962317125953424,0.0005382993692992937,-0.03576317566111411,-0.013461688122886332,-0.048821649784720374,-0.006181911429705458, ,0.04048288490663578, ,0.05064298600514872, ,0.001075763433612359, ,0.21965769114156772,-0.1907901156577165,0.1133864863,1.6861168355590603,0.5337021680838104,-1.34142395369776, ,0.10820631876678537,0.06424979117025781,0.038198588776978425,-0.010980505182620257,0.06306196862912734,-0.049704928408610786, ,1.428523063659668
0.018274921825211104,0.020551625675903885,-0.10244772116039423, ,0.018989986257616907,0.020172166421042626,-0.10304685246848962, ,0.0010071071407411346, ,0.018063553868660005,-0.0005980758165977313,-0.03028649583579816,-0.022347491745209332,-0.060797185600090696,-0.00012440590280822386, ,0.035269271371268784, ,0.06477408958458408, ,0.001075040735792662, ,0.22076976467545606,-0.19014912882915588,0.11374166976000001,1.6856974556720912,0.5342487140828721,-1.3418696253125457, ,0.10983442310008192,0.06411955510707486,0.0325077786122449,-0.016944025287870618,0.053580080041926804,-0.04227517619206733, ,1.4338319301605225
0.018274921825211104,0.020551625675903885,-0.10244772116039423, ,0.019106288751241214,0.02016964687871972,-0.10325635029068841, ,0.0012210486630578419, ,0.018063553868660005,-0.0005980758165977313,-0.03028649583579816,-0.022347491745209332,-0.060797185600090696,-0.00012440590280822386, ,0.035269271371268784, ,0.06477408958458408, ,0.0010765616517016744, ,0.22076976467545606,-0.19014912882915588,0.11374166976000001,1.6856974556720912,0.5342487140828721,-1.3418696253125457, ,0.10983442310008192,0.06411955510707486,0.0325077786122449,-0.016944025287870618,0.053580080041926804,-0.04227517619206733, ,1.4391319751739502
0.018449977975409176,0.020543940292637855,-0.10273879827565867, ,0.01922286545769607,0.020167189023171158,-0.10346415961052902, ,0.0011249202840403556, ,0.01765245905868979,-0.0007814625261954552,-0.029259277126439893,0.007839730302477805,-0.027892869985713668,0.030949667296930744, ,0.034180773725303176, ,0.028973300168516066, ,0.0010770601943031041, ,0.2218586700107217,-0.18951586473346946,0.11405537194000001,1.6854877657286067,0.5350685330814648,-1.3426198114748649, ,0.11073155374383986,0.06235015871121602,0.03160478476190477,-0.051696362490411,0.0949382712541529,-0.07716427905254994, ,1.4444150924682617
0.018449977975409176,0.020543940292637855,-0.10273879827565867, ,0.019339711139162837,0.020164795375905167,-0.10367027141369466, ,0.00134276512370926, ,0.01765245905868979,-0.0007814625261954552,-0.029259277126439893,0.007839730302477805,-0.027892869985713668,0.030949667296930744, ,0.034180773725303176, ,0.028973300168516066, ,0.0010797714690929628, ,0.2218586700107217,-0.18951586473346946,0.11405537194000001,1.6854877657286067,0.5350685330814648,-1.3426198114748649, ,0.11073155374383986,0.06235015871121602,0.03160478476190477,-0.051696362490411,0.0949382712541529,-0.07716427905254994, ,1.4496819972991943
0.018633301066906867,0.020538458890121458,-0.10304469734922954, ,0.01945682059616424,0.020162468453961316,-0.10387467687976024, ,0.0012281772039295204, ,0.0188238929987872,-0.00018397012571438098,-0.03160740131734872,0.04411295864460306,0.004867417420525641,-0.03981871933144281, ,0.03678859348592825, ,0.044380325897307206, ,0.0010812705169195946, ,0.2218586700107217,-0.18951586473346946,0.11405537194000001,1.6854877657286067,0.5350685330814648,-1.3426198114748649, ,0.11073155374383986,0.06235015871121602,0.03160478476190477,-0.051696362490411,0.0949382712541529,-0.07716427905254994, ,1.455186128616333
0.018633301066906867,0.020538458890121458,-0.10304469734922954, ,0.019574188667445723,0.020160210769870568,-0.10407736738138884, ,0.0014473246051390795, ,0.0188238929987872,-0.00018397012571438098,-0.03160740131734872,0.04411295864460306,0.004867417420525641,-0.03981871933144281, ,0.03678859348592825, ,0.044380325897307206, ,0.0010849310578017895, ,0.22301707994185538,-0.18887487790490884,0.11438722218000001,1.6852780757851225,0.5362982615793538,-1.3436225726081326, ,0.11759224480603565,0.06424979117025781,0.034329335172413794,0.020121711836350486,0.12167876841280287,-0.09902290839582241, ,1.4604690074920654
0.018633301066906867,0.020538458890121458,-0.10304469734922954, ,0.019691810229861603,0.020158024831617962,-0.10427833448353023, ,0.0016694407147467677, ,0.0188238929987872,-0.00018397012571438098,-0.03160740131734872,0.04411295864460306,0.004867417420525641,-0.03981871933144281, ,0.03678859348592825, ,0.044380325897307206, ,0.0010907182821279775, ,0.22450756738658073,-0.1880794364188637,0.11487203464000001,1.6854877657286067,0.5376646265770082,-1.3448184303852373, ,0.11601093100057551,0.060023365944636795,0.042476830720000004,-0.011388989516288917,0.10156387949352448,-0.08081058795619324, ,1.4657089710235596
0.01888480620343973,0.020546849891111517,-0.10349286205177675, ,0.019809680198257146,0.020155913142603236,-0.10447756994261677, ,0.0014063687560189686, ,0.020690860947144434,0.0015826542265707938,-0.03940864966065375,0.022727741847053194,-0.019088153793563482,-0.007208356326058553, ,0.044538277797991854, ,0.029678490754698403, ,0.001093812894617105, ,0.22450756738658073,-0.1880794364188637,0.11487203464000001,1.6854877657286067,0.5376646265770082,-1.3448184303852373, ,0.11601093100057551,0.060023365944636795,0.042476830720000004,-0.011388989516288917,0.10156387949352448,-0.08081058795619324, ,1.4713900089263916
0.01909184052076717,0.02056530054743451,-0.10389576906769847, ,0.019927793525356143,0.02015387820160477,-0.1046750657057631, ,0.0012146559276717853, ,0.022049625775670243,0.001937428182660153,-0.0435578312079941,0.025825465551669435,-0.014602895871125144,-0.010571242669215957, ,0.04885922926483974, ,0.02966550933549042, ,0.0010949861279477328, ,0.22565053185196596,-0.18748478598754842,0.11530629179000002,1.6854877657286067,0.5387577185751317,-1.3457097736148087, ,0.11936722208612675,0.06398984595985892,0.046849445647058834,-0.009377223151118096,0.1092072512251654,-0.08713125121721985, ,1.476599931716919
0.01909184052076717,0.02056530054743451,-0.10389576906769847, ,0.020046145201641434,0.020151922502738537,-0.10487081390996136, ,0.0014255845384257863, ,0.022049625775670243,0.001937428182660153,-0.0435578312079941,0.025825465551669435,-0.014602895871125144,-0.010571242669215957, ,0.04885922926483974, ,0.02966550933549042, ,0.001098164958817714, ,0.22565053185196596,-0.18748478598754842,0.11530629179000002,1.6854877657286067,0.5387577185751317,-1.3457097736148087, ,0.11936722208612675,0.06398984595985892,0.046849445647058834,-0.009377223151118096,0.1092072512251654,-0.08713125121721985, ,1.4818689823150635
0.019259308940401912,0.020580335834916887,-0.10422913736622258, ,0.02016473025524252,0.02015004853542264,-0.10506480688128059, ,0.0013050971059162737, ,0.022389497973638327,0.002315757962403187,-0.0449084431612965,0.02211105268171754,-0.019640505682018722,-0.018966601733034362, ,0.050233660245132324, ,0.029571362085508313, ,0.0011001357411710337, ,0.22653864613250177,-0.1870059765493465,0.11566406783000001,1.6852780757851225,0.5394409010739589,-1.3462668631332908, ,0.1181780094127905,0.06288730388235307,0.048269125818181824,0.0,0.10101302635228032,-0.08052076073479779, ,1.4872291088104248
0.019259308940401912,0.020580335834916887,-0.10422913736622258, ,0.020283543751817314,0.020148258784336993,-0.10525703713406295, ,0.0015140427534515856, ,0.022389497973638327,0.002315757962403187,-0.0449084431612965,0.02211105268171754,-0.019640505682018722,-0.018966601733034362, ,0.050233660245132324, ,0.029571362085508313, ,0.0011040405243057559, ,0.22653864613250177,-0.1870059765493465,0.11566406783000001,1.6852780757851225,0.5394409010739589,-1.3462668631332908, ,0.1181780094127905,0.06288730388235307,0.048269125818181824,0.0,0.10101302635228032,-0.08052076073479779, ,1.4926719665527344
0.019578453371347188,0.020606301897805906,-0.10485422064563722, ,0.02040258079443864,0.02014655572938652,-0.10544749737012224, ,0.0011146882168047417, ,0.02184113438685919,0.0011049430549140927,-0.04068234616918806,-0.006889787918752193,-0.050391016511555725,-0.011332200099373075, ,0.04618776180211698, ,0.050858748367355655, ,0.0011041400354506062, ,0.22822992463195693,-0.18608697133731378,0.11633554605000002,1.6850683858416375,0.5406706295718479,-1.3472696242665585, ,0.11847308559109959,0.06531104030176929,0.04376047120879121,-0.00704890729779078,0.0711172505298899,-0.056267149654024046, ,1.4983270168304443
0.019578453371347188,0.020606301897805906,-0.10485422064563722, ,0.020521836523477686,0.020144941845662786,-0.10563618047794068, ,0.0013093074691504798, ,0.02184113438685919,0.0011049430549140927,-0.04068234616918806,-0.006889787918752193,-0.050391016511555725,-0.011332200099373075, ,0.04618776180211698, ,0.050858748367355655, ,0.0011060397339107903, ,0.22822992463195693,-0.18608697133731378,0.11633554605000002,1.6850683858416375,0.5406706295718479,-1.3472696242665585, ,0.11847308559109959,0.06531104030176929,0.04376047120879121,-0.00704890729779078,0.0711172505298899,-0.056267149654024046, ,1.503612995147705
0.01979590318859081,0.020615202891569564,-0.10524146706517896, ,0.020641306116487318,0.020143419603404662,-0.10582307953186652, ,0.0011294063232043913, ,0.02152272029069213,0.00042294478540604166,-0.03693923784457314,0.020955069273368883,-0.025123265922071994,-0.013597453218411656, ,0.04275410697863794, ,0.03271428804680124, ,0.0011062541062896306, ,0.2294501164260844,-0.18544598450875316,0.11675424772000001,1.6850683858416375,0.5414904485704405,-1.347938131688737, ,0.12486439678746157,0.06495341653557206,0.04022427151515152,-0.006592019887062759,0.09819512601821762,-0.0784234281684361, ,1.508955955505371
0.01979590318859081,0.020615202891569564,-0.10524146706517896, ,0.020760984788088323,0.020141991467961775,-0.10600818779131237, ,0.0013202924740390368, ,0.02152272029069213,0.00042294478540604166,-0.03693923784457314,0.020955069273368883,-0.025123265922071994,-0.013597453218411656, ,0.04275410697863794, ,0.03271428804680124, ,0.001108199909632807, ,0.2294501164260844,-0.18544598450875316,0.11675424772000001,1.6850683858416375,0.5414904485704405,-1.347938131688737, ,0.12486439678746157,0.06495341653557206,0.04022427151515152,-0.006592019887062759,0.09819512601821762,-0.0784234281684361, ,1.5142090320587158
0.02001588918274372,0.020614055828216273,-0.10559857086712456, ,0.020880867789850616,0.02014065989975399,-0.1061914986999507, ,0.0011505890277493372, ,0.021544893179427132,-0.00044604636788012834,-0.03323292636979533,0.02818972588280508,-0.023685748007335174,-0.01410444718880981, ,0.039608190751099226, ,0.03681894577285843, ,0.0011085817935798028, ,0.23077842648045102,-0.18477410674869563,0.11714443101000001,1.6848586958981533,0.5427201770683294,-1.3488592140818643, ,0.1327229951866724,0.06622256912663697,0.03645036961098399,-0.007220406271855277,0.11309466070383191,-0.09117519256854356, ,1.5194249153137207
0.02001588918274372,0.020614055828216273,-0.10559857086712456, ,0.021000950410183693,0.02013942735423722,-0.1063730058849149, ,0.0013399132087180707, ,0.021544893179427132,-0.00044604636788012834,-0.03323292636979533,0.02818972588280508,-0.023685748007335174,-0.01410444718880981, ,0.039608190751099226, ,0.03681894577285843, ,0.0011106472526435371, ,0.23077842648045102,-0.18477410674869563,0.11714443101000001,1.6848586958981533,0.5427201770683294,-1.3488592140818643, ,0.1327229951866724,0.06622256912663697,0.03645036961098399,-0.007220406271855277,0.11309466070383191,-0.09117519256854356, ,1.5247490406036377
0.02023659148833548,0.020605751312711734,-0.10592371269781052, ,0.021121227974213164,0.020138296281860295,-0.1065527031559925, ,0.0011818311700485416, ,0.0215445632573971,-0.000974958538700586,-0.031447033039808364,0.022905468181336455,-0.03188285542819345,-0.014670344505737553, ,0.03813180610869316, ,0.039257434825644054, ,0.001111277198815263, ,0.23216079566493722,-0.18408678352288962,0.11750220705000002,1.6848586958981533,0.543813269066453,-1.3496688785712951, ,0.13518082843087004,0.06759041421543502,0.03462785113043479,-0.007095627845672228,0.10718349282128793,-0.08740095144056721, ,1.5302150249481201
0.02023659148833548,0.020605751312711734,-0.10592371269781052, ,0.02124169584367131,0.020137269128030683,-0.10673058450482621, ,0.0013714052776022671, ,0.0215445632573971,-0.000974958538700586,-0.031447033039808364,0.022905468181336455,-0.03188285542819345,-0.014670344505737553, ,0.03813180610869316, ,0.039257434825644054, ,0.0011135590240677804, ,0.23216079566493722,-0.18408678352288962,0.11750220705000002,1.6848586958981533,0.543813269066453,-1.3496688785712951, ,0.13518082843087004,0.06759041421543502,0.03462785113043479,-0.007095627845672228,0.10718349282128793,-0.08740095144056721, ,1.5356450080871582
0.020417061375678617,0.020596703437129563,-0.10618518919143571, ,0.021362349416778066,0.020136348333074122,-0.10690664410410944, ,0.0012751444990653337, ,0.02073658465542765,-0.0013445605723332674,-0.029615042469174124,0.0064687563209306345,-0.04587491504191187,-0.014196453849723142, ,0.03617823277546013, ,0.04632849941470622, ,0.0011149641151547156, ,0.23328831466457398,-0.18351530129019702,0.11778998343000001,1.6848586958981533,0.5446330880650456,-1.3503373859934737, ,0.12964063054435898,0.06720746569296797,0.03257425668711657,-0.006435890861905014,0.08704061362133499,-0.07097578408981037, ,1.541029930114746
0.020417061375678617,0.020596703437129563,-0.10618518919143571, ,0.021483184128127317,0.020135536332197546,-0.1070808763067852, ,0.001466815677092133, ,0.02073658465542765,-0.0013445605723332674,-0.029615042469174124,0.0064687563209306345,-0.04587491504191187,-0.014196453849723142, ,0.03617823277546013, ,0.04632849941470622, ,0.0011179973182748658, ,0.23328831466457398,-0.18351530129019702,0.11778998343000001,1.6848586958981533,0.5446330880650456,-1.3503373859934737, ,0.12964063054435898,0.06720746569296797,0.03257425668711657,-0.006435890861905014,0.08704061362133499,-0.07097578408981037, ,1.546389102935791
0.02065460789234893,0.020578616771893894,-0.10652515855560725, ,0.021604195448570434,0.020134835555450703,-0.10725327564524247, ,0.0012762495019459888, ,0.02126968442323014,-0.001540039393708963,-0.03077084283304219,0.0056831753116858156,-0.039595216724762385,-0.014739654682675735, ,0.037438161886686666, ,0.04000065102697212, ,0.0011193499010412858, ,0.23476335664355086,-0.1827198598041519,0.11816331495000001,1.6848586958981533,0.5455895435634037,-1.3509539538390676, ,0.13161850424198443,0.07066041813735724,0.03381913273885351,-0.005707545445616168,0.09535780788621871,-0.07289311442393209, ,1.5517570972442627
0.02065460789234893,0.020578616771893894,-0.10652515855560725, ,0.02172537888509806,0.020134248427686147,-0.10742383683051346, ,0.001466845726733147, ,0.02126968442323014,-0.001540039393708963,-0.03077084283304219,0.0056831753116858156,-0.039595216724762385,-0.014739654682675735, ,0.037438161886686666, ,0.04000065102697212, ,0.0011222947809200303, ,0.23476335664355086,-0.1827198598041519,0.11816331495000001,1.6848586958981533,0.5455895435634037,-1.3509539538390676, ,0.13161850424198443,0.07066041813735724,0.03381913273885351,-0.005707545445616168,0.09535780788621871,-0.07289311442393209, ,1.5569980144500732
0.020879459829185477,0.02056572494668993,-0.10685964560855672, ,0.02184672998073051,0.020133777368524577,-0.10759255475147321, ,0.0012881560728900219, ,0.022083209192243016,-0.0010203222916251055,-0.03330077065610282,0.034948865187391064,-0.006862143780915424,-0.01653303515729105, ,0.03997062061186331, ,0.03561560393289529, ,0.001123688573289526, ,0.23614572582803706,-0.18198620018110057,0.11853146131000002,1.6848586958981533,0.5468192720612927,-1.3518750362321947, ,0.13518082843087004,0.07024199967318341,0.03670233069124424,-0.00517730231342701,0.1324406246171124,-0.1004897882755858, ,1.562283992767334
0.020879459829185477,0.02056572494668993,-0.10685964560855672, ,0.021968244314397825,0.02013342479231427,-0.10775942447403525, ,0.0014771381402814564, ,0.022083209192243016,-0.0010203222916251055,-0.03330077065610282,0.034948865187391064,-0.006862143780915424,-0.01653303515729105, ,0.03997062061186331, ,0.03561560393289529, ,0.0011266339863477922, ,0.23614572582803706,-0.18198620018110057,0.11853146131000002,1.6848586958981533,0.5468192720612927,-1.3518750362321947, ,0.13518082843087004,0.07024199967318341,0.03670233069124424,-0.00517730231342701,0.1324406246171124,-0.1004897882755858, ,1.5717480182647705
0.020879459829185477,0.02056572494668993,-0.10685964560855672, ,0.02208991750082331,0.020133193108092404,-0.10792444124034918, ,0.0016691558656134371, ,0.022083209192243016,-0.0010203222916251055,-0.03330077065610282,0.034948865187391064,-0.006862143780915424,-0.01653303515729105, ,0.03997062061186331, ,0.03561560393289529, ,0.0011311176382425496, ,0.23614572582803706,-0.18198620018110057,0.11853146131000002,1.6848586958981533,0.5468192720612927,-1.3518750362321947, ,0.13518082843087004,0.07024199967318341,0.03670233069124424,-0.00517730231342701,0.1324406246171124,-0.1004897882755858, ,1.577120065689087
0.020879459829185477,0.02056572494668993,-0.10685964560855672, ,0.022211745190410935,0.02013308471954856,-0.10808760046799946, ,0.0018628029919198733, ,0.022083209192243016,-0.0010203222916251055,-0.03330077065610282,0.034948865187391064,-0.006862143780915424,-0.01653303515729105, ,0.03997062061186331, ,0.03561560393289529, ,0.001137115059174331, ,0.23614572582803706,-0.18198620018110057,0.11853146131000002,1.6848586958981533,0.5468192720612927,-1.3518750362321947, ,0.13518082843087004,0.07024199967318341,0.03670233069124424,-0.00517730231342701,0.1324406246171124,-0.1004897882755858, ,1.5850269794464111
0.021422266291935624,0.02053760011282619,-0.10760082285711606, ,0.02233372306912877,0.02013310202498593,-0.10824889774920171, ,0.001189274243187656, ,0.018657450729883448,-0.002913408117846053,-0.018645310084381462,-0.06802555014432696,-0.101976684973461,-0.0020285974499097362, ,0.02653744529418566, ,0.12258351233817784, ,0.0011375391175809434, ,0.23951283736119894,-0.18037214901038764,0.11935330917000002,1.6848586958981533,0.5487321830580089,-1.3527814569628203, ,0.12686756892843687,0.06102697206332526,0.02115380015936255,-0.004227636834402809,0.026222721837922132,0.010054255404272374, ,1.5928399562835693
0.021422266291935624,0.02053760011282619,-0.10760082285711606, ,0.022455846858391148,0.020133247417281976,-0.10840832885000053, ,0.0013725362721227897, ,0.018657450729883448,-0.002913408117846053,-0.018645310084381462,-0.06802555014432696,-0.101976684973461,-0.0020285974499097362, ,0.02653744529418566, ,0.12258351233817784, ,0.0011394342559240226, ,0.23951283736119894,-0.18037214901038764,0.11935330917000002,1.6848586958981533,0.5487321830580089,-1.3527814569628203, ,0.12686756892843687,0.06102697206332526,0.02115380015936255,-0.004227636834402809,0.026222721837922132,0.010054255404272374, ,1.598412036895752
0.02167577439933342,0.020461085657965006,-0.10774344818685025, ,0.022578112314947572,0.020133523283852692,-0.108565889709468, ,0.0012640889529676265, ,0.017360888541498386,-0.005794049281792536,-0.007532190418654086,-0.0828323941513571,-0.12495165923982854,-0.004422186661474142, ,0.01979154745170359, ,0.1499137173289619, ,0.0011404314935003713, ,0.24146668877837774,-0.17939136193536115,0.11952701203000002,1.6848586958981533,0.5490054560575397,-1.3529226140300723, ,0.1381323749031598,0.0682711809773171,0.009636304609800365,-0.0037854750979781303,0.01413100805313721,0.01749119485334713, ,1.6037161350250244
0.02167577439933342,0.020461085657965006,-0.10774344818685025, ,0.0227005152307625,0.020133932006611968,-0.10872157643889967, ,0.001453911331769871, ,0.017360888541498386,-0.005794049281792536,-0.007532190418654086,-0.0828323941513571,-0.12495165923982854,-0.004422186661474142, ,0.01979154745170359, ,0.1499137173289619, ,0.0011429194287247324, ,0.24146668877837774,-0.17939136193536115,0.11952701203000002,1.6848586958981533,0.5490054560575397,-1.3529226140300723, ,0.1381323749031598,0.0682711809773171,0.009636304609800365,-0.0037854750979781303,0.01413100805313721,0.01749119485334713, ,1.6097710132598877
0.02182136540198855,0.020427666545264192,-0.10785587840207181, ,0.022823051432902582,0.02013447596193485,-0.1088753853210134, ,0.001459016785527531, ,0.018172912706291955,-0.002354600785559328,-0.01898676545669922,0.10464010697709705,0.06021449132251725,-0.019501697282136077, ,0.026387424345653193, ,0.12072834996768783, ,0.001145408384290109, ,0.24259420777801452,-0.17886621609991388,0.11966312248000001,1.6848586958981533,0.5502351845554286,-1.3538436964231997, ,0.13290888173455292,0.05740891806320072,0.022309259831932778,-0.00359072269494689,0.1985794570216123,-0.1555133120737523, ,1.6153240203857422
0.022110004271236702,0.020428813135092275,-0.10824022082503458, ,0.022945716783418415,0.020135157520618115,-0.10902731280914582, ,0.0011849737610518786, ,0.023189985440824762,0.001579672186029899,-0.034715377186319486,0.12828452902346346,0.07494609549097844,-0.017463721578385022, ,0.04177832215574738, ,0.14857249811236417, ,0.0011457174887960601, ,0.24452489099657065,-0.17816344740835943,0.12010515737,1.6848586958981533,0.5535144605497992,-1.356272689891492, ,0.14334885431793168,0.04874008297815653,0.039330398814814815,-0.0033011294360992035,0.22422399961508177,-0.16974407978493206, ,1.6213181018829346
0.022110004271236702,0.020428813135092275,-0.10824022082503458, ,0.023068507179233182,0.02013597904784405,-0.10917735552645097, ,0.0013721155475727965, ,0.023189985440824762,0.001579672186029899,-0.034715377186319486,0.12828452902346346,0.07494609549097844,-0.017463721578385022, ,0.04177832215574738, ,0.14857249811236417, ,0.0011474725125075076, ,0.24452489099657065,-0.17816344740835943,0.12010515737,1.6848586958981533,0.5535144605497992,-1.356272689891492, ,0.14334885431793168,0.04874008297815653,0.039330398814814815,-0.0033011294360992035,0.22422399961508177,-0.16974407978493206, ,1.6270930767059326
0.022344184543454385,0.02045056130512195,-0.1086099481607996, ,0.023191418552022426,0.02013694290314025,-0.10932551026509682, ,0.0011524717317323236, ,0.024273020830051544,0.0025694983036888023,-0.04119274075162236,-0.10344833976548437,-0.07016183664489178,0.02204165146411808, ,0.04788135077855621, ,0.12499649481684666, ,0.0011475109680400065, ,0.24585320105093728,-0.17770008343590596,0.12051737759000002,1.6848586958981533,0.5547441890476882,-1.3564586636233544, ,0.12602515479212587,0.04889074784053105,0.04525230545454546,-0.0031215048786925647,0.057557836530553595,0.06232357543650299, ,1.6324379444122314
0.022344184543454385,0.02045056130512195,-0.1086099481607996, ,0.02331444686810356,0.020138051440343488,-0.10947177398546416, ,0.0013348464879064706, ,0.024273020830051544,0.0025694983036888023,-0.04119274075162236,-0.10344833976548437,-0.07016183664489178,0.02204165146411808, ,0.04788135077855621, ,0.12499649481684666, ,0.0011489410101763915, ,0.24585320105093728,-0.17770008343590596,0.12051737759000002,1.6848586958981533,0.5547441890476882,-1.3564586636233544, ,0.12602515479212587,0.04889074784053105,0.04525230545454546,-0.0031215048786925647,0.057557836530553595,0.06232357543650299, ,1.6377301216125488
0.022587113927748644,0.020476643038246936,-0.10904379935680883, ,0.023437588128314035,0.020139307007559018,-0.10961614381534222, ,0.001079203476014373, ,0.025394473932489676,0.002981080709679283,-0.045258096163767775,-0.08537313427885956,-0.10613768565065017,0.005750101739481495, ,0.05198135643549878, ,0.1362115651878308, ,0.001148412695523649, ,0.24705022464644205,-0.17718266033333294,0.12099052344000001,1.6848586958981533,0.5551540985469845,-1.3562211661534596, ,0.12308293327946923,0.05121259663166258,0.04931520594427245,-0.0029603993802946086,0.017771033166633275,0.03812014200757765, ,1.6431450843811035
0.022587113927748644,0.020476643038246936,-0.10904379935680883, ,0.023560838367899715,0.020140711947123996,-0.10975861704912754, ,0.0012537756244968272, ,0.025394473932489676,0.002981080709679283,-0.045258096163767775,-0.08537313427885956,-0.10613768565065017,0.005750101739481495, ,0.05198135643549878, ,0.1362115651878308, ,0.0011492048979971315, ,0.24705022464644205,-0.17718266033333294,0.12099052344000001,1.6848586958981533,0.5551540985469845,-1.3562211661534596, ,0.12308293327946923,0.05121259663166258,0.04931520594427245,-0.0029603993802946086,0.017771033166633275,0.03812014200757765, ,1.6488621234893799
0.02283135117743282,0.02051012005010355,-0.10948270760791379, ,0.023684193656400288,0.02014226859556993,-0.1098991911470218, ,0.0010178966179734612, ,0.022093680013228013,0.002830394522634346,-0.0376581474206009,0.10480242214858229,0.04957603563760694,-0.016666050016931517, ,0.0437524616088327, ,0.11593642767947288, ,0.0011482249854596414, ,0.24809279358446237,-0.17678880095674748,0.12140403995000001,1.6848586958981533,0.5561105540453426,-1.3568377339990536, ,0.12104201729396784,0.04331215954288945,0.04499664271186441,-0.0028327458427112925,0.16522591992914154,-0.1317816633634536, ,1.6542370319366455
0.02283135117743282,0.02051012005010355,-0.10948270760791379, ,0.02380765009752989,0.020143979283582594,-0.11003786373422819, ,0.0011812776840674124, ,0.022093680013228013,0.002830394522634346,-0.0376581474206009,0.10480242214858229,0.04957603563760694,-0.016666050016931517, ,0.0437524616088327, ,0.11593642767947288, ,0.0011484698202641436, ,0.24809279358446237,-0.17678880095674748,0.12140403995000001,1.6848586958981533,0.5561105540453426,-1.3568377339990536, ,0.12104201729396784,0.04331215954288945,0.04499664271186441,-0.0028327458427112925,0.16522591992914154,-0.1317816633634536, ,1.6595890522003174
0.023044612170328452,0.02052608075961137,-0.1097973985465727, ,0.023931203829065353,0.020145846335965674,-0.11017463260014983, ,0.0010358226283709285, ,0.02021269529167058,0.0003539805635624553,-0.024746358727832537,0.0776343977330034,0.011280747256578667,-0.014999447086323782, ,0.031954039235750395, ,0.07844963792045428, ,0.0011476415320884582, ,0.24956011283056503,-0.17630226878567135,0.12183051936000001,1.6848586958981533,0.5580234650420588,-1.3583159059106629, ,0.13017413108157858,0.041584987536577904,0.028648941582733817,-0.0026733271649225215,0.14535682215068965,-0.11457842703723367, ,1.6649229526519775
0.023044612170328452,0.02052608075961137,-0.1097973985465727, ,0.024054851022726927,0.020147872071601017,-0.11030949569758705, ,0.0011940970825937561, ,0.02021269529167058,0.0003539805635624553,-0.024746358727832537,0.0776343977330034,0.011280747256578667,-0.014999447086323782, ,0.031954039235750395, ,0.07844963792045428, ,0.0011479806236979859, ,0.24956011283056503,-0.17630226878567135,0.12183051936000001,1.6848586958981533,0.5580234650420588,-1.3583159059106629, ,0.13017413108157858,0.041584987536577904,0.028648941582733817,-0.0026733271649225215,0.14535682215068965,-0.11457842703723367, ,1.6701979637145996
0.023255728287462897,0.020524043559140507,-0.1100132663493316, ,0.024178587884066717,0.02015005880341215,-0.11044245114193463, ,0.001084312694181279, ,0.02132111680337894,-0.0002007103061087559,-0.020135635184654537,0.003782379478694646,-0.06003401257840878,-0.0020941989594087922, ,0.02932702014627132, ,0.060153019465322595, ,0.0011475192618898937, ,0.25098109567942234,-0.1758852412104632,0.12208588849000002,1.6848586958981533,0.5591165570401824,-1.358880534179672, ,0.14532456593946522,0.0392298228848577,0.024098050711043876,-0.0025515288000762786,0.08773575298279612,-0.03845553383075176, ,1.675450086593628
0.023390954251046366,0.02052354246216254,-0.11013896386018959, ,0.024302410652350233,0.020152408838324826,-0.11057349721038023, ,0.0010757844443235879, ,0.021246373950383538,9.830922899461305e-05,-0.01919487607494473,-0.015240318679293761,-0.059265800638132804,0.00445567185648431, ,0.028633220885477192, ,0.06119395258530399, ,0.0011470031840656756, ,0.25098109567942234,-0.1758852412104632,0.12208588849000002,1.6848586958981533,0.5591165570401824,-1.358880534179672, ,0.14532456593946522,0.0392298228848577,0.024098050711043876,-0.0025515288000762786,0.08773575298279612,-0.03845553383075176, ,1.681447982788086
0.023390954251046366,0.02052354246216254,-0.11013896386018959, ,0.024426315600440927,0.020154924477228987,-0.1107026323411008, ,0.0012351414894696646, ,0.021246373950383538,9.830922899461305e-05,-0.01919487607494473,-0.015240318679293761,-0.059265800638132804,0.00445567185648431, ,0.028633220885477192, ,0.06119395258530399, ,0.0011476327433899897, ,0.2519155463572035,-0.17565355922423648,0.12223755442,1.6846490059546686,0.5597997395390095,-1.3590292299974513, ,0.1464458974667759,0.03526456393848784,0.023253739445255477,0.0,0.08914730436301808,-0.013645908015002057, ,1.6877341270446777
0.023662675360456104,0.020520891965986984,-0.11036383416698362, ,0.024550299034685127,0.020157608014940803,-0.11082985513246088, ,0.0010663144735039093, ,0.019118363460927698,-0.0008072998643637487,-0.015510005395675283,0.04706492318091023,0.004350873562503302,-0.00453703325405784, ,0.02463176448955725, ,0.047265592107045604, ,0.0011470560180716488, ,0.25385395230863383,-0.17519791798465723,0.12251625677000001,1.6846490059546686,0.5613027410364293,-1.3595197182768466, ,0.13955432582128055,0.037170756583811505,0.019401719269183923,0.0,0.14724626762254592,-0.07711442422298202, ,1.693061113357544
0.023662675360456104,0.020520891965986984,-0.11036383416698362, ,0.02467435729479753,0.020160461740165024,-0.11095516434220977, ,0.0012260023083550356, ,0.019118363460927698,-0.0008072998643637487,-0.015510005395675283,0.04706492318091023,0.004350873562503302,-0.00453703325405784, ,0.02463176448955725, ,0.047265592107045604, ,0.0011476119778623768, ,0.25385395230863383,-0.17519791798465723,0.12251625677000001,1.6846490059546686,0.5613027410364293,-1.3595197182768466, ,0.13955432582128055,0.037170756583811505,0.019401719269183923,0.0,0.14724626762254592,-0.07711442422298202, ,1.6984319686889648
0.02385767745933923,0.020513238482475177,-0.11054988139097502, ,0.02479848675374431,0.020163487935455936,-0.11107855888667997, ,0.00113443707099341, ,0.018585310958966348,-0.0007043708061583223,-0.019726208138965674,0.028344982322312834,0.03311227689378059,-0.0019123755671178833, ,0.027111495886723742, ,0.04358735960184659, ,0.00114751984564651, ,0.25518226236300046,-0.17478861314232333,0.12273403349000002,1.6848586958981533,0.5629423790336147,-1.3602849819402199, ,0.12602515479212587,0.04251655087745106,0.023321832386530017,0.004124308577831132,0.1620465896705013,-0.0590167588971744, ,1.7036840915679932
0.02385767745933923,0.020513238482475177,-0.11054988139097502, ,0.024922683817628924,0.02016668887718015,-0.11120003783998302, ,0.0012950052433539803, ,0.018585310958966348,-0.0007043708061583223,-0.019726208138965674,0.028344982322312834,0.03311227689378059,-0.0019123755671178833, ,0.027111495886723742, ,0.04358735960184659, ,0.0011485440497972564, ,0.25518226236300046,-0.17478861314232333,0.12273403349000002,1.6848586958981533,0.5629423790336147,-1.3602849819402199, ,0.12602515479212587,0.04251655087745106,0.023321832386530017,0.004124308577831132,0.1620465896705013,-0.0590167588971744, ,1.7089669704437256
0.024023982891096834,0.020514015986660243,-0.11074099183142704, ,0.025046944925573408,0.02017006683547714,-0.11131960043320824, ,0.0012245571675651675, ,0.020998865795444712,0.0012745923151405796,-0.025280863897950333,0.007173156554264624,0.021013554143689574,0.00939896059344762, ,0.032889193205239954, ,0.022203902946317817, ,0.0011490682781956558, ,0.25631750409551146,-0.174433367430109,0.12296736569000001,1.6848586958981533,0.5644453805310344,-1.3607754702196155, ,0.13089233318409763,0.0357427275173148,0.02875236736462094,0.004057380377876854,0.1589684192035288,-0.07253888157840999, ,1.714482069015503
0.024023982891096834,0.020514015986660243,-0.11074099183142704, ,0.025171266549607125,0.020173624074222383,-0.11143724605362083, ,0.0013845202739796018, ,0.020998865795444712,0.0012745923151405796,-0.025280863897950333,0.007173156554264624,0.021013554143689574,0.00939896059344762, ,0.032889193205239954, ,0.022203902946317817, ,0.0011506809630982854, ,0.25631750409551146,-0.174433367430109,0.12296736569000001,1.6848586958981533,0.5644453805310344,-1.3607754702196155, ,0.13089233318409763,0.0357427275173148,0.02875236736462094,0.004057380377876854,0.1589684192035288,-0.07253888157840999, ,1.719865083694458
0.02427402793155749,0.02053514300798299,-0.11104125870935518, ,0.025295645194546208,0.020177362850987864,-0.1115529742438578, ,0.0011973141864303266, ,0.023394980259642376,0.001968403949151442,-0.027737987692263096,0.02761219234510987,-7.919813520679981e-05,-0.00040892752937855034, ,0.03634000105492886, ,0.02761200859023777, ,0.001150998195910068, ,0.257885218868979,-0.17406267625214622,0.12331995657000001,1.6852780757851225,0.5660850185282198,-1.3610506614421454, ,0.14689929033819007,0.032711803363829985,0.03264100721311476,0.005715877438650004,0.14914992265207908,-0.05041109212477179, ,1.7252309322357178
0.02427402793155749,0.02053514300798299,-0.11104125870935518, ,0.02542007739889323,0.020181285417325,-0.11166678470121683, ,0.0013527480706108253, ,0.023394980259642376,0.001968403949151442,-0.027737987692263096,0.02761219234510987,-7.919813520679981e-05,-0.00040892752937855034, ,0.03634000105492886, ,0.02761200859023777, ,0.0011523613707391273, ,0.257885218868979,-0.17406267625214622,0.12331995657000001,1.6852780757851225,0.5660850185282198,-1.3610506614421454, ,0.14689929033819007,0.032711803363829985,0.03264100721311476,0.005715877438650004,0.14914992265207908,-0.05041109212477179, ,1.7304959297180176
0.024511355501203293,0.020550152175974352,-0.11130669633233448, ,0.025544559730640747,0.02018539401742816,-0.11177867727648208, ,0.0011930320639412496, ,0.024071401104235158,0.0011699720314089675,-0.025386827626890814,-0.012985051546373234,-0.023921567660834437,0.007702086918024587, ,0.03500417407442603, ,0.02721842056624519, ,0.0011526343284116248, ,0.25940659724520126,-0.17371515327280612,0.12363495504000001,1.6852780757851225,0.5675880200256396,-1.361296113501119, ,0.15608049598432694,0.03604137544947618,0.030340593371428574,0.005715877438650004,0.13407704206602655,-0.012117459008322246, ,1.7358169555664062
0.024511355501203293,0.020550152175974352,-0.11130669633233448, ,0.025669088793331223,0.020189690890072335,-0.11188865197369566, ,0.0013449725212239898, ,0.024071401104235158,0.0011699720314089675,-0.025386827626890814,-0.012985051546373234,-0.023921567660834437,0.007702086918024587, ,0.03500417407442603, ,0.02721842056624519, ,0.0011539165830303738, ,0.25940659724520126,-0.17371515327280612,0.12363495504000001,1.6852780757851225,0.5675880200256396,-1.361296113501119, ,0.15608049598432694,0.03604137544947618,0.030340593371428574,0.005715877438650004,0.13407704206602655,-0.012117459008322246, ,1.7410359382629395
0.024752789487697827,0.02055904158469219,-0.11154169167392033, ,0.025793661221785058,0.020194178267237548,-0.11199670894896069, ,0.001193138687592903, ,0.02380647879088588,0.0007197775969587266,-0.022007678199841334,0.016721555169652423,0.0034125472675763835,-0.005259800981429443, ,0.032428450656140737, ,0.017066069363317702, ,0.0011541763320672119, ,0.26101292568303996,-0.17335218482771758,0.12392013884000001,1.6854877657286067,0.568954385023294,-1.361348468916256, ,0.16277348466290012,0.03547549217139095,0.027135965110732543,0.017844359005420914,0.16676277362744885,-0.03726580496223325, ,1.7465150356292725
0.024988775058868786,0.020566472416329692,-0.1117523049649604, ,0.02591827368303433,0.020198858374410236,-0.11210284850974118, ,0.0013427517823248855, ,0.022650327517298587,0.000814822057237277,-0.01941641576621257,0.03560777535401564,0.004974066320710211,-0.009381625302244892, ,0.029844571915714956, ,0.03595347329299472, ,0.0011554169600294332, ,0.2626578677852498,-0.17302010731412593,0.12418328571000001,1.6854877657286067,0.5708672960200102,-1.3620098534264597, ,0.15789840525535903,0.03041568639694576,0.024430692515337426,0.017844359005420914,0.1633929053346802,-0.05223973197439203, ,1.752197027206421
0.02520525403688106,0.020569910188154666,-0.11192580958991467, ,0.02604292287620725,0.02020373343054509,-0.11220707111405863, ,0.0009564949279297436, ,0.021093609573636093,-0.00014555694518222654,-0.015639673343061374,-0.004551981184391687,-0.022300303045451244,-0.003166999037339346, ,0.026259492263692907, ,0.02276012110948062, ,0.0011541168160287816, ,0.26417924616147204,-0.17271892073203116,0.12440365501000002,1.6854877657286067,0.5722336610176646,-1.3622255663218779, ,0.15063006596582662,0.03215755389985455,0.020291479643312103,0.01601638463403843,0.13483398144487813,-0.019562726225136058, ,1.761889934539795
0.02520525403688106,0.020569910188154666,-0.11192580958991467, ,0.026167605532412517,0.020208805648026993,-0.11230937736969036, ,0.0010971057977854737, ,0.021093609573636093,-0.00014555694518222654,-0.015639673343061374,-0.004551981184391687,-0.022300303045451244,-0.003166999037339346, ,0.026259492263692907, ,0.02276012110948062, ,0.0011537466146116172, ,0.26417924616147204,-0.17271892073203116,0.12440365501000002,1.6854877657286067,0.5722336610176646,-1.3622255663218779, ,0.15063006596582662,0.03215755389985455,0.020291479643312103,0.01601638463403843,0.13483398144487813,-0.019562726225136058, ,1.7671210765838623
0.02542549996126408,0.020570229546824918,-0.11208590319121103, ,0.026292318414623907,0.020214077232632875,-0.11240976803336651, ,0.0009915175933758627, ,0.02182729810856435,0.0005782874335980686,-0.01637116198042928,-0.026836811160446748,-0.04925477868509111,0.007802613690924974, ,0.027290663305706727, ,0.056091411825744814, ,0.001152699975764935, ,0.26569290180482,-0.1724177341499364,0.12460328367000001,1.6856974556720912,0.5733267530157882,-1.362218443409903, ,0.15232253861712805,0.027284917066840362,0.020794793107049615,0.009220104966289649,0.10229105970293344,0.009378792933988765, ,1.7724571228027344
0.02542549996126408,0.020570229546824918,-0.11208590319121103, ,0.026417058317564614,0.02021955038349337,-0.11250824400996774, ,0.0011333735556878057, ,0.02182729810856435,0.0005782874335980686,-0.01637116198042928,-0.026836811160446748,-0.04925477868509111,0.007802613690924974, ,0.027290663305706727, ,0.056091411825744814, ,0.0011525760884567482, ,0.26569290180482,-0.1724177341499364,0.12460328367000001,1.6856974556720912,0.5733267530157882,-1.362218443409903, ,0.15232253861712805,0.027284917066840362,0.020794793107049615,0.009220104966289649,0.10229105970293344,0.009378792933988765, ,1.777691125869751
0.025656536178489148,0.020580986080161796,-0.11227234698959006, ,0.026541822067591658,0.020225227293054836,-0.11260480635172301, ,0.0010103586727087015, ,0.022884137810448568,0.0010018835947419292,-0.019393595789467765,0.014348086648401733,-0.017430079116795352,-0.008190574473064025, ,0.03001331524024423, ,0.022575927557280894, ,0.0011516702450443403, ,0.26733784390702986,-0.17212427030071586,0.12484828248000002,1.6861168355590603,0.5746931180134426,-1.3623524775651803, ,0.15633763024459765,0.028557611061832917,0.0244682204608295,0.01947634999353611,0.13858624378931428,-0.02912722887967123, ,1.7829060554504395
0.025656536178489148,0.020580986080161796,-0.11227234698959006, ,0.02666660652258037,0.02023111014704121,-0.11269945625740695, ,0.0011511201480491257, ,0.022884137810448568,0.0010018835947419292,-0.019393595789467765,0.014348086648401733,-0.017430079116795352,-0.008190574473064025, ,0.03001331524024423, ,0.022575927557280894, ,0.0011516667634177884, ,0.26733784390702986,-0.17212427030071586,0.12484828248000002,1.6861168355590603,0.5746931180134426,-1.3623524775651803, ,0.15633763024459765,0.028557611061832917,0.0244682204608295,0.01947634999353611,0.13858624378931428,-0.02912722887967123, ,1.788175106048584
0.025656536178489148,0.020580986080161796,-0.11227234698959006, ,0.026791408571808777,0.020237201124415682,-0.11279219507153719, ,0.001294745331414828, ,0.022884137810448568,0.0010018835947419292,-0.019393595789467765,0.014348086648401733,-0.017430079116795352,-0.008190574473064025, ,0.03001331524024423, ,0.022575927557280894, ,0.001152566628625317, ,0.26733784390702986,-0.17212427030071586,0.12484828248000002,1.6861168355590603,0.5746931180134426,-1.3623524775651803, ,0.15633763024459765,0.028557611061832917,0.0244682204608295,0.01947634999353611,0.13858624378931428,-0.02912722887967123, ,1.793658971786499
0.025837946173035784,0.02058973940166469,-0.11242705257174575, ,0.026916225135842086,0.020243502397342794,-0.11288302428357228, ,0.0012208504358759303, ,0.023494066478267524,0.0010339525992166304,-0.019695072844272892,0.033705954117669225,0.0038364163559004407,-0.01343416647063603, ,0.030674681938104853, ,0.033923538583910576, ,0.0011529934024206334, ,0.26858120389978,-0.17190031104736336,0.12504402227,1.686326525502545,0.5759228465113315,-1.3627018087773237, ,0.1619401733079706,0.029253064598788774,0.025045301132075475,0.024346308181038473,0.1652309267654259,-0.04697971706563308, ,1.7994210720062256
0.025837946173035784,0.02058973940166469,-0.11242705257174575, ,0.027041053166417157,0.020250016131149934,-0.11297194552710906, ,0.001363739957197474, ,0.023494066478267524,0.0010339525992166304,-0.019695072844272892,0.033705954117669225,0.0038364163559004407,-0.01343416647063603, ,0.030674681938104853, ,0.033923538583910576, ,0.0011543023872329118, ,0.26858120389978,-0.17190031104736336,0.12504402227,1.686326525502545,0.5759228465113315,-1.3627018087773237, ,0.1619401733079706,0.029253064598788774,0.025045301132075475,0.024346308181038473,0.1652309267654259,-0.04697971706563308, ,1.804732084274292
0.026187255001717848,0.020598899462693093,-0.11269665706944532, ,0.027165889646326782,0.020256744484289626,-0.11305896057908033, ,0.0010982074621714141, ,0.02228199348050526,0.0001794777359758958,-0.015323192552612682,-0.032666797063911686,-0.03490318710857241,-0.010240311552910565, ,0.02704292283994899, ,0.047805347566622795, ,0.0011539561222633963, ,0.2710447556866576,-0.17145239254065833,0.12539402057000001,1.6865362154460295,0.5785189400068749,-1.3631851741447445, ,0.15789840525535903,0.029813679408881803,0.020265663511450382,0.034069779129843145,0.11968274540968002,0.021911714951804856, ,1.8100509643554688
0.026187255001717848,0.020598899462693093,-0.11269665706944532, ,0.02729073158930423,0.02026368960830092,-0.11314407135895177, ,0.0012370148634060427, ,0.02228199348050526,0.0001794777359758958,-0.015323192552612682,-0.032666797063911686,-0.03490318710857241,-0.010240311552910565, ,0.02704292283994899, ,0.047805347566622795, ,0.0011544656850924924, ,0.2710447556866576,-0.17145239254065833,0.12539402057000001,1.6865362154460295,0.5785189400068749,-1.3631851741447445, ,0.15789840525535903,0.029813679408881803,0.020265663511450382,0.034069779129843145,0.11968274540968002,0.021911714951804856, ,1.8153181076049805
