NicholasDascanio/dvrk_moveit_final/test/execution/third_experiment_notsharpbends/thirdexp_200vel4.0/thirdexp_200vel4.0_22.csv
Current Position (x),Current Position (y),Current Position (z), ,Planned Position (x),Planned Position (y),Planned Position (z), ,Position Error,,Cartesian linear Velocity(x),Cartesian linear Velocity(y),Cartesian linear Velocity(z),Cartesian Angular Velocity(x),Cartesian Angular Velocity(y),Cartesian Angular Velocity(z), ,Total Linear Velocity, ,Total Angular Velocity, ,MSE, ,Joint 1 Position,Joint 2 Position,Joint 3 Position,Joint 4 Position,Joint 5 Position,Joint 6 Position, ,Joint 1 Velocity,Joint 2 Velocity,Joint 3 Velocity,Joint 4 Velocity,Joint 5 Velocity,Joint 6 Velocity, ,Time Stamp
0.010519861867596332,0.01974104390811722,-0.08014122693266665, ,0.010728615202316504,0.019773203799258867,-0.08027279003763274, ,0.00024883943406010643, ,1.1953350376272096e-05,0.0002646365739735395,-0.00028705562348897636,0.1819262906320968,0.0007898907674645976,-0.0014944621311359686, ,0.0003906102019229855, ,0.18192800540482676, ,2.073661950500887e-05, ,0.147774493548286,-0.23897996879287745,0.08980048975,1.6062249670914566,0.1539893352356514,-1.3915884496445814, ,-0.0003766951407260307,-0.00227621237449996,0.0003408339971003259,0.0,0.0,-0.1796846777026362, ,0.05218982696533203
0.01055803838530647,0.019776980316836324,-0.08020186796354904, ,0.010716639796748726,0.019896958723110075,-0.08038037385213946, ,0.0002672331902008434, ,0.0013654728815127276,0.0011458439606913714,-0.0025934866808412947,0.09201213195508927,-0.11222270975214,-0.02766776281393514, ,0.003147006154442783, ,0.14512122177998807, ,2.34578465573159e-05, ,0.14773587988391487,-0.23921937351197842,0.08986789683000002,1.6066443469784255,0.15043678624174994,-1.3980029605244986, ,-0.0009958679577170173,-0.005945731617560904,0.00280140899050299,0.0,-0.11670845417724841,-0.0862024593471496, ,0.10751986503601074
0.010569932300064483,0.019871665823409303,-0.08036248308680219, ,0.010707464367322953,0.020016738617516804,-0.08049067169392798, ,0.00023747316503427822, ,-0.000337849801060078,0.0014524378707844554,-0.001583119270940766,0.059513710061408515,0.039751446765853966,0.002332024868458713, ,0.002174852841593941, ,0.07156856296756262, ,2.3548305915475876e-05, ,0.14760459342505305,-0.23986808307341326,0.09004678485,1.606434657034941,0.15057342274151536,-1.393131975279621, ,-0.003030823680531586,-0.012309889941428303,0.0018713359398496246,0.008059176613367788,0.03578717667116035,-0.04617593424683161, ,0.16064000129699707
0.010573820111383126,0.019943660295032594,-0.08044040813267739, ,0.01070105428884642,0.02013260089802933,-0.0806036405778209, ,0.0002802354697804375, ,0.00025564129981349714,0.0019809299421796075,-0.0023647865032001077,-0.03666371886778394,-0.015515228928978955,-0.007099394293105847, ,0.003095424222253136, ,0.03981143817875169, ,2.5214177050625987e-05, ,0.14745013876756857,-0.24048590170335124,0.09013882144,1.606434657034941,0.15002687674245363,-1.3941565209873652, ,-0.0034655528313499557,-0.016238354133893015,0.0027572808585771165,0.005055460108211548,-0.02072011342127342,0.05344282584215378, ,0.20796585083007812
0.010578464082374847,0.020046985994539447,-0.08055280290010249, ,0.010697375157374836,0.02024460260472148,-0.08071923779235354, ,0.00028441649343192494, ,0.00012106456634329777,0.002383812809355823,-0.0026439427533301195,0.009793680100727004,0.004146850682042113,-0.000428323894395187, ,0.0035619732483778773, ,0.010635437948920107, ,2.636395505015181e-05, ,0.14730340684295828,-0.24136629325101283,0.09027233931,1.606434657034941,0.15002687674245363,-1.3936664485465218, ,-0.0033051190444659496,-0.020071265135040352,0.00313189373181282,0.003588489352787709,0.0,0.010571903873459337, ,0.25505590438842773
0.010592067107519334,0.020153040813355387,-0.08066682500752873, ,0.010696392789617842,0.020352800403201376,-0.08083742089908261, ,0.00028264942932159005, ,-8.287006150750754e-05,0.001974378027287503,-0.0016103359605043558,0.033163671138865085,0.022555347667610196,0.004972155908095616, ,0.0025491602435750165, ,0.04010701674025049, ,2.7133003081850516e-05, ,0.14718756584984494,-0.24226985299729709,0.09040844976000001,1.606434657034941,0.1493436942436264,-1.392864322807618, ,-0.0016036555256942356,-0.018214384176289976,0.0020395405275288095,0.0027790656686566186,0.020885833742393133,-0.014749151362058083, ,0.30582690238952637
0.010594953397458681,0.020249195270175917,-0.08076764156005799, ,0.010698073222344204,0.020457250585621423,-0.08095814773189537, ,0.00030035531305053475, ,0.00036405687340356066,0.002083435249382362,-0.003237598564636595,-0.0029469211420855624,0.000575286918273836,0.005489894509375403, ,0.003867206266955289, ,0.0030025487340395304, ,2.7958860218819342e-05, ,0.14704083392523468,-0.24308846268196488,0.09052900473000002,1.6068540369219102,0.1493436942436264,-1.3915574629653693, ,-0.0014004713660359933,-0.01480451506372399,0.00366432287094548,-0.0033419470968454592,0.0,0.017116802402119578, ,0.353471040725708
0.010604879769428303,0.020328571735322837,-0.0808905548372943, ,0.010702382711786623,0.020558009071687786,-0.08108137639631825, ,0.00031394455318591155, ,0.00014207561847205026,0.0019249882349078973,-0.0026938728636697303,-0.0005510204888233272,0.002039786309808901,0.005024078608285263, ,0.003314018133854157, ,0.002112901234539507, ,2.9146671685074038e-05, ,0.14694043839786974,-0.24365222218178328,0.09066770776000001,1.6068540369219102,0.1493436942436264,-1.3906589968238228, ,-0.003152367035578003,-0.01455251365718,0.00307506013899614,-0.0030095862477887017,-0.000379085161870943,0.014519264512695312, ,0.3953239917755127
0.010622065462281855,0.020440849818894716,-0.08105069353390786, ,0.010709287733046798,0.020655131409670614,-0.08120706526882465, ,0.000279242625943338, ,0.00038610483867903184,0.002152683313204547,-0.003088830845741165,-0.0021844567286368488,-0.006786980068365052,0.0028292181399454507, ,0.003784705852110933, ,0.00712986320811979, ,2.969511516677339e-05, ,0.1468014292061337,-0.24448627733219952,0.09085048465000001,1.6068540369219102,0.14879714824456466,-1.389886610248475, ,-0.0017515437801885662,-0.01591429507940144,0.0035326705522288762,-0.002487379046736018,-0.008161567059737824,0.017572639861757524, ,0.437546968460083
0.010633726923123013,0.020528795368077737,-0.08116844873565446, ,0.01071875497949982,0.020748672777412873,-0.08133517299614328, ,0.00028874352727410437, ,0.00038189597746501934,0.0022246870659967124,-0.002856233440976922,-0.00077845585407761,-0.00708964317275315,0.002760418609837944, ,0.0036404871306697255, ,0.007132253055214671, ,3.0251447840033357e-05, ,0.14673192461026568,-0.24515815509225705,0.09098659510000001,1.6068540369219102,0.14879714824456466,-1.389314859067491, ,-0.0013819208672489574,-0.017348618200817328,0.003326819448621555,-0.0022025621615941915,-0.008161567059737824,0.017626982778943288, ,0.47963690757751465
0.010643743139076229,0.02061660132133155,-0.08128001801634548, ,0.010730751362198716,0.020838687983339974,-0.08146565849456668, ,0.00030225039865510833, ,0.0002652681795048659,0.0022201617343446155,-0.0031783835001389722,0.02032708388428841,0.0002624761775124949,0.00376041666391889, ,0.0038860786157335495, ,0.020328778434974788, ,3.085383599938177e-05, ,0.14662380635002653,-0.24584547831806305,0.0911162241,1.6068540369219102,0.14852387524503374,-1.3882752358586927, ,-0.002683099271181384,-0.016341818763297877,0.003629257580314423,-0.00197390752497033,-0.002008229044035887,-0.004440688976118278, ,0.521399974822998
0.010656160962521925,0.020686188509996466,-0.08139012945989282, ,0.010745244009278905,0.020925231467468622,-0.0815984809492577, ,0.0003293746618322419, ,0.0004153534982593484,0.002254888849474044,-0.003326121247771296,-0.006820274718277345,-0.0009752367640926726,0.0038620257382101834, ,0.004039817422467795, ,0.006889646839404841, ,3.1913628614676816e-05, ,0.1465774699527812,-0.24632428775626497,0.09124066794,1.6068540369219102,0.14852387524503374,-1.388030199638271, ,-0.001090832461513625,-0.01621338485536832,0.003799811908396947,-0.0018308108380557795,-0.0016360147420232652,0.022600805314425647, ,0.5614268779754639
0.010675236662215365,0.020782578085187277,-0.08153735470594883, ,0.010762200265361918,0.02100835730241537,-0.0817335998135585, ,0.00031153019992464863, ,0.0005198401939406307,0.0022055171613095267,-0.003764065005786004,-0.010233405621328363,-0.0009708840775565055,0.0018379052755453996, ,0.004393486672774808, ,0.010279358236149705, ,3.2686740892062e-05, ,0.1465156880897874,-0.24700388824919672,0.09140788935000001,1.6066443469784255,0.14825060224550288,-1.3871539339097536, ,-0.000601653138904496,-0.014265926271568065,0.004222908674443267,0.0,-0.0015790111541585112,0.024347288014152157, ,0.5998289585113525
0.010693316255651628,0.02086755001084491,-0.08166836754249056, ,0.01078158769095972,0.021088119194405404,-0.08187097480829712, ,0.0003122375941258602, ,0.00048577369595945776,0.002139009205003658,-0.0035219938370547993,0.002112483622690312,-0.0016716508880158742,0.004516439278309052, ,0.004149189927085585, ,0.0026938825523042647, ,3.337624839521428e-05, ,0.14650024262403896,-0.24758309321476354,0.09155696270000001,1.6072734168088794,0.14825060224550288,-1.3869088976893318, ,-0.0005783890947380011,-0.014204002628120159,0.003970292003988036,-0.002881011218034243,-0.0015790111541585112,0.011531320017914598, ,0.637394905090332
0.010719363548335296,0.020957595561590117,-0.08183241438162936, ,0.010803374061878628,0.02116457048428138,-0.08201056592109483, ,0.00028571726588147694, ,0.0005971858851835538,0.002127627743772836,-0.0038001137043391178,-0.003094958832168933,-0.00462776387594651,0.003781400231028068, ,0.004395940737025503, ,0.005567312446043038, ,3.378315095080004e-05, ,0.1464925198911647,-0.2481314072488335,0.09173973959000001,1.6072734168088794,0.147977329245972,-1.386114310700955, ,0.0,-0.013189290001177313,0.00424655065849107,-0.002881011218034243,-0.004026550313145953,0.01573457393702362, ,0.6739199161529541
0.010732913783910376,0.021012094558571684,-0.08192861814405722, ,0.0108275273686229,0.021237764148511654,-0.08215233340567346, ,0.0003315524280047599, ,0.0005364554953757046,0.0020592072701837477,-0.0035050841860465552,-0.002403967591119626,-0.004422764227207618,0.0037841902486115747, ,0.0041004553687816235, ,0.00503387555066435, ,3.474474440079974e-05, ,0.1464847971582905,-0.24847120749529938,0.09184733166,1.6072734168088794,0.147977329245972,-1.3858692744805334, ,-0.00020560015068898894,-0.013244513825327394,0.0039388752522255205,-0.002881011218034243,-0.004026550313145953,0.015098462308219712, ,0.7053439617156982
0.010755296827647143,0.021082305268022128,-0.08208032093139114, ,0.010854015815798253,0.021307752800197817,-0.08229623778116224, ,0.00032740206841246755, ,0.0009353088203739515,0.0025441863829548366,-0.006184649190296934,-0.0038326150662795822,-0.004347957062951058,0.003468146841934864, ,0.006752597466732535, ,0.00579600378011135, ,3.559427012942595e-05, ,0.1464847971582905,-0.2488264532075137,0.09201325678000001,1.6072734168088794,0.147977329245972,-1.3854608807798305, ,-0.00014862243789048386,-0.010894199324114846,0.006684352295425935,-0.002881011218034243,-0.0038902340517613762,0.014202212699531869, ,0.7368860244750977
0.010777769480352424,0.02115006595168506,-0.08223263105034875, ,0.010882807821516056,0.0213745886900846,-0.08244223983140485, ,0.0003246218635099276, ,0.0005695702113693293,0.0018040801832236478,-0.0034322619442901043,0.009965516641254502,-0.004316143398310288,0.0034640089512137703, ,0.003919124594523841, ,0.010860046744170775, ,3.635492932622987e-05, ,0.1464847971582905,-0.24915080798823114,0.0921791819,1.6072734168088794,0.147977329245972,-1.3849708083389871, ,0.00039561948269028693,-0.010465971590535984,0.003811632333094042,-0.002881011218034243,-0.003314626482484301,-1.954378083893031e-05, ,0.7685070037841797
0.010797744473805918,0.02121024745996842,-0.08235483122693431, ,0.010913872016795988,0.021438323707565963,-0.08259030060426553, ,0.00034777896517736807, ,0.0005969497905446455,0.0019941307701178764,-0.004310873186682017,-0.013730311441796011,-0.002756396058387327,0.003648920832373799, ,0.0047871217043664325, ,0.01400425542578549, ,3.7207885834256105e-05, ,0.14650796535691318,-0.24947516276894857,0.09231399606000001,1.6072734168088794,0.147977329245972,-1.3847257721185655, ,-0.0007771421860461681,-0.010062257880978523,0.00470709560283688,-0.002881011218034243,-0.0028795260458633486,0.023277449915695782, ,0.799828052520752
0.010820466075583533,0.021276322874121945,-0.08250887399019305, ,0.010947177244969972,0.021499009381694575,-0.08274038141093644, ,0.00034531244831518995, ,0.0009345359725388222,0.002383219300647898,-0.005908689895286738,-0.0005703645059195294,-0.0019503334130760847,-0.0030552653958245855, ,0.006439387237743459, ,0.0020320208881126765, ,3.82223636631982e-05, ,0.14650796535691318,-0.24977634935104331,0.09248121747000002,1.6070637268653947,0.147977329245972,-1.3845624146382844, ,0.00046639198735478655,-0.009619762089446284,0.006381735384615385,0.004053042995132236,-0.0025484659338017713,0.01066108194019198, ,0.8258159160614014
0.010847721468594486,0.021344901340690937,-0.08268460748933645, ,0.010982692561085255,0.021556696882189162,-0.08289244382524324, ,0.0003259915485558469, ,0.0008983932679038206,0.0021767783498689137,-0.005620524257616522,0.004107835686465864,-0.001620396115168959,-0.003913025470009138, ,0.006093912321220965, ,0.004415879525991851, ,3.905495459060472e-05, ,0.1465156880897874,-0.2499539722071505,0.09261473534,1.6072734168088794,0.147977329245972,-1.3845624146382844, ,0.0005447238170572976,-0.008814830371368477,0.006353734152373355,0.0037575210922212456,-0.0023686011574621103,0.008304184095402116, ,0.8531029224395752
0.010865642210127978,0.021389556407481233,-0.08280161750558347, ,0.0110203872313077,0.02161143702044256,-0.08304644968295222, ,0.00036485589355679613, ,0.0008217077170636244,0.0020702754338975784,-0.005119666915697619,0.004376395871321045,-0.001535717959801218,-0.0035155625700474874, ,0.0055832099434080466, ,0.004638024035866892, ,4.007041040260336e-05, ,0.14653113355553585,-0.25019337692625143,0.09279621594000001,1.6074831067523636,0.147977329245972,-1.3843173784178626, ,0.0005500000517994992,-0.008319026418740756,0.005532758430010421,0.004404606456131432,-0.00213817587998418,0.004476314891287475, ,0.879478931427002
0.010892997576087741,0.02144903898246648,-0.08296483498234608, ,0.011060230732324957,0.021663280250529438,-0.08320236108107558, ,0.0003609499924697886, ,0.000971454710413184,0.0019993744606357352,-0.005639404917012543,0.0009153434706185373,-0.002355899725010382,-0.003349355108324361, ,0.006061692033273519, ,0.002527471360803193, ,4.100411935874738e-05, ,0.14656974721990698,-0.25038644524810705,0.09297121509,1.6074831067523636,0.147977329245972,-1.3841540209375816, ,0.0014300076712266698,-0.005966824166889974,0.006033640727272728,0.003927450474881335,-0.0019535592043288304,0.005543077001771927, ,0.9062609672546387
0.010917309768731091,0.021490536602983574,-0.08309008530751112, ,0.011102192750749505,0.021712276670214185,-0.08336014037717782, ,0.0003953227986192299, ,0.0013924077052778563,0.0022423949638800712,-0.007221454449450352,0.0009019048951038425,-0.0029463061901559198,-0.0028876494904675584, ,0.007688728032466628, ,0.0030812550960253177, ,4.231835982002147e-05, ,0.1466160836171523,-0.25048684077547195,0.09309954780000002,1.6074831067523636,0.14784069274620656,-1.3840426030338853, ,0.003767521880082588,-0.004017511964473577,0.007513590339622642,0.0036554392592924043,0.0,0.003601407930287958, ,0.9277029037475586
0.010944545531532237,0.021537517534813904,-0.08323900282639433, ,0.011146243182521475,0.02175847602195822,-0.08351975018868214, ,0.0004102726860116857, ,0.0015934447166908049,0.002507726087314045,-0.008149862994941956,0.001473293840226505,-0.003742503732246348,-0.0026351698843409335, ,0.008674561835070952, ,0.0040220508414450795, ,4.3657244524085915e-05, ,0.14668558821302033,-0.25057951356996266,0.09326288034,1.6074831067523636,0.14784069274620656,-1.383879245553604, ,0.004585743896753859,-0.0042623005663586806,0.008652260467137426,0.003418550774027334,0.0,0.003227347491815598, ,0.9495489597320557
0.01097881391107209,0.02158798166730412,-0.08341308530974276, ,0.011192352132312096,0.021801927693928493,-0.08368115339217558, ,0.0004040197656772651, ,0.001810186096073324,0.0024863957149819232,-0.008255816779029472,-0.0025495562466973497,-0.006940128177295071,0.0005728258162323841, ,0.008810076506069754, ,0.007393617370359375, ,4.490393358702571e-05, ,0.14678598374038526,-0.25063357270008224,0.09344695352000001,1.607692796695848,0.14784069274620656,-1.3837975668134637, ,0.006932774818131181,-0.0036816794721430553,0.008776204694214878,0.0,0.0,0.006191741491619194, ,0.9703059196472168
0.011018532808087407,0.02164011290666093,-0.08359664289191543, ,0.011240489912926086,0.0218426807210045,-0.08384431312271456, ,0.00038940880706578285, ,0.0016964624852900368,0.0019841277604484846,-0.007340187407198349,0.003564832103586044,-0.0063589414327943255,0.0003186048241652993, ,0.007790577584914483, ,0.007290002933113736, ,4.601985418658784e-05, ,0.14694816113074397,-0.25067990909732757,0.09364139702,1.607692796695848,0.147977329245972,-1.3837456272368787, ,0.007255435615587179,-0.0007050536860363524,0.007758797622990745,0.0,0.0009224105581407641,-0.0028672456802897087, ,0.9916069507598877
0.011055394165809442,0.021682908737334555,-0.08375211827127575, ,0.011290627044705138,0.021880783785786565,-0.08400919277313133, ,0.00040071977941915656, ,0.0019132484909203382,0.00229238121024906,-0.00821114676262815,-0.0037798166567322503,-0.00736831117620462,0.0004926275453485567, ,0.008737188481344022, ,0.008281243035996314, ,4.7395038568050625e-05, ,0.1471103385211027,-0.25070307729595026,0.09380602585000002,1.607692796695848,0.147977329245972,-1.3837456272368787, ,0.008254682037503347,-0.001588062521914549,0.008699514756963409,0.0,0.0009224105581407641,0.005350943072436481, ,1.007530927658081
0.011075192802240653,0.0217060241242611,-0.08383665320209469, ,0.011342734254929786,0.02191628521960216,-0.08417575599333808, ,0.000480394483888083, ,0.0021384164355354143,0.0023516853474068664,-0.009123230784363548,0.0005698537378582818,-0.006967006166585091,-0.005352235783603731, ,0.009661086314164409, ,0.006990267877840518, ,4.913838582673068e-05, ,0.14719528858271916,-0.2507108000288245,0.09389546986000001,1.6079024866393328,0.147977329245972,-1.3836639484967381, ,0.00928651595874772,0.0004987550431066923,0.009618847536231887,0.005748976418080289,0.0009224105581407641,-0.0002460822325382546, ,1.0231850147247314
0.011123554463337128,0.021759348768633665,-0.08404169740674516, ,0.011396782477223045,0.02194923300351492,-0.08434396668963377, ,0.0004495289641463345, ,0.0026136781476964184,0.0029218269798679626,-0.011310698810345202,-0.000741837541978391,-0.008424131704584104,-0.0039214144946773995, ,0.011970810078619346, ,0.008456721161152833, ,5.067195844940146e-05, ,0.14741924783607166,-0.25070307729595026,0.09411195029000001,1.6081121765828172,0.14811396574573746,-1.3836936876602939, ,0.011066076788966617,0.0004935193759649286,0.011922763113772456,0.004438237213233736,0.0015924947863484404,0.000886007817876787, ,1.0388669967651367
0.011151221201791588,0.02179016051491202,-0.08416098994164316, ,0.011452742850952722,0.0219796747693316,-0.08451378902400819, ,0.0005012964692262137, ,0.0026727925644679136,0.0029186171471574087,-0.011588791510635903,-0.0024707723122918894,-0.010538264122758626,0.003290411784612271, ,0.012245906859899881, ,0.010824025014698166, ,5.2418361418791506e-05, ,0.14753508882918503,-0.250695354563076,0.09423769042,1.608321866526302,0.14811396574573746,-1.3836936876602939, ,0.011241622846004194,0.0012128921875670994,0.012196639754977033,-0.003210026448689787,0.0015497496396608124,0.0008149648824619053, ,1.055661916732788
0.011169712214750249,0.02181137125078424,-0.0842446658711919, ,0.011510586720634172,0.022007657800609426,-0.08468518741344754, ,0.0005905785871458271, ,0.0027674578664781987,0.003018888782567027,-0.011849702101002562,-0.002443813165763082,-0.011796378222048464,0.0031593202768024175, ,0.012537461960330952, ,0.01204684723536308, ,5.482302411338677e-05, ,0.1476200388908015,-0.2506876318302018,0.09432583814,1.608321866526302,0.14825060224550288,-1.3838051055639902, ,0.011791369477941202,0.0008677197807506698,0.012483394608150471,-0.003210026448689787,0.0008182353952674995,0.0011286778072872833, ,1.0663669109344482
0.011207435039709815,0.021850574008719252,-0.08439942325878254, ,0.011570285635332843,0.02203322903366422,-0.08485812652923944, ,0.0006127251449136769, ,0.003080615623812923,0.003085745813554387,-0.012162637150236383,0.0010507053761088805,-0.011180792519859385,0.004164634183370421, ,0.01292059450241586, ,0.011230041718622444, ,5.728909811675394e-05, ,0.1478053844797829,-0.2506721863644534,0.09448917068000001,1.608321866526302,0.14838723874526832,-1.3839165234676867, ,0.015288696883916672,0.0011342341751680578,0.012845815741935485,-0.003210026448689787,0.005063995137014975,-0.0026275323879240693, ,1.07686185836792
0.011238628279599006,0.021881733419834733,-0.08452337970039996, ,0.01163181134806667,0.022056435058576667,-0.08503257129627789, ,0.0006666255839836065, ,0.0035683307788587815,0.0034280433243143405,-0.013653730005198777,0.0026170100164047733,-0.012085699103223048,0.0046850347025985525, ,0.014522699770896335, ,0.012365774933961458, ,5.996893980486122e-05, ,0.1479675618701416,-0.25065674089870493,0.09462009597000001,1.608321866526302,0.14852387524503374,-1.3840279413713832, ,0.018581739095059873,0.0017190819800452593,0.014428271304347828,-0.003210026448689787,0.007529067534818443,-0.004771603332988053, ,1.0873219966888428
0.011279285516521903,0.021918642028812954,-0.08467411128213831, ,0.011695135815209375,0.022077322120201928,-0.08520848689236811, ,0.0006954625332324842, ,0.004412974977140044,0.004232271538327843,-0.017920063688398175,0.01633434511445414,0.0023375487065949024,0.009279542659869024, ,0.017302009257563707, ,0.014010792500634747, ,6.273588525497065e-05, ,0.14844637130834354,-0.25057951356996266,0.09496231653000001,1.608321866526302,0.14907042124409553,-1.3844736129861688, ,0.024251710083943466,0.005178452434562301,0.018872999431279625,-0.003210026448689787,0.02826800227820048,-0.02190326958897105, ,1.0988800525665283
0.011372045455011148,0.022002042535679573,-0.085024370197679, ,0.011760231195892123,0.02209593611917518,-0.0853858387475313, ,0.0005386684388167621, ,0.004675083735211353,0.0041844046560410054,-0.017523927993795624,0.017681756672102332,0.0018681004100233687,-0.00010184210203240972, ,0.01861326684353043, ,0.017780119954407606, ,6.470348843738408e-05, ,0.1487166669589414,-0.25053317717271734,0.09514898229,1.6081121765828172,0.14920705774386098,-1.3845850308898653, ,0.02652234252612375,0.004785527214523007,0.018500361811846694,0.006481644048441722,0.027641192858217402,-0.02147654781079771, ,1.1094489097595215
0.011422243058144906,0.022042619663125932,-0.08520120690212742, ,0.01182706985140626,0.022112322612919608,-0.08556459254330932, ,0.0005484454010832773, ,0.005046639635718497,0.003675569899694323,-0.01662102439268652,0.0066424041115602074,-0.011833200153191387,-0.007583311234094029, ,0.017754910238089748, ,0.013569999622374743, ,6.668008477799026e-05, ,0.14901785354103614,-0.2504636725768493,0.09533564805000001,1.608321866526302,0.14948033074339184,-1.384807866697258, ,0.03113416717797598,0.007991583501477778,0.017542743964757714,0.011076524702400368,0.017087867260908073,-0.012946769536368115, ,1.1198649406433105
0.011422243058144906,0.022042619663125932,-0.08520120690212742, ,0.011895624344606026,0.02212652681665462,-0.08574471421206926, ,0.0007256241787213936, ,0.005046639635718497,0.003675569899694323,-0.01662102439268652,0.0066424041115602074,-0.011833200153191387,-0.007583311234094029, ,0.017754910238089748, ,0.013569999622374743, ,6.9773719021856e-05, ,0.14901785354103614,-0.2504636725768493,0.09533564805000001,1.608321866526302,0.14948033074339184,-1.384807866697258, ,0.03113416717797598,0.007991583501477778,0.017542743964757714,0.011076524702400368,0.017087867260908073,-0.012946769536368115, ,1.1251130104064941
0.011422243058144906,0.022042619663125932,-0.08520120690212742, ,0.01196586743931073,0.022138593604402738,-0.0859261699363082, ,0.000911213403177724, ,0.005618184992556139,0.0036365108057152683,-0.017402115944904272,0.013755625035097656,-0.006454370894461585,-0.0057100597596326935, ,0.018644619942775945, ,0.015194555861640717, ,0.00039432538887082633, ,0.14901785354103614,-0.2504636725768493,0.09533564805000001,1.608321866526302,0.14948033074339184,-1.384807866697258, ,0.03113416717797598,0.007991583501477778,0.017542743964757714,0.011076524702400368,0.017087867260908073,-0.012946769536368115, ,1.1303789615631104
0.011473207269175814,0.022077919495213066,-0.08536444550322926, ,0.012037772099707095,0.022148567509996827,-0.0861089261479572, ,0.0009370037461185706, ,0.005618184992556139,0.0036365108057152683,-0.017402115944904272,0.013755625035097656,-0.006454370894461585,-0.0057100597596326935, ,0.018644619942775945, ,0.015194555861640717, ,0.00040756144636467376, ,0.1493499310546278,-0.2503709997823586,0.09550805462,1.6087412464132707,0.1497536037429227,-1.3850307025046509, ,0.03746424854262565,0.010808232257934348,0.018372331626297582,0.011745383459956602,0.029010384639984593,-0.022731115202239242, ,1.1358919143676758
0.011503583373095826,0.022097963157429408,-0.08546131111916894, ,0.012111311489751588,0.022156492728088065,-0.08629294952768654, ,0.0010316887209508203, ,0.006170237921458892,0.003947922975581875,-0.019248840470048628,0.044053469482886874,0.024678432146220876,0.0037122429100199905, ,0.020595528429004157, ,0.0504948566106231, ,0.0004224216195691058, ,0.1495738903079803,-0.25030921791936483,0.09561046153000001,1.6087412464132707,0.15016351324221905,-1.3853649562157402, ,0.04463637890802953,0.012830846614179391,0.020343309731800766,0.011745383459956602,0.06855018480970335,-0.05500320132761713, ,1.1417160034179688
0.011503583373095826,0.022097963157429408,-0.08546131111916894, ,0.012186458972572988,0.022162413115153226,-0.0864782070042089, ,0.0012266010445222612, ,0.006170237921458892,0.003947922975581875,-0.019248840470048628,0.044053469482886874,0.024678432146220876,0.0037122429100199905, ,0.020595528429004157, ,0.0504948566106231, ,0.00044112346666103964, ,0.1495738903079803,-0.25030921791936483,0.09561046153000001,1.6087412464132707,0.15016351324221905,-1.3853649562157402, ,0.04463637890802953,0.012830846614179391,0.020343309731800766,0.011745383459956602,0.06855018480970335,-0.05500320132761713, ,1.1469578742980957
0.011627911777464878,0.022177962641320704,-0.08585466256262932, ,0.012263188109874448,0.022166372190502104,-0.08666466575358477, ,0.0010294734219143018, ,0.008992774276246328,0.005246405876815597,-0.02809124745007649,0.01471249865411467,-0.01145123949570464,-0.00355136970000493, ,0.029958520442592486, ,0.018643256421683355, ,0.00045449505655315926, ,0.15041566819127078,-0.2500466450016412,0.09602527433000001,1.6087412464132707,0.15111996874057715,-1.386144881541615, ,0.05879612240301783,0.023873444417225356,0.02949779911111111,0.011745383459956602,0.04586331794898454,-0.03659081004719885, ,1.1522588729858398
0.011627911777464878,0.022177962641320704,-0.08585466256262932, ,0.012341472661335654,0.022168413137284813,-0.08685229319852626, ,0.001226591706191558, ,0.008992774276246328,0.005246405876815597,-0.02809124745007649,0.01471249865411467,-0.01145123949570464,-0.00355136970000493, ,0.029958520442592486, ,0.018643256421683355, ,0.000471652759878457, ,0.15041566819127078,-0.2500466450016412,0.09602527433000001,1.6087412464132707,0.15111996874057715,-1.386144881541615, ,0.05879612240301783,0.023873444417225356,0.02949779911111111,0.011745383459956602,0.04586331794898454,-0.03659081004719885, ,1.1575100421905518
0.011731245496308532,0.022240580961945495,-0.08620010450757602, ,0.012421286584015326,0.022168578803499428,-0.0870410570077011, ,0.0010902027889393227, ,0.01065894965767822,0.007219479463821676,-0.03801606121487511,0.06415138511713392,0.04643828479800685,0.012219418596497476, ,0.04013670392329934, ,0.07919491842706153, ,0.0004850994996406497, ,0.1510798232184541,-0.2497377356866722,0.09638693924000001,1.6087412464132707,0.15193978773916977,-1.3868133889637937, ,0.06715990202298003,0.030318511680022617,0.039822028800000006,0.011745383459956602,0.11421943903355816,-0.09237515016554973, ,1.1627569198608398
0.011731245496308532,0.022240580961945495,-0.08620010450757602, ,0.012502604031753382,0.022166911702999472,-0.08723092509503724, ,0.0012895783161371685, ,0.01065894965767822,0.007219479463821676,-0.03801606121487511,0.06415138511713392,0.04643828479800685,0.012219418596497476, ,0.04013670392329934, ,0.07919491842706153, ,0.0005022160702044054, ,0.1510798232184541,-0.2497377356866722,0.09638693924000001,1.6087412464132707,0.15193978773916977,-1.3868133889637937, ,0.06715990202298003,0.030318511680022617,0.039822028800000006,0.011745383459956602,0.11421943903355816,-0.09237515016554973, ,1.168045997619629
0.011790527860450878,0.02228178537182187,-0.08641544224912645, ,0.012585399354572802,0.022163454016501116,-0.08742186561902603, ,0.0012879095470178352, ,0.01065894965767822,0.007219479463821676,-0.03801606121487511,0.06415138511713392,0.04643828479800685,0.012219418596497476, ,0.04013670392329934, ,0.07919491842706153, ,0.0005185846843046852, ,0.15145051439641685,-0.24956783556343926,0.09661249370000001,1.6089509363567556,0.15262297023799698,-1.3872887997421355, ,0.06921731696460305,0.030631679005316582,0.04180790425196851,0.014965631251195119,0.10730216295236054,-0.0887003365696815, ,1.1761360168457031
0.011962002348205616,0.02238426997861874,-0.08698386012068461, ,0.012669647098082161,0.022158247592590826,-0.0876138469820279, ,0.0009740280573365202, ,0.012510044578065222,0.006669562177392874,-0.038818106670044594,0.00892537838022414,-0.0235691295301601,-0.00894947941309885, ,0.0413258960027517, ,0.025200756066110264, ,0.0005278794470196206, ,0.15251625153305984,-0.24905813519374043,0.09720749081,1.6091606263002398,0.1537160622361205,-1.3881801429717067, ,0.07908078463205898,0.03837320726181592,0.04063472326530613,0.016778682023679638,0.053004419708125666,-0.04435755997874102, ,1.1815299987792969
0.011962002348205616,0.02238426997861874,-0.08698386012068461, ,0.012755322002877836,0.02215133394873284,-0.0878068378295744, ,0.0011665794348597659, ,0.012510044578065222,0.006669562177392874,-0.038818106670044594,0.00892537838022414,-0.0235691295301601,-0.00894947941309885, ,0.0413258960027517, ,0.025200756066110264, ,0.0005406534467764236, ,0.15251625153305984,-0.24905813519374043,0.09720749081,1.6091606263002398,0.1537160622361205,-1.3881801429717067, ,0.07908078463205898,0.03837320726181592,0.04063472326530613,0.016778682023679638,0.053004419708125666,-0.04435755997874102, ,1.186797857284546
0.01209876002801105,0.02244387679671171,-0.08738487902991333, ,0.012842399003945357,0.02214275427227588,-0.08800080704967424, ,0.001011454905953705, ,0.013815849260476772,0.004932172754912863,-0.038209146827739404,0.003859628779676949,-0.026311966176651307,-0.005847856035170414, ,0.04092850986997046, ,0.02659200741947582, ,0.0005498848479367624, ,0.15342753401221834,-0.24856388028979007,0.09762619248000001,1.6091606263002398,0.1543992447349477,-1.3889005899704698, ,0.0954697601191859,0.05536577687191993,0.039822028800000006,0.014513299342951917,0.06765280042314328,-0.0564034690233375, ,1.1921019554138184
0.01209876002801105,0.02244387679671171,-0.08738487902991333, ,0.012930853230062716,0.022132549421462065,-0.08819572377211599, ,0.001202818784122576, ,0.013815849260476772,0.004932172754912863,-0.038209146827739404,0.003859628779676949,-0.026311966176651307,-0.005847856035170414, ,0.04092850986997046, ,0.02659200741947582, ,0.0005624412697864896, ,0.15342753401221834,-0.24856388028979007,0.09762619248000001,1.6091606263002398,0.1543992447349477,-1.3889005899704698, ,0.0954697601191859,0.05536577687191993,0.039822028800000006,0.014513299342951917,0.06765280042314328,-0.0564034690233375, ,1.1973509788513184
0.012241797808427922,0.02248365811265855,-0.0877651565551162, ,0.013020660003201307,0.0221207599264328,-0.08839155736777164, ,0.0010633434958227524, ,0.014158554563415571,0.003060248882515739,-0.03487791851562746,0.043251703215180876,0.007592572138138262,0.0061878294999057094, ,0.03776637380701122, ,0.04391247397308385, ,0.0005718922551834002, ,0.15447782568311286,-0.2479151707283552,0.09802156093000002,1.6091606263002398,0.15549233673307122,-1.3900369694204633, ,0.10920246439409755,0.06613027286304585,0.03628430870159454,0.01266238103512398,0.11722020374883566,-0.1066876894874625, ,1.2025630474090576
0.012241797808427922,0.02248365811265855,-0.0877651565551162, ,0.013111794837928426,0.02210742599023648,-0.08858827744790236, ,0.0012553778098337578, ,0.014158554563415571,0.003060248882515739,-0.03487791851562746,0.043251703215180876,0.007592572138138262,0.0061878294999057094, ,0.03776637380701122, ,0.04391247397308385, ,0.0005845493950843328, ,0.15447782568311286,-0.2479151707283552,0.09802156093000002,1.6091606263002398,0.15549233673307122,-1.3900369694204633, ,0.10920246439409755,0.06613027286304585,0.03628430870159454,0.01266238103512398,0.11722020374883566,-0.1066876894874625, ,1.207953929901123
0.012370253696629686,0.022503441698988148,-0.08805677525192464, ,0.01320423344080987,0.022092587489837286,-0.08878585386346055, ,0.0011814732399335, ,0.014561291243724886,0.0014175482484905097,-0.03129463570844758,0.055644210513354546,-0.005588661538213219,0.015476793038016301, ,0.034545547757212074, ,0.055923888327550186, ,0.0005954025558997723, ,0.15549722642251051,-0.24729735209841724,0.09832489279,1.6093703162437245,0.1564487922314293,-1.3911436097069003, ,0.11906768075090436,0.07356352058796184,0.0325077786122449,0.0013510737062664244,0.11662617378705951,-0.12809416519783168, ,1.213407039642334
0.012370253696629686,0.022503441698988148,-0.08805677525192464, ,0.013297951709810676,0.02207628397712035,-0.08898425670439461, ,0.0013796047142885, ,0.014561291243724886,0.0014175482484905097,-0.03129463570844758,0.055644210513354546,-0.005588661538213219,0.015476793038016301, ,0.034545547757212074, ,0.055923888327550186, ,0.0006094061658709996, ,0.15549722642251051,-0.24729735209841724,0.09832489279,1.6093703162437245,0.1564487922314293,-1.3911436097069003, ,0.11906768075090436,0.07356352058796184,0.0325077786122449,0.0013510737062664244,0.11662617378705951,-0.12809416519783168, ,1.2186720371246338
0.012557634278789294,0.022510385037399484,-0.08844137326296206, ,0.013392925733698328,0.02205855467990103,-0.0891834562989527, ,0.001205217706020919, ,0.015941407835491785,-0.0001826081789332865,-0.03173776070256046,0.014015878509961648,-0.043620281777163775,-0.017624354263073426, ,0.03551685915079602, ,0.04581639041687897, ,0.0006198589999087174, ,0.15702632753160695,-0.24627795135901961,0.09872285382000001,1.6097896961306934,0.15767852072931826,-1.392554764540871, ,0.12893606190009615,0.0916878662400684,0.03270803186858317,0.023962888299672,0.08191038179084573,-0.10090948095473948, ,1.223930835723877
0.012557634278789294,0.022510385037399484,-0.08844137326296206, ,0.013489131791444208,0.02203943850293142,-0.08938342321298674, ,0.0014060356904258451, ,0.015941407835491785,-0.0001826081789332865,-0.03173776070256046,0.014015878509961648,-0.043620281777163775,-0.017624354263073426, ,0.03551685915079602, ,0.04581639041687897, ,0.0006334137704348748, ,0.15702632753160695,-0.24627795135901961,0.09872285382000001,1.6097896961306934,0.15767852072931826,-1.392554764540871, ,0.12893606190009615,0.0916878662400684,0.03270803186858317,0.023962888299672,0.08191038179084573,-0.10090948095473948, ,1.2291889190673828
0.012721630077570188,0.02250572351478197,-0.08877814519383088, ,0.01358654635162561,0.02201897402890792,-0.08958412824925598, ,0.0012785202027175522, ,0.016291049667498253,-0.0005998302851433265,-0.034910879504634666,0.03783284580368674,0.005584977053015639,-0.003990256451077444, ,0.03852956791124176, ,0.03824218003329301, ,0.0006443477777616999, ,0.15835463758597357,-0.24528171881824465,0.09906896325000002,1.6099993860741781,0.1587716127274418,-1.3936911439908637, ,0.13161850424198443,0.1039396950257073,0.03579508206741574,0.0212415085806939,0.13610395950703064,-0.1371647895992093, ,1.2344248294830322
0.012721630077570188,0.02250572351478197,-0.08877814519383088, ,0.013685146071827666,0.021997199519478587,-0.08978554244673115, ,0.0014838493690871347, ,0.016291049667498253,-0.0005998302851433265,-0.034910879504634666,0.03783284580368674,0.005584977053015639,-0.003990256451077444, ,0.03852956791124176, ,0.03824218003329301, ,0.000658339470950457, ,0.15835463758597357,-0.24528171881824465,0.09906896325000002,1.6099993860741781,0.1587716127274418,-1.3936911439908637, ,0.13161850424198443,0.1039396950257073,0.03579508206741574,0.0212415085806939,0.13610395950703064,-0.1371647895992093, ,1.2396879196166992
0.012867092518915829,0.02249955517111459,-0.08908127648656426, ,0.013784907798045387,0.021974152916250503,-0.0899876370798983, ,0.0013928108059491693, ,0.01760786875540713,-0.0011295183383689855,-0.03597541276485079,0.017579160801322706,-0.033978292741609115,0.044906642520876665, ,0.040069229807743294, ,0.03825560105580564, ,0.0006703799846389605, ,0.1595284929828557,-0.24437043633908617,0.09938007285000001,1.6102090760176624,0.15986470472556533,-1.3949908809211382, ,0.14163722620667282,0.1111205404665934,0.036872248888888896,-0.03538242497088092,0.11976622673806063,-0.13268461944058663, ,1.245210886001587
0.012867092518915829,0.02249955517111459,-0.08908127648656426, ,0.01388580856408546,0.02194987184179713,-0.09019038365806191, ,0.0016031384410222004, ,0.01760786875540713,-0.0011295183383689855,-0.03597541276485079,0.017579160801322706,-0.033978292741609115,0.044906642520876665, ,0.040069229807743294, ,0.03825560105580564, ,0.0006854244758709482, ,0.1595284929828557,-0.24437043633908617,0.09938007285000001,1.6102090760176624,0.15986470472556533,-1.3949908809211382, ,0.14163722620667282,0.1111205404665934,0.036872248888888896,-0.03538242497088092,0.11976622673806063,-0.13268461944058663, ,1.2507548332214355
0.012867092518915829,0.02249955517111459,-0.08908127648656426, ,0.01398782559096802,0.02192439360066539,-0.09039375392464984, ,0.0018191895108527873, ,0.01760786875540713,-0.0011295183383689855,-0.03597541276485079,0.017579160801322706,-0.033978292741609115,0.044906642520876665, ,0.040069229807743294, ,0.03825560105580564, ,0.0007034207462674855, ,0.1595284929828557,-0.24437043633908617,0.09938007285000001,1.6102090760176624,0.15986470472556533,-1.3949908809211382, ,0.14163722620667282,0.1111205404665934,0.036872248888888896,-0.03538242497088092,0.11976622673806063,-0.13268461944058663, ,1.256147861480713
0.0131450737629381,0.02247264883201986,-0.08963557483604678, ,0.014090936286329346,0.02189775518038411,-0.0905977198565167, ,0.0014665884440640455, ,0.019212211833848664,-0.00210944566268885,-0.03759509432278658,-0.06304222742022676,-0.08694188795820104,-0.02454552678735661, ,0.04227233092333248, ,0.10739245419060224, ,0.0007153452415455567, ,0.16172174911913545,-0.24256331684651763,0.09994655158000001,1.6099993860741781,0.1612310697232197,-1.3964317749186645, ,0.1482764711851106,0.12535923587644754,0.038382678361445786,0.019133537695111603,0.058435039834421845,-0.05768897047190908, ,1.2620668411254883
0.013357074174837003,0.022440183380855593,-0.09003139997189899, ,0.01419511824382275,0.021869993252470098,-0.09080225366324739, ,0.0012734402449804643, ,0.021058317636188036,-0.0036643924245183808,-0.03886030742039515,-0.08495799391621923,-0.10555894638279835,-0.02435511414467177, ,0.04435091888918508, ,0.13550078697865342, ,0.0007239313185214784, ,0.1633744139542195,-0.2411423339976603,0.10034969777000001,1.6099993860741781,0.1617776157222815,-1.3968774465334504, ,0.1644661032209199,0.14422027592472764,0.039525586898263035,0.015132258620801548,0.05693351705858184,-0.05496010328570104, ,1.2673039436340332
0.013357074174837003,0.022440183380855593,-0.09003139997189899, ,0.01430034924252106,0.021841144173436175,-0.09100732778646162, ,0.0014835939217242133, ,0.021058317636188036,-0.0036643924245183808,-0.03886030742039515,-0.08495799391621923,-0.10555894638279835,-0.02435511414467177, ,0.04435091888918508, ,0.13550078697865342, ,0.0007354413579639442, ,0.1633744139542195,-0.2411423339976603,0.10034969777000001,1.6099993860741781,0.1617776157222815,-1.3968774465334504, ,0.1644661032209199,0.14422027592472764,0.039525586898263035,0.015132258620801548,0.05693351705858184,-0.05496010328570104, ,1.272533893585205
0.0135664829475022,0.022400649992973372,-0.09041368929474736, ,0.014406607246318445,0.021811243985798315,-0.09121291489911676, ,0.001300757412216116, ,0.021266503160371025,-0.0043837102310307595,-0.03911719154722378,-0.0880021334151613,-0.07842234865849738,-0.0027157959500992432, ,0.044739644015145116, ,0.1178742917976003, ,0.000743878911012484, ,0.16503480152217778,-0.2396904602173061,0.10073858477000001,1.6102090760176624,0.16259743472087412,-1.3976276326957695, ,0.16825698857884888,0.15110977955170507,0.03972272199501248,0.0,0.09250892119355497,-0.06106434020745938, ,1.2777559757232666
0.0135664829475022,0.022400649992973372,-0.09041368929474736, ,0.014513870403331523,0.021780328419082624,-0.09141898790481291, ,0.0015142546489599394, ,0.021266503160371025,-0.0043837102310307595,-0.03911719154722378,-0.0880021334151613,-0.07842234865849738,-0.0027157959500992432, ,0.044739644015145116, ,0.1178742917976003, ,0.0007552079659822995, ,0.16503480152217778,-0.2396904602173061,0.10073858477000001,1.6102090760176624,0.16259743472087412,-1.3976276326957695, ,0.16825698857884888,0.15110977955170507,0.03972272199501248,0.0,0.09250892119355497,-0.06106434020745938, ,1.2831180095672607
0.013653616293005068,0.02238173656686639,-0.09057606546672128, ,0.014622117045302745,0.02174843289083371,-0.09162551993709539, ,0.0015621849886187824, ,0.021349280232217407,-0.004889432751376321,-0.039002416223150614,-0.08588966732127408,-0.07765783889973266,-0.003272374932445009, ,0.04473127306826693, ,0.11579155687261725, ,0.0007669032851509443, ,0.16572212474798376,-0.2390571961216197,0.10090321360000001,1.6102090760176624,0.16300734422017046,-1.3977985289265775, ,0.16885576789763485,0.15556875665323078,0.039525586898263035,0.0,0.09389498883148532,-0.0675637124407764, ,1.2887098789215088
0.013653616293005068,0.02238173656686639,-0.09057606546672128, ,0.014731325687001159,0.021715592507621374,-0.09183248435876026, ,0.0017843188834530963, ,0.021349280232217407,-0.004889432751376321,-0.039002416223150614,-0.08588966732127408,-0.07765783889973266,-0.003272374932445009, ,0.04473127306826693, ,0.11579155687261725, ,0.0007814377936981178, ,0.16572212474798376,-0.2390571961216197,0.10090321360000001,1.6102090760176624,0.16300734422017046,-1.3977985289265775, ,0.16885576789763485,0.15556875665323078,0.039525586898263035,0.0,0.09389498883148532,-0.0675637124407764, ,1.2940800189971924
0.014006092147106169,0.022295736478735662,-0.09121240762934195, ,0.014841475025623782,0.021681842066047046,-0.09203985476115632, ,0.0013264236350421794, ,0.021603408213636786,-0.005282359113209706,-0.04035973650992411,-0.10373820701232322,-0.0005377142948533504,-0.049816839328061864, ,0.046081654651243156, ,0.10373908445034759, ,0.0007891136506184567, ,0.16856409044569837,-0.23645463514300605,0.10154876602000001,1.6110478357916007,0.1651935282164175,-1.3985193917638927, ,0.17316960138407075,0.16221699411704404,0.04094810159383034,0.06374742328771604,0.16234673736723582,-0.045717297339170467, ,1.2994139194488525
0.014006092147106169,0.022295736478735662,-0.09121240762934195, ,0.014952543940198976,0.021647216053752888,-0.09224760496349058, ,0.0015453100850304619, ,0.021603408213636786,-0.005282359113209706,-0.04035973650992411,-0.10373820701232322,-0.0005377142948533504,-0.049816839328061864, ,0.046081654651243156, ,0.10373908445034759, ,0.0007996163788741791, ,0.16856409044569837,-0.23645463514300605,0.10154876602000001,1.6110478357916007,0.1651935282164175,-1.3985193917638927, ,0.17316960138407075,0.16221699411704404,0.04094810159383034,0.06374742328771604,0.16234673736723582,-0.045717297339170467, ,1.3047089576721191
0.014222682923676745,0.0222393176112946,-0.0916222450497032, ,0.015064511490986823,0.021611748650427576,-0.09245570901213084, ,0.0013405895397356421, ,0.021961660526976352,-0.006480939954518308,-0.040559759971070926,-0.20045724584586036,-0.035056721539734444,0.032866164870144404, ,0.04657693897957561, ,0.20349931540164118, ,0.0008070269701188566, ,0.170270814410902,-0.23479424757504777,0.10196357882000001,1.6112575257350852,0.16669652971383736,-1.3983564501221641, ,0.1738039222682615,0.17222675418960212,0.04094810159383034,-0.027913254442222528,0.14945587274819477,0.026191974672879065, ,1.309988021850586
0.014222682923676745,0.0222393176112946,-0.0916222450497032, ,0.015177356918882133,0.021575473728814822,-0.0926641411799109, ,0.001561293913255607, ,0.021961660526976352,-0.006480939954518308,-0.040559759971070926,-0.20045724584586036,-0.035056721539734444,0.032866164870144404, ,0.04657693897957561, ,0.20349931540164118, ,0.0008172197666477316, ,0.170270814410902,-0.23479424757504777,0.10196357882000001,1.6112575257350852,0.16669652971383736,-1.3983564501221641, ,0.1738039222682615,0.17222675418960212,0.04094810159383034,-0.027913254442222528,0.14945587274819477,0.026191974672879065, ,1.315284013748169
0.014436111098069445,0.022173706620325778,-0.09201652592781567, ,0.015291059644815348,0.02153842485571965,-0.09287287596543348, ,0.001366695037289601, ,0.021975047906546565,-0.006875970338050258,-0.04056037724449514,-0.12316180818642213,-0.00962931784431492,0.029724025880649135, ,0.046640389157901786, ,0.12353722103583735, ,0.0008245461035896232, ,0.17196981564323138,-0.2330952463427184,0.10236153985000002,1.6112575257350852,0.1683361677110226,-1.398549962604553, ,0.17476416493272703,0.17508660804145898,0.04094810159383034,-0.01965942938738336,0.17454068271113393,-0.05255316623195483, ,1.3206369876861572
0.014436111098069445,0.022173706620325778,-0.09201652592781567, ,0.015405599269154305,0.021500635293015737,-0.09308188809237393, ,0.0015899461837410164, ,0.021975047906546565,-0.006875970338050258,-0.04056037724449514,-0.12316180818642213,-0.00962931784431492,0.029724025880649135, ,0.046640389157901786, ,0.12353722103583735, ,0.0008346171572758258, ,0.17196981564323138,-0.2330952463427184,0.10236153985000002,1.6112575257350852,0.1683361677110226,-1.398549962604553, ,0.17476416493272703,0.17508660804145898,0.04094810159383034,-0.01965942938738336,0.17454068271113393,-0.05255316623195483, ,1.326035976409912
0.014641806922467079,0.02210744338848314,-0.09238891100136468, ,0.015520955571107447,0.021462137998653937,-0.09329115250878552, ,0.0014154014025222082, ,0.0216963725726474,-0.007564200394072825,-0.03876131592280291,-0.11859810150954725,-0.02598647110957273,0.019801101041661412, ,0.04505984157184923, ,0.121411362176356, ,0.0008421598098114931, ,0.17359931227969275,-0.23145802697338277,0.10273746395000001,1.6112575257350852,0.1698391692084425,-1.3990404508839487, ,0.1716038726192962,0.17638836720905351,0.03904120470588236,-0.015264966542801635,0.1533322103606213,-0.0576671123361805, ,1.331540822982788
0.01476618287588534,0.022061534815330634,-0.09260408939562739, ,0.015637108508124026,0.021422965627668218,-0.09350064438640161, ,0.001641671761000696, ,0.02191948069732459,-0.0083909844078906,-0.03691755954669106,-0.14681633077908138,-0.04034698923407569,0.01455302530334205, ,0.04374675366535589, ,0.15225914077266015, ,0.0008524099630318674, ,0.1745878220875935,-0.23043862623398514,0.10295394438000001,1.6112575257350852,0.17065898820703512,-1.3991372071251433, ,0.17541024317647097,0.17972905598195224,0.03713009678321679,-0.01343891077048814,0.14200027444965788,-0.0324258822579972, ,1.3376109600067139
0.01476618287588534,0.022061534815330634,-0.09260408939562739, ,0.015754038215296282,0.02138315053318292,-0.09371033911994052, ,0.0016309052266795412, ,0.02191948069732459,-0.0083909844078906,-0.03691755954669106,-0.14681633077908138,-0.04034698923407569,0.01455302530334205, ,0.04374675366535589, ,0.15225914077266015, ,0.0008622643334577873, ,0.1745878220875935,-0.23043862623398514,0.10295394438000001,1.6112575257350852,0.17065898820703512,-1.3991372071251433, ,0.17541024317647097,0.17972905598195224,0.03713009678321679,-0.01343891077048814,0.14200027444965788,-0.0324258822579972, ,1.3430299758911133
0.015090098604724279,0.02193079902756876,-0.0931423720513107, ,0.015871725004762145,0.02134272476742137,-0.09392021232641003, ,0.0012497226325271706, ,0.02193390714606111,-0.008974375195054483,-0.03610429127669203,-0.14973043650440718,-0.052021826503123716,0.006929137736906719, ,0.04318744657219109, ,0.15850997666206876, ,0.0008671075621961545, ,0.17715949213471024,-0.2277433924608808,0.10349449731000002,1.6112575257350852,0.1725718992037513,-1.3995535554149252, ,0.17348618200817328,0.1817949072001356,0.03628430870159454,-0.010244718261591557,0.12716408169447338,-0.030970453342196815, ,1.348369836807251
0.015090098604724279,0.02193079902756876,-0.0931423720513107, ,0.01599014936510566,0.021301720082711344,-0.09413023984440949, ,0.0014770627836242724, ,0.02193390714606111,-0.008974375195054483,-0.03610429127669203,-0.14973043650440718,-0.052021826503123716,0.006929137736906719, ,0.04318744657219109, ,0.15850997666206876, ,0.0008746378735718103, ,0.17715949213471024,-0.2277433924608808,0.10349449731000002,1.6112575257350852,0.1725718992037513,-1.3995535554149252, ,0.17348618200817328,0.1817949072001356,0.03628430870159454,-0.010244718261591557,0.12716408169447338,-0.030970453342196815, ,1.3536348342895508
0.015316766358110832,0.021837463900532688,-0.09351735051324496, ,0.016109291960760753,0.021260167932494547,-0.0943403977334361, ,0.0012801461604961652, ,0.021832028595806196,-0.008986188807298304,-0.035875164631738274,-0.15047066152331318,-0.04144808997075051,0.007364663603622021, ,0.04294667040927431, ,0.15607467673022, ,0.000879583096583083, ,0.17895888889440456,-0.22585904563957002,0.1038717177,1.6112575257350852,0.17407490070117113,-1.3998806862140398, ,0.17222675418960212,0.18007009783391037,0.03611975401360545,-0.008772840939137284,0.13631544306569393,-0.028249291827303173, ,1.3590140342712402
0.015316766358110832,0.021837463900532688,-0.09351735051324496, ,0.01622913363141048,0.02121809947233116,-0.09455066227318669, ,0.0015112112789228095, ,0.021832028595806196,-0.008986188807298304,-0.035875164631738274,-0.15047066152331318,-0.04144808997075051,0.007364663603622021, ,0.04294667040927431, ,0.15607467673022, ,0.0008871930746835617, ,0.17895888889440456,-0.22585904563957002,0.1038717177,1.6112575257350852,0.17407490070117113,-1.3998806862140398, ,0.17222675418960212,0.18007009783391037,0.03611975401360545,-0.008772840939137284,0.13631544306569393,-0.028249291827303173, ,1.3645999431610107
0.015532048374553745,0.021749501528830824,-0.09387634227074172, ,0.016349655391390737,0.021175545560909177,-0.09476100996286321, ,0.0013343701182870979, ,0.021814192312867256,-0.00876986874996285,-0.037068514401875946,-0.1406341362076308,-0.024448222283850643,0.009266188374234107, ,0.04389583515683938, ,0.14274314642508323, ,0.0008925166109169371, ,0.1806424446609855,-0.22408281707849836,0.10423338261000001,1.6112575257350852,0.1754412656988255,-1.400259756589739, ,0.16976197058760426,0.1793893035131773,0.03739157633802818,-0.007725446596562326,0.15092622145795653,-0.0372044756677553, ,1.369978904724121
0.015532048374553745,0.021749501528830824,-0.09387634227074172, ,0.016470838429092072,0.021132536761051323,-0.09497141752047633, ,0.0015688091323556874, ,0.021814192312867256,-0.00876986874996285,-0.037068514401875946,-0.1406341362076308,-0.024448222283850643,0.009266188374234107, ,0.04389583515683938, ,0.14274314642508323, ,0.0009004729935220989, ,0.1806424446609855,-0.22408281707849836,0.10423338261000001,1.6112575257350852,0.1754412656988255,-1.400259756589739, ,0.16976197058760426,0.1793893035131773,0.03739157633802818,-0.007725446596562326,0.15092622145795653,-0.0372044756677553, ,1.3752720355987549
0.015754166032290174,0.02166446233617962,-0.09425967604133878, ,0.016592664106360056,0.02108910334072131,-0.09518186188214897, ,0.0013727868439289829, ,0.021949026865955918,-0.008033894254293092,-0.03815117371325015,-0.15155882048986316,-0.030090901457593654,0.006963423001819381, ,0.04474165053895762, ,0.15451685213905395, ,0.0009059650150384581, ,0.18234916862618913,-0.2222911430516783,0.10462097332,1.6112575257350852,0.1769442671962454,-1.4005052086487129, ,0.1667784561660295,0.17316960138407075,0.03866216388349515,-0.006868730740521391,0.14180498281344406,-0.019978428229598687, ,1.3806159496307373
0.015754166032290174,0.02166446233617962,-0.09425967604133878, ,0.016715113957898094,0.021045275274031765,-0.0953923202014202, ,0.0016092533445756791, ,0.021949026865955918,-0.008033894254293092,-0.03815117371325015,-0.15155882048986316,-0.030090901457593654,0.006963423001819381, ,0.04474165053895762, ,0.15451685213905395, ,0.0009140487889411847, ,0.18234916862618913,-0.2222911430516783,0.10462097332,1.6112575257350852,0.1769442671962454,-1.4005052086487129, ,0.1667784561660295,0.17316960138407075,0.03866216388349515,-0.006868730740521391,0.14180498281344406,-0.019978428229598687, ,1.385957956314087
0.01595836200888732,0.021591030215747816,-0.09462547832316051, ,0.016838169690669723,0.021001082242251824,-0.09560276984855047, ,0.0014412490742249876, ,0.023192174770797568,-0.007983695395666478,-0.04288700275405631,-0.1502553954419195,-0.007552024070281125,0.004083499663827464, ,0.04940558033255392, ,0.15044458062679786, ,0.0009200397012739552, ,0.18387826973528557,-0.22067709188096538,0.10499171226000001,1.6110478357916007,0.17831063219389978,-1.400720921544131, ,0.1716038726192962,0.18249411838167456,0.04352134295081967,0.0,0.16826005395868412,-0.0292344028859971, ,1.3915648460388184
0.01595836200888732,0.021591030215747816,-0.09462547832316051, ,0.01696181318329909,0.020956553634813652,-0.09581318840982433, ,0.0016793242811158455, ,0.023192174770797568,-0.007983695395666478,-0.04288700275405631,-0.1502553954419195,-0.007552024070281125,0.004083499663827464, ,0.04940558033255392, ,0.15044458062679786, ,0.0009285709886879091, ,0.18387826973528557,-0.22067709188096538,0.10499171226000001,1.6110478357916007,0.17831063219389978,-1.400720921544131, ,0.1716038726192962,0.18249411838167456,0.04352134295081967,0.0,0.16826005395868412,-0.0292344028859971, ,1.398339033126831
0.016287234212904286,0.02148874058155914,-0.09524356833038394, ,0.01708602648547379,0.020911718550319872,-0.09602355368685486, ,0.001256742087924691, ,0.022865993450688737,-0.007201875519616936,-0.04148809899510681,-0.15462247758520253,-0.010776688610516135,0.0040727403353890326, ,0.04791641707927233, ,0.15499717634000218, ,0.0009322173342349845, ,0.18629548512491784,-0.21819037189546509,0.10562170920000001,1.6110478357916007,0.18090672568944316,-1.4012042869115517, ,0.16795918859906334,0.16945882421155498,0.04236386042553192,0.0,0.16112662617808096,-0.011987561973974367, ,1.4037230014801025
0.016287234212904286,0.02148874058155914,-0.09524356833038394, ,0.017210791817346503,0.020866605797551147,-0.09623384369588765, ,0.0014901864439455972, ,0.022865993450688737,-0.007201875519616936,-0.04148809899510681,-0.15462247758520253,-0.010776688610516135,0.0040727403353890326, ,0.04791641707927233, ,0.15499717634000218, ,0.000938348862913123, ,0.18629548512491784,-0.21819037189546509,0.10562170920000001,1.6110478357916007,0.18090672568944316,-1.4012042869115517, ,0.16795918859906334,0.16945882421155498,0.04236386042553192,0.0,0.16112662617808096,-0.011987561973974367, ,1.4089980125427246
0.016515118179456677,0.021414782006430808,-0.09565511909158225, ,0.017336091568936677,0.020821243896473097,-0.0964440366671055, ,0.0012840076850143616, ,0.022233569462366085,-0.007448446176060424,-0.040149622347630094,-0.16991308693846283,-0.019521419519905134,0.00040550674390831616, ,0.0464951947638984, ,0.17103051950889478, ,0.0009421060240229191, ,0.1879558726928761,-0.21649137066313567,0.10604170716000001,1.6110478357916007,0.182409727186863,-1.4011230240099632, ,0.16111535069349878,0.16736673996202958,0.04094810159383034,0.0,0.14509753193481378,0.005410883843383604, ,1.4142649173736572
0.016515118179456677,0.021414782006430808,-0.09565511909158225, ,0.017461908299531415,0.020775661079242946,-0.09665411104393101, ,0.001517521667686559, ,0.022233569462366085,-0.007448446176060424,-0.040149622347630094,-0.16991308693846283,-0.019521419519905134,0.00040550674390831616, ,0.0464951947638984, ,0.17103051950889478, ,0.0009482932890085496, ,0.1879558726928761,-0.21649137066313567,0.10604170716000001,1.6110478357916007,0.182409727186863,-1.4011230240099632, ,0.16111535069349878,0.16736673996202958,0.04094810159383034,0.0,0.14509753193481378,0.005410883843383604, ,1.4195380210876465
0.016739302568881044,0.021337225859802255,-0.0960554276155735, ,0.017588224737089743,0.020729885291218327,-0.09686404548233206, ,0.001320376563092961, ,0.021175337450421758,-0.008042624146328182,-0.037353778101468116,-0.15669375237644853,-0.006509515507346758,0.0017843407723914413, ,0.043685048446259665, ,0.15682867436410894, ,0.0009522516217115752, ,0.18958536932933748,-0.2147923694308063,0.10645003851000001,1.6112575257350852,0.18391272868428285,-1.4011234398485155, ,0.15506036202364507,0.16561420865352666,0.03801625661097852,0.0,0.15216862523298919,-0.006015437558639744, ,1.424893856048584
0.016739302568881044,0.021337225859802255,-0.0960554276155735, ,0.017715023777641333,0.020683944191962404,-0.09707381885012521, ,0.001554326066619238, ,0.021175337450421758,-0.008042624146328182,-0.037353778101468116,-0.15669375237644853,-0.006509515507346758,0.0017843407723914413, ,0.043685048446259665, ,0.15682867436410894, ,0.0009585892474474453, ,0.18958536932933748,-0.2147923694308063,0.10645003851000001,1.6112575257350852,0.18391272868428285,-1.4011234398485155, ,0.15506036202364507,0.16561420865352666,0.03801625661097852,0.0,0.15216862523298919,-0.006015437558639744, ,1.4303958415985107
0.01696018346944087,0.02124872533354596,-0.09642967625808903, ,0.017842288484690664,0.020637865156252762,-0.09728341022627951, ,0.0013711750809337904, ,0.020689585656615238,-0.008605664681978608,-0.034505870858893076,-0.12599849364098886,0.016165740769307768,0.004553169933547365, ,0.04114330495951534, ,0.12703110901207967, ,0.0009628870165462614, ,0.1912303114315473,-0.21305475453410577,0.10683114777000001,1.6114672156785694,0.18555236668146813,-1.4013169523309048, ,0.15659561313279005,0.16389799923742793,0.03516293933774835,0.002387566340214017,0.17638911949665356,-0.03451031352055172, ,1.435741901397705
0.01696018346944087,0.02124872533354596,-0.09642967625808903, ,0.01797000208861796,0.020591675275087935,-0.09749279890022143, ,0.001606760148613041, ,0.020689585656615238,-0.008605664681978608,-0.034505870858893076,-0.12599849364098886,0.016165740769307768,0.004553169933547365, ,0.04114330495951534, ,0.12703110901207967, ,0.000969524883887156, ,0.1912303114315473,-0.21305475453410577,0.10683114777000001,1.6114672156785694,0.18555236668146813,-1.4013169523309048, ,0.15659561313279005,0.16389799923742793,0.03516293933774835,0.002387566340214017,0.17638911949665356,-0.03451031352055172, ,1.4412598609924316
0.017160407181197605,0.021166136261887375,-0.09675298840435789, ,0.01809814798608116,0.0205454013566946,-0.09770196437113789, ,0.001471470361643199, ,0.020285850074650495,-0.008057616881022585,-0.03266361873552001,-0.1330057380425113,0.006195061569992728,0.003285858643395991, ,0.03928553031272394, ,0.13314979518967726, ,0.0009746467765173198, ,0.192767135273518,-0.21150248522638665,0.10716170172000002,1.6114672156785694,0.18732864117841885,-1.4016218827169904, ,0.15380379507045505,0.15355492161564852,0.03346388974789917,0.002297005753712937,0.16328671254026858,-0.01732021599073793, ,1.4465749263763428
0.017378217092438315,0.021077457825395107,-0.09709845166507972, ,0.018226709739417292,0.020499069927534724,-0.09791088634728094, ,0.0013093977414109707, ,0.022688535514259568,-0.008698603038747199,-0.03679831590145354,-0.17000127395408185,-0.02439976269165632,-0.0037258523437781257, ,0.04409706783665653, ,0.17174316315624746, ,0.0009780280993950334, ,0.1944120773757278,-0.2098498203913026,0.10751558889000001,1.6114672156785694,0.18896827917560413,-1.401733716459239, ,0.1667784561660295,0.16795918859906334,0.03774599886255925,0.0021586223507935646,0.14523308016383182,0.0055679583235217975, ,1.452096939086914
0.017378217092438315,0.021077457825395107,-0.09709845166507972, ,0.018355671076045136,0.020452707233313067,-0.09811954474527186, ,0.001545432195468952, ,0.022688535514259568,-0.008698603038747199,-0.03679831590145354,-0.17000127395408185,-0.02439976269165632,-0.0037258523437781257, ,0.04409706783665653, ,0.17174316315624746, ,0.0009837021403557725, ,0.1944120773757278,-0.2098498203913026,0.10751558889000001,1.6114672156785694,0.18896827917560413,-1.401733716459239, ,0.1667784561660295,0.16795918859906334,0.03774599886255925,0.0021586223507935646,0.14523308016383182,0.0055679583235217975, ,1.4573760032653809
0.017615112019481013,0.020998606697091176,-0.09749748548432469, ,0.018485015887866007,0.02040633923998385,-0.09832791968940507, ,0.0013405724336816157, ,0.023160764083550098,-0.006710782265690404,-0.04024809424135418,-0.17881641643663107,-0.036378950615608883,-0.005224782379797239, ,0.04691870289780288, ,0.1824791309160796, ,0.0009872355095966224, ,0.19610335587518296,-0.20818943282334434,0.10792651282000001,1.6114672156785694,0.19033464417325854,-1.4014593569138136, ,0.161664295670308,0.1545552794111902,0.04158958621409923,0.0020339818654245656,0.12772752100434684,0.027565272220570057, ,1.4626379013061523
0.017615112019481013,0.020998606697091176,-0.09749748548432469, ,0.0186147282306671,0.020359991634758854,-0.09853599151095228, ,0.0015765647892952528, ,0.023160764083550098,-0.006710782265690404,-0.04024809424135418,-0.17881641643663107,-0.036378950615608883,-0.005224782379797239, ,0.04691870289780288, ,0.1824791309160796, ,0.0009930132476328834, ,0.19610335587518296,-0.20818943282334434,0.10792651282000001,1.6114672156785694,0.19033464417325854,-1.4014593569138136, ,0.161664295670308,0.1545552794111902,0.04158958621409923,0.0020339818654245656,0.12772752100434684,0.027565272220570057, ,1.4680030345916748
0.017791828291077307,0.02094915546439076,-0.09780839463113244, ,0.018744792323521185,0.020313689827113193,-0.09874374074746647, ,0.0014787932176722448, ,0.023734283717102095,-0.0067146613389763785,-0.041738556245521884,-0.16984618764010848,-0.03479264474148298,-0.005156691306218813, ,0.04848205830945749, ,0.17337280325960705, ,0.0009977295580216152, ,0.19732354766931046,-0.20702330015933643,0.10824799274,1.6114672156785694,0.19129109967161662,-1.4013408160981424, ,0.16361541648012204,0.1568544488569765,0.04316751089430895,0.0019512543582690754,0.13133264133555878,0.016358275222557735, ,1.4733638763427734
0.017791828291077307,0.02094915546439076,-0.09780839463113244, ,0.018875192548190808,0.020267458949794148,-0.09895114814208611, ,0.0017158886439396879, ,0.023734283717102095,-0.0067146613389763785,-0.041738556245521884,-0.16984618764010848,-0.03479264474148298,-0.005156691306218813, ,0.04848205830945749, ,0.17337280325960705, ,0.0010046349338477506, ,0.19732354766931046,-0.20702330015933643,0.10824799274,1.6114672156785694,0.19129109967161662,-1.4013408160981424, ,0.16361541648012204,0.1568544488569765,0.04316751089430895,0.0019512543582690754,0.13133264133555878,0.016358275222557735, ,1.4786579608917236
0.01807029241045393,0.02086839915259292,-0.09829569245286843, ,0.01900591344852814,0.02022132385982687,-0.0991581946428393, ,0.0014275864909349238, ,0.022940392804554764,-0.0067888445244067355,-0.04121121294651569,-0.13316726590940342,-0.011639509810243344,-0.001678738830821031, ,0.047652010498266464, ,0.13367453021094142, ,0.0010086630439152474, ,0.19924650815499234,-0.20517756700239678,0.10875224955000001,1.6114672156785694,0.1929307376688019,-1.4012892923601097, ,0.15659561313279005,0.1548074087413879,0.04259040513368984,0.001833319018825683,0.14780260186833713,-0.01828705257401539, ,1.483989953994751
0.01807029241045393,0.02086839915259292,-0.09829569245286843, ,0.01913693972987777,0.02017530913952247,-0.09936486140194768, ,0.001661695673680143, ,0.022940392804554764,-0.0067888445244067355,-0.04121121294651569,-0.13316726590940342,-0.011639509810243344,-0.001678738830821031, ,0.047652010498266464, ,0.13367453021094142, ,0.0010148237291017087, ,0.19924650815499234,-0.20517756700239678,0.10875224955000001,1.6114672156785694,0.1929307376688019,-1.4012892923601097, ,0.15659561313279005,0.1548074087413879,0.04259040513368984,0.001833319018825683,0.14780260186833713,-0.01828705257401539, ,1.4892148971557617
0.018322622465497703,0.020794197788203052,-0.09874938256457816, ,0.019268256258478594,0.020129439097484995,-0.09957112977513119, ,0.0014182368861950737, ,0.02385556499469335,-0.007100335689875343,-0.04289601009847284,-0.1417301917906507,-0.013609051768009677,-0.0026630807985459437, ,0.04959405640289207, ,0.14238155890291007, ,0.0010185939455231421, ,0.2009609548530702,-0.2034862885029416,0.10922150653000001,1.6114672156785694,0.1945703756659872,-1.4015644835826397, ,0.16084227382791658,0.16002856923856792,0.044369948523676886,0.0017391794465819125,0.1501002572651959,-0.01480756332360874, ,1.494480848312378
0.018322622465497703,0.020794197788203052,-0.09874938256457816, ,0.019399848060865327,0.02008373776961836,-0.0997769813209109, ,0.0016495840764686966, ,0.02385556499469335,-0.007100335689875343,-0.04289601009847284,-0.1417301917906507,-0.013609051768009677,-0.0026630807985459437, ,0.04959405640289207, ,0.14238155890291007, ,0.001024436446735601, ,0.2009609548530702,-0.2034862885029416,0.10922150653000001,1.6114672156785694,0.1945703756659872,-1.4015644835826397, ,0.16084227382791658,0.16002856923856792,0.044369948523676886,0.0017391794465819125,0.1501002572651959,-0.01480756332360874, ,1.4999489784240723
0.018602058120994813,0.020714228551238386,-0.0992335958143535, ,0.019531700323270666,0.020038228920133946,-0.09998239779991416, ,0.0013718289029923654, ,0.024814147713272592,-0.006883562155214646,-0.04197956550466613,-0.15533440618054134,-0.0248101936003786,-0.0025939568744372237, ,0.04924844438803493, ,0.15730287052796632, ,0.0010276235334902503, ,0.20286074714012942,-0.2016868917432473,0.10972446705000001,1.6114672156785694,0.19621001366317248,-1.4015129598446072, ,0.17006620350980425,0.15506036202364507,0.04376047120879121,0.00164834165378571,0.148046691996064,0.003704917733565599, ,1.5060770511627197
0.018602058120994813,0.020714228551238386,-0.0992335958143535, ,0.019663798391026298,0.019992936042557207,-0.10018736117417884, ,0.0015991321539162704, ,0.024814147713272592,-0.006883562155214646,-0.04197956550466613,-0.15533440618054134,-0.0248101936003786,-0.0025939568744372237, ,0.04924844438803493, ,0.15730287052796632, ,0.001032819066403214, ,0.20286074714012942,-0.2016868917432473,0.10972446705000001,1.6114672156785694,0.19621001366317248,-1.4015129598446072, ,0.17006620350980425,0.15506036202364507,0.04376047120879121,0.00164834165378571,0.148046691996064,0.003704917733565599, ,1.5114219188690186
0.018850991206534055,0.020640214574202696,-0.09963975398028554, ,0.019796127767966926,0.019947882360735743,-0.1003918536064569, ,0.0013922143733090453, ,0.023526241241251907,-0.007490257006912278,-0.03661896842024115,-0.17019430717456804,-0.025066459939997603,-0.002632832119070275, ,0.04416488226106574, ,0.17203012457817732, ,0.0010360568619609241, ,0.2045906393039557,-0.2001191769697797,0.11014835388000001,1.6114672156785694,0.19771301516059234,-1.4013500182028782, ,0.16648586238328208,0.14897479051565274,0.03829041230769231,0.0015755307907604633,0.14409826486619162,0.024562167783077224, ,1.5167369842529297
0.018850991206534055,0.020640214574202696,-0.09963975398028554, ,0.019928674115829114,0.019903090829845486,-0.10059585745951838, ,0.0016182971700163685, ,0.023526241241251907,-0.007490257006912278,-0.03661896842024115,-0.17019430717456804,-0.025066459939997603,-0.002632832119070275, ,0.04416488226106574, ,0.17203012457817732, ,0.0010412554361399907, ,0.2045906393039557,-0.2001191769697797,0.11014835388000001,1.6114672156785694,0.19771301516059234,-1.4013500182028782, ,0.16648586238328208,0.14897479051565274,0.03829041230769231,0.0015755307907604633,0.14409826486619162,0.024562167783077224, ,1.52205491065979
0.01908604633607817,0.020558080112909688,-0.09998528098332317, ,0.020061423253655397,0.01985858413739836,-0.10079935529545626, ,0.001450300567735519, ,0.023780229009872818,-0.009530413464342719,-0.033446691423095073,-0.1874046825796355,-0.03138069132350299,-0.005326859866558854, ,0.04213085852098273, ,0.1900137389346748, ,0.00104487530456119, ,0.20628191780341087,-0.19860552132643172,0.11051001879000001,1.6114672156785694,0.19907938015824675,-1.4009939799173123, ,0.1741228285476528,0.16138935639195712,0.034931604210526324,0.001509395117077648,0.14541929731413064,0.029655583066602514, ,1.5273308753967285
0.01908604633607817,0.020558080112909688,-0.09998528098332317, ,0.020194361157195057,0.019814384704249503,-0.10100232987498994, ,0.001678044412883702, ,0.023780229009872818,-0.009530413464342719,-0.033446691423095073,-0.1874046825796355,-0.03138069132350299,-0.005326859866558854, ,0.04213085852098273, ,0.1900137389346748, ,0.0010504294195464751, ,0.20628191780341087,-0.19860552132643172,0.11051001879000001,1.6114672156785694,0.19907938015824675,-1.4009939799173123, ,0.1741228285476528,0.16138935639195712,0.034931604210526324,0.001509395117077648,0.14541929731413064,0.029655583066602514, ,1.5326449871063232
0.019323784369094363,0.020467447603803045,-0.10033370938720053, ,0.020327473958305444,0.019770514685603834,-0.10120476415676978, ,0.0015006147725348169, ,0.024188672327272273,-0.008624545907211852,-0.03617075632853454,-0.13900986381052607,0.004418224984779704,0.0026187051465634452, ,0.04435987234472134, ,0.13907983690947917, ,0.001054344074789852, ,0.20800408723436295,-0.19701463835434146,0.11087427628000002,1.6114672156785694,0.20071901815543203,-1.4009424561792798, ,0.17444290727660072,0.1571141416530973,0.03792574171428572,0.001449169170351275,0.18225167060375194,-0.014534809479471389, ,1.5379729270935059
0.019323784369094363,0.020467447603803045,-0.10033370938720053, ,0.020460747944357788,0.019726995972024992,-0.10140664129668087, ,0.0017297796602052224, ,0.024188672327272273,-0.008624545907211852,-0.03617075632853454,-0.13900986381052607,0.004418224984779704,0.0026187051465634452, ,0.04435987234472134, ,0.13907983690947917, ,0.0010601667953537776, ,0.20800408723436295,-0.19701463835434146,0.11087427628000002,1.6114672156785694,0.20071901815543203,-1.4009424561792798, ,0.17444290727660072,0.1571141416530973,0.03792574171428572,0.001449169170351275,0.18225167060375194,-0.014534809479471389, ,1.543752908706665
0.01958765209350924,0.020376317241144165,-0.10072837108116935, ,0.020594169557631672,0.01968385019043962,-0.10160794464714762, ,0.0015054028297643914, ,0.024443860129721294,-0.008530589904626355,-0.03585839698239117,-0.15110172806838168,-0.00023112956766264397,0.003283251303089492, ,0.044227795517175074, ,0.15110170865952252, ,0.0010639722315453214, ,0.20990387952142217,-0.19533108258776052,0.11128908908000001,1.6116769056220543,0.20276856565191362,-1.401143507412196, ,0.17573507696013105,0.1545552794111902,0.03774599886255925,0.0,0.1790558786698626,-0.00013943756239515048, ,1.5491628646850586
0.01958765209350924,0.020376317241144165,-0.10072837108116935, ,0.02072772539472457,0.019641098705147353,-0.10180865775643748, ,0.0017341662920778958, ,0.024443860129721294,-0.008530589904626355,-0.03585839698239117,-0.15110172806838168,-0.00023112956766264397,0.003283251303089492, ,0.044227795517175074, ,0.15110170865952252, ,0.0010696518422278008, ,0.20990387952142217,-0.19533108258776052,0.11128908908000001,1.6116769056220543,0.20276856565191362,-1.401143507412196, ,0.17573507696013105,0.1545552794111902,0.03774599886255925,0.0,0.1790558786698626,-0.00013943756239515048, ,1.5545740127563477
0.01984861549711043,0.02028457801779726,-0.1011127604253064, ,0.020861402205947243,0.01959876261882581,-0.10200876436796516, ,0.0015162132911707789, ,0.02467009568780063,-0.00842210851133184,-0.036619642233303946,-0.13815700029216438,-0.016925714810075435,-0.0009565583172251363, ,0.044950458621876875, ,0.13918969322234787, ,0.001073404459445809, ,0.21175733541123606,-0.19367841775267647,0.11169353156000002,1.6116769056220543,0.20454484014886434,-1.4012034015778598, ,0.17316960138407075,0.15380379507045505,0.038568550895883784,0.0,0.15935629323644543,-0.012285235021571694, ,1.5598719120025635
0.02008349821617183,0.02020413112044446,-0.10145192013196415, ,0.02099518689473322,0.01955686277354006,-0.1022082484195974, ,0.0013498759343716067, ,0.024438059582628825,-0.008472033781818095,-0.03434976665830861,-0.16102356700643103,-0.06877821225400219,-0.011566608428044578, ,0.04299884396172336, ,0.1750970696251021, ,0.0010757083884035238, ,0.21339455478057165,-0.1922342667051965,0.11205130760000001,1.6116769056220543,0.2057745686467533,-1.4011443390893001, ,0.16945882421155498,0.14897479051565274,0.03628430870159454,0.0,0.10265215549039548,0.01537817083230205, ,1.5651779174804688
0.02008349821617183,0.02020413112044446,-0.10145192013196415, ,0.021129066517031576,0.019515419751747216,-0.10240709404295592, ,0.0015747677991929119, ,0.024438059582628825,-0.008472033781818095,-0.03434976665830861,-0.16102356700643103,-0.06877821225400219,-0.011566608428044578, ,0.04299884396172336, ,0.1750970696251021, ,0.001079832846343932, ,0.21339455478057165,-0.1922342667051965,0.11205130760000001,1.6116769056220543,0.2057745686467533,-1.4011443390893001, ,0.16945882421155498,0.14897479051565274,0.03628430870159454,0.0,0.10265215549039548,0.01537817083230205, ,1.5704100131988525
0.020343293833657967,0.020112302991464295,-0.10183178715034233, ,0.021263028280716145,0.019474453877305523,-0.10260528556272265, ,0.0013605376655915922, ,0.02647868179027774,-0.008743984177907945,-0.04035841473705303,-0.10836543922630679,-0.009835640201880727,-0.0005704996951914142, ,0.049054862029591625, ,0.10881039089272451, ,0.0010821337055180933, ,0.21519395154026597,-0.19061249280160936,0.11245186121000002,1.6116769056220543,0.20727757014417317,-1.4013897911482742, ,0.18110103350853202,0.1619401733079706,0.04259040513368984,0.0,0.17458471377912235,-0.04992678249683492, ,1.575683832168579
0.020343293833657967,0.020112302991464295,-0.10183178715034233, ,0.021397059544982184,0.019433985216480393,-0.10280280749594344, ,0.0015853761981917838, ,0.02647868179027774,-0.008743984177907945,-0.04035841473705303,-0.10836543922630679,-0.009835640201880727,-0.0005704996951914142, ,0.049054862029591625, ,0.10881039089272451, ,0.0010862251078975543, ,0.21519395154026597,-0.19061249280160936,0.11245186121000002,1.6116769056220543,0.20727757014417317,-1.4013897911482742, ,0.18110103350853202,0.1619401733079706,0.04259040513368984,0.0,0.17458471377912235,-0.04992678249683492, ,1.5810019969940186
0.020600440961547176,0.020035200987572846,-0.10222617872472567, ,0.021531147819754005,0.019394033578952696,-0.10299964455133215, ,0.001369510966264216, ,0.026113237067197245,-0.007534382784674519,-0.039626454682694184,-0.1511695783651216,-0.04367608505882821,-0.006339578760875528, ,0.04805126413314493, ,0.1573522930308347, ,0.001088509671271479, ,0.21692384370409226,-0.18911428262400978,0.11286926659000002,1.6116769056220543,0.208780571641593,-1.4015535644671075, ,0.1741228285476528,0.1480451506372399,0.04202852643799473,0.0,0.1329238048097203,0.006525510406754136, ,1.586338996887207
0.020600440961547176,0.020035200987572846,-0.10222617872472567, ,0.021665280765079373,0.01935461851882453,-0.10319578162857487, ,0.0015928609779597373, ,0.026113237067197245,-0.007534382784674519,-0.039626454682694184,-0.1511695783651216,-0.04367608505882821,-0.006339578760875528, ,0.04805126413314493, ,0.1573522930308347, ,0.0010925444817249852, ,0.21692384370409226,-0.18911428262400978,0.11286926659000002,1.6116769056220543,0.208780571641593,-1.4015535644671075, ,0.1741228285476528,0.1480451506372399,0.04202852643799473,0.0,0.1329238048097203,0.006525510406754136, ,1.5917279720306396
0.02086363460262676,0.01996006459940168,-0.10261839648825383, ,0.02179944619053877,0.01931575933562772,-0.10339120381763436, ,0.0013740828829956033, ,0.027189371152357613,-0.0075632808950478496,-0.040244198000469786,-0.14017535870791092,-0.02436852881731364,-0.0012342316867828963, ,0.04915343929227199, ,0.14227737283728123, ,0.0010947789134811011, ,0.2187000722651639,-0.18764696337790715,0.11328667197000002,1.6116769056220543,0.21028357313901283,-1.4015539803056598, ,0.18390880146990463,0.14874128770920184,0.04293480194070081,0.0,0.16252850769651156,-0.005111552514569934, ,1.5970909595489502
0.02086363460262676,0.01996006459940168,-0.10261839648825383, ,0.02193363205464541,0.019277475075330387,-0.10358589639805331, ,0.0015958944454945285, ,0.027189371152357613,-0.0075632808950478496,-0.040244198000469786,-0.14017535870791092,-0.02436852881731364,-0.0012342316867828963, ,0.04915343929227199, ,0.14227737283728123, ,0.0010987247050717578, ,0.2187000722651639,-0.18764696337790715,0.11328667197000002,1.6116769056220543,0.21028357313901283,-1.4015539803056598, ,0.18390880146990463,0.14874128770920184,0.04293480194070081,0.0,0.16252850769651156,-0.005111552514569934, ,1.6023759841918945
0.02113876856041262,0.019882801347820674,-0.1030344359854935, ,0.022067826464239753,0.01923978453134362,-0.10377984483825989, ,0.0013536076140146561, ,0.026513190486851943,-0.007592579040240902,-0.04113034793165862,-0.13193418401636073,0.012290928429835861,0.003873726003509274, ,0.049520723412059486, ,0.13250501169435597, ,0.0011007159777978743, ,0.22054580542210356,-0.1861255850016849,0.11373000315000001,1.6116769056220543,0.21205984763596358,-1.4015321957311833, ,0.17671683716661224,0.14920902760765847,0.04376047120879121,0.0,0.192494942137174,-0.013770667413775278, ,1.6076769828796387
0.02113876856041262,0.019882801347820674,-0.1030344359854935, ,0.022202017675321775,0.019202706245515434,-0.10397303479457162, ,0.0015728940692041353, ,0.026513190486851943,-0.007592579040240902,-0.04113034793165862,-0.13193418401636073,0.012290928429835861,0.003873726003509274, ,0.049520723412059486, ,0.13250501169435597, ,0.0011043762730800933, ,0.22054580542210356,-0.1861255850016849,0.11373000315000001,1.6116769056220543,0.21205984763596358,-1.4015321957311833, ,0.17671683716661224,0.14920902760765847,0.04376047120879121,0.0,0.192494942137174,-0.013770667413775278, ,1.6130008697509766
0.021399799684732424,0.019807977735778384,-0.10344128393175908, ,0.02233619408667144,0.019166258509138914,-0.10416545211166278, ,0.0013464982712972663, ,0.02668925040454397,-0.007595378058924225,-0.04077133386474514,-0.14275453739819793,0.020017608403892485,0.00543689397870574, ,0.04931842982217654, ,0.14415078887306232, ,0.0011062387499894562, ,0.22227569758592983,-0.18465826575558225,0.11416296401,1.6116769056220543,0.21397275863267975,-1.401621829060403, ,0.17837770969637368,0.14758466805360929,0.04352134295081967,0.0,0.2019958264097368,-0.0013165237450363382, ,1.6183578968048096
0.021399799684732424,0.019807977735778384,-0.10344128393175908, ,0.02247034424806304,0.019130459364042843,-0.10435708282017682, ,0.0015632608260117945, ,0.02668925040454397,-0.007595378058924225,-0.04077133386474514,-0.14275453739819793,0.020017608403892485,0.00543689397870574, ,0.04931842982217654, ,0.14415078887306232, ,0.0011097274681270313, ,0.22227569758592983,-0.18465826575558225,0.11416296401,1.6116769056220543,0.21397275863267975,-1.401621829060403, ,0.17837770969637368,0.14758466805360929,0.04352134295081967,0.0,0.2019958264097368,-0.0013165237450363382, ,1.6242048740386963
0.021668283031449073,0.019727993505214963,-0.1038386629740434, ,0.02260445685369227,0.01909532660348414,-0.10454791313712213, ,0.0013340632023357507, ,0.02509659860429691,-0.008013068484907983,-0.03589930001568654,-0.15656110122570427,0.017393884210172877,0.004328416287830681, ,0.0445287353252402, ,0.15752417592139537, ,0.0011114269812649762, ,0.22409053981137259,-0.18316777831085693,0.11458814713000001,1.6116769056220543,0.21602230612916135,-1.4014961653327571, ,0.1716038726192962,0.14163722620667282,0.03847539014492755,0.0,0.19237011882101043,0.018350800082839278, ,1.6297659873962402
0.021668283031449073,0.019727993505214963,-0.1038386629740434, ,0.022738520743097495,0.01906087777319911,-0.10473792946491238, ,0.0015489132903223825, ,0.02509659860429691,-0.008013068484907983,-0.03589930001568654,-0.15656110122570427,0.017393884210172877,0.004328416287830681, ,0.0445287353252402, ,0.15752417592139537, ,0.0011147163520097687, ,0.22581270924232466,-0.18174679546199962,0.11497314526,1.6116769056220543,0.21807185362564296,-1.4014521803452515, ,0.17067795244329276,0.141426142412028,0.03756795169811321,0.0,0.18554171215397758,0.01777789575384936, ,1.635045051574707
0.02191946267900255,0.01964686293720499,-0.10419754644693781, ,0.022872524900561526,0.01902713017241057,-0.1049271183906708, ,0.0013508040268688133, ,0.024990932556583058,-0.008265522051659466,-0.03498472083662576,-0.1557256132903211,0.011657680803961875,0.002619132915364117, ,0.04378123178772827, ,0.156161185155083, ,0.0011164782003296124, ,0.22581270924232466,-0.18174679546199962,0.11497314526,1.6116769056220543,0.21807185362564296,-1.4014521803452515, ,0.17067795244329276,0.141426142412028,0.03756795169811321,0.0,0.18554171215397758,0.01777789575384936, ,1.6403348445892334
0.022164075083476314,0.019566339018770043,-0.10452939571758851, ,0.02300645845451362,0.018994100854835095,-0.10511546668553512, ,0.001174966143994664, ,0.025190106533421578,-0.00803513954966376,-0.03413561758190308,-0.13782223975984648,0.003732499186682463,0.0020262036091934226, ,0.0431780652929891, ,0.13787260414514615, ,0.0011169114443567612, ,0.2274962650089056,-0.1803875944761361,0.11533092130000001,1.6116769056220543,0.2198481281225937,-1.4013487170306342, ,0.17253989374267414,0.1371343086105069,0.036872248888888896,0.0,0.17932920279372597,0.004111052181863126, ,1.645730972290039
0.022164075083476314,0.019566339018770043,-0.10452939571758851, ,0.0231403106769313,0.01896180662968992,-0.10530296130396032, ,0.00138452123847707, ,0.025190106533421578,-0.00803513954966376,-0.03413561758190308,-0.13782223975984648,0.003732499186682463,0.0020262036091934226, ,0.0431780652929891, ,0.13787260414514615, ,0.0011188791634311752, ,0.2274962650089056,-0.1803875944761361,0.11533092130000001,1.6116769056220543,0.2198481281225937,-1.4013487170306342, ,0.17253989374267414,0.1371343086105069,0.036872248888888896,0.0,0.17932920279372597,0.004111052181863126, ,1.651244878768921
0.02241720947373915,0.019485519137013716,-0.1048630070204903, ,0.02327407098274223,0.018930264062700382,-0.10548958938302391, ,0.0011979671532224695, ,0.02435129635812707,-0.00787536033432106,-0.03152067780473057,-0.13381175698472575,0.0032065991958490875,0.0023002184645566077, ,0.04060246376744107, ,0.13385005592144414, ,0.0011194564480281918, ,0.22924160263848034,-0.17902839349027258,0.11569258621000002,1.6116769056220543,0.22162440261954441,-1.401245253716017, ,0.16885576789763485,0.1303529417011961,0.034255508645161296,0.0,0.17500279569954905,0.006758372828607001, ,1.6565299034118652
0.02241720947373915,0.019485519137013716,-0.1048630070204903, ,0.023407728929226226,0.01889948947710715,-0.10567533824172959, ,0.0014087020859602421, ,0.02435129635812707,-0.00787536033432106,-0.03152067780473057,-0.13381175698472575,0.0032065991958490875,0.0023002184645566077, ,0.04060246376744107, ,0.13385005592144414, ,0.0011215524309117575, ,0.22924160263848034,-0.17902839349027258,0.11569258621000002,1.6116769056220543,0.22162440261954441,-1.401245253716017, ,0.16885576789763485,0.1303529417011961,0.034255508645161296,0.0,0.17500279569954905,0.006758372828607001, ,1.6619219779968262
0.022664454986474885,0.01940279931759729,-0.1051801872691968, ,0.023541274215416897,0.018869498954673016,-0.10586019538031138, ,0.001231110177246234, ,0.024204955203456884,-0.008210074297536743,-0.031262671116036866,-0.12861488272940858,0.003938921985895586,-0.0009826302197222048, ,0.04038118103376762, ,0.1286750686928843, ,0.0011223406161371852, ,0.2309560493365582,-0.17768463797015752,0.11603739935000001,1.6118865955655386,0.22340067711649514,-1.4012234691415404, ,0.1667784561660295,0.13216844228199273,0.033963350788912584,0.0022230117306865607,0.17319520969371133,0.0003806933112291272, ,1.6672959327697754
0.022664454986474885,0.01940279931759729,-0.1051801872691968, ,0.023674696681503897,0.018840308336690488,-0.10604414847953822, ,0.0014434033943950672, ,0.024204955203456884,-0.008210074297536743,-0.031262671116036866,-0.12861488272940858,0.003938921985895586,-0.0009826302197222048, ,0.04038118103376762, ,0.1286750686928843, ,0.00112463392169617, ,0.2309560493365582,-0.17768463797015752,0.11603739935000001,1.6118865955655386,0.22340067711649514,-1.4012234691415404, ,0.1667784561660295,0.13216844228199273,0.033963350788912584,0.0022230117306865607,0.17319520969371133,0.0003806933112291272, ,1.6726288795471191
0.022918663528636335,0.019324940299899344,-0.10552139117122468, ,0.023807986308234396,0.018811933224988704,-0.10622718540001774, ,0.0012458799134017642, ,0.02480496628095471,-0.007078037891141561,-0.03389871990653303,-0.1192853539666493,0.00476275049155447,-2.373081439010008e-06, ,0.042597044309309946, ,0.1193802106735916, ,0.0011254938223465645, ,0.23267049603463602,-0.1763563279157909,0.11640813829000002,1.6118865955655386,0.22517695161344586,-1.4012016845670638, ,0.16532568215761462,0.1255250549715222,0.036872248888888896,0.0022230117306865607,0.17251833399908056,-0.002430018848280424, ,1.6779730319976807
0.022918663528636335,0.019324940299899344,-0.10552139117122468, ,0.023941133216315337,0.018784388982940704,-0.10640929418150043, ,0.0014580849577939042, ,0.02480496628095471,-0.007078037891141561,-0.03389871990653303,-0.1192853539666493,0.00476275049155447,-2.373081439010008e-06, ,0.042597044309309946, ,0.1193802106735916, ,0.001127836013441264, ,0.23267049603463602,-0.1763563279157909,0.11640813829000002,1.6118865955655386,0.22517695161344586,-1.4012016845670638, ,0.16532568215761462,0.1255250549715222,0.036872248888888896,0.0022230117306865607,0.17251833399908056,-0.002430018848280424, ,1.6832749843597412
0.023159255885522537,0.019264105591240137,-0.1058646521665054, ,0.02407412766581518,0.018757690736470524,-0.10659046304218389, ,0.0012728895501025784, ,0.025459577809400658,-0.005845603833300616,-0.03634082381253864,-0.10129619422416207,0.007797756397869773,0.001952132245169956, ,0.04475507414565192, ,0.10159557365351357, ,0.0011288503738374968, ,0.23424593354097784,-0.175190195251783,0.11678146981000001,1.6118865955655386,0.2269532261103966,-1.4013432574728681, ,0.1650381592321231,0.11773814089140294,0.03962390925373134,0.0022230117306865607,0.17527966674332363,-0.012800077585853206, ,1.6885998249053955
0.023159255885522537,0.019264105591240137,-0.1058646521665054, ,0.024206960055565645,0.018731853375060566,-0.10677068037801712, ,0.0014838677736270585, ,0.025459577809400658,-0.005845603833300616,-0.03634082381253864,-0.10129619422416207,0.007797756397869773,0.001952132245169956, ,0.04475507414565192, ,0.10159557365351357, ,0.0011313157724471465, ,0.23424593354097784,-0.175190195251783,0.11678146981000001,1.6118865955655386,0.2269532261103966,-1.4013432574728681, ,0.1650381592321231,0.11773814089140294,0.03962390925373134,0.0022230117306865607,0.17527966674332363,-0.012800077585853206, ,1.6940150260925293
0.023405095951221897,0.019210289204526644,-0.10621772658590611, ,0.024339620922563872,0.018706891552758502,-0.1069499347620043, ,0.0012895250796368543, ,0.02578388597928737,-0.005396520306200503,-0.03755388832778363,-0.11673072577510203,-0.006284494397862869,-0.0007350948539628958, ,0.04587184033962197, ,0.11689945473670546, ,0.0011324068711174205, ,0.2358136483144454,-0.17407812171789466,0.11716646794,1.6118865955655386,0.22845622760781642,-1.4013436733114204, ,0.16277348466290012,0.11488733844851184,0.04094810159383034,0.0021815684349249438,0.1586397115488022,0.005447180931428083, ,1.6995329856872559
0.023405095951221897,0.019210289204526644,-0.10621772658590611, ,0.024472100941374097,0.01868281968918459,-0.10712821494350958, ,0.0014985702479217732, ,0.02578388597928737,-0.005396520306200503,-0.03755388832778363,-0.11673072577510203,-0.006284494397862869,-0.0007350948539628958, ,0.04587184033962197, ,0.11689945473670546, ,0.0011349148394516968, ,0.2358136483144454,-0.17407812171789466,0.11716646794,1.6118865955655386,0.22845622760781642,-1.4013436733114204, ,0.16277348466290012,0.11488733844851184,0.04094810159383034,0.0021815684349249438,0.1586397115488022,0.005447180931428083, ,1.7048189640045166
0.023679774762918767,0.019153570975044,-0.10661760685693614, ,0.024604390923529795,0.01865965197053897,-0.1073055098475605, ,0.0012538267631472296, ,0.025525353296891942,-0.005073609950174704,-0.03669671622550001,-0.13772059862806238,-0.026819922500348585,-0.004291905183955926, ,0.04498815578118912, ,0.14030753715051036, ,0.0011357237641026869, ,0.23744314495090676,-0.17294287998538366,0.11757479929000002,1.6118865955655386,0.23023250210476714,-1.4014035674770844, ,0.15922305630615904,0.10996169357876104,0.04032610511392406,0.0021108450327175098,0.14542408403696805,0.02074587048313395, ,1.710127830505371
0.023679774762918767,0.019153570975044,-0.10661760685693614, ,0.024736481816935225,0.018637402350608522,-0.10748180857415272, ,0.0014594192183536065, ,0.025525353296891942,-0.005073609950174704,-0.03669671622550001,-0.13772059862806238,-0.026819922500348585,-0.004291905183955926, ,0.04498815578118912, ,0.14030753715051036, ,0.0011379108955503281, ,0.23917303711473306,-0.1717921927871242,0.11799350096000001,1.6120962855090233,0.23146223060265614,-1.400936111287822, ,0.15922305630615904,0.10462727845476381,0.03783565681710214,0.0019790437134854875,0.11058138814175379,0.03448770932828652, ,1.715390920639038
0.023937813672089442,0.019103478878118568,-0.10697262748618748, ,0.0248683647052676,0.01861608455177432,-0.10765710039755369, ,0.001253786912156783, ,0.02533116198911244,-0.004994451196741286,-0.03435131487082346,-0.13571324517831143,-0.0500109909207242,-0.00739131209232871, ,0.042972376520617785, ,0.14463449207533455, ,0.0011386885869369486, ,0.23917303711473306,-0.1717921927871242,0.11799350096000001,1.6120962855090233,0.23146223060265614,-1.400936111287822, ,0.15922305630615904,0.10462727845476381,0.03783565681710214,0.0019790437134854875,0.11058138814175379,0.03448770932828652, ,1.7211449146270752
0.023937813672089442,0.019103478878118568,-0.10697262748618748, ,0.025000030807378917,0.018595712066018743,-0.10783137476560754, ,0.0014572505851376274, ,0.02533116198911244,-0.004994451196741286,-0.03435131487082346,-0.13571324517831143,-0.0500109909207242,-0.00739131209232871, ,0.042972376520617785, ,0.14463449207533455, ,0.0011408123335916198, ,0.23917303711473306,-0.1717921927871242,0.11799350096000001,1.6120962855090233,0.23146223060265614,-1.400936111287822, ,0.15922305630615904,0.10462727845476381,0.03783565681710214,0.0019790437134854875,0.11058138814175379,0.03448770932828652, ,1.7266359329223633
0.024424830915049087,0.01900449692440089,-0.10761464614339775, ,0.025131471476697757,0.018576298155932487,-0.10800462129903834, ,0.0009136605992938034, ,0.023413360676064685,-0.004505823956105516,-0.02960672241630025,-0.06157632481470978,0.004747035240234593,0.00435355210958259, ,0.03801375961289231, ,0.06175884853862313, ,0.001139308017470442, ,0.24232391212741666,-0.16979200497270008,0.11870516417000002,1.6120962855090233,0.2344682335974958,-1.4013453366656292, ,0.1545552794111902,0.09159936443867836,0.03311603226611227,0.001926253884689611,0.16144286781201642,-0.02696122546388042, ,1.73698091506958
0.024424830915049087,0.01900449692440089,-0.10761464614339775, ,0.025262678200631335,0.018557855855722016,-0.10817682979075505, ,0.001103415955813629, ,0.023413360676064685,-0.004505823956105516,-0.02960672241630025,-0.06157632481470978,0.004747035240234593,0.00435355210958259, ,0.03801375961289231, ,0.06175884853862313, ,0.0011390718854858578, ,0.24232391212741666,-0.16979200497270008,0.11870516417000002,1.6120962855090233,0.2344682335974958,-1.4013453366656292, ,0.1545552794111902,0.09159936443867836,0.03311603226611227,0.001926253884689611,0.16144286781201642,-0.02696122546388042, ,1.742279052734375
0.02464668497724329,0.018961135304540074,-0.1078859363510217, ,0.025393642599967164,0.018540397972216537,-0.10834799020515508, ,0.0009738887806497929, ,0.02186204653216202,-0.004512777162144009,-0.025257429619371403,-0.112116265116511,-0.027807571786672036,-0.0015084083277764747, ,0.033708337058761674, ,0.11551323592328115, ,0.0011379922573496743, ,0.24379123137351932,-0.16893478162366116,0.11900979232000002,1.6120962855090233,0.2358345985951502,-1.401234334600485, ,0.1462202489344696,0.08420314246536893,0.028546257204301078,0.0018683702867749094,0.11989731210633953,0.030789959022423832, ,1.7475879192352295
0.02464668497724329,0.018961135304540074,-0.1078859363510217, ,0.025524356428275254,0.01852393708587518,-0.10851809267742853, ,0.0011666495100828215, ,0.02186204653216202,-0.004512777162144009,-0.025257429619371403,-0.112116265116511,-0.027807571786672036,-0.0015084083277764747, ,0.033708337058761674, ,0.11551323592328115, ,0.0011381783434063833, ,0.24379123137351932,-0.16893478162366116,0.11900979232000002,1.6120962855090233,0.2358345985951502,-1.401234334600485, ,0.1462202489344696,0.08420314246536893,0.028546257204301078,0.0018683702867749094,0.11989731210633953,0.030789959022423832, ,1.7528319358825684
0.02487823122710482,0.018912311729939575,-0.10815185857643882, ,0.025654811571309777,0.01850848555179429,-0.1086871275128632, ,0.0010259948574246414, ,0.02209499631550752,-0.004656586153655865,-0.02503834106653485,-0.10675813733728465,-0.030568437684682117,-0.0020145829045683846, ,0.03371633402600045, ,0.1110482752205944, ,0.0011374545789806945, ,0.24533577794836423,-0.1680389446102511,0.1193105316,1.6120962855090233,0.23706432709303918,-1.400930235891504, ,0.14781455071412894,0.0848051309727174,0.028393603422459897,0.0018106120046230607,0.11870800331550613,0.024862636616447463, ,1.7580819129943848
0.02487823122710482,0.018912311729939575,-0.10815185857643882, ,0.025785000046410975,0.018494055500714483,-0.10885508518614724, ,0.0012213499210109574, ,0.02209499631550752,-0.004656586153655865,-0.02503834106653485,-0.10675813733728465,-0.030568437684682117,-0.0020145829045683846, ,0.03371633402600045, ,0.1110482752205944, ,0.0011379923696347345, ,0.24533577794836423,-0.1680389446102511,0.1193105316,1.6120962855090233,0.23706432709303918,-1.400930235891504, ,0.14781455071412894,0.0848051309727174,0.028393603422459897,0.0018106120046230607,0.11870800331550613,0.024862636616447463, ,1.7633728981018066
0.025090034383811497,0.018871322160794672,-0.10840010505459685, ,0.025914914001907145,0.018480658840027937,-0.1090219563406747, ,0.0011044198642449301, ,0.02128054283282738,-0.0038838259470926617,-0.02543315615970749,-0.07573324816272663,0.0023456326100728462,0.0049107497648510304, ,0.03338848663074111, ,0.07576949404712163, ,0.0011377785320207867, ,0.2467490380643473,-0.167243503124206,0.11959182653000001,1.6123059754525078,0.23843069209069356,-1.4009009125665002, ,0.14121568684296246,0.07804024799216347,0.028804360795660042,0.0010209166099755438,0.14554571719166,0.0002466113543430973, ,1.7687430381774902
0.025090034383811497,0.018871322160794672,-0.10840010505459685, ,0.026044545716516508,0.01846830725478538,-0.10918773178784907, ,0.0013014871377242045, ,0.02128054283282738,-0.0038838259470926617,-0.02543315615970749,-0.07573324816272663,0.0023456326100728462,0.0049107497648510304, ,0.03338848663074111, ,0.07576949404712163, ,0.001138814662436631, ,0.2467490380643473,-0.167243503124206,0.11959182653000001,1.6123059754525078,0.23843069209069356,-1.4009009125665002, ,0.14121568684296246,0.07804024799216347,0.028804360795660042,0.0010209166099755438,0.14554571719166,0.0002466113543430973, ,1.7742419242858887
0.02529493591653871,0.018841297626283775,-0.10865422360238648, ,0.026173887598749043,0.018457012208703563,-0.10935240250638686, ,0.0011864590695916763, ,0.02213768956538098,-0.002676381895248939,-0.028133465608874114,-0.032786092732932606,0.020478261461863625,0.005527490500256612, ,0.035898916508832084, ,0.03865578151737086, ,0.0011391143127960968, ,0.24809279358446237,-0.16654073443265155,0.11987960291000001,1.6125156653959922,0.23993369358811342,-1.401146364625474, ,0.14356572096591644,0.07145854033017378,0.031857623040000005,0.005614332749200016,0.16556580350838565,-0.0351653867744015, ,1.7795519828796387
0.02529493591653871,0.018841297626283775,-0.10865422360238648, ,0.026302932186308466,0.01844678494517215,-0.10951595964162335, ,0.0013835771524375738, ,0.02213768956538098,-0.002676381895248939,-0.028133465608874114,-0.032786092732932606,0.020478261461863625,0.005527490500256612, ,0.035898916508832084, ,0.03865578151737086, ,0.0011406422055438561, ,0.24809279358446237,-0.16654073443265155,0.11987960291000001,1.6125156653959922,0.23993369358811342,-1.401146364625474, ,0.14356572096591644,0.07145854033017378,0.031857623040000005,0.005614332749200016,0.16556580350838565,-0.0351653867744015, ,1.784881830215454
0.02553400906469491,0.018816373720071264,-0.10896370019670383, ,0.02643167214549411,0.018437636488261005,-0.10967839450481498, ,0.00120831653610951, ,0.022829939847526546,-0.0018248657933721817,-0.03119435131492517,-0.03522937539558656,0.004744041551338437,0.0028192928901821014, ,0.03869914524333159, ,0.03554694477858577, ,0.0011410625430007856, ,0.2496141719606846,-0.165799352076726,0.12022960121000001,1.6125156653959922,0.2415733315852987,-1.4015032345881442, ,0.1403800910628266,0.06817309020005086,0.03508548792951543,0.005614332749200016,0.14634355373711652,-0.029510259112656055, ,1.7902169227600098
0.02553400906469491,0.018816373720071264,-0.10896370019670383, ,0.02656010027060265,0.01842957764372734,-0.10983969857244459, ,0.0014035125656069877, ,0.022829939847526546,-0.0018248657933721817,-0.03119435131492517,-0.03522937539558656,0.004744041551338437,0.0028192928901821014, ,0.03869914524333159, ,0.03554694477858577, ,0.0011426826048687253, ,0.2496141719606846,-0.165799352076726,0.12022960121000001,1.6125156653959922,0.2415733315852987,-1.4015032345881442, ,0.1403800910628266,0.06817309020005086,0.03508548792951543,0.005614332749200016,0.14634355373711652,-0.029510259112656055, ,1.7955479621887207
0.02576342971230517,0.018803049242499117,-0.1092793906549008, ,0.026688209483330255,0.01842261900002304,-0.10999986348552504, ,0.001232487685113046, ,0.023102606284351214,-0.0008805041545483174,-0.03241001989515726,-0.07648678005188235,-0.01493158219687641,0.00020220601161151765, ,0.039810992129064186, ,0.07793037860610748, ,0.0011432335562812672, ,0.2509965411451708,-0.16515836524816535,0.12058478467000001,1.6125156653959922,0.24280306008318767,-1.4013624933594442, ,0.13733276636537015,0.061342560800562884,0.03645036961098399,0.005614332749200016,0.12325372972720364,0.018392835867700436, ,1.8009059429168701
