NicholasDascanio/dvrk_moveit_final/test/execution/third_experiment_notsharpbends/thirdexp_200vel4.0/thirdexp_200vel4.0_21.csv
Current Position (x),Current Position (y),Current Position (z), ,Planned Position (x),Planned Position (y),Planned Position (z), ,Position Error,,Cartesian linear Velocity(x),Cartesian linear Velocity(y),Cartesian linear Velocity(z),Cartesian Angular Velocity(x),Cartesian Angular Velocity(y),Cartesian Angular Velocity(z), ,Total Linear Velocity, ,Total Angular Velocity, ,MSE, ,Joint 1 Position,Joint 2 Position,Joint 3 Position,Joint 4 Position,Joint 5 Position,Joint 6 Position, ,Joint 1 Velocity,Joint 2 Velocity,Joint 3 Velocity,Joint 4 Velocity,Joint 5 Velocity,Joint 6 Velocity, ,Time Stamp
0.009768609830315442,0.02010285409687952,-0.07985126706865281, ,0.009971425692723888,0.020090416324023513,-0.08000526154684262, ,0.0002549573916383902, ,0.0017073238949116296,0.00030471129215201665,-0.001473211574470479,0.21811923193061,-0.14297085343365956,-0.11760102128340197, ,0.002275556239000688, ,0.26080004652902433, ,2.1246449303199185e-05, ,0.17472683127932953,-0.2384857138889271,0.09038770912,1.7005854416594925,0.4918913991555856,-1.2905042546976992, ,0.003330605684519416,-0.00038185489416058584,0.0011313932216157109,0.0014025543128845857,-0.14545246036487472,-0.2434669940975982, ,0.0521090030670166
0.00985917440151251,0.02014069965827625,-0.07999206778110876, ,0.010059188927777192,0.020166783594383723,-0.08018469273594109, ,0.00027890958331312223, ,0.001364161685574224,0.0008602925833028537,-0.003365560534483438,-0.11432071049141451,-0.04216966745901805,0.043017806614233225, ,0.0037320286902095285, ,0.1218503414046681, ,2.4266680679614203e-05, ,0.17495851326555625,-0.23853205028617244,0.09052122699000001,1.701214511489946,0.48615266616543706,-1.2974230838424095, ,0.00614825853986688,-0.0012100323873682156,0.003485516743982495,-0.014707714895041132,-0.03394195399772391,0.11622136729090674, ,0.10468602180480957
0.009918881458314419,0.020196196282842693,-0.08017879963487912, ,0.010147282035530373,0.020240571144818614,-0.08036453766301362, ,0.0002977155809548017, ,0.0011977339275603472,0.0009139883577846425,-0.0029193774099087006,0.07049891228080847,0.012376771951399579,-0.022084278056460748, ,0.0032852253713984733, ,0.07157709910650209, ,2.598695487207232e-05, ,0.17539098630651284,-0.23860927761491468,0.09072604081,1.7014242014334306,0.48724575816356064,-1.2937404176241092, ,0.010476052165544746,-0.0014649223771207893,0.0032654390159901603,0.0057877235963922635,0.022386746958903695,-0.06983537780349758, ,0.15697789192199707
0.009995309924309137,0.020250590710600896,-0.08035597111211455, ,0.010235700170307662,0.020311817314622557,-0.08054478826022461, ,0.0003117500326089365, ,0.0015698950965584697,0.0011275970496469369,-0.0035931819022706267,0.01551685778205119,-0.0041120656395093255,-0.005886645824710643, ,0.004080073762001854, ,0.016052475156594335, ,2.7886160695493923e-05, ,0.17593930034058278,-0.2387173958751538,0.09091918802000001,1.7014242014334306,0.48724575816356064,-1.2939037751043905, ,0.01201683443820068,-0.002170112542780222,0.003953539717051378,0.0041863500607065614,0.007192698049560825,-0.012715362506445957, ,0.21001386642456055
0.010079273449309742,0.020305803255789224,-0.08053275677213187, ,0.01032443853217424,0.020380560193887697,-0.08072543647819672, ,0.00032065555784837257, ,0.0017039885964265714,0.0012017168398914362,-0.004101331930248426,0.004338767622203568,-0.009181962631686176,-0.010511569097121374, ,0.004600937306908858, ,0.01015545868430955, ,2.9279762927272466e-05, ,0.17658800990201765,-0.23881006866964452,0.09111363152000002,1.7018435813203996,0.4873823946633261,-1.2940151930080868, ,0.011733054099712016,-0.0012907289396786618,0.004450631886001677,0.010792236307076885,0.0,-0.0012944705726169203, ,0.25722384452819824
0.010152661061888118,0.02035455648372044,-0.08069442379078175, ,0.010413492366772253,0.020446837624180526,-0.08090647428609661, ,0.0003485888567574319, ,0.0017403380132469323,0.0010420172655823462,-0.003117501703429537,-0.0014252572756078804,-0.011985489800350975,-0.003471226523444782, ,0.0037193269892562626, ,0.012069934704111931, ,3.0721644120695854e-05, ,0.17715176940183602,-0.23887185053263832,0.09129122325000001,1.7022629612073688,0.487655667662857,-1.293992992595058, ,0.014382682867303848,-0.002405682741701587,0.003472598979725311,0.006077115977583862,0.0009869876598324475,0.0051948942788702535, ,0.3047449588775635
0.010248450984852457,0.020414614792193135,-0.08087109201404755, ,0.010502856965156149,0.020510687199218742,-0.08108789367172052, ,0.0003477862403484728, ,0.001971913476656443,0.0012755213195786272,-0.0037285150515447177,-0.003191003900265806,-0.01384503926555306,-0.004184658212422383, ,0.004406497689289581, ,0.014208012437904259, ,3.177004769808129e-05, ,0.17793948815500693,-0.2390263051901228,0.09148825933000002,1.7024726511508534,0.48779230416262237,-1.293614338057911, ,0.01568026132823377,-0.00322857972975549,0.004143811529656608,0.007692331128012728,0.0,0.008118885677095414, ,0.35288405418395996
0.010332900450281651,0.02047364589832898,-0.08104481590104315, ,0.010592527663627435,0.020572146265547497,-0.0812696866415783, ,0.0003573170331802086, ,0.002269617209139238,0.0015533025626901164,-0.005078679308673322,-0.007404434063451004,-0.011912132051345654,0.012630528572712445, ,0.005775542801125033, ,0.014025852217600054, ,3.312737206118074e-05, ,0.17860364318219024,-0.23915759164898462,0.09168140654000001,1.7031017209813069,0.48806557716215326,-1.2932654226843199, ,0.01705859096862678,-0.003206447783850619,0.005577314957983194,-0.007215272727910883,0.007095633425807982,0.010491106555046086, ,0.39444899559020996
0.010419754742602642,0.02053132142677463,-0.08123143337436818, ,0.010682499843568845,0.020631251923215053,-0.08145184522097809, ,0.00035721488536532165, ,0.002090685303247118,0.001304136432425905,-0.00394851300746234,-0.018526193863415093,-0.009984771508229632,-0.001119279619701811, ,0.004654298211513026, ,0.02104555820539388, ,3.422494240494117e-05, ,0.179283243675122,-0.23926570990922377,0.09188751665000001,1.7031017209813069,0.4884754866614496,-1.2927828889940036, ,0.016894595256982517,-0.002646149819174958,0.00439658060171129,0.011107063409853075,0.004391488253658853,0.024738355844349472, ,0.43657588958740234
0.010504353391111951,0.020583681930857654,-0.0814034867678582, ,0.010772768931277214,0.020688041026447748,-0.08163436145411032, ,0.00036910817355702806, ,0.0023414569008286725,0.0013760398608497646,-0.004747284338947807,0.0037175854692216444,-0.007462986098527466,-0.009545228770942103, ,0.005469242608616367, ,0.008337661591634734, ,3.526090582143572e-05, ,0.17996284416805375,-0.239342937237966,0.09207807128,1.7033114109247913,0.48888539616074594,-1.2923820340438277, ,0.018462439991920387,-0.0010297584393652484,0.005231136788177341,0.012476245574985447,0.008350488874212535,0.00021037946154985315, ,0.4797208309173584
0.010596488361265869,0.020637544332470583,-0.08157792321278828, ,0.010863330397796607,0.020742550184325262,-0.08181722740412978, ,0.0003734935037951865, ,0.002331761406104652,0.0014277108333523036,-0.004770432517705243,0.0016393768787338265,-0.010876196994522717,-0.007880623584300035, ,0.005498408486521373, ,0.010999055193227723, ,3.654037211482094e-05, ,0.18069650379110508,-0.23942016456670825,0.09227121849000001,1.7037307908117605,0.48902203266051136,-1.2924934519475242, ,0.017861272644169163,-0.0016862533719501237,0.005251833669634027,0.0106036746010581,0.004637045453199423,0.0024050938970693494, ,0.5164139270782471
0.01069033218677692,0.020697364824628757,-0.0817763943344725, ,0.010954179758750765,0.020794815761455768,-0.0820004351532403, ,0.0003595921506361154, ,0.0025058442430396814,0.0016025538844710988,-0.005233535243648161,-0.0019854883272993314,-0.0106468408164792,4.712071317723691e-06, ,0.00601974463490902, ,0.010830391467673691, ,3.751970745286215e-05, ,0.1814224406812822,-0.23950511462832472,0.09249029150000002,1.7039404807552447,0.4894319421598077,-1.2922559544776295, ,0.019171099304741573,-0.0025874717702997554,0.005775493662073967,0.004657877757951406,0.007690335162015331,0.00635629343535362, ,0.554041862487793
0.010788382065285922,0.020755250419203463,-0.08197070615342238, ,0.011045312574174517,0.020844873878649257,-0.08218397680277512, ,0.00034573113940766705, ,0.0023656854821413513,0.0014258072477521789,-0.005003298906841197,-0.002347430211595825,-0.005052897253616515,-0.0063911506523368945, ,0.00571510227899338, ,0.005571552397545539, ,3.825504539301819e-05, ,0.18220243670157885,-0.23956689649131852,0.09270547564,1.704359860642214,0.48984185165910404,-1.2921001357478754, ,0.018141262006972046,-0.0008488916863341699,0.005505983933632907,0.011882814073868892,0.010648525184503505,0.006556020086267468, ,0.590569019317627
0.010850291009598861,0.02079098721402087,-0.08210263585405812, ,0.011136724448345214,0.020892760413592067,-0.08236784447328085, ,0.00040340737560566094, ,0.002517512524419394,0.0013581917653315227,-0.004887808243423567,-0.0012068860327510088,-0.01079750960117725,-0.006956803840366714, ,0.005663322664876357, ,0.010864749637878408, ,3.938522920847263e-05, ,0.182688968872655,-0.23958234195706696,0.09285066012000001,1.704359860642214,0.4902517611584003,-1.292189353238543, ,0.019766078225051192,-0.00044598383226380665,0.005383173883068606,0.01060060739089248,0.006691702456359417,0.004332084563248736, ,0.6272130012512207
0.010941089067529691,0.020837467171049964,-0.08227835650011209, ,0.011228411029613652,0.020938511001520596,-0.08255203030459835, ,0.00040946442682354874, ,0.002597008672538167,0.0012540099718082352,-0.00519464924187387,0.00015153394364154837,-0.0043706237265147795,-0.003971226959652849, ,0.0059414960911149065, ,0.0043732494226067535, ,4.075945977651004e-05, ,0.18340718302995787,-0.23959006468994118,0.09304380733,1.704359860642214,0.4905250341579312,-1.2920854740853736, ,0.020756111451983986,0.0015952294670388931,0.005696999828326181,0.00823414783157711,0.014986637505841439,0.0011161690266784348, ,0.658552885055542
0.011029313293478534,0.020887808554233778,-0.08246550972846842, ,0.011320368010234453,0.020982161035894686,-0.082736526455944, ,0.00040873622975338557, ,0.003091627749024037,0.0016759097209084939,-0.00658640815499394,-0.0015144716463317374,-0.014585158568173662,-0.007388766085648722, ,0.007466432073978956, ,0.014663576045133308, ,4.2003243648436744e-05, ,0.18406361532426696,-0.23959006468994118,0.09324862115000002,1.704779240529183,0.4907983071574621,-1.2920632736723447, ,0.022551554552868527,0.0008120482552439932,0.007168682052205221,0.010186467970019562,0.00575525434659793,0.003201179027966588, ,0.6904590129852295
0.011150957452020728,0.020952365175427153,-0.08270940721870824, ,0.011412591126196648,0.02102374566907171,-0.08292132510599237, ,0.0003441751665746683, ,0.003213479339897968,0.0014769219003742452,-0.005766616308012741,0.005702057362028972,-0.012637111845282632,-0.0016314015848764712, ,0.006764732915022931, ,0.013863983827645464, ,4.267103860991535e-05, ,0.18501351146779657,-0.23959006468994118,0.09351695318000001,1.7049889304726675,0.4913448531565239,-1.2921822303265682, ,0.026426327362425724,0.0006260902513826852,0.006379179623548259,0.003617926707852904,0.013444555170148437,-0.004728868659502316, ,0.7218959331512451
0.011212840609829449,0.020984923624757432,-0.08283043210459468, ,0.011505076157052822,0.021063299812978654,-0.08310641845295516, ,0.0004095276625850657, ,0.003295432978380029,0.0016631299352599987,-0.006436634723173746,0.002237278108870415,-0.011217756521356741,-0.002238132005443493, ,0.0074199829013359975, ,0.011438682776465193, ,4.404287406121248e-05, ,0.18550004363887274,-0.23959006468994118,0.09365047105,1.7051986204161522,0.49161812615605477,-1.2921600299135392, ,0.025850433549024998,0.000501256341169231,0.007082619617607827,0.005771900542198902,0.013778644897104142,-0.000504834943623563, ,0.7479510307312012
0.011312553492089147,0.021041031640346125,-0.08304642946027754, ,0.011597818925748717,0.021100858139784955,-0.08329179871466409, ,0.0003810008512776548, ,0.003293475075750252,0.0017137161153480797,-0.006906347147752712,0.012606386601988347,0.0008018580678939539,0.012581127226273883, ,0.00784100962401296, ,0.012631862246219129, ,4.5129269202912425e-05, ,0.18625687146054673,-0.23956689649131852,0.09388769212,1.705618000303121,0.492301308654882,-1.2923904044714591, ,0.02635294128255229,0.0006560721833669185,0.007614154646271511,-0.009396890587133973,0.03056452361661743,-0.012901161760138637, ,0.774446964263916
0.011413370660586411,0.021089264939831015,-0.08323623137659428, ,0.01169081529845328,0.02113645508257699,-0.0834774581286499, ,0.0003706653241952482, ,0.0035515879904303035,0.0015231221623382158,-0.006228827654438201,-0.012479366905381805,-0.026594225856516038,0.013318929195995694, ,0.007330209568891513, ,0.02937664783276375, ,4.607710566160972e-05, ,0.18704459021371764,-0.23955145102557007,0.09409639481000001,1.705618000303121,0.4925745816544128,-1.2922865253182898, ,0.02822633597812932,0.0007498759851548516,0.006848156285468617,-0.009396890587133973,0.003979198905102563,0.010960521989813704, ,0.8012640476226807
0.01147895629020612,0.02112251881286789,-0.08336827512091209, ,0.011784061184386163,0.021170124836028432,-0.08366338895222365, ,0.00042713874013622984, ,0.003387760664159441,0.0018147800176018369,-0.00689756327278905,0.008616097292730737,-0.0027315571324762495,-0.004680860753452509, ,0.007895994423252927, ,0.009038723433818938, ,4.732237915419314e-05, ,0.18758518151491335,-0.23954372829269585,0.09424287558000001,1.7054083103596365,0.49325776415324,-1.2925985786163503, ,0.02634562508563875,0.0003498470513864882,0.007614154646271511,0.0089491730005072,0.02233906582001304,-0.005664137286337479, ,0.8312039375305176
0.011593129524726981,0.021180964828155877,-0.08359316547774841, ,0.011877552535647531,0.021201901357074202,-0.0838495834625562, ,0.00038351658414877566, ,0.0038429231963436456,0.0018416666954805603,-0.007342799509316461,-0.0064844385763156145,-0.025854139688394753,-0.00797316471603323, ,0.008489787956377733, ,0.026654914393624295, ,4.852131166982279e-05, ,0.1884269593982038,-0.23951283736119894,0.09448917068000001,1.70603738019009,0.49339440065300544,-1.2923016028193437, ,0.02839525480504811,0.0012584827151659141,0.008024590186397985,0.010615726331204195,0.0,0.00756819897151364, ,0.8522498607635498
0.01166601420663636,0.0212176189032591,-0.08374370405187505, ,0.011971285347046157,0.021231818365582748,-0.08403603395675947, ,0.0004229052697556702, ,0.004056243521643965,0.0018166293500371364,-0.008437404347886469,0.006912828300040132,-0.01009093235131964,0.027182563141201647, ,0.009536406337401342, ,0.01223168296123202, ,4.989974554377688e-05, ,0.18902933256239332,-0.2394665009639536,0.09465639209000001,1.7062470701335748,0.49435085615136354,-1.2929181706649375, ,0.03124693498797194,0.003106495394164279,0.00921273078079815,-0.025735158843314777,0.028359383778810893,-0.012811590143669177, ,0.873297929763794
0.011757363922353702,0.021262240974531457,-0.08393472863176288, ,0.012065255655927207,0.02125990934502706,-0.08422273275196479, ,0.0004216030471335823, ,0.004693153271696006,0.0022085243279943365,-0.009936317577038502,-0.02150289566768018,-0.0367415574889769,0.021947744082680805, ,0.011208642840716179, ,0.042571310432670005, ,5.12056518082385e-05, ,0.1896548739252055,-0.23942016456670825,0.09485602075,1.7062470701335748,0.494487492651129,-1.2926211948679314, ,0.03277959984748559,0.0023511981302276365,0.010733700485175203,-0.01850284687352426,0.0,0.015960572841994092, ,0.8941118717193604
0.011845110788508027,0.021308236010062973,-0.08414004004944514, ,0.012159459542000733,0.021286207543157982,-0.08440967218540366, ,0.00041473109470855117, ,0.004691121792029005,0.002119392627979828,-0.01034582150810822,-0.005202186188205921,-0.012348914994316583,0.019022055775248868, ,0.01155571163783604, ,0.013399937467933911, ,5.2714982093116165e-05, ,0.19032675168526303,-0.23932749177221754,0.09508805666,1.7062470701335748,0.49544394814948706,-1.2931560839733844, ,0.03372314909682686,0.005618011927755768,0.011201695864978904,-0.014379853641331194,0.025748003673844198,-0.000724437132011254, ,0.9112288951873779
0.011895396251466888,0.02132954516529794,-0.08424213355040125, ,0.012253893127169513,0.021310745972676057,-0.0845968446144874, ,0.0005046715352750781, ,0.004961137209700107,0.0022720824963171167,-0.010285993474543086,-0.008209629051316655,-0.02110137277436269,0.004795075860730262, ,0.011643749526758318, ,0.022642125054453534, ,5.4683883166955534e-05, ,0.19068199739747738,-0.23928115537497222,0.09519824131000001,1.70603738019009,0.49544394814948706,-1.2929927264931034, ,0.035810166625838025,0.004443629365507294,0.011178113347368422,0.0,0.015265154384565544,0.005467958401368181, ,0.9272079467773438
0.011991655229994945,0.021372408514971932,-0.08444695571915348, ,0.01234855257535614,0.02133355741190268,-0.08478424241688563, ,0.0004925925697801663, ,0.004728932794631931,0.002117641046657942,-0.010307880989544374,0.041870972809435136,0.029463667718997603,-0.0008076116555557144, ,0.011536880838131518, ,0.051198495711225395, ,5.651930730259408e-05, ,0.19142337975340293,-0.2391498689161104,0.09542249948,1.7062470701335748,0.4964004036478451,-1.2935276155985567, ,0.03789813960002826,0.006876305243706765,0.011345307350427351,0.003433141893818928,0.06924794449430766,-0.04416383998824413, ,0.9429998397827148
0.012048407524817208,0.021397453096677756,-0.08456354591226994, ,0.01244343409233116,0.021354674405452787,-0.08497185799060708, ,0.0005697321816263921, ,0.005516925831195994,0.0024674227446692663,-0.011890122045896562,0.0020172967909454264,-0.008259472890042412,-0.003878512593035301, ,0.013337902679737331, ,0.008502243299125696, ,5.871806697137765e-05, ,0.19184040732861105,-0.23908036432024238,0.09554953590000001,1.7064567600770593,0.496673676647376,-1.2935870939256684, ,0.03967263443079882,0.007361068580179341,0.012908275137763372,0.00905689209566509,0.030418972333477096,-0.005151940810192102, ,0.9586000442504883
0.012107658131173336,0.021421157228684384,-0.08468740034367254, ,0.012538533925539866,0.021374129264905888,-0.08515968375407781, ,0.0006410282359554621, ,0.0062194448685885285,0.0023863221348563186,-0.012279009989822063,-0.03520976844772967,-0.04189120697881109,-0.00042601448665156253, ,0.013969613957975626, ,0.05472294525286211, ,6.156367622144671e-05, ,0.19225743490381916,-0.23898769152575167,0.09568305377000001,1.7064567600770593,0.49681031314714147,-1.293453475608943, ,0.04393376924003276,0.009161240485391934,0.013240907331670824,0.008296249078205175,0.0,0.02925401056058667, ,0.9692509174346924
0.012165991597751558,0.02144638077736793,-0.08481604043041771, ,0.0126338483639299,0.021391954069478518,-0.08534771214622072, ,0.0007103006642087938, ,0.006378497667357245,0.00271246037922396,-0.014083818520826704,0.04277919729705987,0.01227958186693005,-0.009633146094685867, ,0.015697025766970088, ,0.044506710708494414, ,6.472052198362897e-05, ,0.19268990794477575,-0.23889501873126098,0.09582305309000001,1.7064567600770593,0.4973568591462032,-1.2935724322631665, ,0.047142047470676005,0.011043417039604616,0.015316164923076924,0.007607260960991291,0.05998866338775083,-0.04946511726095917, ,0.9800848960876465
0.012233230513251621,0.021474759200728062,-0.08496763693501402, ,0.01272937373777741,0.02140818066669424,-0.08553593562653451, ,0.0007573336142155848, ,0.006880907190170855,0.0029620071432238416,-0.01585840019844438,0.029394339610277376,0.008628508890109982,-0.006369944308052098, ,0.01753879206018119, ,0.03063457791124955, ,6.806037608069455e-05, ,0.1931841628487261,-0.2387714550052734,0.09598768192000001,1.7064567600770593,0.4980400416450304,-1.2942112005217892, ,0.048540635068271505,0.013109123022305675,0.01714619108719053,0.007010955206594899,0.057758397641887546,-0.03782198755469991, ,0.9906179904937744
0.012392736328697137,0.021543112739031763,-0.08533094206017558, ,0.012825106418515482,0.021422840673057622,-0.08572434667517309, ,0.0005968052073537495, ,0.008719667942621143,0.0036480562654195524,-0.02012273831179979,-0.012025321438660239,-0.035262207129171386,-0.004495173262834335, ,0.022232083139247582, ,0.03725625193065512, ,7.048503110802276e-05, ,0.19370158595129916,-0.2386478912792858,0.09616916252,1.7064567600770593,0.4983133146445613,-1.2943523575890414, ,0.0525162930594747,0.012956982736000926,0.01944909831501832,0.00650478110678684,0.019367230662306358,-0.0036995876070327876, ,1.0017039775848389
0.01247427927982362,0.021577099463532617,-0.08552479907153564, ,0.012921042818559136,0.02143596547472311,-0.08591293779302407, ,0.0006084144388978943, ,0.008288336549050423,0.0032930049168235667,-0.01913703231719387,0.037224891227185725,0.01687558990497904,-0.005272140778909805, ,0.021113180955078085, ,0.04087145085300497, ,7.291963723657405e-05, ,0.19479821401943903,-0.23831581376569413,0.0965865679,1.7064567600770593,0.4992697701429194,-1.2950506041747758, ,0.05829050464279532,0.01864746346206932,0.02065993712062257,0.00568628121670205,0.07679845501704859,-0.0503078219319531, ,1.0123069286346436
0.01247427927982362,0.021577099463532617,-0.08552479907153564, ,0.013017179391133301,0.02144758622816824,-0.08610170150178743, ,0.0008027020761310151, ,0.008288336549050423,0.0032930049168235667,-0.01913703231719387,0.037224891227185725,0.01687558990497904,-0.005272140778909805, ,0.021113180955078085, ,0.04087145085300497, ,7.670089339664888e-05, ,0.19479821401943903,-0.23831581376569413,0.0965865679,1.7064567600770593,0.4992697701429194,-1.2950506041747758, ,0.05829050464279532,0.01864746346206932,0.02065993712062257,0.00568628121670205,0.07679845501704859,-0.0503078219319531, ,1.0176339149475098
0.01256331686797656,0.02160828380917859,-0.08572092242217165, ,0.013113512630098918,0.02145773386086415,-0.08629063034405501, ,0.0008061933886181059, ,0.00925004016660413,0.002991795424814366,-0.019835983580380377,0.012932283268746852,-0.014904754444122169,-0.006973760464452023, ,0.022090276764876664, ,0.01973303282978293, ,0.00043359627261587054, ,0.19543147811512543,-0.23809957724521585,0.09679786317000001,1.7064567600770593,0.4999529526417466,-1.2954443362129768, ,0.06495341653557206,0.023742041921058485,0.02129520256684492,0.005340469338344761,0.050747756837700275,-0.03244289534053808, ,1.0229299068450928
0.01256331686797656,0.02160828380917859,-0.08572092242217165, ,0.013210039069779383,0.021466439071947185,-0.08647971688338907, ,0.001007044472781203, ,0.00925004016660413,0.002991795424814366,-0.019835983580380377,0.012932283268746852,-0.014904754444122169,-0.006973760464452023, ,0.022090276764876664, ,0.01973303282978293, ,0.000449094872620339, ,0.19543147811512543,-0.23809957724521585,0.09679786317000001,1.7064567600770593,0.4999529526417466,-1.2954443362129768, ,0.06495341653557206,0.023742041921058485,0.02129520256684492,0.005340469338344761,0.050747756837700275,-0.03244289534053808, ,1.0281870365142822
0.012658469648655591,0.02164046386895379,-0.08593629279563829, ,0.013306755284786743,0.021473732332889708,-0.08666895370439956, ,0.0009924039894917548, ,0.010422825826960528,0.003667828192827724,-0.02476416999265075,0.11646896383110777,0.09002936393724571,-0.005006295092442466, ,0.02711738146090365, ,0.14720834416978215, ,0.00046339248095906047, ,0.1961110786080572,-0.237829281594618,0.09702989908000001,1.7066664500205435,0.5009094081401047,-1.2960609040585707, ,0.07816881512229883,0.0307109843231297,0.02686140222596965,0.0,0.17501453934524736,-0.1383852952154513, ,1.0334980487823486
0.012658469648655591,0.02164046386895379,-0.08593629279563829, ,0.013403657889848618,0.021479643888172185,-0.08685833341282506, ,0.00119638099315106, ,0.010422825826960528,0.003667828192827724,-0.02476416999265075,0.11646896383110777,0.09002936393724571,-0.005006295092442466, ,0.02711738146090365, ,0.14720834416978215, ,0.0004821870581947528, ,0.1961110786080572,-0.237829281594618,0.09702989908000001,1.7066664500205435,0.5009094081401047,-1.2960609040585707, ,0.07816881512229883,0.0307109843231297,0.02686140222596965,0.0,0.17501453934524736,-0.1383852952154513, ,1.0390050411224365
0.012781905618337978,0.021689402806663118,-0.08624386252364817, ,0.013500743539633576,0.021484203755953304,-0.0870478486356095, ,0.0010978288918276344, ,0.012723429977243,0.0051644919200152925,-0.03194182422544448,0.09447832971082061,0.06886134607508665,-0.0033794374001684013, ,0.03476834453963693, ,0.11691024984016155, ,0.0004975781040355749, ,0.19699919288859302,-0.23748948134815212,0.09736304561,1.7066664500205435,0.5029589556365863,-1.2974054576534546, ,0.08611337709480106,0.03367528089370858,0.03440348060475163,0.0,0.16117507717553095,-0.1196114509697163, ,1.044600009918213
0.012781905618337978,0.021689402806663118,-0.08624386252364817, ,0.013598008928577897,0.021487441728741678,-0.08723749202098137, ,0.0013015807573678892, ,0.012723429977243,0.0051644919200152925,-0.03194182422544448,0.09447832971082061,0.06886134607508665,-0.0033794374001684013, ,0.03476834453963693, ,0.11691024984016155, ,0.0005171879248485582, ,0.19699919288859302,-0.23748948134815212,0.09736304561,1.7066664500205435,0.5029589556365863,-1.2974054576534546, ,0.08611337709480106,0.03367528089370858,0.03440348060475163,0.0,0.16117507717553095,-0.1196114509697163, ,1.0500099658966064
0.012913759120289012,0.02174251290513215,-0.0865740167331089, ,0.013695450790711371,0.021489387374067172,-0.08742725623853204, ,0.001184538752299539, ,0.014816684548313624,0.005674821129366568,-0.037252283136601574,-0.0022173998484708406,0.00869470648669865,0.017284733970587492, ,0.04049037335891176, ,0.008969004541485378, ,0.0005330772302640577, ,0.1978486935047577,-0.2371342356359378,0.09771693278000002,1.7068761399640284,0.5041886841344753,-1.297918146345879, ,0.0921329529693891,0.04142162442534735,0.03972272199501248,-0.008880694412942078,0.10693112187818346,-0.032437553716477066, ,1.0552878379821777
0.012913759120289012,0.02174251290513215,-0.0865740167331089, ,0.013793065899483061,0.021490070035151264,-0.08761713397929416, ,0.001387444198456257, ,0.014816684548313624,0.005674821129366568,-0.037252283136601574,-0.0022173998484708406,0.00869470648669865,0.017284733970587492, ,0.04049037335891176, ,0.008969004541485378, ,0.0005529462295243414, ,0.1978486935047577,-0.2371342356359378,0.09771693278000002,1.7068761399640284,0.5041886841344753,-1.297918146345879, ,0.0921329529693891,0.04142162442534735,0.03972272199501248,-0.008880694412942078,0.10693112187818346,-0.032437553716477066, ,1.060528039932251
0.013077439832157539,0.02180566653963839,-0.08698906895816842, ,0.013890851067588353,0.021489518831579284,-0.08780711795582018, ,0.0011961569185500495, ,0.01551290773961828,0.005950416045093351,-0.0405634924601763,0.01868977886171804,0.027291277021902618,0.01309336067799754, ,0.04383440062570027, ,0.033075849446151544, ,0.0005675646542749256, ,0.19884492604553267,-0.23667087166348433,0.09815896767000001,1.7068761399640284,0.5052817761325988,-1.298319417134607, ,0.09340250153392793,0.04707189561432083,0.04316751089430895,-0.008880694412942078,0.12759074537430118,-0.05844724578165471, ,1.0657789707183838
0.013077439832157539,0.02180566653963839,-0.08698906895816842, ,0.013988803146792607,0.02148776265996931,-0.08799720090226035, ,0.0013956991024822781, ,0.01551290773961828,0.005950416045093351,-0.0405634924601763,0.01868977886171804,0.027291277021902618,0.01309336067799754, ,0.04383440062570027, ,0.033075849446151544, ,0.0005859676420128669, ,0.19884492604553267,-0.23667087166348433,0.09815896767000001,1.7068761399640284,0.5052817761325988,-1.298319417134607, ,0.09340250153392793,0.04707189561432083,0.04316751089430895,-0.008880694412942078,0.12759074537430118,-0.05844724578165471, ,1.0711019039154053
0.01323719540567881,0.021858895310363724,-0.08739724064911356, ,0.01408691902775946,0.02148483019464551,-0.08818737557444117, ,0.001219125975829249, ,0.01647741843070884,0.004919585232039347,-0.040770244734315314,0.056147639621161705,0.04698861159220615,0.00016713552438347895, ,0.04424839536855465, ,0.07321457783924626, ,0.0005997319536175708, ,0.19984115858630763,-0.2361302803622886,0.09859322482,1.7066664500205435,0.5067847776300186,-1.2992999778548462, ,0.10555833321298196,0.059052234946154816,0.0434027561852861,-0.005441645034791786,0.15985845117017608,-0.1067381993105102, ,1.0764470100402832
0.013403086678279474,0.021902376108144987,-0.08779133863923959, ,0.014185195639875161,0.021480749888308066,-0.08837763474994423, ,0.0010645215951260185, ,0.016440504901824422,0.0036411580629336815,-0.037396504097098784,0.047171985431274044,0.03137041479754437,-0.0025453953028699147, ,0.041012763283525606, ,0.056650030839236164, ,0.0006096210949262612, ,0.20093778665444753,-0.23551246173235066,0.09901322278000001,1.7066664500205435,0.508424415627204,-1.3005553139590627, ,0.11073155374383986,0.06347621508927812,0.039822028800000006,-0.005329810375353432,0.14894244965797285,-0.10285396302111668, ,1.082223892211914
0.013403086678279474,0.021902376108144987,-0.08779133863923959, ,0.01428362995107462,0.02147554997270391,-0.08856797122818312, ,0.001249277864756069, ,0.016440504901824422,0.0036411580629336815,-0.037396504097098784,0.047171985431274044,0.03137041479754437,-0.0025453953028699147, ,0.041012763283525606, ,0.056650030839236164, ,0.0006229472776310489, ,0.20093778665444753,-0.23551246173235066,0.09901322278000001,1.7066664500205435,0.508424415627204,-1.3005553139590627, ,0.11073155374383986,0.06347621508927812,0.039822028800000006,-0.005329810375353432,0.14894244965797285,-0.10285396302111668, ,1.0875158309936523
0.013576730017359416,0.021928204505051393,-0.08814431424247487, ,0.014382218967666737,0.021469258459297497,-0.08875837783048297, ,0.0011119883147307375, ,0.017587626606006247,0.001300351701806271,-0.032416397068923276,0.014952596712384032,-0.015795339359269772,-0.00643740060832658, ,0.03690309367940291, ,0.0217494160566763, ,0.0006329277069596139, ,0.2020730283869585,-0.23487147490379,0.09936451737000002,1.7066664500205435,0.5095175076253274,-1.3012016209682122, ,0.12999581035406957,0.07396488040410817,0.03470329307189543,-0.0049925282769224194,0.1176326022957923,-0.08077718151208263, ,1.0927619934082031
0.013576730017359416,0.021928204505051393,-0.08814431424247487, ,0.014480959734160522,0.021461903139942482,-0.08894884740015793, ,0.001297051250205678, ,0.017587626606006247,0.001300351701806271,-0.032416397068923276,0.014952596712384032,-0.015795339359269772,-0.00643740060832658, ,0.03690309367940291, ,0.0217494160566763, ,0.0006462101778245352, ,0.2020730283869585,-0.23487147490379,0.09936451737000002,1.7066664500205435,0.5095175076253274,-1.3012016209682122, ,0.12999581035406957,0.07396488040410817,0.03470329307189543,-0.0049925282769224194,0.1176326022957923,-0.08077718151208263, ,1.0980069637298584
0.013750699689435228,0.021935702462140067,-0.08845916817999604, ,0.014579849333090974,0.021453511587552626,-0.08913937280258927, ,0.0011758722293289572, ,0.018263344028270477,0.0005209771705462386,-0.03289051347344053,0.03336297312717359,0.00945461066286515,-0.011176714008715519, ,0.03762455353693604, ,0.034676204351054896, ,0.0006565957082461906, ,0.2034862885029416,-0.23403741975337378,0.09972488599000001,1.7064567600770593,0.5110205091227473,-1.3022638604285919, ,0.13934940023270306,0.08510936462643119,0.03508548792951543,-0.0017986703962377117,0.15497704188940273,-0.10942117180772186, ,1.1032729148864746
0.013750699689435228,0.021935702462140067,-0.08845916817999604, ,0.01467888488484344,0.021444111156771386,-0.08932994692530388, ,0.0013643479731245145, ,0.018263344028270477,0.0005209771705462386,-0.03289051347344053,0.03336297312717359,0.00945461066286515,-0.011176714008715519, ,0.03762455353693604, ,0.034676204351054896, ,0.0006702063287246199, ,0.2034862885029416,-0.23403741975337378,0.09972488599000001,1.7064567600770593,0.5110205091227473,-1.3022638604285919, ,0.13934940023270306,0.08510936462643119,0.03508548792951543,-0.0017986703962377117,0.15497704188940273,-0.10942117180772186, ,1.1085619926452637
0.013933591766852894,0.021937149684391002,-0.0887861999499235, ,0.014778063547480113,0.021433728984644074,-0.08952056267805192, ,0.0012271322690213997, ,0.018686815770816656,-2.0014890714721054e-05,-0.03235416689908043,0.04351054329654677,0.020964422332632005,0.005647242275316574, ,0.037362944209227464, ,0.04829740084989431, ,0.0006807143653339931, ,0.20489182588605045,-0.23317247367146063,0.100073588,1.70603738019009,0.5126601471199326,-1.3034375177926676, ,0.1462202489344696,0.08844076566493084,0.03462785113043479,-0.01957327844291848,0.17823703463863766,-0.12525792643673955, ,1.1140639781951904
0.013933591766852894,0.021937149684391002,-0.0887861999499235, ,0.014877382516565722,0.02142239199128861,-0.0897112129928857, ,0.0014182262130921846, ,0.018686815770816656,-2.0014890714721054e-05,-0.03235416689908043,0.04351054329654677,0.020964422332632005,0.005647242275316574, ,0.037362944209227464, ,0.04829740084989431, ,0.00069437199214433, ,0.20489182588605045,-0.23317247367146063,0.100073588,1.70603738019009,0.5126601471199326,-1.3034375177926676, ,0.1462202489344696,0.08844076566493084,0.03462785113043479,-0.01957327844291848,0.17823703463863766,-0.12525792643673955, ,1.1195249557495117
0.01409869105592053,0.02193191674248038,-0.08907423353173424, ,0.014976839024991615,0.021410126880565223,-0.08990189082423644, ,0.0013146958239125801, ,0.018275990795842925,-0.0012963920465457698,-0.031701422445070106,-0.010992768369090588,0.004627712212835044,0.04508543990022121, ,0.03661519707647191, ,0.011925798035129139, ,0.0007056506072673891, ,0.20618152227604597,-0.2323461412539186,0.10038080873,1.705618000303121,0.5142997851171178,-1.3044478176764625, ,0.14121568684296246,0.09773114475640657,0.03360508759493671,-0.05382423937951501,0.16415015750345918,-0.08593267941660412, ,1.1251568794250488
0.01409869105592053,0.02193191674248038,-0.08907423353173424, ,0.015076430342802634,0.021396960140748607,-0.09009258914899364, ,0.00150970223622173, ,0.018275990795842925,-0.0012963920465457698,-0.031701422445070106,-0.010992768369090588,0.004627712212835044,0.04508543990022121, ,0.03661519707647191, ,0.011925798035129139, ,0.0007200086720701453, ,0.20618152227604597,-0.2323461412539186,0.10038080873,1.705618000303121,0.5142997851171178,-1.3044478176764625, ,0.14121568684296246,0.09773114475640657,0.03360508759493671,-0.05382423937951501,0.16415015750345918,-0.08593267941660412, ,1.1305408477783203
0.014310160260679407,0.02191448112528108,-0.08944047975577002, ,0.015176153777021537,0.021382918045197645,-0.09028330096658224, ,0.0013201710767356536, ,0.019629036467185605,-0.0017550193642660084,-0.03393819290576625,-0.028034697724634627,-0.022457280984713036,-0.0369203915936372, ,0.039245128402236804, ,0.03591975392163038, ,0.000730537837064277, ,0.2077724052481362,-0.2311800085899107,0.10076710315000001,1.7054083103596365,0.5158027866145377,-1.305346699656561, ,0.14532456593946522,0.11099057492218804,0.03571482403587444,0.023590439062653207,0.12181887873493526,-0.0691321574413738, ,1.135793924331665
0.014310160260679407,0.02191448112528108,-0.08944047975577002, ,0.015276006671475623,0.021368026653027734,-0.09047401929904102, ,0.0015164681885876925, ,0.019629036467185605,-0.0017550193642660084,-0.03393819290576625,-0.028034697724634627,-0.022457280984713036,-0.0369203915936372, ,0.039245128402236804, ,0.03591975392163038, ,0.0007440883603664049, ,0.2077724052481362,-0.2311800085899107,0.10076710315000001,1.7054083103596365,0.5158027866145377,-1.305346699656561, ,0.14532456593946522,0.11099057492218804,0.03571482403587444,0.023590439062653207,0.12181887873493526,-0.0691321574413738, ,1.1410489082336426
0.014519610780503367,0.021895267685985712,-0.08980496509108411, ,0.015375986406620034,0.02135231180977934,-0.09066473719110028, ,0.0013294315930050553, ,0.020614868981961014,-0.002063204246859336,-0.035801883114932445,-0.012604880887167349,-0.012332385767365901,0.004967448232468901, ,0.04136428978579182, ,0.017632695208281056, ,0.0007540094321060429, ,0.2093169518229811,-0.2299907077272801,0.10115080499000001,1.705618000303121,0.5171691516121921,-1.3061341637329629, ,0.15330685227539706,0.11629527151773382,0.03774599886255925,-0.023699547431567707,0.15181915670216614,-0.09820924886850674, ,1.1463978290557861
0.014519610780503367,0.021895267685985712,-0.08980496509108411, ,0.015476090399364682,0.02133579914809043,-0.09085544771026016, ,0.0015268831125474997, ,0.020614868981961014,-0.002063204246859336,-0.03673766839501127,0.005603985529084422,0.002028305248235364,-0.007572630937832162, ,0.04136428978579182, ,0.017632695208281056, ,0.0007668906601134006, ,0.2093169518229811,-0.2299907077272801,0.10115080499000001,1.705618000303121,0.5171691516121921,-1.3061341637329629, ,0.15330685227539706,0.11629527151773382,0.03774599886255925,-0.023699547431567707,0.15181915670216614,-0.09820924886850674, ,1.1522979736328125
0.014736946297114773,0.02187286022422368,-0.09017815687081972, ,0.015576316102899336,0.021318514088367164,-0.09104614394686836, ,0.0013286244290202302, ,0.0212596602483032,-0.0025091013614864073,-0.03673766839501127,0.005603985529084422,0.002028305248235364,-0.007572630937832162, ,0.042519701581940884, ,0.005954137694030791, ,0.0007760994104233486, ,0.21093872572656827,-0.22877051593315265,0.10154487715,1.7054083103596365,0.5188087896093774,-1.3074711785773199, ,0.15816156926411795,0.12308293327946923,0.03875623240875913,-0.01535575046226089,0.16971802693281962,-0.12108446878162163, ,1.1575548648834229
0.014952025715852106,0.021843780370410473,-0.09054421266906826, ,0.01567666100651846,0.021300481839453843,-0.09123681901419832, ,0.0011401636494526423, ,0.021895581148044022,-0.0029234221280797466,-0.03710661876101129,-0.006368610123921539,-0.014608467035474968,0.023382928914757403, ,0.04318407144566804, ,0.0159341192163806, ,0.0007819714142786598, ,0.2125527768972812,-0.22752715594040251,0.10193117157,1.704779240529183,0.5205850641063281,-1.309001290065514, ,0.16249476294258697,0.12585801267701696,0.039137129041769046,-0.04954261533635397,0.1648332378004849,-0.11927438426933024, ,1.1628918647766113
0.014952025715852106,0.021843780370410473,-0.09054421266906826, ,0.015777122635446277,0.02128172739930398,-0.09142746604852679, ,0.0013329759942993533, ,0.021895581148044022,-0.0029234221280797466,-0.03710661876101129,-0.006368610123921539,-0.014608467035474968,0.023382928914757403, ,0.04318407144566804, ,0.0159341192163806, ,0.0007907175187234327, ,0.2125527768972812,-0.22752715594040251,0.10193117157,1.704779240529183,0.5205850641063281,-1.309001290065514, ,0.16249476294258697,0.12585801267701696,0.039137129041769046,-0.04954261533635397,0.1648332378004849,-0.11927438426933024, ,1.168172836303711
0.015167405420749753,0.021809841729664048,-0.09090597132975545, ,0.015877698550662657,0.02126227555565137,-0.09161807820921201, ,0.0011451817554841337, ,0.021857567866863173,-0.00396476719807113,-0.03702259210224119,-0.03362188600511902,-0.035183822775242256,0.027790444258286126, ,0.04317574525075812, ,0.04866480296578829, ,0.0007962560224228187, ,0.21412821440362298,-0.226237459550407,0.10231098454000001,1.7045695505856984,0.5219514291039825,-1.3100337903623376, ,0.15895635101921404,0.1347967919864642,0.03875623240875913,-0.05729402705187596,0.14155032041311924,-0.10356011858457864, ,1.1734800338745117
0.015167405420749753,0.021809841729664048,-0.09090597132975545, ,0.015978386348727874,0.021242150886680414,-0.09180864867877152, ,0.0013396974864417724, ,0.021857567866863173,-0.00396476719807113,-0.03702259210224119,-0.03362188600511902,-0.035183822775242256,0.027790444258286126, ,0.04317574525075812, ,0.04866480296578829, ,0.0008046166603308025, ,0.21412821440362298,-0.226237459550407,0.10231098454000001,1.7045695505856984,0.5219514291039825,-1.3100337903623376, ,0.15895635101921404,0.1347967919864642,0.03875623240875913,-0.05729402705187596,0.14155032041311924,-0.10356011858457864, ,1.1788229942321777
0.015378352173412633,0.0217712500878574,-0.09126105391023373, ,0.01607918366160821,0.021221377761697354,-0.09199917066296014, ,0.0011568667557581825, ,0.021053514089019433,-0.004354627533333437,-0.03516395142455966,-0.02856815587903605,-0.0268311632527669,0.008458992445095898, ,0.041215491216766986, ,0.03919179873677089, ,0.0008099537829887931, ,0.21565731551271944,-0.22491687222891463,0.10268301977000001,1.7045695505856984,0.5233177941016369,-1.3111479693993018, ,0.15330685227539706,0.13441493138593594,0.036787093579676675,-0.03846659330015559,0.13842682185684516,-0.10309773629576795, ,1.184506893157959
0.015378352173412633,0.0217712500878574,-0.09126105391023373, ,0.01618008815650065,0.021199980341800453,-0.09218963739084794, ,0.0013532911696333815, ,0.021053514089019433,-0.004354627533333437,-0.03516395142455966,-0.02856815587903605,-0.0268311632527669,0.008458992445095898, ,0.041215491216766986, ,0.03919179873677089, ,0.0008180632962222945, ,0.21565731551271944,-0.22491687222891463,0.10268301977000001,1.7045695505856984,0.5233177941016369,-1.3111479693993018, ,0.15330685227539706,0.13441493138593594,0.036787093579676675,-0.03846659330015559,0.13842682185684516,-0.10309773629576795, ,1.1899490356445312
0.015584870811954421,0.021724086088777718,-0.09160500280551472, ,0.016281097535658158,0.021177982580550717,-0.09238004211489756, ,0.0011762850945182099, ,0.020688801868415905,-0.004974200066282579,-0.03418296613037287,-0.052863476809555984,-0.04632587913848153,-0.01242835636690209, ,0.04026467884536264, ,0.07028931346352649, ,0.0008233312638442933, ,0.21715552569031898,-0.22356539397592534,0.10304209210000001,1.7041501706987296,0.5246841590992912,-1.312262148436266, ,0.14758466805360929,0.13773141009937706,0.03555538285714287,-0.01709692293362701,0.10879096871728276,-0.08039988450554361, ,1.1953070163726807
0.015584870811954421,0.021724086088777718,-0.09160500280551472, ,0.016382209536214415,0.021155408224642593,-0.09257037811104282, ,0.001375170183971907, ,0.020688801868415905,-0.004974200066282579,-0.03418296613037287,-0.052863476809555984,-0.04632587913848153,-0.01242835636690209, ,0.04026467884536264, ,0.07028931346352649, ,0.0008313289293533892, ,0.21715552569031898,-0.22356539397592534,0.10304209210000001,1.7041501706987296,0.5246841590992912,-1.312262148436266, ,0.14758466805360929,0.13773141009937706,0.03555538285714287,-0.01709692293362701,0.10879096871728276,-0.08039988450554361, ,1.2005388736724854
0.01580064771742547,0.021671032200259052,-0.09196688319157666, ,0.01648342193001051,0.021132280814575573,-0.0927606386787665, ,0.0011774894710318926, ,0.021298075023523575,-0.005410587638113193,-0.035992327695568094,-0.09970802007016828,-0.09424108391383232,0.07578913835518, ,0.04217025149607837, ,0.13719697796160174, ,0.0008362740799487963, ,0.21865373586791853,-0.222144411127068,0.10341671991000001,1.7033114109247913,0.525503978097884,-1.3128489771183038, ,0.14667224352159317,0.1407966491965442,0.037216849345794396,-0.11061150859145931,0.07949048992155622,-0.057610031113906425, ,1.2057299613952637
0.01580064771742547,0.021671032200259052,-0.09196688319157666, ,0.016584732523418237,0.02110862368532376,-0.0929508171411772, ,0.0013781213073735417, ,0.021298075023523575,-0.005410587638113193,-0.035992327695568094,-0.09970802007016828,-0.09424108391383232,0.07578913835518, ,0.04217025149607837, ,0.13719697796160174, ,0.0008439057310392857, ,0.21865373586791853,-0.222144411127068,0.10341671991000001,1.7033114109247913,0.525503978097884,-1.3128489771183038, ,0.14667224352159317,0.1407966491965442,0.037216849345794396,-0.11061150859145931,0.07949048992155622,-0.057610031113906425, ,1.211014986038208
0.01600736215448364,0.021621640538269257,-0.09232781562710293, ,0.016686139157166425,0.021084459967007113,-0.09314090684508877, ,0.001187610421930629, ,0.020411192452845315,-0.005115448796868622,-0.036088992711457116,-0.043740735485218014,-0.026969713152419653,0.021553979151028597, ,0.041775590823686495, ,0.05138634206735809, ,0.0008486794073016655, ,0.22006699598390164,-0.22075431920970762,0.10379134772000001,1.7028920310378222,0.5265970700960074,-1.3137403203478755, ,0.13975985501983915,0.13975985501983915,0.03747955651764706,-0.05485721343013132,0.1291380105602624,-0.09891597612542266, ,1.216346025466919
0.01600736215448364,0.021621640538269257,-0.09232781562710293, ,0.016787639706164776,0.021059812585561655,-0.09333090116109664, ,0.001389483463236815, ,0.020411192452845315,-0.005115448796868622,-0.036088992711457116,-0.043740735485218014,-0.026969713152419653,0.021553979151028597, ,0.041775590823686495, ,0.05138634206735809, ,0.0008560876820405031, ,0.22006699598390164,-0.22075431920970762,0.10379134772000001,1.7028920310378222,0.5265970700960074,-1.3137403203478755, ,0.13975985501983915,0.13975985501983915,0.03747955651764706,-0.05485721343013132,0.1291380105602624,-0.09891597612542266, ,1.2217788696289062
0.01620873451907108,0.021570556437402855,-0.09268380717742268, ,0.016889232079330213,0.021034704263410763,-0.09352079348365659, ,0.0012044752212950539, ,0.01982806223101713,-0.0052618639326650046,-0.03501323072455518,-0.00950455758809873,0.010888427078500454,-0.03640965276602337, ,0.04058035965407285, ,0.014451361111239486, ,0.0008607956217601591, ,0.22145708790126203,-0.21935650455947298,0.10416208666000001,1.7026823410943377,0.5281000715934273,-1.3150475960286765, ,0.1365423619546342,0.14058806156810486,0.03645036961098399,0.0038798005818690183,0.151653093246732,-0.1207276815549013, ,1.2271678447723389
0.016406567837440024,0.021515374565654326,-0.09303061431738438, ,0.016990914219411863,0.021009157520135935,-0.09371057723116219, ,0.0010295950443791754, ,0.019556711025744317,-0.0055263825982030165,-0.03445738838060749,-0.05297219084871578,-0.0348716075440262,-0.022868461830878165, ,0.04000396811290368, ,0.06341950363359333, ,0.0008630462807284126, ,0.22278539795562866,-0.2179432444434899,0.10452115899000002,1.7026823410943377,0.5291931635915509,-1.3160206179983884, ,0.12981797750816795,0.13975985501983915,0.03563492510067114,-0.010313592219223774,0.10054397240636265,-0.08159460125209056, ,1.2327709197998047
0.016406567837440024,0.021515374565654326,-0.09303061431738438, ,0.017092684102815014,0.020983194673146487,-0.09390024584602305, ,0.001228914139882933, ,0.019556711025744317,-0.0055263825982030165,-0.03445738838060749,-0.05297219084871578,-0.0348716075440262,-0.022868461830878165, ,0.04000396811290368, ,0.06341950363359333, ,0.0008678603315067616, ,0.22278539795562866,-0.2179432444434899,0.10452115899000002,1.7026823410943377,0.5291931635915509,-1.3160206179983884, ,0.12981797750816795,0.13975985501983915,0.03563492510067114,-0.010313592219223774,0.10054397240636265,-0.08159460125209056, ,1.238412857055664
0.016596762127583396,0.021455956452237863,-0.09337125619147318, ,0.01719453973942715,0.02095683783835131,-0.09408979279474165, ,0.001059600072756813, ,0.018714193794349337,-0.00609177685115494,-0.03395482366666532,-0.06928057769739486,-0.045386792289194684,0.06852496429505252, ,0.03924615707061095, ,0.08282339178043834, ,0.0008703504580165025, ,0.22404420341412726,-0.21655315252612947,0.10487245358000001,1.7018435813203996,0.5302862555896743,-1.3169936399681004, ,0.1221324859182378,0.13853568110725661,0.034931604210526324,-0.10681110993631629,0.10308769504724886,-0.0850502706146935, ,1.2436039447784424
0.016596762127583396,0.021455956452237863,-0.09337125619147318, ,0.017296479172442574,0.020930108930828802,-0.09427921156799197, ,0.001261151269431186, ,0.018714193794349337,-0.00609177685115494,-0.03395482366666532,-0.06928057769739486,-0.045386792289194684,0.06852496429505252, ,0.03924615707061095, ,0.08282339178043834, ,0.0008753607248295112, ,0.22404420341412726,-0.21655315252612947,0.10487245358000001,1.7018435813203996,0.5302862555896743,-1.3169936399681004, ,0.1221324859182378,0.13853568110725661,0.034931604210526324,-0.10681110993631629,0.10308769504724886,-0.0850502706146935, ,1.2489778995513916
0.01675802663900821,0.02140513660931345,-0.09366813448325517, ,0.017398500478188018,0.020903029665498205,-0.09446849568069769, ,0.001141444772239477, ,0.018481925064786374,-0.005672178487400568,-0.034224286297178774,-0.02625522417733773,-0.002290065876446202,0.008545009320608372, ,0.039307212257352564, ,0.026354017613733592, ,0.0008787288773283716, ,0.22508677235214755,-0.21535612893062467,0.10517837802,1.701214511489946,0.5312427110880324,-1.3178552440341158, ,0.12027495761529881,0.1371343086105069,0.03539735893333334,-0.04570357713789406,0.1320409376021797,-0.11262318459106237, ,1.2545139789581299
0.01675802663900821,0.02140513660931345,-0.09366813448325517, ,0.017500601765947033,0.02087562155778965,-0.09465763867210862, ,0.0013457052235526842, ,0.018481925064786374,-0.005672178487400568,-0.034224286297178774,-0.02625522417733773,-0.002290065876446202,0.008545009320608372, ,0.039307212257352564, ,0.026354017613733592, ,0.0008845660816561754, ,0.22508677235214755,-0.21535612893062467,0.10517837802,1.701214511489946,0.5312427110880324,-1.3178552440341158, ,0.12027495761529881,0.1371343086105069,0.03539735893333334,-0.04570357713789406,0.1320409376021797,-0.11262318459106237, ,1.2598509788513184
0.01695726263137746,0.021345371902793578,-0.09403765093764804, ,0.01760278117778462,0.020847905924314864,-0.09484663410587946, ,0.0011483119610894653, ,0.018118786835241645,-0.005466257315858172,-0.03402270485013749,-0.03113584169076321,-0.006498018694666304,-0.008847654972389337, ,0.03893218271229688, ,0.031805963236714065, ,0.0008878222036244877, ,0.22636874600926882,-0.21387336421877357,0.10556078357000001,1.701214511489946,0.5326090760856869,-1.31896942307108, ,0.11474841784579294,0.13422481125667718,0.03516293933774835,-0.026895847567573287,0.11779344099323592,-0.10135985486591492, ,1.2651808261871338
0.01695726263137746,0.021345371902793578,-0.09403765093764804, ,0.017705036888373913,0.020819903883538528,-0.09503547557014771, ,0.0013531211977903259, ,0.018118786835241645,-0.005466257315858172,-0.03402270485013749,-0.03113584169076321,-0.006498018694666304,-0.008847654972389337, ,0.03893218271229688, ,0.031805963236714065, ,0.0008934965816021199, ,0.22636874600926882,-0.21387336421877357,0.10556078357000001,1.701214511489946,0.5326090760856869,-1.31896942307108, ,0.11474841784579294,0.13422481125667718,0.03516293933774835,-0.026895847567573287,0.11779344099323592,-0.10135985486591492, ,1.2705278396606445
0.01699097226783394,0.02133506723241639,-0.09410145316854263, ,0.01780736710481888,0.020791636356447818,-0.09522415667761028, ,0.0014907316378491664, ,0.01818979788727693,-0.005623336802330026,-0.03412157845266118,-0.032628083400926954,-0.006687436476711851,-0.011369286670027876, ,0.03907393990978559, ,0.033305665876020615, ,0.0009006921846894337, ,0.22658498252974713,-0.21361851403392415,0.10562689436000001,1.701214511489946,0.5328823490852177,-1.319192258878473, ,0.11502659582844943,0.1359555036654309,0.03524073345132744,-0.024726710008938224,0.11740334245044401,-0.10109572746740816, ,1.2759020328521729
0.01699097226783394,0.02133506723241639,-0.09410145316854263, ,0.017909770066481923,0.02076312406722439,-0.09541267106560294, ,0.001700176682754327, ,0.01818979788727693,-0.005623336802330026,-0.03412157845266118,-0.032628083400926954,-0.006687436476711851,-0.011369286670027876, ,0.03907393990978559, ,0.033305665876020615, ,0.0009102098572854443, ,0.22658498252974713,-0.21361851403392415,0.10562689436000001,1.701214511489946,0.5328823490852177,-1.319192258878473, ,0.11502659582844943,0.1359555036654309,0.03524073345132744,-0.024726710008938224,0.11740334245044401,-0.10109572746740816, ,1.281174898147583
0.017349870366965267,0.021239225461798784,-0.09481724356734356, ,0.018012244044806166,0.020734387543913678,-0.09560101239617672, ,0.0011436318417574554, ,0.018776371485903436,-0.004149365368185405,-0.0394670655085139,-0.01627222784803697,0.016341064735210076,0.0002652989399998414, ,0.04390237600618754, ,0.023059055444959245, ,0.0009129559982792327, ,0.22873962500165576,-0.21103139852105895,0.10636707595000001,1.700375751716008,0.5352051695812303,-1.3210863632413123, ,0.10820631876678537,0.13053224423448526,0.04094810159383034,-0.035841671296847684,0.1364102439897242,-0.1138601068363365, ,1.2864859104156494
0.017349870366965267,0.021239225461798784,-0.09481724356734356, ,0.018114787343142973,0.020705447119096707,-0.09578917435617636, ,0.001347095675096528, ,0.018776371485903436,-0.004149365368185405,-0.0394670655085139,-0.01627222784803697,0.016341064735210076,0.0002652989399998414, ,0.04390237600618754, ,0.023059055444959245, ,0.000918004134056178, ,0.22873962500165576,-0.21103139852105895,0.10636707595000001,1.700375751716008,0.5352051695812303,-1.3210863632413123, ,0.10820631876678537,0.13053224423448526,0.04094810159383034,-0.035841671296847684,0.1364102439897242,-0.1138601068363365, ,1.2918238639831543
0.017528565493726903,0.021192193265344897,-0.09518648961244815, ,0.01821739829657492,0.020676322930559914,-0.09597715065731775, ,0.0011686563739889168, ,0.0180546295798015,-0.0051679893995417656,-0.03684989017940613,-0.032307249228730094,-0.00040701772083023553,0.07460422736940442, ,0.04135930572352384, ,0.0323087614661689, ,0.0009208851942852899, ,0.22978991667255028,-0.20976487032968613,0.1067494815,1.6993273019985855,0.5365715345788846,-1.3222822210184169, ,0.10650610724856428,0.13017413108157858,0.038107204593301434,-0.11522665330075858,0.13427028703509056,-0.11555756956808645, ,1.2971668243408203
0.017528565493726903,0.021192193265344897,-0.09518648961244815, ,0.01832007527174188,0.020647034921966137,-0.09616493503626573, ,0.001371510406609578, ,0.0180546295798015,-0.0051679893995417656,-0.03684989017940613,-0.032307249228730094,-0.00040701772083023553,0.07460422736940442, ,0.04135930572352384, ,0.0323087614661689, ,0.0009260059353344295, ,0.22978991667255028,-0.20976487032968613,0.1067494815,1.6993273019985855,0.5365715345788846,-1.3222822210184169, ,0.10650610724856428,0.13017413108157858,0.038107204593301434,-0.11522665330075858,0.13427028703509056,-0.11555756956808645, ,1.3024718761444092
0.017711581187048478,0.021142980587761734,-0.09555705669853437, ,0.018422816666665703,0.020617602843525415,-0.09635252125471239, ,0.0011893870445488614, ,0.01766110093098775,-0.005080354796747927,-0.036153631903884015,-0.019852745080704254,0.013405113596137917,0.0029930056768731664, ,0.04055625217888009, ,0.023953429614912546, ,0.0009289652736402097, ,0.23085565380919326,-0.20844428300819373,0.10713318334000001,1.6991176120551008,0.5378012630767736,-1.3234483396319656, ,0.10236994774376568,0.13017413108157858,0.03739157633802818,-0.040548690074939386,0.1281407388835229,-0.11168973775492526, ,1.30771803855896
0.017885040392243465,0.021096255619795494,-0.09591039995566922, ,0.018525620910574674,0.02058804625266496,-0.09653990309945348, ,0.0010319371925359472, ,0.017679222269192333,-0.0048928345911265405,-0.03527426436757856,-0.004243067376422638,0.015250199193107272,-0.014052126074911065, ,0.03975887897128706, ,0.015827747280354996, ,0.0009301094060723844, ,0.23186733181571667,-0.20718547754969516,0.10750003341000001,1.6991176120551008,0.539167628074428,-1.3248892336294924, ,0.10371250443548719,0.12636077437878931,0.03661795751724139,-0.02499829277008921,0.12809865378745788,-0.12056335591121975, ,1.3135390281677246
0.017885040392243465,0.021096255619795494,-0.09591039995566922, ,0.01862848646373033,0.02055838451470121,-0.09672707438246815, ,0.0012284032344030873, ,0.017679222269192333,-0.0048928345911265405,-0.03527426436757856,-0.004243067376422638,0.015250199193107272,-0.014052126074911065, ,0.03975887897128706, ,0.015827747280354996, ,0.0009333873602298646, ,0.23186733181571667,-0.20718547754969516,0.10750003341000001,1.6991176120551008,0.539167628074428,-1.3248892336294924, ,0.10371250443548719,0.12636077437878931,0.03661795751724139,-0.02499829277008921,0.12809865378745788,-0.12056335591121975, ,1.3190040588378906
0.018065012603817883,0.021042837622187567,-0.09625682872251004, ,0.018731411817249747,0.02052863680350869,-0.09691402894099438, ,0.0010678963061873082, ,0.017342839985222663,-0.005171490028220511,-0.03293200772037786,-0.008654576919653406,-0.002084054612713917,-0.030693326465430257, ,0.03757706135876047, ,0.008899789402193891, ,0.0009348494139902717, ,0.23293306895235966,-0.20590350389257386,0.10785910574000002,1.6986982321681319,0.5402607200725515,-1.3259439343393449, ,0.10326108983511509,0.12388634668207675,0.034181998969957085,-0.00936814795256731,0.10640413622637548,-0.11146407028738449, ,1.3243069648742676
0.018065012603817883,0.021042837622187567,-0.09625682872251004, ,0.018834395492932497,0.020498822102192022,-0.097100760637609, ,0.0012649600758051513, ,0.017342839985222663,-0.005171490028220511,-0.03293200772037786,-0.008654576919653406,-0.002084054612713917,-0.030693326465430257, ,0.03757706135876047, ,0.008899789402193891, ,0.0009383989909990338, ,0.23293306895235966,-0.20590350389257386,0.10785910574000002,1.6986982321681319,0.5402607200725515,-1.3259439343393449, ,0.10326108983511509,0.12388634668207675,0.034181998969957085,-0.00936814795256731,0.10640413622637548,-0.11146407028738449, ,1.329643964767456
0.018236632988416802,0.02098694414767381,-0.09658141291874373, ,0.018937436043084465,0.02046895920375572,-0.09728726336030329, ,0.0011214535966357158, ,0.01776021348407492,-0.005726232372402284,-0.033626346492367995,-0.04844057872282516,-0.04020082102945533,0.08002213552708613, ,0.038457068252890185, ,0.0629488100394154, ,0.0009403463804207007, ,0.2339524696917573,-0.2046833120984464,0.10819484485000001,1.6976497824507093,0.5412171755709096,-1.3268872171455008, ,0.10462727845476381,0.12453666871190391,0.034779064454148474,-0.1251638240120811,0.09267515320744228,-0.09908575773296173, ,1.3350050449371338
0.018236632988416802,0.02098694414767381,-0.09658141291874373, ,0.019040532050343614,0.020439066711775363,-0.09747353102256262, ,0.001319961400077626, ,0.01776021348407492,-0.005726232372402284,-0.033626346492367995,-0.04844057872282516,-0.04020082102945533,0.08002213552708613, ,0.038457068252890185, ,0.0629488100394154, ,0.0009443423279960368, ,0.2339524696917573,-0.2046833120984464,0.10819484485000001,1.6976497824507093,0.5412171755709096,-1.3268872171455008, ,0.10462727845476381,0.12453666871190391,0.034779064454148474,-0.1251638240120811,0.09267515320744228,-0.09908575773296173, ,1.340277910232544
0.018417213883877813,0.020931969859085225,-0.09692816770915393, ,0.019143682127504585,0.020409163041068143,-0.09765955756344269, ,0.0011558608034360595, ,0.01744565628648299,-0.005599837273120873,-0.03346149355541446,-0.0032072357117152272,0.009861520942321528,0.01607015085288353, ,0.038149451525684885, ,0.010367931651188086, ,0.0009465456454485371, ,0.23501820682840027,-0.20340133844132513,0.10855521347000001,1.6972304025637401,0.5424469040687986,-1.3282166932393311, ,0.10359928117736984,0.12535923587644754,0.034779064454148474,-0.05975104006547062,0.12940228639211743,-0.129076349274941, ,1.3454899787902832
0.018417213883877813,0.020931969859085225,-0.09692816770915393, ,0.01924688491734365,0.020379266418363313,-0.09784533694764826, ,0.001354634463314138, ,0.01744565628648299,-0.005599837273120873,-0.03346149355541446,-0.0032072357117152272,0.009861520942321528,0.01607015085288353, ,0.038149451525684885, ,0.010367931651188086, ,0.0009507527466636464, ,0.23501820682840027,-0.20340133844132513,0.10855521347000001,1.6972304025637401,0.5424469040687986,-1.3282166932393311, ,0.10359928117736984,0.12535923587644754,0.034779064454148474,-0.05975104006547062,0.12940228639211743,-0.129076349274941, ,1.3507108688354492
0.018591275453101914,0.020883517755242765,-0.09725962673358877, ,0.019350139092443226,0.02034939488297274,-0.0980308631656102, ,0.0012066345345105377, ,0.017773209183487113,-0.0049651656013588235,-0.03425413453730593,0.013754566482737332,0.021633095439982375,-0.008698062911637675, ,0.03890868241188286, ,0.02563458129946905, ,0.0009533637853151453, ,0.23604533030067215,-0.20220431484582033,0.10890132290000001,1.6972304025637401,0.5436766325666875,-1.3294644905930204, ,0.10462727845476381,0.12135158767067875,0.03579508206741574,-0.03352099557443781,0.13710682233814725,-0.13592936068993716, ,1.3559608459472656
0.018591275453101914,0.020883517755242765,-0.09725962673358877, ,0.019453443355017776,0.020319566287462097,-0.09821613023356379, ,0.0014058000194090293, ,0.017773209183487113,-0.0049651656013588235,-0.03425413453730593,0.013754566482737332,0.021633095439982375,-0.008698062911637675, ,0.03890868241188286, ,0.02563458129946905, ,0.0009579338482857906, ,0.23604533030067215,-0.20220431484582033,0.10890132290000001,1.6972304025637401,0.5436766325666875,-1.3294644905930204, ,0.10462727845476381,0.12135158767067875,0.03579508206741574,-0.03352099557443781,0.13710682233814725,-0.13592936068993716, ,1.3612818717956543
0.018775516896663902,0.020833340792909858,-0.09761750392016447, ,0.0195567964367379,0.020289798298320828,-0.09840113219362587, ,0.0012328460707364895, ,0.01866885596463856,-0.004809905595765062,-0.03632409500083703,-0.00722498463117669,0.007483645622199765,-0.03826390141998218, ,0.04112300150157363, ,0.01039914022014129, ,0.0009606829705102976, ,0.2371033447044409,-0.20095323212019597,0.10927465442,1.6970207126202554,0.5449063610645766,-1.3306306092065694, ,0.10591176513222186,0.12470031742243204,0.03792574171428572,0.0,0.11688339951788337,-0.11077095668666095, ,1.366593837738037
0.018775516896663902,0.020833340792909858,-0.09761750392016447, ,0.01966019709855562,0.02026010839663325,-0.09858586311387323, ,0.001431423755496768, ,0.01866885596463856,-0.004809905595765062,-0.03632409500083703,-0.00722498463117669,0.007483645622199765,-0.03826390141998218, ,0.04112300150157363, ,0.01039914022014129, ,0.0009653437703616487, ,0.2371033447044409,-0.20095323212019597,0.10927465442,1.6970207126202554,0.5449063610645766,-1.3306306092065694, ,0.10591176513222186,0.12470031742243204,0.03792574171428572,0.0,0.11688339951788337,-0.11077095668666095, ,1.3719749450683594
0.018971674227195007,0.02078223165706392,-0.09800467343955907, ,0.019763644130528876,0.02023051387874874,-0.09877031708841935, ,0.0012319979836573525, ,0.01913896152715549,-0.004732645402002246,-0.03715972960421671,-0.012973730119741934,-0.004286465263952495,0.08575742072228291, ,0.04206593972678526, ,0.013660915194367797, ,0.0009679580273547439, ,0.23821541823832923,-0.19967898119594893,0.10967909690000001,1.6959722629028329,0.546272726062231,-1.3319081457238147, ,0.10983442310008192,0.11891847313091576,0.03894574943765281,-0.13092738980448032,0.13544409818205083,-0.12932247367157837, ,1.3772809505462646
0.018971674227195007,0.02078223165706392,-0.09800467343955907, ,0.019867136351647937,0.0202010318569533,-0.09895448823749348, ,0.0014289134943563078, ,0.01913896152715549,-0.004732645402002246,-0.03715972960421671,-0.012973730119741934,-0.004286465263952495,0.08575742072228291, ,0.04206593972678526, ,0.013660915194367797, ,0.0009724333231508756, ,0.23821541823832923,-0.19967898119594893,0.10967909690000001,1.6959722629028329,0.546272726062231,-1.3319081457238147, ,0.10983442310008192,0.11891847313091576,0.03894574943765281,-0.13092738980448032,0.13544409818205083,-0.12932247367157837, ,1.3825578689575195
0.019158531594057997,0.020737780823050236,-0.09836226774790986, ,0.01997067260965709,0.020171679260138523,-0.09913837070751676, ,0.0012579267914548896, ,0.019460533880747755,-0.004816393820529737,-0.036888515302021765,0.0022918100700761654,0.0061263583728460875,0.02090670013467068, ,0.04198419452062481, ,0.006535774994411184, ,0.0009751784526537988, ,0.23929660084072066,-0.19852829399768948,0.11005502100000002,1.695133503128895,0.5476390910598853,-1.33318568224106, ,0.11230407285026127,0.12150696742441842,0.03875623240875913,-0.06482108063357558,0.13503611802151427,-0.13213691911498082, ,1.3878259658813477
0.019158531594057997,0.020737780823050236,-0.09836226774790986, ,0.02007425178088416,0.020142472834474227,-0.09932195867118143, ,0.0014539400709909593, ,0.019460533880747755,-0.004816393820529737,-0.036888515302021765,0.0022918100700761654,0.0061263583728460875,0.02090670013467068, ,0.04198419452062481, ,0.006535774994411184, ,0.0009797380871141527, ,0.23929660084072066,-0.19852829399768948,0.11005502100000002,1.695133503128895,0.5476390910598853,-1.33318568224106, ,0.11230407285026127,0.12150696742441842,0.03875623240875913,-0.06482108063357558,0.13503611802151427,-0.13213691911498082, ,1.3930809497833252
0.01936383620330121,0.020687191980503724,-0.09873940922259244, ,0.02017787277006128,0.0201134291440776,-0.09950524632752752, ,0.0012563302892876613, ,0.01964888407595725,-0.005089109220019343,-0.035454065111539895,-0.005879376657636832,-0.00862037212458362,-0.01158144538172669, ,0.04085300981588753, ,0.010431772002614054, ,0.0009823474475120161, ,0.24048590170335124,-0.19724632034056822,0.11045168574000001,1.695133503128895,0.5488688195577742,-1.3344334795947494, ,0.11488733844851184,0.12197550328852286,0.03730400824355972,-0.030639472722601993,0.11556368094672749,-0.11715459174159175, ,1.398465871810913
0.019545401851287305,0.020638243825091593,-0.09906054002876766, ,0.020281534510151536,0.020084564571684303,-0.09968822790202078, ,0.0011146497536577156, ,0.018759058733704783,-0.005307771127409627,-0.032307771721660064,-0.007436256126849786,-0.016394518472741478,-0.020616743089984388, ,0.03773416002158318, ,0.018001192787035724, ,0.0009835839176629104, ,0.24155936157286845,-0.19610335587518296,0.11079001743000001,1.695133503128895,0.5499619115558978,-1.3354881803046021, ,0.11190677070574384,0.11744670984959255,0.03403592205128206,-0.02069949349738603,0.10249009323256059,-0.10944178628739587, ,1.4044759273529053
0.019545401851287305,0.020638243825091593,-0.09906054002876766, ,0.020385235962174984,0.020055895319319554,-0.09987089764663125, ,0.001304273968464823, ,0.018759058733704783,-0.005307771127409627,-0.032307771721660064,-0.007436256126849786,-0.016394518472741478,-0.020616743089984388, ,0.03773416002158318, ,0.018001192787035724, ,0.0009865532699851504, ,0.24155936157286845,-0.19610335587518296,0.11079001743000001,1.695133503128895,0.5499619115558978,-1.3354881803046021, ,0.11190677070574384,0.11744670984959255,0.03403592205128206,-0.02069949349738603,0.10249009323256059,-0.10944178628739587, ,1.4097850322723389
0.01974006879582795,0.020581825430315,-0.09938903952476058, ,0.020488976115031504,0.020027437408968042,-0.10005324983990911, ,0.0011442830042080313, ,0.018857473077598032,-0.005551599191514609,-0.03204875719981513,0.0047720933947512645,-0.00949724520558314,-0.030168964996395535, ,0.037597172533426794, ,0.010627169473706673, ,0.0009880003317670116, ,0.24272549423687634,-0.19489860954680396,0.11113612686000002,1.6947141232419258,0.5509183670542559,-1.3364314631107581, ,0.1131072009040176,0.11891847313091576,0.03367613429175476,-0.013795991315218853,0.10603890573982853,-0.1188276132532533, ,1.4150469303131104
0.01974006879582795,0.020581825430315,-0.09938903952476058, ,0.020592753985325465,0.0199992066832445,-0.10023527878706436, ,0.0013351544951393625, ,0.018857473077598032,-0.005551599191514609,-0.03204875719981513,0.0047720933947512645,-0.00949724520558314,-0.030168964996395535, ,0.037597172533426794, ,0.010627169473706673, ,0.0009911562787067603, ,0.24272549423687634,-0.19489860954680396,0.11113612686000002,1.6947141232419258,0.5509183670542559,-1.3364314631107581, ,0.1131072009040176,0.11891847313091576,0.03367613429175476,-0.013795991315218853,0.10603890573982853,-0.1188276132532533, ,1.420403003692627
0.019928305999692718,0.02052127383492583,-0.09970865969178745, ,0.020696568617194953,0.019971218806065734,-0.1004169788200435, ,0.0011808911768994926, ,0.01900165914691831,-0.0060561354087613995,-0.03266901200643771,-0.03402336461220229,-0.012134575007196,0.09777803899282081, ,0.0382753729165594, ,0.036122015979150573, ,0.000992865602113902, ,0.24386845870226156,-0.1937170314170476,0.11147316226000001,1.6934559835810188,0.5521480955521448,-1.3376792604644476, ,0.11474841784579294,0.11862117694808846,0.034477947012987016,-0.1391082483711952,0.1329993212502372,-0.10998925585302097, ,1.4256720542907715
0.019928305999692718,0.02052127383492583,-0.09970865969178745, ,0.020800419082130497,0.019943489263319413,-0.10059834429760722, ,0.0013733007454953983, ,0.01900165914691831,-0.0060561354087613995,-0.03266901200643771,-0.03402336461220229,-0.012134575007196,0.09777803899282081, ,0.0382753729165594, ,0.036122015979150573, ,0.0009962623444655227, ,0.24386845870226156,-0.1937170314170476,0.11147316226000001,1.6934559835810188,0.5521480955521448,-1.3376792604644476, ,0.11474841784579294,0.11862117694808846,0.034477947012987016,-0.1391082483711952,0.1329993212502372,-0.10998925585302097, ,1.4309568405151367
0.020125944721835494,0.020466364571711252,-0.10005400557882657, ,0.02090430447880409,0.019916033363535562,-0.10077936960540847, ,0.001197856970184431, ,0.0190509694219902,-0.0051446705378717875,-0.03334377090001241,0.04667077822784215,0.050547529206541805,0.0011565696184115317, ,0.038745504625612576, ,0.06879805980218819, ,0.000998046367701973, ,0.24505775956489215,-0.19250456235579436,0.11184001233000002,1.6930366036940496,0.5537877335493301,-1.3390979540489452, ,0.11572797751033022,0.11516619121173638,0.03555538285714287,-0.044654933740219956,0.1796469713573698,-0.16443821370223055, ,1.4362988471984863
0.020125944721835494,0.020466364571711252,-0.10005400557882657, ,0.021008223932893668,0.019888866238557748,-0.10096004915606993, ,0.0013902646852036677, ,0.0190509694219902,-0.0051446705378717875,-0.03334377090001241,0.04667077822784215,0.050547529206541805,0.0011565696184115317, ,0.038745504625612576, ,0.06879805980218819, ,0.0010014868792590054, ,0.24505775956489215,-0.19250456235579436,0.11184001233000002,1.6930366036940496,0.5537877335493301,-1.3390979540489452, ,0.11572797751033022,0.11516619121173638,0.03555538285714287,-0.044654933740219956,0.1796469713573698,-0.16443821370223055, ,1.4415500164031982
0.020329919115781577,0.02041567704953223,-0.1004041472895167, ,0.021112176596905563,0.01986200284421225,-0.10114037738926167, ,0.001208518370643011, ,0.02093327386521283,-0.004980378711522885,-0.03542300901300642,-0.07047427347110875,-0.055172537370361485,-0.028055610286481524, ,0.0414462989223613, ,0.08950182304147854, ,0.0010032871530971273, ,0.24625478316039695,-0.191322984226038,0.11221204756000001,1.6928269137505652,0.5550174620472191,-1.3401823939223536, ,0.11891847313091576,0.11832536353924038,0.03747955651764706,0.0,0.06547545733373689,-0.04168898637262581, ,1.446821928024292
0.020329919115781577,0.02041567704953223,-0.1004041472895167, ,0.021216161650003187,0.01983545796098023,-0.10132034877177892, ,0.0014005374597928992, ,0.02093327386521283,-0.004980378711522885,-0.03542300901300642,-0.07047427347110875,-0.055172537370361485,-0.028055610286481524, ,0.0414462989223613, ,0.08950182304147854, ,0.0010067117247065736, ,0.24625478316039695,-0.191322984226038,0.11221204756000001,1.6928269137505652,0.5550174620472191,-1.3401823939223536, ,0.11891847313091576,0.11832536353924038,0.03747955651764706,0.0,0.06547545733373689,-0.04168898637262581, ,1.4521079063415527
0.02053676036151518,0.020369115546369974,-0.10076314440662881, ,0.021320178297828174,0.01980924619466743,-0.10149995779762001, ,0.0012124732273566655, ,0.020921074348041795,-0.004752260629158346,-0.03649949146265755,-0.035389750747957874,-0.03736198593361408,-0.03318434795570869, ,0.04233778702289897, ,0.05146151641694737, ,0.0010084703700283693, ,0.2474054703586564,-0.1901568515620301,0.11259186053000002,1.6930366036940496,0.5557006445460463,-1.3408211621809762, ,0.11658100928559063,0.11730153468290579,0.03866216388349515,-0.002529784187668234,0.08192891557376303,-0.07693688455627229, ,1.4573309421539307
0.02053676036151518,0.020369115546369974,-0.10076314440662881, ,0.021424225772328356,0.019783381977075232,-0.10167919898806388, ,0.0014035079856405273, ,0.020921074348041795,-0.004752260629158346,-0.03649949146265755,-0.035389750747957874,-0.03736198593361408,-0.03318434795570869, ,0.04233778702289897, ,0.05146151641694737, ,0.0010118181464318621, ,0.2474054703586564,-0.1901568515620301,0.11259186053000002,1.6930366036940496,0.5557006445460463,-1.3408211621809762, ,0.11658100928559063,0.11730153468290579,0.03866216388349515,-0.002529784187668234,0.08192891557376303,-0.07693688455627229, ,1.462601900100708
0.020810610026628068,0.020298424853230607,-0.10124597657461801, ,0.02152830333158043,0.01975787956667097,-0.10185806689174748, ,0.0010871648647371467, ,0.020314368216949024,-0.0054706790745880215,-0.03551277170967086,0.007319511316234046,0.012463139331358265,0.07486017621196664, ,0.041276613718837486, ,0.014451595214336714, ,0.0010124513121319066, ,0.24898090786499819,-0.18858913678856254,0.11310519137000001,1.6917784640331426,0.5576135555427625,-1.3426260490531479, ,0.11832536353924038,0.11615292724415029,0.03783565681710214,-0.1220243421751336,0.15779775728976703,-0.14560925234066133, ,1.468770980834961
0.020810610026628068,0.020298424853230607,-0.10124597657461801, ,0.02163241025961709,0.019732753049258974,-0.10203655608474373, ,0.0012729321170352932, ,0.020314368216949024,-0.0054706790745880215,-0.03551277170967086,0.007319511316234046,0.012463139331358265,0.07486017621196664, ,0.041276613718837486, ,0.014451595214336714, ,0.0010146219855061015, ,0.24898090786499819,-0.18858913678856254,0.11310519137000001,1.6917784640331426,0.5576135555427625,-1.3426260490531479, ,0.11832536353924038,0.11615292724415029,0.03783565681710214,-0.1220243421751336,0.15779775728976703,-0.14560925234066133, ,1.4740879535675049
0.021022597653964303,0.02024537108034242,-0.10161141466275667, ,0.02173654586624924,0.019708016338650818,-0.10221466117063968, ,0.0010781365950176974, ,0.020156886348385188,-0.0048717552300939744,-0.033947770920810395,0.024679046660420586,-0.003262950223731813,-0.0193325174268542, ,0.03978046275215366, ,0.02489291266029837, ,0.0010151468996342965, ,0.2502088223919999,-0.18739983592593196,0.11349537466000001,1.6911493942026892,0.5591165570401824,-1.3441783609543707, ,0.11643796510241813,0.11099057492218804,0.03628430870159454,-0.027327877059090996,0.12141633027750527,-0.13728310815497374, ,1.4795019626617432
0.021022597653964303,0.02024537108034242,-0.10161141466275667, ,0.021840709486891888,0.019683683177335782,-0.10239237678061312, ,0.0012628151492150253, ,0.020156886348385188,-0.0048717552300939744,-0.033947770920810395,0.024679046660420586,-0.003262950223731813,-0.0193325174268542, ,0.03978046275215366, ,0.02489291266029837, ,0.0010171769672538105, ,0.2502088223919999,-0.18739983592593196,0.11349537466000001,1.6911493942026892,0.5591165570401824,-1.3441783609543707, ,0.11643796510241813,0.11099057492218804,0.03628430870159454,-0.027327877059090996,0.12141633027750527,-0.13728310815497374, ,1.4847898483276367
0.021227864448905294,0.020191603924210884,-0.10194824759070613, ,0.02194490048239163,0.019659767137152562,-0.1025696975735115, ,0.0010877458905990578, ,0.020088071153262138,-0.005232068927176999,-0.03214907353992586,-0.016961383942165464,-0.04499213477531687,-0.06787149752966012, ,0.03826836914989735, ,0.04808270368387302, ,0.0010177506983379183, ,0.25139040052175626,-0.1862491487276725,0.11385444699000001,1.6909397042592043,0.5600730125385404,-1.3450399650203861, ,0.11488733844851184,0.11257051193175657,0.034255508645161296,0.028363087955930046,0.06638097790111201,-0.08477225542650342, ,1.4900548458099365
0.021227864448905294,0.020191603924210884,-0.10194824759070613, ,0.022049118238847056,0.019636281619958403,-0.10274661823592855, ,0.0012728850443959434, ,0.020088071153262138,-0.005232068927176999,-0.03214907353992586,-0.016961383942165464,-0.04499213477531687,-0.06787149752966012, ,0.03826836914989735, ,0.04808270368387302, ,0.0010198082333867733, ,0.25139040052175626,-0.1862491487276725,0.11385444699000001,1.6909397042592043,0.5600730125385404,-1.3450399650203861, ,0.11488733844851184,0.11257051193175657,0.034255508645161296,0.028363087955930046,0.06638097790111201,-0.08477225542650342, ,1.4952850341796875
0.021423435622836638,0.020140091672879962,-0.10226137666328104, ,0.022153362167437553,0.019613239858301063,-0.10292313348228281, ,0.0011172679546704318, ,0.020088071153262138,-0.005232068927176999,-0.03214907353992586,-0.016961383942165464,-0.04499213477531687,-0.06787149752966012, ,0.03826836914989735, ,0.04808270368387302, ,0.0010205879111570427, ,0.252517919521393,-0.1851525206595326,0.11418888981000001,1.6911493942026892,0.560892831537133,-1.3458718299228458, ,0.11324217369745916,0.11086091303559671,0.034255508645161296,0.0,0.10375675321404607,-0.08470914866689912, ,1.5006508827209473
0.021423435622836638,0.020140091672879962,-0.10226137666328104, ,0.022257631704244836,0.019590654916088353,-0.10309923805489468, ,0.001303754410733563, ,0.019654151449216915,-0.005262310580034701,-0.03204126284793374,-0.019605996812864693,-0.012165948984124516,-0.032852365630351966, ,0.03795550166602833, ,0.023073180413276047, ,0.0010228352643282849, ,0.252517919521393,-0.1851525206595326,0.11418888981000001,1.6911493942026892,0.560892831537133,-1.3458718299228458, ,0.11324217369745916,0.11086091303559671,0.034255508645161296,0.0,0.10375675321404607,-0.08470914866689912, ,1.5060539245605469
0.021618475691149622,0.020085781653693575,-0.10258373353517837, ,0.022361926310080528,0.019568539689259503,-0.10327492672406458, ,0.0011393007052236238, ,0.01919105768219189,-0.005223689671409986,-0.03153347859739791,0.014195854751524784,0.006739834953833078,-0.004884726073726721, ,0.0372819514134784, ,0.015713576567102313, ,0.0010237523150439963, ,0.2536454385210298,-0.18405589259139274,0.11453370295000001,1.6905203243722353,0.562122560035022,-1.3470379485363948, ,0.11138138680571688,0.10734948140098505,0.03381913273885351,-0.036571316437682834,0.12810472045063007,-0.1244713604154503, ,1.5113630294799805
0.021618475691149622,0.020085781653693575,-0.10258373353517837, ,0.022466245470311695,0.01954690690645605,-0.10345019428815061, ,0.0013265948243951654, ,0.01919105768219189,-0.005223689671409986,-0.03153347859739791,0.014195854751524784,0.006739834953833078,-0.004884726073726721, ,0.0372819514134784, ,0.015713576567102313, ,0.0010261182721483023, ,0.2536454385210298,-0.18405589259139274,0.11453370295000001,1.6905203243722353,0.562122560035022,-1.3470379485363948, ,0.11138138680571688,0.10734948140098505,0.03381913273885351,-0.036571316437682834,0.12810472045063007,-0.1244713604154503, ,1.516638994216919
0.021807499456991494,0.020033683044006493,-0.10289585106639088, ,0.022570588694681232,0.019525769129691305,-0.10362503557364561, ,0.001171320526010369, ,0.01986795090591599,-0.00514855683702485,-0.03338818056731367,0.003288478752662274,0.0008285966456735271,0.0330754186860009, ,0.03919201082235391, ,0.0033851400215346296, ,0.0010272438710154503, ,0.25473434385629545,-0.1830056009204982,0.11486814577000001,1.6898912545417817,0.563352288532911,-1.3481223884098033, ,0.11283821826215314,0.10759290426130474,0.03579508206741574,-0.07585882906221904,0.1307629415534928,-0.12337785191198161, ,1.5218698978424072
0.021807499456991494,0.020033683044006493,-0.10289585106639088, ,0.022674955517137427,0.019505138755021977,-0.10379944543525577, ,0.001359530016272679, ,0.01986795090591599,-0.00514855683702485,-0.03338818056731367,0.003288478752662274,0.0008285966456735271,0.0330754186860009, ,0.03919201082235391, ,0.0033851400215346296, ,0.0010297999182866597, ,0.25473434385629545,-0.1830056009204982,0.11486814577000001,1.6898912545417817,0.563352288532911,-1.3481223884098033, ,0.11283821826215314,0.10759290426130474,0.03579508206741574,-0.07585882906221904,0.1307629415534928,-0.12337785191198161, ,1.5272250175476074
0.02201515969653613,0.01998590184753192,-0.10324670529597062, ,0.02277934549565701,0.019485028013218757,-0.10397341875597779, ,0.0011674617708658341, ,0.019746694062499646,-0.00457952432652391,-0.03361179239303029,-0.01596269284972795,-0.006370133760729042,0.005691214385795355, ,0.03925119816422617, ,0.01718555402187118, ,0.0010308507721231417, ,0.25590047652030334,-0.1819012501194841,0.11524536616000002,1.6898912545417817,0.5647186535305654,-1.3493999249270485, ,0.10882676784228298,0.10348630486201829,0.03603803511312218,-0.039429034068695426,0.11239907111031455,-0.09076456838610765, ,1.5325310230255127
0.02201515969653613,0.01998590184753192,-0.10324670529597062, ,0.02288375821207027,0.019465448970436484,-0.10414695044717669, ,0.0013549080820244115, ,0.019746694062499646,-0.00457952432652391,-0.03361179239303029,-0.01596269284972795,-0.006370133760729042,0.005691214385795355, ,0.03925119816422617, ,0.01718555402187118, ,0.001033305751743606, ,0.25590047652030334,-0.1819012501194841,0.11524536616000002,1.6898912545417817,0.5647186535305654,-1.3493999249270485, ,0.10882676784228298,0.10348630486201829,0.03603803511312218,-0.039429034068695426,0.11239907111031455,-0.09076456838610765, ,1.5378239154815674
0.022207771223472266,0.01994149153672251,-0.10356940980377423, ,0.022988193271883874,0.01944641352888492,-0.10432003544866325, ,0.0011906299451368018, ,0.019303617752783466,-0.00461814140091706,-0.032117775491709584,-0.009597218446256172,-0.012988815278088152,-0.00839753076476089, ,0.03775590537757374, ,0.01614873827135282, ,0.001034488640415735, ,0.25695849092407214,-0.1808895721129607,0.11559147559,1.6898912545417817,0.5656751090289234,-1.3500981715127829, ,0.10674571603877478,0.10106170560007538,0.034477947012987016,-0.027173368222577453,0.10120978620560579,-0.0925981789406851, ,1.5431089401245117
0.022207771223472266,0.01994149153672251,-0.10356940980377423, ,0.023092650304110052,0.01942793342749975,-0.10449266872877234, ,0.0013781001275261196, ,0.01977167852414752,-0.004379873041884645,-0.03343150500492528,-0.014261101662808157,-0.017556928640848218,-0.019855135156154512, ,0.03908667402606173, ,0.022618200682092297, ,0.0010370529052449171, ,0.25804739625933776,-0.1798547259078146,0.11595314050000001,1.6894718746548125,0.5666315645272816,-1.3508780968386578, ,0.10650610724856428,0.10106170560007538,0.035875701621621625,-0.0143312098304703,0.09386807594216277,-0.08485759823520449, ,1.5483620166778564
0.02240818775999824,0.01989470142756359,-0.10390679663111384, ,0.023197128961089126,0.019410020242613145,-0.10466484528444002, ,0.001196654432421212, ,0.01977167852414752,-0.004379873041884645,-0.03343150500492528,-0.014261101662808157,-0.017556928640848218,-0.019855135156154512, ,0.03908667402606173, ,0.022618200682092297, ,0.0010382351387795562, ,0.25804739625933776,-0.1798547259078146,0.11595314050000001,1.6894718746548125,0.5666315645272816,-1.3508780968386578, ,0.10650610724856428,0.10106170560007538,0.035875701621621625,-0.0143312098304703,0.09386807594216277,-0.08485759823520449, ,1.5540759563446045
0.02260148065975033,0.019850042888109314,-0.10423970430958254, ,0.023301628918312063,0.019392685388623716,-0.1048365601412811, ,0.0010274338665506957, ,0.01946580120681604,-0.004264409098922841,-0.033725821313660226,-0.009957439331049154,-0.004137689655728061,0.0798980306037406, ,0.03917312375682076, ,0.010780883125227896, ,0.0010381557176602264, ,0.2590976879302323,-0.17888166156566232,0.11631091654000002,1.68842342493739,0.5678612930251705,-1.3518808579719257, ,0.10509074369708835,0.09527805377356505,0.03628430870159454,-0.11927992239785468,0.12520771087246763,-0.10920534582582096, ,1.5593209266662598
0.02260148065975033,0.019850042888109314,-0.10423970430958254, ,0.023406149874251103,0.019375940118668132,-0.10500780835366748, ,0.0012092352142146377, ,0.01946580120681604,-0.004264409098922841,-0.033725821313660226,-0.009957439331049154,-0.004137689655728061,0.0798980306037406, ,0.03917312375682076, ,0.010780883125227896, ,0.0010394044731095286, ,0.2590976879302323,-0.17888166156566232,0.11631091654000002,1.68842342493739,0.5678612930251705,-1.3518808579719257, ,0.10509074369708835,0.09527805377356505,0.03628430870159454,-0.11927992239785468,0.12520771087246763,-0.10920534582582096, ,1.5645849704742432
0.0227324147969157,0.01982478478057358,-0.10446557963320179, ,0.02351069155017829,0.01935979552529108,-0.10517858500480548, ,0.001153389080983886, ,0.019519453805731578,-0.003776874768626885,-0.03410830503355765,0.004737689139379969,0.009835377184099948,0.03242404746402554, ,0.03947974584713272, ,0.010914860467558678, ,0.001040230448528908, ,0.2596923383615476,-0.17834879299734083,0.11651573036000001,1.6882137349939055,0.5685444755239978,-1.3525196262305483, ,0.10462727845476381,0.09331066033281296,0.03661795751724139,-0.0748370340881959,0.1304192331755944,-0.1100168427988932, ,1.56990385055542
0.0227324147969157,0.01982478478057358,-0.10446557963320179, ,0.02361525368999428,0.019344262541116125,-0.10534888520681358, ,0.0013381086914444158, ,0.019519453805731578,-0.003776874768626885,-0.03410830503355765,0.004737689139379969,0.009835377184099948,0.03242404746402554, ,0.03947974584713272, ,0.010914860467558678, ,0.0010423734574707463, ,0.2596923383615476,-0.17834879299734083,0.11651573036000001,1.6882137349939055,0.5685444755239978,-1.3525196262305483, ,0.10462727845476381,0.09331066033281296,0.03661795751724139,-0.0748370340881959,0.1304192331755944,-0.1100168427988932, ,1.575268030166626
0.02299327749463056,0.019779459160871905,-0.1049121882306213, ,0.02371983606005284,0.019329351939516508,-0.10551870410080003, ,0.0010480197328692849, ,0.019065524451438092,-0.0033800228871438123,-0.03219945326495815,-0.008951649090239806,-0.013009912917136305,-0.028388491505549063, ,0.03757291002688271, ,0.01579098610877698, ,0.0010424137880093072, ,0.2611982712720214,-0.17703592840872265,0.11703813523,1.6880040450504212,0.5703207500209485,-1.3540497377187424, ,0.10052642114244785,0.08860592115636862,0.034779064454148474,0.0,0.08965784034706616,-0.07433687565333363, ,1.5805449485778809
0.02299327749463056,0.019779459160871905,-0.1049121882306213, ,0.023824438448984037,0.019315074335285377,-0.10568803685694053, ,0.001228178687829358, ,0.019065524451438092,-0.0033800228871438123,-0.03219945326495815,-0.008951649090239806,-0.013009912917136305,-0.028388491505549063, ,0.03757291002688271, ,0.01579098610877698, ,0.0010437312695683145, ,0.2611982712720214,-0.17703592840872265,0.11703813523,1.6880040450504212,0.5703207500209485,-1.3540497377187424, ,0.10052642114244785,0.08860592115636862,0.034779064454148474,0.0,0.08965784034706616,-0.07433687565333363, ,1.5857748985290527
0.023188099063880772,0.01974637389810014,-0.10523972263446407, ,0.023929060667520857,0.019301440185306915,-0.105856878674556, ,0.001062013034134136, ,0.019358287578535856,-0.0032178327548264747,-0.03258797314913179,-0.013530504883056325,-0.0198934125584727,-0.023265180739351736, ,0.03804042244218463, ,0.024057964858308887, ,0.0010438600143892007, ,0.262217672011419,-0.17614009139531261,0.11739202240000002,1.6882137349939055,0.571140569019541,-1.3547182451409208, ,0.10116944729048058,0.0870614142738264,0.03524073345132744,-0.004685491277756219,0.08412912843818467,-0.0695479765264471, ,1.591068983078003
0.023188099063880772,0.01974637389810014,-0.10523972263446407, ,0.02403370254832454,0.01928845978922674,-0.1060252247821903, ,0.001241669927191311, ,0.019358287578535856,-0.0032178327548264747,-0.03258797314913179,-0.013530504883056325,-0.0198934125584727,-0.023265180739351736, ,0.03804042244218463, ,0.024057964858308887, ,0.001045243300492712, ,0.262217672011419,-0.17614009139531261,0.11739202240000002,1.6882137349939055,0.571140569019541,-1.3547182451409208, ,0.10116944729048058,0.0870614142738264,0.03524073345132744,-0.004685491277756219,0.08412912843818467,-0.0695479765264471, ,1.5963318347930908
0.0233742766620423,0.019718841349926273,-0.10555646532162395, ,0.024138363945808115,0.019276143290122533,-0.10619307043768753, ,0.001088612430190348, ,0.019193103449955083,-0.002675302936573043,-0.03270801369859084,0.012665559501843959,0.005535884721807101,-0.023722515474869733, ,0.03801771463344845, ,0.013821178775696557, ,0.001045544475004501, ,0.26319073635357126,-0.17533692717639326,0.11773553925000001,1.6880040450504212,0.5720970245178991,-1.3554981704667959, ,0.10052642114244785,0.08201982848614588,0.03555538285714287,-0.004505401865949375,0.10948008098715302,-0.09014945514819697, ,1.6018290519714355
0.0233742766620423,0.019718841349926273,-0.10555646532162395, ,0.024243044735959493,0.019264500675174608,-0.10636041092827048, ,0.0012678769472775498, ,0.019193103449955083,-0.002675302936573043,-0.03270801369859084,0.012665559501843959,0.005535884721807101,-0.023722515474869733, ,0.03801771463344845, ,0.013821178775696557, ,0.0010470778023994878, ,0.26319073635357126,-0.17533692717639326,0.11773553925000001,1.6880040450504212,0.5720970245178991,-1.3554981704667959, ,0.10052642114244785,0.08201982848614588,0.03555538285714287,-0.004505401865949375,0.10948008098715302,-0.09014945514819697, ,1.607224941253662
0.023577360004907247,0.019688730135354427,-0.1059034715995485, ,0.024347744816169224,0.019253541776336713,-0.10652724157061809, ,0.0010825759290026022, ,0.019456162989074918,-0.0026403554110447755,-0.03280069399461231,0.016287740070598224,0.009821652630213744,0.015048141189851831, ,0.038228252399008227, ,0.019018868768136164, ,0.0010473209402529337, ,0.26425647349021425,-0.17447970382735434,0.11811275964000001,1.6873749752199676,0.5733267530157882,-1.3565009316000636, ,0.10314884952007694,0.07967837242524835,0.03579508206741574,-0.04571421673181104,0.12382474780844822,-0.10178388437703026, ,1.6125760078430176
0.023577360004907247,0.019688730135354427,-0.1059034715995485, ,0.024452464105057577,0.0192432762710068,-0.10669355771094206, ,0.0012603461408593937, ,0.019456162989074918,-0.0026403554110447755,-0.03280069399461231,0.016287740070598224,0.009821652630213744,0.015048141189851831, ,0.038228252399008227, ,0.019018868768136164, ,0.0010487700912774674, ,0.26425647349021425,-0.17447970382735434,0.11811275964000001,1.6873749752199676,0.5733267530157882,-1.3565009316000636, ,0.10314884952007694,0.07967837242524835,0.03579508206741574,-0.04571421673181104,0.12382474780844822,-0.10178388437703026, ,1.617931842803955
0.0237732841690756,0.019664237979618464,-0.10623257055714459, ,0.024557202542292194,0.019233713682697176,-0.10685935472506639, ,0.0010921252580466836, ,0.01925104064308699,-0.00258281780081572,-0.03202092995828216,-0.0034560129894633867,-0.01228177378756022,0.032394911515605126, ,0.03745148153314111, ,0.012757442096409563, ,0.001049063031593476, ,0.26528359696248616,-0.17369970780705768,0.11847183197000001,1.6869555953329984,0.5744198450139116,-1.357392274829635, ,0.10106170560007538,0.07652979157941192,0.034931604210526324,-0.06187711851528222,0.10184429069270692,-0.08380934685070224, ,1.6232199668884277
0.0237732841690756,0.019664237979618464,-0.10623257055714459, ,0.024661960088420313,0.019224863381705655,-0.10702462801850295, ,0.0012689168408558747, ,0.01925104064308699,-0.00258281780081572,-0.03202092995828216,-0.0034560129894633867,-0.01228177378756022,0.032394911515605126, ,0.03745148153314111, ,0.012757442096409563, ,0.0010505385605147, ,0.26528359696248616,-0.17369970780705768,0.11847183197000001,1.6869555953329984,0.5744198450139116,-1.357392274829635, ,0.10106170560007538,0.07652979157941192,0.034931604210526324,-0.06187711851528222,0.10184429069270692,-0.08380934685070224, ,1.6285488605499268
0.023958113615784433,0.019640565456375447,-0.10653613024611511, ,0.02476673672468799,0.01921673458578606,-0.10718937302653186, ,0.0011225996923587798, ,0.01918424373722521,-0.002274720776616165,-0.030818106327011822,0.0044175617042439405,-0.01559239309853973,-0.04954572041378138, ,0.036372589129230824, ,0.016205239119295504, ,0.0010510189680603271, ,0.26625666130463843,-0.17296604818400635,0.11880368221000001,1.6867459053895137,0.5753763005122697,-1.3581722001555099, ,0.10095419314730934,0.07525530654914415,0.03374748203389831,0.025772162751567285,0.08284430686856689,-0.06827358710398519, ,1.6340248584747314
0.023958113615784433,0.019640565456375447,-0.10653613024611511, ,0.024871532452872297,0.019209336360818566,-0.10735358521427549, ,0.001299432618403832, ,0.01918424373722521,-0.002274720776616165,-0.030818106327011822,0.0044175617042439405,-0.01559239309853973,-0.04954572041378138, ,0.036372589129230824, ,0.016205239119295504, ,0.0010526640915725358, ,0.26625666130463843,-0.17296604818400635,0.11880368221000001,1.6867459053895137,0.5753763005122697,-1.3581722001555099, ,0.10095419314730934,0.07525530654914415,0.03374748203389831,0.025772162751567285,0.08284430686856689,-0.06827358710398519, ,1.6393070220947266
0.024148126326030247,0.019619507163166208,-0.1068391943703694, ,0.024976347295093262,0.019202677621480948,-0.10751726007678088, ,0.00114868182828341, ,0.01876880559182014,-0.002031673708892624,-0.030140197535182937,0.010583048156215863,-0.008508899831291486,-0.0221466727514123, ,0.035564410143608345, ,0.013578564411745295, ,0.0010532957872087915, ,0.26726833931116184,-0.17224011129382924,0.11913682874,1.6869555953329984,0.5763327560106278,-1.3589521254813848, ,0.09916085847280122,0.07034613903518962,0.03311603226611227,-0.0024751766603959176,0.09325464512897039,-0.07672311654607245, ,1.6446459293365479
0.024335384714291038,0.01959816974865995,-0.10713398479521163, ,0.025081181293655178,0.01919676713191856,-0.10768039313909256, ,0.0010079179910988682, ,0.01860924761393215,-0.0019487429813568038,-0.028655357927310256,-0.00050203844079828,-0.02670515022595749,-0.01903598947904662, ,0.03422325574673295, ,0.026709507112737424, ,0.0010529992003061122, ,0.26828001731768525,-0.17153734260227482,0.11946219753000001,1.6869555953329984,0.5774258480087513,-1.3597617899708156, ,0.09895405793375472,0.06664111064499352,0.03160478476190477,-0.004032318156403026,0.08091947668057145,-0.06771806926200767, ,1.6498899459838867
0.024335384714291038,0.01959816974865995,-0.10713398479521163, ,0.02518603451085988,0.01919161350641537,-0.10784297995633324, ,0.0011796470628982635, ,0.01860924761393215,-0.0019487429813568038,-0.028655357927310256,-0.00050203844079828,-0.02670515022595749,-0.01903598947904662, ,0.03422325574673295, ,0.026709507112737424, ,0.0010538215890242432, ,0.26828001731768525,-0.17153734260227482,0.11946219753000001,1.6869555953329984,0.5774258480087513,-1.3597617899708156, ,0.09895405793375472,0.06664111064499352,0.03160478476190477,-0.004032318156403026,0.08091947668057145,-0.06771806926200767, ,1.6551249027252197
0.02453185595410448,0.01957750034748373,-0.10742830014179153, ,0.02529090702883281,0.019187225210064798,-0.10800501611378167, ,0.0010300847194683242, ,0.019819527090959792,-0.0016902912288603335,-0.030070755301739145,-0.04802124945609241,-0.08411851493773566,-0.0016253945693731199, ,0.03605441807829831, ,0.09686041692425469, ,0.0010536684479303341, ,0.26932258625570554,-0.1708654648422173,0.11978627003000002,1.6865362154460295,0.5778357575080477,-1.360096043681905, ,0.10248049844327299,0.06558185318484504,0.03304732680497926,-0.01863453109808517,0.022044940659294437,-0.01960649400482912, ,1.6603920459747314
0.02453185595410448,0.01957750034748373,-0.10742830014179153, ,0.02539579894935595,0.019183610559439512,-0.1081664972269474, ,0.00120269763477868, ,0.019819527090959792,-0.0016902912288603335,-0.030070755301739145,-0.04802124945609241,-0.08411851493773566,-0.0016253945693731199, ,0.03605441807829831, ,0.09686041692425469, ,0.001054623763230644, ,0.26932258625570554,-0.1708654648422173,0.11978627003000002,1.6865362154460295,0.5778357575080477,-1.360096043681905, ,0.10248049844327299,0.06558185318484504,0.03304732680497926,-0.01863453109808517,0.022044940659294437,-0.01960649400482912, ,1.6715469360351562
0.024727986045559522,0.01956396424485994,-0.10773813534100297, ,0.025500710393680143,0.019180777723263272,-0.10832741894165265, ,0.001044600397523591, ,0.019586807171819525,-0.0009321481113914003,-0.030803213821211234,0.04096743680770792,0.0103985232622002,0.012747194078518312, ,0.036515063973692696, ,0.042266209111941885, ,0.0010545599201369686, ,0.2703188187964805,-0.17025536894515353,0.12011682398000001,1.6861168355590603,0.5787922130064057,-1.3607942902676393, ,0.10497449287441457,0.05949651508368074,0.034552736485900216,-0.03955353255843147,0.12199893292392665,-0.1030891773794983, ,1.6771328449249268
0.02491268027448363,0.019555991705331222,-0.10802172506288771, ,0.025605641502360516,0.01917873472308064,-0.10848777693410655, ,0.0009163637054489023, ,0.017489040423530243,-0.0013609686927210127,-0.02548332526982339,0.002902488426375343,-0.02312007855605483,0.01900612705114712, ,0.030937334040380095, ,0.023301324526101317, ,0.0010536852605503352, ,0.2713536650016266,-0.1696761639795867,0.12044608164000001,1.6861168355590603,0.5798853050045292,-1.3618489909774918, ,0.0962443626353659,0.0540107806251968,0.028495190554561723,-0.03955353255843147,0.08165913435614384,-0.06318550263486081, ,1.6823968887329102
0.02491268027448363,0.019555991705331222,-0.10802172506288771, ,0.025710592435077406,0.01917748943392798,-0.1086475669109841, ,0.001082407411425819, ,0.017489040423530243,-0.0013609686927210127,-0.02548332526982339,0.002902488426375343,-0.02312007855605483,0.01900612705114712, ,0.030937334040380095, ,0.023301324526101317, ,0.0010538659030086715, ,0.2713536650016266,-0.1696761639795867,0.12044608164000001,1.6861168355590603,0.5798853050045292,-1.3618489909774918, ,0.0962443626353659,0.0540107806251968,0.028495190554561723,-0.03955353255843147,0.08165913435614384,-0.06318550263486081, ,1.6876459121704102
0.025082773367978997,0.019541068768011684,-0.10825508183581942, ,0.02581556337046066,0.019177049585003925,-0.1088067846095038, ,0.000986847051890894, ,0.01795285854203334,-0.0019374471449620807,-0.024031629638811395,-0.0382710310544692,-0.0705992178055464,0.014701468964498214, ,0.0300595750862646, ,0.080305126595348, ,0.0010534470351891854, ,0.2723035611451562,-0.16914329541126522,0.12070793222000001,1.6861168355590603,0.580431851003591,-1.3622129838521368, ,0.09989151742996924,0.056352103063224926,0.02699798562711865,-0.03280759136591829,0.03572986697562394,-0.02384585641848834, ,1.6929190158843994
0.025082773367978997,0.019541068768011684,-0.10825508183581942, ,0.02592055450591444,0.019177422760340564,-0.10896542579750625, ,0.0011570238536350453, ,0.01795285854203334,-0.0019374471449620807,-0.024031629638811395,-0.0382710310544692,-0.0705992178055464,0.014701468964498214, ,0.0300595750862646, ,0.080305126595348, ,0.0010540903694652467, ,0.2723035611451562,-0.16914329541126522,0.12070793222000001,1.6861168355590603,0.580431851003591,-1.3622129838521368, ,0.09989151742996924,0.056352103063224926,0.02699798562711865,-0.03280759136591829,0.03572986697562394,-0.02384585641848834, ,1.6981990337371826
0.025266107341738064,0.019525268047396276,-0.10850830870641613, ,0.02602556605852923,0.019178616399243453,-0.10912348627304519, ,0.0010370093279044317, ,0.017898005178665456,-0.0010933572442113318,-0.025756635839510787,-0.0060247488891522925,-0.03625240134212161,0.007910187922266637, ,0.03138372682152609, ,0.03674946076634192, ,0.0010539849309370937, ,0.2733152391516796,-0.1685718131785726,0.12099181973,1.6861168355590603,0.5809783970026529,-1.3626586554669227, ,0.09703163758534844,0.05219853771093002,0.028856542608695655,-0.025923631186027418,0.06664455229582181,-0.04921163512599272, ,1.7035470008850098
0.025449647740208747,0.01951972722995672,-0.10876896583284094, ,0.026130598260523705,0.019180637797872824,-0.10928096186640417, ,0.0009169597550888825, ,0.017837786971414738,-0.00020130756679090183,-0.024940377632472793,0.04261375678357956,0.005602065951453131,0.002833831624679448, ,0.030663489775698553, ,0.042980295024642644, ,0.001053144285686491, ,0.2743423626239515,-0.16807755827462223,0.12128737385000002,1.6861168355590603,0.5820714890007763,-1.363549998696494, ,0.10106170560007538,0.0435307071369132,0.02844430628571429,-0.021389120584250087,0.11281412434520237,-0.0871768941689083, ,1.709993839263916
