NicholasDascanio/dvrk_moveit_final/test/execution/third_experiment_notsharpbends/thirdexp_200vel4.0/thirdexp_200vel4.0_12.csv
Current Position (x),Current Position (y),Current Position (z), ,Planned Position (x),Planned Position (y),Planned Position (z), ,Position Error,,Cartesian linear Velocity(x),Cartesian linear Velocity(y),Cartesian linear Velocity(z),Cartesian Angular Velocity(x),Cartesian Angular Velocity(y),Cartesian Angular Velocity(z), ,Total Linear Velocity, ,Total Angular Velocity, ,MSE, ,Joint 1 Position,Joint 2 Position,Joint 3 Position,Joint 4 Position,Joint 5 Position,Joint 6 Position, ,Joint 1 Velocity,Joint 2 Velocity,Joint 3 Velocity,Joint 4 Velocity,Joint 5 Velocity,Joint 6 Velocity, ,Time Stamp
0.009833209444494192,0.02092501957516126,-0.0781685705736908, ,0.00998802394290311,0.020848985763073584,-0.07835959406831561, ,0.0002573686946714075, ,0.0015459917223078394,0.00010479440129836502,-0.0019788192686181656,0.27954375787496377,-0.14531393647586346,-0.14301138079204598, ,0.0025133240877058365, ,0.31505690390933716, ,2.144739122261729e-05, ,0.1793836392024869,-0.25265692871312906,0.08898901221000001,1.709182729342358,0.4938043101523018,-1.274013103778385, ,-0.0004908515402083948,0.0034779235751515635,0.0015224038690402504,-0.0008185296744801212,-0.15211275148454548,-0.31417939026768105, ,0.05266404151916504
0.009918008935603675,0.02093364593554025,-0.07835689984681128, ,0.010035506965916211,0.020832644745943627,-0.0786036187655578, ,0.0002913370081103819, ,0.0009346719357284825,5.1184629184721105e-05,-0.0035858973813103013,-0.08935077104319755,-0.027446385432706697,0.01786862677965329, ,0.003706061456990599, ,0.09347119534242457, ,2.4941168308263154e-05, ,0.17936819373673846,-0.2522321784050467,0.08915752991,1.709182729342358,0.4873823946633261,-1.2832335993095327, ,0.0007749714714799821,0.010242576492202692,0.003464291326663767,-0.001292979300600928,-0.02756922758455613,0.08077054600130246, ,0.10597991943359375
0.009947425455722737,0.02093456022435809,-0.07856587120169567, ,0.01008461641138318,0.020815833426063905,-0.07884861559088087, ,0.00033594910412728464, ,0.000499889004972642,-0.000347108083108995,-0.003938525548749471,0.030079226564278472,0.02729928314247032,-0.00023750471051519706, ,0.003985267436045474, ,0.0406203240982918, ,2.764546271590856e-05, ,0.17937591646961268,-0.2516066370422345,0.08936623260000001,1.7087633494553889,0.4884754866614496,-1.2804493992327788, ,0.0005923944847491706,0.0160896815121178,0.003876566444390363,-0.009785387735822647,0.03165309872583467,-0.047207667063867906, ,0.15824484825134277
0.009993648721815263,0.020918621357610752,-0.0788255129800898, ,0.01013533087723425,0.02079856531629169,-0.0790945494396261, ,0.000326906565827609, ,0.0008876353324261707,-0.0002366534623593372,-0.00494003212568447,-0.009008073305396947,-0.0034184846217605925,0.006523360574695186, ,0.005024720763128296, ,0.009634906270565208, ,2.8846699350873403e-05, ,0.1793836392024869,-0.2506490181658307,0.08961771286,1.7081342796249355,0.48861212316121505,-1.2816226407583025, ,0.0,0.01725712703372809,0.00479350331628047,-0.013752172572841323,0.0,-0.010926998130706758, ,0.21048402786254883
0.01003812269467165,0.020906827803418678,-0.07906180808319792, ,0.010187629094384927,0.020780853834778887,-0.07934138546881843, ,0.00034115263282068496, ,0.0009113914221664418,-0.00041610068023087134,-0.0049149642495228425,0.009725732441918886,-0.003931251985132163,-0.00023875085189778347, ,0.005016039042369467, ,0.010490215004195547, ,3.0445372657987606e-05, ,0.1794068074011096,-0.24980724028254023,0.08984715619000001,1.7077148997379663,0.48861212316121505,-1.2823577494195675, ,0.00035273458273002233,0.019174973036668173,0.004728053285841497,-0.014377559852532567,0.0,-0.03281265512411925, ,0.25818705558776855
0.010073188897583197,0.020901006139599634,-0.07925584342465533, ,0.01024148992639905,0.020762712305220588,-0.07958908909646449, ,0.0003981244763981135, ,0.0010759295462272986,-1.6481212075354023e-05,-0.005799994022159454,-0.0017912094388948649,-0.002269209295420086,-0.0014112689448850736, ,0.005898968272154187, ,0.002890974838505711, ,3.2513974699258024e-05, ,0.1794068074011096,-0.24915853072110536,0.09003641453000001,1.7075052097944818,0.48861212316121505,-1.2830928580808325, ,0.00035273458273002233,0.017431473467757305,0.005701077852541161,-0.007709610958314797,0.0,-0.017624692931312056, ,0.30552005767822266
0.01012554549094716,0.020891084780189154,-0.07953797841377215, ,0.010296892369152133,0.020744153957104345,-0.07983762600085072, ,0.0003751494314069746, ,0.0011809095710771946,-0.0001937243515793468,-0.005629936807302537,0.0007896144754632529,-0.001885655295489397,-0.003127802137390577, ,0.005755715854146767, ,0.002044304590114085, ,3.370996975887618e-05, ,0.17945314379835492,-0.24821635731044997,0.0903125243,1.7068761399640284,0.48888539616074594,-1.284132481289631, ,0.002225069064254799,0.01898698310493613,0.0055155164542936294,-0.006952093017895175,0.002147996858628464,-0.021623742925963675, ,0.3532688617706299
0.010177882241138627,0.020872762298266147,-0.07979985524182312, ,0.010353815550494224,0.02072519192595729,-0.08008696211984212, ,0.0003676409981626146, ,0.0010212683431805344,-0.00044570693102319195,-0.005104397325226687,-0.01053260503537494,-0.00031490039767920403,0.007709029673895464, ,0.005224606755625363, ,0.010537311214276224, ,3.453370399391116e-05, ,0.1795303711270972,-0.24724329296829767,0.09056659714000001,1.7062470701335748,0.48902203266051136,-1.2848156503743113, ,0.0017769933080997878,0.019869543877401755,0.004940698362282879,-0.014289940276991583,0.005169664550821149,-0.011643585874134225, ,0.40027594566345215
0.010221882793182034,0.020860207594079704,-0.08002640359211782, ,0.01041223872991304,0.02070583925359519,-0.08033706365017966, ,0.0003956951337427162, ,0.0014233453537962012,-0.00026649454733252174,-0.006508697046198111,-0.002135207602237398,0.005034601360668827,-0.006393032696618496, ,0.006667838373799954, ,0.005468666261965771, ,3.5922372619392873e-05, ,0.17960759845583943,-0.24642468328362988,0.09078826273000001,1.70603738019009,0.4894319421598077,-1.2854766190459628, ,0.003930934194484691,0.022610660366564398,0.0064048297225572995,-0.001783867742210382,0.009798397529317784,-0.020635466224697176, ,0.44222307205200195
0.010271442885319827,0.020847426307780977,-0.08028053810114695, ,0.010472141298197134,0.02068610888837098,-0.08058789704677843, ,0.00040096469195712053, ,0.0009640652162105741,-0.0007784031341865307,-0.005244758931793642,-0.004708226264333263,0.0055094389195373674,0.001414854008713869, ,0.005389139953002496, ,0.007247158601531983, ,3.7130731247073485e-05, ,0.1796925485174559,-0.24553656900309406,0.09103715041,1.705618000303121,0.48984185165910404,-1.2863009451978955, ,0.0011581361623384362,0.024152950256673654,0.005005911854179762,-0.010490527088978253,0.009604724969855413,-0.02113721154304682, ,0.48453307151794434
0.010319156678094531,0.020821420904070922,-0.08051185336101603, ,0.010533502777098925,0.020666013685423642,-0.08083942902202584, ,0.00042119053580547247, ,0.00097973695978207,-0.0008091389959054314,-0.005208597938804827,-0.010496473550279566,0.002630891147637554,-3.087855079353477e-05, ,0.005361350847797573, ,0.010821161739335538, ,3.8347836010101767e-05, ,0.17979294404482082,-0.24457895012669023,0.09126011229000001,1.7049889304726675,0.4901151246586349,-1.2870138534461317, ,0.0010311749649032456,0.024370041489078266,0.0049529886567164175,-0.008041399759080704,0.00584234082157954,-0.015160546928042135, ,0.5264430046081543
0.010372422346053995,0.02079796108230796,-0.08074495395767416, ,0.010596302818997608,0.020645566406926,-0.0810916265450789, ,0.00043991872670770305, ,0.0013580323487215292,-0.0004358836254527407,-0.006609126433228049,-0.0004769461868079578,0.0064303556515510445,-0.009615785872480742, ,0.006761271966538963, ,0.006448018211853448, ,3.9558163633982574e-05, ,0.17993967596943108,-0.24362905398316062,0.09148566675000001,1.704779240529183,0.4902517611584003,-1.2876153437906714, ,0.0028291088997475103,0.024521173529320612,0.006456753757600325,0.0,0.009647202506283143,-0.02406728968681758, ,0.5681910514831543
0.010431232074986176,0.02078287492536895,-0.08101036942987552, ,0.010660521206562364,0.02062477972233492,-0.08134445684116287, ,0.0004349505689868858, ,0.0014929724522689588,-0.0003190053684886572,-0.006756142075967841,0.0029015701818749053,0.002739158784353852,0.0006179541055539178, ,0.006926484455986429, ,0.003990248900729737, ,4.090896212585444e-05, ,0.180109576092664,-0.24269460330537945,0.09174622104,1.704359860642214,0.49066167065769667,-1.2886847061630258, ,0.0042440112238622835,0.02291089849311221,0.006648084941569284,-0.011624456398641476,0.01018499710267926,-0.028049466560142802, ,0.6052119731903076
0.010490135424471863,0.020772097246718784,-0.08127996898419751, ,0.010726137852415083,0.020603666208637485,-0.08159788739086798, ,0.0004302769734533006, ,0.0018257856821272034,-6.2718244136564e-05,-0.007679569086018877,0.0037171790350498577,0.00028810478005573763,0.002425123576156604, ,0.007893871564837186, ,0.003728323702720479, ,4.206956082401831e-05, ,0.18027175348302274,-0.24181421175771783,0.09201196049,1.7037307908117605,0.491071580156993,-1.2899991047558017, ,0.006206558238920884,0.022439570006732273,0.007643383646833014,-0.013700655451412205,0.010174704647027613,-0.028811577210016762, ,0.6419949531555176
0.010542421894124025,0.02076696456197591,-0.0815028834218626, ,0.010793132798793575,0.020582238350602997,-0.08185188592944742, ,0.0004677418959093874, ,0.001579795599321141,-0.00042810775515795814,-0.0068913337649101495,0.006738810868735683,-0.002275220799866412,-0.012997099214542186, ,0.007083043939229201, ,0.0071125372456244, ,4.3392117847997386e-05, ,0.18042620814050722,-0.24111916579903764,0.09223232979000001,1.703521100868276,0.4912082166567584,-1.2903555588799198, ,0.004100183733670331,0.02473851448343868,0.0067352268583509515,-0.001480390709262751,0.002286401722186614,-0.03287490028812946, ,0.6786179542541504
0.010611714553721292,0.02073033361716209,-0.08179235452960577, ,0.010861486217214176,0.0205605085410294,-0.08210642044611549, ,0.00043573368045236595, ,0.0015741829843304433,-0.00039109309809550407,-0.0067797493950786224,-0.012186225369694837,-0.0006586500228333554,0.01331349034286785, ,0.006971083684736713, ,0.01220401140156154, ,4.434855883000017e-05, ,0.1806038309966144,-0.2401615469226338,0.09244362506,1.7028920310378222,0.49161812615605477,-1.291261563771993, ,0.006257019706486583,0.028852825040580957,0.005526999139486468,0.006060923477079315,0.009663796955597301,-0.0056147586616498435, ,0.7201299667358398
0.010659548377093755,0.020717757171005494,-0.08200651156596893, ,0.010931178408134746,0.020538489080992043,-0.08236145918334399, ,0.00048156799409910346, ,0.001983396780764401,-0.0003666433452821833,-0.007724420074560261,0.013721209477831467,-0.0037591114805738683,0.017628007586962882, ,0.007983417540180136, ,0.014226822595299405, ,4.5528752500959495e-05, ,0.1808277902499669,-0.23916531438185884,0.09272362370000001,1.7022629612073688,0.4921646721551165,-1.2922789865677626, ,0.00832093486546616,0.024642155689034217,0.007650725994236313,-0.034767609928723735,0.013301886458958597,-0.04528542352450041, ,0.7569558620452881
0.010717875886433623,0.020709182170888955,-0.08223200496111284, ,0.011002189800617552,0.020516192180095073,-0.08261697063616107, ,0.0005160214233058026, ,0.0019512954432884728,-0.0005163062781607202,-0.007540440541920495,0.020800959686305444,-0.001455646017395294,0.007184315050099384, ,0.007805918885442302, ,0.02085182977155903, ,4.7137023416853844e-05, ,0.18104402677044518,-0.2384239320259333,0.09294658558,1.7022629612073688,0.492301308654882,-1.2928804769123026, ,0.008269907963227626,0.026113632789892892,0.007436419943977593,-0.026549689753470416,0.013616991322393647,-0.052748214292518344, ,0.7883930206298828
0.010801143227845695,0.020692514069690707,-0.08254604002726951, ,0.0110745009519919,0.020493629956717375,-0.08287292355144735, ,0.00047024692888152526, ,0.00206226946565288,-0.0004875924001271118,-0.00739894123087722,0.011772162668244695,0.006316565010632628,-0.00032136040660579333, ,0.0076964298889550635, ,0.013359744954413092, ,4.833081187787551e-05, ,0.18140699521553375,-0.23738136308791297,0.09325769518,1.7014242014334306,0.4928478546539437,-1.2943879721489155, ,0.010378055725991993,0.026027685561840586,0.00735062829718505,-0.012601146560360866,0.02041026107571795,-0.03994357995419111, ,0.8213160037994385
0.010873209461634035,0.02067872574862756,-0.08279454687418274, ,0.011148092547516864,0.02047081443826318,-0.0831292869272335, ,0.00048045678993883026, ,0.0023647834517012104,-0.0005299342447099257,-0.008208658874707935,-0.0015673478159042014,-0.0021460065160328503,-0.00710640735778775, ,0.008558920001873922, ,0.002657420906204677, ,4.949935125622874e-05, ,0.1817390727291254,-0.2365395852046225,0.09350010141000001,1.701214511489946,0.4931211276534746,-1.2949375229168707, ,0.010968565196785206,0.028940817797642814,0.008085691126903554,-0.004789626866032953,0.01049803044228041,-0.02832214973663046, ,0.8531348705291748
0.010946240459173326,0.020663098360469194,-0.08305753947096109, ,0.011222945400043944,0.02044775756141049,-0.08338603001199862, ,0.00048046156931911356, ,0.0023114414285219324,-0.0006240613228363192,-0.008092759835450226,0.004421935269133712,0.007078353465270717,0.001211409865921411, ,0.00843948907022363, ,0.008346050838056819, ,5.058494570464142e-05, ,0.18207115024271703,-0.23566691638983514,0.09375676683,1.7010048215464617,0.4935310371527709,-1.2956801703286627, ,0.011537653219972625,0.0289231763360167,0.008106265404580152,0.0,0.023410317351587075,-0.03649522100723282, ,0.8845028877258301
0.011010334306792012,0.02063117458769277,-0.08326941171408296, ,0.01129904044967982,0.020424471172360844,-0.08364312230396635, ,0.0005154969872288593, ,0.0022620643840783284,-0.0007588124145803479,-0.0077469293262757335,0.023033991269213995,0.024527694420703038,-0.04755604668528083, ,0.00810602526177583, ,0.033647771389540816, ,5.2093981674214124e-05, ,0.18244184142067982,-0.2347092975134313,0.09397195097000001,1.7001660617725234,0.49421421965159806,-1.2968090110281287, ,0.012348724168650377,0.03211402421606456,0.0076913623949782725,0.03514314064225166,0.02976857267548961,-0.048450867717123404, ,0.9112780094146729
0.011068952024949109,0.020622424247298085,-0.0834636183857643, ,0.011376358763448618,0.0204009670270864,-0.08390053355040224, ,0.0005783053383372737, ,0.0028117152276884703,-0.00020569930224822712,-0.010862147833878028,-0.016130815349033472,0.007302584336769059,0.00844646787792913, ,0.011222045726585762, ,0.01770680068817977, ,5.386959860139962e-05, ,0.18271213707127767,-0.2340837561506191,0.09415732044000001,1.700375751716008,0.49435085615136354,-1.2976555375930903, ,0.01177066719084993,0.03196259399072778,0.010668996329537843,-0.014560280945851845,0.023661378141296333,-0.016431713399654005, ,0.937809944152832
0.011158640364313849,0.020612034459803877,-0.08378950905201074, ,0.011454881534954721,0.020377256791581328,-0.08415823374691139, ,0.0005280504571613116, ,0.0030847549882233884,-0.0007869462927541325,-0.010302854467745724,-0.009527999661834471,-0.015383866222093466,0.04090867581379615, ,0.010783497020382423, ,0.01809546908502383, ,5.527559025441219e-05, ,0.18312144191361157,-0.2330952463427184,0.09449046697,1.6993273019985855,0.49489740215042527,-1.2985096029085788, ,0.015377887142840833,0.03438294984002565,0.010197702637644048,-0.057532171245799325,0.013767850651932357,-0.03517477646746389, ,0.9641199111938477
0.011222483840642502,0.020600361347990395,-0.08399246118402673, ,0.011534590084045154,0.020353352042109814,-0.0844161931367356, ,0.0005813541709741067, ,0.0029964777926473926,-0.0004579664944061039,-0.009955621419711244,0.01222441138208476,0.015746544188587622,-0.03289697686763321, ,0.01040687322515466, ,0.019934637938044116, ,5.6889221046486505e-05, ,0.18345351942720323,-0.2324156458497866,0.09469268821000001,1.6991176120551008,0.49517067514995616,-1.299385868637096, ,0.015805619846514123,0.03363946882611513,0.009986715686520379,0.021243790818145026,0.027628000265284825,-0.041393003144606505, ,0.9904799461364746
0.011309619524380228,0.02057783061116008,-0.08428516450352742, ,0.01161546585647183,0.020329264265454693,-0.08467438221004978, ,0.0005539112114244802, ,0.0032418010364529425,-0.0005514367546763652,-0.011335019331835434,0.00645827148819885,-0.006144135468576767,-0.0010303956986467237, ,0.011802373477713641, ,0.008914004944767113, ,5.8580176109898594e-05, ,0.1838859924681598,-0.2313730769117663,0.09498305717000001,1.6989079221116163,0.49571722114901795,-1.3004032914328658, ,0.01444617773762685,0.03604137544947618,0.011273044246284503,-0.018071077330465743,0.012907427177776687,-0.04648361266113801, ,1.0117499828338623
0.011382234507878338,0.0205691114714243,-0.08453041647577031, ,0.011697490423554042,0.02030500485916703,-0.08493277170325979, ,0.0005753506097108513, ,0.003810721447573522,-0.0005244377680247226,-0.012820316856077279,0.00355997456895891,-0.0004106245474126257,0.015831740670333955, ,0.013384960112519828, ,0.0035835297009562785, ,6.031129238031107e-05, ,0.1842257927146257,-0.23063169455584076,0.09522805598,1.6984885422246472,0.49599049414854884,-1.301279557161383, ,0.019163356534424632,0.039004086131718366,0.012845815741935485,-0.03310539880959755,0.027270547915009047,-0.04806759635414855, ,1.0325188636779785
0.011457980980830122,0.020559368426418628,-0.08477945268538813, ,0.011780645481840716,0.020280585131815507,-0.08519133259829939, ,0.0005928554361916378, ,0.0037929989247233076,-0.0008141617472850591,-0.011702724682239709,0.00718537041009913,-0.015041574634457744,-0.0061342368197143254, ,0.012328968536824032, ,0.016669681937999923, ,6.206059718961651e-05, ,0.18458876115971423,-0.22985169853554407,0.09547694366000001,1.6984885422246472,0.49626376714807974,-1.3019924654096193, ,0.01937858720818272,0.03973908775480351,0.011626869722627739,-0.016211007461879225,0.008344547474106534,-0.051150335196505504, ,1.0536470413208008
0.011531133567804837,0.020540503085500914,-0.08502660579046148, ,0.011864912852772701,0.020256016303234346,-0.08545003612192639, ,0.0006096183937206383, ,0.00382002426740282,-0.001021172827731767,-0.012580614966098623,0.001645951540704605,0.004924890891985162,0.024142570622731882, ,0.013187389896142028, ,0.005192628585608692, ,6.382340696991979e-05, ,0.18496717507055124,-0.22901764338512784,0.09572323876000001,1.6976497824507093,0.49694694964690694,-1.303366342329507, ,0.020412334170460483,0.04311537553769685,0.012542371275590552,-0.041460578186531,0.035974483879723254,-0.05117342768854602, ,1.0744130611419678
0.011616822814876237,0.0205233916676913,-0.08529448229547315, ,0.01195027448234489,0.02023130950477431,-0.08570885374502117, ,0.0006067995572117873, ,0.004122049197740322,-0.0008355469828672886,-0.013139037706903145,0.014584066728713724,-0.002777442981503843,-0.033482896044155865, ,0.01379578704578296, ,0.01484617123320085, ,6.550525352174806e-05, ,0.18537647991288514,-0.22813725183746625,0.09598897821,1.6972304025637401,0.49694694964690694,-1.303938093510491, ,0.020329250548087142,0.04467840939664349,0.013088587937551356,0.01083419225531915,0.015636982491411433,-0.058334458108473965, ,1.0956828594207764
0.011658333944959074,0.02051265439166207,-0.08542595531543362, ,0.012036712440768529,0.020206475779550166,-0.0859677571818828, ,0.0007283302074564923, ,0.00422630762119592,-0.0011101554660049723,-0.01328469008391266,0.013158807561926578,-0.015028381103759413,-0.016191163588001798, ,0.013984888697922726, ,0.019975135576096197, ,6.801381223349924e-05, ,0.18580123022096748,-0.22718735569393664,0.09625212508000001,1.6972304025637401,0.4976301321457341,-1.3053119704303786, ,0.023897492208126613,0.049684262596058,0.014096293380530976,-0.005010612862827589,0.04484012458186084,-0.07998666122518888, ,1.1114308834075928
0.011716721986246695,0.020495920263231108,-0.08561719147752958, ,0.012124208922132975,0.020181526082690172,-0.08622671838952517, ,0.0007977545738652174, ,0.004411098691008491,-0.0010757947024313422,-0.014580112901780998,0.015161841324371275,0.02283338388263851,-0.0013052815200108956, ,0.01527071766919541, ,0.027408834214541412, ,7.077526868542815e-05, ,0.1859016257483324,-0.2269865646392068,0.09631045813000001,1.6970207126202554,0.49776676864549957,-1.3056684245544967, ,0.023927620160986075,0.049736342535886144,0.014613588550458717,-0.017156579897570835,0.05239370496859456,-0.06630990494460523, ,1.1280689239501953
0.011852563716257529,0.02047239200698785,-0.08603411565307029, ,0.012212746244068194,0.020156471281586253,-0.0864857095669762, ,0.0006583877437765759, ,0.005686125480960607,-0.0010628841220018572,-0.01700335106317697,-0.007840525941024664,-0.030092723466788363,0.017216706893321485, ,0.017960392340360346, ,0.031097338011854055, ,7.282142436304418e-05, ,0.18658122624126416,-0.2256659773177144,0.09672656722,1.696391642789802,0.4980400416450304,-1.3067897265034358, ,0.029190077378797533,0.053857515072911914,0.016963590543130992,-0.04450964679798968,0.009387217656449207,-0.05526711554659588, ,1.1438050270080566
0.011902647999852717,0.020463975726596858,-0.08619615302567735, ,0.012302306847406429,0.02013132215614154,-0.0867447031545722, ,0.0007558391603212857, ,0.004855399035865223,-0.000960695294162479,-0.01639088467664233,0.03331690625514014,0.03259031551757589,0.010327024199856078, ,0.01712188470141927, ,0.04660626272159967, ,7.525298493875527e-05, ,0.1868437991589878,-0.22517172241376404,0.0968847146,1.696391642789802,0.4985865876440922,-1.3076437918189243, ,0.02639692393837852,0.05208394157984127,0.016575246118626433,-0.03377552497521216,0.06870597744632244,-0.09050748632434813, ,1.1596729755401611
0.011958331397829994,0.020453066538961194,-0.08636177710428769, ,0.012392873295844178,0.020106089399020442,-0.08700367183325665, ,0.0008492635867911483, ,0.005366608412209271,-0.0011590288403514064,-0.016179835333017575,-0.0043970174815154296,0.002734185438100816,-0.01809523408951172, ,0.017085985634616625, ,0.00517768518728042, ,7.838642716706755e-05, ,0.18713726300820832,-0.2246311311125683,0.09704934343,1.6961819528463176,0.49885986064362303,-1.3081116638467387, ,0.02921703865716465,0.05463266641247599,0.016237320611620795,0.0,0.03361933385266081,-0.047311594486006296, ,1.1701710224151611
0.01201441549331834,0.0204403208731333,-0.0865309845376136, ,0.012484428275604339,0.02008078361589789,-0.08726258852387656, ,0.0009409694190399796, ,0.006443437515955467,-0.0010796232761555989,-0.018836745115656185,-0.03337347930551684,-0.036307688739695844,-0.003926061285145915, ,0.019937563542033826, ,0.049315666993772524, ,8.187174523242686e-05, ,0.18743844959030306,-0.22405192614700148,0.09722434258000001,1.6957625729593484,0.4989964971433885,-1.3084681179708568, ,0.03243231085388612,0.059422004732918456,0.018806152916174736,-0.01739089241439107,0.0,-0.029730208397430194, ,1.1806459426879883
0.012076371284555335,0.02042807211153225,-0.08673108818674113, ,0.012576954595097861,0.020055415325708262,-0.08752142638647896, ,0.00100702095349561, ,0.006331575272944295,-0.0007753900151475658,-0.021132363321458413,0.035307191072796076,0.009048295022321429,0.045709789628240696, ,0.022074121832196883, ,0.03644811613536907, ,8.55866239241923e-05, ,0.1877628043710205,-0.22344183024993775,0.09742526753000001,1.6949238131854105,0.49954304314245024,-1.3093221832863453, ,0.03202731743451596,0.05901551091944699,0.021323710200803217,-0.08034201120186056,0.060828935191994914,-0.10872330151539368, ,1.191391944885254
0.012141169279106648,0.020426014040721547,-0.08694947563787996, ,0.012670435184585545,0.02002999496089392,-0.08778015881960853, ,0.001061596937964983, ,0.006995575957603677,-0.00044830143821578307,-0.02344299943680304,0.020491872427752314,0.02537105241031166,0.022290429543698233, ,0.02446861826405522, ,0.032612881741270985, ,8.947493698147002e-05, ,0.18845785032970072,-0.22219847025718759,0.09789970967000002,1.6949238131854105,0.5011826811396356,-1.311475985532108, ,0.03749385284807221,0.06720746569296797,0.026459819800664457,-0.031280778001024676,0.0804591884335142,-0.0938417205079997, ,1.2025530338287354
0.012294660430130364,0.020422120712134534,-0.08747026587890855, ,0.012764853095839936,0.02000453286765498,-0.08803875945960345, ,0.0008477297340753475, ,0.007986202459430753,-0.0003247483202603971,-0.02633785089313404,0.02178233720242973,0.037354402895298434,-0.022868170137139432, ,0.027523940140602894, ,0.043241287631333156, ,9.237008789104755e-05, ,0.18885170970628615,-0.22149570156563317,0.09817711573000001,1.6947141232419258,0.5020025001382282,-1.3121444929542865, ,0.040040903611169104,0.07034613903518962,0.02677111179831933,0.0,0.07994585829682793,-0.08916725871148963, ,1.2131469249725342
0.012294660430130364,0.020422120712134534,-0.08747026587890855, ,0.012860191501807122,0.019979039306198827,-0.08829720217989395, ,0.001095431500005932, ,0.007986202459430753,-0.0003247483202603971,-0.02633785089313404,0.02178233720242973,0.037354402895298434,-0.022868170137139432, ,0.027523940140602894, ,0.043241287631333156, ,9.627863434694384e-05, ,0.18885170970628615,-0.22149570156563317,0.09817711573000001,1.6947141232419258,0.5020025001382282,-1.3121444929542865, ,0.040040903611169104,0.07034613903518962,0.02677111179831933,0.0,0.07994585829682793,-0.08916725871148963, ,1.2239980697631836
0.012377482477553157,0.020414562139020126,-0.08773397598943096, ,0.012956433696268125,0.019953524450987695,-0.08855546109029716, ,0.0011057025071794797, ,0.008540860243112788,-0.0006009313244121458,-0.02635600711618945,-0.024793832125937287,-0.0017219024874807801,0.003935009772878294, ,0.027711848066443952, ,0.024853296406571357, ,0.00010059241158127091, ,0.1892764600143685,-0.22077748740833028,0.09844415147,1.6940850534114722,0.5026856826370554,-1.3129466186931904, ,0.04317422272905859,0.07172860284086982,0.026681426331658296,-0.022638037706043217,0.04791028175656296,-0.04855574858790911, ,1.229438066482544
0.012449503061630889,0.0204056942714984,-0.08794478419458807, ,0.013053563093501159,0.01992799839098993,-0.08881351053631566, ,0.0011609338194614178, ,0.00911268020335225,-0.001403348165914818,-0.026038859058332094,-0.044568568872124334,-0.04465111880006801,0.07668674541059128, ,0.027623043055084062, ,0.06308777830116537, ,0.00010510450267863324, ,0.1896548739252055,-0.220182836977015,0.09865674303000001,1.6934559835810188,0.5029589556365863,-1.3132511332407237, ,0.04864015456610496,0.07531503298291331,0.02619870315789474,-0.10444690083588236,0.027638752250512516,-0.04901363726360575, ,1.234915018081665
0.012449503061630889,0.0204056942714984,-0.08794478419458807, ,0.013151563227942333,0.019902471129926394,-0.08907132509843342, ,0.0014195831836745464, ,0.00911268020335225,-0.001403348165914818,-0.026038859058332094,-0.044568568872124334,-0.04465111880006801,0.07668674541059128, ,0.027623043055084062, ,0.06308777830116537, ,0.0005936168480262127, ,0.1896548739252055,-0.220182836977015,0.09865674303000001,1.6934559835810188,0.5029589556365863,-1.3132511332407237, ,0.04864015456610496,0.07531503298291331,0.02619870315789474,-0.10444690083588236,0.027638752250512516,-0.04901363726360575, ,1.2402489185333252
0.012556518518839696,0.0203876526825768,-0.08825640307485003, ,0.013250417753848526,0.019876952586522865,-0.08932887959141317, ,0.0013756876880436015, ,0.009537608751708573,-0.0014420027746987136,-0.02922303336444173,0.021242313978854968,0.04403824734360717,0.011571970524286664, ,0.030773869300466286, ,0.04889357647137277, ,0.0006109962000265992, ,0.1902495243565208,-0.21921749536773694,0.09897174150000002,1.693246293637534,0.503778774635179,-1.3141646768833242, ,0.0530446850522475,0.08674309100408664,0.029662591284916204,-0.039635157629716644,0.10904578983662262,-0.11098729071706909, ,1.245650053024292
0.012556518518839696,0.0203876526825768,-0.08825640307485003, ,0.013350110444957718,0.01985145259475611,-0.08958614906359338, ,0.0016387565633606714, ,0.009537608751708573,-0.0014420027746987136,-0.02922303336444173,0.021242313978854968,0.04403824734360717,0.011571970524286664, ,0.030773869300466286, ,0.04889357647137277, ,0.0006333388166208182, ,0.1902495243565208,-0.21921749536773694,0.09897174150000002,1.693246293637534,0.503778774635179,-1.3141646768833242, ,0.0530446850522475,0.08674309100408664,0.029662591284916204,-0.039635157629716644,0.10904578983662262,-0.11098729071706909, ,1.2509379386901855
0.012667370795305829,0.020377439742106276,-0.08860907275827706, ,0.013450625194151244,0.019825980904104316,-0.0898431087961841, ,0.0015621905281285164, ,0.012227195282541412,0.000257274834506995,-0.04097981483094409,0.12442816383133302,0.12626617247317207,-0.04284952206339651, ,0.042765824187034424, ,0.1772721035419068, ,0.0006531016189933223, ,0.19086734298645874,-0.2182367082927104,0.09933211012000001,1.6930366036940496,0.5054184126323642,-1.3159917641685244, ,0.06473188373701963,0.09916085847280122,0.04213971301587302,0.0,0.19695914914084336,-0.2178420247176217, ,1.2562000751495361
0.012667370795305829,0.020377439742106276,-0.08860907275827706, ,0.013551946013114952,0.01980054717979587,-0.09009973430256507, ,0.0018268415870102781, ,0.012227195282541412,0.000257274834506995,-0.04097981483094409,0.12442816383133302,0.12626617247317207,-0.04284952206339651, ,0.042765824187034424, ,0.1772721035419068, ,0.0006775545349936756, ,0.19086734298645874,-0.2182367082927104,0.09933211012000001,1.6930366036940496,0.5054184126323642,-1.3159917641685244, ,0.06473188373701963,0.09916085847280122,0.04213971301587302,0.0,0.19695914914084336,-0.2178420247176217, ,1.2614920139312744
0.012667370795305829,0.020377439742106276,-0.08860907275827706, ,0.0136540570320011,0.0197751610030588,-0.09035600132758212, ,0.0020947670122108348, ,0.012227195282541412,0.000257274834506995,-0.04097981483094409,0.12442816383133302,0.12626617247317207,-0.04284952206339651, ,0.042765824187034424, ,0.1772721035419068, ,0.0007064772386103522, ,0.19152377528076783,-0.21723275301906123,0.09980655226000001,1.691988153976627,0.5073313236290804,-1.3182050447413989, ,0.06841884755477344,0.10303685294079346,0.051218043472668826,-0.17195348196828775,0.172975674783876,-0.21021810030218413, ,1.2674109935760498
0.012956690540854892,0.020398690961976287,-0.08959163564486837, ,0.01375694249908953,0.019749831871369826,-0.0906118858468444, ,0.0014499419956512582, ,0.016122836233279855,0.0016449471578501484,-0.05225849975609158,-0.02837096615015016,-0.011735882809000049,0.04760562019378241, ,0.05471382362908577, ,0.030696138468662412, ,0.0007213465337511704, ,0.19152377528076783,-0.21723275301906123,0.09980655226000001,1.691988153976627,0.5085610521269693,-1.319534520835229, ,0.07205538463057766,0.10474276110206487,0.053452387651006725,-0.08090501466773187,0.07990178873346379,-0.08811973124523885, ,1.2730839252471924
0.012956690540854892,0.020398690961976287,-0.08959163564486837, ,0.013860586780449052,0.019724569198702486,-0.09086736406602046, ,0.0017026307785914846, ,0.016122836233279855,0.0016449471578501484,-0.05225849975609158,-0.02837096615015016,-0.011735882809000049,0.04760562019378241, ,0.05471382362908577, ,0.030696138468662412, ,0.000740587401297059, ,0.1922342667051965,-0.21615929314954402,0.10033932745000002,1.6909397042592043,0.5085610521269693,-1.319534520835229, ,0.07205538463057766,0.10474276110206487,0.053452387651006725,-0.08090501466773187,0.07990178873346379,-0.08811973124523885, ,1.2783379554748535
0.013124652743825925,0.02040754991526747,-0.09013116327358722, ,0.013964974359598824,0.01969938231577654,-0.09112241242013558, ,0.0014799380518916206, ,0.017677107278183203,0.0004465830182084653,-0.05679053848174778,0.01412166450892877,0.024293768561128342,-0.04619304814730828, ,0.059479784962316616, ,0.0280894621125718, ,0.0007548056830392621, ,0.19299881725974471,-0.21497771501978769,0.1008902507,1.6905203243722353,0.5095175076253274,-1.320641161121666, ,0.08028506054016141,0.13089233318409763,0.05792295098181819,0.0,0.10749491450802821,-0.14197304929006968, ,1.2836270332336426
0.013124652743825925,0.02040754991526747,-0.09013116327358722, ,0.014070089837169989,0.019674280470307698,-0.0913770075728694, ,0.0017273283979708045, ,0.017677107278183203,0.0004465830182084653,-0.05679053848174778,0.01412166450892877,0.024293768561128342,-0.04619304814730828, ,0.059479784962316616, ,0.0280894621125718, ,0.0007731551682266497, ,0.19299881725974471,-0.21497771501978769,0.1008902507,1.6905203243722353,0.5095175076253274,-1.320641161121666, ,0.08028506054016141,0.13089233318409763,0.05792295098181819,0.0,0.10749491450802821,-0.14197304929006968, ,1.2889289855957031
0.013307541098476369,0.0204090936854413,-0.09070783565560099, ,0.014175917930567106,0.019649272827256085,-0.09163112641585179, ,0.0014777929107320017, ,0.01828192303611596,-0.00045489498671879555,-0.056373377198015155,0.036637234987516386,0.07697857835866788,-0.03677672928108456, ,0.059265447741977825, ,0.08524915938311792, ,0.0007862040153100822, ,0.1938792088074063,-0.21361079130104993,0.10148006265000001,1.69073001431572,0.5110205091227473,-1.3223568305031699, ,0.0924020852565441,0.13833373405024896,0.05771308521739131,-0.00450942644719721,0.17526537023870342,-0.16885902055192822, ,1.2943048477172852
0.013307541098476369,0.0204090936854413,-0.09070783565560099, ,0.014282443473628956,0.019624368469074747,-0.09188474606795988, ,0.001717948318488788, ,0.01828192303611596,-0.00045489498671879555,-0.056373377198015155,0.036637234987516386,0.07697857835866788,-0.03677672928108456, ,0.059265447741977825, ,0.08524915938311792, ,0.0008031448208224223, ,0.1938792088074063,-0.21361079130104993,0.10148006265000001,1.69073001431572,0.5110205091227473,-1.3223568305031699, ,0.0924020852565441,0.13833373405024896,0.05771308521739131,-0.00450942644719721,0.17526537023870342,-0.16885902055192822, ,1.2997848987579346
0.013494682600218572,0.020390853440575292,-0.09124528775689111, ,0.014389651416290663,0.019599576395959765,-0.09213784387461615, ,0.0014912226414473995, ,0.018686729637506012,-0.0030385414036681727,-0.049601006353985594,0.029729387461868952,0.03926564720651784,0.07861536552072408, ,0.05309130276924057, ,0.04924761213036433, ,0.000815431924762154, ,0.19490633227967818,-0.21219753118506685,0.10202968961000002,1.6896815645982974,0.512796783619698,-1.3242953356920668, ,0.1111205404665934,0.1427021677570989,0.05072869910828026,-0.13187045384017482,0.18309078052388864,-0.19113964236708428, ,1.3051989078521729
0.013494682600218572,0.020390853440575292,-0.09124528775689111, ,0.014497526824244352,0.01957490552609799,-0.0923903974070838, ,0.001727062143573917, ,0.018686729637506012,-0.0030385414036681727,-0.049601006353985594,0.029729387461868952,0.03926564720651784,0.07861536552072408, ,0.05309130276924057, ,0.04924761213036433, ,0.0008314254373728867, ,0.19490633227967818,-0.21219753118506685,0.10202968961000002,1.6896815645982974,0.512796783619698,-1.3242953356920668, ,0.1111205404665934,0.1427021677570989,0.05072869910828026,-0.13187045384017482,0.18309078052388864,-0.19113964236708428, ,1.31044602394104
0.013684381695634538,0.020348376463588447,-0.09172898251080278, ,0.01460605487860057,0.019550364695916284,-0.09264238446176445, ,0.0015233539843262254, ,0.019216974619353875,-0.005190386578928719,-0.04661189718440259,-0.042948783857061835,-0.010888658097162537,0.04417179690255965, ,0.05068432879588061, ,0.04430508863487417, ,0.0008433552399065649, ,0.1960492967450634,-0.2106684300759704,0.10252227981,1.6886331148808746,0.5144364216168833,-1.3257140292765646, ,0.1168681546286586,0.15842561195070248,0.04726650302670624,-0.09088787860996533,0.1283366620629326,-0.12702372326149597, ,1.3156790733337402
0.013684381695634538,0.020348376463588447,-0.09172898251080278, ,0.014715220875550173,0.0195259626603316,-0.0928937830594954, ,0.0017594755459713486, ,0.019216974619353875,-0.005190386578928719,-0.04661189718440259,-0.042948783857061835,-0.010888658097162537,0.04417179690255965, ,0.05068432879588061, ,0.04430508863487417, ,0.0008588827027212223, ,0.1960492967450634,-0.2106684300759704,0.10252227981,1.6886331148808746,0.5144364216168833,-1.3257140292765646, ,0.1168681546286586,0.15842561195070248,0.04726650302670624,-0.09088787860996533,0.1283366620629326,-0.12702372326149597, ,1.3209218978881836
0.013883875498218018,0.02029040678890177,-0.09219718213989331, ,0.014825010226024473,0.01950170809299758,-0.09314457144484575, ,0.0015509115719287727, ,0.019632554142481096,-0.006204357388934601,-0.04423019800136154,-0.04513499024797288,-0.017674580317447064,-0.06874377132715913, ,0.04878772025834703, ,0.048470494720610366, ,0.0008704165172080147, ,0.1972772112720651,-0.20900031977513792,0.10299672195000001,1.6882137349939055,0.5156661501147722,-1.326961826630254, ,0.1221324859182378,0.16736673996202958,0.04474385258426967,0.023227106083580282,0.10225692249282009,-0.11302861634230892, ,1.3261909484863281
0.013883875498218018,0.02029040678890177,-0.09219718213989331, ,0.014935408455358108,0.01947760958655682,-0.0933947280854144, ,0.0017889877427544197, ,0.019632554142481096,-0.006204357388934601,-0.04423019800136154,-0.04513499024797288,-0.017674580317447064,-0.06874377132715913, ,0.04878772025834703, ,0.048470494720610366, ,0.0008854750618891034, ,0.1972772112720651,-0.20900031977513792,0.10299672195000001,1.6882137349939055,0.5156661501147722,-1.326961826630254, ,0.1221324859182378,0.16736673996202958,0.04474385258426967,0.023227106083580282,0.10225692249282009,-0.11302861634230892, ,1.3315248489379883
0.013997230671115921,0.020252774735929586,-0.09245133147408581, ,0.015046401202948383,0.019453675652885506,-0.09364423167112565, ,0.0017782938535251108, ,0.019478312320033574,-0.0067435536033538315,-0.043393665782257874,-0.026877122312887705,-0.005800646148905089,-0.06873103289428524, ,0.04804050786638685, ,0.02749315073707449, ,0.0008998753649800067, ,0.19797997996361952,-0.2080272554329856,0.10325338737,1.6882137349939055,0.516212696113834,-1.327570855725321, ,0.12276447808340334,0.17006620350980425,0.043881023471074386,0.018293816476116994,0.11616831444821658,-0.13498349205580526, ,1.3371949195861816
0.013997230671115921,0.020252774735929586,-0.09245133147408581, ,0.015157974221918434,0.019429914723346563,-0.09389306111352773, ,0.002025588443954765, ,0.019478312320033574,-0.0067435536033538315,-0.043393665782257874,-0.026877122312887705,-0.005800646148905089,-0.06873103289428524, ,0.04804050786638685, ,0.02749315073707449, ,0.0009177438265510346, ,0.19797997996361952,-0.2080272554329856,0.10325338737,1.6882137349939055,0.516212696113834,-1.327570855725321, ,0.12276447808340334,0.17006620350980425,0.043881023471074386,0.018293816476116994,0.11616831444821658,-0.13498349205580526, ,1.3425929546356201
0.014295926348075163,0.0201405193403761,-0.09312027733072867, ,0.015270113378776986,0.019406335149035454,-0.09414119554508862, ,0.001590704497389152, ,0.020066459065761804,-0.008369936173137173,-0.043924502655001925,-0.011274938797529842,0.003141414577065433,0.021184783832026773, ,0.04901102472372472, ,0.01169740245603661, ,0.0009282588370328801, ,0.19987977225067877,-0.20537835805712662,0.10393005075000002,1.687584665163452,0.5183988801100811,-1.3297619358851664, ,0.12964063054435898,0.18110103350853202,0.044369948523676886,-0.08521114910000747,0.15406986247245744,-0.1811806248815541, ,1.3479840755462646
0.014295926348075163,0.0201405193403761,-0.09312027733072867, ,0.015382804653080496,0.01938294520103062,-0.09438861431849378, ,0.0018340942563100171, ,0.020066459065761804,-0.008369936173137173,-0.043924502655001925,-0.011274938797529842,0.003141414577065433,0.021184783832026773, ,0.04901102472372472, ,0.01169740245603661, ,0.0009421947665602207, ,0.19987977225067877,-0.20537835805712662,0.10393005075000002,1.687584665163452,0.5183988801100811,-1.3297619358851664, ,0.12964063054435898,0.18110103350853202,0.044369948523676886,-0.08521114910000747,0.15406986247245744,-0.1811806248815541, ,1.3532469272613525
0.014500357929257645,0.020052959570005496,-0.09356002702134196, ,0.015496034137093934,0.019359753070641604,-0.09463529700594245, ,0.0016211452437688392, ,0.02110394426008789,-0.008548098721012531,-0.045877493170352064,-0.04179112421218136,0.002979967838947583,0.013545557326760894, ,0.05121709514090752, ,0.04189480918071558, ,0.0009524818950027756, ,0.2012158050379196,-0.20353262490018695,0.10437467822000002,1.6867459053895137,0.5200385181072663,-1.3315073444302263, ,0.13498853706752598,0.18643799913255554,0.04643968373177843,-0.0683388994484651,0.15569996053027818,-0.15103041235952192, ,1.3585050106048584
0.014500357929257645,0.020052959570005496,-0.09356002702134196, ,0.015609788035452063,0.01933676686965805,-0.09488122339844512, ,0.0018679740392821454, ,0.02110394426008789,-0.008548098721012531,-0.045877493170352064,-0.04179112421218136,0.002979967838947583,0.013545557326760894, ,0.05121709514090752, ,0.04189480918071558, ,0.0009661459568576915, ,0.2012158050379196,-0.20353262490018695,0.10437467822000002,1.6867459053895137,0.5200385181072663,-1.3315073444302263, ,0.13498853706752598,0.18643799913255554,0.04643968373177843,-0.0683388994484651,0.15569996053027818,-0.15103041235952192, ,1.3637568950653076
0.0147276889802044,0.019971589466734184,-0.0940390886227643, ,0.015724052664821086,0.01931399463059927,-0.09512637350512075, ,0.0016147321684834026, ,0.022943580428435716,-0.007633858787485468,-0.04866580916185717,-0.042830977554348434,-0.010353842500821761,-0.017543529809133023, ,0.05434192363398326, ,0.04406156737748738, ,0.000975683989381599, ,0.20267540155114802,-0.20164055534600195,0.10486208326000002,1.6867459053895137,0.5215415196046862,-1.3330596563314492, ,0.14554745637802266,0.18319872887735672,0.04962246579439253,-0.03444236654777317,0.1457935891397779,-0.1403178124674564, ,1.3690259456634521
0.014962006476538104,0.019890612206360476,-0.09451425487143401, ,0.015838814453559447,0.01929144430696204,-0.09537072755249346, ,0.0013643092954454797, ,0.02366778227656871,-0.008084572222107263,-0.04769191922004277,-0.045902424683421844,-0.021099834224516563,-0.05173509857542253, ,0.053852050887562425, ,0.05051721355103155, ,0.000981316240194119, ,0.20418905719449604,-0.19978709945618806,0.10534689572000001,1.6865362154460295,0.5229078846023405,-1.3341738353684134, ,0.15232253861712805,0.18570830050581366,0.04871196183486239,0.0,0.13464357361756327,-0.13330600316081131, ,1.3751568794250488
0.014962006476538104,0.019890612206360476,-0.09451425487143401, ,0.01595405994137884,0.019269123773469378,-0.09561426598378897, ,0.0016063755465719495, ,0.02366778227656871,-0.008084572222107263,-0.04769191922004277,-0.045902424683421844,-0.021099834224516563,-0.05173509857542253, ,0.053852050887562425, ,0.05051721355103155, ,0.0009902456588566594, ,0.20418905719449604,-0.19978709945618806,0.10534689572000001,1.6865362154460295,0.5229078846023405,-1.3341738353684134, ,0.15232253861712805,0.18570830050581366,0.04871196183486239,0.0,0.13464357361756327,-0.13330600316081131, ,1.3804779052734375
0.015196009053491395,0.019804726887745382,-0.09497990470494025, ,0.016069775779006038,0.01924704082632042,-0.09585696945823304, ,0.0013578382139241795, ,0.023529044809721802,-0.008545003933235039,-0.0461395555687331,-0.06584676146299497,-0.04779543654919907,0.04483191274108747, ,0.05249277693127988, ,0.08136332493103364, ,0.000995423018787188, ,0.2057181583035925,-0.19794908903212263,0.10582263415000001,1.6856974556720912,0.5244108860997605,-1.3355627897893552, ,0.15256743015831317,0.18075607915899194,0.047126661301775154,-0.1001414581328543,0.1276336285445587,-0.12887669898886428, ,1.3858530521392822
0.015196009053491395,0.019804726887745382,-0.09497990470494025, ,0.016185948727843853,0.019225203183438393,-0.09609881885034738, ,0.0016024347560830402, ,0.023529044809721802,-0.008545003933235039,-0.0461395555687331,-0.06584676146299497,-0.04779543654919907,0.04483191274108747, ,0.05249277693127988, ,0.08136332493103364, ,0.0010038537373607416, ,0.2057181583035925,-0.19794908903212263,0.10582263415000001,1.6856974556720912,0.5244108860997605,-1.3355627897893552, ,0.15256743015831317,0.18075607915899194,0.047126661301775154,-0.1001414581328543,0.1276336285445587,-0.12887669898886428, ,1.3914790153503418
0.01544053811425225,0.01971984311586507,-0.09546010625987611, ,0.016302565659632028,0.01920361848471931,-0.096339795249247, ,0.0013354520121724499, ,0.02449547362176276,-0.008293702116472299,-0.046696418299569616,-0.10307001544526535,-0.0998514304509312,0.020260402952486694, ,0.05337948299449548, ,0.14350440485858798, ,0.0010083961794814498, ,0.2072627048784374,-0.1961110786080572,0.10631263177000001,1.6848586958981533,0.5253673415981185,-1.3365060725955111, ,0.1548074087413879,0.17871363758657396,0.047691052455089825,-0.07269555868977305,0.07083179552380008,-0.08604476131213512, ,1.3967399597167969
0.01544053811425225,0.01971984311586507,-0.09546010625987611, ,0.0164196135561091,0.019182294292281483,-0.09657987995793785, ,0.0015815943201257841, ,0.02449547362176276,-0.008293702116472299,-0.046696418299569616,-0.10307001544526535,-0.0998514304509312,0.020260402952486694, ,0.05337948299449548, ,0.14350440485858798, ,0.0010161421003009677, ,0.2072627048784374,-0.1961110786080572,0.10631263177000001,1.6848586958981533,0.5253673415981185,-1.3365060725955111, ,0.1548074087413879,0.17871363758657396,0.047691052455089825,-0.07269555868977305,0.07083179552380008,-0.08604476131213512, ,1.4019770622253418
0.015681231234444447,0.019645608383796177,-0.09592531160231794, ,0.01653707950867357,0.019161238090714534,-0.09681905449261323, ,0.0013288593617363496, ,0.024178526958430757,-0.007478623948118083,-0.045964961816432955,-0.07150837133107459,-0.0649931589605267,-0.01312460833643722, ,0.052471980111513494, ,0.09662997827967627, ,0.0010203116637867728, ,0.20876863778891117,-0.19438890917710513,0.10678966649,1.6848586958981533,0.5261871605967111,-1.3373379374979708, ,0.15355492161564852,0.16945882421155498,0.04726650302670624,-0.03491342104100379,0.09772466226255529,-0.09970821496038539, ,1.407317876815796
0.015681231234444447,0.019645608383796177,-0.09592531160231794, ,0.01665495071804309,0.019140457287324227,-0.0970573005819495, ,0.0015762951224354254, ,0.024178526958430757,-0.007478623948118083,-0.045964961816432955,-0.07150837133107459,-0.0649931589605267,-0.01312460833643722, ,0.052471980111513494, ,0.09662997827967627, ,0.0010276272356110972, ,0.20876863778891117,-0.19438890917710513,0.10678966649,1.6848586958981533,0.5261871605967111,-1.3373379374979708, ,0.15355492161564852,0.16945882421155498,0.04726650302670624,-0.03491342104100379,0.09772466226255529,-0.09970821496038539, ,1.412597894668579
0.015827415696029905,0.019602925334090283,-0.09620559689436863, ,0.016773214493919726,0.019119959212388606,-0.09729460016640705, ,0.0015210916367240292, ,0.02385674875983931,-0.007139240857933605,-0.04625989252107642,-0.0264530091381062,-0.03958978034065437,-0.029451463032086768, ,0.05253656705076213, ,0.04761197908617231, ,0.0010340358641969794, ,0.2096953657338181,-0.19337723117058173,0.10707873916,1.6848586958981533,0.5268703430955384,-1.3381400632368745, ,0.15039134953798858,0.1661942934474094,0.047691052455089825,-0.026491437902699158,0.11885393921836766,-0.1405063174174609, ,1.4178879261016846
0.015827415696029905,0.019602925334090283,-0.09620559689436863, ,0.016891858254647233,0.019099751119399776,-0.09753093539752317, ,0.0017727787224775496, ,0.02385674875983931,-0.007139240857933605,-0.04625989252107642,-0.0264530091381062,-0.03958978034065437,-0.029451463032086768, ,0.05253656705076213, ,0.04761197908617231, ,0.0010435069264826278, ,0.2096953657338181,-0.19337723117058173,0.10707873916,1.6848586958981533,0.5268703430955384,-1.3381400632368745, ,0.15039134953798858,0.1661942934474094,0.047691052455089825,-0.026491437902699158,0.11885393921836766,-0.1405063174174609, ,1.4231829643249512
0.016155084521105777,0.0195073312435008,-0.09682402706507182, ,0.017010869526874996,0.01907984018531734,-0.09776628863721229, ,0.0013427484690957108, ,0.02365715431725872,-0.006411719562333832,-0.04386652706028718,-0.033711249533837424,-0.0749140581449831,-0.04342618943129298, ,0.0502498088998109, ,0.08214865807106002, ,0.0010472947941106414, ,0.2117727808769845,-0.1911685295685535,0.10771781013000001,1.6844393160111841,0.5283733445929583,-1.3399374113585194, ,0.1480451506372399,0.15281311040011397,0.045381229401709404,-0.011288565862351966,0.0772146458812566,-0.11883900765192809, ,1.4284610748291016
0.016155084521105777,0.0195073312435008,-0.09682402706507182, ,0.01713023594521698,0.019060233510813145,-0.09800064245706025, ,0.0015922438453907265, ,0.02365715431725872,-0.006411719562333832,-0.04386652706028718,-0.033711249533837424,-0.0749140581449831,-0.04342618943129298, ,0.0502498088998109, ,0.08214865807106002, ,0.0010541066572516424, ,0.2117727808769845,-0.1911685295685535,0.10771781013000001,1.6844393160111841,0.5283733445929583,-1.3399374113585194, ,0.1480451506372399,0.15281311040011397,0.045381229401709404,-0.011288565862351966,0.0772146458812566,-0.11883900765192809, ,1.4337470531463623
0.01639275038888863,0.01943847660493724,-0.09726019696824839, ,0.017249945251915234,0.019040938120524004,-0.09823397963762434, ,0.00135686129245613, ,0.023722389400280357,-0.0065102096436285405,-0.04525268938821329,-0.0573859863540177,-0.07593085667472732,0.0737923613491359, ,0.05150670330479946, ,0.0951759247794402, ,0.0010578443687973768, ,0.21327099105458405,-0.18964715119233128,0.10816891905,1.6833908662937616,0.5291931635915509,-1.341095991221541, ,0.1464458974667759,0.1499161793972682,0.046849445647058834,-0.12747232082355311,0.09689465611491818,-0.11490824654447339, ,1.43898606300354
0.01639275038888863,0.01943847660493724,-0.09726019696824839, ,0.017369985296499295,0.01902196096329723,-0.09846628316772767, ,0.0016072079096862274, ,0.023722389400280357,-0.0065102096436285405,-0.04525268938821329,-0.0573859863540177,-0.07593085667472732,0.0737923613491359, ,0.05150670330479946, ,0.0951759247794402, ,0.0010645439241740702, ,0.21327099105458405,-0.18964715119233128,0.10816891905,1.6833908662937616,0.5291931635915509,-1.341095991221541, ,0.1464458974667759,0.1499161793972682,0.046849445647058834,-0.12747232082355311,0.09689465611491818,-0.11490824654447339, ,1.4443490505218506
0.016640052054314004,0.019377520024402007,-0.09773440272226944, ,0.017490344035448684,0.01900330891244149,-0.0986975362437589, ,0.0013381541726248767, ,0.022634800359967063,-0.0053692155285653695,-0.04380744674306843,0.017970561053234985,-0.029639360086491453,-0.013217768880332525, ,0.049600958185044466, ,0.034659362252869835, ,0.00106784043319155, ,0.21480781489655473,-0.1881103273503606,0.10866280554,1.6829714864067924,0.5305595285892053,-1.3427002426993488, ,0.13873821865273506,0.13833373405024896,0.04564129375358167,-0.04555436226109921,0.12052402101862718,-0.16285317991227374, ,1.4498300552368164
0.016640052054314004,0.019377520024402007,-0.09773440272226944, ,0.017611009531853343,0.018984988765974396,-0.09892772226896669, ,0.0015877187258963922, ,0.022634800359967063,-0.0053692155285653695,-0.04380744674306843,0.017970561053234985,-0.029639360086491453,-0.013217768880332525, ,0.049600958185044466, ,0.034659362252869835, ,0.001074029460485655, ,0.2162442432111605,-0.18674340363162287,0.10911650704,1.682761796463308,0.5317892570870942,-1.3440297187931787, ,0.1371343086105069,0.12720769645907612,0.04305084194594595,0.00409608855844576,0.10994281247446702,-0.11783494169882643, ,1.4555048942565918
0.016871073125089578,0.0193254283023609,-0.09816822864993274, ,0.01773196995507517,0.018967007246871122,-0.099156824852759, ,0.0013590185639424327, ,0.02211992838305558,-0.004645485008719396,-0.04108021962149627,-0.004110327360089586,-0.02907584101660006,-0.04652477135114084, ,0.046887697819237316, ,0.029362941402002494, ,0.0010773822734674995, ,0.2162442432111605,-0.18674340363162287,0.10911650704,1.682761796463308,0.5317892570870942,-1.3440297187931787, ,0.1371343086105069,0.12720769645907612,0.04305084194594595,0.00409608855844576,0.10994281247446702,-0.11783494169882643, ,1.4617719650268555
0.01708494855751192,0.019285573956964577,-0.09856456972074455, ,0.01785321358040943,0.018949371003314137,-0.09938482780999922, ,0.001173067306013896, ,0.02244341294523821,-0.003920713065948038,-0.0415232740536533,-0.0291645186296293,-0.0452143464779586,-0.03421510739101825, ,0.04736307700847549, ,0.05380318609291011, ,0.0010784948901250157, ,0.21755710779977866,-0.1855618255018665,0.10953261613000001,1.6829714864067924,0.5327457125854522,-1.3450546803394754, ,0.13693642360529693,0.11981937065463481,0.043640579506849325,0.0,0.09400792716239653,-0.08578681028283029, ,1.4670019149780273
0.01708494855751192,0.019285573956964577,-0.09856456972074455, ,0.017974728788745672,0.018932086608940597,-0.09961171516030315, ,0.0014188642418130712, ,0.02244341294523821,-0.003920713065948038,-0.0415232740536533,-0.0291645186296293,-0.0452143464779586,-0.03421510739101825, ,0.04736307700847549, ,0.05380318609291011, ,0.001082407181523729, ,0.21755710779977866,-0.1855618255018665,0.10953261613000001,1.6829714864067924,0.5327457125854522,-1.3450546803394754, ,0.13693642360529693,0.11981937065463481,0.043640579506849325,0.0,0.09400792716239653,-0.08578681028283029, ,1.472249984741211
0.01731577999415082,0.019248185857874765,-0.09900127719280985, ,0.01809650406622901,0.01891516056309166,-0.09983747112733649, ,0.0011914932730934158, ,0.022875360007017814,-0.0031195693951248226,-0.04314570136866157,-0.007366560877422282,-0.04080158304661666,-0.01768674374258343, ,0.04893429630898348, ,0.04145944864891547, ,0.0010836467962006572, ,0.21893947698426486,-0.18436480190636173,0.10999150279000001,1.6825521065198237,0.5337021680838104,-1.346079641885772, ,0.1371343086105069,0.11324217369745916,0.04551089005714286,-0.02090801598917533,0.10265433897126719,-0.1060843262664952, ,1.4774949550628662
0.01731577999415082,0.019248185857874765,-0.09900127719280985, ,0.01821852800392197,0.018898599291061767,-0.10006208013811212, ,0.0014361293902722821, ,0.022875360007017814,-0.0031195693951248226,-0.04314570136866157,-0.007366560877422282,-0.04080158304661666,-0.01768674374258343, ,0.04893429630898348, ,0.04145944864891547, ,0.0010876072747857317, ,0.21893947698426486,-0.18436480190636173,0.10999150279000001,1.6825521065198237,0.5337021680838104,-1.346079641885772, ,0.1371343086105069,0.11324217369745916,0.04551089005714286,-0.02090801598917533,0.10265433897126719,-0.1060843262664952, ,1.4827890396118164
0.017544497022708147,0.01921737772946578,-0.09943681810486718, ,0.018340789297464837,0.018882409144346114,-0.10028552682228697, ,0.0012110292427842551, ,0.022477034011491273,-0.002940803142627173,-0.042153903492859614,-0.0299058378213097,-0.03941815544634834,0.07150679568501714, ,0.047862479676284465, ,0.04947743941674251, ,0.0010889786299857153, ,0.2203141234358768,-0.1832604511053476,0.11045168574000001,1.6817133467458854,0.5349318965816994,-1.3470824030190398, ,0.13576100366018712,0.10509074369708835,0.044618519663865555,-0.10425925692087577,0.1181013498719062,-0.09176672139519601, ,1.4922819137573242
0.017773543321898504,0.019198651343241915,-0.09987836695224078, ,0.018463276746737534,0.018866596400890032,-0.10050779601145894, ,0.0009910467308198673, ,0.022743847159651998,-0.0013136289526511319,-0.04537913469143654,0.019786758453583148,0.007460417064270322,0.014678750677449165, ,0.050776707947546115, ,0.02114192988372101, ,0.0010879024552696071, ,0.22167332442174031,-0.18224105036594998,0.11092094272000001,1.6815036568024009,0.5362982615793538,-1.3482782607961445, ,0.13235277762687694,0.09723047290826925,0.048269125818181824,-0.04606669486541111,0.15168307139969198,-0.12056276728763238, ,1.4977948665618896
0.017773543321898504,0.019198651343241915,-0.09987836695224078, ,0.01858597925552128,0.01885116726533855,-0.10072887273846498, ,0.001226440957828263, ,0.022743847159651998,-0.0013136289526511319,-0.04537913469143654,0.019786758453583148,0.007460417064270322,0.014678750677449165, ,0.050776707947546115, ,0.02114192988372101, ,0.0010894083085582881, ,0.22167332442174031,-0.18224105036594998,0.11092094272000001,1.6815036568024009,0.5362982615793538,-1.3482782607961445, ,0.13235277762687694,0.09723047290826925,0.048269125818181824,-0.04606669486541111,0.15168307139969198,-0.12056276728763238, ,1.5030748844146729
0.017992398156598442,0.019189060674403735,-0.10030212194799767, ,0.01870888583115856,0.01883612786928261,-0.10094874223667691, ,0.0010276351251581701, ,0.021107229718675857,-0.0010145988806018263,-0.03977418146302914,-0.012248781271401145,-0.03767732913180699,-0.023315673385405043, ,0.04503920590262935, ,0.039617095188390225, ,0.0010887440807797924, ,0.22293985261311314,-0.18135293608541417,0.11137205164000001,1.6812939668589162,0.5373913535774772,-1.349169604025716, ,0.12244766652705909,0.08503310175490213,0.04236386042553192,0.0,0.08677195413415592,-0.06835684729947185, ,1.5083298683166504
0.017992398156598442,0.019189060674403735,-0.10030212194799767, ,0.018831985584215515,0.018821484271509842,-0.10116738993929944, ,0.0012604396682699493, ,0.021107229718675857,-0.0010145988806018263,-0.03977418146302914,-0.012248781271401145,-0.03767732913180699,-0.023315673385405043, ,0.04503920590262935, ,0.039617095188390225, ,0.001090570629582879, ,0.22293985261311314,-0.18135293608541417,0.11137205164000001,1.6812939668589162,0.5373913535774772,-1.349169604025716, ,0.12244766652705909,0.08503310175490213,0.04236386042553192,0.0,0.08677195413415592,-0.06835684729947185, ,1.513592004776001
0.018196640969082953,0.019175169191960325,-0.10066733444105769, ,0.018955267728142617,0.01880724245825222,-0.10138480147866681, ,0.0011070878876557617, ,0.020095847867386864,-0.0019437539822626637,-0.03480665630199536,-0.03175303695521265,-0.060115758895807996,-0.018448256428957387, ,0.0402383474310011, ,0.06798609222749756, ,0.0010907444954573306, ,0.2241600444072406,-0.1805188809349979,0.11176223493000001,1.6815036568024009,0.53821117257607,-1.3498381114478946, ,0.1221324859182378,0.08450306461128297,0.03730400824355972,-0.0035462558504841344,0.06273279971197467,-0.049260809927855656, ,1.5189509391784668
0.018196640969082953,0.019175169191960325,-0.10066733444105769, ,0.019078721578937214,0.01879340834343639,-0.10160096268554175, ,0.0013399512105464787, ,0.020095847867386864,-0.0019437539822626637,-0.03480665630199536,-0.03175303695521265,-0.060115758895807996,-0.018448256428957387, ,0.0402383474310011, ,0.06798609222749756, ,0.001093340398739509, ,0.2241600444072406,-0.1805188809349979,0.11176223493000001,1.6815036568024009,0.53821117257607,-1.3498381114478946, ,0.1221324859182378,0.08450306461128297,0.03730400824355972,-0.0035462558504841344,0.06273279971197467,-0.049260809927855656, ,1.5244190692901611
0.01839180404455491,0.019153588555203507,-0.10101129384341928, ,0.019202336554802683,0.01877998776892942,-0.10181585958840907, ,0.0012016099765248876, ,0.0199802254109476,-0.0018985937652838591,-0.035470435077078095,0.010161493852522074,-0.010508389783123245,-0.009831369773019993, ,0.040754948537755055, ,0.014615952427756495, ,0.0010944565799537913, ,0.22533389980412274,-0.17968482578458167,0.11212908500000002,1.6810842769154317,0.5390309915746625,-1.3505882976102135, ,0.12150696742441842,0.08405397835116987,0.03801625661097852,-0.01599969225084579,0.11654206348940488,-0.09253843583156156, ,1.5298900604248047
0.01839180404455491,0.019153588555203507,-0.10101129384341928, ,0.019326102175811752,0.0187669865047902,-0.10202947841277651, ,0.001434947372111945, ,0.0199802254109476,-0.0018985937652838591,-0.035470435077078095,0.010161493852522074,-0.010508389783123245,-0.009831369773019993, ,0.040754948537755055, ,0.014615952427756495, ,0.0010979309757921398, ,0.22533389980412274,-0.17968482578458167,0.11212908500000002,1.6810842769154317,0.5390309915746625,-1.3505882976102135, ,0.12150696742441842,0.08405397835116987,0.03801625661097852,-0.01599969225084579,0.11654206348940488,-0.09253843583156156, ,1.535187005996704
0.018593621845903005,0.01913512811558499,-0.10136413700166051, ,0.019450008063566608,0.01875441024951639,-0.10224180558046969, ,0.0012839959429752597, ,0.019141316998878992,-0.0014837790616970483,-0.03203659863616889,0.006802740995185034,-0.02343553650736734,0.04976951241194934, ,0.03734883222980984, ,0.024402211163786863, ,0.0010998104199051006, ,0.22658498252974713,-0.1788739388327881,0.11250889797000001,1.6804552070849783,0.5403973565723169,-1.3517024766471777, ,0.12012271083350731,0.07092447052202598,0.03462785113043479,-0.07513834285523206,0.11259074352038485,-0.08964853815843987, ,1.5405209064483643
0.018593621845903005,0.01913512811558499,-0.10136413700166051, ,0.019574043940860746,0.018742264630293992,-0.10245282770893027, ,0.0015168443092327725, ,0.019141316998878992,-0.0014837790616970483,-0.03203659863616889,0.006802740995185034,-0.02343553650736734,0.04976951241194934, ,0.03734883222980984, ,0.024402211163786863, ,0.0011039807587983773, ,0.22658498252974713,-0.1788739388327881,0.11250889797000001,1.6804552070849783,0.5403973565723169,-1.3517024766471777, ,0.12012271083350731,0.07092447052202598,0.03462785113043479,-0.07513834285523206,0.11259074352038485,-0.08964853815843987, ,1.5459160804748535
0.0187808541392103,0.019120450045769025,-0.10166367101302073, ,0.01969819963133972,0.018730555203245024,-0.10266253161051199, ,0.0014111212681331008, ,0.019966843924247715,-0.0016765603337159784,-0.032749638783362664,0.011919880118571608,-0.02066459270642567,0.030691459295923276, ,0.03839302737853047, ,0.023855214535995525, ,0.0011070217539403053, ,0.2277820061252519,-0.17817117014123365,0.11283426676000001,1.6804552070849783,0.5414904485704405,-1.352593819876749, ,0.12585801267701696,0.07460451380382924,0.035476194922048995,-0.05668764698304387,0.11789322028178227,-0.09420696007768718, ,1.5511729717254639
0.018986390979060457,0.019113901842221306,-0.10202172307627386, ,0.01982246505916375,0.018719287453678075,-0.10287090429178014, ,0.001255328291657066, ,0.02016049838316033,-6.75185229056379e-05,-0.03695566084838744,0.007923470137669017,-0.024941735378960994,0.016794501865286558, ,0.042097162880049076, ,0.026168733505436702, ,0.001108475739604195, ,0.22902536611800206,-0.17744523325105657,0.11322185747,1.6804552070849783,0.5427201770683294,-1.3536782597501575, ,0.11615292724415029,0.0667348393519485,0.039822028800000006,-0.0390522974594842,0.10035901532907907,-0.0790458342453993, ,1.5564699172973633
0.018986390979060457,0.019113901842221306,-0.10202172307627386, ,0.019946830248667523,0.018708466796334727,-0.10307793295280596, ,0.0014840486751856758, ,0.02016049838316033,-6.75185229056379e-05,-0.03695566084838744,0.007923470137669017,-0.024941735378960994,0.016794501865286558, ,0.042097162880049076, ,0.026168733505436702, ,0.0011121220787845977, ,0.22902536611800206,-0.17744523325105657,0.11322185747,1.6804552070849783,0.5427201770683294,-1.3536782597501575, ,0.11615292724415029,0.0667348393519485,0.039822028800000006,-0.0390522974594842,0.10035901532907907,-0.0790458342453993, ,1.5623390674591064
0.019204899875928154,0.01911590958391644,-0.10242969156696449, ,0.02007128532402173,0.01869809857563867,-0.10328360498646486, ,0.0012862184539607564, ,0.022387427994118452,0.000489035390388726,-0.042633051057191944,0.01708970377933094,-0.018149463542663436,0.005770728048429238, ,0.04815613284151902, ,0.024926294553906825, ,0.0011137960823920606, ,0.23026100337787797,-0.17671929636087946,0.11366129978000002,1.6804552070849783,0.543813269066453,-1.354569602979729, ,0.12453666871190391,0.071512390021455,0.04590435596541788,-0.029807226345433018,0.11419270100480627,-0.0904897815803516, ,1.5676169395446777
0.019204899875928154,0.01911590958391644,-0.10242969156696449, ,0.020195820508896182,0.018688188065946472,-0.10348790797773566, ,0.0015115195565396115, ,0.022387427994118452,0.000489035390388726,-0.042633051057191944,0.01708970377933094,-0.018149463542663436,0.005770728048429238, ,0.04815613284151902, ,0.024926294553906825, ,0.0011175839250029897, ,0.23026100337787797,-0.17671929636087946,0.11366129978000002,1.6804552070849783,0.543813269066453,-1.354569602979729, ,0.12453666871190391,0.071512390021455,0.04590435596541788,-0.029807226345433018,0.11419270100480627,-0.0904897815803516, ,1.5728669166564941
0.019424648552686993,0.019126575873654024,-0.10286369240988837, ,0.020320426126118597,0.018678740471793038,-0.103690829702994, ,0.001298895727096333, ,0.02224653656388502,0.0013282747145991632,-0.044626568151958874,0.024884486326140938,-0.008748284877824752,-0.011994234589448755, ,0.04988189338655006, ,0.026374099992027326, ,0.0011192944137019835, ,0.23144258150763433,-0.17605514133369615,0.11412796418000001,1.6800358271980091,0.5449063610645766,-1.3554609462093001, ,0.11759224480603565,0.06720746569296797,0.047978347951807235,-0.010370053994698047,0.11316402412691931,-0.08980294377536903, ,1.5781519412994385
0.019424648552686993,0.019126575873654024,-0.10286369240988837, ,0.020445092597337657,0.01866976092814248,-0.10389235812931227, ,0.001519256102513209, ,0.02224653656388502,0.0013282747145991632,-0.044626568151958874,0.024884486326140938,-0.008748284877824752,-0.011994234589448755, ,0.04988189338655006, ,0.026374099992027326, ,0.0011230323734104997, ,0.23144258150763433,-0.17605514133369615,0.11412796418000001,1.6800358271980091,0.5449063610645766,-1.3554609462093001, ,0.11759224480603565,0.06720746569296797,0.047978347951807235,-0.010370053994698047,0.11316402412691931,-0.08980294377536903, ,1.5834100246429443
0.019662552589713493,0.019135134456882814,-0.10333334963174944, ,0.020569810442684,0.018661254500636305,-0.10409248141375665, ,0.001274346925747579, ,0.023555557851662984,0.0006346477239060266,-0.04561516889330435,0.02465428296491436,-0.008537947190020772,0.03252014697623376, ,0.05134209497674575, ,0.026087022063289694, ,0.0011244334340802875, ,0.2327245551647556,-0.17532148171064482,0.11463351728000001,1.6794067573675557,0.546272726062231,-1.3565751252462646, ,0.12806604798714005,0.07294153847691835,0.049162998518518526,-0.05977379852068723,0.1328232866544068,-0.10599263025693015, ,1.588775873184204
0.019662552589713493,0.019135134456882814,-0.10333334963174944, ,0.020694570280431458,0.01865322618584167,-0.10429118790268284, ,0.0014882036987312584, ,0.023555557851662984,0.0006346477239060266,-0.04561516889330435,0.02465428296491436,-0.008537947190020772,0.03252014697623376, ,0.05134209497674575, ,0.026087022063289694, ,0.0011277707759578192, ,0.2327245551647556,-0.17532148171064482,0.11463351728000001,1.6794067573675557,0.546272726062231,-1.3565751252462646, ,0.12806604798714005,0.07294153847691835,0.049162998518518526,-0.05977379852068723,0.1328232866544068,-0.10599263025693015, ,1.5940308570861816
0.019888190212300618,0.019146285277852476,-0.10376501309365528, ,0.020819362826657962,0.018645680911499676,-0.1044884661310341, ,0.001281043116617556, ,0.024184396124375087,0.0012110300273849557,-0.04553046948871148,0.027684106512690314,-0.016141737867703513,0.036715297227809925, ,0.05156913089717921, ,0.03204324875732713, ,0.0011291641608729079, ,0.2339524696917573,-0.17466504941633573,0.11510018168000001,1.6791970674240708,0.5475024545601199,-1.3575778863795323, ,0.1327229951866724,0.06697031867217415,0.04931520594427245,-0.0627540477992916,0.13027471700138907,-0.10404781265182118, ,1.5992860794067383
0.019888190212300618,0.019146285277852476,-0.10376501309365528, ,0.020944178894907715,0.018638623536775083,-0.10468430482163867, ,0.0014892715743902046, ,0.024184396124375087,0.0012110300273849557,-0.04553046948871148,0.027684106512690314,-0.016141737867703513,0.036715297227809925, ,0.05156913089717921, ,0.03204324875732713, ,0.0011324083718054962, ,0.2339524696917573,-0.17466504941633573,0.11510018168000001,1.6791970674240708,0.5475024545601199,-1.3575778863795323, ,0.1327229951866724,0.06697031867217415,0.04931520594427245,-0.0627540477992916,0.13027471700138907,-0.10404781265182118, ,1.6046278476715088
0.020111704644097037,0.019153973138569258,-0.10417128854335059, ,0.021069009395851983,0.018632058852503894,-0.10487869288450666, ,0.0012997106645781479, ,0.023231065480314336,0.00014968968199837915,-0.03944548273308182,0.013712943859827938,-0.037591494635383665,-0.03573442766174312, ,0.04577827998513493, ,0.040013370289966155, ,0.0011339021422766807, ,0.23519582968450745,-0.1740240625877751,0.11554092028000001,1.6789873774805866,0.5485955465582434,-1.3584692296091037, ,0.13328222128998704,0.06936910932636753,0.04293480194070081,0.014536781507887873,0.09519355462277478,-0.07556320271712337, ,1.609968900680542
0.020111704644097037,0.019153973138569258,-0.10417128854335059, ,0.02119384533695172,0.01862599158144428,-0.1050716194161285, ,0.001503458906745762, ,0.023231065480314336,0.00014968968199837915,-0.03944548273308182,0.013712943859827938,-0.037591494635383665,-0.03573442766174312, ,0.04577827998513493, ,0.040013370289966155, ,0.00113717255612154, ,0.23519582968450745,-0.1740240625877751,0.11554092028000001,1.6789873774805866,0.5485955465582434,-1.3584692296091037, ,0.13328222128998704,0.06936910932636753,0.04293480194070081,0.014536781507887873,0.09519355462277478,-0.07556320271712337, ,1.6152238845825195
0.02035504109467357,0.01914481972246851,-0.10456241855802215, ,0.02131867782211602,0.01862042637852026,-0.10526307369876854, ,0.0013017302900015708, ,0.021968893078746592,-0.0014508949433146333,-0.034450349896535365,0.015823790008906474,-0.027554584892308567,-0.03491057207529779, ,0.04088476448795627, ,0.03177418690601251, ,0.0011386160450152245, ,0.2366322579991132,-0.17324406656747843,0.11596739969000001,1.6789873774805866,0.5495520020566015,-1.3592491549349786, ,0.13235277762687694,0.07513613741763323,0.03765676482269504,0.011413231863944455,0.10506452389700553,-0.08373672869322063, ,1.6204440593719482
0.02035504109467357,0.01914481972246851,-0.10456241855802215, ,0.02144349805136652,0.018615367831075497,-0.10545304519976609, ,0.0015027553582859091, ,0.021968893078746592,-0.0014508949433146333,-0.034450349896535365,0.015823790008906474,-0.027554584892308567,-0.03491057207529779, ,0.04088476448795627, ,0.03177418690601251, ,0.0011417824738262738, ,0.2366322579991132,-0.17324406656747843,0.11596739969000001,1.6789873774805866,0.5495520020566015,-1.3592491549349786, ,0.13235277762687694,0.07513613741763323,0.03765676482269504,0.011413231863944455,0.10506452389700553,-0.08373672869322063, ,1.6256389617919922
0.02057831935648645,0.019131054379886207,-0.10490651142983062, ,0.021568297320497934,0.01861082045912019,-0.10564152357083147, ,0.001338261016753664, ,0.02145658103863949,-0.0014774618896866345,-0.032372204590659294,0.04477096384025826,0.0003374885840438655,-0.025712276986877038, ,0.03886550390208112, ,0.04477183880462602, ,0.0011434762543687511, ,0.23800690445072517,-0.17249496147867865,0.11634591637000001,1.6791970674240708,0.5509183670542559,-1.3602816552318022, ,0.13365766416686023,0.07124395011897205,0.03571482403587444,0.0,0.13692581996435169,-0.11082858628185349, ,1.6308550834655762
0.02057831935648645,0.019131054379886207,-0.10490651142983062, ,0.021693067020739094,0.01860678871557964,-0.10582849864734312, ,0.001538693364833931, ,0.02145658103863949,-0.0014774618896866345,-0.032372204590659294,0.04477096384025826,0.0003374885840438655,-0.025712276986877038, ,0.03886550390208112, ,0.04477183880462602, ,0.001146854178389821, ,0.23800690445072517,-0.17249496147867865,0.11634591637000001,1.6791970674240708,0.5509183670542559,-1.3602816552318022, ,0.13365766416686023,0.07124395011897205,0.03571482403587444,0.0,0.13692581996435169,-0.11082858628185349, ,1.636185884475708
0.020804207937871626,0.01911315010524062,-0.10523981314132823, ,0.021817798638413675,0.018603276986541226,-0.10601396044764333, ,0.0013735504203604967, ,0.0225642911837607,-0.0017055471293459224,-0.03360568249533236,0.04601873148247808,-0.0014408398083636433,-0.027413908481768317, ,0.040514170651921894, ,0.0460408167334322, ,0.001148775332982793, ,0.23942016456670825,-0.17173813365700466,0.11671406273000001,1.6791970674240708,0.5522847320519103,-1.361314155528626, ,0.1403800910628266,0.07513613741763323,0.03713009678321679,0.0,0.141975232061895,-0.11577128190713724, ,1.6427299976348877
0.02102265548683197,0.019093165985512556,-0.10556061942091109, ,0.021942483754602744,0.018600289591505306,-0.10619789917233757, ,0.0012227578106632452, ,0.021808218903612467,-0.002145939104083014,-0.03165178151966231,0.050192241622441805,0.009111647151319643,-0.02498925552350311, ,0.038497256262683834, ,0.05101226778754555, ,0.001149397034475906, ,0.2407948110183202,-0.17099675130107908,0.11706924619000002,1.6789873774805866,0.5537877335493301,-1.3623763949890053, ,0.1375317993601026,0.07537485429584652,0.03508548792951543,-0.0027337632557353337,0.15028812011219045,-0.12054794735284886, ,1.6479740142822266
0.02102265548683197,0.019093165985512556,-0.10556061942091109, ,0.02206711404480588,0.01859783078363347,-0.10638030520359092, ,0.0014170869500044708, ,0.021808218903612467,-0.002145939104083014,-0.03165178151966231,0.050192241622441805,0.009111647151319643,-0.02498925552350311, ,0.038497256262683834, ,0.05101226778754555, ,0.0011516277837719773, ,0.2407948110183202,-0.17099675130107908,0.11706924619000002,1.6789873774805866,0.5537877335493301,-1.3623763949890053, ,0.1375317993601026,0.07537485429584652,0.03508548792951543,-0.0027337632557353337,0.15028812011219045,-0.12054794735284886, ,1.6532549858093262
0.02125381509980144,0.019067869567332276,-0.10588339329518207, ,0.02219168127860289,0.018595904749997436,-0.10656116910442581, ,0.00124968948372688, ,0.023855741746490647,-0.0023679536400146497,-0.03245551163924161,-0.08405857425688043,-0.11655990624106712,-0.0033559850942223766, ,0.040349273283188915, ,0.14370810567757003, ,0.001152438211044332, ,0.24223123933292598,-0.1702090325479082,0.11742572594000002,1.678777687537102,0.5547441890476882,-1.3627479266141775, ,0.14465997188791277,0.07772067285706043,0.03571482403587444,-0.0069720355952984795,0.029874325526749422,0.009358059897045301, ,1.658513069152832
0.02125381509980144,0.019067869567332276,-0.10588339329518207, ,0.022316177319312628,0.018594515611823202,-0.10674048161801561, ,0.00144474144599594, ,0.023855741746490647,-0.0023679536400146497,-0.03245551163924161,-0.08405857425688043,-0.11655990624106712,-0.0033559850942223766, ,0.040349273283188915, ,0.14370810567757003, ,0.001154834139199673, ,0.24223123933292598,-0.1702090325479082,0.11742572594000002,1.678777687537102,0.5547441890476882,-1.3627479266141775, ,0.14465997188791277,0.07772067285706043,0.03571482403587444,-0.0069720355952984795,0.029874325526749422,0.009358059897045301, ,1.6637699604034424
0.021490946976853935,0.01904856181432694,-0.1062235974682761, ,0.022440594123660198,0.01859366742475032,-0.10691823366699028, ,0.0012614587023242784, ,0.02394694445503805,-0.0018153272783494143,-0.03519763828375143,-0.021700658240572154,-0.04081896336587581,-0.008585441540694044, ,0.04261015492360948, ,0.04622826318083865, ,0.0011557010055665397, ,0.24365222218178328,-0.16944448199335996,0.11780035375000002,1.678777687537102,0.5554273715465154,-1.3631416586523786, ,0.1437832447855618,0.07702673827797953,0.03885075980487805,-0.006083695413424018,0.10618780528208271,-0.0502549442924506, ,1.6690089702606201
0.021490946976853935,0.01904856181432694,-0.1062235974682761, ,0.022564923741431278,0.01859336417906734,-0.10709441635272293, ,0.0014556635969574753, ,0.02394694445503805,-0.0018153272783494143,-0.03519763828375143,-0.021700658240572154,-0.04081896336587581,-0.008585441540694044, ,0.04261015492360948, ,0.04622826318083865, ,0.0011581200587229184, ,0.24365222218178328,-0.16944448199335996,0.11780035375000002,1.678777687537102,0.5554273715465154,-1.3631416586523786, ,0.1437832447855618,0.07702673827797953,0.03885075980487805,-0.006083695413424018,0.10618780528208271,-0.0502549442924506, ,1.6743059158325195
0.021763718117075108,0.019028696940903585,-0.10662306882845365, ,0.022689158315138645,0.018593609799969987,-0.10726902095463482, ,0.0012095431078368495, ,0.023506967338736647,-0.001625593130948412,-0.03370351246869699,0.05283835230363607,0.03328298257603948,-0.01540198974876628, ,0.04112355552745204, ,0.06244681668973021, ,0.0011585314431158298, ,0.24533577794836423,-0.1685718131785726,0.11824498122000002,1.678777687537102,0.5573402825432316,-1.364619830563988, ,0.14758466805360929,0.07299764735266984,0.03774599886255925,-0.0052818768137298565,0.18562036944036012,-0.11912452910735856, ,1.6796128749847412
0.021763718117075108,0.019028696940903585,-0.10662306882845365, ,0.02281329007968202,0.018594408147806857,-0.10744203892949032, ,0.0014003285639063248, ,0.023506967338736647,-0.001625593130948412,-0.03370351246869699,0.05283835230363607,0.03328298257603948,-0.01540198974876628, ,0.04112355552745204, ,0.06244681668973021, ,0.0011604504678840082, ,0.24533577794836423,-0.1685718131785726,0.11824498122000002,1.678777687537102,0.5573402825432316,-1.364619830563988, ,0.14758466805360929,0.07299764735266984,0.03774599886255925,-0.0052818768137298565,0.18562036944036012,-0.11912452910735856, ,1.6849188804626465
0.0219997563297312,0.019012790970373415,-0.10695506418182865, ,0.022937311362008335,0.01859576301832595,-0.10761346191069196, ,0.0012191838748562278, ,0.024513787046789665,-0.0014089343020508582,-0.03421716188539479,0.03944123187651021,0.000480470722247209,-0.01680154815493508, ,0.042115614903906626, ,0.03944356372042343, ,0.0011609129356554432, ,0.2468108199273411,-0.16785359902126973,0.11861701645000002,1.678777687537102,0.5589799205404169,-1.3657118091879232, ,0.15232253861712805,0.071512390021455,0.038382678361445786,-0.004746768906635463,0.15685769857710224,-0.1052946067189761, ,1.6903748512268066
0.0219997563297312,0.019012790970373415,-0.10695506418182865, ,0.023061214580775417,0.018597678142927516,-0.10778328170758154, ,0.0014088848598037458, ,0.024513787046789665,-0.0014089343020508582,-0.03421716188539479,0.03944123187651021,0.000480470722247209,-0.01680154815493508, ,0.042115614903906626, ,0.03944356372042343, ,0.0011628502163128517, ,0.2468108199273411,-0.16785359902126973,0.11861701645000002,1.678777687537102,0.5589799205404169,-1.3657118091879232, ,0.15232253861712805,0.071512390021455,0.038382678361445786,-0.004746768906635463,0.15685769857710224,-0.1052946067189761, ,1.6957910060882568
0.022257387385538566,0.019004078624524197,-0.1073204714804182, ,0.023184992246011588,0.018600157188909228,-0.10795149030473403, ,0.0011923875460450567, ,0.025891339085568798,-0.0007735787804670037,-0.03619372357559215,-0.03378742705235996,-0.06300635653568738,-0.004234026432193863, ,0.044507813808811886, ,0.07149355971019132, ,0.0011630791878611635, ,0.24836308923506023,-0.16715083032971528,0.11902534780000001,1.678777687537102,0.5602096490383058,-1.3661428191402072, ,0.1545552794111902,0.06832033229551533,0.040428455634517774,-0.004293409065977412,0.09416335507357983,-0.028948440467479852, ,1.70107102394104
0.022257387385538566,0.019004078624524197,-0.1073204714804182, ,0.023308636958777426,0.018603203759715456,-0.10811807986125627, ,0.0013791321371258898, ,0.025891339085568798,-0.0007735787804670037,-0.03619372357559215,-0.03378742705235996,-0.06300635653568738,-0.004234026432193863, ,0.044507813808811886, ,0.07149355971019132, ,0.0011647411336247384, ,0.24836308923506023,-0.16715083032971528,0.11902534780000001,1.678777687537102,0.5602096490383058,-1.3661428191402072, ,0.1545552794111902,0.06832033229551533,0.040428455634517774,-0.004293409065977412,0.09416335507357983,-0.028948440467479852, ,1.70632004737854
0.02255820855677431,0.018994340496021275,-0.1077377828617121, ,0.023432141410828007,0.018606821395187472,-0.10828304271008392, ,0.0015698419342004457, ,0.02457265744661441,-0.0009391320036304651,-0.03327769365985927,0.029322968188079678,-0.013842718293171836,-0.017720039384455575, ,0.041377558630595106, ,0.032425553243545076, ,0.0011678335061482172, ,0.250177931460503,-0.16636311157654438,0.11949330849,1.6785679975936174,0.5615760140359602,-1.366603568256047, ,0.15135078398480187,0.06513173751439313,0.03756795169811321,0.0,0.14039063002431643,-0.08800131154451102, ,1.7120609283447266
0.02255820855677431,0.018994340496021275,-0.1077377828617121, ,0.02355549838427392,0.018611013571811455,-0.10844637135727953, ,0.0012820390738619767, ,0.02457265744661441,-0.0009391320036304651,-0.03327769365985927,0.029322968188079678,-0.013842718293171836,-0.017720039384455575, ,0.041377558630595106, ,0.032425553243545076, ,0.0011686986998430183, ,0.250177931460503,-0.16636311157654438,0.11949330849,1.6785679975936174,0.5615760140359602,-1.366603568256047, ,0.15135078398480187,0.06513173751439313,0.03756795169811321,0.0,0.14039063002431643,-0.08800131154451102, ,1.7173988819122314
0.02282666221654713,0.018980644722627255,-0.10809235698096975, ,0.023678700751242152,0.01861578370296581,-0.10860805848132794, ,0.0010606796244603375, ,0.023187598483100598,-0.0010810614390234256,-0.029312782163556178,0.011303492282861784,-0.023119917421058768,-0.022258183924785666, ,0.03739080923725147, ,0.0257347601106506, ,0.0011678865263439002, ,0.2518537644942097,-0.16564489741924152,0.11989515839,1.678358307650133,0.5632156520331455,-1.367532189399701, ,0.14577103157983223,0.06017561290962003,0.033393734842767295,0.011023996131013803,0.1233172913449558,-0.06225717530347726, ,1.7227189540863037
0.02282666221654713,0.018980644722627255,-0.10809235698096975, ,0.023801741473537905,0.018621135139170263,-0.10876809693243432, ,0.0012396173522569137, ,0.023187598483100598,-0.0010810614390234256,-0.029312782163556178,0.011303492282861784,-0.023119917421058768,-0.022258183924785666, ,0.03739080923725147, ,0.0257347601106506, ,0.001168421831014893, ,0.2518537644942097,-0.16564489741924152,0.11989515839,1.678358307650133,0.5632156520331455,-1.367532189399701, ,0.14577103157983223,0.06017561290962003,0.033393734842767295,0.011023996131013803,0.1233172913449558,-0.06225717530347726, ,1.728060007095337
0.02305213059757128,0.01897041190836401,-0.10837434095570682, ,0.023924613602306702,0.018627071168337016,-0.10892647973182276, ,0.001088102332230403, ,0.02345584118245747,-0.0008206224473386931,-0.02938143230952969,0.02710090028313706,-0.021021371291160055,-0.025461337629218407, ,0.03760476660394556, ,0.03429773973771052, ,0.0011678268717646375, ,0.2532670246101928,-0.1650734151865489,0.12021663831000001,1.678358307650133,0.564308744031269,-1.3682601751489913, ,0.14735549931439562,0.05779350886630376,0.03360508759493671,0.011023996131013803,0.1270960111846511,-0.07619012897550459, ,1.7333829402923584
0.02305213059757128,0.01897041190836401,-0.10837434095570682, ,0.024047310277861778,0.01863359501655056,-0.10908320007152372, ,0.0012674026434999614, ,0.02345584118245747,-0.0008206224473386931,-0.02938143230952969,0.02710090028313706,-0.021021371291160055,-0.025461337629218407, ,0.03760476660394556, ,0.03429773973771052, ,0.0011685590465568088, ,0.2532670246101928,-0.1650734151865489,0.12021663831000001,1.678358307650133,0.564308744031269,-1.3682601751489913, ,0.14735549931439562,0.05779350886630376,0.03360508759493671,0.011023996131013803,0.1270960111846511,-0.07619012897550459, ,1.7386400699615479
0.02329341969704967,0.018965361015540985,-0.10866990787469648, ,0.024169824728654827,0.01864070984614965,-0.10923825131167925, ,0.0010938457037312818, ,0.023308641904518215,-0.0005162300467349135,-0.02737021366425488,-0.004210449905625121,-0.03320130052254024,-0.01346261530408282, ,0.035953968861881985, ,0.0334669820092223, ,0.0011680136936894692, ,0.25478840298641503,-0.16452510115247895,0.12055626629,1.678358307650133,0.5655384725291581,-1.368936221321697, ,0.14897479051565274,0.0518279309440037,0.031667617335984104,0.010423602470351333,0.11636360008780036,-0.03796425601485639, ,1.7439608573913574
0.02329341969704967,0.018965361015540985,-0.10866990787469648, ,0.02429215027201026,0.01864841875927483,-0.10939162698286667, ,0.001272318209516065, ,0.023308641904518215,-0.0005162300467349135,-0.02737021366425488,-0.004210449905625121,-0.03320130052254024,-0.01346261530408282, ,0.035953968861881985, ,0.0334669820092223, ,0.0011687695235142997, ,0.25478840298641503,-0.16452510115247895,0.12055626629,1.678358307650133,0.5655384725291581,-1.368936221321697, ,0.14897479051565274,0.0518279309440037,0.031667617335984104,0.010423602470351333,0.11636360008780036,-0.03796425601485639, ,1.7492039203643799
0.02353073999176147,0.018960997470414732,-0.10894502756709086, ,0.024414280313046592,0.018656724795885683,-0.109543320783352, ,0.0011095855678701705, ,0.023229886018341105,-0.00028676773507256255,-0.02743927848135349,0.017099519627368203,-0.04369448003166545,-0.016719492751642407, ,0.03595307836244717, ,0.046921057127477246, ,0.0011683437396607446, ,0.256302058629763,-0.1640076780499059,0.12087515363000001,1.6785679975936174,0.5666315645272816,-1.3694191708505654, ,0.1464458974667759,0.049322734697749886,0.03173070023904383,0.004738351296692768,0.10408388656786725,-0.06011955496676784, ,1.7544779777526855
0.02353073999176147,0.018960997470414732,-0.10894502756709086, ,0.024536208344529284,0.01866563093457541,-0.10969332657890574, ,0.0012876953871139181, ,0.023229886018341105,-0.00028676773507256255,-0.02743927848135349,0.017099519627368203,-0.04369448003166545,-0.016719492751642407, ,0.03595307836244717, ,0.046921057127477246, ,0.0011691962514282675, ,0.256302058629763,-0.1640076780499059,0.12087515363000001,1.6785679975936174,0.5666315645272816,-1.3694191708505654, ,0.1464458974667759,0.049322734697749886,0.03173070023904383,0.004738351296692768,0.10408388656786725,-0.06011955496676784, ,1.7598609924316406
0.02377174474825595,0.01896255445340616,-0.10924155128359832, ,0.024657927946532248,0.018675140092819727,-0.10984163840209875, ,0.0011081661542244755, ,0.023106625046272502,0.000517224516162519,-0.02891168537287501,0.01934166288022885,-0.017378950975367676,-0.009845934089641899, ,0.037014445738512175, ,0.02600207028771969, ,0.0011687634138594462, ,0.25780026880736256,-0.16352114587882977,0.12121737419000002,1.6785679975936174,0.5678612930251705,-1.3700135382831304, ,0.1427021677570989,0.04426163318958525,0.033393734842767295,0.00464205210609075,0.12709749268659315,-0.055815800109105855, ,1.765455961227417
0.02377174474825595,0.01896255445340616,-0.10924155128359832, ,0.02477943278609926,0.018685255127225287,-0.10998825045160084, ,0.0012844803406080276, ,0.023106625046272502,0.000517224516162519,-0.02891168537287501,0.01934166288022885,-0.017378950975367676,-0.009845934089641899, ,0.037014445738512175, ,0.02600207028771969, ,0.0011695783217942953, ,0.25780026880736256,-0.16352114587882977,0.12121737419000002,1.6785679975936174,0.5678612930251705,-1.3700135382831304, ,0.1427021677570989,0.04426163318958525,0.033393734842767295,0.00464205210609075,0.12709749268659315,-0.055815800109105855, ,1.7708940505981445
0.02399365611924696,0.0189701433519391,-0.10952008416672354, ,0.024900716616905377,0.0186959788337785,-0.11013315709147685, ,0.0011286201045950504, ,0.022861019904106987,0.0010707862290706795,-0.02842888607574581,0.03535132150423887,-0.005158610442510455,-0.009315187136355516, ,0.03649622415691899, ,0.03572546184916523, ,0.001169291900695, ,0.25917491525897457,-0.1631195637693701,0.12154015040000002,1.6785679975936174,0.5692276580228249,-1.370719323619392, ,0.14163722620667282,0.038560317577598854,0.03304732680497926,0.004305456664253673,0.13853531068684455,-0.0662050670908761, ,1.7761640548706055
0.02399365611924696,0.0189701433519391,-0.10952008416672354, ,0.025021773278918493,0.018707313948094127,-0.11027635285048437, ,0.0013030911370943707, ,0.022861019904106987,0.0010707862290706795,-0.02842888607574581,0.03535132150423887,-0.005158610442510455,-0.009315187136355516, ,0.03649622415691899, ,0.03572546184916523, ,0.0011702210620588844, ,0.26058817537495765,-0.16275659532428155,0.12187070435000001,1.6785679975936174,0.5704573865207139,-1.3712320123118162, ,0.1403800910628266,0.03589143024147911,0.033323873472803356,0.004006531008553154,0.11924054981617009,-0.05752139874589927, ,1.7816028594970703
0.024223598473480445,0.018983071108232268,-0.10980438256592275, ,0.025142596698060727,0.01871926314566389,-0.11041783242137063, ,0.0011359899220702687, ,0.02303322949800888,0.001389202350454582,-0.028687303356156973,0.028404593574721974,-0.02285411630961754,-0.009232494207837507, ,0.03681604158687664, ,0.03645699026963177, ,0.0011699849852313767, ,0.26058817537495765,-0.16275659532428155,0.12187070435000001,1.6785679975936174,0.5704573865207139,-1.3712320123118162, ,0.1403800910628266,0.03589143024147911,0.033323873472803356,0.004006531008553154,0.11924054981617009,-0.05752139874589927, ,1.7869019508361816
0.02445413841294462,0.018997708900395413,-0.11008997891505423, ,0.025263180885869856,0.018731829042105224,-0.11055759066017054, ,0.0009715464817558205, ,0.023584706448783816,0.0019513037732924753,-0.02918096318503281,-0.013170141654474764,-0.04017613547561697,0.0038649172145954905, ,0.03757092728556497, ,0.042279467047363815, ,0.0011686258173993524, ,0.26198599002519224,-0.16240907234494145,0.12220255459000001,1.6785679975936174,0.5715504785188374,-1.3716332831005442, ,0.1420612897581898,0.03160071313968391,0.033963350788912584,0.0037478623366320454,0.10324798076478368,-0.010494472017920704, ,1.7923879623413086
0.02445413841294462,0.018997708900395413,-0.11008997891505423, ,0.02538351993916085,0.018745014193409876,-0.11069562258550274, ,0.0011377209199820728, ,0.023584706448783816,0.0019513037732924753,-0.02918096318503281,-0.013170141654474764,-0.04017613547561697,0.0038649172145954905, ,0.03757092728556497, ,0.042279467047363815, ,0.0011684155800019559, ,0.26198599002519224,-0.16240907234494145,0.12220255459000001,1.6785679975936174,0.5715504785188374,-1.3716332831005442, ,0.1420612897581898,0.03160071313968391,0.033963350788912584,0.0037478623366320454,0.10324798076478368,-0.010494472017920704, ,1.7976739406585693
0.024690809738248977,0.01902269628125834,-0.1103775376358972, ,0.025503608039687327,0.01875882109619254,-0.1108319233778679, ,0.00130726258508083, ,0.023584706448783816,0.0019513037732924753,-0.028084417291149313,0.050232505048729184,-0.023392242182527622,-0.007408778879764253, ,0.03757092728556497, ,0.042279467047363815, ,0.001169353735441678, ,0.263422418339798,-0.1621387766943436,0.12253958999000002,1.678777687537102,0.5726435705169609,-1.3720345538892722, ,0.14291708066034756,0.025696436923496015,0.03304732680497926,0.0009127714354127303,0.12181113031327706,-0.07077630201253418, ,1.8037738800048828
0.024690809738248977,0.01902269628125834,-0.1103775376358972, ,0.025623439453802924,0.01877325218793956,-0.11096648837894504, ,0.0011308773230383918, ,0.02334188296984083,0.0024377935176151224,-0.028084417291149313,0.050232505048729184,-0.023392242182527622,-0.007408778879764253, ,0.036599464919526876, ,0.05541194894985711, ,0.0011690955044859513, ,0.263422418339798,-0.1621387766943436,0.12253958999000002,1.678777687537102,0.5726435705169609,-1.3720345538892722, ,0.14291708066034756,0.025696436923496015,0.03304732680497926,0.0009127714354127303,0.12181113031327706,-0.07077630201253418, ,1.809417963027954
0.024914482229045416,0.01904571603057788,-0.11063308929803586, ,0.025743008532122923,0.018788309847257555,-0.11109931309088934, ,0.0009849255825317474, ,0.02086240663072163,0.001805068552389533,-0.02213093532931235,0.026894861724437162,-0.042721754357709335,-0.014739119869679986, ,0.03046763170078385, ,0.050482438270617665, ,0.0011678677050062564, ,0.26481251025715846,-0.1618916492423684,0.12284292185000001,1.6791970674240708,0.5737366625150844,-1.3723541459378596, ,0.13253762787495918,0.02240248856432266,0.026548019200000002,0.01283110508341635,0.08952823448614063,-0.04169848007084929, ,1.8147499561309814
0.024914482229045416,0.01904571603057788,-0.11063308929803586, ,0.02586230970918559,0.018803996394122096,-0.1112303931756292, ,0.0011461139720574146, ,0.02086240663072163,0.001805068552389533,-0.02213093532931235,0.026894861724437162,-0.042721754357709335,-0.014739119869679986, ,0.03046763170078385, ,0.050482438270617665, ,0.0011677236405496416, ,0.26481251025715846,-0.1618916492423684,0.12284292185000001,1.6791970674240708,0.5737366625150844,-1.3723541459378596, ,0.13253762787495918,0.02240248856432266,0.026548019200000002,0.01283110508341635,0.08952823448614063,-0.04169848007084929, ,1.8199899196624756
0.025130326707797572,0.01906499159407542,-0.11085714332974834, ,0.025981337503113572,0.01882031409012638,-0.11135972445416338, ,0.0010181720096827378, ,0.021224348601849925,0.0020465513912693157,-0.022589902942817732,0.02286560544025528,-0.014697759364712891,-0.011629796346700765, ,0.031063886768012153, ,0.02718187189761751, ,0.0011667397482413068, ,0.26620260217451885,-0.16166768998901587,0.12311384646000001,1.6794067573675557,0.5748297545132081,-1.3728370954667284, ,0.1359555036654309,0.021460185788889818,0.027275362191780828,0.01868207694001575,0.12059915263074542,-0.03282623670160291, ,1.8251919746398926
0.025130326707797572,0.01906499159407542,-0.11085714332974834, ,0.026100086515275667,0.018837265138729842,-0.11148730290585822, ,0.0011787258010356732, ,0.021224348601849925,0.0020465513912693157,-0.022589902942817732,0.02286560544025528,-0.014697759364712891,-0.011629796346700765, ,0.031063886768012153, ,0.02718187189761751, ,0.001166818088455649, ,0.26620260217451885,-0.16166768998901587,0.12311384646000001,1.6794067573675557,0.5748297545132081,-1.3728370954667284, ,0.1359555036654309,0.021460185788889818,0.027275362191780828,0.01868207694001575,0.12059915263074542,-0.03282623670160291, ,1.830435037612915
0.025328575833401302,0.01908757400328881,-0.11107834896526991, ,0.026218551429947924,0.01885485168550687,-0.1116131246677451, ,0.0010640494779849987, ,0.020677766357174138,0.0026933740530983084,-0.023453730203014094,0.07057487652507878,0.007792945779202269,-0.02133229272589808, ,0.03138314429351465, ,0.07100377527776791, ,0.0011661507598162292, ,0.2674536849001432,-0.16149006713290873,0.12337958591,1.6794067573675557,0.576059483011097,-1.3734314628992932, ,0.12981797750816795,0.016985312611145654,0.02819258676106195,0.01868207694001575,0.13735823324399007,-0.07739700603832009, ,1.8357329368591309
0.025328575833401302,0.01908757400328881,-0.11107834896526991, ,0.026336727013975422,0.018873075818395438,-0.11173718603381731, ,0.0012232925067651131, ,0.020677766357174138,0.0026933740530983084,-0.023453730203014094,0.07057487652507878,0.007792945779202269,-0.02133229272589808, ,0.03138314429351465, ,0.07100377527776791, ,0.0011665194162481574, ,0.2674536849001432,-0.16149006713290873,0.12337958591,1.6794067573675557,0.576059483011097,-1.3734314628992932, ,0.12981797750816795,0.016985312611145654,0.02819258676106195,0.01868207694001575,0.13735823324399007,-0.07739700603832009, ,1.8410329818725586
0.025533788789410525,0.019117414090848384,-0.11130258497180362, ,0.026454608116433447,0.018891939567945788,-0.1118594834543275, ,0.0010994921160856514, ,0.02040115941977126,0.003108311975804715,-0.02153044501629325,0.04284353661262032,-0.0014810935926107115,-0.012761689706808813, ,0.029823295787177507, ,0.04286907557988874, ,0.0011660897540676286, ,0.26875882675588714,-0.1613587806740469,0.12365180681000001,1.67961644731104,0.5774258480087513,-1.373892212015133, ,0.13071204071414708,0.0107664227771419,0.02632861408264463,0.021361992891721065,0.12830290179230572,-0.041719389498320214, ,1.8464510440826416
0.025533788789410525,0.019117414090848384,-0.11130258497180362, ,0.026572189668289285,0.01891144490756902,-0.111980013535085, ,0.0012568250268300736, ,0.02040115941977126,0.003108311975804715,-0.02153044501629325,0.04284353661262032,-0.0014810935926107115,-0.012761689706808813, ,0.029823295787177507, ,0.04286907557988874, ,0.0011666676857412749, ,0.26875882675588714,-0.1613587806740469,0.12365180681000001,1.67961644731104,0.5774258480087513,-1.373892212015133, ,0.13071204071414708,0.0107664227771419,0.02632861408264463,0.021361992891721065,0.12830290179230572,-0.041719389498320214, ,1.851651906967163
0.025760162489248624,0.019150505012998274,-0.11154536222855478, ,0.0266894666820634,0.01893159375378592,-0.11209877303675227, ,0.0011035361094331516, ,0.022106117560288012,0.003344295172389558,-0.025183247187853447,-0.0467626458512061,-0.07481935328581905,0.006353055511088365, ,0.033675817476549415, ,0.08823078002771176, ,0.0011662681188026158, ,0.2701566414061218,-0.1612274942151851,0.12394476835000001,1.6798261372545245,0.578245667007344,-1.3738256107760463, ,0.13107312369954527,0.013403522818993048,0.029941375037593993,0.014266659872305163,0.054902272148916124,0.04317550178738323, ,1.85685396194458
0.025987782076350375,0.019190690704376127,-0.11181336507726315, ,0.026806434251491193,0.018952387966475387,-0.11221575887414356, ,0.0009428151178898298, ,0.022106117560288012,0.003344295172389558,-0.025183247187853447,-0.0467626458512061,-0.07481935328581905,0.006353055511088365, ,0.033675817476549415, ,0.08823078002771176, ,0.0011648627540170008, ,0.2701566414061218,-0.1612274942151851,0.12394476835000001,1.6798261372545245,0.578245667007344,-1.3738256107760463, ,0.13107312369954527,0.013403522818993048,0.029941375037593993,0.014266659872305163,0.054902272148916124,0.04317550178738323, ,1.8623828887939453
0.025987782076350375,0.019190690704376127,-0.11181336507726315, ,0.02692308755118408,0.01897382934912334,-0.11233096811552053, ,0.0010907511557955107, ,0.021936610909173534,0.004199625953292328,-0.02617881379021544,0.06940807006690271,-0.0038674336043152584,-0.022707800021302463, ,0.03441194629472172, ,0.06951564527135752, ,0.0011643995565281165, ,0.2715158423919853,-0.16111165322207172,0.12426495198000001,1.6802455171414936,0.5793387590054675,-1.3740635240844932, ,0.13125441432706886,0.008288506297823519,0.03135592818897638,0.024010491641108304,0.12607206803033083,-0.06647197135333781, ,1.8677558898925781
0.025987782076350375,0.019190690704376127,-0.11181336507726315, ,0.02703942183629155,0.018995919649071272,-0.11244439798189075, ,0.001241806939663507, ,0.021936610909173534,0.004199625953292328,-0.02617881379021544,0.06940807006690271,-0.0038674336043152584,-0.022707800021302463, ,0.03441194629472172, ,0.06951564527135752, ,0.0011648803477277152, ,0.2715158423919853,-0.16111165322207172,0.12426495198000001,1.6802455171414936,0.5793387590054675,-1.3740635240844932, ,0.13125441432706886,0.008288506297823519,0.03135592818897638,0.024010491641108304,0.12607206803033083,-0.06647197135333781, ,1.8733580112457275
0.02627658048895589,0.01924533527860648,-0.11213787220826879, ,0.027155432442161977,0.019018660557764782,-0.1125560458463043, ,0.0009993154538336067, ,0.02165833777701616,0.00426809262392748,-0.023835871289547884,0.05525786620683846,0.006802470241026609,-0.04340666193564691, ,0.0324876741248376, ,0.055674928693804235, ,0.0011638583422098503, ,0.27329207095305696,-0.16101898042758103,0.12465902414000002,1.6806648970284628,0.5811150335024182,-1.37453181195086, ,0.1338461799132169,0.005931932885907916,0.029227177100917434,0.05788294497548988,0.1357685534583691,-0.03702780251712614, ,1.8789138793945312
0.02627658048895589,0.01924533527860648,-0.11213787220826879, ,0.027271114784004603,0.019042053711002566,-0.11266590923315084, ,0.001144222425668118, ,0.02165833777701616,0.00426809262392748,-0.023835871289547884,0.05525786620683846,0.006802470241026609,-0.04340666193564691, ,0.0324876741248376, ,0.055674928693804235, ,0.0011637378764641955, ,0.27329207095305696,-0.16101898042758103,0.12465902414000002,1.6806648970284628,0.5811150335024182,-1.37453181195086, ,0.1338461799132169,0.005931932885907916,0.029227177100917434,0.05788294497548988,0.1357685534583691,-0.03702780251712614, ,1.8842639923095703
