NicholasDascanio/dvrk_moveit_final/test/execution/third_experiment_notsharpbends/thirdexp_200vel4.0/thirdexp_200vel4.0_5.csv
Current Position (x),Current Position (y),Current Position (z), ,Planned Position (x),Planned Position (y),Planned Position (z), ,Position Error,,Cartesian linear Velocity(x),Cartesian linear Velocity(y),Cartesian linear Velocity(z),Cartesian Angular Velocity(x),Cartesian Angular Velocity(y),Cartesian Angular Velocity(z), ,Total Linear Velocity, ,Total Angular Velocity, ,MSE, ,Joint 1 Position,Joint 2 Position,Joint 3 Position,Joint 4 Position,Joint 5 Position,Joint 6 Position, ,Joint 1 Velocity,Joint 2 Velocity,Joint 3 Velocity,Joint 4 Velocity,Joint 5 Velocity,Joint 6 Velocity, ,Time Stamp
0.009970795858496475,0.019906886734577307,-0.07993271307844714, ,0.010153684794838849,0.019907439558460634,-0.08010511892703265, ,0.0002513412924236288, ,0.001603653908557306,0.00042467888778371037,-0.001809104176248774,0.22364116208204748,-0.14367625541322837,-0.11986324504334955, ,0.002454570417951192, ,0.26581616908487055, ,2.0945107701969068e-05, ,0.1772058285319556,-0.23589859837606186,0.09044993104000001,1.699956371829039,0.49366767365253633,-1.2939946559492668, ,0.0009692310424042332,-0.0009307344507697704,0.0014614181424107355,0.001831643005854029,-0.1485696732647495,-0.24873721319841713, ,0.052442073822021484
0.010049949079057463,0.019953128986804014,-0.08008162461303511, ,0.01022234305554261,0.020005106632471965,-0.08027645157084265, ,0.0002652902227110613, ,0.001790113908487847,0.001598104229665655,-0.005567404650205281,-0.0799540622018117,-0.08233094277192488,0.024165587642475356, ,0.00606254397702518, ,0.11476513492753908, ,2.348325068794046e-05, ,0.17729077859357206,-0.2360376075677979,0.09059252294,1.700375751716008,0.48806557716215326,-1.300289794336408, ,0.0020131125750133204,-0.00436196639788588,0.005666599615795092,-0.018884888924331777,-0.07883238993675233,0.07834115391367635, ,0.10506296157836914
0.010092983805322739,0.020016340743076642,-0.0802434604260874, ,0.010291637711427938,0.020099666200264318,-0.08044841948037879, ,0.0002973461285478693, ,0.0008788407441407907,0.0012317924703668692,-0.002930221718438807,0.0009372501147645755,0.026668663883941804,0.0032023864317853334, ,0.003297858860355447, ,0.02668512827243414, ,2.5436801365079985e-05, ,0.1775533515112957,-0.23627701228689887,0.09077270725000001,1.7007951316029768,0.48902203266051136,-1.2956789228130061, ,0.007511072605882743,-0.0050417655663097735,0.0033569676543730247,0.00931306469137338,0.03318220823977705,0.008973754787907857, ,0.15751409530639648
0.010155298163214076,0.020089599973018436,-0.0804305086223733, ,0.010361562394331673,0.02019116299668979,-0.0806210113714764, ,0.0002985821130470434, ,0.0013588907502381125,0.0015878404848528583,-0.00375622095053283,0.010905066819478728,-0.00606475725140076,-0.008456001008539202, ,0.0042984901192909845, ,0.012478051214350954, ,2.713560382267324e-05, ,0.17791631995638427,-0.23658592160186787,0.09097881736,1.7007951316029768,0.48915866916027684,-1.2960353769371242, ,0.008244884936647087,-0.007066495054858074,0.00416984594764398,0.00931306469137338,0.0,-0.0024790384198556887, ,0.2051680088043213
0.010204384651605811,0.02015526417898546,-0.08057056352954178, ,0.01043211078017692,0.020279641466926963,-0.08079421600182332, ,0.0003425628814499789, ,0.0013056271784667598,0.0019226502184652855,-0.004297147714442074,0.010570345598326921,-0.004818432010600793,-0.004742933057810614, ,0.0048853581927480435, ,0.011616776301695601, ,2.9102452763591637e-05, ,0.17826384293572436,-0.23699522644420176,0.09117714973,1.7014242014334306,0.48915866916027684,-1.2957903407167026, ,0.006398611986924477,-0.00956179108475992,0.004766251202872532,0.006730285288746836,0.0,0.0, ,0.252622127532959
0.01027770256219283,0.02026126657620246,-0.08078078021841123, ,0.010503276588839946,0.02036514576726986,-0.08096802217097746, ,0.00031102102281907484, ,0.0010275711213050555,0.001624567736824528,-0.0029276662991449087,-0.00833232250756143,-0.0027948437481187145,-0.0041441763195511115, ,0.0035023353208994915, ,0.008788557886896416, ,2.993463832201113e-05, ,0.1786268113808129,-0.23749720408102634,0.09137288952000001,1.7020532712638843,0.48915866916027684,-1.2950552320554374, ,0.0059469682849602875,-0.009640926753747857,0.0033407742281879203,0.013240824169219331,0.0,0.021227542516116638, ,0.3050980567932129
0.010343687732934634,0.020341328421028888,-0.08094110781204328, ,0.01057505358401609,0.020447719765915775,-0.08114241872038193, ,0.00032461570684367636, ,0.0013580036639292614,0.0015740688808787142,-0.003327243546233438,0.007144864061857438,-0.009124000343030278,0.0019028993990560564, ,0.003923317016116354, ,0.011588635135953733, ,3.0746461291799016e-05, ,0.1790592844217695,-0.23794512258773137,0.09155437012,1.7022629612073688,0.48902203266051136,-1.294208705490476, ,0.009126153509300796,-0.008454776762476591,0.003755023932107497,0.0,0.0,0.001240013801247798, ,0.35341310501098633
0.010412329035433987,0.0204153959205993,-0.08112488436649848, ,0.010647435573084878,0.020527407043752288,-0.08131739453337969, ,0.0003238545045368597, ,0.001881474540976695,0.0019173587628715965,-0.004860767657797184,0.0009359001185420538,-0.009323701541943293,-0.006538808424830287, ,0.005553672055225361, ,0.009370555840592232, ,3.177123516288411e-05, ,0.17948403472985183,-0.23825403190270034,0.09175788765000001,1.7024726511508534,0.48902203266051136,-1.2939636692700542, ,0.011964118874666885,-0.007364074974438306,0.005381355243243244,0.011122693832751517,0.0,0.008696263094895835, ,0.3975820541381836
0.010477776025751423,0.020480439455418952,-0.0812730929028134, ,0.010720416406974721,0.02060425089514501,-0.081492938535229, ,0.00035005103813507424, ,0.0017486087537966,0.001369937866749977,-0.00343550912612385,-0.016226391584164016,-0.017088300039905573,0.022107825412740263, ,0.004091098298536695, ,0.0235649269385221, ,3.291267750612222e-05, ,0.17995512143517953,-0.2385243275532982,0.09192510906000001,1.7033114109247913,0.48915866916027684,-1.2935033359927668, ,0.01361115053908072,-0.0063475821543500476,0.0038596587157741706,-0.014921865892764717,0.0,0.020977215651662547, ,0.43930912017822266
0.010550605416516241,0.020550472502034484,-0.08145618330392382, ,0.01079398998002655,0.0206782943287237,-0.08166903969311663, ,0.00034768133046437035, ,0.002071669480185917,0.0018801044918139006,-0.0049049726213743145,-0.02253679585859267,-0.008112616670352962,0.0006440378021370759, ,0.005646712650003027, ,0.023952488680152925, ,3.382985044541997e-05, ,0.1804570990720041,-0.2388023459367703,0.09212862659000001,1.7031017209813069,0.4894319421598077,-1.293072741879035, ,0.014350059210414452,-0.006564213892749558,0.005453204902430675,0.012544291967893148,0.003329000158310412,0.03321407689890905, ,0.48114705085754395
0.010626418923472264,0.020622245928961613,-0.08162819341168276, ,0.010868150229856523,0.020749580068166358,-0.08184568701617086, ,0.0003492155143839955, ,0.001780038677175299,0.0017291891527048686,-0.00407732764642941,0.006865118320781655,-0.005712753958082901,-0.007990093574890932, ,0.004773178558823226, ,0.008931148090645612, ,3.496527025618821e-05, ,0.18099769037319982,-0.2390880870531166,0.0923217738,1.7037307908117605,0.4895685786595731,-1.2927757660820287, ,0.012710546686106453,-0.007223981926767767,0.00458779133640553,0.011830282662895309,0.004350706116418997,0.0028419553762428313, ,0.5183401107788086
0.010708900224579354,0.020698908975421062,-0.08183035949089654, ,0.010942891137219295,0.02081815055298778,-0.08202286955547487, ,0.0003256231349008042, ,0.002158059349944133,0.002031689966423231,-0.005589301144162885,0.0044961468249349835,-0.0033565632108728057,-0.015782819779102508, ,0.0063265528969326315, ,0.0056108686854219126, ,3.5728159342107896e-05, ,0.181553727140144,-0.2393738281694629,0.09254603197000001,1.7037307908117605,0.48970521515933857,-1.2925604690251629, ,0.013920631004616515,-0.005841228154037248,0.006171565873692368,0.021080777290691025,0.005767619766522663,0.0057542977409164465, ,0.5550601482391357
0.010770457850897993,0.020754305181949213,-0.0819719562429066, ,0.01101820672586937,0.020884047939321537,-0.08220057640407889, ,0.0003612199693187014, ,0.00208314492494668,0.0017852700094763854,-0.004515758907914888,0.005792534295163576,-0.006210547623883166,-0.01904640686623098, ,0.005283820615755193, ,0.008492605811607412, ,3.671154742993043e-05, ,0.18198620018110057,-0.2395591737584443,0.09270417935000001,1.704359860642214,0.48984185165910404,-1.2922634932281567, ,0.01507976188756885,-0.005905202743610405,0.005059978246505719,0.02352999616945363,0.0034007866963895557,0.00469767561674141, ,0.5914649963378906
0.010851797851766844,0.020822036965308408,-0.08216109848732016, ,0.011094091062422956,0.020947314100706892,-0.08237879669701188, ,0.0003489883537980589, ,0.00201366924350145,0.0017792198442442436,-0.00521048378139651,-0.0004961246902319557,-0.004112150572529919,-0.00922422485787911, ,0.005862561582838366, ,0.004141970328104008, ,3.747827677816831e-05, ,0.18256540514666741,-0.23977541027892257,0.09291417833000001,1.704359860642214,0.4901151246586349,-1.2920779353348466, ,0.012923456565228213,-0.004327782306739744,0.005727727982740022,0.014705055191579107,0.0055048360264662935,0.008260813738620235, ,0.6285910606384277
0.010913916891277933,0.020871656860174663,-0.08230537469344955, ,0.011170538256218828,0.021007990628871494,-0.08255751961129383, ,0.00038473170005330886, ,0.0023706836651584346,0.0016871638115862043,-0.005031907344981206,-0.001629940038997264,-0.012797613779759654,0.004182285546219152, ,0.005812637464684248, ,0.012900992975760795, ,3.874702312248815e-05, ,0.18299787818762397,-0.2399066967377844,0.09307362200000001,1.7045695505856984,0.4902517611584003,-1.2919443170181213, ,0.017541024317647095,-0.004363379362195735,0.005577314957983194,0.0,0.004910478638468289,0.0067021699474927796, ,0.6598801612854004
0.01098745512122969,0.0209311229367446,-0.08248411381315446, ,0.01124754245917885,0.021066118834516052,-0.08273673436594581, ,0.0003868933437902604, ,0.0024257977526192394,0.002015247240154869,-0.0064687033710466475,0.0026943418417739546,-0.006113157507178697,-0.0017868989429629472, ,0.007196515787390077, ,0.006680580913487845, ,3.991680497896793e-05, ,0.18349985582444858,-0.2400379831966462,0.09327065808000001,1.7049889304726675,0.4905250341579312,-1.2917587591248112, ,0.015227365461885554,-0.003764904066308487,0.0070606434042553195,0.005708392349373634,0.008050617502084904,0.0028815849907715524, ,0.6924099922180176
0.01108717161812952,0.02100804472649238,-0.08272682509228793, ,0.01132509786566841,0.021121739748098323,-0.08291643022200204, ,0.00032478540980132933, ,0.0027256377915874817,0.0018777667525414587,-0.006149193983896793,0.0037003156892856043,-0.01003833574791234,0.0032417953943484025, ,0.006983387143748547, ,0.010698621967156399, ,4.053480918134128e-05, ,0.18415628811875767,-0.2401924378541307,0.09353639753000001,1.7051986204161522,0.49066167065769667,-1.2913801045876643, ,0.01958253024318423,-0.0032123026381549297,0.006766699881053527,0.0,0.009914725154082123,0.0003540582555692671, ,0.7244961261749268
0.01113853166287583,0.02104513390435892,-0.08284411087947348, ,0.011403198712356087,0.02117489412061602,-0.0830965964825203, ,0.00038811768904494496, ,0.0026145470462879093,0.001885741055250052,-0.00590857702517993,0.003098363395212375,-0.003347397460940997,-0.008998649471863572, ,0.006730762070315108, ,0.0045612408716210594, ,4.183161787461567e-05, ,0.18452697929672043,-0.24024649698425027,0.09366602653000002,1.705618000303121,0.4909349436572275,-1.291439582914776, ,0.018888722443963134,-0.003233200733497254,0.006533556817063167,0.01473961112815891,0.012491063436967313,0.004025131692928626, ,0.7508101463317871
0.011221326139713838,0.021104040487670565,-0.08304589854732518, ,0.011481839278073227,0.02122562242439041,-0.08327722249259127, ,0.00036899868597039365, ,0.002888998430436781,0.0019061569890847744,-0.006699238202662301,0.0007029766150338127,-0.014412245545852919,-0.00875126798722198, ,0.007540526433486785, ,0.01442937920707833, ,4.291162190567862e-05, ,0.1850830160636646,-0.2403237243129925,0.09388639583000001,1.705618000303121,0.4912082166567584,-1.2913357037616067, ,0.0193469809497392,-0.001474251655923796,0.007296752872194229,0.011118906619290532,0.0023683198036944576,0.0031039599379394985, ,0.7768599987030029
0.011278075648230156,0.021140888836501642,-0.08317674252094366, ,0.011561013883673149,0.021273964853849397,-0.08345829763935082, ,0.0004207571225422161, ,0.0029177780641383854,0.001966308800909532,-0.006760150517596241,0.0070398894363882854,-0.006650571592963072,-0.006281764905731797, ,0.007620986429108647, ,0.009684530534384075, ,4.425932787308922e-05, ,0.1857085574264768,-0.2403777834431121,0.09410287626000001,1.705618000303121,0.49161812615605477,-1.2913432425121338, ,0.022213703548331177,-0.00140370642819608,0.007450332797006549,0.008669079574281525,0.011991021511861127,0.0010535889050583124, ,0.8036069869995117
0.011370142183418527,0.02119950637109757,-0.08337917837997917, ,0.011640716891889924,0.02131996132630987,-0.08363981135198742, ,0.00039452454321300625, ,0.0029616737126274464,0.0018626753788092676,-0.006636889589587943,-0.0046501593838264785,-0.00955926791651471,-0.0021946103660937274, ,0.007502624485556471, ,0.010630313848492515, ,4.5355707011364915e-05, ,0.18614103046743335,-0.24039322890886053,0.09425194961000001,1.7062470701335748,0.49175476265582013,-1.2911279454552678, ,0.020884010026071917,-0.0011802562781069055,0.007266793576642336,0.007995682314468852,0.009761260684974711,0.008557465394447282, ,0.8304331302642822
0.01142867930986684,0.021237767123737282,-0.08351959592629225, ,0.011720942707197209,0.021363651482760718,-0.08382175310175378, ,0.0004388208335399782, ,0.0030402251738442685,0.002040403726010409,-0.00789379123521572,0.013931974280703177,0.010509479219402472,0.011520632144616946, ,0.008701618041373807, ,0.01745133319180484, ,4.6944583588491574e-05, ,0.1865657807755157,-0.24040095164173475,0.09440620812000002,1.7064567600770593,0.492301308654882,-1.2914102595897725, ,0.02143594794634533,-0.00015518568513812282,0.008628825308775734,-0.006805999881918683,0.03492222158715647,-0.012539530952391619, ,0.8516430854797363
0.01149851413572736,0.021278816375402583,-0.08367881952243696, ,0.011801685775666412,0.0214050746886452,-0.08400411240197544, ,0.0004622441588648221, ,0.0035649671884106955,0.00212471547847745,-0.008222238729640424,0.009409700288123338,-0.006265768496435006,0.009242194414050636, ,0.009210245200108708, ,0.01130496690768162, ,4.859799216988227e-05, ,0.18702914474796917,-0.24040095164173475,0.09457861469,1.7064567600770593,0.492301308654882,-1.2911652233693507, ,0.025489374579229326,-0.00015618002546225027,0.008984101252115061,-0.006805999881918683,0.021690464169551827,-0.009018391067160732, ,0.8726270198822021
0.01158802942259483,0.021336275205476027,-0.08389764562712118, ,0.011882940584825176,0.021444270034643664,-0.08418687880806046, ,0.0004269558638679801, ,0.0038263919136499887,0.0024175763218880018,-0.00946962595264093,0.004033848181815686,-0.01124648769224654,0.009355414367958104, ,0.010495702264828695, ,0.011948026632745874, ,4.996601508275551e-05, ,0.1876392406450329,-0.240408674374609,0.09481713205,1.7064567600770593,0.4928478546539437,-1.2912841800235744, ,0.02511830110070693,0.0,0.01027002676982592,-0.006805999881918683,0.016111902927162306,-0.004043074011263763, ,0.8938519954681396
0.011670810887891774,0.02138471901350618,-0.08409436478256023, ,0.011964701663514953,0.021481276337454894,-0.08437004191750848, ,0.0004143585253591455, ,0.003984615264466735,0.0025221680940867956,-0.009646367793844311,0.008476368121884174,0.00020268053122818054,-0.003757972300020576, ,0.01073736011851924, ,0.00847878602218109, ,5.149468837819412e-05, ,0.18817983194622862,-0.24039322890886053,0.09502972361,1.7062470701335748,0.4929844911537091,-1.2910688829667083, ,0.0272770743197674,0.00027914759174374265,0.010527965313945805,0.009306522931829361,0.02626728622469751,-0.004990272019031745, ,0.9096870422363281
0.011711568503232211,0.021412081365733263,-0.08419251450385198, ,0.01204696358174907,0.021516132140579187,-0.08455359136991986, ,0.000503679387754515, ,0.0042865619019550865,0.0026607020036819,-0.010233606253785122,-0.003248251927370301,-0.0167326087563235,-0.005381362915391595, ,0.011409673310362555, ,0.017044976507373934, ,5.347875271126191e-05, ,0.18845785032970072,-0.24039322890886053,0.09513731568000001,1.7066664500205435,0.49325776415324,-1.2911283612938202, ,0.027788269856067582,0.00027914759174374265,0.011100217087108016,0.009963778956953379,0.009004435919153973,0.005889277225691363, ,0.9254350662231445
0.011800928818616831,0.021468716519840683,-0.08441440117661841, ,0.012129720950570059,0.02154887571509935,-0.08473751684700474, ,0.000467903300980098, ,0.0046316684198735095,0.0029137466774088903,-0.011338234764224863,0.022627260659505505,0.009430856894053402,-0.006349031710591577, ,0.01258959251208879, ,0.024513951116203164, ,5.519644568805695e-05, ,0.18907566895963868,-0.24037006071023787,0.09537972191,1.7068761399640284,0.49407758315183264,-1.2916335112357176, ,0.03210316020245967,0.0009925316502898563,0.012395962272373542,0.011087509130674019,0.040480687702339486,-0.018952373681761468, ,0.9418680667877197
0.01189979140594292,0.021526001681318623,-0.08464315788421264, ,0.012212968421907116,0.021579545060463022,-0.08492180807259155, ,0.0004226022530252727, ,0.004856973670460483,0.002675305281519097,-0.010607914810871075,-0.00353615322857637,-0.014921930912875858,-0.004611431898213562, ,0.01196976642293275, ,0.015335197015418273, ,5.6608604566964095e-05, ,0.1897475467196962,-0.2403468925116152,0.09562860959000001,1.7068761399640284,0.494487492651129,-1.2914776925059634, ,0.03394025091504678,0.0014860869035241912,0.011576171162790699,0.011087509130674019,0.017002619723991117,0.005920304600535612, ,0.959022045135498
0.01189979140594292,0.021526001681318623,-0.08464315788421264, ,0.0122967006884334,0.021608177905264314,-0.08510645481263572, ,0.0006155761156797242, ,0.004856973670460483,0.002675305281519097,-0.010607914810871075,-0.00353615322857637,-0.014921930912875858,-0.004611431898213562, ,0.01196976642293275, ,0.015335197015418273, ,5.933881601558255e-05, ,0.1897475467196962,-0.2403468925116152,0.09562860959000001,1.7068761399640284,0.494487492651129,-1.2914776925059634, ,0.03394025091504678,0.0014860869035241912,0.011576171162790699,0.011087509130674019,0.017002619723991117,0.005920304600535612, ,0.9696869850158691
0.012000071255594744,0.021581563443049928,-0.08487502813564449, ,0.012380912483423125,0.021634811708025656,-0.08529144687522887, ,0.0005668156536421688, ,0.00577793628097236,0.0034378986488337753,-0.01368399947838505,0.007059235907041677,-0.009848926280069765,-0.005427577957444674, ,0.015246492597022836, ,0.012117494817658895, ,6.174816021779225e-05, ,0.19045031541125063,-0.24029283338149562,0.09588138614000001,1.7068761399640284,0.49517067514995616,-1.291789745804024, ,0.03843537527682089,0.0017735923777431508,0.01488673973831776,0.011087509130674019,0.026978243303110015,-0.004608915122392929, ,0.9802420139312744
0.012066005029025956,0.021618314955327043,-0.08503378311143067, ,0.012465598580608271,0.02165948365797866,-0.08547677411060642, ,0.0005980057640984002, ,0.00697318885700988,0.004072756134467835,-0.01708746233813736,-0.01616179939714295,-0.039405816565683476,-0.006076572555190279, ,0.018899578686405547, ,0.042591321677101175, ,6.427214662025403e-05, ,0.19086734298645874,-0.24024649698425027,0.09605249642000001,1.7068761399640284,0.49530731164972164,-1.2918194849675797, ,0.041952670892338985,0.003994802998167243,0.018372331626297582,0.010525543902163884,0.0,0.014943715532083937, ,0.990807056427002
0.012134877810423998,0.021661537490237567,-0.08521709444761408, ,0.012550753794035795,0.02168223067584669,-0.08566242641115654, ,0.0006096733546976757, ,0.00721923389942287,0.00454385009864249,-0.01924434661872805,0.04036070761100505,0.018180359051062807,-0.006314569885427124, ,0.021050149372279035, ,0.044266347653967725, ,6.680440483844965e-05, ,0.1912843705616669,-0.24020788331987916,0.09624305105000001,1.7068761399640284,0.49585385764878337,-1.2922651565823653, ,0.04560160574650206,0.004846534239863025,0.020821975843137257,0.00958047090354209,0.06416953713145067,-0.04011917158736513, ,1.001345157623291
0.012207836039164192,0.021708293387101493,-0.08541643303491583, ,0.01263637297792376,0.02170308941462468,-0.08584839371142863, ,0.0006084907684298548, ,0.0074742015364309055,0.0045919432265155175,-0.020173828040523204,0.029174171796447813,-0.0033540446594442484,-0.006529769558618162, ,0.021998476515689175, ,0.0293662829463548, ,6.927774837362129e-05, ,0.1917400118012461,-0.24013837872401114,0.09646601293000001,1.7070858299075127,0.4964004036478451,-1.2925474707168698, ,0.044282287241470264,0.006895489247431452,0.02170137809264305,0.00567605927357151,0.04122361466383723,-0.032933051949815634, ,1.0119760036468506
0.012207836039164192,0.021708293387101493,-0.08541643303491583, ,0.012722451026518707,0.021722096260362513,-0.0860346659881404, ,0.0008045067364372494, ,0.0074742015364309055,0.0045919432265155175,-0.020173828040523204,0.029174171796447813,-0.0033540446594442484,-0.006529769558618162, ,0.021998476515689175, ,0.0293662829463548, ,7.308722499571263e-05, ,0.1917400118012461,-0.24013837872401114,0.09646601293000001,1.7070858299075127,0.4964004036478451,-1.2925474707168698, ,0.044282287241470264,0.006895489247431452,0.02170137809264305,0.00567605927357151,0.04122361466383723,-0.032933051949815634, ,1.0173001289367676
0.012291230312091912,0.02175465419216563,-0.08562412537446765, ,0.012808982873951253,0.021739287332944314,-0.08622123326018824, ,0.0007904692801519594, ,0.0080776075677326,0.004262202678820604,-0.019879251484585116,-0.006177026895376702,-0.038895869181637205,-0.005469918090315296, ,0.021876900038191333, ,0.039383260353869375, ,0.00041378621400901377, ,0.19224198943807072,-0.24006115139526887,0.09668897481000001,1.7070858299075127,0.4965370401476106,-1.2925772098804258, ,0.04856547674435557,0.009548690925945909,0.02129520256684492,0.00567605927357151,0.008650028116069687,-0.001452319255948781, ,1.02254319190979
0.012291230312091912,0.02175465419216563,-0.08562412537446765, ,0.012895963494093016,0.021754698486870637,-0.08640808558865262, ,0.0009900989045545676, ,0.0080776075677326,0.004262202678820604,-0.019879251484585116,-0.006177026895376702,-0.038895869181637205,-0.005469918090315296, ,0.021876900038191333, ,0.039383260353869375, ,0.0004293622326724071, ,0.19224198943807072,-0.24006115139526887,0.09668897481000001,1.7070858299075127,0.4965370401476106,-1.2925772098804258, ,0.04856547674435557,0.009548690925945909,0.02129520256684492,0.00567605927357151,0.008650028116069687,-0.001452319255948781, ,1.027799129486084
0.012374387769749019,0.021795024481743353,-0.08582895841112821, ,0.012983387900412924,0.021768365312039857,-0.08659521307680856, ,0.0009791517161067745, ,0.009650895365235758,0.0048260453641551454,-0.02418588135835243,0.027895648413627284,-0.004712998231749077,-0.006059511757272711, ,0.026483718626505455, ,0.028290833797481464, ,0.00044383037697331155, ,0.19278258073926643,-0.23992214220353283,0.09690934411,1.7070858299075127,0.49708358614667236,-1.2928595240149303, ,0.0610662429591189,0.01585844611605461,0.025985010636215337,0.00558131934861746,0.057289850610575746,-0.0393791695967724, ,1.03302001953125
0.012439515561254336,0.021830633562029557,-0.08600407347621819, ,0.013071251145833103,0.0217803231345287,-0.08678260587013216, ,0.0010038593907075886, ,0.010405230908932908,0.005853127020438571,-0.02843113080519502,0.0856410291061653,0.055196355771034634,-0.006184992522331927, ,0.030835971284324904, ,0.10188721696059753, ,0.00045819009527419037, ,0.19320733104734877,-0.2398140239432937,0.09709860245000002,1.7070858299075127,0.49790340514526504,-1.2935280314371087, ,0.06613027286304585,0.016843617600012562,0.030691351676300584,0.005302848900188425,0.12501001533261288,-0.09503081600439948, ,1.0404510498046875
0.012439515561254336,0.021830633562029557,-0.08600407347621819, ,0.013159548322585007,0.021790607017372912,-0.08697025415630875, ,0.0012056344422116045, ,0.010405230908932908,0.005853127020438571,-0.02843113080519502,0.0856410291061653,0.055196355771034634,-0.006184992522331927, ,0.030835971284324904, ,0.10188721696059753, ,0.00047687620394762576, ,0.19320733104734877,-0.2398140239432937,0.09709860245000002,1.7070858299075127,0.49790340514526504,-1.2935280314371087, ,0.06613027286304585,0.016843617600012562,0.030691351676300584,0.005302848900188425,0.12501001533261288,-0.09503081600439948, ,1.0458261966705322
0.012600128429856777,0.021920928705342745,-0.08643917988953957, ,0.013248274562065872,0.021799251761349784,-0.08715814816524123, ,0.0009756095883407916, ,0.012814761521874319,0.007255909767391435,-0.0349127661128065,0.03334584380915819,-0.0042406272008611665,-0.004954018795527411, ,0.03789152381552591, ,0.033613633362055015, ,0.000489040432835264, ,0.19418039538950108,-0.23957461922419274,0.09756656314,1.7070858299075127,0.4992697701429194,-1.2944788529937918, ,0.0732794915509427,0.018780316952002926,0.03739157633802818,0.004817822799837068,0.07065681663881399,-0.0470726742531078, ,1.051285982131958
0.012600128429856777,0.021920928705342745,-0.08643917988953957, ,0.013337425034694192,0.021806291905757454,-0.0873462781690576, ,0.0011745531780334617, ,0.012814761521874319,0.007255909767391435,-0.0349127661128065,0.03334584380915819,-0.0042406272008611665,-0.004954018795527411, ,0.03789152381552591, ,0.033613633362055015, ,0.0005053621648637924, ,0.19418039538950108,-0.23957461922419274,0.09756656314,1.7070858299075127,0.4992697701429194,-1.2944788529937918, ,0.0732794915509427,0.018780316952002926,0.03739157633802818,0.004817822799837068,0.07065681663881399,-0.0470726742531078, ,1.0565690994262695
0.012730928159134602,0.02198799914919502,-0.08678449538554164, ,0.01342699494976586,0.021811761729196667,-0.0875346344821191, ,0.001038401304622356, ,0.014026444066605782,0.006525813140473304,-0.03609665452990167,-0.00898180174482961,-0.046769502853792756,-0.006784436488478568, ,0.03927207453839261, ,0.047623501315164886, ,0.000517758423927945, ,0.19492177774542663,-0.239342937237966,0.09793470950000001,1.7070858299075127,0.4996796796422157,-1.2946497492246, ,0.08028506054016141,0.02959979462210567,0.038382678361445786,0.00451810812816186,0.03374941732168819,-0.01712114632622352, ,1.0617940425872803
0.012730928159134602,0.02198799914919502,-0.08678449538554164, ,0.013516979555310093,0.02181569525035169,-0.08772320746102712, ,0.0012364246000659707, ,0.014026444066605782,0.006525813140473304,-0.03609665452990167,-0.00898180174482961,-0.046769502853792756,-0.006784436488478568, ,0.03927207453839261, ,0.047623501315164886, ,0.0005340917461129003, ,0.19492177774542663,-0.239342937237966,0.09793470950000001,1.7070858299075127,0.4996796796422157,-1.2946497492246, ,0.08028506054016141,0.02959979462210567,0.038382678361445786,0.00451810812816186,0.03374941732168819,-0.01712114632622352, ,1.0670390129089355
0.012869281604536351,0.02204987218932504,-0.0871538702895617, ,0.013607374137944972,0.02181812622877103,-0.08791198750463211, ,0.0010831567245291737, ,0.014163823525600295,0.006136943413145155,-0.037868693726469116,0.04212838063171915,0.02338621731960631,-0.006460790662196854, ,0.04089393519667208, ,0.048183376174070876, ,0.0005462931900777064, ,0.19572494196434598,-0.23898769152575167,0.09832748537000001,1.7070858299075127,0.5004994986408083,-1.2951548991664974, ,0.08412849428942444,0.03897204992134323,0.04032610511392406,0.004246258223694724,0.11082130599566903,-0.07360999027224943, ,1.072270154953003
0.012869281604536351,0.02204987218932504,-0.0871538702895617, ,0.013698174022733543,0.021819088165648454,-0.08810096505403997, ,0.0012795750854995922, ,0.014163823525600295,0.006136943413145155,-0.037868693726469116,0.04212838063171915,0.02338621731960631,-0.006460790662196854, ,0.04089393519667208, ,0.048183376174070876, ,0.0005622341008477474, ,0.19572494196434598,-0.23898769152575167,0.09832748537000001,1.7070858299075127,0.5004994986408083,-1.2951548991664974, ,0.08412849428942444,0.03897204992134323,0.04032610511392406,0.004246258223694724,0.11082130599566903,-0.07360999027224943, ,1.0775461196899414
0.013018354870823146,0.02211331450937981,-0.08755169568626164, ,0.013789374573038762,0.021818614304602673,-0.08829013059262113, ,0.0011075223261092684, ,0.014456075970897559,0.005901117010808132,-0.03763555482255423,0.1346647953673328,0.11485939040435911,-0.007861834334759638, ,0.040745997364809904, ,0.17699494672905747, ,0.0005738359779809711, ,0.1966748381078756,-0.23856294121766933,0.09875396478000001,1.7070858299075127,0.5024124096375245,-1.2966330710781069, ,0.096734904748696,0.0418232444065539,0.040531327022900764,0.003991824310010766,0.21914649128364858,-0.1642069178369852, ,1.0829811096191406
0.013018354870823146,0.02211331450937981,-0.08755169568626164, ,0.013880971190380289,0.021816737632460503,-0.08847947464601712, ,0.0013010912945886888, ,0.014456075970897559,0.005901117010808132,-0.03763555482255423,0.1346647953673328,0.11485939040435911,-0.007861834334759638, ,0.040745997364809904, ,0.17699494672905747, ,0.0005889871304102986, ,0.19772512977877013,-0.23809185451234163,0.09914414807000001,1.7070858299075127,0.5040520476347098,-1.2976433709619015, ,0.10882676784228298,0.05096505991324961,0.03661795751724139,0.0037720903060513853,0.09070059376776685,-0.050966950057054976, ,1.0885400772094727
0.013172679971296865,0.0221637187013256,-0.08791524351310784, ,0.013972959314288786,0.021813490880034845,-0.08866898778214859, ,0.0011537924322586894, ,0.015998559056543227,0.004128614128210512,-0.034299455684881186,0.0070011093878971685,-0.020699459305390758,-0.006576321417627139, ,0.03807166934591244, ,0.021850301516194732, ,0.000600513769223531, ,0.19772512977877013,-0.23809185451234163,0.09914414807000001,1.7070858299075127,0.5040520476347098,-1.2976433709619015, ,0.10882676784228298,0.05096505991324961,0.03661795751724139,0.0037720903060513853,0.09070059376776685,-0.050966950057054976, ,1.0940520763397217
0.013338904352588062,0.022196837062037525,-0.08824605995870649, ,0.014065334422162361,0.021808906522907342,-0.08885866061122238, ,0.0010263870169845556, ,0.017053784047608225,0.0028312751570254437,-0.03357333221967662,-0.056221419799513346,-0.06468421032578141,0.00186498120640338, ,0.037762631074781096, ,0.085702114644376, ,0.0006090312341787516, ,0.1988835397099038,-0.23752037227964903,0.09949673895000001,1.7072955198509974,0.5047352301335369,-1.2979554242599622, ,0.11803102183889398,0.06230921967069651,0.03563492510067114,-3.4418758135736374e-05,0.0554116735225628,-2.8123347537420407e-05, ,1.0993051528930664
0.013338904352588062,0.022196837062037525,-0.08824605995870649, ,0.014158092029121862,0.021803016782208716,-0.08904848378574046, ,0.001212454890039676, ,0.017053784047608225,0.0028312751570254437,-0.03357333221967662,-0.056221419799513346,-0.06468421032578141,0.00186498120640338, ,0.037762631074781096, ,0.085702114644376, ,0.0006208630705681814, ,0.1988835397099038,-0.23752037227964903,0.09949673895000001,1.7072955198509974,0.5047352301335369,-1.2979554242599622, ,0.11803102183889398,0.06230921967069651,0.03563492510067114,-3.4418758135736374e-05,0.0554116735225628,-2.8123347537420407e-05, ,1.104560136795044
0.013502401805590024,0.022217448610423976,-0.08856638287892707, ,0.014251227687866012,0.02179585362539857,-0.08923844800050544, ,0.001090941822925098, ,0.01671302881005691,0.0018205204025946995,-0.032481789738036976,0.06335612879264384,0.021675444169243604,-0.012450691087831327, ,0.03657466734131836, ,0.06696109152269651, ,0.0006299030465750453, ,0.20006511783966016,-0.23686393998533994,0.09983766322000001,1.7070858299075127,0.5058283221316605,-1.2986017312691116, ,0.12437344896260916,0.0705553468836214,0.03470329307189543,-0.0028138413224207083,0.15257669306244379,-0.12628087583218406, ,1.1097981929779053
0.013502401805590024,0.022217448610423976,-0.08856638287892707, ,0.014344736988527406,0.021787448767047458,-0.08942854399263032, ,0.0012797461512737674, ,0.01671302881005691,0.0018205204025946995,-0.032481789738036976,0.06335612879264384,0.021675444169243604,-0.012450691087831327, ,0.03657466734131836, ,0.06696109152269651, ,0.0006421642372297382, ,0.20006511783966016,-0.23686393998533994,0.09983766322000001,1.7070858299075127,0.5058283221316605,-1.2986017312691116, ,0.12437344896260916,0.0705553468836214,0.03470329307189543,-0.0028138413224207083,0.15257669306244379,-0.12628087583218406, ,1.1151599884033203
0.013669937079559272,0.022229923867299318,-0.08889179543867706, ,0.014438615558527186,0.02177783366961604,-0.08961876254154363, ,0.001150536100919892, ,0.016082094076467657,0.0007854334416517676,-0.031075501647923755,0.07334825288376948,0.04244832352826773,-0.005682017550610734, ,0.03499910653496362, ,0.0847454859681135, ,0.000651578531001778, ,0.20133164603103296,-0.23611483489654017,0.10018506894000001,1.7066664500205435,0.5076045966286112,-1.2999684852770246, ,0.12150696742441842,0.07696426728180923,0.03311603226611227,-0.011711548593577432,0.17325254138549664,-0.14347272134015282, ,1.120561122894287
0.013669937079559272,0.022229923867299318,-0.08889179543867706, ,0.014532859062431156,0.021767039544237053,-0.08980909446899897, ,0.0013417651642854153, ,0.016082094076467657,0.0007854334416517676,-0.031075501647923755,0.07334825288376948,0.04244832352826773,-0.005682017550610734, ,0.03499910653496362, ,0.0847454859681135, ,0.0006641273788796624, ,0.20133164603103296,-0.23611483489654017,0.10018506894000001,1.7066664500205435,0.5076045966286112,-1.2999684852770246, ,0.12150696742441842,0.07696426728180923,0.03311603226611227,-0.011711548593577432,0.17325254138549664,-0.14347272134015282, ,1.1258251667022705
0.01384253434467482,0.02223054447814103,-0.0892251167657038, ,0.014627463201804572,0.02175509735149501,-0.08999953063908117, ,0.0012007831312399085, ,0.017792056232191114,-0.00034779643789098225,-0.03400557034165878,0.008954995479863805,-0.010551638506717377,0.03868228902466434, ,0.03838042523986888, ,0.01383775800357067, ,0.0006737105173146668, ,0.20261361968815422,-0.23522672061600433,0.10053765982000001,1.7062470701335748,0.5092442346257966,-1.3013055001213818, ,0.12981797750816795,0.09358672737521774,0.03579508206741574,-0.05885505725838348,0.13812692937803026,-0.10575494149207636, ,1.1310861110687256
0.01384253434467482,0.02223054447814103,-0.0892251167657038, ,0.014722423715067661,0.021742037802207247,-0.09019006195821436, ,0.0013942608439999396, ,0.017792056232191114,-0.00034779643789098225,-0.03400557034165878,0.008954995479863805,-0.010551638506717377,0.03868228902466434, ,0.03838042523986888, ,0.01383775800357067, ,0.0006863517511161628, ,0.20261361968815422,-0.23522672061600433,0.10053765982000001,1.7062470701335748,0.5092442346257966,-1.3013055001213818, ,0.12981797750816795,0.09358672737521774,0.03579508206741574,-0.05885505725838348,0.13812692937803026,-0.10575494149207636, ,1.1363410949707031
0.01402365185700978,0.022230141934788387,-0.08957097682061081, ,0.014817736377351056,0.021727891358204694,-0.09038067937516933, ,0.0012403403137779883, ,0.019023501068766175,-0.0002356552332366397,-0.03656203858937654,0.003916207006779343,-0.016558847984837022,0.02326404164472633, ,0.04121567410722963, ,0.017013723519103352, ,0.0006959032780586081, ,0.20391103881102396,-0.23428454720534894,0.10090191731,1.7062470701335748,0.5104739631236854,-1.302226582514509, ,0.1359555036654309,0.09916085847280122,0.03847539014492755,-0.044263338166479683,0.13467341712814557,-0.10354970866498883, ,1.141573190689087
0.01402365185700978,0.022230141934788387,-0.08957097682061081, ,0.014913397000350713,0.0217126882331119,-0.09057137388107057, ,0.0014353393438675084, ,0.019023501068766175,-0.0002356552332366397,-0.03656203858937654,0.003916207006779343,-0.016558847984837022,0.02326404164472633, ,0.04121567410722963, ,0.017013723519103352, ,0.0007084360927333352, ,0.20391103881102396,-0.23428454720534894,0.10090191731,1.7062470701335748,0.5104739631236854,-1.302226582514509, ,0.1359555036654309,0.09916085847280122,0.03847539014492755,-0.044263338166479683,0.13467341712814557,-0.10354970866498883, ,1.1468770503997803
0.014152006994948783,0.022230025925269844,-0.0898166733434247, ,0.015009401432183468,0.021696458393128205,-0.09076213650940425, ,0.0013833727373997083, ,0.020055953143006473,-0.0003122669530446416,-0.03780439112812391,0.0008019101406360787,-0.023132115371151347,0.014365044029869104, ,0.04279615351515377, ,0.023144342823196197, ,0.0007196850368111082, ,0.20483004402305668,-0.23362039217816563,0.10116117531,1.7062470701335748,0.5114304186220436,-1.3029248291002433, ,0.14334885431793168,0.10326108983511509,0.039822028800000006,-0.036070163565914914,0.133513167628994,-0.10293147964878822, ,1.1522541046142578
0.014152006994948783,0.022230025925269844,-0.0898166733434247, ,0.015105745557241642,0.021679231557807082,-0.09095295833602492, ,0.0015824459753311063, ,0.020055953143006473,-0.0003122669530446416,-0.03780439112812391,0.0008019101406360787,-0.023132115371151347,0.014365044029869104, ,0.04279615351515377, ,0.023144342823196197, ,0.0007338286587540591, ,0.20483004402305668,-0.23362039217816563,0.10116117531,1.7062470701335748,0.5114304186220436,-1.3029248291002433, ,0.14334885431793168,0.10326108983511509,0.039822028800000006,-0.036070163565914914,0.133513167628994,-0.10293147964878822, ,1.157602071762085
0.014474501940214561,0.022218917393643584,-0.09041816171957272, ,0.015202425296049413,0.02166103720083904,-0.09114383047916358, ,0.0011694861564548959, ,0.02007142549501032,-0.0020628058474192316,-0.03720024523067677,0.030509828414856013,0.015497813549292491,-0.009813157629278048, ,0.0423199188868361, ,0.03421930177364001, ,0.0007408553925879435, ,0.20714686388532402,-0.23191366821296203,0.10179506112000002,1.7058276902466056,0.513753239118056,-1.3046555759828014, ,0.14599529470533967,0.11981937065463481,0.03904120470588236,-0.018330327867181986,0.17200051722387258,-0.14427178452299805, ,1.162856101989746
0.014474501940214561,0.022218917393643584,-0.09041816171957272, ,0.015299436605116679,0.021641904550829486,-0.09133474409943446, ,0.0013614640212662923, ,0.02007142549501032,-0.0020628058474192316,-0.03720024523067677,0.030509828414856013,0.015497813549292491,-0.009813157629278048, ,0.0423199188868361, ,0.03421930177364001, ,0.0007507063232018856, ,0.20714686388532402,-0.23191366821296203,0.10179506112000002,1.7058276902466056,0.513753239118056,-1.3046555759828014, ,0.14599529470533967,0.11981937065463481,0.03904120470588236,-0.018330327867181986,0.17200051722387258,-0.14427178452299805, ,1.168092966079712
0.014678880741603086,0.022190549621944184,-0.0907967754378277, ,0.015396775476794921,0.021621862592080977,-0.09152569039984292, ,0.0011705104914525254, ,0.019766307370543086,-0.003329943246678051,-0.03593417153817378,-0.028415868677117283,-0.031601399666317004,0.08125044547971362, ,0.041146811701853414, ,0.042497648619471556, ,0.0007572657633308018, ,0.20852151033693597,-0.23073981281607991,0.10216450377000001,1.7051986204161522,0.5152562406154759,-1.305881172923462, ,0.1424879002379441,0.12324278124476726,0.03747955651764706,-0.08545788754238404,0.14506212169774804,-0.12174033004113277, ,1.1733341217041016
0.014678880741603086,0.022190549621944184,-0.0907967754378277, ,0.015494437939132395,0.021600940065373428,-0.09171666062579241, ,0.0013634374685618299, ,0.019766307370543086,-0.003329943246678051,-0.03593417153817378,-0.028415868677117283,-0.031601399666317004,0.08125044547971362, ,0.041146811701853414, ,0.042497648619471556, ,0.0007665914818728176, ,0.20852151033693597,-0.23073981281607991,0.10216450377000001,1.7051986204161522,0.5152562406154759,-1.305881172923462, ,0.1424879002379441,0.12324278124476726,0.03747955651764706,-0.08545788754238404,0.14506212169774804,-0.12174033004113277, ,1.1787011623382568
0.014849657426262909,0.02216442448825392,-0.09110054442490637, ,0.015592420055728941,0.02157916546874444,-0.09190764606509236, ,0.0012432367036246193, ,0.0204526828940983,-0.003620716125179785,-0.03626712689429461,-0.05049967078693864,-0.05328132373125071,0.03721676157833648, ,0.04179385500276979, ,0.07341017276286935, ,0.0007738133791720873, ,0.20983437492555415,-0.22959684835069466,0.10250672433000001,1.704779240529183,0.5163493326135995,-1.306854194893174, ,0.14488082680682562,0.12911148511356568,0.03765676482269504,-0.06648150498376415,0.11066364674331204,-0.08434225670369963, ,1.1868021488189697
0.01507167800774933,0.02211839229199833,-0.0914877032488873, ,0.015690717925591235,0.021556567058269516,-0.09209863804796418, ,0.0010354223012178445, ,0.019008512461610307,-0.004402871609396514,-0.031931001292575964,-0.022969854106817105,-0.01787686319825624,-0.026733706236834253, ,0.03742055141173781, ,0.029106068804648083, ,0.0007777179899488897, ,0.2114252578976444,-0.22812180637171778,0.10290857423000001,1.7045695505856984,0.5177156976112539,-1.3079683739301382, ,0.13894134928033788,0.12858664167814468,0.033185024,0.0,0.12550286044938772,-0.0972829447636608, ,1.19228196144104
0.01507167800774933,0.02211839229199833,-0.0914877032488873, ,0.015789327682987606,0.021533172848842853,-0.09228962794705033, ,0.0012249841119543808, ,0.019008512461610307,-0.004402871609396514,-0.031931001292575964,-0.022969854106817105,-0.01787686319825624,-0.026733706236834253, ,0.03742055141173781, ,0.029106068804648083, ,0.0007842954329195587, ,0.2114252578976444,-0.22812180637171778,0.10290857423000001,1.7045695505856984,0.5177156976112539,-1.3079683739301382, ,0.13894134928033788,0.12858664167814468,0.033185024,0.0,0.12550286044938772,-0.0972829447636608, ,1.197831153869629
0.015258026492320156,0.02207126190922067,-0.09178730403129952, ,0.015888245497303853,0.021509010614958423,-0.09248060717742043, ,0.001092690150300335, ,0.018708692377959756,-0.00600340913769602,-0.029285466730993505,-0.041507933287094054,-0.0313709416351774,-0.0121895131311454, ,0.03526605525742607, ,0.05202905884308377, ,0.0007887649215772511, ,0.21279990434925636,-0.22684755544747076,0.10321968383,1.704779240529183,0.5188087896093774,-1.3088597171597094, ,0.14017273494604252,0.13693642360529693,0.03022544880455408,-0.017502123279459436,0.11689116025007876,-0.09083557567930987, ,1.2031590938568115
0.015258026492320156,0.02207126190922067,-0.09178730403129952, ,0.015987467572897318,0.021484107891489197,-0.09267156719657914, ,0.0012879268131544275, ,0.018708692377959756,-0.00600340913769602,-0.029285466730993505,-0.041507933287094054,-0.0313709416351774,-0.0121895131311454, ,0.03526605525742607, ,0.05202905884308377, ,0.0007958958057426393, ,0.21279990434925636,-0.22684755544747076,0.10321968383,1.704779240529183,0.5188087896093774,-1.3088597171597094, ,0.14017273494604252,0.13693642360529693,0.03022544880455408,-0.017502123279459436,0.11689116025007876,-0.09083557567930987, ,1.2084109783172607
0.015447580168428312,0.022005581194017687,-0.09210291218251303, ,0.016086990148952804,0.02145849197446898,-0.09286249950447314, ,0.0011336333785767277, ,0.01823176106347461,-0.005964104966879566,-0.03190824731795452,0.005644324996880342,0.02827608846204828,0.016312172639640486, ,0.03723041641501392, ,0.028833357543817127, ,0.0008006526729656547, ,0.21421316446523944,-0.22538795893424232,0.10354505262000001,1.7041501706987296,0.5204484276065626,-1.310115053263926, ,0.13365766416686023,0.14058806156810486,0.03297890583850932,-0.050863086434821736,0.1795882044911366,-0.14617269390541315, ,1.2136600017547607
0.015447580168428312,0.022005581194017687,-0.09210291218251303, ,0.016186809499336964,0.021432189921871656,-0.09305339564349871, ,0.001333662762566391, ,0.01823176106347461,-0.005964104966879566,-0.03190824731795452,0.005644324996880342,0.02827608846204828,0.016312172639640486, ,0.03723041641501392, ,0.028833357543817127, ,0.000808055590876776, ,0.21421316446523944,-0.22538795893424232,0.10354505262000001,1.7041501706987296,0.5204484276065626,-1.310115053263926, ,0.13365766416686023,0.14058806156810486,0.03297890583850932,-0.050863086434821736,0.1795882044911366,-0.14617269390541315, ,1.2190120220184326
0.015630435952714013,0.021944649925349766,-0.09242769071883025, ,0.01628692193245373,0.021405228554392686,-0.09324424719850834, ,0.0011784369909096962, ,0.017948202900679427,-0.006213109635853354,-0.031510466845248386,-0.0069185908012092436,0.016668785016654968,0.05594687951979425, ,0.03679198607735914, ,0.01804672345340358, ,0.0008131293086854461, ,0.21554919725248028,-0.22397469881825924,0.10388079173,1.7033114109247913,0.5223613386032788,-1.3116749039156759, ,0.1303529417011961,0.13914507559893075,0.0325077786122449,-0.09259746725945238,0.17352375732440886,-0.14134923152065157, ,1.2244341373443604
0.015630435952714013,0.021944649925349766,-0.09242769071883025, ,0.01638732379109932,0.021377634456228978,-0.09343504579681954, ,0.0013817199409680112, ,0.017948202900679427,-0.006213109635853354,-0.031510466845248386,-0.0069185908012092436,0.016668785016654968,0.05594687951979425, ,0.03679198607735914, ,0.01804672345340358, ,0.0008208129658784538, ,0.21554919725248028,-0.22397469881825924,0.10388079173,1.7033114109247913,0.5223613386032788,-1.3116749039156759, ,0.1303529417011961,0.13914507559893075,0.0325077786122449,-0.09259746725945238,0.17352375732440886,-0.14134923152065157, ,1.2297320365905762
0.01580836994476753,0.02188495579792625,-0.09274435245672334, ,0.01648801145231683,0.02134943397585936,-0.09362578310822023, ,0.0012351583680208595, ,0.018219597847725606,-0.005957106692994484,-0.03308236246828969,-0.006446100169699952,0.022963416436577587,-0.007669459404028408, ,0.038234586075539895, ,0.023850179781789445, ,0.0008263375712403525, ,0.21677711177948197,-0.22263094329814417,0.10419449391,1.7031017209813069,0.5238643401006987,-1.3129005008563366, ,0.12772132107465783,0.1427021677570989,0.03403592205128206,-0.027254432538033443,0.16234717467286428,-0.13230931297116677, ,1.2349741458892822
0.01580836994476753,0.02188495579792625,-0.09274435245672334, ,0.016588981327251697,0.021320653226825238,-0.09381645084497735, ,0.0014412447662738943, ,0.018219597847725606,-0.005957106692994484,-0.03308236246828969,-0.006446100169699952,0.022963416436577587,-0.007669459404028408, ,0.038234586075539895, ,0.023850179781789445, ,0.0008344284553855306, ,0.21677711177948197,-0.22263094329814417,0.10419449391,1.7031017209813069,0.5238643401006987,-1.3129005008563366, ,0.12772132107465783,0.1427021677570989,0.03403592205128206,-0.027254432538033443,0.16234717467286428,-0.13230931297116677, ,1.2402331829071045
0.01599251014533134,0.02182945704509108,-0.09309288974253828, ,0.016690229861006614,0.021291318088511382,-0.09400704076184382, ,0.001269676503810337, ,0.01905121155123871,-0.005399749747957322,-0.0375445354939434,-0.035130636962667175,-0.00024105274531657274,-0.015071729932142513, ,0.042446414505427806, ,0.03513040222817441, ,0.0008400810274429957, ,0.21805136270372902,-0.22114817858629307,0.10456652914000002,1.7031017209813069,0.525503978097884,-1.3142375157006936, ,0.12197550328852286,0.14599529470533967,0.038568550895883784,-0.01972034410823286,0.13048946202716605,-0.10637968561350948, ,1.245535135269165
0.01599251014533134,0.02182945704509108,-0.09309288974253828, ,0.01679175353249624,0.021261454206925386,-0.09419754465606496, ,0.0014770510126836346, ,0.01905121155123871,-0.005399749747957322,-0.0375445354939434,-0.035130636962667175,-0.00024105274531657274,-0.015071729932142513, ,0.042446414505427806, ,0.03513040222817441, ,0.0008482473093050552, ,0.21805136270372902,-0.22114817858629307,0.10456652914000002,1.7031017209813069,0.525503978097884,-1.3142375157006936, ,0.12197550328852286,0.14599529470533967,0.038568550895883784,-0.01972034410823286,0.13048946202716605,-0.10637968561350948, ,1.250845193862915
0.01619091221227961,0.021777713668026784,-0.0934832328999879, ,0.016893548854302654,0.02123108699547954,-0.09438795436738773, ,0.0012692595886687585, ,0.019813833639689155,-0.004775003334845203,-0.03913753173192808,-0.0753421250181563,-0.051145357493755025,0.027916972619022203, ,0.04412635324176175, ,0.09106147137565342, ,0.0008535765786640894, ,0.21928699996360496,-0.21970402753881307,0.10496708275000001,1.7024726511508534,0.5264604335962421,-1.3150174410265687, ,0.12181892369508443,0.13996599049921946,0.04022427151515152,-0.06296793382416266,0.08732503268857061,-0.07121119430871653, ,1.2561650276184082
0.01619091221227961,0.021777713668026784,-0.0934832328999879, ,0.01699561237252932,0.021200241635769074,-0.09457826177806537, ,0.001476517707231905, ,0.019813833639689155,-0.004775003334845203,-0.03913753173192808,-0.0753421250181563,-0.051145357493755025,0.027916972619022203, ,0.04412635324176175, ,0.09106147137565342, ,0.0008613633427711872, ,0.22048402355910976,-0.21829076742283,0.10537022894,1.7016338913769151,0.5274168890946002,-1.3158790450925841, ,0.11392189862961677,0.1371343086105069,0.039137129041769046,-0.08843055065061044,0.09949643478210592,-0.08043308699134691, ,1.2615561485290527
0.016387021623960163,0.021727367663711143,-0.09387594325093661, ,0.017097940666657575,0.02116894307835553,-0.09476845881286712, ,0.001270365274670058, ,0.018810957703438127,-0.004968767643708199,-0.03813432088771446,-0.06838752856163291,-0.03685340114060257,0.052525063871337124, ,0.04281083053603229, ,0.07768491869667248, ,0.0008664127493378399, ,0.22048402355910976,-0.21829076742283,0.10537022894,1.7016338913769151,0.5274168890946002,-1.3158790450925841, ,0.11392189862961677,0.1371343086105069,0.039137129041769046,-0.08843055065061044,0.09949643478210592,-0.08043308699134691, ,1.267207145690918
0.01657378612235157,0.021676329043542296,-0.0942540373891279, ,0.017200530349400327,0.021137216043544852,-0.09495853743908389, ,0.0010861728560837755, ,0.019079379144583675,-0.005516860139305072,-0.03877395105617874,-0.037550250625806095,-0.001957865398922428,-0.005275970485068066, ,0.043564638582758525, ,0.037600092013197285, ,0.0008690927506396196, ,0.221626988024495,-0.21688523003972113,0.10575911594000001,1.7014242014334306,0.5286466175924891,-1.3169634849659924, ,0.11601093100057551,0.14599529470533967,0.03992183338345865,-0.0338375369075628,0.12502590472470862,-0.10710249460083682, ,1.2724730968475342
0.01657378612235157,0.021676329043542296,-0.0942540373891279, ,0.017303378066557466,0.021105085022168655,-0.09514848966653586, ,0.0012878932461836876, ,0.019079379144583675,-0.005516860139305072,-0.03877395105617874,-0.037550250625806095,-0.001957865398922428,-0.005275970485068066, ,0.043564638582758525, ,0.037600092013197285, ,0.0008741385397425601, ,0.221626988024495,-0.21688523003972113,0.10575911594000001,1.7014242014334306,0.5286466175924891,-1.3169634849659924, ,0.11601093100057551,0.14599529470533967,0.03992183338345865,-0.0338375369075628,0.12502590472470862,-0.10710249460083682, ,1.2777290344238281
0.016765374784802382,0.021624374069666247,-0.09464190332932973, ,0.01740648049687047,0.02107257427636437,-0.09533830754758006, ,0.0010956634433671598, ,0.018605245734107125,-0.005109654524288107,-0.03748784926584383,-0.010507146564986802,0.010364842234037452,-0.01806654868665073, ,0.042161624503364636, ,0.01475655941690616, ,0.0008767757409761862, ,0.22278539795562866,-0.21544880172511538,0.10615837326000001,1.7014242014334306,0.529876346090378,-1.3181296035795413, ,0.11364903180655184,0.13833373405024896,0.03866216388349515,-0.02161729909802784,0.13303585710319388,-0.12479619644446105, ,1.2829961776733398
0.016765374784802382,0.021624374069666247,-0.09464190332932973, ,0.017509834351878046,0.02103970784035646,-0.09552798317711743, ,0.001296607937412571, ,0.018605245734107125,-0.005109654524288107,-0.03748784926584383,-0.010507146564986802,0.010364842234037452,-0.01806654868665073, ,0.042161624503364636, ,0.01475655941690616, ,0.0008817149432872025, ,0.22278539795562866,-0.21544880172511538,0.10615837326000001,1.7014242014334306,0.529876346090378,-1.3181296035795413, ,0.11364903180655184,0.13833373405024896,0.03866216388349515,-0.02161729909802784,0.13303585710319388,-0.12479619644446105, ,1.2882649898529053
0.01695624123897235,0.021565402439422968,-0.09502167721701578, ,0.01761343637577091,0.021006509521236717,-0.09571750869260034, ,0.0011083538172644227, ,0.0182290588981222,-0.006068372683818212,-0.03584150296005082,-0.03874377032201114,-0.01891116632566474,0.06434142958190069, ,0.040666166155371115, ,0.04311209579442198, ,0.0008843502790311237, ,0.22395153061963655,-0.21402009614338383,0.10654855655,1.700375751716008,0.531106074588267,-1.3192140434529498, ,0.1121713257192326,0.13894134928033788,0.036787093579676675,-0.1090857448570906,0.12031198114945002,-0.11684892609831166, ,1.2936360836029053
0.01695624123897235,0.021565402439422968,-0.09502167721701578, ,0.017717283345245426,0.020973002899742813,-0.09590687627403882, ,0.0013090835239541838, ,0.0182290588981222,-0.006068372683818212,-0.03584150296005082,-0.03874377032201114,-0.01891116632566474,0.06434142958190069, ,0.040666166155371115, ,0.04311209579442198, ,0.0008892322703520785, ,0.22395153061963655,-0.21402009614338383,0.10654855655,1.700375751716008,0.531106074588267,-1.3192140434529498, ,0.1121713257192326,0.13894134928033788,0.036787093579676675,-0.1090857448570906,0.12031198114945002,-0.11684892609831166, ,1.2989501953125
0.01713335905708299,0.02150328218456475,-0.09537533509319733, ,0.01782137206936028,0.02093921133104127,-0.09609607814400882, ,0.0011449927415274888, ,0.01770753529304869,-0.006150288261306977,-0.0352379956759539,-0.01947538389176883,0.009305289861098083,0.024995049429384606, ,0.03991364667767505, ,0.02158297164649915, ,0.0008921386393427082, ,0.22504043595490222,-0.21263000422602343,0.10691151775,1.6993273019985855,0.5324724395859214,-1.320491579970195, ,0.10845364749539518,0.13934940023270306,0.03620184436363637,-0.06765966454373534,0.13630933619460944,-0.1269483342137681, ,1.3042850494384766
0.01713335905708299,0.02150328218456475,-0.09537533509319733, ,0.017925699389390672,0.020905157945506802,-0.0962851065676596, ,0.0013465659817830484, ,0.01770753529304869,-0.006150288261306977,-0.0352379956759539,-0.01947538389176883,0.009305289861098083,0.024995049429384606, ,0.03991364667767505, ,0.02158297164649915, ,0.0008972445645386672, ,0.22504043595490222,-0.21263000422602343,0.10691151775,1.6993273019985855,0.5324724395859214,-1.320491579970195, ,0.10845364749539518,0.13934940023270306,0.03620184436363637,-0.06765966454373534,0.13630933619460944,-0.1269483342137681, ,1.309535026550293
0.017307531137187027,0.02144415538183509,-0.09571832086652908, ,0.018030262178682723,0.020870865649502232,-0.09647395385271959, ,0.0011924690710282272, ,0.01741732983770746,-0.006389279247752162,-0.034026438154965255,-0.029549196723878415,0.009923483037794115,-0.003200399049270599, ,0.038755448152420144, ,0.031170257141666702, ,0.0009005248368329956, ,0.22609845035867096,-0.21125535777441146,0.10726410863000001,1.6993273019985855,0.5337021680838104,-1.3215760198436035, ,0.10662577703198964,0.13955432582128055,0.034931604210526324,-0.034787040127237455,0.12785168742817324,-0.10968469218566174, ,1.31479811668396
0.017307531137187027,0.02144415538183509,-0.09571832086652908, ,0.018135057342509524,0.020836357126160096,-0.09666261234950548, ,0.0013949568971544522, ,0.01741732983770746,-0.006389279247752162,-0.034026438154965255,-0.029549196723878415,0.009923483037794115,-0.003200399049270599, ,0.038755448152420144, ,0.031170257141666702, ,0.0009059581561771874, ,0.22609845035867096,-0.21125535777441146,0.10726410863000001,1.6993273019985855,0.5337021680838104,-1.3215760198436035, ,0.10662577703198964,0.13955432582128055,0.034931604210526324,-0.034787040127237455,0.12785168742817324,-0.10968469218566174, ,1.3201851844787598
0.01745904038248149,0.021390832425901146,-0.09601186079509119, ,0.018240081817924483,0.02080165483616136,-0.09685107445092732, ,0.0012889668406410894, ,0.017388862871398354,-0.0061745320830619045,-0.03326941219378351,-0.021617001325822692,0.00800542481160397,-0.015148285222082728, ,0.03804406900063304, ,0.023050831081243554, ,0.000910121294051795, ,0.2270251783035779,-0.21005833417890665,0.1075661442,1.6993273019985855,0.5347952600819339,-1.3226307205534558, ,0.10698640536467957,0.13556705936924396,0.034255508645161296,-0.02322955955355817,0.123730201796813,-0.11161161392822709, ,1.3256080150604248
0.01745904038248149,0.021390832425901146,-0.09601186079509119, ,0.01834533257361806,0.02076678101851806,-0.0970393325924983, ,0.001493536843065307, ,0.017388862871398354,-0.0061745320830619045,-0.03326941219378351,-0.021617001325822692,0.00800542481160397,-0.015148285222082728, ,0.03804406900063304, ,0.023050831081243554, ,0.0009163945795250585, ,0.2270251783035779,-0.21005833417890665,0.1075661442,1.6993273019985855,0.5347952600819339,-1.3226307205534558, ,0.10698640536467957,0.13556705936924396,0.034255508645161296,-0.02322955955355817,0.123730201796813,-0.11161161392822709, ,1.3310661315917969
0.017650010737912388,0.021315915199902218,-0.09637019641836024, ,0.01845080660977108,0.020731757691351712,-0.09722737925233939, ,0.0013104489437022646, ,0.017055112505129786,-0.006767860875342053,-0.03123369352845965,-0.012003752567115994,-0.01258704987296071,-0.025807295178631593, ,0.03622463822897839, ,0.017392359688919952, ,0.0009205866472290713, ,0.2282144791662085,-0.20853695580268444,0.10793429056,1.6986982321681319,0.5361616250795883,-1.3240716145509823, ,0.10567588146823026,0.1359555036654309,0.03204992257545272,-0.022035261925946587,0.10082926298049312,-0.12380517594760249, ,1.3363699913024902
0.017650010737912388,0.021315915199902218,-0.09637019641836024, ,0.018556500957910498,0.020696606652674806,-0.09741520695118822, ,0.0015156894831536425, ,0.017055112505129786,-0.006767860875342053,-0.03123369352845965,-0.012003752567115994,-0.01258704987296071,-0.025807295178631593, ,0.03622463822897839, ,0.017392359688919952, ,0.0009268508876072247, ,0.2282144791662085,-0.20853695580268444,0.10793429056,1.6986982321681319,0.5361616250795883,-1.3240716145509823, ,0.10567588146823026,0.1359555036654309,0.03204992257545272,-0.022035261925946587,0.10082926298049312,-0.12380517594760249, ,1.3417181968688965
0.017833204120995698,0.021242260732300275,-0.09670623749579582, ,0.018662412680763688,0.02066134948117037,-0.09760280825240555, ,0.0013523623179050666, ,0.018670403559203998,-0.0069120705084834986,-0.035314605521669394,-0.03168003434583837,-0.020157029002552174,0.07753782018143306, ,0.0405398822263818, ,0.03754830847247684, ,0.0009312832983394939, ,0.2293497208987195,-0.2071082502209529,0.1082791037,1.6976497824507093,0.5372547170777118,-1.3253713514812566, ,0.11392189862961677,0.14058806156810486,0.0363671495890411,-0.12872560104913777,0.12400849209017677,-0.13104303202590636, ,1.3470041751861572
0.017833204120995698,0.021242260732300275,-0.09670623749579582, ,0.018768538872114382,0.020626007536974054,-0.09779017576198323, ,0.0015586985796828717, ,0.01909564214865647,-0.005622319210437872,-0.03731225058786782,0.012733779867253875,0.01600353800819527,-0.001688884869562264, ,0.04229016512506716, ,0.02044969580912196, ,0.0009377514971162297, ,0.23047723989835628,-0.2057567719679636,0.10864465748000002,1.6972304025637401,0.5386210820753663,-1.3268939242189237, ,0.11364903180655184,0.13518082843087004,0.03875623240875913,-0.046813008278153524,0.14354229371765234,-0.15159322939329617, ,1.3527491092681885
0.018018566601460985,0.02118229483120399,-0.09705883327249142, ,0.01887487665665634,0.02059060196245267,-0.09797730212855063, ,0.0013881471107597204, ,0.01909564214865647,-0.005622319210437872,-0.03731225058786782,0.012733779867253875,0.01600353800819527,-0.001688884869562264, ,0.04229016512506716, ,0.02044969580912196, ,0.0009423473707248369, ,0.23047723989835628,-0.2057567719679636,0.10864465748000002,1.6972304025637401,0.5386210820753663,-1.3268939242189237, ,0.11364903180655184,0.13518082843087004,0.03875623240875913,-0.046813008278153524,0.14354229371765234,-0.15159322939329617, ,1.3580901622772217
0.018216196777342465,0.021127755301637956,-0.09743858277747937, ,0.018981423189848856,0.020555153682985418,-0.09816418004338216, ,0.0011999731115181363, ,0.019640479367232955,-0.0056201428360247415,-0.03712742219016345,0.030948327575069007,0.0050140823244380186,-0.028319325234027016, ,0.04237664349330495, ,0.0313507488744993, ,0.0009449496509348702, ,0.2316510952952384,-0.20438984824922588,0.10904002593,1.6972304025637401,0.5399874470730207,-1.32833481821645, ,0.11744670984959255,0.1347967919864642,0.03866216388349515,-0.02686379540600267,0.13194990950872598,-0.1666270765404314, ,1.3633861541748047
0.018216196777342465,0.021127755301637956,-0.09743858277747937, ,0.01908817565777155,0.02051968340774438,-0.09835080224040446, ,0.0014008008226000681, ,0.019640479367232955,-0.0056201428360247415,-0.03712742219016345,0.030948327575069007,0.0050140823244380186,-0.028319325234027016, ,0.04237664349330495, ,0.0313507488744993, ,0.0009495081626515221, ,0.2316510952952384,-0.20438984824922588,0.10904002593,1.6972304025637401,0.5399874470730207,-1.32833481821645, ,0.11744670984959255,0.1347967919864642,0.03866216388349515,-0.02686379540600267,0.13194990950872598,-0.1666270765404314, ,1.368636131286621
0.018421169722371965,0.021068992868537733,-0.09783157108093724, ,0.019195131276978902,0.020484211630474362,-0.0985371614962033, ,0.0011995179942442928, ,0.0203951096926218,-0.005587453483405052,-0.03901086694084598,-0.026330837829154446,-0.019782268101289583,-0.029646372741362278, ,0.04437372956243008, ,0.032932670739667144, ,0.0009519835075187773, ,0.2328481188907432,-0.202984310866117,0.10944835728,1.696811022676771,0.5412171755709096,-1.3295826155701393, ,0.1171567179734207,0.13773141009937706,0.040531327022900764,-0.013982564957633094,0.10329542644724124,-0.10853718021776085, ,1.373913049697876
0.018421169722371965,0.021068992868537733,-0.09783157108093724, ,0.019302287294356252,0.020448758630274757,-0.09872325063003187, ,0.0013986247188744931, ,0.0203951096926218,-0.005587453483405052,-0.03901086694084598,-0.026330837829154446,-0.019782268101289583,-0.029646372741362278, ,0.04437372956243008, ,0.032932670739667144, ,0.0009563623429242255, ,0.2328481188907432,-0.202984310866117,0.10944835728,1.696811022676771,0.5412171755709096,-1.3295826155701393, ,0.1171567179734207,0.13773141009937706,0.040531327022900764,-0.013982564957633094,0.10329542644724124,-0.10853718021776085, ,1.3791561126708984
0.018618538935030477,0.021011895546784665,-0.09821239596348369, ,0.019409640986973103,0.020413344472377856,-0.09890906250381681, ,0.0012122087747913324, ,0.02052450197332013,-0.0059702583368151495,-0.03890385176217723,-0.028987473532989298,-0.01969870467220068,0.08466576023329386, ,0.04438928753420799, ,0.035046019318682696, ,0.0009588462888646828, ,0.2339833606232542,-0.20167144627749883,0.10984372573000001,1.695552883015864,0.5423102675690331,-1.3306373162799918, ,0.12058061189132248,0.13498853706752598,0.040531327022900764,-0.13390331789641105,0.13150504231050217,-0.1295005457778825, ,1.384484052658081
0.018618538935030477,0.021011895546784665,-0.09821239596348369, ,0.019517189661938893,0.02037798900893053,-0.09909459002216539, ,0.0014098499866583448, ,0.02052450197332013,-0.0059702583368151495,-0.03890385176217723,-0.028987473532989298,-0.01969870467220068,0.08466576023329386, ,0.04438928753420799, ,0.035046019318682696, ,0.0009631828628819296, ,0.2339833606232542,-0.20167144627749883,0.10984372573000001,1.695552883015864,0.5423102675690331,-1.3306373162799918, ,0.12058061189132248,0.13498853706752598,0.040531327022900764,-0.13390331789641105,0.13150504231050217,-0.1295005457778825, ,1.3897931575775146
0.018773988019984336,0.020968391015225015,-0.09850503639994233, ,0.019624930656258147,0.02034271187977511,-0.09927982613237428, ,0.0013099148370210687, ,0.019923927956347152,-0.006014295978176706,-0.03707201428295653,0.020462462683209153,0.013240814961177806,0.011825411606304773, ,0.042514337632363, ,0.024371326153434143, ,0.0009664850721594452, ,0.23490236583528692,-0.20064432280522698,0.11014965017000002,1.695133503128895,0.5434033595671567,-1.3316920169898445, ,0.11921726326441054,0.13422481125667718,0.03875623240875913,-0.06441087277984402,0.14958665364767673,-0.16286186274185757, ,1.3950681686401367
0.018773988019984336,0.020968391015225015,-0.09850503639994233, ,0.019732861336684,0.02030753251322778,-0.0994647638244339, ,0.0015090555743450442, ,0.019923927956347152,-0.006014295978176706,-0.03707201428295653,0.020462462683209153,0.013240814961177806,0.011825411606304773, ,0.042514337632363, ,0.024371326153434143, ,0.0009716036618027055, ,0.23490236583528692,-0.20064432280522698,0.11014965017000002,1.695133503128895,0.5434033595671567,-1.3316920169898445, ,0.11921726326441054,0.13422481125667718,0.03875623240875913,-0.06441087277984402,0.14958665364767673,-0.16286186274185757, ,1.4003300666809082
0.019028224662841074,0.020889651814347522,-0.09895045672919092, ,0.01984097909957531,0.02027247012686203,-0.09964939613103943, ,0.001236931403617428, ,0.019501215826383055,-0.006693447740608702,-0.032939054601439026,-0.011366994441271197,-0.010407731615567645,-0.016019399162803576, ,0.03885976041356939, ,0.015410732126228026, ,0.0009740833603243384, ,0.23636968508138956,-0.19903027163451406,0.11059168506000001,1.695133503128895,0.5450429975643419,-1.3332740680546233, ,0.12119660480009038,0.1327229951866724,0.03462785113043479,-0.029468184778079415,0.1197301429810891,-0.12210143954437103, ,1.4056739807128906
0.019028224662841074,0.020889651814347522,-0.09895045672919092, ,0.019949281370748983,0.020237543728285855,-0.09983371612759426, ,0.001433086731484521, ,0.019501215826383055,-0.006693447740608702,-0.032939054601439026,-0.011366994441271197,-0.010407731615567645,-0.016019399162803576, ,0.03885976041356939, ,0.015410732126228026, ,0.0009783333915387845, ,0.23636968508138956,-0.19903027163451406,0.11059168506000001,1.695133503128895,0.5450429975643419,-1.3332740680546233, ,0.12119660480009038,0.1327229951866724,0.03462785113043479,-0.029468184778079415,0.1197301429810891,-0.12210143954437103, ,1.4109230041503906
0.019218215711103295,0.020823010916099505,-0.09926502505717096, ,0.02005776560533687,0.020202772115924576,-0.10001771693221997, ,0.0012868897594257441, ,0.01977881552038,-0.0067312745202286195,-0.03278678671082417,0.042543534595972904,0.022264438892031172,-0.051933539553319384, ,0.038877821220806345, ,0.048016868783184986, ,0.00098116418390472, ,0.23765938147138507,-0.19764017971715364,0.11094686852,1.6949238131854105,0.5464093625619963,-1.3346332833120091, ,0.1255250549715222,0.1338461799132169,0.034552736485900216,0.0,0.15218778339040678,-0.16999378706340057, ,1.4161880016326904
0.019218215711103295,0.020823010916099505,-0.09926502505717096, ,0.020166429287638923,0.020168173879799377,-0.10020139170576156, ,0.0014848242426057118, ,0.01977881552038,-0.0067312745202286195,-0.03278678671082417,0.042543534595972904,0.022264438892031172,-0.051933539553319384, ,0.038877821220806345, ,0.048016868783184986, ,0.0009857429117110926, ,0.23765938147138507,-0.19764017971715364,0.11094686852,1.6949238131854105,0.5464093625619963,-1.3346332833120091, ,0.1255250549715222,0.1338461799132169,0.034552736485900216,0.0,0.15218778339040678,-0.16999378706340057, ,1.4214351177215576
0.019421858374295914,0.02074868059046985,-0.09960386178897396, ,0.02027526993097962,0.020133767402309304,-0.10038473365179579, ,0.0013100344958060853, ,0.01999593466993309,-0.007283077393381105,-0.03296659711254445,-0.012113406198299004,-0.004992372986065055,0.09135480693020401, ,0.03923871996922218, ,0.013100361064846529, ,0.0009886644575137504, ,0.23895680059425478,-0.1962732559984159,0.11130334827,1.6936656735245033,0.5480490005591817,-1.3360519768965067, ,0.12720769645907612,0.13216844228199273,0.03470329307189543,-0.14176740589868222,0.1541054692091226,-0.14535901020979014, ,1.4267079830169678
0.019421858374295914,0.02074868059046985,-0.09960386178897396, ,0.020384285077562257,0.02009957085901131,-0.10056773601663872, ,0.0015088612028250463, ,0.01999593466993309,-0.007283077393381105,-0.03296659711254445,-0.012113406198299004,-0.004992372986065055,0.09135480693020401, ,0.03923871996922218, ,0.013100361064846529, ,0.0009933090713111726, ,0.23895680059425478,-0.1962732559984159,0.11130334827,1.6936656735245033,0.5480490005591817,-1.3360519768965067, ,0.12720769645907612,0.13216844228199273,0.03470329307189543,-0.14176740589868222,0.1541054692091226,-0.14535901020979014, ,1.4320800304412842
0.019614303578247113,0.02068090277549833,-0.09991878149866443, ,0.020493472298323063,0.020065602219399566,-0.10075039208935156, ,0.0013576113535317964, ,0.020466174799987413,-0.006918129105865762,-0.03423031011708423,-0.025080141342647928,-0.005895337649109233,0.020293285667983454, ,0.04047763520736884, ,0.025762792948204934, ,0.000996532985313125, ,0.24016926965550803,-0.19499900507416887,0.11163519851,1.6930366036940496,0.5494153655568361,-1.3374111921538927, ,0.12602515479212587,0.1338461799132169,0.03603803511312218,-0.06221321081259212,0.13585069346835107,-0.11547748197058474, ,1.4377729892730713
0.019830729994407895,0.02061283269980037,-0.10027982771937824, ,0.020602829192787313,0.020031879247687356,-0.10093269520174904, ,0.0011661389433499573, ,0.020880535858792165,-0.00640600184764322,-0.035541485026695754,-0.023576029986919735,-0.007703698721690591,-0.00946307877926039, ,0.04171607358471255, ,0.024801601794275395, ,0.0009980207568748515, ,0.24016926965550803,-0.19499900507416887,0.11163519851,1.6930366036940496,0.5494153655568361,-1.3374111921538927, ,0.12602515479212587,0.1338461799132169,0.03603803511312218,-0.06221321081259212,0.13585069346835107,-0.11547748197058474, ,1.4435381889343262
0.019830729994407895,0.02061283269980037,-0.10027982771937824, ,0.02071235338892257,0.01999841950358572,-0.10111463872840536, ,0.0013607618477276453, ,0.020880535858792165,-0.00640600184764322,-0.035541485026695754,-0.023576029986919735,-0.007703698721690591,-0.00946307877926039, ,0.04171607358471255, ,0.024801601794275395, ,0.0010011750272300932, ,0.24148985697700043,-0.19360891315680845,0.11201630777000002,1.6930366036940496,0.5507817305544904,-1.338525371190857, ,0.12502890850918416,0.1319846196918926,0.03747955651764706,-0.030493566202069004,0.12662232794865563,-0.10805650708216417, ,1.4489400386810303
0.020047985076307846,0.02055078783939055,-0.10064910542610657, ,0.020822042542995956,0.019965240343086436,-0.10129621608666349, ,0.0011665260559327623, ,0.021484703821728346,-0.005809970076214583,-0.03628065124736853,-0.01139920855098617,-0.0020106100913553832,-0.03777634849907779, ,0.04256329293566325, ,0.011572452133599306, ,0.0010026004671327025, ,0.24277955336699591,-0.19228060310244185,0.11240649106000002,1.6928269137505652,0.5520114590523794,-1.3396098110642654, ,0.12806604798714005,0.1284126408098387,0.03847539014492755,0.0,0.12955566092908105,-0.10944389891656618, ,1.4542369842529297
0.020047985076307846,0.02055078783939055,-0.10064910542610657, ,0.020931894339425914,0.019932358919239262,-0.10147742073663982, ,0.001360094176286777, ,0.021484703821728346,-0.005809970076214583,-0.03628065124736853,-0.01139920855098617,-0.0020106100913553832,-0.03777634849907779, ,0.04256329293566325, ,0.011572452133599306, ,0.0010056559689203442, ,0.24277955336699591,-0.19228060310244185,0.11240649106000002,1.6928269137505652,0.5520114590523794,-1.3396098110642654, ,0.12806604798714005,0.1284126408098387,0.03847539014492755,0.0,0.12955566092908105,-0.10944389891656618, ,1.459496021270752
0.02026480052971936,0.02048555748310715,-0.10101206870401187, ,0.021041906490640316,0.019899792182935527,-0.10165824618123379, ,0.001168143823958722, ,0.02098163486770309,-0.00655202671229047,-0.03464331258847884,0.013512973380209035,0.02999296160146103,-0.01236186244576478, ,0.041028248352363746, ,0.03289571849954271, ,0.0010070329846410082, ,0.24409241795561407,-0.19096001578094945,0.11279148919000001,1.6921978439201113,0.5535144605497992,-1.340835408004926, ,0.12928738631944245,0.1303529417011961,0.036872248888888896,-0.02946636891693253,0.1693709142842895,-0.14206896810255407, ,1.464980125427246
0.02026480052971936,0.02048555748310715,-0.10101206870401187, ,0.021152076736928524,0.019867556883685918,-0.10183868596613287, ,0.0013610583774404702, ,0.02098163486770309,-0.00655202671229047,-0.03464331258847884,0.013512973380209035,0.02999296160146103,-0.01236186244576478, ,0.041028248352363746, ,0.03289571849954271, ,0.001010007987941844, ,0.24409241795561407,-0.19096001578094945,0.11279148919000001,1.6921978439201113,0.5535144605497992,-1.340835408004926, ,0.12928738631944245,0.1303529417011961,0.036872248888888896,-0.02946636891693253,0.1693709142842895,-0.14206896810255407, ,1.4703011512756348
0.02047790903816287,0.02041734429404186,-0.10135909182763374, ,0.02126240284629798,0.019835669570402444,-0.10201873367982146, ,0.0011785174552296494, ,0.0216071383178502,-0.006780382603668768,-0.03414725231916557,-0.05883852258896433,-0.050686837090325974,0.05136648534596561, ,0.040974099813023385, ,0.07766003326549031, ,0.0010114122335025757, ,0.2453898370784838,-0.18967031939095397,0.11315963555000001,1.6911493942026892,0.5548808255474537,-1.3420312657820306, ,0.13053224423448526,0.12754965263235318,0.03620184436363637,-0.09222779961977706,0.09980773256376038,-0.08410535755878519, ,1.4756391048431396
0.02047790903816287,0.02041734429404186,-0.10135909182763374, ,0.02137288261432791,0.019804146592177694,-0.10219838295358695, ,0.001371640885111313, ,0.0216071383178502,-0.006780382603668768,-0.03414725231916557,-0.05883852258896433,-0.050686837090325974,0.05136648534596561, ,0.040974099813023385, ,0.07766003326549031, ,0.0010143893297968629, ,0.2453898370784838,-0.18967031939095397,0.11315963555000001,1.6911493942026892,0.5548808255474537,-1.3420312657820306, ,0.13053224423448526,0.12754965263235318,0.03620184436363637,-0.09222779961977706,0.09980773256376038,-0.08410535755878519, ,1.4808521270751953
0.020684855808508006,0.020355218807833607,-0.10168609445513506, ,0.021483513864025652,0.019773004099066877,-0.10237762746152745, ,0.0012062531059763787, ,0.021901177257132805,-0.006275683762594013,-0.03404842589528419,-0.03060018191963421,-0.035961799002039364,-0.04670379780467396, ,0.04096756128796412, ,0.04721839007277178, ,0.0010159619836999736, ,0.24663319707123393,-0.18845785032970072,0.11350704127000001,1.69073001431572,0.5558372810458118,-1.342892869848046, ,0.13180130772009832,0.12652925541129437,0.03628430870159454,0.0088768744344005,0.09665583541087519,-0.0876116913647717, ,1.486133098602295
0.020684855808508006,0.020355218807833607,-0.10168609445513506, ,0.021594294445679698,0.01974225804286628,-0.1025564609205591, ,0.0014001204656402895, ,0.021901177257132805,-0.006275683762594013,-0.03404842589528419,-0.03060018191963421,-0.035961799002039364,-0.04670379780467396, ,0.04096756128796412, ,0.04721839007277178, ,0.0010190852233905455, ,0.24663319707123393,-0.18845785032970072,0.11350704127000001,1.69073001431572,0.5558372810458118,-1.342892869848046, ,0.13180130772009832,0.12652925541129437,0.03628430870159454,0.0088768744344005,0.09665583541087519,-0.0876116913647717, ,1.4914829730987549
0.020768896256022934,0.02033070682868189,-0.10181607360853048, ,0.021705222236716386,0.01971192417789578,-0.10273487709042343, ,0.0014504475686401258, ,0.021335158177328353,-0.00616979720103445,-0.03342006351574573,-0.006955894573233638,-0.008977653044446149,-0.048764043890683305, ,0.040126749399247284, ,0.011355220520636892, ,0.001022563951981268, ,0.24714289744093276,-0.18797131815862456,0.11364574430000002,1.69073001431572,0.5562471905451081,-1.3432271235591355, ,0.12946376747403926,0.124210656490145,0.03571482403587444,0.010320359274776264,0.12168405534048585,-0.1079026974815377, ,1.496751070022583
0.020768896256022934,0.02033070682868189,-0.10181607360853048, ,0.021816295141553234,0.019682018061777242,-0.10291286977369356, ,0.0016494857894613143, ,0.021335158177328353,-0.00616979720103445,-0.03342006351574573,-0.006955894573233638,-0.008977653044446149,-0.048764043890683305, ,0.040126749399247284, ,0.011355220520636892, ,0.0010275793266811082, ,0.24714289744093276,-0.18797131815862456,0.11364574430000002,1.69073001431572,0.5562471905451081,-1.3432271235591355, ,0.12946376747403926,0.124210656490145,0.03571482403587444,0.010320359274776264,0.12168405534048585,-0.1079026974815377, ,1.5020661354064941
0.021059742621002665,0.020241664036964296,-0.10226635214378064, ,0.021927511091454476,0.019652555056216083,-0.10309043281578231, ,0.0013338592367544613, ,0.020321283717805658,-0.0065354042293978756,-0.03160231823881918,0.040812436363957,0.03907604341153889,-0.04293745328922602, ,0.03813623733994727, ,0.05650274869460294, ,0.0010300101196181984, ,0.2489500169335013,-0.1862414259947983,0.11412926047000001,1.6909397042592043,0.5584333745413551,-1.3454998824591216, ,0.12669818632639623,0.12292349942807097,0.033963350788912584,-0.0012619393120176093,0.17044010599274118,-0.1561452308345348, ,1.5074779987335205
0.021059742621002665,0.020241664036964296,-0.10226635214378064, ,0.022038868044385037,0.01962355032778045,-0.1032675601049482, ,0.0015307411713611184, ,0.020321283717805658,-0.0065354042293978756,-0.03160231823881918,0.040812436363957,0.03907604341153889,-0.04293745328922602, ,0.03813623733994727, ,0.05650274869460294, ,0.0010339528838051505, ,0.2489500169335013,-0.1862414259947983,0.11412926047000001,1.6909397042592043,0.5584333745413551,-1.3454998824591216, ,0.12669818632639623,0.12292349942807097,0.033963350788912584,-0.0012619393120176093,0.17044010599274118,-0.1561452308345348, ,1.512773036956787
0.02130993340278888,0.020160482342870892,-0.10266743453305618, ,0.022150363984868072,0.019595018848684836,-0.10344424557230589, ,0.0012765218044558733, ,0.020682504403129444,-0.006391552614694768,-0.03330482297442586,-0.029238215999299613,-0.0395609079808009,0.09204006384768368, ,0.03972189782185293, ,0.049192456113847344, ,0.0010358479534977342, ,0.2504482271111009,-0.1847663840158214,0.11455703617000002,1.6896815645982974,0.5600730125385404,-1.3470002547837596, ,0.12135158767067875,0.1168681546286586,0.035476194922048995,-0.14178142710292724,0.11062648130495145,-0.11677148921712106, ,1.5180160999298096
0.021532609685144442,0.020099438599770637,-0.10302450661503058, ,0.02226199692383622,0.01956697539756624,-0.10362048319182868, ,0.0010819939397982538, ,0.020682504403129444,-0.006391552614694768,-0.03330482297442586,-0.029238215999299613,-0.0395609079808009,0.09204006384768368, ,0.03972189782185293, ,0.049192456113847344, ,0.001036205674321769, ,0.2504482271111009,-0.1847663840158214,0.11455703617000002,1.6896815645982974,0.5600730125385404,-1.3470002547837596, ,0.12135158767067875,0.1168681546286586,0.035476194922048995,-0.14178142710292724,0.11062648130495145,-0.11677148921712106, ,1.5235910415649414
0.021532609685144442,0.020099438599770637,-0.10302450661503058, ,0.022373764898488552,0.019539434560267122,-0.10379626698035929, ,0.0012715190437773746, ,0.02161078856951708,-0.0059831626078546245,-0.03471535534381334,-0.05481750347611123,-0.04511748142024456,0.01861477022634447, ,0.04132771847121045, ,0.07099644636495517, ,0.0010380157771637353, ,0.2517302007682221,-0.1835384694888197,0.11493814543000001,1.6892621847113283,0.5610294680368985,-1.3479435375899158, ,0.12372482602147429,0.11876963899683453,0.037043747720930234,-0.05450956182725138,0.09079784391674418,-0.07086935702362109, ,1.5291810035705566
0.021742485568496686,0.02004463812725161,-0.10336048643802032, ,0.022485665972144745,0.01951241073061491,-0.10397159099761476, ,0.0010995598650616009, ,0.021088470374254233,-0.005434600889129533,-0.034461040795773105,0.00022074755405207031,0.007270490115211528,-0.006043772280750204, ,0.040765448633344685, ,0.007270498976160115, ,0.001038485579361429, ,0.2529426698294754,-0.18239550502343446,0.11529851405000001,1.6892621847113283,0.562122560035022,-1.3489165595596277, ,0.12197550328852286,0.11378530162886184,0.037043747720930234,-0.031723948172390166,0.13844189466928553,-0.11440672758047164, ,1.5344769954681396
0.021742485568496686,0.02004463812725161,-0.10336048643802032, ,0.022597698234100582,0.01948591811120331,-0.10414644934619602, ,0.0012889121198787533, ,0.021088470374254233,-0.005434600889129533,-0.034461040795773105,0.00022074755405207031,0.007270490115211528,-0.006043772280750204, ,0.040765448633344685, ,0.007270498976160115, ,0.001040382750122924, ,0.2529426698294754,-0.18239550502343446,0.11529851405000001,1.6892621847113283,0.562122560035022,-1.3489165595596277, ,0.12197550328852286,0.11378530162886184,0.037043747720930234,-0.031723948172390166,0.13844189466928553,-0.11440672758047164, ,1.5398809909820557
0.02194647465099644,0.019991822208538148,-0.10369237775082593, ,0.02270985979948271,0.01945997071417258,-0.10432083617159327, ,0.0011227568230127432, ,0.020374894849822866,-0.005497586839635504,-0.0320216772939337,0.008026725476493638,0.010726956140583912,-0.035855451102684434, ,0.03835032748122891, ,0.013396351804856025, ,0.0010410021040544262, ,0.2541319706921059,-0.18128343148954615,0.11565629009000002,1.6892621847113283,0.5636255615324419,-1.350223835240429, ,0.11906768075090436,0.10996169357876104,0.03440348060475163,-0.022273583378632802,0.1365983384714406,-0.11389372848052551, ,1.5451509952545166
0.02194647465099644,0.019991822208538148,-0.10369237775082593, ,0.02282214880910231,0.01943458236198842,-0.10449474566219338, ,0.0013119130089107862, ,0.020374894849822866,-0.005497586839635504,-0.0320216772939337,0.008026725476493638,0.010726956140583912,-0.035855451102684434, ,0.03835032748122891, ,0.013396351804856025, ,0.001043023827224996, ,0.2541319706921059,-0.18128343148954615,0.11565629009000002,1.6892621847113283,0.5636255615324419,-1.350223835240429, ,0.11906768075090436,0.10996169357876104,0.03440348060475163,-0.022273583378632802,0.1365983384714406,-0.11389372848052551, ,1.550436019897461
0.02215574647444248,0.019931126437538665,-0.10401554510014369, ,0.022934563429310734,0.0194097666882235,-0.10466817204928719, ,0.0011420568165133424, ,0.020438033878261843,-0.00583290352239262,-0.03151516747168732,0.00098499994279287,0.004835409463154483,-0.021559655204094162, ,0.038012389731231284, ,0.004931563766527136, ,0.0010437574049234283, ,0.25537533068485607,-0.18014818975703514,0.11600499210000001,1.6886331148808746,0.5649919265300962,-1.351338014277393, ,0.12073402233902134,0.11164346065702443,0.03403592205128206,-0.015261775324853042,0.1315215224259093,-0.10931669665653466, ,1.555739164352417
0.02215574647444248,0.019931126437538665,-0.10401554510014369, ,0.023047101851855347,0.019385537138339074,-0.1048411096070777, ,0.001331817873191801, ,0.020438033878261843,-0.00583290352239262,-0.03151516747168732,0.00098499994279287,0.004835409463154483,-0.021559655204094162, ,0.038012389731231284, ,0.004931563766527136, ,0.0010458754966018722, ,0.25537533068485607,-0.18014818975703514,0.11600499210000001,1.6886331148808746,0.5649919265300962,-1.351338014277393, ,0.12073402233902134,0.11164346065702443,0.03403592205128206,-0.015261775324853042,0.1315215224259093,-0.10931669665653466, ,1.5609571933746338
0.022367320630510033,0.019871344747722907,-0.10435046453340234, ,0.023159762293732643,0.019361906970462996,-0.10501355265268583, ,0.0011520314633053446, ,0.020550180326101182,-0.005741594883176445,-0.03282976162909755,-0.0300522704054415,-0.020742379464012257,0.07227220558474122, ,0.03915442595494359, ,0.03651502603097522, ,0.0010466503576727004, ,0.25659552247898354,-0.17902839349027258,0.11636536072,1.687584665163452,0.5662216550279852,-1.352340775410661, ,0.11744670984959255,0.10783743358917133,0.03531887254988914,-0.11230994460309919,0.1195389352468191,-0.09924065803203942, ,1.566209077835083
0.022367320630510033,0.019871344747722907,-0.10435046453340234, ,0.023272542997044156,0.019338889256171922,-0.1051854955461585, ,0.0013417202300110903, ,0.020550180326101182,-0.005741594883176445,-0.03282976162909755,-0.0300522704054415,-0.020742379464012257,0.07227220558474122, ,0.03915442595494359, ,0.03651502603097522, ,0.0010487885451534132, ,0.25659552247898354,-0.17902839349027258,0.11636536072,1.687584665163452,0.5662216550279852,-1.352340775410661, ,0.11744670984959255,0.10783743358917133,0.03531887254988914,-0.11230994460309919,0.1195389352468191,-0.09924065803203942, ,1.571578025817871
0.02256916806686098,0.019824471634359412,-0.1046745599760018, ,0.02338544222885063,0.01931649688127049,-0.10535693269047497, ,0.0011789717463812042, ,0.021022530390502683,-0.004611916750242086,-0.03364963021531068,-0.0029787058601575133,-0.008284358704364867,0.010166320986815669, ,0.03994388781475736, ,0.008801144563303387, ,0.001049725114946419, ,0.25773076421149455,-0.17801671548374917,0.11671535902,1.6873749752199676,0.5673147470261087,-1.3531504399000918, ,0.11876963899683453,0.10138562132315254,0.03645036961098399,-0.046639106371050634,0.12162266462470084,-0.10380555217940016, ,1.577078104019165
0.02256916806686098,0.019824471634359412,-0.1046745599760018, ,0.023498458281027375,0.019294742546572617,-0.105527858531555, ,0.00136832438898897, ,0.021022530390502683,-0.004611916750242086,-0.03364963021531068,-0.0029787058601575133,-0.008284358704364867,0.010166320986815669, ,0.03994388781475736, ,0.008801144563303387, ,0.001052000824046723, ,0.25773076421149455,-0.17801671548374917,0.11671535902,1.6873749752199676,0.5673147470261087,-1.3531504399000918, ,0.11876963899683453,0.10138562132315254,0.03645036961098399,-0.046639106371050634,0.12162266462470084,-0.10380555217940016, ,1.5823521614074707
0.02279012095127783,0.019778536299901762,-0.10503117968330716, ,0.02361158947011953,0.019273638768682246,-0.1056982675582664, ,0.0011724923357519959, ,0.02080374942904515,-0.004074958944683202,-0.034002055499752555,0.027123735483192413,0.02131131448549807,-0.03631167620464717, ,0.04006920337261028, ,0.034493821222099166, ,0.0010528553737751292, ,0.25898184693711895,-0.1769587010799804,0.11710294973000002,1.687165285276483,0.5688177485235285,-1.3543760368407523, ,0.11615292724415029,0.09864546939549977,0.036957799350348035,0.0017035964336271203,0.14046823315085594,-0.11860773455268933, ,1.5875701904296875
0.02279012095127783,0.019778536299901762,-0.10503117968330716, ,0.023724834137195564,0.019253197880772305,-0.10586815430242992, ,0.0013602189925146612, ,0.02080374942904515,-0.004074958944683202,-0.034002055499752555,0.027123735483192413,0.02131131448549807,-0.03631167620464717, ,0.04006920337261028, ,0.034493821222099166, ,0.0010550199063014637, ,0.25898184693711895,-0.1769587010799804,0.11710294973000002,1.687165285276483,0.5688177485235285,-1.3543760368407523, ,0.11615292724415029,0.09864546939549977,0.036957799350348035,0.0017035964336271203,0.14046823315085594,-0.11860773455268933, ,1.592947006225586
0.02299501869268909,0.01973734413068065,-0.10536308089382643, ,0.023838190647703893,0.019233432033367096,-0.1060375133388299, ,0.0011915223331586304, ,0.020873719201494403,-0.004280312910640316,-0.03345028579796284,0.014193476883148133,0.006953829025028202,-0.03400877915210116, ,0.03966049485169373, ,0.015804070515722534, ,0.0010559744687270384, ,0.2600784750052588,-0.1760088049364508,0.11745165174000001,1.6873749752199676,0.5700474770214176,-1.3553787979740202, ,0.11658100928559063,0.09916085847280122,0.03645036961098399,0.0,0.1279897809921942,-0.10803263016785634, ,1.5982069969177246
0.02299501869268909,0.019694859400657024,-0.10568939084786447, ,0.023951657391324686,0.019214353195119237,-0.10620633928521668, ,0.0013783184802710468, ,0.02082510483951143,-0.003994720268046947,-0.03257488091338781,-0.010158965206908049,-0.02038223087334756,-0.012770917599166655, ,0.0388685688972206, ,0.02277286171583601, ,0.001058212968807205, ,0.2612677758678894,-0.1750280178614243,0.11781850181000002,1.6869555953329984,0.5712772055193065,-1.3564632378474284, ,0.11544640092271385,0.09331066033281296,0.035476194922048995,-0.018233991349096455,0.10059553055939821,-0.082028909957428, ,1.604722023010254
0.02320065689468303,0.019694859400657024,-0.10568939084786447, ,0.02406523278182958,0.019195973153595683,-0.10637462680232024, ,0.001210754832912553, ,0.02082510483951143,-0.003994720268046947,-0.03257488091338781,-0.010158965206908049,-0.02038223087334756,-0.012770917599166655, ,0.0388685688972206, ,0.02277286171583601, ,0.001059264981663104, ,0.2612677758678894,-0.1750280178614243,0.11781850181000002,1.6869555953329984,0.5712772055193065,-1.3564632378474284, ,0.11544640092271385,0.09331066033281296,0.035476194922048995,-0.018233991349096455,0.10059553055939821,-0.082028909957428, ,1.6101751327514648
0.02340212511945014,0.019653784582735725,-0.10599581739507452, ,0.024178915256931038,0.01917830351605189,-0.10654237059385073, ,0.0010621702130802276, ,0.02010227542446904,-0.004269737404796257,-0.030072699162611367,-0.020277989469030117,-0.02854871716278936,0.057001498597550826, ,0.03642388460436441, ,0.03501716026014922, ,0.0010592848805084268, ,0.2624030176004004,-0.17413990358088846,0.11815294463,1.686326525502545,0.5722336610176646,-1.3572431631733035, ,0.11488733844851184,0.08794897271406003,0.03291076760330579,-0.09055183497856424,0.10443111751138615,-0.08515657392986191, ,1.6154570579528809
0.02340212511945014,0.019653784582735725,-0.10599581739507452, ,0.024292703278141425,0.019161355710217032,-0.10670956540651036, ,0.0012430011564984985, ,0.02010227542446904,-0.004269737404796257,-0.030072699162611367,-0.020277989469030117,-0.02854871716278936,0.057001498597550826, ,0.03642388460436441, ,0.03501716026014922, ,0.0010605346510933933, ,0.2624030176004004,-0.17413990358088846,0.11815294463,1.686326525502545,0.5722336610176646,-1.3572431631733035, ,0.11488733844851184,0.08794897271406003,0.03291076760330579,-0.09055183497856424,0.10443111751138615,-0.08515657392986191, ,1.620779037475586
0.0236076218450748,0.019612006079457244,-0.10629786546960023, ,0.02440659533062542,0.019145140985071665,-0.10687620602999853, ,0.0010912375776018664, ,0.020021244869302846,-0.0044976206254461115,-0.029045953842788016,-0.007249670757008783,-0.017233065596029273,0.021771205306780072, ,0.035563271391203535, ,0.018695336363537936, ,0.0010607421032995316, ,0.26358459573015675,-0.1732363438346042,0.11848479487000001,1.6861168355590603,0.5733267530157882,-1.3581345064028747, ,0.11615292724415029,0.08952541656459506,0.03192146597194389,-0.05455009858826833,0.11086310761036404,-0.09040143057251951, ,1.6260480880737305
0.0236076218450748,0.019612006079457244,-0.10629786546960023, ,0.024520589923056772,0.01912967041163038,-0.10704228729701956, ,0.0012729187974927648, ,0.020021244869302846,-0.0044976206254461115,-0.029045953842788016,-0.007249670757008783,-0.017233065596029273,0.021771205306780072, ,0.035563271391203535, ,0.018695336363537936, ,0.0010621661079585469, ,0.26358459573015675,-0.1732363438346042,0.11848479487000001,1.6861168355590603,0.5733267530157882,-1.3581345064028747, ,0.11615292724415029,0.08952541656459506,0.03192146597194389,-0.05455009858826833,0.11086310761036404,-0.09040143057251951, ,1.631296157836914
0.023808313386327634,0.019573571235233365,-0.1065927007846264, ,0.024634685588063834,0.019114954884524322,-0.1072078040839701, ,0.0011276400320153206, ,0.020126793836220146,-0.0033468108784870864,-0.029408457917350746,0.023943587395239618,0.003677605960950939,-0.030021423566203048, ,0.03579310506590143, ,0.024223917232120664, ,0.001062602600785592, ,0.26474300566129044,-0.17237912048556528,0.11881016366000001,1.6859071456155759,0.5745564815136771,-1.3591372675361426, ,0.11601093100057551,0.08194899961871396,0.03257425668711657,0.001053448298489648,0.12229383174230314,-0.09972241963985568, ,1.6366121768951416
0.023808313386327634,0.019573571235233365,-0.1065927007846264, ,0.024748880879674202,0.019101005119525002,-0.10737275130819579, ,0.0013101392149603077, ,0.020126793836220146,-0.0033468108784870864,-0.029408457917350746,0.023943587395239618,0.003677605960950939,-0.030021423566203048, ,0.03579310506590143, ,0.024223917232120664, ,0.0010642419161112522, ,0.26474300566129044,-0.17237912048556528,0.11881016366000001,1.6859071456155759,0.5745564815136771,-1.3591372675361426, ,0.11601093100057551,0.08194899961871396,0.03257425668711657,0.001053448298489648,0.12229383174230314,-0.09972241963985568, ,1.6421401500701904
0.024009077211432778,0.019543368645049485,-0.10688640905095907, ,0.024863174376847763,0.01908783165927215,-0.10753712393216867, ,0.001166372912069137, ,0.020522660571764127,-0.003124434643364416,-0.0301945731588767,0.02074395688904684,-0.0014808276366353476,-0.022339444285500738, ,0.03664224252186614, ,0.020796141459280344, ,0.0010649138305583437, ,0.26588597012667564,-0.17158367899952015,0.11913553245000001,1.6861168355590603,0.5756495735118006,-1.3600286107657138, ,0.11672440536097266,0.08048934822601424,0.03346388974789917,-0.006585197170797802,0.11910567895495054,-0.09712269481639695, ,1.6478149890899658
0.024009077211432778,0.019543368645049485,-0.10688640905095907, ,0.02497756468083767,0.01907544487071439,-0.10770091696068351, ,0.0013492011606821175, ,0.020522660571764127,-0.003124434643364416,-0.0301945731588767,0.02074395688904684,-0.0014808276366353476,-0.022339444285500738, ,0.03664224252186614, ,0.020796141459280344, ,0.0010667719176833358, ,0.26588597012667564,-0.17158367899952015,0.11913553245000001,1.6861168355590603,0.5756495735118006,-1.3600286107657138, ,0.11672440536097266,0.08048934822601424,0.03346388974789917,-0.006585197170797802,0.11910567895495054,-0.09712269481639695, ,1.6531710624694824
0.024212758514016854,0.019512382017277154,-0.10718948779618404, ,0.02509205041567936,0.019063854946735362,-0.10786412544157695, ,0.0011956030837695923, ,0.020313166588679016,-0.0028581546178983817,-0.0306803123036574,0.04939376181916859,0.03251708956345641,-0.026746603471890864, ,0.036906304986129276, ,0.05913609420001462, ,0.001067608483696883, ,0.2670366573249351,-0.17078823751347502,0.11947127156000001,1.6859071456155759,0.5768793020096895,-1.3609496931588412, ,0.11544640092271385,0.07914674024893309,0.03403592205128206,-0.0033282682449451953,0.14966112043115323,-0.12065110279060187, ,1.6584019660949707
0.024212758514016854,0.019512382017277154,-0.10718948779618404, ,0.02520663022804514,0.01905307190693388,-0.10802674446573246, ,0.0013783125524032607, ,0.020313166588679016,-0.0028581546178983817,-0.0306803123036574,0.04939376181916859,0.03251708956345641,-0.026746603471890864, ,0.036906304986129276, ,0.05913609420001462, ,0.0010696130260756337, ,0.2670366573249351,-0.17078823751347502,0.11947127156000001,1.6859071456155759,0.5768793020096895,-1.3609496931588412, ,0.11544640092271385,0.07914674024893309,0.03403592205128206,-0.0033282682449451953,0.14966112043115323,-0.12065110279060187, ,1.663680076599121
0.02442669418484601,0.019483367524145465,-0.10750781975989954, ,0.025321302787099275,0.019043105598404317,-0.10818876916708955, ,0.0012074134377400656, ,0.021392553193955628,-0.0023698897387742324,-0.03148461223877849,-0.03786166493096784,-0.06983184534372265,0.0244809001108835, ,0.038138412622399594, ,0.07943526520059849, ,0.0010704963620478416, ,0.26822595818756567,-0.17000824149317836,0.11982386244000001,1.6852780757851225,0.5779723940078131,-1.3619227151285531, ,0.11558701773260752,0.07277372818901133,0.034779064454148474,-0.0493336931166248,0.055338580489043915,-0.04378431363169837, ,1.6689441204071045
0.02442669418484601,0.019483367524145465,-0.10750781975989954, ,0.025436066784352635,0.01903396569651728,-0.10835019472264945, ,0.0013893849809099837, ,0.021392553193955628,-0.0023698897387742324,-0.03175120525506009,-0.014271934561342669,-0.04452472400188919,0.03185831975617931, ,0.038138412622399594, ,0.07943526520059849, ,0.0010725274997476005, ,0.2693998135844478,-0.16929002733587548,0.12017515703000001,1.6850683858416375,0.5786555765066402,-1.3624798046470352, ,0.11643796510241813,0.07087150228414546,0.03516293933774835,-0.05960465782514924,0.08378794043163204,-0.06705851837564185, ,1.6757090091705322
0.024650468396443737,0.01946206421686604,-0.1078363665647227, ,0.025550920933517494,0.019025661705699675,-0.10851101635248266, ,0.0012068198951788228, ,0.021441239256176137,-0.002149776046636263,-0.03175120525506009,-0.014271934561342669,-0.04452472400188919,0.03185831975617931, ,0.038373002398043275, ,0.04675582202689548, ,0.0010733774516174183, ,0.2693998135844478,-0.16929002733587548,0.12017515703000001,1.6850683858416375,0.5786555765066402,-1.3624798046470352, ,0.11643796510241813,0.07087150228414546,0.03516293933774835,-0.05960465782514924,0.08378794043163204,-0.06705851837564185, ,1.6811821460723877
0.024853528785808078,0.0194435525212606,-0.10812981443801623, ,0.02566586397036256,0.01901820296021545,-0.10867122931973745, ,0.0010648665528110457, ,0.02092032157992291,-0.0017733007113475113,-0.029301812808918255,0.030221001705240565,-0.009286444931376878,-0.03740314564669483, ,0.03604720078326665, ,0.031615271667371894, ,0.0010733239239519693, ,0.2705659462484557,-0.16861042684294372,0.12051608130000001,1.6848586958981533,0.5796120320049984,-1.3632597299729101, ,0.11862117694808846,0.06654764485166254,0.03297890583850932,0.013603818148414215,0.10947865359361106,-0.08807524955855733, ,1.6865341663360596
0.024853528785808078,0.0194435525212606,-0.10812981443801623, ,0.025780894652567665,0.019011598624945808,-0.10883082893064473, ,0.0012401664961800467, ,0.02092032157992291,-0.0017733007113475113,-0.029301812808918255,0.030221001705240565,-0.009286444931376878,-0.03740314564669483, ,0.03604720078326665, ,0.031615271667371894, ,0.0010743666900283949, ,0.2705659462484557,-0.16861042684294372,0.12051608130000001,1.6848586958981533,0.5796120320049984,-1.3632597299729101, ,0.11862117694808846,0.06654764485166254,0.03297890583850932,0.013603818148414215,0.10947865359361106,-0.08807524955855733, ,1.6918041706085205
0.0250736592564927,0.019424113991766873,-0.10843412801311281, ,0.025896011759578525,0.019005857696169668,-0.10898981053452687, ,0.001077026013030007, ,0.020695364158877308,-0.001581800188801992,-0.02880908993799449,0.02678415025082007,-0.012940360064225824,-0.01333608088268372, ,0.03550723662243083, ,0.02974598760179201, ,0.0010743832075625662, ,0.2718247517069543,-0.16790765815138928,0.12085959815000001,1.6850683858416375,0.5808417605028874,-1.364262491106178, ,0.1171567179734207,0.06263824525311602,0.0325077786122449,-0.010722598633005929,0.10842942364754171,-0.08728518649217014, ,1.697139024734497
0.0250736592564927,0.019424113991766873,-0.10843412801311281, ,0.026011214092461887,0.01900098900234416,-0.10914816952380477, ,0.001252157780039894, ,0.020695364158877308,-0.001581800188801992,-0.02880908993799449,0.02678415025082007,-0.012940360064225824,-0.01333608088268372, ,0.03550723662243083, ,0.02974598760179201, ,0.0010754805814667473, ,0.2718247517069543,-0.16790765815138928,0.12085959815000001,1.6850683858416375,0.5808417605028874,-1.364262491106178, ,0.1171567179734207,0.06263824525311602,0.0325077786122449,-0.010722598633005929,0.10842942364754171,-0.08728518649217014, ,1.702397108078003
0.02527301860087781,0.019411333937646134,-0.1087080574438938, ,0.026126500473759955,0.018997001204885,-0.10930590133400475, ,0.001121392098116767, ,0.021200008450500955,-0.0013536615747796825,-0.028987456479155006,0.028207115152589175,-0.01763498720507134,-0.0148315460030583, ,0.03593807717576516, ,0.03326580304345693, ,0.0010757622472130665, ,0.27295227070659106,-0.16732845318582246,0.12116941146000001,1.6850683858416375,0.5817982160012454,-1.3648790589517719, ,0.12027495761529881,0.06083137279389152,0.03284291035051547,-0.0088942921266807,0.10650233399606021,-0.08656585784386032, ,1.7076151371002197
