NicholasDascanio/dvrk_moveit_final/test/execution/third_experiment_notsharpbends/thirdexp_200vel4.0/thirdexp_200vel4.0_7.csv
Current Position (x),Current Position (y),Current Position (z), ,Planned Position (x),Planned Position (y),Planned Position (z), ,Position Error,,Cartesian linear Velocity(x),Cartesian linear Velocity(y),Cartesian linear Velocity(z),Cartesian Angular Velocity(x),Cartesian Angular Velocity(y),Cartesian Angular Velocity(z), ,Total Linear Velocity, ,Total Angular Velocity, ,MSE, ,Joint 1 Position,Joint 2 Position,Joint 3 Position,Joint 4 Position,Joint 5 Position,Joint 6 Position, ,Joint 1 Velocity,Joint 2 Velocity,Joint 3 Velocity,Joint 4 Velocity,Joint 5 Velocity,Joint 6 Velocity, ,Time Stamp
0.0077742861130548745,0.021086754020129623,-0.080184613612053, ,0.008107053347898192,0.020994092737094707,-0.0803353425948864, ,0.00037688111152581823, ,0.0014562152849281875,0.00028474845268954175,-0.0022559245918683437,0.3250171415247874,-0.013033785538428665,-0.11584408903253465, ,0.002700155625434194, ,0.3252783759341328, ,3.1406759293818186e-05, ,0.14687093380200172,-0.2501007041317607,0.09063918938000001,1.6978594723941938,0.4645640992024975,-1.2813709511210454, ,0.013791155581815255,0.003863995105604541,0.002383125601436266,0.0014817495449329528,0.0,-0.34779475882253674, ,0.05314898490905762
0.007916670872305178,0.021085876410107746,-0.08029303877871818, ,0.008326114720335662,0.020962514466017646,-0.0805179759970186, ,0.0004831761439852205, ,0.0034202219029128467,-0.00042436756467162157,-0.0017123755925235733,0.1721138046490982,-0.060144739871819584,-0.07295426490123312, ,0.0038484069255966882, ,0.18231991521778979, ,3.9093511614138126e-05, ,0.14803706646600961,-0.24976090388529487,0.09074289258000001,1.698069162337678,0.46073827720906524,-1.2921366356414412, ,0.03630334413101407,0.010801604680321524,0.0017762836420514305,0.0018156375126619155,-0.02521752225637525,-0.19524651905085422, ,0.10519194602966309
0.00815607496387824,0.021071583845390356,-0.08049390120940784, ,0.008544045765032107,0.02093076777209405,-0.08070032475334574, ,0.00046147718095095714, ,0.004986405664463563,-0.0005462925403648059,-0.003233447361788716,-0.04306555745783387,-0.026083816873147606,0.006916541565186133, ,0.005968069941925191, ,0.050348860379083454, ,4.1297951139437374e-05, ,0.15076319117061088,-0.24890368053625594,0.09096196559000001,1.698278852281163,0.46237791520625043,-1.2875111024555372, ,0.05804094284921761,0.018096289389487184,0.0035795082067415734,0.00873535317694913,0.030991954374465586,0.030845014064003036, ,0.1580948829650879
0.008441951644985572,0.021028144435090323,-0.08065050971284801, ,0.00876084456840046,0.02089886313930531,-0.08088239534139785, ,0.000414942519840881, ,0.005381272656496746,-0.0005431195416047876,-0.003792717831803966,0.013481558938883661,-0.03359023519506271,-0.009204777225078972, ,0.006605890007539962, ,0.03619470031782879, ,4.1344689435782785e-05, ,0.15406852084077896,-0.24782249793386452,0.09113437216,1.6986982321681319,0.463471007204374,-1.2889741968660926, ,0.061223833263529544,0.019494030722775425,0.004164395168627452,0.0035688127881894757,0.027859820511467813,-0.03139048894649764, ,0.2103278636932373
0.008686466330887366,0.02100238213459412,-0.08082914969923635, ,0.008976509281682801,0.02086681097263038,-0.08106419415779408, ,0.00039717798373149445, ,0.004555743552605388,-0.0006231791786806607,-0.00336698240911586,0.027382180931187612,-0.0031402182883291797,-0.0030954154315290124, ,0.005699098362823922, ,0.027561654576856127, ,4.183637137322297e-05, ,0.15640078616879477,-0.24705022464644205,0.09129900099,1.6989079221116163,0.4644274627027321,-1.289835800932108, ,0.05425782822096671,0.0183766346937395,0.00385126003868472,0.0,0.0510477206813902,-0.04197603307036489, ,0.25817203521728516
0.008870387180908277,0.020986499041749596,-0.08099504019693746, ,0.009191038120747423,0.020834621598258603,-0.08124572751859921, ,0.0004344282637018799, ,0.003971893780168129,-0.0005002214215254749,-0.00398943617492669,0.022956492872562878,0.002529764336101879,0.0076139799281283674, ,0.005651704403567558, ,0.023095459977963063, ,4.280138672893752e-05, ,0.15888750615429506,-0.2461466649001578,0.09151029626000001,1.6993273019985855,0.46620373719968283,-1.2909575187195994, ,0.045733465811311214,0.018643799913255557,0.0043343704816326545,-0.010145415564736677,0.05281097392437959,-0.04035001414310058, ,0.3053719997406006
0.009086162947161438,0.02095849436656246,-0.08119858452695557, ,0.009404429365883624,0.02080230526380612,-0.08142700165967501, ,0.0004217379940506276, ,0.004464165258316251,-0.0006058187448767155,-0.004021323401870154,-0.018476473316067818,-0.028108652987430732,-0.010094154432133087, ,0.006038777169893781, ,0.033637426148794114, ,4.333074199691129e-05, ,0.16125066241380775,-0.2451427096265086,0.09172807298,1.69953699194207,0.46770673869710266,-1.291611364479276, ,0.047710880622660025,0.02071985623547397,0.004270458852546917,0.012235933129318598,0.017285474810760135,0.0015327254305773854, ,0.3527719974517822
0.00930268898202135,0.020921048802855915,-0.08138508188022331, ,0.009616681361592223,0.020769872138528905,-0.08160802273702743, ,0.00041370064527164506, ,0.004838610241882862,-0.0005824259832867695,-0.004142176657060016,-0.023110259536088123,-0.048086845658776564,-0.009677975843565943, ,0.006396014114833876, ,0.05335193361085387, ,4.363489542382723e-05, ,0.16364470960481736,-0.24409241795561407,0.09192770164000001,1.69953699194207,0.4692097401945225,-1.2924285677192338, ,0.05005112951396138,0.020451927060015255,0.004380861254125413,0.008093966606726085,0.0,0.0044387640746605264, ,0.40085291862487793
0.009493742761353752,0.020899405587751677,-0.0815737157757476, ,0.009827792516374313,0.020737332313539227,-0.08178879682715069, ,0.0004290883868341139, ,0.004914971363410706,-0.0005731175174547123,-0.00434769886463838,-0.02170629146939558,-0.01559376835729928,-0.0017318371793120491, ,0.006586948656968459, ,0.026726928356659574, ,4.456523523130974e-05, ,0.16571440201510954,-0.2432197491408267,0.09212862659000001,1.699956371829039,0.47112265119123864,-1.2932533097097187, ,0.053674740700492524,0.02125827543872553,0.0048682186797066014,0.010040549458292204,0.037325835046011155,0.006050249300969755, ,0.44302988052368164
0.009684779384674408,0.02086672663968951,-0.08172359341180367, ,0.010037761302515859,0.02070469580201845,-0.08196932992736705, ,0.00045960489745067434, ,0.004800752133915412,-0.000674474635159198,-0.004261671278668237,-0.017887714649355242,0.016023571714907325,0.008777254475659335, ,0.0064547640678953, ,0.024015103257612972, ,4.566186305684375e-05, ,0.16798488548013155,-0.24231618939454244,0.09229973687000001,1.699956371829039,0.47358210818701657,-1.2941153296142862, ,0.05685856294695672,0.022487426909590234,0.004701538229043684,0.0075919048789966186,0.07290965079917858,0.004041852729706023, ,0.48531603813171387
0.009892405276016009,0.020841882369087968,-0.08190691791391175, ,0.010246586255871337,0.020671972539433894,-0.08214962795616362, ,0.00046175933267695186, ,0.005014252166253098,-0.0006588213366553017,-0.0043751470562168136,0.035402521208007465,0.020511874257035462,-0.004062191614263918, ,0.006687202860982222, ,0.04091546763531785, ,4.660759274529671e-05, ,0.17029398260952466,-0.24140490691538394,0.09250195811,1.700375751716008,0.4756316556834982,-1.2948064532880459, ,0.05886907044570147,0.022589131530223943,0.004945300068301771,0.004655781911019372,0.08139980088516482,-0.05249019010867272, ,0.5274689197540283
0.010095990158168257,0.020813160242193464,-0.08206564678300167, ,0.010454265975643745,0.02063917238375229,-0.08232969675352683, ,0.0004778658004157801, ,0.005087413917600453,-0.0006776829499348102,-0.00408746215348559,0.007236250139803579,-0.007816707524695723,-0.004638830269154395, ,0.006561126534811243, ,0.010651959043832572, ,4.7562184185782216e-05, ,0.17259535700604356,-0.24053223810059657,0.09267954984000001,1.7005854416594925,0.4776812031799798,-1.2960693281427895, ,0.056960949314808385,0.02168081826787087,0.0045641293753581665,0.006078417301941048,0.049580455642427905,-0.024524206316481365, ,0.5693719387054443
0.010298359063029623,0.020788441293455993,-0.08224184378949317, ,0.010660799124163088,0.020606305115655307,-0.08250954208127227, ,0.0004860028401148702, ,0.004885449545688139,-0.0005862046934448207,-0.004755845284773644,0.009836030229271825,0.014025659289407397,0.004292053415714714, ,0.006843194983250505, ,0.01713086707498219, ,4.8870453850862516e-05, ,0.17483494953956868,-0.2396595692858092,0.09287528963000001,1.7007951316029768,0.4797307506764614,-1.29692380929683, ,0.05501271974404103,0.022376076764553353,0.005300769224625625,0.0015824607536007154,0.0713444400892423,-0.02678400688918175, ,0.6063408851623535
0.010509905134145445,0.02076690721553821,-0.08244624253605398, ,0.010866184426662814,0.020573380438754823,-0.08268916962337435, ,0.0004726532739364018, ,0.005484655545824254,-0.000565264895798996,-0.005135770257405258,-0.01550974727321973,-0.01715634135392171,-0.0014444769261573159, ,0.007535058526356107, ,0.023127738876908673, ,4.992335785876868e-05, ,0.17715176940183602,-0.2387405640737765,0.09310214038,1.7010048215464617,0.4821902076722393,-1.29811254416196, ,0.058005465500287755,0.023236273643112336,0.005640513994334278,0.007100598197990036,0.04066366842556069,-0.0027717129334553017, ,0.642982006072998
0.010667370678790805,0.020745767364018373,-0.08259031608997848, ,0.011070420671054215,0.020540407979807503,-0.08286858498629202, ,0.0005310888358858199, ,0.0058258448507055175,-0.0008475226098970905,-0.004935289844697508,-0.019990762453418538,-0.03715533254347487,-0.002970308007787244, ,0.007682177337835486, ,0.04219181575800292, ,5.130981076620715e-05, ,0.17886621609991388,-0.2380223499164736,0.09326158405000001,1.701214511489946,0.4838298456694246,-1.2990411653056144, ,0.06059830240004519,0.025585586831617897,0.005365042613674639,0.0036728200775068597,0.023437049154694495,-0.0026630156864718355, ,0.6796529293060303
0.010895831374790527,0.020709746807435512,-0.08279733161221225, ,0.011273506707698807,0.020507397288929603,-0.08304779369929254, ,0.0004963015633579682, ,0.005683816119239455,-0.0006876776931837117,-0.005180438819822735,-0.017039784582020275,-0.017307466816994424,0.0021093201951878885, ,0.007721114728648649, ,0.024287911859440587, ,5.230352734587757e-05, ,0.1813683815511626,-0.23694116731408219,0.09349102738000001,1.701214511489946,0.486425939164968,-1.3002596393343002, ,0.05994753099082172,0.024514838945613737,0.005713347030129125,0.0036728200775068597,0.043352866911231504,-0.002848870976618177, ,0.7170138359069824
0.011076711662023434,0.020682457998017673,-0.0829603125090704, ,0.011475441449180033,0.020474357839813034,-0.08322680121477383, ,0.0005227880538786513, ,0.005838782832170395,-0.0010179364178815676,-0.005146134060065921,0.007223542537852405,0.010447990602371926,-0.0030476300010806776, ,0.00784922131655541, ,0.01270197113893197, ,5.375468630284552e-05, ,0.18333767843408985,-0.23608394396504326,0.09367250798000001,1.7016338913769151,0.4884754866614496,-1.3010324417482004, ,0.06464369315972122,0.028713144193183295,0.005758789414316704,0.008171818035955854,0.075984541244293,-0.028950991464441855, ,0.7493970394134521
0.011255610097351695,0.020655377775154513,-0.08312501103156165, ,0.011676223870072189,0.02044129902993944,-0.08340561290858409, ,0.0005490747383950017, ,0.005801529846139732,-0.000803368508494937,-0.005569311000486581,0.017355841018088666,0.014667067319531182,-0.004997949873887689, ,0.008082102111222818, ,0.02272329368385603, ,5.526499710669839e-05, ,0.18526063891977176,-0.23524988881462702,0.09385528487000001,1.7016338913769151,0.4903883976581658,-1.3018571837386852, ,0.06326462770564718,0.027363593298290304,0.006236809522317934,0.008171818035955854,0.07893871310948432,-0.03796320511810847, ,0.7810819149017334
0.011438834029109174,0.020625238397163917,-0.08327951925978214, ,0.011875853006709017,0.02040823018079608,-0.0835842340803404, ,0.0005752645257804574, ,0.006240828609050374,-0.0009220993521944207,-0.00504811267795581,-0.0038883435908902567,-0.015684600640091115,-0.004647676559825635, ,0.00807970609318168, ,0.016159390763320576, ,5.682701340887959e-05, ,0.18726082673419592,-0.23440811093133654,0.09402898773000001,1.7016338913769151,0.49243794515464734,-1.302875022373007, ,0.06664111064499352,0.02702846526871854,0.006520184821940238,0.006716312368534311,0.054525617012664,-0.01634277854647046, ,0.8131990432739258
0.011690898680960047,0.020593107337358616,-0.08350245990994155, ,0.01207432795695038,0.020375160538090315,-0.08376266995374558, ,0.0005120821065945001, ,0.006270149489771757,-0.000990069383849155,-0.005644021217863632,0.018047065085428148,0.012662037503752187,-0.0029984727470551893, ,0.008494114875407285, ,0.02204594625360625, ,5.788330986654145e-05, ,0.1899637832401745,-0.23331148286319667,0.09428046799,1.7020532712638843,0.49517067514995616,-1.303878199344827, ,0.06822210032959797,0.02953530705212287,0.006371524608000002,0.005340651622814571,0.08267066134012704,-0.04112197755165767, ,0.8446989059448242
0.011885221991936635,0.020567601110634583,-0.08367965913788952, ,0.012271647879948033,0.020342099271965754,-0.08394092567690356, ,0.0005181083386481958, ,0.0063769671223813445,-0.0008603256597703536,-0.005703988193501594,0.006559481406861477,0.006632750869602763,-0.00025144069785594774, ,0.008598915700970529, ,0.009328460451070043, ,5.890002700611852e-05, ,0.19203347565046666,-0.23246198224703196,0.09448009665000001,1.7020532712638843,0.4973568591462032,-1.3044357047018613, ,0.06841884755477344,0.02811761231362097,0.006464615064935065,0.005340651622814571,0.07657877294777818,-0.028103043809448336, ,0.8760809898376465
0.012021262135233558,0.020548158968200708,-0.08379758771667933, ,0.012467811995909918,0.020309055477216082,-0.08411900632263299, ,0.0005999059740695202, ,0.007143429212575621,-0.0007101324510409365,-0.007116018102905988,-0.038199066012074706,-0.04065517318271267,0.0003346381415177337, ,0.010107946510245585, ,0.05578540788113378, ,6.066537867686377e-05, ,0.19342356756782708,-0.2318750545485909,0.09461102194000001,1.7020532712638843,0.4981766781447959,-1.3044507822029152, ,0.06936910932636753,0.029832424256042368,0.007785342873900294,0.005340651622814571,0.028459404512488694,0.012991984035674215, ,0.9023070335388184
0.012225171802972827,0.020523545984396145,-0.08399162639213345, ,0.012662819585863972,0.020276038173501668,-0.08429691688878, ,0.0005882159345563536, ,0.007227823144996044,-0.0009667197347110507,-0.0066450026815928044,-0.027589411344426214,-0.03627745430942302,-0.000876967072507584, ,0.009865699929513154, ,0.045576631035521745, ,6.226587890816733e-05, ,0.1955087054438677,-0.23098694026805508,0.09482750237000001,1.7022629612073688,0.4999529526417466,-1.3052457850298445, ,0.07172860284086982,0.0314020322827501,0.00732696022079117,0.004024073238128044,0.035779373504830646,0.000600409219017454, ,0.9289188385009766
0.012441096726362875,0.02049975061024237,-0.0842138498851798, ,0.012856669991420417,0.020243056305563865,-0.08447466229852994, ,0.0005537293740108929, ,0.007786076400123462,-0.000853561851194662,-0.007829950775184417,-0.05198491118799318,-0.04153597910068582,0.006967280024286583, ,0.01107518318964456, ,0.06654072829212059, ,6.359046895991628e-05, ,0.19769423884727322,-0.23002932139165125,0.09507509376,1.7024726511508534,0.5021391366379937,-1.306293362827722, ,0.07483985927324195,0.033192354515030005,0.008582333793103449,0.0025514749060279993,0.0338432566139156,0.023999702303001268, ,0.954766035079956
0.012589605390790116,0.02048340296288855,-0.08436859250598042, ,0.013049362614533237,0.020210118743440423,-0.08465224740071767, ,0.0006054098353113831, ,0.007359962457626245,-0.0011220801670124166,-0.007244050550711887,-0.03492478223716005,-0.010922459011188707,0.020377402031767754, ,0.010387703290917562, ,0.03659290238852037, ,6.511949816476629e-05, ,0.19918472629199854,-0.22936516636446794,0.09524750033000001,1.7026823410943377,0.5036421381354135,-1.3068655298472582, ,0.07419620137487942,0.03419709605710659,0.008040793296314994,-0.009069347507393792,0.06766648004688629,0.005647599265153694, ,0.980942964553833
0.012745362692262306,0.020455884670784862,-0.0845075631182298, ,0.01324089691726132,0.02017723428268116,-0.08482967697013685, ,0.000653419880724576, ,0.007772546120368474,-0.0013396932429319333,-0.006839877015044479,-0.01245811831355144,-0.022587905486802645,0.00915554668493414, ,0.010439883560622037, ,0.025795700634495218, ,6.716607049844083e-05, ,0.20075244106546614,-0.2286315067414166,0.09540175884,1.7026823410943377,0.5047352301335369,-1.3068584069352833, ,0.07888357569282692,0.03560860846471699,0.007643383646833014,-0.008041963411323712,0.06024579527572199,-0.01994213176086531, ,1.0018658638000488
0.012899127716897075,0.02043064418305246,-0.08464912651696634, ,0.013431272421527961,0.020144411644562637,-0.08500695570784915, ,0.0007022455287183185, ,0.008124485922774455,-0.001584889161005973,-0.007281517605599368,-0.047765116649353886,-0.03710561654370202,0.014266472361007837, ,0.011024501975268, ,0.06048415600093159, ,6.937821971642325e-05, ,0.20233560130468214,-0.22791329258411372,0.09556120251000001,1.7026823410943377,0.5063748681307223,-1.3077053493387971, ,0.08028506054016141,0.03937632429812066,0.008020549607250755,-0.0072520690994097095,0.04637985039385947,0.012280858825291459, ,1.0232000350952148
0.013065203432720794,0.02040052296816864,-0.0848018161329254, ,0.013620488708880107,0.020111659476303275,-0.08518408824149042, ,0.0007334274468812328, ,0.009256840384814238,-0.0011411385979371669,-0.009697366365623076,0.005547629499012069,-0.009185392596497468,0.005365745872604504, ,0.013454746583966103, ,0.010730682385254464, ,7.165779255650095e-05, ,0.2049304395504216,-0.22668537805711203,0.09584120115000001,1.7026823410943377,0.5089709616262656,-1.3087604658872016, ,0.09055051675426601,0.04129544889402558,0.010799194250847459,-0.006297561973550262,0.08580226732872215,-0.042205252148938936, ,1.044693946838379
0.013342547176539555,0.020364689846847587,-0.08509150401183217, ,0.013808545420247674,0.020078986351280078,-0.08536107912557954, ,0.000609468286681473, ,0.009530779355893106,-0.001422229083163884,-0.009831792402910277,-0.009003547384105994,-0.02687951043956954,0.0030895875599097383, ,0.013766721924613704, ,0.02834734299896431, ,7.324032744108658e-05, ,0.20671439084436746,-0.2258513229066958,0.09605379271000002,1.7026823410943377,0.5103373266239201,-1.3091395362629008, ,0.09124705919083728,0.04451076058089624,0.010850689046321525,-0.005797662456697253,0.06804746150200924,-0.03165826806957379, ,1.0656380653381348
0.013531481182592665,0.02033655381893724,-0.08528160270401465, ,0.013995442255700062,0.020046400769241614,-0.08553793284182266, ,0.0006042795786350193, ,0.009493063513522861,-0.0014280278153861667,-0.00905809447058433,-0.0005495945670768107,-0.018921980769028922,-0.0017406149005861262, ,0.013198734551135044, ,0.018929959044649534, ,7.509809843776174e-05, ,0.20854467853555866,-0.22498637682478265,0.09626508798000001,1.7024726511508534,0.5118403281213398,-1.3100384182429994, ,0.09294509457244934,0.042842863006081616,0.010152206195028681,0.0,0.07668853990187627,-0.03688062837954446, ,1.0873949527740479
0.013633444024136961,0.020321894130467325,-0.08537833994085639, ,0.014181178974204596,0.020013911156524983,-0.08571465379942018, ,0.0007127230171855204, ,0.009756665846042411,-0.0016311374620201578,-0.00868062188958256,-0.038456472047134864,-0.046057131838902934,0.002860641404306166, ,0.013160787751545723, ,0.06000132987066767, ,7.74191875895343e-05, ,0.20951774287771094,-0.22453845831807762,0.09637268005,1.7024726511508534,0.5123868741204016,-1.3102390536373631, ,0.09414379122864167,0.04387283474732814,0.009683168097264439,0.0,0.04975654795357798,-0.0003698134589632633, ,1.1029670238494873
0.013825416258140162,0.02029042206398801,-0.0855494951701137, ,0.014365755393382857,0.01998152586627066,-0.08589124633537049, ,0.0007100542943982711, ,0.009945526957290765,-0.0014623879405182832,-0.009485386057710762,-0.007400248938694159,0.007334102120662962,0.0013930916789178624, ,0.013821166145104556, ,0.010418860853576668, ,7.966236473333556e-05, ,0.21143298063051863,-0.22364262130466758,0.09656712355000001,1.7031017209813069,0.5141631486173524,-1.3111157352044327, ,0.09916085847280122,0.04493226399548806,0.010784571103588356,0.007292406525325838,0.10858759086392106,-0.027417933336794074, ,1.1188039779663086
0.014040333563888766,0.020261185148114307,-0.0857600230241844, ,0.014549171389266867,0.019949253178637664,-0.08606771471477487, ,0.0006714846703950246, ,0.010967329264033897,-0.001406254930053125,-0.011603978395426538,-0.03968894462167758,-0.02454924836285929,0.031224919914287812, ,0.016028480237238928, ,0.046667737356436666, ,8.166466832683101e-05, ,0.2135412867051819,-0.22268500242826375,0.09680564091,1.7033114109247913,0.5163493326135995,-1.3119999555220294, ,0.10314884952007694,0.04797620907910555,0.01292923012987013,-0.023106244830255432,0.08659680241755355,-0.005062967291976007, ,1.1351308822631836
0.01415552159382534,0.020247252752455223,-0.08588310948550171, ,0.014731426896054601,0.019917101301018206,-0.08624406313114065, ,0.000755615267395907, ,0.011538145148111072,-0.0014287669032312423,-0.01268138529485023,-0.002194699908529463,-0.015303190829979071,0.01899438338120493, ,0.017204293107218667, ,0.015459755149992874, ,8.438157626601562e-05, ,0.2135412867051819,-0.22268500242826375,0.09680564091,1.7033114109247913,0.5163493326135995,-1.3119999555220294, ,0.10314884952007694,0.04797620907910555,0.01292923012987013,-0.023106244830255432,0.08659680241755355,-0.005062967291976007, ,1.1457600593566895
0.014233209024215189,0.020238455862825664,-0.08596988905220176, ,0.014912521905866071,0.019885078368254733,-0.08642029570668475, ,0.0008883736822129562, ,0.011900394519698947,-0.0014275406176688789,-0.013669136327477033,0.006864981658960322,0.02171455007338385,0.024018884306254776, ,0.018179729092556014, ,0.022773870572696434, ,8.765253321911075e-05, ,0.21535612893062467,-0.22182777907922482,0.0970402694,1.7033114109247913,0.5181256071105501,-1.3126316008686771, ,0.1131072009040176,0.05422682374769759,0.015316164923076924,-0.01885633210379337,0.14389145933451847,-0.05464188653589467, ,1.1567609310150146
0.01439865122247311,0.020224518851475953,-0.08616936765760992, ,0.015092456468496943,0.019853192442852555,-0.08659641649263623, ,0.0008953321889939355, ,0.012581643220651221,-0.0010493026540275253,-0.014988082078719501,0.042033140096238965,0.011645336178858896,0.007580561568079997, ,0.019596973914100636, ,0.043616487303606025, ,9.089589863602839e-05, ,0.21691612097121804,-0.22110184218904771,0.09726452757000001,1.7033114109247913,0.5203117911067973,-1.3139242148869765, ,0.11615292724415029,0.05343296258922904,0.016767170021052633,-0.015543932639057038,0.13593575684841408,-0.09086784011895682, ,1.1673219203948975
0.014535462090635148,0.020213144155975533,-0.0863297416343143, ,0.01527123069117431,0.01982145151519801,-0.08677242946953916, ,0.0009437960997136513, ,0.014432694826852761,-0.0011261685938301505,-0.017659563513771365,-0.0034391680909139563,-0.005483447781334164,0.01549189486545074, ,0.022834866304923197, ,0.006472585203456253, ,9.429770355764264e-05, ,0.21815948096396817,-0.22052263722348087,0.09744341559000001,1.7033114109247913,0.5215415196046862,-1.3143552248392605, ,0.12928738631944245,0.06130293382330153,0.019616762955665026,-0.013881746809419074,0.1312865833676926,-0.05113921823489567, ,1.1779048442840576
0.01468030489103233,0.020205371523404344,-0.08651695764418856, ,0.01544884473830998,0.019789863503771772,-0.08694833854755302, ,0.0009743664069640723, ,0.014676259324001718,-0.000604109000606937,-0.01946706213426434,0.035015481658789274,0.04561557375704193,0.01663018229374676, ,0.024386964623939366, ,0.05750531913838105, ,9.777456638883196e-05, ,0.21945690008683788,-0.21991254132641713,0.09765211828,1.7033114109247913,0.5231811576018714,-1.314875452282212, ,0.13180130772009832,0.060482435665054665,0.021760671475409835,-0.01254848298494043,0.18647265123788087,-0.08576377729194973, ,1.188431978225708
0.014826750363319595,0.020199555254975465,-0.08670610373046253, ,0.015625298831254138,0.01975843625536418,-0.08712414756675609, ,0.001003506988775714, ,0.014676259324001718,-0.000604109000606937,-0.01946706213426434,0.035015481658789274,0.04561557375704193,0.01663018229374676, ,0.024386964623939366, ,0.05750531913838105, ,0.00010131824119584096, ,0.2207852101412045,-0.21931789089510184,0.09786470984000001,1.7033114109247913,0.5250940685985876,-1.3157818730128374, ,0.14121568684296246,0.06459968792271667,0.02185022156378601,-0.011489534434057825,0.19238655595602283,-0.08050526794610596, ,1.1991150379180908
0.014826750363319595,0.020199555254975465,-0.08670610373046253, ,0.015800593248049524,0.019727177545291918,-0.08729986029744537, ,0.0012345272478079322, ,0.015548731203618108,-0.001045438492960517,-0.019266970546761825,0.01540800097741263,0.03814182538449073,0.019951090003207442, ,0.024780478964998208, ,0.04113639122194336, ,0.00010626675214174529, ,0.2207852101412045,-0.21931789089510184,0.09786470984000001,1.7033114109247913,0.5250940685985876,-1.3157818730128374, ,0.14121568684296246,0.06459968792271667,0.02185022156378601,-0.011489534434057825,0.19238655595602283,-0.08050526794610596, ,1.2044479846954346
0.014985729442586599,0.020187010501575575,-0.08690312365792932, ,0.015974728323183744,0.019696095077611556,-0.08747548044043746, ,0.0012436675704509004, ,0.01616130879710974,-0.0015579090826796898,-0.019773412927966527,-0.026861770931902677,0.01119790477227503,0.022670192492562254, ,0.025585207475518082, ,0.0291023158201464, ,0.00011121197309091552, ,0.22221391572293603,-0.21863056766929587,0.09808507914,1.7033114109247913,0.5268703430955384,-1.3162501608792039, ,0.14400142876854444,0.07145854033017378,0.022031551203319507,-0.010568306092702526,0.16284329030275618,-0.033540207994140904, ,1.2097609043121338
0.014985729442586599,0.020187010501575575,-0.08690312365792932, ,0.01614770444734242,0.019665196485335653,-0.08765101162736931, ,0.0014770958648831142, ,0.01616130879710974,-0.0015579090826796898,-0.019773412927966527,-0.026861770931902677,0.01119790477227503,0.022670192492562254, ,0.025585207475518082, ,0.0291023158201464, ,0.0006292058064138066, ,0.22221391572293603,-0.21863056766929587,0.09808507914,1.7033114109247913,0.5268703430955384,-1.3162501608792039, ,0.14400142876854444,0.07145854033017378,0.022031551203319507,-0.010568306092702526,0.16284329030275618,-0.033540207994140904, ,1.2151100635528564
0.015165758244744393,0.02016995052011524,-0.08712110411736347, ,0.016319522067162393,0.01963448933064878,-0.08782645742099922, ,0.0014544459172809744, ,0.01889699366789372,-0.001871345922918382,-0.023467318176185702,0.04548141588417036,0.06010379682427553,0.01105089792886935, ,0.030187966603101548, ,0.07537253124440818, ,0.0006479612634789695, ,0.22385113509227164,-0.21783512618325074,0.09833007795000001,1.7033114109247913,0.5290565270917854,-1.3170527024566598, ,0.17098548028553293,0.08518576441514432,0.02632861408264463,-0.009767334282910633,0.24123409613760521,-0.11699183196576556, ,1.2204070091247559
0.015165758244744393,0.02016995052011524,-0.08712110411736347, ,0.016490181684982713,0.019603981105120846,-0.08800182131550524, ,0.001688218472492377, ,0.01889699366789372,-0.001871345922918382,-0.023467318176185702,0.04548141588417036,0.06010379682427553,0.01105089792886935, ,0.030187966603101548, ,0.07537253124440818, ,0.0006710780903459342, ,0.22385113509227164,-0.21783512618325074,0.09833007795000001,1.7033114109247913,0.5290565270917854,-1.3170527024566598, ,0.17098548028553293,0.08518576441514432,0.02632861408264463,-0.009767334282910633,0.24123409613760521,-0.11699183196576556, ,1.225667953491211
0.015376114148479956,0.02015319044990921,-0.08739641693442929, ,0.016659683858598288,0.01957367922992449,-0.08817710673678684, ,0.001610236324992862, ,0.021366097590547722,-0.0010892179343655855,-0.029114676138791682,0.09946307335589015,0.1011432477381877,0.004578124193138635, ,0.036129778419249664, ,0.1418549914684616, ,0.0006914945737078239, ,0.2257277591807082,-0.21689295277259535,0.09863859497000001,1.7033114109247913,0.5319258935868597,-1.3185756910328792, ,0.18791473575934806,0.09115940591591815,0.03264100721311476,-0.009084051523574357,0.30100202745029264,-0.17482974263854384, ,1.23164701461792
0.015376114148479956,0.02015319044990921,-0.08739641693442929, ,0.016828029201010297,0.01954359105604827,-0.08835231704276221, ,0.001842122080067089, ,0.021366097590547722,-0.0010892179343655855,-0.029114676138791682,0.09946307335589015,0.1011432477381877,0.004578124193138635, ,0.036129778419249664, ,0.1418549914684616, ,0.0007159760100133402, ,0.22765071966639008,-0.2159893930263111,0.09898081553000002,1.7031017209813069,0.5350685330814648,-1.3203215154164911, ,0.20765195089380914,0.09423728059431061,0.03765676482269504,0.0,0.30488275088391725,-0.14843448104029708, ,1.237062931060791
0.015596469038891192,0.02014557095689568,-0.08770125720805114, ,0.01699521838017918,0.019513723864513655,-0.0885274555236695, ,0.0017430817894280861, ,0.024309339754921236,-0.0003083542898909069,-0.03356565004393728,0.07356484177528817,0.0873115654501662,0.0039375936952523475, ,0.041445047286260334, ,0.1141711557282995, ,0.0007373740470844807, ,0.22765071966639008,-0.2159893930263111,0.09898081553000002,1.7031017209813069,0.5350685330814648,-1.3203215154164911, ,0.20765195089380914,0.09423728059431061,0.03765676482269504,0.0,0.30488275088391725,-0.14843448104029708, ,1.2423620223999023
0.015854570326816565,0.020139125307590117,-0.08805776487539348, ,0.017161252118775193,0.01948408486658919,-0.0887025254023654, ,0.0015975642152739914, ,0.026620124103284747,-0.0009849284956543265,-0.03736049434739659,-0.009671387021873944,0.04731216968895881,0.014520849406228086, ,0.04588472108771814, ,0.04828979539253903, ,0.0007549289484761033, ,0.22981308487117297,-0.21496226955403921,0.09937877656,1.7031017209813069,0.537937899576539,-1.321354431551867, ,0.21865654736974832,0.11008925934857398,0.04148128,0.0,0.27474870055927547,-0.07957019146443232, ,1.247628927230835
0.015854570326816565,0.020139125307590117,-0.08805776487539348, ,0.0173261311939303,0.01945468120400618,-0.08887752983462327, ,0.0018182325772387784, ,0.026620124103284747,-0.0009849284956543265,-0.03736049434739659,-0.009671387021873944,0.04731216968895881,0.014520849406228086, ,0.04588472108771814, ,0.04828979539253903, ,0.0007761950210513569, ,0.22981308487117297,-0.21496226955403921,0.09937877656,1.7031017209813069,0.537937899576539,-1.321354431551867, ,0.21865654736974832,0.11008925934857398,0.04148128,0.0,0.27474870055927547,-0.07957019146443232, ,1.2528438568115234
0.01613544919876664,0.020124062162023865,-0.08844925856366948, ,0.017489856436988947,0.019425519949173728,-0.08905247190943247, ,0.001638977281901467, ,0.027917172916977543,-0.0017678997769957842,-0.03781436535925595,-0.004743260999815942,0.057694864406381705,0.014816151783239579, ,0.04703637146742107, ,0.05788884681150284, ,0.000793112320283712, ,0.23195228187733316,-0.21385791875302512,0.09978321904000001,1.7031017209813069,0.5406706295718479,-1.3221125723032654, ,0.22921966560017099,0.11891847313091576,0.04213971301587302,0.0,0.2985400620764104,-0.09258116603814598, ,1.2580649852752686
0.01613544919876664,0.020124062162023865,-0.08844925856366948, ,0.017652428733259694,0.019396608105394432,-0.08922735464929814, ,0.0018536045508813423, ,0.027917172916977543,-0.0017678997769957842,-0.03781436535925595,-0.004743260999815942,0.057694864406381705,0.014816151783239579, ,0.04703637146742107, ,0.05788884681150284, ,0.0008135064016413587, ,0.23195228187733316,-0.21385791875302512,0.09978321904000001,1.7031017209813069,0.5406706295718479,-1.3221125723032654, ,0.22921966560017099,0.11891847313091576,0.04213971301587302,0.0,0.2985400620764104,-0.09258116603814598, ,1.2633788585662842
0.016418229501540635,0.020100108635560488,-0.08881892166795033, ,0.017813849021765128,0.019367952607078683,-0.08940218101053748, ,0.0016804754553367014, ,0.029332709136519152,-0.002942463356328457,-0.0360086287366156,0.002881232040643008,0.05234003500407077,0.013575052762228776, ,0.046536945101525395, ,0.052418701086766877, ,0.0008298643083148557, ,0.234493060992953,-0.21254505416440694,0.10022655022000002,1.7026823410943377,0.5439499055662184,-1.3231530271891683, ,0.2503877085975482,0.12720769645907612,0.040531327022900764,-0.004484425990372168,0.3134782130540949,-0.10838961963533547, ,1.2687718868255615
0.016418229501540635,0.020100108635560488,-0.08881892166795033, ,0.01797411829499338,0.01933956031996088,-0.08957695388357943, ,0.0018904593404473983, ,0.029332709136519152,-0.002942463356328457,-0.0360086287366156,0.002881232040643008,0.05234003500407077,0.013575052762228776, ,0.046536945101525395, ,0.052418701086766877, ,0.0008495049570580509, ,0.234493060992953,-0.21254505416440694,0.10022655022000002,1.7026823410943377,0.5439499055662184,-1.3231530271891683, ,0.2503877085975482,0.12720769645907612,0.040531327022900764,-0.004484425990372168,0.3134782130540949,-0.10838961963533547, ,1.274096965789795
0.01671086155322858,0.02006421604702744,-0.08916699876010672, ,0.018133237598648363,0.01931143804131396,-0.08975167609326293, ,0.0017122137496167447, ,0.0305542173261756,-0.004382332360247285,-0.03467036993084561,-0.020140342608877194,0.0183015726459711,0.012251309069722278, ,0.046419818875912504, ,0.02721269679671163, ,0.000865190571468209, ,0.23698750371132754,-0.21124763504153724,0.10061802980000001,1.7024726511508534,0.5468192720612927,-1.3241042645844037, ,0.26287241428939273,0.13853568110725661,0.039137129041769046,-0.00858078033237873,0.29199814071612734,-0.09860342474067757, ,1.2794489860534668
0.01671086155322858,0.02006421604702744,-0.08916699876010672, ,0.01829120803140028,0.019283592500164932,-0.08992635039913417, ,0.0019192402206809778, ,0.0305542173261756,-0.004382332360247285,-0.03467036993084561,-0.020140342608877194,0.0183015726459711,0.012251309069722278, ,0.046419818875912504, ,0.02721269679671163, ,0.0008840128866327227, ,0.23698750371132754,-0.21124763504153724,0.10061802980000001,1.7024726511508534,0.5468192720612927,-1.3241042645844037, ,0.26287241428939273,0.13853568110725661,0.039137129041769046,-0.00858078033237873,0.29199814071612734,-0.09860342474067757, ,1.284693956375122
0.017013843747001406,0.020014868985378093,-0.08948761274860012, ,0.01844803074463581,0.01925603035750968,-0.09010097949574532, ,0.001734631711295594, ,0.03223762709256767,-0.005573682134676127,-0.03217809332091899,-0.006133791059745606,-0.022407413584019646,-0.00226323452325061, ,0.04588856309438804, ,0.023231036948119805, ,0.0008989360239075099, ,0.2396286783543123,-0.20986526585705106,0.10098228729000001,1.7024726511508534,0.5495520020566015,-1.3251891202963642, ,0.28327445241334565,0.145102357123044,0.036787093579676675,-0.00858078033237873,0.2709795527949858,-0.12187217916293475, ,1.2899799346923828
0.017013843747001406,0.020014868985378093,-0.08948761274860012, ,0.018603706942209128,0.019228758206529254,-0.09027556601295272, ,0.0019407486913308376, ,0.03223762709256767,-0.005573682134676127,-0.03217809332091899,-0.006133791059745606,-0.022407413584019646,-0.00226323452325061, ,0.04588856309438804, ,0.023231036948119805, ,0.0009168983112768776, ,0.2396286783543123,-0.20986526585705106,0.10098228729000001,1.7024726511508534,0.5495520020566015,-1.3251891202963642, ,0.28327445241334565,0.145102357123044,0.036787093579676675,-0.00858078033237873,0.2709795527949858,-0.12187217916293475, ,1.2952148914337158
0.01736441174177593,0.019947545156178,-0.08982032334199114, ,0.01875823788019123,0.019201782572803968,-0.09045011251621293, ,0.001701630846822363, ,0.03329401209049379,-0.006938940047121991,-0.030972266703818967,-0.020570261809344972,-0.0669721663344585,-0.013711886881149429, ,0.04599914602285561, ,0.07005981896291805, ,0.0009301988627268012, ,0.2427100487711279,-0.20825893741921236,0.10136339655000001,1.7024726511508534,0.5521480955521448,-1.3263259155849094, ,0.29199058941067935,0.1558242061715448,0.035476194922048995,-0.00858078033237873,0.2339402687916584,-0.12066606716628789, ,1.3005108833312988
0.01736441174177593,0.019947545156178,-0.08982032334199114, ,0.018911624866620166,0.019175109914528723,-0.09062462150688262, ,0.0019072021901937561, ,0.03329401209049379,-0.006938940047121991,-0.030972266703818967,-0.020570261809344972,-0.0669721663344585,-0.013711886881149429, ,0.04599914602285561, ,0.07005981896291805, ,0.0009464822515179171, ,0.2427100487711279,-0.20825893741921236,0.10136339655000001,1.7024726511508534,0.5521480955521448,-1.3263259155849094, ,0.29199058941067935,0.1558242061715448,0.035476194922048995,-0.00858078033237873,0.2339402687916584,-0.12066606716628789, ,1.3058688640594482
0.01770495058032649,0.019871903653632065,-0.09012523217042866, ,0.01906386926125116,0.01914874662272877,-0.09079909542251469, ,0.0016803891677890806, ,0.03332707026402959,-0.0077048875546958,-0.029502188487866596,0.011474299008385551,-0.051594113746915395,-0.014897574355070404, ,0.04517120797795516, ,0.052854420452700224, ,0.000958513512440395, ,0.2427100487711279,-0.20825893741921236,0.10136339655000001,1.7024726511508534,0.5521480955521448,-1.3263259155849094, ,0.29199058941067935,0.1558242061715448,0.035476194922048995,-0.00858078033237873,0.2339402687916584,-0.12066606716628789, ,1.3112938404083252
0.01802401421716362,0.019793070728504225,-0.09039256284420635, ,0.01921497247530654,0.01912269902147436,-0.09097353663715614, ,0.0014850287358564554, ,0.03332707026402959,-0.0077048875546958,-0.029502188487866596,0.011474299008385551,-0.051594113746915395,-0.014897574355070404, ,0.04517120797795516, ,0.052854420452700224, ,0.0009670056934632348, ,0.24852526662541893,-0.20510806240652876,0.10202320816,1.7022629612073688,0.5563838270448734,-1.3286363682375306, ,0.2965529423702212,0.16532568215761462,0.031857623040000005,-0.01649922984230372,0.1342414846619032,-0.053624933735980075, ,1.3174259662628174
0.01802401421716362,0.019793070728504225,-0.09039256284420635, ,0.0193649359712256,0.01909697336809646,-0.09114794746164578, ,0.0016891502615064874, ,0.03411800687231681,-0.008804607612978351,-0.027690198994954073,-0.1029541222289769,-0.16969608832630886,-0.011356480079083556, ,0.04481413424956605, ,0.1984850054741914, ,0.0009784683056543975, ,0.24852526662541893,-0.20510806240652876,0.10202320816,1.7022629612073688,0.5563838270448734,-1.3286363682375306, ,0.2965529423702212,0.16532568215761462,0.031857623040000005,-0.01649922984230372,0.1342414846619032,-0.053624933735980075, ,1.3227779865264893
0.01838521997185796,0.019698290001437198,-0.09069703009703108, ,0.019513761262414046,0.019071575853401468,-0.09132233014391156, ,0.0014343556799019132, ,0.034898594951192664,-0.00897816212999177,-0.030015793116851496,-0.01692829726984436,-0.09274601218611009,-0.02369274919903573, ,0.04689847717392813, ,0.09427812928167804, ,0.000985591545877015, ,0.2516529734394799,-0.2033318338454571,0.10237320646,1.7018435813203996,0.5581601015418242,-1.3296764072848812, ,0.3031851168002261,0.17222675418960212,0.03470329307189543,-0.015464353000382017,0.2201784159955381,-0.14407431352533998, ,1.3279879093170166
0.01838521997185796,0.019698290001437198,-0.09069703009703108, ,0.019661449912993983,0.019046512601886483,-0.09149668686926737, ,0.001641044665632391, ,0.034898594951192664,-0.00897816212999177,-0.030015793116851496,-0.01692829726984436,-0.09274601218611009,-0.02369274919903573, ,0.04689847717392813, ,0.09427812928167804, ,0.0009956754400270978, ,0.2516529734394799,-0.2033318338454571,0.10237320646,1.7018435813203996,0.5581601015418242,-1.3296764072848812, ,0.3031851168002261,0.17222675418960212,0.03470329307189543,-0.015464353000382017,0.2201784159955381,-0.14407431352533998, ,1.3332090377807617
0.01872858660439697,0.019613321736970644,-0.09100400253265256, ,0.019808003537553298,0.019021789671954812,-0.09167101976071101, ,0.0013999868149569454, ,0.03510505594113427,-0.008370443829977123,-0.03145694477345586,0.029337553756070472,-0.05895438377740717,-0.010961034426839666, ,0.04787450947029349, ,0.06585044134017504, ,0.0010018013699502773, ,0.2546185028631821,-0.2016637235446246,0.10272838992000001,1.7014242014334306,0.5606195585376021,-1.3316002508112765, ,0.30221955910341014,0.16736673996202958,0.036533971376146786,-0.034578500191730734,0.2578696527595964,-0.1898368157728447, ,1.3384380340576172
0.01872858660439697,0.019613321736970644,-0.09100400253265256, ,0.019953423800895178,0.018997413056130483,-0.0918453308792211, ,0.0016085406578012298, ,0.03510505594113427,-0.008370443829977123,-0.03145694477345586,0.029337553756070472,-0.05895438377740717,-0.010961034426839666, ,0.04787450947029349, ,0.06585044134017504, ,0.0010108571802167094, ,0.2546185028631821,-0.2016637235446246,0.10272838992000001,1.7014242014334306,0.5606195585376021,-1.3316002508112765, ,0.30221955910341014,0.16736673996202958,0.036533971376146786,-0.034578500191730734,0.2578696527595964,-0.1898368157728447, ,1.343808889389038
0.01893330327885504,0.01956475819486605,-0.0911921184676715, ,0.0200977124177884,0.01897338868127472,-0.09201962222405415, ,0.0015460688895596356, ,0.0354425176384296,-0.008537879194363775,-0.03250292024000614,0.006314186423208327,-0.07766218634850387,0.01583018071183523, ,0.04884165498645745, ,0.0779182126543068, ,0.001018727940648223, ,0.25636384049275684,-0.20068293646959812,0.10294616664000002,1.701214511489946,0.562122560035022,-1.3324991327913747, ,0.30030677708376824,0.16915675857124915,0.03756795169811321,-0.06292702333879739,0.24234834138535397,-0.17612838905746822, ,1.3493390083312988
0.01893330327885504,0.01956475819486605,-0.0911921184676715, ,0.020240871152715174,0.018949722408799285,-0.09219389573304135, ,0.0017582833822526352, ,0.0354425176384296,-0.008537879194363775,-0.03250292024000614,0.006314186423208327,-0.07766218634850387,0.01583018071183523, ,0.04884165498645745, ,0.0779182126543068, ,0.001029446135454084, ,0.25636384049275684,-0.20068293646959812,0.10294616664000002,1.701214511489946,0.562122560035022,-1.3324991327913747, ,0.30030677708376824,0.16915675857124915,0.03756795169811321,-0.06292702333879739,0.24234834138535397,-0.17612838905746822, ,1.3546018600463867
0.01946383510582293,0.0194491287716766,-0.09170832844720554, ,0.020382901819622514,0.018926420034883623,-0.09236815328288663, ,0.0012463052843166666, ,0.035373447662296637,-0.007276446669380242,-0.03544132487175216,-0.07279343061041192,-0.08009445010746989,-0.0361377104387491, ,0.05059955517901963, ,0.10823099630093921, ,0.0010325441232949782, ,0.260704016368071,-0.19819621648409783,0.10353857117000001,1.7010048215464617,0.5652651995296272,-1.3339182422144245, ,0.2841225795163796,0.16418155978974183,0.04063472326530613,0.019057744613457,0.20616263387797046,-0.06898915142228987, ,1.359860897064209
0.01946383510582293,0.0194491287716766,-0.09170832844720554, ,0.020523806281669506,0.01890348729068792,-0.09254239668946256, ,0.0014549685055501363, ,0.035373447662296637,-0.007276446669380242,-0.03544132487175216,-0.07279343061041192,-0.08009445010746989,-0.0361377104387491, ,0.05059955517901963, ,0.10823099630093921, ,0.0010384937624816704, ,0.260704016368071,-0.19819621648409783,0.10353857117000001,1.7010048215464617,0.5652651995296272,-1.3339182422144245, ,0.2841225795163796,0.16418155978974183,0.04063472326530613,0.019057744613457,0.20616263387797046,-0.06898915142228987, ,1.3652338981628418
0.01980096132918782,0.01937912491100192,-0.09205037189325492, ,0.02066358645097838,0.018880929842570393,-0.09271662770810771, ,0.0011984228126078135, ,0.03387544429874152,-0.00747925200678437,-0.03442290199768549,-0.07527160133564809,-0.06683200251034814,-0.009939688531838924, ,0.04887147551445922, ,0.10065923800070535, ,0.001040714999288978, ,0.26319073635357126,-0.19672889723799517,0.10390282866000002,1.701214511489946,0.5670414740265779,-1.3344682088209319, ,0.2711341187384879,0.16138935639195712,0.03972272199501248,-0.007833748357951476,0.20921985160345577,-0.06910771405769839, ,1.3705458641052246
0.01980096132918782,0.01937912491100192,-0.09205037189325492, ,0.020802244288383023,0.018858753292301255,-0.09289084803392418, ,0.00140703742983552, ,0.031877437831867916,-0.0074407705291872845,-0.03238373889831559,-0.03170627936848136,-0.024385603762242164,-0.0014365654680540774, ,0.04604609270966326, ,0.03999887757272019, ,0.001045733114775917, ,0.26607903844853126,-0.19499900507416887,0.10432412291000001,1.7007951316029768,0.5696375675221212,-1.335605004109477, ,0.25509930526470637,0.1543039700137736,0.03730400824355972,-0.02153495620380888,0.24175512010334516,-0.11017615259456191, ,1.378964900970459
0.020137446763264122,0.019301031213108447,-0.09239337850976007, ,0.020939781803177602,0.018836963177277316,-0.09306505930207333, ,0.0011446640314588838, ,0.031877437831867916,-0.0074407705291872845,-0.03238373889831559,-0.03170627936848136,-0.024385603762242164,-0.0014365654680540774, ,0.04604609270966326, ,0.03999887757272019, ,0.0010470700190554163, ,0.26607903844853126,-0.19499900507416887,0.10432412291000001,1.7007951316029768,0.5696375675221212,-1.335605004109477, ,0.25509930526470637,0.1543039700137736,0.03730400824355972,-0.02153495620380888,0.24175512010334516,-0.11017615259456191, ,1.3849430084228516
0.020424997512447016,0.019231382411856998,-0.09268070646068759, ,0.021076201052867193,0.01881556497073912,-0.09323926308807394, ,0.0009533916830929507, ,0.029747873799172132,-0.007402980891425433,-0.029049746048696114,-0.07807024146177922,-0.07121551443860046,0.028617241271118917, ,0.04223301868377416, ,0.10567209381373714, ,0.001045820974575917, ,0.2683649673793017,-0.19360891315680845,0.10465467686,1.700375751716008,0.5715504785188374,-1.3363480673598214, ,0.23606204367778796,0.14356572096591644,0.03346388974789917,-0.04985028597687509,0.17942911680181023,-0.06317978303888988, ,1.390239953994751
0.020424997512447016,0.019231382411856998,-0.09268070646068759, ,0.02121150414291534,0.01879456408198379,-0.09341346090809771, ,0.0011603154800670248, ,0.029747873799172132,-0.007402980891425433,-0.029049746048696114,-0.07807024146177922,-0.07121551443860046,0.028617241271118917, ,0.04223301868377416, ,0.10567209381373714, ,0.0010473274812271157, ,0.2683649673793017,-0.19360891315680845,0.10465467686,1.700375751716008,0.5715504785188374,-1.3363480673598214, ,0.23606204367778796,0.14356572096591644,0.03346388974789917,-0.04985028597687509,0.17942911680181023,-0.06317978303888988, ,1.3955039978027344
0.02071815767950089,0.019156882092388184,-0.09295750963937924, ,0.021345693226494475,0.01877396585658203,-0.09358765421926724, ,0.000968249915025409, ,0.02889761582204658,-0.007572735051074079,-0.027087421321521754,-0.09191003747527184,-0.09745572048886496,0.0343488276873655, ,0.04032551190254123, ,0.13395916490482135, ,0.0010463004998478727, ,0.2706972327073175,-0.19218793030795114,0.10497486049000002,1.7001660617725234,0.5731901165160227,-1.3368682948027728, ,0.2286673290565561,0.13955432582128055,0.03129432518664047,-0.058425856294996754,0.1464072946918039,-0.049556784218867174, ,1.4007320404052734
0.02071815767950089,0.019156882092388184,-0.09295750963937924, ,0.02147877050423447,0.018753775576592562,-0.09376184441995247, ,0.0011781261271467825, ,0.02889761582204658,-0.007572735051074079,-0.027087421321521754,-0.09191003747527184,-0.09745572048886496,0.0343488276873655, ,0.04032551190254123, ,0.13395916490482135, ,0.0010479905719927305, ,0.2706972327073175,-0.19218793030795114,0.10497486049000002,1.7001660617725234,0.5731901165160227,-1.3368682948027728, ,0.2286673290565561,0.13955432582128055,0.03129432518664047,-0.058425856294996754,0.1464072946918039,-0.049556784218867174, ,1.4059979915618896
0.02101262304153635,0.01908321395537141,-0.0932445985903664, ,0.021610738223971006,0.018733998460776488,-0.09393603285006642, ,0.0009786595774889898, ,0.026610907641656995,-0.006634749971471794,-0.027217672055607413,0.005264868516070834,-0.03008808328739677,-0.020849389317582467, ,0.03863886624660895, ,0.03054499402018354, ,0.0010471129644673666, ,0.27300632983671064,-0.1907515019933454,0.10530671073000002,1.7001660617725234,0.5749663910129734,-1.3379083338501234, ,0.20629769904015388,0.13107312369954527,0.03135592818897638,-0.01523114490436624,0.18436431802176684,-0.12825849226815697, ,1.4115090370178223
0.02101262304153635,0.01908321395537141,-0.0932445985903664, ,0.02174159868049567,0.01871463966481374,-0.09411022079136357, ,0.0011901908606250548, ,0.026610907641656995,-0.006634749971471794,-0.027217672055607413,0.005264868516070834,-0.03008808328739677,-0.020849389317582467, ,0.03863886624660895, ,0.03054499402018354, ,0.0010489014381693377, ,0.27300632983671064,-0.1907515019933454,0.10530671073000002,1.7001660617725234,0.5749663910129734,-1.3379083338501234, ,0.20629769904015388,0.13107312369954527,0.03135592818897638,-0.01523114490436624,0.18436431802176684,-0.12825849226815697, ,1.4168949127197266
0.02113104940565715,0.019053918280095266,-0.09336744834983082, ,0.02187135421530513,0.01869570428151825,-0.09428440946773552, ,0.0012317411139170008, ,0.026009792648051536,-0.006223425785480218,-0.02757130820903905,0.016528558068023856,-0.023040044544532637,-0.023205684414412227, ,0.03841116215971394, ,0.02835526321186757, ,0.0010511587181168398, ,0.27391761231586914,-0.19016457429490433,0.10544800634000001,1.7001660617725234,0.575786210011566,-1.3384951625321615, ,0.19852916644031546,0.12703740503142005,0.031667617335984104,-0.014473152211468642,0.1834917260880414,-0.13585729142445022, ,1.4222948551177979
0.02113104940565715,0.019053918280095266,-0.09336744834983082, ,0.02200000721634895,0.01867719734105183,-0.09445860004550816, ,0.0014448592892235491, ,0.026009792648051536,-0.006223425785480218,-0.02757130820903905,0.016528558068023856,-0.023040044544532637,-0.023205684414412227, ,0.03841116215971394, ,0.02835526321186757, ,0.0010559599445937509, ,0.27391761231586914,-0.19016457429490433,0.10544800634000001,1.7001660617725234,0.575786210011566,-1.3384951625321615, ,0.19852916644031546,0.12703740503142005,0.031667617335984104,-0.014473152211468642,0.1834917260880414,-0.13585729142445022, ,1.4275689125061035
0.021530512664076906,0.018961947412933073,-0.09381804803369663, ,0.022127560117778656,0.018659123811139836,-0.0946327936337374, ,0.0010545037641282134, ,0.023641958552639904,-0.004649681722439991,-0.02852805783682408,-0.032790793814448306,-0.07278792129734964,-0.019364244961727693, ,0.03734182411540598, ,0.07983294276272063, ,0.0010559424002507926, ,0.2768676962738229,-0.18821844561059975,0.10596133718,1.6997466818855542,0.5785189400068749,-1.3406418418659494, ,0.1630531641898123,0.11008925934857398,0.03204992257545272,-0.01376418637460038,0.09556166071508433,-0.07342380404347283, ,1.4334499835968018
0.021774999009451942,0.018920275135521376,-0.09414462824074887, ,0.02225401539969808,0.01864148859728722,-0.09480699128450713, ,0.0008636570139596675, ,0.023756840662008085,-0.0033053646889600156,-0.03442343001405476,-0.02586612959228076,-0.04849489333453981,0.029249855822705097, ,0.0419557558375438, ,0.054961468353864035, ,0.0010536532885092316, ,0.2783581837185482,-0.18718359940545368,0.10629707629000001,1.6991176120551008,0.579475395505233,-1.3411767309714027, ,0.1480451506372399,0.10509074369708835,0.03783565681710214,-0.06426762785016768,0.11472947592285712,-0.08796601591211689, ,1.438688039779663
0.021774999009451942,0.018920275135521376,-0.09414462824074887, ,0.02237937558791089,0.018624296542992684,-0.09498119399322523, ,0.0010736464194702753, ,0.023756840662008085,-0.0033053646889600156,-0.03442343001405476,-0.02586612959228076,-0.04849489333453981,0.029249855822705097, ,0.0419557558375438, ,0.054961468353864035, ,0.0010538885018146558, ,0.2783581837185482,-0.18718359940545368,0.10629707629000001,1.6991176120551008,0.579475395505233,-1.3411767309714027, ,0.1480451506372399,0.10509074369708835,0.03783565681710214,-0.06426762785016768,0.11472947592285712,-0.08796601591211689, ,1.443908929824829
0.021987118828278335,0.018896358648886294,-0.09446466990000403, ,0.022503643253670103,0.018607552429964216,-0.09515540269892016, ,0.000909570400580884, ,0.022570202125301555,-0.0020742505268368833,-0.03518942901723498,0.024258071133917432,0.006529444727713985,0.02054361638183487, ,0.04185704783885349, ,0.02512038425138825, ,0.0010522103843584492, ,0.2797637211016571,-0.18619508959755293,0.10667948184,1.6989079221116163,0.5808417605028874,-1.3422909100083669, ,0.1363461804001017,0.09451886609409439,0.03885075980487805,-0.056051957011008555,0.15594211869558558,-0.12229326875537258, ,1.449357032775879
0.021987118828278335,0.018896358648886294,-0.09446466990000403, ,0.02262682101342596,0.018591260978333392,-0.09532961828453682, ,0.001118230379736362, ,0.022570202125301555,-0.0020742505268368833,-0.03518942901723498,0.024258071133917432,0.006529444727713985,0.02054361638183487, ,0.04185704783885349, ,0.02512038425138825, ,0.0010529692348800344, ,0.2797637211016571,-0.18619508959755293,0.10667948184,1.6989079221116163,0.5808417605028874,-1.3422909100083669, ,0.1363461804001017,0.09451886609409439,0.03885075980487805,-0.056051957011008555,0.15594211869558558,-0.12229326875537258, ,1.454880952835083
0.02221558473859424,0.018880871998987594,-0.09482905825467887, ,0.022748911528577033,0.01857542684687259,-0.09550384157723524, ,0.0009127248973618066, ,0.021213586506861733,-0.001005377164377554,-0.03458177766330773,0.04536483626155487,0.030430051364259834,-0.035182280461251624, ,0.04058234076641227, ,0.05462514930933166, ,0.001051375549226418, ,0.28111519935464635,-0.1852760843855202,0.10708392432000001,1.6986982321681319,0.5824813985000726,-1.3434645673724428, ,0.12292349942807097,0.08353604010428767,0.038382678361445786,0.009115348543567724,0.1559916248298794,-0.11766804322191839, ,1.4601540565490723
0.02221558473859424,0.018880871998987594,-0.09482905825467887, ,0.02286991750521678,0.01856005463320798,-0.09567807334868479, ,0.0011188841680493855, ,0.021213586506861733,-0.001005377164377554,-0.03458177766330773,0.04536483626155487,0.030430051364259834,-0.035182280461251624, ,0.04058234076641227, ,0.05462514930933166, ,0.0010521340730334176, ,0.28111519935464635,-0.1852760843855202,0.10708392432000001,1.6986982321681319,0.5824813985000726,-1.3434645673724428, ,0.12292349942807097,0.08353604010428767,0.038382678361445786,0.009115348543567724,0.1559916248298794,-0.11766804322191839, ,1.4654619693756104
0.02243149410044304,0.018871020112523205,-0.09519021592843546, ,0.02298984169388293,0.018545148874035196,-0.09585231431536209, ,0.0009253747203942153, ,0.021304422911538935,-0.0011612422749598375,-0.036248542132683165,-0.0022651280519286592,0.01707974034125175,-0.005439320135352023, ,0.04206166575350726, ,0.0172274708748248, ,0.001050725635781871, ,0.2823276684158996,-0.18441113830360706,0.10748318164000001,1.6989079221116163,0.5839843999974925,-1.3442817706124006, ,0.1170122583951551,0.08619159087962833,0.03992183338345865,-0.013913196477888027,0.1404431483561685,-0.07802105808481109, ,1.4707720279693604
0.02243149410044304,0.018871020112523205,-0.09519021592843546, ,0.023108686889306757,0.01853071404533509,-0.09602656513884697, ,0.0011286621701864618, ,0.021304422911538935,-0.0011612422749598375,-0.036248542132683165,-0.0022651280519286592,0.01707974034125175,-0.005439320135352023, ,0.04206166575350726, ,0.0172274708748248, ,0.0010515820812148885, ,0.2823276684158996,-0.18441113830360706,0.10748318164000001,1.6989079221116163,0.5839843999974925,-1.3442817706124006, ,0.1170122583951551,0.08619159087962833,0.03992183338345865,-0.013913196477888027,0.1404431483561685,-0.07802105808481109, ,1.476003885269165
0.022633463221391186,0.018862090261633692,-0.09554203621513102, ,0.023226455930162433,0.018516754562588902,-0.09620082642611982, ,0.0009512631811361591, ,0.019557836123842452,-0.0005325820872827665,-0.03496238985877541,0.0063472684450845895,0.055668956128888517,0.00945003625305647, ,0.040064464331421835, ,0.05602917323062019, ,0.0010504916583879457, ,0.2834242964840395,-0.18361569681756193,0.10787077235,1.6984885422246472,0.5854874014949123,-1.3450989738523582, ,0.10485849895963623,0.07628371507915659,0.038568550895883784,-0.020338533251574187,0.1686925518666289,-0.07686140446036907, ,1.481292963027954
0.022633463221391186,0.018862090261633692,-0.09554203621513102, ,0.02334315169881419,0.01850327478099245,-0.09637509872985701, ,0.0011516941597387658, ,0.019557836123842452,-0.0005325820872827665,-0.03496238985877541,0.0063472684450845895,0.055668956128888517,0.00945003625305647, ,0.040064464331421835, ,0.05602917323062019, ,0.0010515798573272018, ,0.2834242964840395,-0.18361569681756193,0.10787077235,1.6984885422246472,0.5854874014949123,-1.3450989738523582, ,0.10485849895963623,0.07628371507915659,0.038568550895883784,-0.020338533251574187,0.1686925518666289,-0.07686140446036907, ,1.486598014831543
0.022814685185679227,0.01885488924049548,-0.09587046277277742, ,0.023458777121066494,0.0184902789956721,-0.09654938254872814, ,0.0010043540780213212, ,0.01856980751562822,-0.00034413890339714997,-0.033833531046150875,0.027448399088911578,0.04848989666340213,0.059240993794526145, ,0.03859616568783963, ,0.055719299681539124, ,0.0010510774554196925, ,0.2843896380933176,-0.1829129281260075,0.10823243726000001,1.6976497824507093,0.5871270394920977,-1.3461092737361533, ,0.0978318985138874,0.06836955443693861,0.03730400824355972,-0.08234741644469593,0.16568057195331662,-0.10943431834400966, ,1.4919118881225586
0.022814685185679227,0.01885488924049548,-0.09587046277277742, ,0.02357333516591192,0.018477771441899493,-0.09672367832769233, ,0.0012023911217543602, ,0.01856980751562822,-0.00034413890339714997,-0.033833531046150875,0.027448399088911578,0.04848989666340213,0.059240993794526145, ,0.03859616568783963, ,0.055719299681539124, ,0.0010526702308547942, ,0.2843896380933176,-0.1829129281260075,0.10823243726000001,1.6976497824507093,0.5871270394920977,-1.3461092737361533, ,0.0978318985138874,0.06836955443693861,0.03730400824355972,-0.08234741644469593,0.16568057195331662,-0.10943431834400966, ,1.497208833694458
0.02301168447264633,0.01885235782381361,-0.09622653931560314, ,0.023686828845280124,0.01846575629530662,-0.09689798645829444, ,0.001027677931635844, ,0.018074411538412608,-0.0007493438255083465,-0.03299885897700464,-0.04133941268091721,0.01667518563262466,0.04122258647964851, ,0.03763204169870365, ,0.04457543861879565, ,0.0010524098944045969, ,0.2854167615655894,-0.18216382303720774,0.10862521313000001,1.6976497824507093,0.5887666774892829,-1.3469562161396669, ,0.0908974536000678,0.07135108387854945,0.03611975401360545,-0.049814082788252445,0.11961942826813571,-0.034132317156581785, ,1.502431869506836
0.02301168447264633,0.01885235782381361,-0.09622653931560314, ,0.023799261213787386,0.018454237672101637,-0.09707230727896232, ,0.0012223339258280732, ,0.018074411538412608,-0.0007493438255083465,-0.03299885897700464,-0.04133941268091721,0.01667518563262466,0.04122258647964851, ,0.03763204169870365, ,0.04457543861879565, ,0.0010541616885429831, ,0.2854167615655894,-0.18216382303720774,0.10862521313000001,1.6976497824507093,0.5887666774892829,-1.3469562161396669, ,0.0908974536000678,0.07135108387854945,0.03611975401360545,-0.049814082788252445,0.11961942826813571,-0.034132317156581785, ,1.5077638626098633
0.02317506907693841,0.018847662905829607,-0.09653057377969096, ,0.023910635368483913,0.01844321962928299,-0.09724664107530258, ,0.0011033514875352752, ,0.0173308073364174,-0.0004435818501703899,-0.03283882471728799,0.009666604258463921,0.043936541038488305,0.017366273721669254, ,0.03713410907242268, ,0.044986939075016455, ,0.0010546636252673942, ,0.286227648517383,-0.18150739074289865,0.10895835966000002,1.6976497824507093,0.5899964059871718,-1.347550583572232, ,0.08488098529380213,0.0682711809773171,0.03595668514672686,-0.03426143092913674,0.1386084686647574,-0.07875087740094162, ,1.513247013092041
0.023358785101026385,0.018844820336750348,-0.09687394942705006, ,0.024020954448603728,0.018432706164855334,-0.097420988080397, ,0.0009526581883358485, ,0.01752315973655368,-0.0001257847057324434,-0.03220793351066058,0.005516914852151494,0.04816035465398089,-0.008788221534218321, ,0.03666644146862502, ,0.04847495694707339, ,0.0010536332673185907, ,0.2871389309965415,-0.18080462205134423,0.10933558005,1.6974400925072246,0.5914994074845917,-1.3483677868121897, ,0.08770512158823549,0.06540106241107566,0.035476194922048995,0.0,0.13941254873768436,-0.06144149546236804, ,1.5196130275726318
0.023358785101026385,0.018844820336750348,-0.09687394942705006, ,0.024130221635313157,0.018422701218044457,-0.09759534847509997, ,0.0011374161346388303, ,0.01752315973655368,-0.0001257847057324434,-0.03220793351066058,0.005516914852151494,0.04816035465398089,-0.008788221534218321, ,0.03666644146862502, ,0.04847495694707339, ,0.001054471095991793, ,0.2871389309965415,-0.18080462205134423,0.10933558005,1.6974400925072246,0.5914994074845917,-1.3483677868121897, ,0.08770512158823549,0.06540106241107566,0.035476194922048995,0.0,0.13941254873768436,-0.06144149546236804, ,1.5253949165344238
0.0235365972358057,0.01883776397602125,-0.09719634515095271, ,0.024238440151458478,0.018413208669511672,-0.0977697223883335, ,0.0010007957548290511, ,0.01697768439344662,-0.0006403018202027253,-0.03042103315545835,-0.0007558488929930575,0.014018598444346577,-0.0014713800311018498, ,0.03484380880486421, ,0.014038032489260591, ,0.0010539396569703798, ,0.2880270452770773,-0.18011729882553823,0.10968946722000002,1.6970207126202554,0.5927291359824807,-1.3491255117250358, ,0.0843528369408629,0.06553656184977263,0.033393734842767295,-0.016037486729714903,0.10390397473531265,-0.062362733073237184, ,1.530663013458252
0.0235365972358057,0.01883776397602125,-0.09719634515095271, ,0.024345613261316318,0.018404232341570397,-0.09794410989738495, ,0.0011838955712432946, ,0.01697768439344662,-0.0006403018202027253,-0.03042103315545835,-0.0007558488929930575,0.014018598444346577,-0.0014713800311018498, ,0.03484380880486421, ,0.014038032489260591, ,0.0010552137345612906, ,0.2880270452770773,-0.18011729882553823,0.10968946722000002,1.6970207126202554,0.5927291359824807,-1.3491255117250358, ,0.0843528369408629,0.06553656184977263,0.033393734842767295,-0.016037486729714903,0.10390397473531265,-0.062362733073237184, ,1.5359299182891846
0.023700518383188787,0.01882764255950956,-0.09748389907868764, ,0.024451744270341184,0.018395775998400102,-0.09811851102820258, ,0.0010740490615421512, ,0.017733417468068818,-0.0013253324087913077,-0.030475288002666735,-0.053045273398280836,-0.014350437529223114,0.07355155532233548, ,0.03528418597525078, ,0.05495188623055135, ,0.001055396601813532, ,0.28884565496174514,-0.17948403472985183,0.11000446569000001,1.696391642789802,0.5935489549810733,-1.3495489829267924, ,0.0906370024436206,0.06846821180264846,0.03346388974789917,-0.08880358507953759,0.0944654585429976,-0.032511259729102196, ,1.5411038398742676
0.023700518383188787,0.01882764255950956,-0.09748389907868764, ,0.02455683652491479,0.018387843346262103,-0.0982929257556931, ,0.0012574689944203985, ,0.017733417468068818,-0.0013253324087913077,-0.030475288002666735,-0.053045273398280836,-0.014350437529223114,0.07355155532233548, ,0.03528418597525078, ,0.05495188623055135, ,0.0010573396055885982, ,0.28884565496174514,-0.17948403472985183,0.11000446569000001,1.696391642789802,0.5935489549810733,-1.3495489829267924, ,0.0906370024436206,0.06846821180264846,0.03346388974789917,-0.08880358507953759,0.0944654585429976,-0.032511259729102196, ,1.5463240146636963
0.023881439397030094,0.018818497703207412,-0.0977988468940896, ,0.024660893412092696,0.01838043803371309,-0.09846735400401586, ,0.0011163989392939467, ,0.017624725858444597,-0.0005093213605091242,-0.030957032369919025,0.01527278373806235,0.030162305716694534,-0.030791175695657896, ,0.03562622942420108, ,0.033808196904955824, ,0.0010579020754334111, ,0.289772382906652,-0.17879671150404586,0.11035187141000001,1.6959722629028329,0.5947786834789622,-1.3504700653199198, ,0.08877169462906527,0.06631512338118153,0.034181998969957085,0.015430876056158708,0.11915355814063634,-0.06969717731911332, ,1.551616907119751
0.023881439397030094,0.018818497703207412,-0.0977988468940896, ,0.02476391835935649,0.01837356365182293,-0.09864179564688214, ,0.0012989603646241731, ,0.017624725858444597,-0.0005093213605091242,-0.030957032369919025,0.01527278373806235,0.030162305716694534,-0.030791175695657896, ,0.03562622942420108, ,0.033808196904955824, ,0.0010601762102370976, ,0.289772382906652,-0.17879671150404586,0.11035187141000001,1.6959722629028329,0.5947786834789622,-1.3504700653199198, ,0.08877169462906527,0.06631512338118153,0.034181998969957085,0.015430876056158708,0.11915355814063634,-0.06969717731911332, ,1.5569250583648682
0.0239323991580821,0.018816363035695383,-0.09788714291080738, ,0.024865914834360348,0.018367223734388188,-0.09881625050785002, ,0.001391552570590954, ,0.01779273366008364,-0.0004746304261190992,-0.031206218716574367,0.04270550484291752,0.030852222117003184,-0.039401330321567445, ,0.035925405101776484, ,0.05268387001069919, ,0.0010632731855675075, ,0.29002723309150147,-0.17860364318219024,0.11044909316000001,1.6959722629028329,0.5950519564784932,-1.3505295436470317, ,0.08960995425729064,0.0663614975933362,0.034477947012987016,0.015359578351303827,0.12079783717374856,-0.09850253637985033, ,1.5622029304504395
0.0239323991580821,0.018816363035695383,-0.09788714291080738, ,0.024966886344679914,0.01836142175814758,-0.09899071836062112, ,0.0015795613564162307, ,0.01779273366008364,-0.0004746304261190992,-0.031206218716574367,0.04270550484291752,0.030852222117003184,-0.039401330321567445, ,0.035925405101776484, ,0.05268387001069919, ,0.0010680536315938846, ,0.29002723309150147,-0.17860364318219024,0.11044909316000001,1.6959722629028329,0.5950519564784932,-1.3505295436470317, ,0.08960995425729064,0.0663614975933362,0.034477947012987016,0.015359578351303827,0.12079783717374856,-0.09850253637985033, ,1.5674898624420166
0.02425645211271075,0.018812849272652435,-0.09845715392014062, ,0.025066836437559352,0.01835616114299559,-0.0991651989293356, ,0.0011690228983111115, ,0.019359997630117566,-0.00012892986369031999,-0.035001361869352356,0.018733204430588346,0.00800377555780833,-0.02344240703509155, ,0.039999018286168746, ,0.02037009669402464, ,0.001068979955141749, ,0.29163356152934017,-0.1774529559839308,0.11107909010000001,1.6961819528463176,0.5971015039749749,-1.3520374547221967, ,0.09124705919083728,0.06832033229551533,0.03847539014492755,-0.0008312143947178174,0.1019944071587915,-0.08137589568127276, ,1.5727980136871338
0.02425645211271075,0.018812849272652435,-0.09845715392014062, ,0.02516576869966322,0.01835144525220022,-0.09933969188887114, ,0.0013485635289623326, ,0.019359997630117566,-0.00012892986369031999,-0.035001361869352356,0.018733204430588346,0.00800377555780833,-0.02344240703509155, ,0.039999018286168746, ,0.02037009669402464, ,0.0010715216239946634, ,0.29163356152934017,-0.1774529559839308,0.11107909010000001,1.6961819528463176,0.5971015039749749,-1.3520374547221967, ,0.09124705919083728,0.06832033229551533,0.03847539014492755,-0.0008312143947178174,0.1019944071587915,-0.08137589568127276, ,1.5780129432678223
0.02445997168411044,0.018807674123622324,-0.09882221488972529, ,0.02526368675682405,0.018347277392617243,-0.09951419686513845, ,0.001156184294273153, ,0.020220497785898198,-0.00021595033465678337,-0.03574184680749212,-0.0008381024576865362,-0.012013028879209336,-0.002341333237528586, ,0.041065737281422175, ,0.012039806872480832, ,0.0010722843507539291, ,0.292591180405744,-0.17672701909375368,0.11147964371,1.6957625729593484,0.5980579594733328,-1.3528173800480716, ,0.09575877049290694,0.0690661874515799,0.039330398814814815,-0.022024633117728887,0.08987381086898497,-0.06876489535693753, ,1.5832509994506836
0.02445997168411044,0.018807674123622324,-0.09882221488972529, ,0.025360594273788117,0.01834366081490332,-0.09968871343537565, ,0.0013331350754219487, ,0.020220497785898198,-0.00021595033465678337,-0.03574184680749212,-0.0008381024576865362,-0.012013028879209336,-0.002341333237528586, ,0.041065737281422175, ,0.012039806872480832, ,0.001074613375081322, ,0.292591180405744,-0.17672701909375368,0.11147964371,1.6957625729593484,0.5980579594733328,-1.3528173800480716, ,0.09575877049290694,0.0690661874515799,0.039330398814814815,-0.022024633117728887,0.08987381086898497,-0.06876489535693753, ,1.5885789394378662
0.024662144840947184,0.018803441321715998,-0.09917978315934783, ,0.025456494953968827,0.018340598713734415,-0.09986324112844774, ,0.0011455698046591767, ,0.020259334459131632,-0.000758441750030442,-0.035687972076884976,-0.03509446573487155,-0.03809615907075962,0.06594521876693232, ,0.041044454163451476, ,0.05179653434726326, ,0.0010752413080864357, ,0.29354107654927364,-0.1760396958679477,0.11187241958000001,1.695133503128895,0.5988777784719255,-1.3534042087301097, ,0.09489694155847078,0.06998299524960973,0.039137129041769046,-0.09394462339953648,0.07510514260692207,-0.05631622856504442, ,1.594007968902588
0.024857828832025294,0.018795677936251566,-0.09951435949319101, ,0.025551392539190917,0.018338094228017937,-0.10003777942514125, ,0.0009820294756782764, ,0.020259334459131632,-0.000758441750030442,-0.035687972076884976,-0.03509446573487155,-0.03809615907075962,0.06594521876693232, ,0.041044454163451476, ,0.05179653434726326, ,0.0010744236604337326, ,0.2944755272270548,-0.17534464990926749,0.11224056594000001,1.6949238131854105,0.5995609609707527,-1.3539612982485918, ,0.09773114475640657,0.07024199967318341,0.036872248888888896,-0.04801918121186785,0.07986472217163701,-0.06012524083178444, ,1.599463939666748
0.024857828832025294,0.018795677936251566,-0.09951435949319101, ,0.025645290809441983,0.018336150441109707,-0.10021232775846044, ,0.001148225406438807, ,0.01993904249338325,-0.001002883351466033,-0.03340167438591804,-0.01834854534283738,-0.028205934959920513,0.022261756070776798, ,0.03891327591391509, ,0.03364821402847909, ,0.00107506541474682, ,0.2944755272270548,-0.17534464990926749,0.11224056594000001,1.6949238131854105,0.5995609609707527,-1.3539612982485918, ,0.09773114475640657,0.07024199967318341,0.036872248888888896,-0.04801918121186785,0.07986472217163701,-0.06012524083178444, ,1.6048078536987305
0.025056931858449937,0.018785488620598433,-0.09984020765149741, ,0.02573819358262047,0.018334770381028785,-0.100386885513925, ,0.0009829146217088032, ,0.01966613750594586,-0.0009922159011899654,-0.03171716507306022,0.0010355480556069065,-0.015803886787098778,-0.027619466609168412, ,0.03733255974439867, ,0.01583676418370227, ,0.0010742710113585614, ,0.29547948250070394,-0.17464188121771307,0.11260223085000001,1.6947141232419258,0.6005174164691107,-1.3546595448343262, ,0.09926458322015773,0.06947067464016894,0.03524073345132744,0.004962139509102014,0.08466791230566409,-0.06345701972174221, ,1.610029935836792
0.025056931858449937,0.018785488620598433,-0.09984020765149741, ,0.025830104714283052,0.01833395702067171,-0.10056145202986501, ,0.0011497262735348723, ,0.01966613750594586,-0.0009922159011899654,-0.03171716507306022,0.0010355480556069065,-0.015803886787098778,-0.027619466609168412, ,0.03733255974439867, ,0.01583676418370227, ,0.0010749159281292992, ,0.29547948250070394,-0.17464188121771307,0.11260223085000001,1.6947141232419258,0.6005174164691107,-1.3546595448343262, ,0.09926458322015773,0.06947067464016894,0.03524073345132744,0.004962139509102014,0.08466791230566409,-0.06345701972174221, ,1.6152780055999756
0.02525786495272032,0.01877338684232062,-0.10015965784589247, ,0.025921028097394508,0.018333713278028425,-0.10073602659771862, ,0.000982496380488597, ,0.019236212076448073,-0.0014805620819272809,-0.030657033567338655,-0.005851724796979735,-0.01933061168684574,-0.02048145054850232, ,0.036222612085235605, ,0.02019624101567689, ,0.0010741327116238692, ,0.2964988832401016,-0.17391594432753596,0.11295741431000002,1.6949238131854105,0.6013372354677035,-1.3553280522565045, ,0.09733019647022642,0.07129747675317114,0.03403592205128206,-0.0032877315703031995,0.08055542653726361,-0.060793341582749315, ,1.6205470561981201
0.02525786495272032,0.01877338684232062,-0.10015965784589247, ,0.026010967662075585,0.01833404201639691,-0.10091060846232663, ,0.0011507016968906538, ,0.019236212076448073,-0.0014805620819272809,-0.030657033567338655,-0.005851724796979735,-0.01933061168684574,-0.02048145054850232, ,0.036222612085235605, ,0.02019624101567689, ,0.0010747761484748506, ,0.2964988832401016,-0.17391594432753596,0.11295741431000002,1.6949238131854105,0.6013372354677035,-1.3553280522565045, ,0.09733019647022642,0.07129747675317114,0.03403592205128206,-0.0032877315703031995,0.08055542653726361,-0.060793341582749315, ,1.6258409023284912
0.025455473872870116,0.01875648538197733,-0.10047454636776677, ,0.026099927375352786,0.01833494604459919,-0.10108519682223147, ,0.0009828070549997687, ,0.019329965128417944,-0.001604439994638146,-0.03109791831059611,-0.02268505827088552,-0.03439373390361726,-0.007045442368970166, ,0.03665108869890166, ,0.041200870335732304, ,0.0010740097393625583, ,0.2974873930480023,-0.17319000743735885,0.11330611632000001,1.6945044332984414,0.6020204179665306,-1.3558851417749869, ,0.09527805377356505,0.07194612703447369,0.03440348060475163,-0.017199166288940436,0.06544693289379605,-0.049048562353580454, ,1.6310820579528809
0.025455473872870116,0.01875648538197733,-0.10047454636776677, ,0.02618791124090592,0.018336428117195654,-0.10125979082997151, ,0.0011530487713944668, ,0.019329965128417944,-0.001604439994638146,-0.03109791831059611,-0.02268505827088552,-0.03439373390361726,-0.007045442368970166, ,0.03665108869890166, ,0.041200870335732304, ,0.0010746629545033178, ,0.2974873930480023,-0.17319000743735885,0.11330611632000001,1.6945044332984414,0.6020204179665306,-1.3558851417749869, ,0.09527805377356505,0.07194612703447369,0.03440348060475163,-0.017199166288940436,0.06544693289379605,-0.049048562353580454, ,1.6362898349761963
0.0256402750117465,0.018741407385226984,-0.1007785843713993, ,0.02627492329881637,0.01833849093469986,-0.10143438959237787, ,0.000997597414916878, ,0.019052185823283364,-0.0013815453057327703,-0.03196424410913125,-0.031157409639089723,-0.03675673000760315,0.05655383931561855, ,0.03723717703511967, ,0.048185143030640205, ,0.0010740312697526092, ,0.2983832300614124,-0.17251812967730132,0.11364185543000001,1.693875363467988,0.6027036004653578,-1.3563605525533282, ,0.09037803957949597,0.06744629819365372,0.03524073345132744,-0.08476735634207791,0.06986071919376464,-0.05591478790656667, ,1.641563892364502
0.0256402750117465,0.018741407385226984,-0.1007785843713993, ,0.026360967625315847,0.01834113714379402,-0.10160899217087088, ,0.001170124447592412, ,0.019052185823283364,-0.0013815453057327703,-0.03196424410913125,-0.031157409639089723,-0.03675673000760315,0.05655383931561855, ,0.03723717703511967, ,0.048185143030640205, ,0.0010748125151009002, ,0.2983832300614124,-0.17251812967730132,0.11364185543000001,1.693875363467988,0.6027036004653578,-1.3563605525533282, ,0.09037803957949597,0.06744629819365372,0.03524073345132744,-0.08476735634207791,0.06986071919376464,-0.05591478790656667, ,1.6467859745025635
0.025836838133414197,0.018731648319330503,-0.1011191806086966, ,0.026446048332537407,0.018344369337545463,-0.10178359758175765, ,0.0009811075326078206, ,0.018916534471646894,-0.000999715727377602,-0.033885198909114046,0.023452912436285268,0.02595299521763783,0.025240521862983967, ,0.038820631281095815, ,0.03497931372952336, ,0.0010740568297582143, ,0.2992945125405709,-0.1718153609857469,0.11401777953000002,1.6936656735245033,0.6036600559637159,-1.3571404778792033, ,0.08682245339292843,0.0682711809773171,0.03739157633802818,-0.05517757232011551,0.12522242131930728,-0.10131007588599733, ,1.6526868343353271
0.025836838133414197,0.018731648319330503,-0.1011191806086966, ,0.026530169568259182,0.018348190055618684,-0.10195820479652572, ,0.0011539975330629633, ,0.018916534471646894,-0.000999715727377602,-0.033885198909114046,0.023452912436285268,0.02595299521763783,0.025240521862983967, ,0.038820631281095815, ,0.03497931372952336, ,0.0010746963553846522, ,0.2992945125405709,-0.1718153609857469,0.11401777953000002,1.6936656735245033,0.6036600559637159,-1.3571404778792033, ,0.08682245339292843,0.0682711809773171,0.03739157633802818,-0.05517757232011551,0.12522242131930728,-0.10131007588599733, ,1.6580610275268555
0.02590462889455605,0.018728213656749766,-0.1012395969504258, ,0.026613335515658282,0.018352601784493897,-0.10213281274214271, ,0.0012004931503120629, ,0.01915556229608662,-0.0005325423724486834,-0.034432810903187616,0.034772760881942144,0.028466958333967906,-0.034322170539704204, ,0.039406060891091166, ,0.044938449174877895, ,0.0010756947426459808, ,0.29959569912266565,-0.17157595626664593,0.11415000111000001,1.6934559835810188,0.6039333289632467,-1.3573633136865961, ,0.08619159087962833,0.06773514743645309,0.03801625661097852,0.008722369602091024,0.11594317677905835,-0.09381909937630002, ,1.6634860038757324
0.02590462889455605,0.018728213656749766,-0.1012395969504258, ,0.02669555039305519,0.018357606957679462,-0.10230742030134977, ,0.0013795480604032724, ,0.01915556229608662,-0.0005325423724486834,-0.034432810903187616,0.034772760881942144,0.028466958333967906,-0.034322170539704204, ,0.039406060891091166, ,0.044938449174877895, ,0.0010780872884550935, ,0.29959569912266565,-0.17157595626664593,0.11415000111000001,1.6934559835810188,0.6039333289632467,-1.3573633136865961, ,0.08619159087962833,0.06773514743645309,0.03801625661097852,0.008722369602091024,0.11594317677905835,-0.09381909937630002, ,1.6687679290771484
0.026224574041208027,0.018721486776840685,-0.10180097223734401, ,0.026776818453664857,0.0183632079559285,-0.1024820263129602, ,0.0009471917749418243, ,0.01890156143440743,-0.0004196858326045498,-0.03312643678045233,-0.042596113359610326,-0.06126901870112552,-0.020015868068168102, ,0.03814191886397526, ,0.07462091955385862, ,0.001077064667255771, ,0.3009471773756549,-0.17050249639712872,0.11476444257000001,1.6936656735245033,0.6042066019627776,-1.3575044707538484, ,0.07974532904073174,0.06263824525311602,0.03628430870159454,0.0,0.018942086489719435,-0.01677596866595603, ,1.6740729808807373
0.026402222593288397,0.01871964490731656,-0.10211943332094645, ,0.02685714398534425,0.018369407107453467,-0.10265662957215431, ,0.001120827507886465, ,0.018371133308015312,-0.00025360702374742746,-0.033175968123402386,-0.04778426174925332,-0.06341324641831046,-0.018927333145947203, ,0.03792370916021236, ,0.07940110391064312, ,0.0010774039140823656, ,0.30168083699870624,-0.16992329143156187,0.11511314458,1.6936656735245033,0.6044798749623086,-1.3577273065612414, ,0.07367774965719781,0.06052100864698392,0.03620184436363637,0.0,0.010526380593002153,-0.009773284621813384, ,1.6797430515289307
0.026402222593288397,0.01871964490731656,-0.10211943332094645, ,0.026936531310341218,0.018376206688141532,-0.10283122883077649, ,0.0009539855676701573, ,0.018371133308015312,-0.00025360702374742746,-0.033175968123402386,-0.04778426174925332,-0.06341324641831046,-0.018927333145947203, ,0.03792370916021236, ,0.07940110391064312, ,0.001076454542186887, ,0.30168083699870624,-0.16992329143156187,0.11511314458,1.6936656735245033,0.6044798749623086,-1.3577273065612414, ,0.07367774965719781,0.06052100864698392,0.03620184436363637,0.0,0.010526380593002153,-0.009773284621813384, ,1.6851019859313965
0.026579837274005324,0.018714338305771093,-0.10245803860789388, ,0.02701498478504258,0.01838360892176912,-0.10300582279763146, ,0.0007738234943000261, ,0.01575515019249056,-0.00027377860554937797,-0.030604184248420034,0.051945173555590744,0.057824388330042706,-0.011569893020836062, ,0.03442260602894605, ,0.07772987902957504, ,0.001074144381515995, ,0.3023990511560091,-0.16932091826737236,0.11547351320000002,1.693246293637534,0.6055729669604321,-1.3586186497908126, ,0.06549133302862027,0.055854585967316524,0.03374748203389831,-0.013244678094336541,0.1312601578264854,-0.10798725524044109, ,1.6903438568115234
0.026579837274005324,0.018714338305771093,-0.10245803860789388, ,0.027092508799723282,0.01839161598021755,-0.10318041013878054, ,0.000942763184117949, ,0.01575515019249056,-0.00027377860554937797,-0.030604184248420034,0.051945173555590744,0.057824388330042706,-0.011569893020836062, ,0.03442260602894605, ,0.07772987902957504, ,0.0010731490694144946, ,0.3023990511560091,-0.16932091826737236,0.11547351320000002,1.693246293637534,0.6055729669604321,-1.3586186497908126, ,0.06549133302862027,0.055854585967316524,0.03374748203389831,-0.013244678094336541,0.1312601578264854,-0.10798725524044109, ,1.6956348419189453
0.026732915480730177,0.018709702747127743,-0.10275660862476091, ,0.027169107778295086,0.018400229983688312,-0.10335498947783799, ,0.0008025563887323071, ,0.015529429196168268,-0.0004118641251626188,-0.030713177604172092,-0.0040680285742775955,0.005852914481277268,0.038538827032154936, ,0.03441848459420922, ,0.007125877869100503, ,0.001071114537980794, ,0.30303231525169555,-0.1687648815004282,0.11581184489000002,1.6926172238070805,0.6066660589585556,-1.359509993020384, ,0.059125820285651574,0.05388809855676932,0.03346388974789917,-0.0629691574106781,0.0773900056775893,-0.06389190948054854, ,1.7009458541870117
0.026732915480730177,0.018709702747127743,-0.10275660862476091, ,0.02724478617805426,0.018409453000917363,-0.10352955939626766, ,0.0009744816140139988, ,0.015529429196168268,-0.0004118641251626188,-0.030713177604172092,-0.0040680285742775955,0.005852914481277268,0.038538827032154936, ,0.03441848459420922, ,0.007125877869100503, ,0.0010703933967571612, ,0.30303231525169555,-0.1687648815004282,0.11581184489000002,1.6926172238070805,0.6066660589585556,-1.359509993020384, ,0.059125820285651574,0.05388809855676932,0.03346388974789917,-0.0629691574106781,0.0773900056775893,-0.06389190948054854, ,1.7062840461730957
0.02689739762641082,0.018711462720315687,-0.103086323134723, ,0.027319548489431293,0.018419287049391227,-0.10370411843367902, ,0.0008032739291432558, ,0.015641343660542914,0.0003420226454520482,-0.031873798108126496,-0.040179349852972016,-0.03768473375063753,0.0286833825525352, ,0.03550644472254039, ,0.05508617262521463, ,0.0010684147340340952, ,0.3036115202172624,-0.16821656746635827,0.11616962093000001,1.6926172238070805,0.6070759684578518,-1.3598442467314733, ,0.05263280175178634,0.04876512926951222,0.034477947012987016,-0.04762323842710808,0.023481717281687953,-0.019804772546002894, ,1.7116310596466064
0.02689739762641082,0.018711462720315687,-0.103086323134723, ,0.0273933992357386,0.018429734095561395,-0.1038786650881235, ,0.0009763167444944359, ,0.015641343660542914,0.0003420226454520482,-0.031873798108126496,-0.040179349852972016,-0.03768473375063753,0.0286833825525352, ,0.03550644472254039, ,0.05508617262521463, ,0.001067737542934539, ,0.3036115202172624,-0.16821656746635827,0.11616962093000001,1.6926172238070805,0.6070759684578518,-1.3598442467314733, ,0.05263280175178634,0.04876512926951222,0.034477947012987016,-0.04762323842710808,0.023481717281687953,-0.019804772546002894, ,1.7168798446655273
0.0270454310960046,0.01872061883908226,-0.10339381357982058, ,0.027466342972919285,0.018440796055059636,-0.1040531978163914, ,0.0008308159663993558, ,0.015032387090229311,0.0013793069275889658,-0.03228188582783507,-0.02375838449114043,-0.028622230537801066,-0.027360512114445706, ,0.03563699344546852, ,0.037197551747321, ,0.0010660081883612895, ,0.30407488418971584,-0.16779181715827593,0.11650147117000001,1.6924075338635962,0.6070759684578518,-1.3598442467314733, ,0.04469945433748034,0.042308043494636995,0.034855167439824954,0.01458603521023208,0.013974703593631796,-0.01196213252124549, ,1.722146987915039
0.0270454310960046,0.01872061883908226,-0.10339381357982058, ,0.027538384289295524,0.01845247479291301,-0.1042277150343072, ,0.0010051346755866235, ,0.015032387090229311,0.0013793069275889658,-0.03228188582783507,-0.02375838449114043,-0.028622230537801066,-0.027360512114445706, ,0.03563699344546852, ,0.037197551747321, ,0.0010655670759498789, ,0.30407488418971584,-0.16779181715827593,0.11650147117000001,1.6924075338635962,0.6070759684578518,-1.3598442467314733, ,0.04469945433748034,0.042308043494636995,0.034855167439824954,0.01458603521023208,0.013974703593631796,-0.01196213252124549, ,1.7274880409240723
0.027191692647446093,0.018734476614597134,-0.10372257288737724, ,0.027609527805317956,0.018464772123759406,-0.10440221511702724, ,0.0008421640528159985, ,0.014367005168337483,0.0013220687983898011,-0.032660595604798434,-0.03666851931935042,-0.03240010526337579,-0.004450976801885387, ,0.03570536666489914, ,0.04893168673077033, ,0.0010639598599561102, ,0.3044764662991755,-0.16735934411731934,0.11685535834,1.6926172238070805,0.6073492414573828,-1.360067082538866, ,0.037040180155531136,0.04167630283639472,0.03500837696703297,-0.009095822888774599,0.006308269217101555,-0.0056355901534855014, ,1.7328238487243652
0.027191692647446093,0.018734476614597134,-0.10372257288737724, ,0.0276797781733136,0.018477689812062235,-0.10457669639933492, ,0.0010167073896635082, ,0.014367005168337483,0.0013220687983898011,-0.032660595604798434,-0.03666851931935042,-0.03240010526337579,-0.004450976801885387, ,0.03570536666489914, ,0.04893168673077033, ,0.0010636223423111629, ,0.3044764662991755,-0.16735934411731934,0.11685535834,1.6926172238070805,0.6073492414573828,-1.360067082538866, ,0.037040180155531136,0.04167630283639472,0.03500837696703297,-0.009095822888774599,0.006308269217101555,-0.0056355901534855014, ,1.7380778789520264
0.02733259744454019,0.01875091379689983,-0.10405696432276144, ,0.027749140077235595,0.01849122957232642,-0.10475115717593829, ,0.0008502043158834941, ,0.013876188440103044,0.0020552133567041855,-0.033695317779200915,0.004878887697701,0.013752628482000755,-0.01290702230905407, ,0.036498588298839146, ,0.014590918392442675, ,0.0010621087392868533, ,0.3048239892785156,-0.1669654847407339,0.11721443067000001,1.6924075338635962,0.6077591509566791,-1.3604013362499554, ,0.032343879195116144,0.03682457957255366,0.03620184436363637,-0.0010759400487063162,0.047408996669087454,-0.03909035744936872, ,1.7433209419250488
0.02733259744454019,0.01875091379689983,-0.10405696432276144, ,0.02781761823240664,0.01850539306931025,-0.10492559570176405, ,0.0010247175537320863, ,0.013876188440103044,0.0020552133567041855,-0.033695317779200915,0.004878887697701,0.013752628482000755,-0.01290702230905407, ,0.036498588298839146, ,0.014590918392442675, ,0.0010618454210787212, ,0.3048239892785156,-0.1669654847407339,0.11721443067000001,1.6924075338635962,0.6077591509566791,-1.3604013362499554, ,0.032343879195116144,0.03682457957255366,0.03620184436363637,-0.0010759400487063162,0.047408996669087454,-0.03909035744936872, ,1.7485640048980713
0.027465779640150914,0.018773550898946497,-0.10439491714765414, ,0.027885217385276346,0.018520181918245913,-0.10510001019225707, ,0.0008586501406070916, ,0.013601791795041849,0.0027051908382520586,-0.034792496177082466,0.007393616631529574,0.01887749207684154,0.001365468399051184, ,0.037454566981068256, ,0.020272500849807487, ,0.0010604244750614372, ,0.30510973039486194,-0.166625684494268,0.11757739187,1.6921978439201113,0.6084423334555062,-1.3609584257684375, ,0.026867763748151408,0.031611239693028245,0.03730400824355972,-0.014732214905846572,0.049360330341748374,-0.0406332185378623, ,1.753800868988037
0.027465779640150914,0.018773550898946497,-0.10439491714765414, ,0.027951942314081157,0.018535597685612956,-0.10527439882408895, ,0.0010326973886106954, ,0.013601791795041849,0.0027051908382520586,-0.034792496177082466,0.007393616631529574,0.01887749207684154,0.001365468399051184, ,0.037454566981068256, ,0.020272500849807487, ,0.0010602319258499737, ,0.30510973039486194,-0.166625684494268,0.11757739187,1.6921978439201113,0.6084423334555062,-1.3609584257684375, ,0.026867763748151408,0.031611239693028245,0.03730400824355972,-0.014732214905846572,0.049360330341748374,-0.0406332185378623, ,1.7592129707336426
0.02752727150998068,0.018784357520796307,-0.10455276672035534, ,0.028017797824903216,0.01855164188709108,-0.10544875973378735, ,0.0010476526675961332, ,0.013294280518484556,0.002651889795774157,-0.03422143801775951,-0.006896643287434397,0.006069405483529294,0.021639024659925628, ,0.036808657052335464, ,0.009184467167836633, ,0.0010601451723447747, ,0.3052255713879753,-0.16648667530253197,0.11774590957000002,1.6917784640331426,0.6085789699552717,-1.361069843672134, ,0.024979452897728554,0.02999271224983274,0.03661795751724139,-0.03505459723704128,0.03774265902041958,-0.031140113441777053, ,1.7647268772125244
0.027721016985542492,0.01882995007847577,-0.10506227514755587, ,0.02808278875698506,0.01856831599119073,-0.10562309102054925, ,0.0007168302823147844, ,0.011655124829343423,0.0028085137952874005,-0.031886581395504814,-0.021748819583206118,-0.007793206760339802,0.024833996435776908, ,0.03406587379795285, ,0.023102213332927633, ,0.0010577937004952543, ,0.30552675797007006,-0.16607737046019808,0.11828905508000001,1.6917784640331426,0.6087156064550372,-1.3611812615758305, ,0.015164100600586573,0.024103871363594303,0.03389108834042554,-0.03505459723704128,0.013484039502549578,-0.01130293853258439, ,1.7707769870758057
0.027721016985542492,0.01882995007847577,-0.10506227514755587, ,0.02814691997874828,0.01858562141717774,-0.10579739074484863, ,0.0008840162870312033, ,0.011655124829343423,0.0028085137952874005,-0.031886581395504814,-0.021748819583206118,-0.007793206760339802,0.024833996435776908, ,0.03406587379795285, ,0.023102213332927633, ,0.0010566115412199886, ,0.30552675797007006,-0.16607737046019808,0.11828905508000001,1.6917784640331426,0.6087156064550372,-1.3611812615758305, ,0.015164100600586573,0.024103871363594303,0.03389108834042554,-0.03505459723704128,0.013484039502549578,-0.01130293853258439, ,1.7760059833526611
0.027836893284085604,0.018861519215401964,-0.10538550802901821, ,0.028210196388479564,0.018603559535864518,-0.1059716569291584, ,0.0007412617197405975, ,0.011546034907448348,0.0032894596140575333,-0.03243371997288797,-0.027873773260219545,-0.016369460333141805,0.02057830557910725, ,0.03458435568166976, ,0.03232445786868895, ,0.0010544807991829657, ,0.30565804442893185,-0.16584568847397135,0.11863257193000001,1.6917784640331426,0.6088522429548027,-1.3612926794795268, ,0.011652568966132636,0.020616324475009946,0.03440348060475163,-0.02856617470985825,0.0,-0.0002788459038449205, ,1.781261920928955
0.027836893284085604,0.018861519215401964,-0.10538550802901821, ,0.028272622914078935,0.018622131669824942,-0.10614588755824558, ,0.0009084843069087992, ,0.011546034907448348,0.0032894596140575333,-0.03243371997288797,-0.027873773260219545,-0.016369460333141805,0.02057830557910725, ,0.03458435568166976, ,0.03232445786868895, ,0.0010535009569529376, ,0.30565804442893185,-0.16584568847397135,0.11863257193000001,1.6917784640331426,0.6088522429548027,-1.3612926794795268, ,0.011652568966132636,0.020616324475009946,0.03440348060475163,-0.02856617470985825,0.0,-0.0002788459038449205, ,1.7865378856658936
0.027950417398490017,0.01890053765417166,-0.10571275919210679, ,0.02833420451280843,0.01864133909360967,-0.10632008057946855, ,0.0007637510788609581, ,0.010858194134465187,0.00370669261394796,-0.031777526029909825,-0.009463397133382349,0.0021716390801405404,0.0158693592746619, ,0.033785368291282945, ,0.009707702996321151, ,0.001051569291098991, ,0.305766162689171,-0.1656757883507384,0.11898127394,1.6917784640331426,0.6091255159543335,-1.3615155152869196, ,0.008346715889684813,0.015951746773990718,0.03374748203389831,-0.02298339374921897,0.0146550266264086,-0.01220373326997669, ,1.7917649745941162
0.027950417398490017,0.01890053765417166,-0.10571275919210679, ,0.028394946171040776,0.018661183033961224,-0.10649423390307317, ,0.0009303758314367067, ,0.010858194134465187,0.00370669261394796,-0.031777526029909825,-0.009463397133382349,0.0021716390801405404,0.0158693592746619, ,0.033785368291282945, ,0.009707702996321151, ,0.0010507666854058632, ,0.305766162689171,-0.1656757883507384,0.11898127394,1.6917784640331426,0.6091255159543335,-1.3615155152869196, ,0.008346715889684813,0.015951746773990718,0.03374748203389831,-0.02298339374921897,0.0146550266264086,-0.01220373326997669, ,1.7969999313354492
0.028054890830076232,0.018937307428998858,-0.10602850913081213, ,0.02845485290400751,0.018681664670029005,-0.10666834540248862, ,0.0007966889828220297, ,0.010358287778511078,0.0037440556185343,-0.032035300592672344,0.019427718557329433,0.03814226436621547,0.010408338139918724, ,0.033875840391641994, ,0.042804612361374304, ,0.001049095121573075, ,0.305835667285039,-0.16550588822750548,0.11931701305000002,1.6917784640331426,0.6095354254536298,-1.361849768998009, ,0.005468672022104488,0.016122484124782666,0.03403592205128206,-0.019341425708032507,0.04792702270750953,-0.03931373604230222, ,1.8023269176483154
0.028054890830076232,0.018937307428998858,-0.10602850913081213, ,0.028513929755548208,0.01870278513358442,-0.10684241291462476, ,0.0009634089533782833, ,0.010358287778511078,0.0037440556185343,-0.032035300592672344,0.019427718557329433,0.03814226436621547,0.010408338139918724, ,0.033875840391641994, ,0.042804612361374304, ,0.0010485350812580764, ,0.305835667285039,-0.16550588822750548,0.11931701305000002,1.6917784640331426,0.6095354254536298,-1.361849768998009, ,0.005468672022104488,0.016122484124782666,0.03403592205128206,-0.019341425708032507,0.04792702270750953,-0.03931373604230222, ,1.8077309131622314
0.02815509315909843,0.018976066551859315,-0.10633892783073151, ,0.028572181797858403,0.018724545509236103,-0.10701643424016757, ,0.0008344103920085484, ,0.01036413370287185,0.004296739975526271,-0.032459998359121695,0.004961299238681524,0.017223278418180017,-0.0028120652828320003, ,0.03434426786674121, ,0.017922605087352748, ,0.0010471446611980144, ,0.30587428094941016,-0.16537460176864366,0.11964627071000002,1.691568774089658,0.6098086984531608,-1.3620726048054017, ,0.0023788450926382787,0.012337095886436658,0.03440348060475163,-0.0023350043849603252,0.02046577434867599,-0.01690317687485177, ,1.8131508827209473
0.02815509315909843,0.018976066551859315,-0.10633892783073151, ,0.02862961413123851,0.01874694683464489,-0.10719040714387582, ,0.0010013406106464879, ,0.01036413370287185,0.004296739975526271,-0.032459998359121695,0.004961299238681524,0.017223278418180017,-0.0028120652828320003, ,0.03434426786674121, ,0.017922605087352748, ,0.0010468491511944563, ,0.30587428094941016,-0.16537460176864366,0.11964627071000002,1.691568774089658,0.6098086984531608,-1.3620726048054017, ,0.0023788450926382787,0.012337095886436658,0.03440348060475163,-0.0023350043849603252,0.02046577434867599,-0.01690317687485177, ,1.818526029586792
0.02825932043462742,0.019019631146175414,-0.10666376528915811, ,0.028686231883842166,0.01876999010073896,-0.1073643293548776, ,0.0008575337003375777, ,0.010362518772704745,0.004495984584092747,-0.032929563111519726,0.0001538239867226507,0.012429640892893903,0.0008610732184868935, ,0.03481309810129829, ,0.0124290351611039, ,0.0010456355906120404, ,0.3058897264151586,-0.1652664835084045,0.11998978756,1.6913590841461734,0.6098086984531608,-1.3620726048054017, ,0.0006750233377927251,0.010987901868755498,0.034855167439824954,-0.005413753645451459,0.014329164190010709,-0.011883021589423528, ,1.8237459659576416
0.02825932043462742,0.019019631146175414,-0.10666376528915811, ,0.02874204021142493,0.018793676251929,-0.10753819856696628, ,0.0010240642335731156, ,0.010362518772704745,0.004495984584092747,-0.032929563111519726,0.0001538239867226507,0.012429640892893903,0.0008610732184868935, ,0.03481309810129829, ,0.0124290351611039, ,0.0010454981934334487, ,0.3058897264151586,-0.1652664835084045,0.11998978756,1.6913590841461734,0.6098086984531608,-1.3620726048054017, ,0.0006750233377927251,0.010987901868755498,0.034855167439824954,-0.005413753645451459,0.014329164190010709,-0.011883021589423528, ,1.8289780616760254
0.028369224825910255,0.019067171574747216,-0.1070122143284974, ,0.028797044297092764,0.018818006186323257,-0.10771201243889748, ,0.0008572224250629855, ,0.010055637204808593,0.004547641735757294,-0.03247059571311155,-0.0026142438162501253,0.009750132373541165,0.0038819893612416934, ,0.0342948461276016, ,0.010092732864806258, ,0.0010443065746462937, ,0.3058897264151586,-0.16515836524816535,0.12035793392000001,1.6911493942026892,0.6098086984531608,-1.3620726048054017, ,-0.0009786269982734028,0.009553006748898498,0.034329335172413794,-0.007905716796489552,0.010310284412911437,-0.008590594998137194, ,1.834312915802002
0.028369224825910255,0.019067171574747216,-0.1070122143284974, ,0.02885124935105047,0.01884298075594263,-0.10788576859468443, ,0.0010225977811664166, ,0.010055637204808593,0.004547641735757294,-0.03247059571311155,-0.0026142438162501253,0.009750132373541165,0.0038819893612416934, ,0.0342948461276016, ,0.010092732864806258, ,0.0010441700413539674, ,0.3058897264151586,-0.16515836524816535,0.12035793392000001,1.6911493942026892,0.6098086984531608,-1.3620726048054017, ,-0.0009786269982734028,0.009553006748898498,0.034329335172413794,-0.007905716796489552,0.010310284412911437,-0.008590594998137194, ,1.8398408889770508
0.028469032310283304,0.019110808721233358,-0.10732869069143859, ,0.02890466061035055,0.01886860076693585,-0.10805946462389539, ,0.0008845717886654717, ,0.010024611321548856,0.004698040101695059,-0.03223150740263912,-0.0029350751855765048,0.007693430820592314,0.0032455961519367426, ,0.03407982515201099, ,0.008232178220188617, ,0.0010431725522746643, ,0.3058897264151586,-0.16506569245367467,0.12069237674000001,1.6909397042592043,0.6098086984531608,-1.3621542835455422, ,-0.000744246135846302,0.007884070402863144,0.03410880411134904,-0.006359120558020657,0.008181035606716971,-0.00624452315152555, ,1.8451030254364014
0.028570231934643107,0.019159952010036382,-0.10765535333897329, ,0.02895728333864132,0.0188948669797945,-0.10823309808194927, ,0.0007442229844822762, ,0.010436145416088555,0.005074476373526476,-0.03312122439844064,-0.0075106865838969125,-0.0008793423790796536,0.004206252994982466, ,0.035095283832205774, ,0.007559351590901847, ,0.0010413157226610472, ,0.30588200368228435,-0.16499618785780665,0.12103848617000001,1.6909397042592043,0.6099453349529261,-1.3621840227090982, ,-0.00016515712410663437,0.00589538312241397,0.03508548792951543,-0.006359120558020657,0.0,0.0, ,1.8509819507598877
0.028570231934643107,0.019159952010036382,-0.10765535333897329, ,0.029009122825915796,0.018921780109568156,-0.10840666649041214, ,0.0009021211227655407, ,0.010436145416088555,0.005074476373526476,-0.03312122439844064,-0.0075106865838969125,-0.0008793423790796536,0.004206252994982466, ,0.035095283832205774, ,0.007559351590901847, ,0.0010404564967357664, ,0.30588200368228435,-0.16499618785780665,0.12103848617000001,1.6909397042592043,0.6099453349529261,-1.3621840227090982, ,-0.00016515712410663437,0.00589538312241397,0.03508548792951543,-0.006359120558020657,0.0,0.0, ,1.8564329147338867
0.028677608925217615,0.01921288945074271,-0.10799873230817995, ,0.029060184388260083,0.018949340826079502,-0.10858016733729392, ,0.0007442368947887407, ,0.010039021174460396,0.004939718322674458,-0.03213676915100165,-0.006197738858362751,0.002197417636421028,0.004553915109268713, ,0.03402873336921904, ,0.006573152483648681, ,0.0010386391985643122, ,0.30588200368228435,-0.16494212872768707,0.12137941044000002,1.6909397042592043,0.6100819714526916,-1.362377119352935, ,-0.0007311248353133484,0.0057717433429274895,0.03403592205128206,-0.006359120558020657,0.002565818634423676,-0.0008294845761348359, ,1.861893892288208
