NicholasDascanio/dvrk_moveit_final/test/execution/third_experiment_notsharpbends/thirdexp_200vel4.0/thirdexp_200vel4.0_4.csv
Current Position (x),Current Position (y),Current Position (z), ,Planned Position (x),Planned Position (y),Planned Position (z), ,Position Error,,Cartesian linear Velocity(x),Cartesian linear Velocity(y),Cartesian linear Velocity(z),Cartesian Angular Velocity(x),Cartesian Angular Velocity(y),Cartesian Angular Velocity(z), ,Total Linear Velocity, ,Total Angular Velocity, ,MSE, ,Joint 1 Position,Joint 2 Position,Joint 3 Position,Joint 4 Position,Joint 5 Position,Joint 6 Position, ,Joint 1 Velocity,Joint 2 Velocity,Joint 3 Velocity,Joint 4 Velocity,Joint 5 Velocity,Joint 6 Velocity, ,Time Stamp
0.009655500306325384,0.020968671043689824,-0.07629765629341613, ,0.009844535313460037,0.020871128570866274,-0.07662037855647619, ,0.0003865209269904233, ,0.0021075986782514463,0.00034679435080527246,-0.0033194666065275765,0.28251673745704503,-0.17426382185717984,-0.15626187354736557, ,0.003947289837618895, ,0.3319391307924403, ,3.221007724920194e-05, ,0.1816463999346347,-0.2588428377453829,0.08719235427000001,1.7133765282120486,0.49599049414854884,-1.2669744863023469, ,0.0004013191856274247,0.0049109517642458725,0.0028197577482740313,0.00011278632639240249,-0.1820656318623751,-0.32211056369995017, ,0.05219388008117676
0.00977954735347056,0.021003051067788114,-0.07666706810227626, ,0.009925806692991965,0.020834265787640787,-0.07702533421658167, ,0.0004221787226414248, ,0.002647738683587607,0.0006454462640885685,-0.009757697023107458,-0.06897808697184528,-0.10634812046736461,0.012955737215407336, ,0.010131128871510433, ,0.1267592171038408, ,3.6759074983265824e-05, ,0.1816541226675089,-0.2581786827181996,0.08754364886,1.712328078494626,0.48902203266051136,-1.2781996724229259, ,0.000772459770930265,0.021064803897551783,0.009458914204275535,-0.03509364520193375,-0.10095326974838849,0.03455192690881398, ,0.10474491119384766
0.009847351626827847,0.020968628472363856,-0.0770811727139974, ,0.010007992803876969,0.020797847444490314,-0.07742847079833769, ,0.0004190318682769837, ,0.000981202339372377,-0.0012906062553898812,-0.00689465123684852,0.017545850366469697,0.011417991950911645,0.024368609249240634, ,0.007082699924112142, ,0.02093388138147919, ,3.8366609934650995e-05, ,0.18166956813325735,-0.25647195875299594,0.08794420247000001,1.7112796287772032,0.4901151246586349,-1.275742187306734, ,-0.0008694199745796746,0.03538290140136867,0.006485672442996744,-0.04641919580255284,0.023314018373774687,-0.061560259972868014, ,0.15764689445495605
0.00992305172339939,0.02092321344164273,-0.07749135388661679, ,0.010091080904087054,0.020761872282973493,-0.07782977767594255, ,0.00041084721761855365, ,0.0016619867157755166,-0.0008073946075658877,-0.008651789357589024,-0.02635261325261141,-0.004153069627679967,0.0013021687740832867, ,0.00884689465201386, ,0.026677859061359173, ,3.90137794173187e-05, ,0.18169273633188004,-0.254649393794679,0.08833568205,1.7106505589467498,0.4902517611584003,-1.2773238225329606, ,0.0010089522190658484,0.036484791064387075,0.008296256,-0.012461326742943504,0.0,-0.012364067631433768, ,0.21030497550964355
0.009996465192628185,0.020875116890803784,-0.07788089254810944, ,0.010175058328415015,0.020726339049304595,-0.07822924436089698, ,0.00041878316554476924, ,0.0014403973887752405,-0.0007954757804354164,-0.008118306775065566,0.01825505490740633,0.01861671192556912,-0.01797758066531977, ,0.008283382838486057, ,0.026073529821034874, ,4.034042943278735e-05, ,0.18176224092774806,-0.25287316523360737,0.08870771728000001,1.7100214891162964,0.49066167065769667,-1.2788832573461584, ,0.0014798400688367634,0.03518611107099398,0.00784670518226601,0.0,0.020994230816137393,-0.05378113102721454, ,0.2584969997406006
0.010076991161529153,0.02084174266307923,-0.07830420838371925, ,0.010259912488292514,0.020691246494341273,-0.07862686050159166, ,0.0004002670330632105, ,0.00177293087317644,-0.0005461972657406762,-0.008617254195074883,-0.009124053592359821,-0.00935364001285569,0.013343237567347033, ,0.00881468576846052, ,0.013066709146906146, ,4.096048223558941e-05, ,0.18181630005786764,-0.25119733219990065,0.08911604863000001,1.709182729342358,0.4907983071574621,-1.2799748201315415, ,0.0026426880828209214,0.03173810754463906,0.008357193871983212,-0.02951234407093952,0.000671892604972874,-0.028716332120327218, ,0.306804895401001
0.010124867807313412,0.020822810918938308,-0.07855841818762258, ,0.0103456308716075,0.02065659337357268,-0.07902261588289544, ,0.0005402259742371992, ,0.001546638694872502,-0.0004751909312139411,-0.008469789212999472,0.003663739949537616,-0.0005523039919076986,-0.0034984005712959923, ,0.008622947697059695, ,0.003705129758822169, ,4.344717258510963e-05, ,0.18186263645511297,-0.2502165451248741,0.08936234373000002,1.7085536595119044,0.491071580156993,-1.2812594795607617, ,0.00031425385019822325,0.031001941051444225,0.008219200990712074,-0.01416999316280031,0.0034302892931106998,-0.03835420198985683, ,0.35405492782592773
0.010223590008106792,0.020798687819108496,-0.07905661880442921, ,0.010432201042522592,0.020622378447108774,-0.07941650042574266, ,0.0004517945768755582, ,0.0016645428830574704,-0.0003129112038681712,-0.009302844701147341,-0.0062577820733559705,0.020150683448177643,0.0008333393703947527, ,0.009455767338757266, ,0.02109999550310318, ,4.422627545189901e-05, ,0.1820248138454717,-0.24844031656380247,0.08984974877000002,1.7077148997379663,0.49175476265582013,-1.2826333564806494, ,0.001994171521328407,0.03180192411476903,0.009165023889528194,-0.008532017622591509,0.02526088289052286,-0.025594391452702266, ,0.4011859893798828
0.010296468650288318,0.020769760503523423,-0.07941458896033883, ,0.010519610641291923,0.020588600479668318,-0.07980850418672107, ,0.00048762742741565243, ,0.0015156856487559967,-0.0009398300985609959,-0.007156143150004444,-0.002362929659242742,6.173235613484037e-05,0.01058800221581976, ,0.007375023280191161, ,0.0023637319415095387, ,4.5256056467399714e-05, ,0.18215610030433352,-0.24704250191356783,0.09019715449000001,1.7070858299075127,0.4921646721551165,-1.2841111125537066, ,0.003650730099561859,0.031443651941176536,0.006871790992234686,-0.025635702504219544,0.010409875004553391,-0.03392750735495144, ,0.44896697998046875
0.01036942263153357,0.020741264566503003,-0.07976931017596461, ,0.010607847384078585,0.020555258240567833,-0.08019861735765937, ,0.0005251184363253211, ,0.0019552631698817094,-0.0006773756190905163,-0.009744321129691674,-0.01118100351158314,-0.007126537058376004,0.04155284875391554, ,0.009961610616330562, ,0.013259045294332819, ,4.6972582620937853e-05, ,0.18227194129744687,-0.245706469126327,0.09054067134,1.7058276902466056,0.492301308654882,-1.2852843540792303, ,0.003451144553266824,0.034160166147757666,0.009487082501488983,-0.0583151443175346,0.010937982784159056,-0.03346677771518972, ,0.4907360076904297
0.010467400033400152,0.02070810019897622,-0.08024142713906283, ,0.010696899062771591,0.020522350503709885,-0.08058683026521497, ,0.0004543963834909333, ,0.0018500666772574875,-0.0008815056782399916,-0.008867609117540446,-0.01833342655509521,-0.004269734681862743,0.02856859207310116, ,0.00910133454129417, ,0.018824056647618388, ,4.773584206291291e-05, ,0.18246500961930248,-0.24395340876387803,0.09100085429,1.7049889304726675,0.4928478546539437,-1.2869552067961245, ,0.0038852075452907556,0.034432852524844265,0.008582333793103449,-0.041554465539970234,0.010039796145920632,-0.023187767296108892, ,0.5344138145446777
0.010532443215612763,0.020678001925845107,-0.08055915054740122, ,0.010786753544803096,0.02048987604757315,-0.08097313337046105, ,0.0005210056308688823, ,0.0018374286411654444,-0.0009710002096995934,-0.008613412929756306,0.006875681234431864,-0.000782751603296289,0.005342603758321491, ,0.008860579423328073, ,0.006920089963236348, ,4.898916543557578e-05, ,0.1825962960781643,-0.24266371237388254,0.09130937131000001,1.7049889304726675,0.49339440065300544,-1.2881359870721751, ,0.004149175723122436,0.035290792695600884,0.008317917242819845,-0.02570193940283356,0.009948154937257724,-0.047766589640092394, ,0.5766079425811768
0.010621385340075097,0.02064179933383044,-0.08096244563744379, ,0.0108773987729645,0.020457833655199882,-0.08135751726847441, ,0.0005054382676242658, ,0.0022470772175084202,-0.0006157808030582898,-0.009885780779911217,0.008661867931280657,-0.014839655406418252,0.01519517377362471, ,0.010156633480013076, ,0.01718264340030861, ,4.994315656279981e-05, ,0.18280480986576836,-0.24111916579903764,0.09170085089,1.7039404807552447,0.49366767365253633,-1.2894206465013953, ,0.0053371361268445,0.03378317606211135,0.009647977904300425,-0.039714886204529225,0.0,-0.05162995231545291, ,0.6187818050384521
0.010709033851115738,0.020620616170665573,-0.0813693891184562, ,0.010968822765223351,0.02042622211418547,-0.08173997268792335, ,0.0004925560993907336, ,0.002505458189302024,-0.00032882498875988367,-0.010765712849785527,-0.026144457852196396,-0.006932155497758084,0.0024750359954225053, ,0.011058300944340894, ,0.027047870740876553, ,5.107771214574533e-05, ,0.18299787818762397,-0.23972907388167722,0.09210010821,1.7033114109247913,0.49407758315183264,-1.2910617600547336, ,0.006471796558809992,0.034160166147757666,0.010612132924716857,-0.011758699254145749,0.0024256236597752553,-0.009834186460481611, ,0.6552398204803467
0.01077684449408092,0.020609513233981733,-0.08168413216979624, ,0.011061013614539306,0.020395040216667486,-0.08212049049065433, ,0.0005631690229052559, ,0.002208841231294637,-0.0003204982431687495,-0.010844022369685003,0.029058107239405266,0.014388136221342575,0.008465331152948327, ,0.011071337763033437, ,0.03242517402125653, ,5.26237650621742e-05, ,0.1831600555779827,-0.2387405640737765,0.09240473636,1.7028920310378222,0.49462412915089443,-1.2921608615906437, ,0.004878856946431472,0.03398887591635773,0.010806520705563096,-0.03124913692696407,0.02869455191270902,-0.0692169800164554, ,0.6919717788696289
0.010872413339302167,0.020585535630417987,-0.08209387394391265, ,0.011153959488680141,0.020364286759313854,-0.08249906167127986, ,0.0005407368968393243, ,0.0023278003269564256,-0.0009355165225078706,-0.009456031929764373,0.017440460547195044,-0.012188494348373612,0.025125549194910717, ,0.009783168473597243, ,0.02127742895592942, ,5.3854983215060654e-05, ,0.18346124216007745,-0.23732730395779342,0.09281436400000001,1.7018435813203996,0.49517067514995616,-1.2937500355673972, ,0.007972993044080449,0.03487575948492127,0.00921273078079815,-0.0521502863684227,0.00835147606114729,-0.06364003673150118, ,0.7291178703308105
0.010970727342984847,0.020552725308342144,-0.08248673296782806, ,0.011247648630038033,0.020333960543312705,-0.08287567735676603, ,0.0005251867851801944, ,0.0027834917155239256,-0.0006892461828713718,-0.010905229547895757,0.01089156598595158,-0.0036181082222305687,-0.01239510972503402, ,0.011275944214268346, ,0.011476792343780703, ,5.486315942373256e-05, ,0.18377787420792066,-0.23586770744456498,0.09319806584000001,1.7014242014334306,0.49530731164972164,-1.2950866345732022, ,0.009851359964380529,0.03800438188164629,0.010733700485175203,-0.00944376186918768,0.008774348093876975,-0.05193504162417377, ,0.7662889957427979
0.011053138145243706,0.020530962522485686,-0.08281712203882695, ,0.01134206935544482,0.02030406037436061,-0.08325032880601932, ,0.0005680087430606312, ,0.002623942163471667,-0.0004949409720522659,-0.010711542557034572,-0.008469872688623602,-0.0026874368335089494,-0.003379602771512324, ,0.01103934703658795, ,0.00888599567197108, ,5.60577479113592e-05, ,0.18417173358450611,-0.23438494273271387,0.09363232299,1.7005854416594925,0.49571722114901795,-1.2966460693864, ,0.008254721289937464,0.03479902514062001,0.010576900079681276,-0.010496616621842553,0.008307673863075963,-0.028407894698574014, ,0.8034119606018066
0.011158219232789281,0.020504965757829775,-0.08323008824395937, ,0.011437210055987657,0.020274585062651618,-0.08362300740947469, ,0.0005341316455415554, ,0.0025541394478563713,-0.0009749827045857966,-0.009373905277630669,0.007579235884399688,-0.001167933729399166,-0.011640251226990998, ,0.009764441599360896, ,0.007668690462541127, ,5.729390514931796e-05, ,0.18444202923510397,-0.2333192055960709,0.09393046969,1.7001660617725234,0.49612713064831426,-1.2979604679791759, ,0.010580799760897354,0.03656914896280184,0.009180871193083574,-0.007388242047048266,0.011542518748863397,-0.04632103036844577, ,0.8358860015869141
0.011242502850036506,0.020483095857695706,-0.08355377086715297, ,0.011533059196824732,0.020245533422866568,-0.08399370468868202, ,0.0005782738697416786, ,0.0027227836030386935,-0.0004772653030852326,-0.011200925203064385,0.017306154809913814,0.001511553744892114,-0.0038326008351471873, ,0.01153698652695531, ,0.017372035364960226, ,5.870661863634067e-05, ,0.18475093855007294,-0.23221485479505677,0.09424935703000001,1.69953699194207,0.4964004036478451,-1.299245127408396, ,0.008885907680404532,0.035120999836591706,0.011100217087108016,-0.01787945260681728,0.01505186962405501,-0.056759810747572415, ,0.8677129745483398
0.01133659615761638,0.020472925560569098,-0.0839322769908659, ,0.011629605316999725,0.02021690427416113,-0.0843624122958944, ,0.000580015212911254, ,0.003234634150648371,-0.0001099165200604483,-0.013318099113412061,-0.00743875081447528,-0.00892917767502653,0.01611396427391884, ,0.013705717920801887, ,0.011621738623577793, ,6.003089480548725e-05, ,0.1850521251321677,-0.23110278126116846,0.09462528113000002,1.6989079221116163,0.496673676647376,-1.3004481080974755, ,0.009639149423422474,0.03560860846471699,0.013274009600000001,-0.03307133382678916,0.008588667877052177,-0.03459360170271573, ,0.8998908996582031
0.011429082207319903,0.020457278734695196,-0.08429550584276632, ,0.011726837029257427,0.020188696440155193,-0.08472912201365435, ,0.0005906076248940675, ,0.0029748016968666508,-0.000855052173573771,-0.010966688616159152,-0.008901856030235671,-0.004839443037763344,-0.0037136334885344503, ,0.011395122577621035, ,0.010132279658183266, ,6.132540186201052e-05, ,0.18537647991288514,-0.22996753952865745,0.09498564975000001,1.6984885422246472,0.49708358614667236,-1.3015174704698298, ,0.011612297423462238,0.038482133640904616,0.010806520705563096,-0.011706749866201238,0.009785755055890367,-0.03188966810264018, ,0.9312498569488525
0.011516553463832766,0.020427534618689812,-0.08463950209358269, ,0.011824743019858582,0.02016090874892181,-0.08509382575438221, ,0.0006103115152405437, ,0.0030921621170408786,-0.001074894479655318,-0.012818501921530938,0.019854657320469465,0.013161913058520072,0.044895219086629905, ,0.013229922759137657, ,0.02382106266700657, ,6.298488003649408e-05, ,0.18572400289222524,-0.22876279320027842,0.09532527773,1.6974400925072246,0.49790340514526504,-1.302839407813133, ,0.012284891369376157,0.042920371577779635,0.012692280095617531,-0.06943664525544282,0.04261933177846196,-0.07497085450170066, ,0.957474946975708
0.011584408811931804,0.020414962046843933,-0.08489390106854487, ,0.011923312048394629,0.02013354003297573,-0.08545651555996203, ,0.0007145549800590583, ,0.0035957154816762256,-0.0007622931219457527,-0.014032429932576753,-0.005280137179193759,0.010873351439710523,-0.027432002980701038, ,0.014505838494951193, ,0.012087558731211695, ,6.511057461030573e-05, ,0.18595568487845196,-0.22795962898135907,0.09557675799000001,1.6972304025637401,0.49790340514526504,-1.3031661227736953, ,0.012907962155429274,0.046291191004132086,0.013923786293706296,0.012441534291864372,0.021699373708995228,-0.03819978841779593, ,0.98378586769104
0.011698792944789704,0.020396840760571258,-0.08534127742819109, ,0.012022532947601637,0.02010658912926153,-0.0858171836013303, ,0.0006446241420631373, ,0.0037585378856236492,-0.0005537409641470279,-0.015092314069782772,0.007700757388865163,0.012283153240361395,0.022434492877042432, ,0.015563135290615634, ,0.014497473395629113, ,6.676379362072857e-05, ,0.18638043518653433,-0.2266081507283698,0.09602268175,1.6966013327332867,0.49872322414385767,-1.30473309633742, ,0.01410687402385473,0.043771652010364745,0.015084101818181822,-0.04207531736732712,0.037071397335587467,-0.058358125855341565, ,1.0106678009033203
0.011802696837984645,0.020380814813753093,-0.0857244959193064, ,0.012122394623176123,0.020080054879143702,-0.08617582217806147, ,0.0006295701739793762, ,0.004086310484963101,-0.0007603922128721199,-0.014732954701980732,-0.01947713629274592,-0.014850728333813528,0.01571522126857582, ,0.015308039846679656, ,0.02449290256518042, ,6.825748657969691e-05, ,0.18676657183024553,-0.2254420180643619,0.09640379101,1.696391642789802,0.4989964971433885,-1.305446004585656, ,0.01582143073665735,0.04499617902250867,0.014627007823691463,-0.03356302559945558,0.008770113223342382,-0.03177101383389139, ,1.037010908126831
0.011890693925790298,0.020348952258088096,-0.08603854325379401, ,0.01222288605358822,0.02005393612839395,-0.08653242371795723, ,0.0006643071875515917, ,0.003471123634752678,-0.0014538400521650185,-0.012507092240814503,0.007943536718627254,0.012865229525615121,-0.005568868032466934, ,0.013060999445113693, ,0.015119973555017293, ,6.984871689818513e-05, ,0.18714498574108254,-0.2243067763318509,0.09671360432000001,1.6957625729593484,0.49954304314245024,-1.3067901423419879, ,0.015574748327338055,0.047686905305764214,0.012338351293570875,-0.014602623385639163,0.03276491226644567,-0.05783486744572687, ,1.0633869171142578
0.0119659014948856,0.020320172667186706,-0.08628806316372772, ,0.012323996289896279,0.020028231727180358,-0.08688698077663122, ,0.0007564150327112438, ,0.0037644298105550607,-0.0012588700489672784,-0.012629695835616177,-0.01705154818366047,-0.02761269921957555,0.031079489859395515, ,0.013238765142526062, ,0.03245329154817256, ,7.21531621403035e-05, ,0.1874770632546742,-0.22338004838694395,0.09695860313000002,1.695133503128895,0.4996796796422157,-1.3071465964661062, ,0.015784587750909976,0.043490807313689636,0.012415285674201094,-0.053391781209944575,0.0,-0.03735041734137923, ,1.0850629806518555
0.012043189777702532,0.020301964484736902,-0.08657696480178056, ,0.012425714455561484,0.020002940530056183,-0.08723948603709825, ,0.0008213859274974571, ,0.004426460882111093,-0.00023451290115094578,-0.01708114487131432,0.017033437495655144,0.025441637918254784,-0.01435532708813792, ,0.017646927844712616, ,0.030617208867129323, ,7.467815398360322e-05, ,0.18799448635724725,-0.22195906553808664,0.09742137866000002,1.6949238131854105,0.5006361351405738,-1.3087433091933867, ,0.016994437958178864,0.047401069709525866,0.017581469668874174,-0.004981654165891052,0.023346697765874416,-0.06123750953819058, ,1.1071579456329346
0.012191300668789084,0.020291800097939267,-0.08712805651643661, ,0.012528029746260973,0.01997806139594776,-0.08758993230936025, ,0.0006520335059114909, ,0.00509073048729308,-0.0003312177585786289,-0.019153641717213447,-0.01318895546956112,-0.013831993704535655,0.03841716343529062, ,0.019821383229462884, ,0.019112038571942106, ,7.632150696024079e-05, ,0.1883574548023358,-0.22098600119593434,0.09779989534000001,1.6940850534114722,0.5011826811396356,-1.309842410729297, ,0.018103193734923844,0.04871506240167905,0.019191339180722893,-0.060771242081229374,0.018164260528485358,-0.04678432404642571, ,1.1281168460845947
0.012282772021295282,0.02028347262106919,-0.08747220669404408, ,0.012630931429702497,0.019953593188143277,-0.08793831252999372, ,0.0006687974762484481, ,0.004503280114171058,-0.0010052531702104304,-0.015709143741210387,0.017350788468071938,0.007852602751493928,0.005977604185261292, ,0.016372759779735246, ,0.019045006530994918, ,7.798137658767223e-05, ,0.18874359144604702,-0.2200283823195305,0.09814730106000001,1.6940850534114722,0.5022757731377591,-1.311142147659571, ,0.020139418836687347,0.04876512926951222,0.01570888710059172,-0.031041914337753336,0.03590716548072505,-0.07186808603580805, ,1.1494770050048828
0.012329678803462678,0.020272405372936238,-0.08762378580556807, ,0.012734408845437984,0.01992953477428136,-0.08828461976173727, ,0.0008473890322192764, ,0.004706722391952915,-0.0011175030219142215,-0.01572297280707039,-0.03363259300179831,-0.0016748016087273095,-0.010143660166227166, ,0.016450347186937223, ,0.03367425294737803, ,8.074464191405178e-05, ,0.18894438250077686,-0.21954185014845437,0.0982976707,1.693875363467988,0.5022757731377591,-1.3113055051398521, ,0.02064772444701279,0.051240249221636495,0.015662548200589974,0.0,0.01959062326530022,-0.015974839666363993, ,1.1651079654693604
0.012424936743248495,0.020248157167927425,-0.08797089294257493, ,0.012838451404677011,0.019905885026338818,-0.08862884719307779, ,0.0008491456823647917, ,0.004801981190504849,-0.0005759273619900325,-0.0195245489940129,0.05593931069183399,0.06534653609299106,0.060347546093793725, ,0.020114639671141545, ,0.08601961068693262, ,8.344202749904127e-05, ,0.1893691328088592,-0.21847611301181138,0.09864507642,1.6926172238070805,0.5033688651358826,-1.3126052420701262, ,0.021997436615315436,0.05080136057733982,0.01983662704856787,-0.0862426286614587,0.10935134193667861,-0.1193968355392476, ,1.1810619831085205
0.012548025169469543,0.020245799443761522,-0.0884237942214183, ,0.012943048590101137,0.019882642820619773,-0.08897098813783849, ,0.0007663859458174262, ,0.006560246560554816,2.1671581491261517e-05,-0.0238527456284806,-0.02634289542053591,-0.022662423586638013,0.008060634103022692, ,0.02473844737669921, ,0.03474947281084406, ,8.57054479522005e-05, ,0.18981705131556423,-0.21734087127930038,0.09910137050000001,1.6926172238070805,0.5039154111349443,-1.3135409861257554, ,0.022524790305832133,0.05631865967861767,0.023989173975903617,-0.029932914927455746,0.006509744511913451,-0.035870215785698246, ,1.1978559494018555
0.012614360779226261,0.020243310110229257,-0.08867125472924592, ,0.013048189955677011,0.01985980703774331,-0.08931103603476534, ,0.0008629035171085081, ,0.006361376486762874,-0.00043034200400065355,-0.022918073684453633,-0.002931291203496075,-0.010761053050111675,-0.02724072579928536, ,0.02378845111504305, ,0.011152865476727758, ,8.832790324766329e-05, ,0.19004873330179095,-0.21672305264936242,0.09935025818000001,1.6924075338635962,0.5041886841344753,-1.3140905368937106, ,0.02250342460480692,0.060061355416753656,0.02298529800865801,0.0,0.012104118043047455,-0.05818467963638759, ,1.2137908935546875
0.012737142352054275,0.020223436776283625,-0.08910152109369017, ,0.013153865126469634,0.019837376562631594,-0.08964898444711449, ,0.0007889337631411672, ,0.006481589212787093,-0.0016578626304252883,-0.02124084165425796,0.0012698373433094677,-0.010680453617220831,0.06384477821907054, ,0.022269550094376374, ,0.010755475471482557, ,9.05670060399632e-05, ,0.19058932460298667,-0.21552602905385762,0.09978321904000001,1.6911493942026892,0.5052817761325988,-1.3157169887845468, ,0.03026050432349196,0.06433690953116662,0.021238415360000002,-0.0973175132703011,0.0415738278324672,-0.08367246367720738, ,1.229604959487915
0.01280442508445579,0.020210862852320773,-0.08931267592054556, ,0.013260063798456456,0.01981535028449843,-0.08998482706223929, ,0.0009032297527660261, ,0.0066359783576792,-0.0015265502846794992,-0.01977811372091224,-0.034562751755176535,-0.03023782912780285,0.026471069528775214, ,0.020917465116322743, ,0.045922838466997636, ,9.36267337547348e-05, ,0.19089051118508144,-0.21488504222529697,0.09999451431,1.6911493942026892,0.5054184126323642,-1.3159917641685246, ,0.03184461126123181,0.06178186299379608,0.01983662704856787,-0.04957313348945308,0.022824635026600874,-0.04443625576438258, ,1.2401838302612305
0.012859986195643006,0.020197677961632986,-0.08949229165287416, ,0.01336677573834014,0.01979372709683688,-0.09031855769117708, ,0.001050108331463711, ,0.006833707224814743,-0.0018546424685654736,-0.0222163534480022,-0.010663661883494626,-0.008008227861522724,0.00506211651693287, ,0.023317495869995368, ,0.013335665944062878, ,9.725217435958455e-05, ,0.19115308410280507,-0.21431355999260437,0.10017469862000002,1.6911493942026892,0.5058283221316605,-1.3165710541000355, ,0.030435196138059905,0.07108385135465976,0.022154118942976357,-0.034369576190750574,0.030625506851329955,-0.06666981049903853, ,1.2509667873382568
0.012942338166252758,0.020184069102471627,-0.0897850997423779, ,0.01347399078336234,0.019772505897407963,-0.09065017026823656, ,0.0010956211898969091, ,0.007709377149170452,-0.0005229524282005524,-0.028659064341591673,0.04381235011940502,0.06112095112485933,-0.02915004769952036, ,0.029682485478911697, ,0.07520155155256171, ,0.0001010068278644918, ,0.1915160525478936,-0.2134795048421881,0.10047025274000002,1.6909397042592043,0.5067847776300186,-1.3178410518667536, ,0.03165341613024376,0.07373499732592913,0.029067174306569344,0.0,0.09556881068748939,-0.11491033170651391, ,1.2615609169006348
0.013027159909147084,0.020182064084763952,-0.09010165892008021, ,0.013581698841116848,0.019751685588228048,-0.09097965885058514, ,0.0011241098502002948, ,0.00877443639629366,8.780522163260438e-05,-0.032446743418674595,0.051386637075710624,0.044313797489621894,-0.016006045803310234, ,0.033612343005313565, ,0.06785472094799458, ,0.00010481714271767903, ,0.1918558527943595,-0.21273812248626256,0.10079173266000001,1.6903106344287508,0.5077412331283767,-1.3189476921531909, ,0.03422176038891842,0.07460451380382924,0.03297890583850932,-0.021140434696716382,0.08541505271920924,-0.12887323446499158, ,1.2726328372955322
0.013114541794580091,0.0201788006158967,-0.09041440368466759, ,0.013689889889362495,0.019731265075556784,-0.09130701761783448, ,0.0011524205498518103, ,0.009456841931567674,-0.00017205012593905815,-0.03434186552537189,-0.03554848044835412,-0.00695777284675163,0.060252156620754053, ,0.03562057254350663, ,0.03622233149749446, ,0.00010868102085053335, ,0.19219565304082536,-0.2120199083289597,0.10110802742000001,1.6892621847113283,0.5082877791274385,-1.3195567212482577, ,0.03438294984002565,0.0778481883170392,0.03470329307189543,-0.08613584845237586,0.046837744309475154,-0.056403687286686266, ,1.2834057807922363
0.01318686120169962,0.020179805996399274,-0.0906678257230386, ,0.013798553975837149,0.01971124326988555,-0.09163224087162988, ,0.001234429284099497, ,0.009920390308673309,-9.861053380577539e-05,-0.03324647766085265,-0.05663356651292967,-0.0336139556123212,0.028156301998932, ,0.034695131427440525, ,0.06585756030234882, ,0.0001128154405350798, ,0.19246594869142322,-0.21144070336339285,0.10136469284,1.6892621847113283,0.5085610521269693,-1.3198612357957913, ,0.038560317577598854,0.07579627920005652,0.03360508759493671,-0.049891961987321806,0.01584435469534986,-0.027350350531454678, ,1.294238805770874
0.01331966463794794,0.020165411984256067,-0.09110697743491063, ,0.013907681218069828,0.019691619085924653,-0.09195532303523535, ,0.0011357523790852622, ,0.009924016430767908,-0.0012599642946900839,-0.031715681862850585,0.022192276648106326,0.03799636414888304,-0.03146813867339086, ,0.03325594816220995, ,0.044002144735457924, ,0.00011695688563042468, ,0.19302970819124163,-0.21028229343225918,0.10180802402000001,1.6890524947678438,0.5092442346257966,-1.3209083977551166, ,0.047259433047047196,0.08674309100408664,0.03217941721212122,0.0003476072688299337,0.08760274454677569,-0.10628510953945419, ,1.2995328903198242
0.01331966463794794,0.020165411984256067,-0.09110697743491063, ,0.014017261803194151,0.01967239144259142,-0.09227625865312164, ,0.0014480779076844876, ,0.009924016430767908,-0.0012599642946900839,-0.031715681862850585,0.022192276648106326,0.03799636414888304,-0.03146813867339086, ,0.03325594816220995, ,0.044002144735457924, ,0.00012232430910644914, ,0.19302970819124163,-0.21028229343225918,0.10180802402000001,1.6890524947678438,0.5092442346257966,-1.3209083977551166, ,0.047259433047047196,0.08674309100408664,0.03217941721212122,0.0003476072688299337,0.08760274454677569,-0.10628510953945419, ,1.304764986038208
0.013415773699333274,0.020154914786889275,-0.09142628100484594, ,0.014127285987761778,0.019653559262997902,-0.09259504239055293, ,0.0014572612238857078, ,0.010769301914075454,-0.001053408012006579,-0.03629893419829534,0.056054786995660195,0.09225494644188749,-0.023294210680766567, ,0.037877435975636524, ,0.10794929953193227, ,0.0006911671713540238, ,0.1934930721636951,-0.20943279281609448,0.10213339281000001,1.6890524947678438,0.5104739631236854,-1.3223195525890872, ,0.051743152431009146,0.09442481747111521,0.037043747720930234,-0.008918764937946109,0.1500247067743002,-0.14687338383144527, ,1.3099849224090576
0.013415773699333274,0.020154914786889275,-0.09142628100484594, ,0.01423774409755594,0.019635121474439087,-0.09291166903317408, ,0.0017754430483467541, ,0.010769301914075454,-0.001053408012006579,-0.03629893419829534,0.056054786995660195,0.09225494644188749,-0.023294210680766567, ,0.037877435975636524, ,0.10794929953193227, ,0.0007142368708645073, ,0.1934930721636951,-0.20943279281609448,0.10213339281000001,1.6890524947678438,0.5104739631236854,-1.3223195525890872, ,0.051743152431009146,0.09442481747111521,0.037043747720930234,-0.008918764937946109,0.1500247067743002,-0.14687338383144527, ,1.3162329196929932
0.013535309766563424,0.020147391461480913,-0.09182651215689339, ,0.014348626527402035,0.01961707700837918,-0.09322613348659717, ,0.0017034252079828403, ,0.01370232711766958,-1.93946925830849e-05,-0.047529713026876086,0.04082869880127554,0.06127625534459405,0.07556338973915967, ,0.049465419891181736, ,0.07363096869576168, ,0.0007348449612211393, ,0.19404910893063926,-0.20847517393969064,0.10254172416000001,1.6882137349939055,0.5118403281213398,-1.3238421253267543, ,0.05953384037545218,0.10303685294079346,0.04856344975609757,-0.11911661017601209,0.14947308727230615,-0.1618771141004225, ,1.3217859268188477
0.013535309766563424,0.020147391461480913,-0.09182651215689339, ,0.014459923740983838,0.01959942480044085,-0.0935384307759893, ,0.002021347031489692, ,0.01370232711766958,-1.93946925830849e-05,-0.047529713026876086,0.04082869880127554,0.06127625534459405,0.07556338973915967, ,0.049465419891181736, ,0.07363096869576168, ,0.0007611001055123342, ,0.19404910893063926,-0.20847517393969064,0.10254172416000001,1.6882137349939055,0.5118403281213398,-1.3238421253267543, ,0.05953384037545218,0.10303685294079346,0.04856344975609757,-0.11911661017601209,0.14947308727230615,-0.1618771141004225, ,1.3271307945251465
0.0136938685942045,0.020160014208610907,-0.09238055205443806, ,0.014571626270654609,0.019582163790392036,-0.09384855604565921, ,0.0018053823314312298, ,0.015855998701625705,0.001992904540316424,-0.05544873383442455,0.0504236428873401,0.04302430835870407,0.03766278650055394, ,0.05770568817000303, ,0.06628054555194929, ,0.0007819857500307121, ,0.19470554122494835,-0.20740943680304766,0.10310949918000001,1.6869555953329984,0.5133433296187598,-1.3254761159681177, ,0.06292900633850848,0.10020796363090896,0.05688861257142858,-0.08554644826499906,0.12673828340741988,-0.16443676860311907, ,1.332535982131958
0.0136938685942045,0.020160014208610907,-0.09238055205443806, ,0.014683724717250074,0.019565292922133333,-0.09415650455864386, ,0.0021183757575357603, ,0.01789051489512325,0.0019859426969684674,-0.06309289621426196,-0.010043709072404743,0.030602552354310145,-0.028166458348998814, ,0.0656104263384403, ,0.032193050918234406, ,0.0008081894756680661, ,0.19470554122494835,-0.20740943680304766,0.10310949918000001,1.6869555953329984,0.5133433296187598,-1.3254761159681177, ,0.06292900633850848,0.10020796363090896,0.05688861257142858,-0.08554644826499906,0.12673828340741988,-0.16443676860311907, ,1.3379898071289062
0.013871793744892674,0.020180963787534343,-0.09300717612995804, ,0.014796209749901805,0.01954881114368574,-0.09446227169629616, ,0.0018361549560477382, ,0.01789051489512325,0.0019859426969684674,-0.06309289621426196,-0.010043709072404743,0.030602552354310145,-0.028166458348998814, ,0.0656104263384403, ,0.032193050918234406, ,0.0008279580425984445, ,0.19537741898500588,-0.20623558140616552,0.10375116273000001,1.6867459053895137,0.5145730581166488,-1.326968949542229, ,0.06482031527217949,0.11906768075090436,0.06448911546558705,-0.007819477811994607,0.0995523922666991,-0.10666579725072861, ,1.3435509204864502
0.014054440654762535,0.020202005472956624,-0.09364204198010231, ,0.014909072105849963,0.019532717407178164,-0.09476585295787235, ,0.001562463614276414, ,0.019171731816578927,0.0021239996027767787,-0.06677769882365307,0.02776817151186276,0.04275407799164944,-0.04716536282908322, ,0.06950775305922309, ,0.05096719198536069, ,0.0008418166382904816, ,0.1960492967450634,-0.2050617260092834,0.10440060402000001,1.6865362154460295,0.5155295136150068,-1.328238947308947, ,0.07097751799436858,0.12470031742243204,0.06836399793991417,0.0,0.11663710964958206,-0.1495919890466381, ,1.348836898803711
0.014054440654762535,0.020202005472956624,-0.09364204198010231, ,0.015022302590256659,0.019517010668834853,-0.09506724396011773, ,0.001853962052387297, ,0.019171731816578927,0.0021239996027767787,-0.06677769882365307,0.02776817151186276,0.04275407799164944,-0.04716536282908322, ,0.06950775305922309, ,0.05096719198536069, ,0.0008605600718848671, ,0.1960492967450634,-0.2050617260092834,0.10440060402000001,1.6865362154460295,0.5155295136150068,-1.328238947308947, ,0.07097751799436858,0.12470031742243204,0.06836399793991417,0.0,0.11663710964958206,-0.1495919890466381, ,1.3542139530181885
0.014240597871116221,0.020211792387200358,-0.09427739984481058, ,0.015135892076018039,0.019501689888962767,-0.09536644043685467, ,0.0015785457492432063, ,0.019640738966983432,0.00027157728149192586,-0.0638721632770263,0.017712613109236084,0.009052106030832011,0.0794955559882937, ,0.06682428917000248, ,0.019864899342654462, ,0.000873614356927746, ,0.19677523363524052,-0.20383381148228172,0.10505004531,1.6852780757851225,0.5167592421128957,-1.329813459623199, ,0.08194899961871396,0.12946376747403926,0.06528201442622952,-0.13943949147986753,0.12206427022520289,-0.1718503036732391, ,1.3597288131713867
0.014240597871116221,0.020211792387200358,-0.09427739984481058, ,0.015249831503578915,0.01948675403193931,-0.0956634382385696, ,0.0018615411815126638, ,0.019640738966983432,0.00027157728149192586,-0.0638721632770263,0.017712613109236084,0.009052106030832011,0.0794955559882937, ,0.06682428917000248, ,0.019864899342654462, ,0.0008912559073667623, ,0.19677523363524052,-0.20383381148228172,0.10505004531,1.6852780757851225,0.5167592421128957,-1.329813459623199, ,0.08194899961871396,0.12946376747403926,0.06528201442622952,-0.13943949147986753,0.12206427022520289,-0.1718503036732391, ,1.3651399612426758
0.01445805050798814,0.020208904292063182,-0.09494121950977771, ,0.015364111880742133,0.01947220206619857,-0.09595823333199965, ,0.001548545929374137, ,0.020815590490996683,-0.0014019333379731676,-0.058722820034832035,-0.008259399600643912,-0.0050958231587659745,0.004620871135943154, ,0.06231872766204605, ,0.009668857612329442, ,0.0009027873112616286, ,0.1977482979773928,-0.20238966043480172,0.10572930127,1.6848586958981533,0.5179889706107847,-1.3314696506775912, ,0.09989151742996924,0.13733276636537015,0.06033640727272729,-0.05748863686329063,0.11124336352748211,-0.13785445716851222, ,1.3704509735107422
0.01445805050798814,0.020208904292063182,-0.09494121950977771, ,0.015478724282486447,0.019458032964220218,-0.09625082179972003, ,0.0018222625669061605, ,0.020815590490996683,-0.0014019333379731676,-0.058722820034832035,-0.008259399600643912,-0.0050958231587659745,0.004620871135943154, ,0.06231872766204605, ,0.009668857612329442, ,0.0009186403329106722, ,0.1977482979773928,-0.20238966043480172,0.10572930127,1.6848586958981533,0.5179889706107847,-1.3314696506775912, ,0.09989151742996924,0.13733276636537015,0.06033640727272729,-0.05748863686329063,0.11124336352748211,-0.13785445716851222, ,1.375741958618164
0.014677220188672447,0.02018651299546953,-0.09554353400504642, ,0.01559365985077412,0.019444245702515125,-0.09654119983973121, ,0.0015447198795122, ,0.02029658062379121,-0.0034362373798117974,-0.05403686730234319,0.004659783617765946,-0.0020277513733068177,-0.026104061300489922, ,0.05782509783994765, ,0.005036330450532053, ,0.0009292518506496812, ,0.19883720331265844,-0.20087600479145373,0.10634503902,1.6848586958981533,0.5190820626089083,-1.3329327450881465, ,0.10474276110206487,0.1480451506372399,0.055116994878892746,-0.03102734181635281,0.11152310514814857,-0.15622335595167236, ,1.3809947967529297
0.014677220188672447,0.02018651299546953,-0.09554353400504642, ,0.015708909794368116,0.019430839261614218,-0.09682936376504526, ,0.0018135005944961802, ,0.02029658062379121,-0.0034362373798117974,-0.05403686730234319,0.004659783617765946,-0.0020277513733068177,-0.026104061300489922, ,0.05782509783994765, ,0.005036330450532053, ,0.0009439893297137895, ,0.19883720331265844,-0.20087600479145373,0.10634503902,1.6848586958981533,0.5190820626089083,-1.3329327450881465, ,0.10474276110206487,0.1480451506372399,0.055116994878892746,-0.03102734181635281,0.11152310514814857,-0.15622335595167236, ,1.3862709999084473
0.014871837248104732,0.020145378943667625,-0.09604686764130986, ,0.015824465388644095,0.019417812626055287,-0.0971153100032741, ,0.001605746618091156, ,0.020200840854891666,-0.004597171022773192,-0.050143243851668504,-0.002983594595540311,0.014799832936518816,-0.039980139604101364, ,0.05425451922766598, ,0.015087076905979947, ,0.0009548378098511233, ,0.19987977225067877,-0.1994164082782253,0.10685836986000001,1.6844393160111841,0.5203117911067973,-1.3343438999221173, ,0.11230407285026127,0.15159255840011304,0.05138326296774194,-0.009502480460476987,0.13247159029166453,-0.14762104296834316, ,1.3924689292907715
0.014871837248104732,0.020145378943667625,-0.09604686764130986, ,0.015940317975400797,0.01940516478436895,-0.09739903509621536, ,0.0018756132043507797, ,0.020200840854891666,-0.004597171022773192,-0.050143243851668504,-0.002983594595540311,0.014799832936518816,-0.039980139604101364, ,0.05425451922766598, ,0.015087076905979947, ,0.0009696890258914403, ,0.19987977225067877,-0.1994164082782253,0.10685836986000001,1.6844393160111841,0.5203117911067973,-1.3343438999221173, ,0.11230407285026127,0.15159255840011304,0.05138326296774194,-0.009502480460476987,0.13247159029166453,-0.14762104296834316, ,1.3978869915008545
0.015074129392674187,0.02008865842552231,-0.09655529778478684, ,0.01605645896267545,0.01939289472906755,-0.09768053569943994, ,0.0016477921197699946, ,0.02003377509619969,-0.0063832909256662336,-0.04981583539146867,-0.04015185842799837,-0.005373185666589757,0.07893508892259252, ,0.05407139727616355, ,0.040506000448498995, ,0.0009804525670641156, ,0.20099184578456708,-0.19783324803900926,0.10737558957000001,1.6833908662937616,0.5216781561044516,-1.3358664726597842, ,0.11073155374383986,0.16111535069349878,0.05056765561904762,-0.1337843914534194,0.13477323618442538,-0.1420646169782778, ,1.4032008647918701
0.015270830707035579,0.020026320330953855,-0.09703915858656231, ,0.016172879824556414,0.019381001456631426,-0.09795980858187942, ,0.0014414317444313017, ,0.02044067832254051,-0.006221719035157054,-0.0491407555051236,-0.04695436729508172,-0.021515201556024047,0.01713109971559247, ,0.05358493230052967, ,0.05164619976644547, ,0.000987655366710478, ,0.2020730283869585,-0.19624236506691903,0.10786688348000001,1.682761796463308,0.5229078846023405,-1.3371959487536142, ,0.11243713454795115,0.15949065808146348,0.049933578432601884,-0.06888143792348243,0.10676109558076134,-0.12196027928402364, ,1.4090588092803955
0.015270830707035579,0.020026320330953855,-0.09703915858656231, ,0.016289572100994958,0.01936948396749629,-0.09823685062541276, ,0.0017040346991925386, ,0.02044067832254051,-0.006221719035157054,-0.0491407555051236,-0.04695436729508172,-0.021515201556024047,0.01713109971559247, ,0.05358493230052967, ,0.05164619976644547, ,0.0009986765872102021, ,0.2020730283869585,-0.19624236506691903,0.10786688348000001,1.682761796463308,0.5229078846023405,-1.3371959487536142, ,0.11243713454795115,0.15949065808146348,0.049933578432601884,-0.06888143792348243,0.10676109558076134,-0.12196027928402364, ,1.4144368171691895
0.015488940719245607,0.019962411453204678,-0.09755087234073483, ,0.016406527397620118,0.019358341266040514,-0.09851165882445334, ,0.0014594439936657742, ,0.021791029689197973,-0.006080910688912587,-0.05101287022014521,-0.06516736676342601,-0.010538828772233668,-0.039202894303016135, ,0.055804474532239946, ,0.06601141675460713, ,0.001005657911550438, ,0.20328549744821175,-0.19457425476608653,0.10838799206000001,1.6825521065198237,0.5240009766004642,-1.3382506494634667, ,0.12088782364136405,0.16361541648012204,0.052054939607843145,0.0,0.11298792951715707,-0.09213408036221349, ,1.4196808338165283
0.015488940719245607,0.019962411453204678,-0.09755087234073483, ,0.016523737385549388,0.01934757236057198,-0.09878423028553629, ,0.0017233696847826089, ,0.021791029689197973,-0.006080910688912587,-0.05101287022014521,-0.06516736676342601,-0.010538828772233668,-0.039202894303016135, ,0.055804474532239946, ,0.06601141675460713, ,0.0010163700275688287, ,0.20328549744821175,-0.19457425476608653,0.10838799206000001,1.6825521065198237,0.5240009766004642,-1.3382506494634667, ,0.12088782364136405,0.16361541648012204,0.052054939607843145,0.0,0.11298792951715707,-0.09213408036221349, ,1.4249348640441895
0.015488940719245607,0.019962411453204678,-0.09755087234073483, ,0.016641193801202773,0.019337176263315246,-0.09905456222690524, ,0.0019949159083347506, ,0.021791029689197973,-0.006080910688912587,-0.05101287022014521,-0.06516736676342601,-0.010538828772233668,-0.039202894303016135, ,0.055804474532239946, ,0.06601141675460713, ,0.0010307604081683276, ,0.20328549744821175,-0.19457425476608653,0.10838799206000001,1.6825521065198237,0.5240009766004642,-1.3382506494634667, ,0.12088782364136405,0.16361541648012204,0.052054939607843145,0.0,0.11298792951715707,-0.09213408036221349, ,1.4302787780761719
0.015711110793130218,0.01990064381787741,-0.09806250018265171, ,0.016758888446117233,0.019327151990399107,-0.0993226519781, ,0.00173629301497614, ,0.022510006933899786,-0.006355544343002793,-0.05046416879795737,-0.04392190913533054,-9.501098841759769e-05,-0.03440914047116908, ,0.055621270108914496, ,0.04391828607855262, ,0.0010409855184119192, ,0.20454430290671036,-0.19292158993100247,0.10891169322000001,1.682761796463308,0.5253673415981185,-1.339528185980712, ,0.12946376747403926,0.16361541648012204,0.05171692051948052,-0.008422699615861621,0.1341490901626658,-0.11472409170267592, ,1.4356319904327393
0.015711110793130218,0.01990064381787741,-0.09806250018265171, ,0.016876813186756257,0.019317498561842977,-0.09958849697954303, ,0.002006884820876252, ,0.022510006933899786,-0.006355544343002793,-0.05046416879795737,-0.04392190913533054,-9.501098841759769e-05,-0.03440914047116908, ,0.055621270108914496, ,0.04391828607855262, ,0.0010547840798756955, ,0.20454430290671036,-0.19292158993100247,0.10891169322000001,1.682761796463308,0.5253673415981185,-1.339528185980712, ,0.12946376747403926,0.16361541648012204,0.05171692051948052,-0.008422699615861621,0.1341490901626658,-0.11472409170267592, ,1.4408988952636719
0.016073340146420034,0.01979027154179995,-0.09881182083845357, ,0.01699495995432655,0.019308215001544556,-0.0998520947821269, ,0.0014710307461825195, ,0.023644391395705087,-0.00746604434699852,-0.0465598280520189,-0.16342796986274993,-0.14642759228189384,0.01693229418995203, ,0.05275051327615882, ,0.2194299940986545, ,0.0010606467089786084, ,0.2066371635156252,-0.19038853354825683,0.10967650432,1.6819230366893698,0.5261871605967111,-1.3401966934028904, ,0.13615056177685905,0.1619401733079706,0.04740717714285715,-0.054335305729683994,0.0,-0.006356885175171604, ,1.4461479187011719
0.016073340146420034,0.01979027154179995,-0.09881182083845357, ,0.017113320744587303,0.01929930033726628,-0.10011344304680111, ,0.0017369032044155903, ,0.023644391395705087,-0.00746604434699852,-0.0465598280520189,-0.16342796986274993,-0.14642759228189384,0.01693229418995203, ,0.05275051327615882, ,0.2194299940986545, ,0.001070039160304122, ,0.2066371635156252,-0.19038853354825683,0.10967650432,1.6819230366893698,0.5261871605967111,-1.3401966934028904, ,0.13615056177685905,0.1619401733079706,0.04740717714285715,-0.054335305729683994,0.0,-0.006356885175171604, ,1.45139479637146
0.016310887574203924,0.019725808538968825,-0.0993154353486224, ,0.017231887617668033,0.019290753600623423,-0.10037253954415999, ,0.0014679860897374968, ,0.023805876801625155,-0.005640392494650957,-0.05210743901486611,0.0033923199695187318,0.029638416064769135,0.01447495713232889, ,0.057564911174046475, ,0.029825482285182076, ,0.0010754904881045792, ,0.2080195327001114,-0.18878992784329238,0.11019502032000002,1.6815036568024009,0.5274168890946002,-1.3413628120164396, ,0.13934940023270306,0.15405347655595905,0.0539959712542373,-0.06349551431139028,0.18519708051191902,-0.162899069259279, ,1.456624984741211
0.016310887574203924,0.019725808538968825,-0.0993154353486224, ,0.01735065269787569,0.01928257382706964,-0.10062938215402868, ,0.001733212257536244, ,0.023805876801625155,-0.005640392494650957,-0.05210743901486611,0.0033923199695187318,0.029638416064769135,0.01447495713232889, ,0.057564911174046475, ,0.029825482285182076, ,0.0010843786201239262, ,0.2080195327001114,-0.18878992784329238,0.11019502032000002,1.6815036568024009,0.5274168890946002,-1.3413628120164396, ,0.13934940023270306,0.15405347655595905,0.0539959712542373,-0.06349551431139028,0.18519708051191902,-0.162899069259279, ,1.4618709087371826
0.016535778031834713,0.019681203863431515,-0.09981224187874714, ,0.017469608173512848,0.01927476005588546,-0.10088396886505085, ,0.001478456639665425, ,0.02468948615304383,-0.00432337213108972,-0.05270559846457723,-0.016047494839114836,-0.026089335560069593,-0.03194577123283682, ,0.058362165677727146, ,0.030623011145421986, ,0.0010896329937178128, ,0.20930922909010688,-0.18739983592593196,0.11071094374000001,1.6812939668589162,0.5290565270917854,-1.3428631843410777, ,0.1403800910628266,0.1437832447855618,0.05550108543554008,-0.014781211856769902,0.12173723546949587,-0.12742154893142443, ,1.4690208435058594
0.016535778031834713,0.019681203863431515,-0.09981224187874714, ,0.017588746296688256,0.019267311330164526,-0.10113629777427607, ,0.00174160076090009, ,0.025299093416275783,-0.003537125656568924,-0.05373540432840916,-0.07595524966628332,-0.09849396251187394,-0.027937234455471256, ,0.058362165677727146, ,0.030623011145421986, ,0.001098211516970211, ,0.21075338013758688,-0.18595568487845196,0.11128260763000002,1.6812939668589162,0.5297397095906126,-1.3436653100799814, ,0.1359555036654309,0.13556705936924396,0.055695145174825184,-0.011871059194766465,0.040605314846974466,-0.059428316123710676, ,1.475409984588623
0.016797475467535204,0.019640919173901254,-0.10036331658160808, ,0.017708059383130387,0.01926022669680062,-0.10138636708674678, ,0.0014215210745979936, ,0.025299093416275783,-0.003537125656568924,-0.05373540432840916,-0.07595524966628332,-0.09849396251187394,-0.027937234455471256, ,0.05949831143766536, ,0.12437770128841369, ,0.0011024103423939483, ,0.21075338013758688,-0.18595568487845196,0.11128260763000002,1.6812939668589162,0.5297397095906126,-1.3436653100799814, ,0.1359555036654309,0.13556705936924396,0.055695145174825184,-0.011871059194766465,0.040605314846974466,-0.059428316123710676, ,1.4806838035583496
0.017041098560250337,0.019604725103302013,-0.10088123955719525, ,0.01782753981199926,0.0192535052064749,-0.10163417511508505, ,0.0011440092712537272, ,0.024726702814803093,-0.003440207201045523,-0.051510166686056055,-0.06123358254970122,-0.11054214166106587,-0.01684101923543855, ,0.05724108777532967, ,0.12636753572026554, ,0.0011029436619947148, ,0.2120585219933308,-0.18465826575558225,0.11181927169000001,1.6806648970284628,0.530149619089909,-1.344326278751633, ,0.1327229951866724,0.1284126408098387,0.053452387651006725,-0.028924689034091334,0.02814748494609115,-0.0722070460774012, ,1.486081838607788
0.017041098560250337,0.019604725103302013,-0.10088123955719525, ,0.0179471800257026,0.01924714591364296,-0.10187972027907993, ,0.0013949230268687628, ,0.024726702814803093,-0.003440207201045523,-0.051510166686056055,-0.06123358254970122,-0.11054214166106587,-0.01684101923543855, ,0.05724108777532967, ,0.12636753572026554, ,0.0011066396033222344, ,0.2120585219933308,-0.18465826575558225,0.11181927169000001,1.6806648970284628,0.530149619089909,-1.344326278751633, ,0.1327229951866724,0.1284126408098387,0.053452387651006725,-0.028924689034091334,0.02814748494609115,-0.0722070460774012, ,1.4913408756256104
0.017290116792199314,0.01956768603572611,-0.10139484218892152, ,0.01806697252970673,0.01924114787652181,-0.10212300110527511, ,0.0011137088550334728, ,0.02337125681485671,-0.003799862613451826,-0.04733022668696998,-0.02064736838381687,-0.048226704918234345,0.03967240754388197, ,0.05292263182445729, ,0.052458472837275026, ,0.001106727968968625, ,0.213440891177817,-0.18336856936558676,0.11235463946000002,1.6800358271980091,0.5309694380885015,-1.345403179874514, ,0.13290888173455292,0.12104201729396784,0.04946835875776398,-0.08492757420818947,0.10249924343848577,-0.11443614901944574, ,1.4965598583221436
0.017290116792199314,0.01956768603572611,-0.10139484218892152, ,0.018186909892348984,0.019235510157076443,-0.10236401622655521, ,0.0013615715163207275, ,0.02337125681485671,-0.003799862613451826,-0.04733022668696998,-0.02064736838381687,-0.048226704918234345,0.03967240754388197, ,0.05292263182445729, ,0.052458472837275026, ,0.0011098741856026015, ,0.213440891177817,-0.18336856936558676,0.11235463946000002,1.6800358271980091,0.5309694380885015,-1.345403179874514, ,0.13290888173455292,0.12104201729396784,0.04946835875776398,-0.08492757420818947,0.10249924343848577,-0.11443614901944574, ,1.501800775527954
0.01751472156710824,0.019534894562282287,-0.10183529384045499, ,0.018306984744652487,0.019230231821007433,-0.10260276438173374, ,0.0011443388310043122, ,0.022043247264511096,-0.0035585066783091943,-0.04156853875347681,0.010771071193333849,-0.0353280170436587,0.0006167282106920396, ,0.04718592092820962, ,0.0369318378641834, ,0.001110294486156281, ,0.21474603303356093,-0.18223332763307576,0.11281741499000002,1.6800358271980091,0.5320625300866252,-1.3467029168047884, ,0.13107312369954527,0.10932827368487416,0.04376047120879121,-0.045171397001950754,0.10637429591375341,-0.12652658790090288, ,1.5075159072875977
0.01751472156710824,0.019534894562282287,-0.10183529384045499, ,0.018427189780138655,0.019225311937737556,-0.10283924441513956, ,0.0013915302359706013, ,0.022043247264511096,-0.0035585066783091943,-0.04156853875347681,0.010771071193333849,-0.0353280170436587,0.0006167282106920396, ,0.04718592092820962, ,0.0369318378641834, ,0.0011136828686841645, ,0.21474603303356093,-0.18223332763307576,0.11281741499000002,1.6800358271980091,0.5320625300866252,-1.3467029168047884, ,0.13107312369954527,0.10932827368487416,0.04376047120879121,-0.045171397001950754,0.10637429591375341,-0.12652658790090288, ,1.5129599571228027
0.01772438942357169,0.01950138431478051,-0.10221184600205975, ,0.018547517754641557,0.01922074958039916,-0.10307345527620486, ,0.0012242004104083667, ,0.020920269340363944,-0.0034831058719622643,-0.035543533852077785,-0.010467521581136752,-0.0559421285956018,-0.02274225020157442, ,0.04139000476543182, ,0.056912512078921625, ,0.0011149985537046907, ,0.21602028395780798,-0.18121392689367813,0.11321537602000001,1.6800358271980091,0.5330189855849832,-1.347727878351085, ,0.13053224423448526,0.09989151742996924,0.03774599886255925,-0.011639969535505782,0.07740856332526491,-0.08822187690505617, ,1.518251895904541
0.01772438942357169,0.01950138431478051,-0.10221184600205975, ,0.01866796148611859,0.019216543825820605,-0.10330539601905138, ,0.0014721800097244624, ,0.020920269340363944,-0.0034831058719622643,-0.035543533852077785,-0.010467521581136752,-0.0559421285956018,-0.02274225020157442, ,0.04139000476543182, ,0.056912512078921625, ,0.001119200688481394, ,0.21602028395780798,-0.18121392689367813,0.11321537602000001,1.6800358271980091,0.5330189855849832,-1.347727878351085, ,0.13053224423448526,0.09989151742996924,0.03774599886255925,-0.011639969535505782,0.07740856332526491,-0.08822187690505617, ,1.523597002029419
0.017947711838625095,0.01947006139850671,-0.10259451005980076, ,0.018788513854464672,0.0192126937545135,-0.1035350658020781, ,0.0012875679548456375, ,0.021636671866061188,-0.002690142022322721,-0.03753530214233439,-0.01884851171790765,-0.07030586100423702,-0.02279003013979126, ,0.04340830957842292, ,0.07278808953460525, ,0.001121158447392606, ,0.21737948494367149,-0.18020997162002894,0.11362111479,1.6800358271980091,0.5337021680838104,-1.3486116828301293, ,0.12999581035406957,0.09405048717390563,0.039822028800000006,-0.009379385540694663,0.06284377874802662,-0.07464240964050549, ,1.5288939476013184
0.017947711838625095,0.01947006139850671,-0.10259451005980076, ,0.018909167801327263,0.01920919845065999,-0.10376246388754894, ,0.0015351101555023496, ,0.021636671866061188,-0.002690142022322721,-0.03753530214233439,-0.01884851171790765,-0.07030586100423702,-0.02279003013979126, ,0.04340830957842292, ,0.07278808953460525, ,0.0011259165130030628, ,0.21737948494367149,-0.18020997162002894,0.11362111479,1.6800358271980091,0.5337021680838104,-1.3486116828301293, ,0.12999581035406957,0.09405048717390563,0.039822028800000006,-0.009379385540694663,0.06284377874802662,-0.07464240964050549, ,1.5343408584594727
0.018170207986645235,0.01945174112755367,-0.10300334114361778, ,0.019029916329917327,0.019206057002099312,-0.10398758964117898, ,0.00132973840658356, ,0.022015830000515574,-0.0007478538881925858,-0.041954112844222416,0.022415643385375238,-0.022189855615512368,-0.029792548122890845, ,0.04738569025133468, ,0.031539194374011544, ,0.0011282326708846593, ,0.21867690406654122,-0.17929868914087044,0.11405537194000001,1.6798261372545245,0.5345219870824031,-1.3491985115121674, ,0.12652925541129437,0.08353604010428767,0.04474385258426967,0.0,0.1068066102838729,-0.10209503126163984, ,1.5402917861938477
0.018170207986645235,0.01945174112755367,-0.10300334114361778, ,0.019150752504823666,0.01920326850031504,-0.10421044253172197, ,0.0015748968092480539, ,0.02138793318697407,-0.00014721066606443038,-0.04253087592805413,0.02951856340664303,-0.00815988171224604,0.004504848838925985, ,0.0476061000733961, ,0.030623358614589175, ,0.0011332513690685178, ,0.21946462281971213,-0.17878898877117164,0.11434444461000001,1.6794067573675557,0.5353418060809957,-1.3499486976744866, ,0.11997084899933096,0.07696426728180923,0.045381229401709404,-0.03401202963481465,0.12059342050997407,-0.10956780379379208, ,1.545771837234497
0.018308226250958622,0.019447994487040886,-0.10327429792092464, ,0.0192716694518249,0.019200832040421733,-0.10443102213055794, ,0.0015255566110328363, ,0.02138793318697407,-0.00014721066606443038,-0.04253087592805413,0.02951856340664303,-0.00815988171224604,0.004504848838925985, ,0.0476061000733961, ,0.030623358614589175, ,0.0011376103162014546, ,0.21946462281971213,-0.17878898877117164,0.11434444461000001,1.6794067573675557,0.5353418060809957,-1.3499486976744866, ,0.11997084899933096,0.07696426728180923,0.045381229401709404,-0.03401202963481465,0.12059342050997407,-0.10956780379379208, ,1.5511767864227295
0.018599701700709632,0.019455133400765903,-0.10385305997191446, ,0.019392660357704615,0.019198746721152404,-0.1046493281112799, ,0.0011526319928559239, ,0.022181944255754534,0.0012445870034992026,-0.04464892388921249,-0.00010262570981137587,-0.048618630167042085,0.03269606084462532, ,0.04987097404542416, ,0.048616913620113195, ,0.0011377753895712838, ,0.2210323375931797,-0.17785453809339047,0.11494592317,1.6789873774805866,0.5367081710786501,-1.3510628767114508, ,0.11847308559109959,0.06580925212099221,0.047691052455089825,-0.05821782021594296,0.08211957826240074,-0.0749244229944677, ,1.5564849376678467
0.018599701700709632,0.019455133400765903,-0.10385305997191446, ,0.019513718470063227,0.019197011644845136,-0.10486536024928125, ,0.0013880941420149006, ,0.022181944255754534,0.0012445870034992026,-0.04464892388921249,-0.00010262570981137587,-0.048618630167042085,0.03269606084462532, ,0.04987097404542416, ,0.048616913620113195, ,0.0011404962455761058, ,0.2210323375931797,-0.17785453809339047,0.11494592317,1.6789873774805866,0.5367081710786501,-1.3510628767114508, ,0.11847308559109959,0.06580925212099221,0.047691052455089825,-0.05821782021594296,0.08211957826240074,-0.0749244229944677, ,1.5616979598999023
0.018834398681235456,0.01947305099487929,-0.10432370488654139, ,0.019634837097131395,0.01919562591743017,-0.10507911842134324, ,0.0011350400608795617, ,0.023402768301850705,0.002396239222969295,-0.046626325488204216,0.026252835591049524,-0.0331542194429051,-0.03864557873651556, ,0.0522249533760995, ,0.04228703432106917, ,0.0011404375769234548, ,0.22223708392155872,-0.1772058285319556,0.11543203192000001,1.678777687537102,0.5375279900772427,-1.3517313841336294, ,0.124210656490145,0.06198363263126765,0.05009060226415095,0.018048440849585987,0.08829032961322957,-0.07864012660029629, ,1.566910982131958
0.018834398681235456,0.01947305099487929,-0.10432370488654139, ,0.019756009607584547,0.01919458864841706,-0.10529060260522144, ,0.0013644776203192094, ,0.023402768301850705,0.002396239222969295,-0.046626325488204216,0.026252835591049524,-0.0331542194429051,-0.03864557873651556, ,0.0522249533760995, ,0.04228703432106917, ,0.001142820981640431, ,0.22223708392155872,-0.1772058285319556,0.11543203192000001,1.678777687537102,0.5375279900772427,-1.3517313841336294, ,0.124210656490145,0.06198363263126765,0.05009060226415095,0.018048440849585987,0.08829032961322957,-0.07864012660029629, ,1.5721487998962402
0.019050805506305044,0.0194979878446459,-0.1047479296321675, ,0.019877229430353797,0.01919389895088118,-0.10549981287923359, ,0.0011579183800120932, ,0.02288359100606477,0.002569251230261453,-0.04377421437865668,0.04981858591650059,-0.013658924996184048,-0.013032393025874566, ,0.049461516694149624, ,0.05165556123665918, ,0.0011429799016232907, ,0.22350361211293154,-0.17663434629926297,0.11592462212000001,1.6789873774805866,0.5386210820753663,-1.3526227273632005, ,0.12720769645907612,0.05379645213065237,0.04740717714285715,-0.008823968273783296,0.11772194300897366,-0.10168224211648565, ,1.5785858631134033
0.019050805506305044,0.0194979878446459,-0.1047479296321675, ,0.01999849005444163,0.019193555941451345,-0.10570674942184694, ,0.0013820709734092581, ,0.02135044997344355,0.0020195017579209816,-0.0385235001467776,0.04262966561213084,-0.021066502733292424,-0.012010932917015962, ,0.049461516694149624, ,0.05165556123665918, ,0.0011454704336210611, ,0.22473924937280745,-0.17612464592956417,0.11637573104000001,1.6789873774805866,0.5398508105732552,-1.3536254884964685, ,0.1221324859182378,0.049528675134901244,0.04191792505263159,-0.007879717151635122,0.10477260823050308,-0.09040660134808444, ,1.586183786392212
0.019270802370346767,0.019522827933252145,-0.10516338076488539, ,0.020119785028732774,0.019193558740296233,-0.10591141251126504, ,0.001178448662123979, ,0.02135044997344355,0.0020195017579209816,-0.0385235001467776,0.04262966561213084,-0.021066502733292424,-0.012010932917015962, ,0.044090590435800874, ,0.047549985090816774, ,0.0011458104153582046, ,0.22473924937280745,-0.17612464592956417,0.11637573104000001,1.6789873774805866,0.5398508105732552,-1.3536254884964685, ,0.1221324859182378,0.049528675134901244,0.04191792505263159,-0.007879717151635122,0.10477260823050308,-0.09040660134808444, ,1.5914649963378906
0.019487817570593296,0.01954161752925106,-0.10553927574988425, ,0.020241107961812298,0.0191939064711119,-0.10611380252501443, ,0.001009173131230023, ,0.02032008774211638,0.0012149072332177388,-0.03206970197641266,0.007129268032897836,-0.0654522515293369,-0.008898763400828437, ,0.037984835793887006, ,0.06583912037290539, ,0.0011444161573568967, ,0.22599033209843183,-0.17563039102561379,0.11678535868,1.6789873774805866,0.5406706295718479,-1.3543756746587876, ,0.12197550328852286,0.045689427808604126,0.03516293933774835,-0.006745511270394264,0.05901276651540717,-0.05194002344191561, ,1.5966877937316895
0.019487817570593296,0.01954161752925106,-0.10553927574988425, ,0.020362452521770248,0.019194598261108163,-0.10631391993953379, ,0.0012188036309596923, ,0.02032008774211638,0.0012149072332177388,-0.03206970197641266,0.007129268032897836,-0.0654522515293369,-0.008898763400828437, ,0.037984835793887006, ,0.06583912037290539, ,0.0011451675459791472, ,0.22599033209843183,-0.17563039102561379,0.11678535868,1.6789873774805866,0.5406706295718479,-1.3543756746587876, ,0.12197550328852286,0.045689427808604126,0.03516293933774835,-0.006745511270394264,0.05901276651540717,-0.05194002344191561, ,1.60194993019104
0.019683387817784646,0.01955190198281387,-0.1058541697950926, ,0.020483812436024845,0.01919563324099614,-0.10651176532975896, ,0.0010954628579255882, ,0.019484768674459984,0.0011067352437569588,-0.03127224348129622,0.025545976097000073,-0.03922136955727257,-0.016553605310138254, ,0.036862369505370446, ,0.04680686719016745, ,0.0011446704990986114, ,0.22715646476243972,-0.17517474978603456,0.11713017182000002,1.678777687537102,0.5413538120706751,-1.3549327641772697, ,0.11672440536097266,0.04534015363519865,0.034329335172413794,0.0,0.07924800414752604,-0.06802768691655102, ,1.607208013534546
0.019683387817784646,0.01955190198281387,-0.1058541697950926, ,0.020605181491129856,0.019197010544975003,-0.10670733936871128, ,0.0013052010688852792, ,0.019484768674459984,0.0011067352437569588,-0.03127224348129622,0.025545976097000073,-0.03922136955727257,-0.016553605310138254, ,0.036862369505370446, ,0.04680686719016745, ,0.0011462599106806576, ,0.22715646476243972,-0.17517474978603456,0.11713017182000002,1.678777687537102,0.5413538120706751,-1.3549327641772697, ,0.11672440536097266,0.04534015363519865,0.034329335172413794,0.0,0.07924800414752604,-0.06802768691655102, ,1.6124417781829834
0.019683387817784646,0.01955190198281387,-0.1058541697950926, ,0.020726553532588943,0.019198729310719007,-0.10690064282708497, ,0.0015192206724321177, ,0.019484768674459984,0.0011067352437569588,-0.03127224348129622,0.025545976097000073,-0.03922136955727257,-0.016553605310138254, ,0.036862369505370446, ,0.04680686719016745, ,0.0011499163887370445, ,0.22715646476243972,-0.17517474978603456,0.11713017182000002,1.678777687537102,0.5413538120706751,-1.3549327641772697, ,0.11672440536097266,0.04534015363519865,0.034329335172413794,0.0,0.07924800414752604,-0.06802768691655102, ,1.61785888671875
0.01988319285512646,0.01956563943966637,-0.1061829954755037, ,0.020847922464669755,0.019200788679364398,-0.10709167657283357, ,0.001374598353508075, ,0.01920737567682375,0.0015171122389634952,-0.03216750520011024,0.05725437826230559,-0.001827935459917408,-0.014229497733887176, ,0.03749631049497234, ,0.057283250050646, ,0.0011520977670357922, ,0.22835348835794453,-0.17472683127932953,0.11749183673000001,1.6785679975936174,0.5424469040687986,-1.355824107406841, ,0.1141960788910599,0.04278491503988764,0.03539735893333334,-0.0043090675506772145,0.11563371646529026,-0.09735246256403489, ,1.6231539249420166
0.020076782770750423,0.019581790323784147,-0.10650296693636067, ,0.020969282250216412,0.019203187795496512,-0.10728044157075838, ,0.0012427236226952034, ,0.019482913516741984,0.0018091564773860945,-0.03260962552430057,0.056728076583569625,-0.00038850819567435994,-0.012460036671380495, ,0.038029523308814046, ,0.056729081931067044, ,0.001152969169494056, ,0.22950417555620398,-0.1743098037041214,0.11784442761000001,1.6785679975936174,0.543539996066922,-1.3567154506364123, ,0.11516619121173638,0.040710828639412604,0.03595668514672686,-0.0043088820395870584,0.11808109218381836,-0.09450434625221626, ,1.6284708976745605
0.020076782770750423,0.019581790323784147,-0.10650296693636067, ,0.02109062691046399,0.01920592580713688,-0.10746693888209456, ,0.0014485841317189705, ,0.019482913516741984,0.0018091564773860945,-0.03260962552430057,0.056728076583569625,-0.00038850819567435994,-0.012460036671380495, ,0.038029523308814046, ,0.056729081931067044, ,0.001155784550086674, ,0.22950417555620398,-0.1743098037041214,0.11784442761000001,1.6785679975936174,0.543539996066922,-1.3567154506364123, ,0.11516619121173638,0.040710828639412604,0.03595668514672686,-0.0043088820395870584,0.11808109218381836,-0.09450434625221626, ,1.6337339878082275
0.020275399804730653,0.019599609490260583,-0.1068288035236546, ,0.02121195052485202,0.019209001865730033,-0.10765116966409866, ,0.0013061346165882338, ,0.021463954612808964,0.0020918235041161503,-0.036226418223846,0.019391006181065373,-0.0442468470781327,-0.010239420586303881, ,0.04215958313980462, ,0.048308717695113954, ,0.0011572029469404624, ,0.23067030822021187,-0.17390049886178752,0.11820349994000001,1.6785679975936174,0.5444964515652801,-1.3573320184820061, ,0.12181892369508443,0.04385256079411774,0.03972272199501248,-0.003935729845120105,0.07997694639385805,-0.060894438655251, ,1.6390588283538818
0.020275399804730653,0.019599609490260583,-0.1068288035236546, ,0.021333247230836336,0.019212415126130644,-0.10783313516963605, ,0.0015091861076925556, ,0.021463954612808964,0.0020918235041161503,-0.036226418223846,0.019391006181065373,-0.0442468470781327,-0.010239420586303881, ,0.04215958313980462, ,0.048308717695113954, ,0.001160492509190482, ,0.23067030822021187,-0.17390049886178752,0.11820349994000001,1.6785679975936174,0.5444964515652801,-1.3573320184820061, ,0.12181892369508443,0.04385256079411774,0.03972272199501248,-0.003935729845120105,0.07997694639385805,-0.060894438655251, ,1.644331932067871
0.02050451198166866,0.01962186507784954,-0.10722148682996735, ,0.02145451122370246,0.019216164746590478,-0.10801283674676894, ,0.0013012786056300126, ,0.022245674463939952,0.002194396208123192,-0.038518784799197237,0.04023431693079101,-0.019447413660751374,-0.013015418312462163, ,0.04453517923485526, ,0.044686881334640154, ,0.0011617960841575148, ,0.23196000461020738,-0.1734216894235856,0.11863386822000001,1.6785679975936174,0.5454529070636382,-1.3580302650677405, ,0.12502890850918416,0.04658661833994638,0.04225148944297083,-0.0035791122031055556,0.10853546398154489,-0.08362623043495004, ,1.6498417854309082
0.02070080219682216,0.01964128213658825,-0.10755984298270918, ,0.021575736756383853,0.01922024988874536,-0.10819027583834132, ,0.0011576805356831128, ,0.02225916674546647,0.002264824364935102,-0.03748363722622459,0.05943955819990574,-0.0025714304403408367,-0.014176468814742754, ,0.04365344194119971, ,0.059494531996172904, ,0.0011617583268320613, ,0.2330720781440957,-0.17301238458125168,0.11900590345,1.6785679975936174,0.5465459990617618,-1.358921608297312, ,0.12789345223513582,0.04426163318958525,0.04137353641558442,-0.003314924297478415,0.12865355434225126,-0.10005207287274442, ,1.65625
0.02070080219682216,0.01964128213658825,-0.10755984298270918, ,0.02169691813926579,0.019224669717602408,-0.108365453981569, ,0.0013471532800418441, ,0.02225916674546647,0.002264824364935102,-0.03748363722622459,0.05943955819990574,-0.0025714304403408367,-0.014176468814742754, ,0.04365344194119971, ,0.059494531996172904, ,0.0011634437354976048, ,0.2330720781440957,-0.17301238458125168,0.11900590345,1.6785679975936174,0.5465459990617618,-1.358921608297312, ,0.12789345223513582,0.04426163318958525,0.04137353641558442,-0.003314924297478415,0.12865355434225126,-0.10005207287274442, ,1.6615509986877441
0.020943525911823975,0.019664786535537597,-0.10795939373529999, ,0.02181804974000776,0.019229423401526807,-0.10853837280762539, ,0.001135583440662861, ,0.022158604268712766,0.0015065160301131174,-0.03520175460857218,0.032804281687705654,-0.02463675811321347,-0.011670108953390927, ,0.04162255231492341, ,0.04102483021484861, ,0.001163192741850445, ,0.23447761552720456,-0.17253357514304976,0.11944793834000002,1.6785679975936174,0.5479123640594162,-1.359709072373714, ,0.12928738631944245,0.047025243586952814,0.03894574943765281,-0.0030314982108919125,0.10745883902500752,-0.07619253399374147, ,1.6668469905853271
0.020943525911823975,0.019664786535537597,-0.10795939373529999, ,0.021939125983354055,0.01923451011222894,-0.10870903404122839, ,0.0013184528399447664, ,0.022158604268712766,0.0015065160301131174,-0.03520175460857218,0.032804281687705654,-0.02463675811321347,-0.011670108953390927, ,0.04162255231492341, ,0.04102483021484861, ,0.0011645789927262873, ,0.23447761552720456,-0.17253357514304976,0.11944793834000002,1.6785679975936174,0.5479123640594162,-1.359709072373714, ,0.12928738631944245,0.047025243586952814,0.03894574943765281,-0.0030314982108919125,0.10745883902500752,-0.07619253399374147, ,1.6720609664916992
0.021166066142576948,0.019677437264001132,-0.10830344854116125, ,0.02206014135094437,0.0192399290247514,-0.1088774395002285, ,0.00114902113066714, ,0.02229127371655973,0.0012462808858856777,-0.033309697039192135,0.00622463891179136,-0.0443624187918198,-0.006171019225202305, ,0.04009975083209216, ,0.044796532500584234, ,0.0011644413125310737, ,0.23578275738294852,-0.17205476570484785,0.11982904760000002,1.6785679975936174,0.5488688195577742,-1.3601622827390267, ,0.13235277762687694,0.04611124468341632,0.037043747720930234,-0.002811061073401992,0.09037512753486776,-0.04834070752820346, ,1.6773250102996826
0.021166066142576948,0.019677437264001132,-0.10830344854116125, ,0.022181090381130454,0.01924567931745611,-0.10904359109519618, ,0.0013283448835107717, ,0.02229127371655973,0.0012462808858856777,-0.033309697039192135,0.00622463891179136,-0.0443624187918198,-0.006171019225202305, ,0.04009975083209216, ,0.044796532500584234, ,0.0011658790631537026, ,0.23578275738294852,-0.17205476570484785,0.11982904760000002,1.6785679975936174,0.5488688195577742,-1.3601622827390267, ,0.13235277762687694,0.04611124468341632,0.037043747720930234,-0.002811061073401992,0.09037512753486776,-0.04834070752820346, ,1.6826667785644531
0.02139381250500848,0.019690551417128124,-0.10864015719340367, ,0.022301967668789464,0.019251760172011117,-0.10920749082900778, ,0.0011572169253779426, ,0.021732391401396867,0.0009103820406503602,-0.031464489731159936,0.007693672329674506,-0.017494111357448317,-0.0010868382458570983, ,0.038251009732106635, ,0.019110355487994175, ,0.001165803740216522, ,0.23714968110168624,-0.17159140173239437,0.12020497170000001,1.6785679975936174,0.5499619115558978,-1.3606452322678952, ,0.13235277762687694,0.04606647648469455,0.03524073345132744,-0.0026145128250575724,0.11776100897019995,-0.047926756184486385, ,1.68849778175354
0.02139381250500848,0.019690551417128124,-0.10864015719340367, ,0.02242276786513616,0.019258170773377905,-0.10936914079643459, ,0.0013330863616860225, ,0.021732391401396867,0.0009103820406503602,-0.031464489731159936,0.007693672329674506,-0.017494111357448317,-0.0010868382458570983, ,0.038251009732106635, ,0.019110355487994175, ,0.0011672458317809142, ,0.23714968110168624,-0.17159140173239437,0.12020497170000001,1.6785679975936174,0.5499619115558978,-1.3606452322678952, ,0.13235277762687694,0.04606647648469455,0.03524073345132744,-0.0026145128250575724,0.11776100897019995,-0.047926756184486385, ,1.6938769817352295
0.021642448343579215,0.01969325894560906,-0.10897379333936874, ,0.022543485677534947,0.019264910309798326,-0.10952854318372936, ,0.0011415332762565876, ,0.020945358362172192,-0.00040705440628560434,-0.025465574065675727,0.024476955619491467,-0.026908010432501323,-0.00919455542094393, ,0.03297528154093471, ,0.03637515185369749, ,0.0011670260663490825, ,0.23872511860802803,-0.17103536496545022,0.12058219209000001,1.6785679975936174,0.5514649130533176,-1.361462435507853, ,0.13693642360529693,0.048146596427433165,0.029067174306569344,-0.0024162585144548556,0.11280576512864525,-0.0680446087240919, ,1.6992018222808838
0.021642448343579215,0.01969325894560906,-0.10897379333936874, ,0.022664115869318692,0.0192719779727814,-0.1096857002682124, ,0.001314569764810087, ,0.020945358362172192,-0.00040705440628560434,-0.025465574065675727,0.024476955619491467,-0.026908010432501323,-0.00919455542094393, ,0.03297528154093471, ,0.03637515185369749, ,0.0011682764366750232, ,0.23872511860802803,-0.17103536496545022,0.12058219209000001,1.6785679975936174,0.5514649130533176,-1.361462435507853, ,0.13693642360529693,0.048146596427433165,0.029067174306569344,-0.0024162585144548556,0.11280576512864525,-0.0680446087240919, ,1.7044689655303955
0.021866056914872076,0.01968735074451279,-0.10924917936732886, ,0.022784653259595087,0.019279372957090878,-0.10984061441786093, ,0.00116621633437627, ,0.021419097282641117,-0.000246098531420658,-0.027524591918429882,0.025552834286807685,-0.019825934712926836,-0.009287303673321475, ,0.03487752074282957, ,0.03234191134186984, ,0.0011682591248910002, ,0.24017699238838225,-0.17050249639712872,0.12089589427000001,1.6785679975936174,0.5526946415512066,-1.3622201604206992, ,0.1363461804001017,0.049736342535886144,0.031232963764705888,-0.0022652515245778562,0.11939899892853205,-0.07032040082138184, ,1.7096819877624512
0.021866056914872076,0.01968735074451279,-0.10924917936732886, ,0.02290509272306586,0.019287094460731714,-0.1099932880908948, ,0.0013392155524418292, ,0.021419097282641117,-0.000246098531420658,-0.027524591918429882,0.025552834286807685,-0.019825934712926836,-0.009287303673321475, ,0.03487752074282957, ,0.03234191134186984, ,0.001169683761787257, ,0.24017699238838225,-0.17050249639712872,0.12089589427000001,1.6785679975936174,0.5526946415512066,-1.3622201604206992, ,0.1363461804001017,0.049736342535886144,0.031232963764705888,-0.0022652515245778562,0.11939899892853205,-0.07032040082138184, ,1.7149088382720947
0.022058087755827998,0.0196869305636619,-0.10949745144999484, ,0.02302542918983623,0.019295141684937733,-0.110143723835365, ,0.0012275650579635583, ,0.021735571971685193,0.0003256232762987232,-0.028806886368604064,0.04958950172851772,0.019490696864230897,-0.008979778597092425, ,0.03608847214427401, ,0.05328213686293015, ,0.0011701621196068958, ,0.24140490691538394,-0.17007774608904638,0.12117848549000002,1.678358307650133,0.5539243700490956,-1.3628962065934045, ,0.13853568110725661,0.04690901708278338,0.03284291035051547,0.0,0.16135843414981824,-0.08939840406735525, ,1.7201869487762451
0.022058087755827998,0.0196869305636619,-0.10949745144999484, ,0.02314565764523154,0.019303513834158025,-0.11029192428873921, ,0.001400358434224329, ,0.021735571971685193,0.0003256232762987232,-0.028806886368604064,0.04958950172851772,0.019490696864230897,-0.008979778597092425, ,0.03608847214427401, ,0.05328213686293015, ,0.0011720489746447438, ,0.24140490691538394,-0.17007774608904638,0.12117848549000002,1.678358307650133,0.5539243700490956,-1.3628962065934045, ,0.13853568110725661,0.04690901708278338,0.03284291035051547,0.0,0.16135843414981824,-0.08939840406735525, ,1.7255189418792725
0.022270401711285404,0.01969012077259929,-0.10976955992309678, ,0.023265773129610867,0.019312210116044178,-0.11043789217749023, ,0.0012570794434003693, ,0.02323170298574002,0.00027228763946570626,-0.02875333282581323,-0.03911539932815966,-0.08634016407957869,-0.001050185643963468, ,0.03696674603976169, ,0.0947872288040022, ,0.0011727402792687733, ,0.24274093970262478,-0.16963755031521557,0.1214882988,1.678358307650133,0.5550174620472191,-1.3632157986419922, ,0.1437832447855618,0.04681644872149521,0.03264100721311476,0.0,0.05862111369314568,-0.00272450431665271, ,1.730855941772461
0.022270401711285404,0.01969012077259929,-0.10976955992309678, ,0.0233857707381741,0.019321229741438097,-0.11058163031668435, ,0.0014281410935741818, ,0.02323170298574002,0.00027228763946570626,-0.02875333282581323,-0.03911539932815966,-0.08634016407957869,-0.001050185643963468, ,0.03696674603976169, ,0.0947872288040022, ,0.001174799963255107, ,0.24274093970262478,-0.16963755031521557,0.1214882988,1.678358307650133,0.5550174620472191,-1.3632157986419922, ,0.1437832447855618,0.04681644872149521,0.03264100721311476,0.0,0.05862111369314568,-0.00272450431665271, ,1.7365868091583252
0.02252929495063496,0.019693011086015972,-0.11009692730316911, ,0.023505645620786296,0.019330571924357668,-0.11072314160956563, ,0.001215223080156153, ,0.023252389889414284,3.264665242085765e-05,-0.02941814025200069,-0.01418646891430499,-0.07392718875415243,-0.012574211806947223, ,0.03749802231131174, ,0.0752759131743018, ,0.0011751233481903155, ,0.24432409994184082,-0.16909695901401986,0.12185903774000001,1.6785679975936174,0.5557006445460463,-1.3635278519400524, ,0.1422742752001061,0.04984083065045734,0.033323873472803356,0.004153796564196167,0.06906735510177113,-0.030315786527438607, ,1.7419309616088867
0.02252929495063496,0.019693011086015972,-0.11009692730316911, ,0.023625392981781193,0.01934023588198504,-0.11086242904714574, ,0.001382705376605217, ,0.023252389889414284,3.264665242085765e-05,-0.02941814025200069,-0.01418646891430499,-0.07392718875415243,-0.012574211806947223, ,0.03749802231131174, ,0.0752759131743018, ,0.0011767708246063066, ,0.24432409994184082,-0.16909695901401986,0.12185903774000001,1.6785679975936174,0.5557006445460463,-1.3635278519400524, ,0.1422742752001061,0.04984083065045734,0.033323873472803356,0.004153796564196167,0.06906735510177113,-0.030315786527438607, ,1.7471599578857422
0.022767214704265196,0.019697350945016043,-0.11039996050376272, ,0.02374500807977971,0.01935022083465315,-0.11099949570779052, ,0.0011983412116710682, ,0.023703637332036117,0.000844224178696175,-0.02956584872035229,0.05479660515062969,-0.013467111584901742,-0.017411959960953415, ,0.037904017567895736, ,0.05642701869341041, ,0.0011769406701737455, ,0.24580686465369192,-0.16861814957581794,0.12220514717000001,1.6785679975936174,0.5569303730439352,-1.3643672555930393, ,0.1496797185464839,0.04341122669646422,0.03403592205128206,0.004153796564196167,0.1383895597261743,-0.09175565949424519, ,1.7523949146270752
0.022767214704265196,0.019697350945016043,-0.11039996050376272, ,0.02386448622750291,0.019360526005832757,-0.11113434475680702, ,0.0013626357057128914, ,0.023703637332036117,0.000844224178696175,-0.02956584872035229,0.05479660515062969,-0.013467111584901742,-0.017411959960953415, ,0.037904017567895736, ,0.05642701869341041, ,0.001178391412638895, ,0.24580686465369192,-0.16861814957581794,0.12220514717000001,1.6785679975936174,0.5569303730439352,-1.3643672555930393, ,0.1496797185464839,0.04341122669646422,0.03403592205128206,0.004153796564196167,0.1383895597261743,-0.09175565949424519, ,1.7577619552612305
0.022767214704265196,0.019697350945016043,-0.11039996050376272, ,0.023983822791582555,0.019371150622120088,-0.11126697944603167, ,0.0015291382328084682, ,0.023703637332036117,0.000844224178696175,-0.02956584872035229,0.05479660515062969,-0.013467111584901742,-0.017411959960953415, ,0.037904017567895736, ,0.05642701869341041, ,0.001181110380237109, ,0.24729735209841724,-0.16818567653486138,0.12254607144000002,1.6785679975936174,0.5584333745413551,-1.365184458832997, ,0.14667224352159317,0.042554682313215596,0.03325430379958247,0.004016815716410488,0.156967709938022,-0.09806118349707843, ,1.7632110118865967
0.023232158687691504,0.019714639757621617,-0.11096563521464335, ,0.02410301319238248,0.019382093913222435,-0.11139740311341452, ,0.0010273255693191922, ,0.02319627909516249,0.0008375818649310255,-0.026110239515208723,-0.03551378902731085,-0.043125749313952556,0.009198433626453936, ,0.03493584856251098, ,0.05586633449190234, ,0.0011799274201531249, ,0.24875694861164568,-0.16779181715827593,0.12285977362000002,1.678777687537102,0.559663103039244,-1.3654521113049998, ,0.14897479051565274,0.03777744488792627,0.030514964597701155,0.004010942461879071,0.1072924458228831,0.007052308013016428, ,1.7686657905578613
0.023232158687691504,0.019714639757621617,-0.11096563521464335, ,0.02422205290380233,0.019393355111947022,-0.11152561918261078, ,0.001181819117723377, ,0.02319627909516249,0.0008375818649310255,-0.026110239515208723,-0.03551378902731085,-0.043125749313952556,0.009198433626453936, ,0.03493584856251098, ,0.05586633449190234, ,0.0011799418605925925, ,0.24875694861164568,-0.16779181715827593,0.12285977362000002,1.678777687537102,0.559663103039244,-1.3654521113049998, ,0.14897479051565274,0.03777744488792627,0.030514964597701155,0.004010942461879071,0.1072924458228831,0.007052308013016428, ,1.7739498615264893
0.023471985913346392,0.01972400301391323,-0.1112241838614417, ,0.024340937453094187,0.019404933454187555,-0.1116516311625666, ,0.0010196045103924168, ,0.02310255779922273,0.0009097193112442321,-0.024995565282212404,0.013846957800084572,-0.011149630995602941,-0.018293854315720396, ,0.0340489948437398, ,0.017777591363537373, ,0.0011787271836971368, ,0.25033238611798747,-0.16739795778169048,0.12316569806000001,1.6794067573675557,0.5610294680368985,-1.365831181680699, ,0.15183510649355325,0.03649882367633492,0.02960745635687733,0.0251587949171593,0.1393168459080555,-0.03597476133348982, ,1.7791988849639893
0.023471985913346392,0.01972400301391323,-0.1112241838614417, ,0.02445966242068246,0.01941682817890996,-0.1117754426471035, ,0.001172069755250165, ,0.02310255779922273,0.0009097193112442321,-0.024995565282212404,0.013846957800084572,-0.011149630995602941,-0.018293854315720396, ,0.0340489948437398, ,0.017777591363537373, ,0.001178677127844152, ,0.25033238611798747,-0.16739795778169048,0.12316569806000001,1.6794067573675557,0.5610294680368985,-1.365831181680699, ,0.15183510649355325,0.03649882367633492,0.02960745635687733,0.0251587949171593,0.1393168459080555,-0.03597476133348982, ,1.7845268249511719
0.023694217180582455,0.019735611562908345,-0.11146424854614073, ,0.024578223439966705,0.019429038528141783,-0.11189705731451034, ,0.0010309110156818254, ,0.022820608493268807,0.0014911565435757237,-0.024681380438933125,0.071019846550166,-0.0007546197688318042,-0.059645817966602774, ,0.033647797256460214, ,0.07102379105639242, ,0.0011775743956638361, ,0.25179198263121594,-0.16707360300097304,0.12345088186000001,1.67961644731104,0.562395833034553,-1.3663736095366792, ,0.14944400245428469,0.032124895585128904,0.029388951143911442,0.05440080257631224,0.14262187194849246,-0.08389680904450886, ,1.7901408672332764
0.023694217180582455,0.019735611562908345,-0.11146424854614073, ,0.024696616197145544,0.019441563746956794,-0.11201647892712646, ,0.0011816202013151982, ,0.022820608493268807,0.0014911565435757237,-0.024681380438933125,0.071019846550166,-0.0007546197688318042,-0.059645817966602774, ,0.033647797256460214, ,0.07102379105639242, ,0.001177604364594587, ,0.25179198263121594,-0.16707360300097304,0.12345088186000001,1.67961644731104,0.562395833034553,-1.3663736095366792, ,0.14944400245428469,0.032124895585128904,0.029388951143911442,0.05440080257631224,0.14262187194849246,-0.08389680904450886, ,1.795623779296875
0.023880544345981136,0.019746141090520693,-0.11165872809310713, ,0.024814836431021347,0.01945440308346426,-0.1121337113309321, ,0.001087943859371766, ,0.022513626885665997,0.0008188364346088575,-0.022733847252849316,0.01923015388020839,-0.031825599269775615,0.025354929836290223, ,0.032005651056797924, ,0.03718415676973834, ,0.001176945096173831, ,0.2530121744253434,-0.16681875281612363,0.12368291777000001,1.6798261372545245,0.563352288532911,-1.3668268199019917, ,0.1496797185464839,0.03141242686477021,0.027275362191780828,-0.02707529215000115,0.12491989369110434,-0.05090630998804625, ,1.801055908203125
0.023880544345981136,0.019746141090520693,-0.11165872809310713, ,0.02493287993281927,0.019467555788794826,-0.112248758455134, ,0.001238206681365117, ,0.022513626885665997,0.0008188364346088575,-0.022733847252849316,0.01923015388020839,-0.031825599269775615,0.025354929836290223, ,0.032005651056797924, ,0.03718415676973834, ,0.001177392261029242, ,0.2530121744253434,-0.16681875281612363,0.12368291777000001,1.6798261372545245,0.563352288532911,-1.3668268199019917, ,0.1496797185464839,0.03141242686477021,0.027275362191780828,-0.02707529215000115,0.12491989369110434,-0.05090630998804625, ,1.8063099384307861
0.024144723565806787,0.019758148200428403,-0.11192213684783717, ,0.02505074254600094,0.0194810211170871,-0.11236162431175162, ,0.0010444228280400928, ,0.022537956066177964,0.0013565627212258741,-0.022214622100847174,-0.0015122083521222857,-0.04440314423450692,0.0020677823398253734, ,0.03167474011165736, ,0.04442882602594003, ,0.0011764287144133787, ,0.2547729575206666,-0.16647122983678353,0.12400050882000001,1.67961644731104,0.5648552900303309,-1.3673173081813876, ,0.14874128770920184,0.027230112355371816,0.026816181010101015,0.005488617858007314,0.10553444678318626,-0.017657187030902216, ,1.8115549087524414
0.024144723565806787,0.019758148200428403,-0.11192213684783717, ,0.025168420166071393,0.01949479832547702,-0.11247231299520877, ,0.0011916382333438612, ,0.022537956066177964,0.0013565627212258741,-0.022214622100847174,-0.0015122083521222857,-0.04440314423450692,0.0020677823398253734, ,0.03167474011165736, ,0.04442882602594003, ,0.0011765381354128786, ,0.2547729575206666,-0.16647122983678353,0.12400050882000001,1.67961644731104,0.5648552900303309,-1.3673173081813876, ,0.14874128770920184,0.027230112355371816,0.026816181010101015,0.005488617858007314,0.10553444678318626,-0.017657187030902216, ,1.816802978515625
0.02436583018387079,0.019772790999037847,-0.11213610828515143, ,0.025285908740402867,0.019508886674081766,-0.11258082868191499, ,0.0010554460072491687, ,0.022377481775709047,0.0015558728531955375,-0.020976426682308622,0.02676879775240612,-0.04506557560175124,-0.005475217302198373, ,0.03071128306202413, ,0.05241631975059662, ,0.0011756731916402806, ,0.256232554033895,-0.16622410238480834,0.12425976682,1.67961644731104,0.5658117455286888,-1.367607161066419, ,0.14944400245428469,0.023700534854762933,0.02565026009661836,0.005712966246596648,0.10557929263622465,-0.04378319726652725, ,1.8220078945159912
0.02436583018387079,0.019772790999037847,-0.11213610828515143, ,0.025403204268039728,0.019523285425989412,-0.11268717562985721, ,0.0012008635392452578, ,0.022377481775709047,0.0015558728531955375,-0.020976426682308622,0.02676879775240612,-0.04506557560175124,-0.005475217302198373, ,0.03071128306202413, ,0.05241631975059662, ,0.0011758518465878336, ,0.256232554033895,-0.16622410238480834,0.12425976682,1.67961644731104,0.5658117455286888,-1.367607161066419, ,0.14944400245428469,0.023700534854762933,0.02565026009661836,0.005712966246596648,0.10557929263622465,-0.04378319726652725, ,1.82725191116333
0.024598134051383048,0.01979341604723194,-0.11234769619888604, ,0.02552030279951527,0.019537993847245107,-0.11279135817818571, ,0.0010547377172330397, ,0.021904105464781564,0.0018536948538163099,-0.019337225454684876,0.047014809549210584,-0.029937379093610918,-0.031154385462897526, ,0.02927719776735218, ,0.05573720732299496, ,0.0011749989301839266, ,0.25780026880736256,-0.16600014313145584,0.1245216174,1.6802455171414936,0.5670414740265779,-1.3680381710187028, ,0.14897479051565274,0.019898708651388295,0.024098050711043876,0.03254080704459473,0.11605321471462515,-0.05336062851188791, ,1.832629919052124
0.024598134051383048,0.01979341604723194,-0.11234769619888604, ,0.02563720043666596,0.019553011206837733,-0.11289338074680083, ,0.001198008792180936, ,0.021904105464781564,0.0018536948538163099,-0.019337225454684876,0.047014809549210584,-0.029937379093610918,-0.031154385462897526, ,0.02927719776735218, ,0.05573720732299496, ,0.0011751598383097797, ,0.25780026880736256,-0.16600014313145584,0.1245216174,1.6802455171414936,0.5670414740265779,-1.3680381710187028, ,0.14897479051565274,0.019898708651388295,0.024098050711043876,0.03254080704459473,0.11605321471462515,-0.05336062851188791, ,1.8379697799682617
0.0248207372664566,0.01981505594593122,-0.11254074802013636, ,0.025753893332442587,0.019568336776688098,-0.11299324783594142, ,0.0010660237686196655, ,0.021721194827860855,0.002526891471093068,-0.019022984712863046,0.0397323774324283,-0.01752365471641077,-0.061785472747200025, ,0.028983951294507676, ,0.04342508261294029, ,0.001174401948936932, ,0.2593216471835848,-0.16582252027534866,0.12476402363000001,1.6806648970284628,0.5682712025244668,-1.3685508597111273, ,0.14758466805360929,0.015468124133410071,0.02391713441441442,0.07445527922017,0.12020320521496926,-0.02966080623289996, ,1.8440208435058594
0.025038612241307948,0.01983951877446935,-0.11273137084611708, ,0.02587037769072829,0.01958396983163428,-0.11309096402576968, ,0.0009415127614038046, ,0.02167131173763724,0.0027278442937619064,-0.018903802343633536,0.06595632916841913,-0.015257272638345105,-0.04571967747329076, ,0.028886686032981144, ,0.06769800079534107, ,0.001172795816609117, ,0.2608044118954359,-0.16569123381648684,0.12500383728,1.6806648970284628,0.5695009310223558,-1.3689001909232705, ,0.14735549931439562,0.01258246374416213,0.02388127664167916,0.04950962402120803,0.12654754939209817,-0.06049891078396988, ,1.8492708206176758
0.025038612241307948,0.01983951877446935,-0.11273137084611708, ,0.025986649766146105,0.019599909649420724,-0.11318653397596223, ,0.0010785922102807288, ,0.02167131173763724,0.0027278442937619064,-0.018903802343633536,0.06595632916841913,-0.015257272638345105,-0.04571967747329076, ,0.028886686032981144, ,0.06769800079534107, ,0.0011721505864287858, ,0.2608044118954359,-0.16569123381648684,0.12500383728,1.6806648970284628,0.5695009310223558,-1.3689001909232705, ,0.14735549931439562,0.01258246374416213,0.02388127664167916,0.04950962402120803,0.12654754939209817,-0.06049891078396988, ,1.8544888496398926
0.025249872841759512,0.019865739356551827,-0.11291815456053562, ,0.026102705863876335,0.01961615551068423,-0.11327996242529423, ,0.000959437955644946, ,0.022314085919168072,0.0032377863233249713,-0.020021102031423852,0.03266261556030451,-0.036170835618535735,-0.024953912593432485, ,0.030153709842011305, ,0.04873574240396973, ,0.001170703561729576, ,0.26222539474429324,-0.16558311555624772,0.12523846577,1.6806648970284628,0.5705940230204792,-1.3691381042317174, ,0.14850851574095583,0.009337268422960709,0.0251243083911672,0.03610487146209024,0.10857061680023283,-0.026909341822137063, ,1.8597478866577148
0.025249872841759512,0.019865739356551827,-0.11291815456053562, ,0.026218542339469242,0.01963270669894126,-0.11337125419122829, ,0.0010944971862184441, ,0.022314085919168072,0.0032377863233249713,-0.020021102031423852,0.03266261556030451,-0.036170835618535735,-0.024953912593432485, ,0.030153709842011305, ,0.04873574240396973, ,0.0011701886537869334, ,0.26222539474429324,-0.16558311555624772,0.12523846577,1.6806648970284628,0.5705940230204792,-1.3691381042317174, ,0.14850851574095583,0.009337268422960709,0.0251243083911672,0.03610487146209024,0.10857061680023283,-0.026909341822137063, ,1.8651318550109863
0.025478020030380768,0.019898807870939814,-0.11311988261942889, ,0.026334155598658007,0.01964956250057515,-0.11346041416950144, ,0.0009544910175126958, ,0.021574909113302437,0.003051156540664654,-0.018675552500188933,0.015795718252913413,-0.04480481307901674,0.011702609436989014, ,0.028697779019816398, ,0.04750761747747093, ,0.0011687410186441531, ,0.2637467731205155,-0.16549816549463126,0.12549253861,1.680874586971947,0.5716871150186029,-1.3692943388000238, ,0.1444397892822995,0.007286982758466594,0.02363325151335312,0.0,0.10166538779442183,-0.017249423604271147, ,1.8707549571990967
0.025478020030380768,0.019898807870939814,-0.11311988261942889, ,0.02644954209717471,0.019666722204822327,-0.11354744733371065, ,0.0010865221891814335, ,0.021574909113302437,0.003051156540664654,-0.018675552500188933,0.015795718252913413,-0.04480481307901674,0.011702609436989014, ,0.028697779019816398, ,0.04750761747747093, ,0.0011681928931144016, ,0.2637467731205155,-0.16549816549463126,0.12549253861,1.680874586971947,0.5716871150186029,-1.3692943388000238, ,0.1444397892822995,0.007286982758466594,0.02363325151335312,0.0,0.10166538779442183,-0.017249423604271147, ,1.8760528564453125
0.025697706321483906,0.019935357444828064,-0.11330376160401358, ,0.026564698341576123,0.019684185103306794,-0.11363235873422259, ,0.0009605929325320155, ,0.022020671426813295,0.0036398695867082952,-0.018119561508142413,0.013080787309589064,-0.031364324873767994,-0.002526013943063082, ,0.028748515265023197, ,0.03398272970588569, ,0.0011668180589383592, ,0.2652295378323666,-0.1654518290973859,0.12572846339000002,1.6815036568024009,0.5727802070167264,-1.3693688946281894, ,0.1496797185464839,0.002852962283297032,0.02339032528634362,0.024023997367264842,0.11666156574526115,-0.0023049891919827425, ,1.8813347816467285
0.025697706321483906,0.019935357444828064,-0.11330376160401358, ,0.02667962088495638,0.019701950491846927,-0.11371515350049234, ,0.0010898983017454753, ,0.022020671426813295,0.0036398695867082952,-0.018119561508142413,0.013080787309589064,-0.031364324873767994,-0.002526013943063082, ,0.028748515265023197, ,0.03398272970588569, ,0.0011663120079041956, ,0.2652295378323666,-0.1654518290973859,0.12572846339000002,1.6815036568024009,0.5727802070167264,-1.3693688946281894, ,0.1496797185464839,0.002852962283297032,0.02339032528634362,0.024023997367264842,0.11666156574526115,-0.0023049891919827425, ,1.886866807937622
0.025898461741182037,0.019971981835542673,-0.11346744634951947, ,0.02679430633297401,0.01972001766770618,-0.11379583683653506, ,0.000986845371108767, ,0.020687157428781973,0.003779518217437781,-0.01679097361429872,0.06516242075122129,0.030366673726494136,-0.05416938011632582, ,0.026910593366836582, ,0.07189071300720039, ,0.001165139023349977, ,0.2666119070168527,-0.16542866089876324,0.12594235124,1.6823424165763388,0.5741465720143808,-1.3695846075236076, ,0.14400142876854444,0.001996308574535493,0.022092665076282943,0.07623463418419962,0.16518788116715005,-0.03858473526091738, ,1.8921749591827393
0.025898461741182037,0.019971981835542673,-0.11346744634951947, ,0.026908751339482628,0.019738385931408066,-0.11387441402326726, ,0.0011139456029530881, ,0.020687157428781973,0.003779518217437781,-0.01679097361429872,0.06516242075122129,0.030366673726494136,-0.05416938011632582, ,0.026910593366836582, ,0.07189071300720039, ,0.001164806598542205, ,0.2666119070168527,-0.16542866089876324,0.12594235124,1.6823424165763388,0.5741465720143808,-1.3695846075236076, ,0.14400142876854444,0.001996308574535493,0.022092665076282943,0.07623463418419962,0.16518788116715005,-0.03858473526091738, ,1.8975059986114502
0.02611050153017208,0.020006419927788243,-0.11363210205117057, ,0.027022952607400487,0.019757054586265546,-0.11395089041740428, ,0.0009981863875719644, ,0.020466132530288273,0.0030876297092573904,-0.014875726473071867,0.02316453135249102,0.010695714884024262,0.024599964852708104, ,0.025488885343821214, ,0.025514566451846337, ,0.0011637316294391712, ,0.2681101171944523,-0.16540549270014054,0.12616142425000001,1.6825521065198237,0.5759228465113315,-1.3698895379096931, ,0.14599529470533967,0.0019189504502555128,0.020086773669609086,0.0,0.15989742046921246,-0.015526154440621776, ,1.902937889099121
0.02611050153017208,0.020006419927788243,-0.11363210205117057, ,0.027136906888523875,0.01977602293836809,-0.11402527145104595, ,0.0011230195498679052, ,0.020466132530288273,0.0030876297092573904,-0.014875726473071867,0.02316453135249102,0.010695714884024262,0.024599964852708104, ,0.025488885343821214, ,0.025514566451846337, ,0.0011634706545701247, ,0.2681101171944523,-0.16540549270014054,0.12616142425000001,1.6825521065198237,0.5759228465113315,-1.3698895379096931, ,0.14599529470533967,0.0019189504502555128,0.020086773669609086,0.0,0.15989742046921246,-0.015526154440621776, ,1.9085938930511475
0.02631793791947253,0.020036763529717515,-0.11377464737082776, ,0.027250610983340827,0.01979529029656876,-0.11409756263126491, ,0.0010161016837974361, ,0.020302671859755744,0.0032169795623708257,-0.013762774053428375,-0.0050786592740437895,-0.002862470508719474,0.03248863477119319, ,0.02473785341931168, ,0.0058297533103217475, ,0.0011625319987053303, ,0.26960832737205187,-0.16539776996726632,0.12635716404000003,1.6823424165763388,0.5775624845085168,-1.3699196929118012, ,0.14577103157983223,-0.0007885211127833465,0.01896287085714286,0.0,0.14575800985114115,0.015920369615901014, ,1.9148998260498047
0.02652637322562734,0.020069183212368193,-0.11391290962335364, ,0.027364061740844412,0.019814855972471387,-0.11416776953969351, ,0.0009117883364229226, ,0.02027221950552788,0.0030463485757145047,-0.012962742038425477,-0.04722741183853664,-0.04366109350137948,0.03358921204622222, ,0.024254397631766202, ,0.06431733163541663, ,0.0011609450135010113, ,0.271091092083903,-0.16539776996726632,0.12654771867,1.6825521065198237,0.5787922130064057,-1.3693705579823983, ,0.14400142876854444,-0.0005572599720711947,0.01797834257336343,0.0039468956854083834,0.10158438357798501,0.058172758522457804, ,1.92010498046875
0.02652637322562734,0.020069183212368193,-0.11391290962335364, ,0.027477256058346423,0.019834719280417617,-0.11423589783211094, ,0.0010312482145157123, ,0.02027221950552788,0.0030463485757145047,-0.012962742038425477,-0.04722741183853664,-0.04366109350137948,0.03358921204622222, ,0.024254397631766202, ,0.06431733163541663, ,0.001160129310362739, ,0.271091092083903,-0.16539776996726632,0.12654771867,1.6825521065198237,0.5787922130064057,-1.3693705579823983, ,0.14400142876854444,-0.0005572599720711947,0.01797834257336343,0.0039468956854083834,0.10158438357798501,0.058172758522457804, ,1.9253239631652832
0.02672802002343903,0.020101993682601543,-0.11403689072730326, ,0.02759019088129104,0.01985487953747421,-0.11430195323803118, ,0.0009352337266398547, ,0.020224838417648962,0.0031755242558902793,-0.01211765589800061,0.007594676259546149,-0.005342129891746265,-0.03035072696312124, ,0.023790032109732552, ,0.009285321642004492, ,0.001158723712964471, ,0.27253524313138294,-0.16540549270014054,0.12672271782000002,1.683181176350277,0.5798853050045292,-1.3689550413697207, ,0.14689929033819007,0.0,0.017351646535947715,0.06459108938394359,0.13353120090044857,0.019044427765314252, ,1.9305717945098877
0.02672802002343903,0.020101993682601543,-0.11403689072730326, ,0.02770286320306791,0.01987533606341981,-0.11436594156028944, ,0.0010535498810644774, ,0.020224838417648962,0.0031755242558902793,-0.01211765589800061,0.007594676259546149,-0.005342129891746265,-0.03035072696312124, ,0.023790032109732552, ,0.009285321642004492, ,0.0011580704593501855, ,0.27253524313138294,-0.16540549270014054,0.12672271782000002,1.683181176350277,0.5798853050045292,-1.3689550413697207, ,0.14689929033819007,0.0,0.017351646535947715,0.06459108938394359,0.13353120090044857,0.019044427765314252, ,1.9360778331756592
0.026931565534231663,0.020136921819104838,-0.11416388128125113, ,0.027815270064826224,0.0198960881807324,-0.11442786867462978, ,0.0009532176470397072, ,0.020118350322314536,0.0034025919222629097,-0.013238456563419538,0.06696270173260237,0.03386542528922018,-0.038454964938340976, ,0.024322466644285237, ,0.07503912344058304, ,0.0011568059358174046, ,0.2727128659874901,-0.16540549270014054,0.12674345846,1.6833908662937616,0.5801585780040601,-1.3689328409566919, ,0.14712704117592368,0.0,0.01756208546857773,0.10405714811365117,0.1424505222887137,0.002147520588434676, ,1.9414279460906982
0.026931565534231663,0.020136921819104838,-0.11416388128125113, ,0.027927408555287768,0.01991713521457622,-0.11448774052929285, ,0.0010699973302109298, ,0.020118350322314536,0.0034025919222629097,-0.013238456563419538,0.06696270173260237,0.03386542528922018,-0.038454964938340976, ,0.024322466644285237, ,0.07503912344058304, ,0.0011562733676848496, ,0.2727128659874901,-0.16540549270014054,0.12674345846,1.6833908662937616,0.5801585780040601,-1.3689328409566919, ,0.14712704117592368,0.0,0.01756208546857773,0.10405714811365117,0.1424505222887137,0.002147520588434676, ,1.9467740058898926
