NicholasDascanio/dvrk_moveit_final/test/execution/third_experiment_notsharpbends/thirdexp_200vel4.0/thirdexp_200vel4.0_2.csv
Current Position (x),Current Position (y),Current Position (z), ,Planned Position (x),Planned Position (y),Planned Position (z), ,Position Error,,Cartesian linear Velocity(x),Cartesian linear Velocity(y),Cartesian linear Velocity(z),Cartesian Angular Velocity(x),Cartesian Angular Velocity(y),Cartesian Angular Velocity(z), ,Total Linear Velocity, ,Total Angular Velocity, ,MSE, ,Joint 1 Position,Joint 2 Position,Joint 3 Position,Joint 4 Position,Joint 5 Position,Joint 6 Position, ,Joint 1 Velocity,Joint 2 Velocity,Joint 3 Velocity,Joint 4 Velocity,Joint 5 Velocity,Joint 6 Velocity, ,Time Stamp
0.009210511019852805,0.020063711349787534,-0.07890491437131962, ,0.009467560819450339,0.02004641277237071,-0.07909431014255616, ,0.00031975709283151645, ,0.0019815426684946405,0.0006290160763613942,-0.0024326605313737598,0.2887655120085789,-0.1369003373997805,-0.03566558328108446, ,0.0032000015362948827, ,0.3195735021957629, ,2.664642440262637e-05, ,0.13219774134097514,-0.246911215454706,0.08851457007,1.603289307882673,0.1401890487593419,-1.3173609327228695, ,0.005227534079802772,0.0,0.0025654391238524726,-0.0013664700078405588,-0.13640030543955958,-0.28896144289068504, ,0.053282976150512695
0.009320295695134869,0.020118392555947953,-0.07911905500520094, ,0.009600473626595196,0.020111405551773986,-0.07937545938875919, ,0.00037985747249803694, ,0.003002599686836369,0.0013774579931072036,-0.005304967303494239,-0.018862216906224152,-0.14717017951774972,-0.03568359678736684, ,0.006249453855602722, ,0.14837400365866837, ,3.180066206043425e-05, ,0.1326842735120513,-0.2469034927218318,0.08874142082000001,1.6030796179391889,0.1355434077673169,-1.3259878924985566, ,0.01282737788030154,5.186848834002398e-05,0.005634528305624337,0.0016193230184086216,-0.1389854248555881,0.0190640083627589, ,0.10538887977600098
0.00945854926452716,0.02019937026976091,-0.0794355105164667, ,0.009733191374400967,0.02017434612652697,-0.07965553516788307, ,0.00035279646184651785, ,0.0023973972512066834,0.0012617862955426153,-0.0050195520063903406,0.02728307580055334,-0.0026542543221333217,0.0025833648756663865, ,0.005703991635738065, ,0.02741188224034831, ,3.288784459925223e-05, ,0.13393535623767566,-0.24686487905746068,0.08908234509000001,1.6037086877696423,0.1360899537663787,-1.3220229121457518, ,0.02369461711821992,0.0008778236679140191,0.005440167868852459,0.002414804179956628,0.02105686723903987,-0.02784095470790764, ,0.15991497039794922
0.009570190869590768,0.020254224302815586,-0.07965158511436232, ,0.00986571090580134,0.02023526369364023,-0.0799345371022151, ,0.0004095771281847111, ,0.0031713488688074553,0.001640256278365733,-0.006348708237215362,0.0015422158174204321,-0.027930412915657187,-0.0024031851629114057, ,0.00728381703419922, ,0.027972958101577645, ,3.56582476917264e-05, ,0.1349856479085702,-0.24683398812596377,0.08931697358000001,1.6037086877696423,0.13636322676590956,-1.322572462913707, ,0.028523276693258423,0.0005467701419915085,0.006880696120950325,0.002414804179956628,0.0,-0.0017689051179541704, ,0.20694589614868164
0.009695637436427903,0.02031788863788891,-0.0799052411834504, ,0.00999802912087669,0.02029418727355747,-0.0802124648306915, ,0.0004317277555579119, ,0.003146356475847814,0.0015922446513239568,-0.006339073979048706,0.007480239710119883,-0.018865444486339308,-0.005591694361226629, ,0.0072538721393909066, ,0.02029430884637445, ,3.787431821837388e-05, ,0.13642207622317595,-0.2467799289958442,0.08965012011000001,1.6041280676566114,0.1370464092647368,-1.3232112311723299, ,0.03038646863863938,0.0011841627234281107,0.00581768134404675,0.00306659485577043,0.013016520030159363,-0.009576283477834572, ,0.2546699047088623
0.00985206203164736,0.020385906971351075,-0.08019127237361995, ,0.010130142976616822,0.02035114571059908,-0.08048931800890499, ,0.0004091070250150226, ,0.00320753474386347,0.0014866025080517143,-0.006406986844899322,0.006649956801084901,-0.01758971377031476,-0.0009843573726805554, ,0.007317632580332926, ,0.018804785167125408, ,3.903089721921554e-05, ,0.1376654362159261,-0.2466795334684793,0.08990289666000001,1.6045474475435806,0.13745631876403308,-1.323545484883419, ,0.029738934991686238,0.0025753988790725964,0.006922560417209909,0.0036020553399385216,0.01161867138269879,-0.008722469763480107, ,0.30179882049560547
0.009978055645845241,0.020443613322580365,-0.08044342501119632, ,0.010262049486682263,0.020406167673405327,-0.08076509630910873, ,0.0004307285713487781, ,0.002963919609411055,0.0013776431635423678,-0.0058922859789213786,0.007581886348651239,-0.015446055634145521,-0.0009814921943323545, ,0.006738082382584816, ,0.017206557707872727, ,4.079927622809694e-05, ,0.13912503272915455,-0.24653280154386903,0.09024252464000002,1.6045474475435806,0.1381395012628603,-1.3238575381814794, ,0.027796409361004918,0.0037580824010746082,0.00687772518134715,0.0036020553399385216,0.013142037708683595,-0.010716450540774195, ,0.34374094009399414
0.010125133511338867,0.02050751623066838,-0.0807502048915335, ,0.01039374572116434,0.020459281655380575,-0.08103979942022044, ,0.00039792472223515435, ,0.003074453031158017,0.000946457453743021,-0.005495522101773297,-0.018470759485255017,-0.021619970593339387,-0.010293140530459984, ,0.006367794463047723, ,0.028435753540333845, ,4.175301639356866e-05, ,0.14016760166717485,-0.24636290142063608,0.09050437522,1.6049668274305493,0.13854941076215663,-1.3235383619714443, ,0.02844632540721546,0.006200873186855729,0.005895193012583273,0.0109543368381537,0.004298995965875812,0.01381403387772324, ,0.3857920169830322
0.010251186999095947,0.020569075869662168,-0.08105017747111556, ,0.010525228806343828,0.020510515975134813,-0.08131342704782596, ,0.0003844847370246854, ,0.0032940471502439362,0.001492183584680068,-0.007561530541794586,-0.02421627848180168,-0.025184123134994102,-0.007519281988965997, ,0.008381772044914559, ,0.034938062007883484, ,4.2360975500510056e-05, ,0.14130284339968585,-0.24615438763303202,0.09082455885000001,1.6053862073175185,0.13964250276028015,-1.3235312390594693, ,0.02688298627718719,0.0058250035765686,0.008040793296314994,0.007027672598510503,0.0,0.01940931932708073, ,0.4275848865509033
0.010376674068175093,0.020622048248221322,-0.08131472717551838, ,0.010656495924448374,0.020559898776925305,-0.08158597891417961, ,0.0003946394984759371, ,0.00324165686694966,0.0010748965011889591,-0.005402407980662064,-0.010646917284501107,-0.01596612638780771,-0.005411469955213726, ,0.006391381206032959, ,0.019190467292188616, ,4.297363148371727e-05, ,0.14246897606369374,-0.24595359657830218,0.09110844636000001,1.6055958972610032,0.14059895825863825,-1.3234126982437981, ,0.03128814426589871,0.00446067599335004,0.00587345557522124,0.00849683434649937,0.013678082168878688,0.007400096800643897, ,0.469635009765625
0.010495986355688625,0.020663865785189053,-0.08154117596324875, ,0.010787544313409286,0.020607458031101034,-0.08185745475820658, ,0.00043384346666910993, ,0.0033433117132488535,0.0014334067020821597,-0.007305518564977408,0.01361306512643168,0.002866993660495147,0.005711008254886336, ,0.008161065462839432, ,0.013911691988273621, ,4.433106052742226e-05, ,0.14360421779620475,-0.2457373600578239,0.09135214888000001,1.6058055872044876,0.14141877725723084,-1.3239178481856957, ,0.031339808969111885,0.005767076669024627,0.007831274100294987,0.002045057982335321,0.03476139308985369,-0.019042258407495953, ,0.5068778991699219
0.010615177523428257,0.020716008458366516,-0.0817989348813979, ,0.010918371266616742,0.02065322153454219,-0.08212785433550125, ,0.00045172630098280937, ,0.00360431305517668,0.0014786199022244388,-0.007633123935334181,0.016117959322637265,-0.012191241404777866,-0.0069593711544530925, ,0.00856982907805884, ,0.020209278903590925, ,4.5677811739716104e-05, ,0.14464678673422507,-0.2455520144688425,0.09162825865,1.6060152771479719,0.14196532325629263,-1.3242001623202002, ,0.031812585168780015,0.0063228717723475625,0.008172812478193948,0.01075014022018247,0.017532347048339676,-0.020874795966129327, ,0.5434470176696777
0.010764115605758831,0.020774546222338548,-0.08209690848377199, ,0.011048974132674675,0.020697216911103142,-0.08239717741832772, ,0.00042105300829235303, ,0.003734677592836773,0.001321907555873372,-0.007315351204139488,-0.009094541538237072,-0.018485404226190952,-0.009028601044453593, ,0.008319231908572885, ,0.020601476506473745, ,4.6582350365737e-05, ,0.14596737405571747,-0.24531260974974156,0.09194844228000001,1.606434657034941,0.1425118692553544,-1.3243191189744234, ,0.03309973545813421,0.00721263650042287,0.007842841713441656,0.011438513945607331,0.012210430077762508,0.003571946448558471, ,0.580211877822876
0.010893618828915944,0.020821640451131447,-0.08235808085467834, ,0.011179350315154404,0.02073947161205378,-0.0826654237956176, ,0.00042761417620163574, ,0.003976892224524038,0.00131782555341485,-0.007321999553685649,-0.004463506706766271,-0.019794270918737457,-0.004259690624055791, ,0.008435876564938924, ,0.020291279710278113, ,4.783760523020491e-05, ,0.14714122945259958,-0.24505775956489215,0.09222844092000002,1.6066443469784255,0.14333168825394704,-1.3247425901761805, ,0.03605506898118191,0.0072751871420804,0.007885550257425744,0.007152761404707012,0.014981972125112581,-0.0017171220783886443, ,0.612252950668335
0.011014435337691999,0.02086925553339772,-0.08261729854259525, ,0.011309497272347561,0.020780012916519854,-0.08293259327296729, ,0.00044094960817565886, ,0.004093357134609408,0.0015537148785395327,-0.00865707165580597,0.008916912865537125,-0.007753971300742788,0.0026808042742226877, ,0.009701262402853145, ,0.011816740555662297, ,4.9078927623708376e-05, ,0.148222412054991,-0.24481835484579118,0.09250584698000001,1.6068540369219102,0.14428814375230511,-1.325359158021774, ,0.036331141484866304,0.008339769190168865,0.009260936930232559,0.0032298701154844984,0.02866309693785791,-0.016705850511868136, ,0.6437978744506836
0.011134133106346722,0.02091061521980902,-0.08286061852886499, ,0.011439412517018556,0.020818867931924383,-0.0831986856726355, ,0.00046465307177665025, ,0.0036269242098600947,0.0012074115350853463,-0.007889797589324992,0.02811669656461335,0.02451211955822866,0.03391587169370465, ,0.008767059246956466, ,0.03730137531473943, ,5.0388000747049916e-05, ,0.14931131739025666,-0.24454805919519332,0.09276640127,1.6074831067523636,0.14524459925066321,-1.325649010906806, ,0.03613744918449001,0.009667734760161398,0.008427942603174603,-0.019658790033983044,0.06746775642202851,-0.04049565288557857, ,0.6756927967071533
0.011260619944266081,0.020950059045420175,-0.08311199244553785, ,0.01156909361615616,0.020856063594430003,-0.08346370083354054, ,0.00047716867169549744, ,0.004248073033361869,0.001255742997295108,-0.008415527217078923,0.002175390412162403,-0.02133534980003155,-0.01138299511144281, ,0.009510211002571295, ,0.021445965409043276, ,5.1673593888323425e-05, ,0.15039249999264812,-0.2442545953459728,0.09302825185000001,1.6072734168088794,0.14579114524972495,-1.3257679675610292, ,0.03631723748889046,0.011226918797391003,0.008883888187395427,0.013238832746269965,0.012176088388484382,-0.011137890612282434, ,0.7072019577026367
0.01139006881387741,0.020995720672487922,-0.08338673219400003, ,0.011698538190724443,0.020891626669376974,-0.08372763861125432, ,0.0004713874237410393, ,0.004800256368058647,0.0015865238373922639,-0.009787060807814028,-0.012843142195684224,-0.03506194669122307,-0.015475818530721023, ,0.011015719601621623, ,0.03734014351123753, ,5.318437015995053e-05, ,0.15152001899228487,-0.24393796329812958,0.09332769484,1.6079024866393328,0.14647432774855218,-1.3261616995992302, ,0.038860336428530214,0.011288349524557243,0.01042461486910995,0.01443620060067988,0.00031992825559674817,0.003798760588235632, ,0.7337629795074463
0.011527901331300328,0.021046204982850203,-0.08369758447133513, ,0.011827743915413151,0.020925583751725516,-0.08399049887799898, ,0.0004361810475900166, ,0.004375122779499525,0.0018096583868294322,-0.010536598305456831,0.03466890324524904,0.023266742508648502,-0.0007492889552450807, ,0.01155147032473674, ,0.04175253320846774, ,5.435052904207562e-05, ,0.152693874389167,-0.2435904403187895,0.09365824879000001,1.6079024866393328,0.1475674197466757,-1.3268080066083798, ,0.03672482258454752,0.011385355915833326,0.01037707590879479,0.01443620060067988,0.020455946807810065,-0.0067851742226404865, ,0.7606539726257324
0.011621455397141135,0.021072433776659665,-0.08388638570010304, ,0.011956708518387916,0.020957961266496697,-0.0842522815226423, ,0.0005092920221644984, ,0.004735059407160062,0.0013707202237677738,-0.00945544336514073,0.002988736630239855,-0.009428023064010969,-0.005307393400292575, ,0.010663257980212466, ,0.009890403933106456, ,5.592363749872543e-05, ,0.15350476134096058,-0.24332786740106585,0.09385917374000001,1.6079024866393328,0.14811396574573746,-1.3270086420027438, ,0.04138549566440069,0.012688453210117768,0.010087911032298925,0.011186590928765722,0.030171979899779395,-0.013872526545254053, ,0.7871909141540527
0.011719163801641175,0.021098140051585636,-0.08407298447139146, ,0.012085429781039493,0.020988785469211808,-0.08451298645069105, ,0.0005828472648458817, ,0.0051007302349486,0.0012083101211185468,-0.009718836778178178,-0.004188088556841756,-0.01975909373679534,-0.011706997124026996, ,0.011042339000383258, ,0.02019806387624723, ,5.8240751788086595e-05, ,0.1543928756214964,-0.243057571750468,0.09405880240000002,1.608321866526302,0.14893378474433008,-1.3274321132045008, ,0.0440152790159883,0.01532820894176559,0.010343384103896106,0.01515033482177625,0.021251680483016788,-0.008694597988306404, ,0.8083469867706299
0.011815546013341548,0.021127486173689813,-0.08427918570432945, ,0.0122139055377327,0.021018082446333252,-0.0847726135842858, ,0.0006435297653961856, ,0.005333606563059443,0.0018410243260916428,-0.012203804559748965,0.027470615392733048,0.01801041869309169,0.003655686781871841, ,0.013445057652212636, ,0.03284828185557702, ,6.08229326575447e-05, ,0.1552114853061642,-0.24277955336699591,0.09427787541,1.6085315564697864,0.1496169672431573,-1.3278258452427016, ,0.046518108607093524,0.015168948458834843,0.012971344885993488,0.01002643482171582,0.06405642670188791,-0.04094406888189001, ,0.831312894821167
0.011957241238920148,0.021175379287929025,-0.0846069235704691, ,0.01234213367555492,0.021045878115703284,-0.08503116286219434, ,0.000587274823255706, ,0.006120651642540055,0.0018582480450681851,-0.01292000177567519,-0.014086580321083099,-0.021060497927168555,-0.0033382296508581858, ,0.014416723213330346, ,0.025337244484631784, ,6.29332583791737e-05, ,0.15640078616879477,-0.2423625257917878,0.09462528113000002,1.6085315564697864,0.15098333224081167,-1.328368273098682, ,0.050156945855428535,0.016945882421155495,0.01373173406896552,0.007832978613341023,0.02805608086564337,-0.0014705711783046128, ,0.8522169589996338
0.012077514354063436,0.02121043584007834,-0.08486678046061528, ,0.012470112134064633,0.021072198226986895,-0.08528863423980536, ,0.000592624050770837, ,0.005927931124600139,0.0015970376503445655,-0.01285149964484517,0.02827373118104982,0.03063822465291396,0.0016063115786309043, ,0.014242610006458671, ,0.041690578482617625, ,6.536593473841054e-05, ,0.1574433551068151,-0.241991834613825,0.09490139090000001,1.6089509363567556,0.15221306073870067,-1.3288809617911066, ,0.053463065666744095,0.019782560258176107,0.013649367197943447,0.01604042852779096,0.08273897546620625,-0.04535937934685907, ,0.8680329322814941
0.012137857797426896,0.0212274253027779,-0.08499483961160803, ,0.012597838905038834,0.02109706836210935,-0.08554502768912112, ,0.0007288912621083585, ,0.0065836361885989155,0.002014215112269312,-0.01432622806294672,-0.0007689759747643708,-0.007746101402817621,0.00021774044204374388, ,0.01589472045975913, ,0.0077841382000495875, ,6.851855874961248e-05, ,0.15796077820938811,-0.2418064890248436,0.09503750135000001,1.6091606263002398,0.15275960673776243,-1.3291632759256111, ,0.05428886816846154,0.01910548450945657,0.015213764584527223,0.008258578336453748,0.04594077986762261,-0.016826454512074884, ,0.8836050033569336
0.012239862130581291,0.021258970910450977,-0.08521846619850995, ,0.012725312032220628,0.02112051393569723,-0.08580034319875038, ,0.000770332904832969, ,0.007470361662506878,0.00239057899246807,-0.016624752269759027,0.01934709637163796,-0.027074059356650974,-0.002929942358703736, ,0.01838215328297368, ,0.03327632128319211, ,7.180214728789232e-05, ,0.1587793878940559,-0.2415130251756231,0.09527472242000001,1.6091606263002398,0.15330615273682416,-1.329363911319975, ,0.05832633162782469,0.02130122144971286,0.01762036672566372,0.007258572173412598,0.030432276891746442,-0.03926346756355214, ,0.8997390270233154
0.012425819969612232,0.02131436758781661,-0.08563948370290236, ,0.012852529611066477,0.02114256019551802,-0.08605458077390069, ,0.0006196002554145994, ,0.007735819280520253,0.0020858048360900237,-0.01689296738034591,0.007643699881832776,0.006386891921747361,-0.008223505041810642, ,0.018696679616139234, ,0.009960781123218666, ,7.411182622246902e-05, ,0.1603162117360266,-0.24091065201143358,0.09572064618000001,1.6097896961306934,0.1550824272337749,-1.3304856291074663, ,0.06407626033657716,0.025585586831617897,0.01789754103370787,0.02131332442451482,0.0673902501793287,-0.02956845460914571, ,0.9158148765563965
0.012501224518107416,0.021335368143995243,-0.0858044918371569, ,0.012979489788492954,0.021163232222920263,-0.08630774043637121, ,0.0007152814808118919, ,0.007919573118618626,0.002138277719819838,-0.01725690603941718,0.011487158297283454,0.018545120614508664,-0.004613693562953238, ,0.01910739846346168, ,0.02181455417649617, ,7.731554276691507e-05, ,0.1609417530988388,-0.2406712472923326,0.09589564533000002,1.6097896961306934,0.15576560973260212,-1.330716003665386, ,0.06682883208343011,0.026013415997387823,0.018308978758620694,0.02131332442451482,0.08275439590764185,-0.033821565374022186, ,0.9268310070037842
0.012588527584419681,0.021358433255976944,-0.08599382163812935, ,0.013106190762623534,0.02118255493327404,-0.08655982222454385, ,0.0007869339326058161, ,0.008724404693110642,0.002396966939743221,-0.01906661125222702,0.027690230078966666,0.020469879137491133,0.00027745441185227267, ,0.021104415471719255, ,0.034434899069417546, ,8.084796090698204e-05, ,0.16168313545476434,-0.2403855061759863,0.09609657028000002,1.6097896961306934,0.1567220652309602,-1.3313325715109798, ,0.0732794915509427,0.028159329839308835,0.020239912986022877,0.01816984168217999,0.09215397185723617,-0.05262502564402457, ,0.9375109672546387
0.012681837281317127,0.02138587778430031,-0.08620540652699593, ,0.01323263078253444,0.021200553076407773,-0.08681082619337524, ,0.0008391970571787737, ,0.009351802592276106,0.0029050030072584354,-0.021807795648532954,-0.006856568137284975,0.012901618089507561,0.01168269914761223, ,0.023905547583045562, ,0.014610247894626255, ,8.459106110236773e-05, ,0.16244768600931256,-0.24008431959389157,0.09632082845,1.6099993860741781,0.15767852072931826,-1.3317857818762926, ,0.07460451380382924,0.02974825754184037,0.02308523408695653,0.00512954093894323,0.08890850218476876,-0.02167219323004326, ,0.9481258392333984
0.0127755036592083,0.021413206553571006,-0.08641862368755988, ,0.013358808148001413,0.021217251237051836,-0.08706075241438843, ,0.0008893660183168539, ,0.010260042887014403,0.0027196966998836235,-0.022717629598964593,-0.0068836599104494835,-0.011767651328187356,0.0063313135423728, ,0.025075005977636077, ,0.013632913874621512, ,8.852649222866344e-05, ,0.1631813456323639,-0.2397831330117968,0.09654638291,1.6099993860741781,0.1583617032281455,-1.3320161564342126, ,0.080832147835154,0.03427119594022057,0.02402535674208145,0.00512954093894323,0.06990215498978962,-0.026114476131779824, ,0.9586219787597656
0.0127755036592083,0.021413206553571006,-0.08641862368755988, ,0.013484721209245152,0.02123267383527571,-0.08730960097566405, ,0.0011530056910409503, ,0.010260042887014403,0.0027196966998836235,-0.022717629598964593,-0.0068836599104494835,-0.011767651328187356,0.0063313135423728, ,0.025075005977636077, ,0.013632913874621512, ,9.38019122642506e-05, ,0.1631813456323639,-0.2397831330117968,0.09654638291,1.6099993860741781,0.1583617032281455,-1.3320161564342126, ,0.080832147835154,0.03427119594022057,0.02402535674208145,0.00512954093894323,0.06990215498978962,-0.026114476131779824, ,0.9693288803100586
0.012883086618417484,0.021444137725498028,-0.0866700909372825, ,0.013610368366677178,0.02124684512692854,-0.0875573719818316, ,0.0011641008387670297, ,0.010542105486604303,0.0034614204954125606,-0.026345280245334477,0.036544747555975574,0.03799593494877372,0.006096302510885483, ,0.02858655647576262, ,0.05271808944781237, ,9.955620756802897e-05, ,0.16403856898140282,-0.23941244183383403,0.09681212236000002,1.6102090760176624,0.159454795226269,-1.3325807847032216, ,0.08180770824006102,0.03601401956678208,0.027798972984293194,0.017361427676753204,0.11918595104398752,-0.06929973421512817, ,0.974949836730957
0.012986617384860255,0.021478055157054705,-0.08692655682891215, ,0.013735748070645237,0.021259789204078467,-0.08780406555406002, ,0.001174248003329767, ,0.010963490781071833,0.0031410199404649096,-0.025639689981512663,0.022455885980007372,0.022126222203065756,-0.017336745697071932, ,0.028061679185699597, ,0.031524997121521944, ,0.0005626200745995187, ,0.1648494559331964,-0.2390571961216197,0.09708304697,1.610838145848116,0.16068452372415798,-1.333501867096349, ,0.08556983007977528,0.037852788814707126,0.027089815510204087,0.037087221969496126,0.10191934799565558,-0.053814987557687245, ,0.9809110164642334
0.013116052960322002,0.021513146238930962,-0.08722482585625037, ,0.013860858821178533,0.02127152999545138,-0.08804968183004877, ,0.001137322099051247, ,0.013442268997668939,0.004135621601845049,-0.032510786150497545,0.02326111706642398,0.030674363960653577,-0.012442169074779364, ,0.035422438904777885, ,0.03849623166334517, ,0.0005785840197231778, ,0.16585341120684557,-0.23860927761491468,0.09739804544000001,1.610838145848116,0.1617776157222815,-1.3341481741054984, ,0.10248049844327299,0.0457114362035023,0.034329335172413794,0.037087221969496126,0.12813943263996166,-0.06233279128862104, ,0.9861829280853271
0.013116052960322002,0.021513146238930962,-0.08722482585625037, ,0.013985699167733085,0.021282091266871975,-0.08829422096401826, ,0.001397596802620685, ,0.013442268997668939,0.004135621601845049,-0.032510786150497545,0.02326111706642398,0.030674363960653577,-0.012442169074779364, ,0.035422438904777885, ,0.03849623166334517, ,0.0006007195003420294, ,0.16585341120684557,-0.23860927761491468,0.09739804544000001,1.610838145848116,0.1617776157222815,-1.3341481741054984, ,0.10248049844327299,0.0457114362035023,0.034329335172413794,0.037087221969496126,0.12813943263996166,-0.06233279128862104, ,0.9915018081665039
0.013258896163361546,0.02156067384211139,-0.08759133977560804, ,0.01411026770893674,0.021291496621702766,-0.08853768312670073, ,0.001301097852876309, ,0.015602543440695294,0.005704006067910113,-0.0418973355860024,0.08272578960103391,0.07570845280567319,0.0037982324536164707, ,0.045070630972370934, ,0.11213918578990936, ,0.0006191505096192473, ,0.16692687107636278,-0.2381150227109643,0.09778433986000001,1.610838145848116,0.16341725371946678,-1.3353218314695745, ,0.11405882398854661,0.05364439884594165,0.044124131634349036,0.03329903901187146,0.18734630810275493,-0.13018905426560162, ,0.9974069595336914
0.013258896163361546,0.02156067384211139,-0.08759133977560804, ,0.014234563092333553,0.02129976950128205,-0.08878006850532993, ,0.0015598310883616494, ,0.015602543440695294,0.005704006067910113,-0.0418973355860024,0.08272578960103391,0.07570845280567319,0.0037982324536164707, ,0.045070630972370934, ,0.11213918578990936, ,0.000643270524458796, ,0.16692687107636278,-0.2381150227109643,0.09778433986000001,1.610838145848116,0.16341725371946678,-1.3353218314695745, ,0.11405882398854661,0.05364439884594165,0.044124131634349036,0.03329903901187146,0.18734630810275493,-0.13018905426560162, ,1.0030360221862793
0.013423848163353194,0.02162253602082925,-0.08803525326742444, ,0.014358584014129224,0.021306933185366153,-0.08902137730363238, ,0.001394911063568349, ,0.017360435528033326,0.006491125795910575,-0.045859059598252164,0.06991243056403801,0.0775412240417991,0.025875730568838583, ,0.04946284244821946, ,0.10440395847999391, ,0.0006620615379365348, ,0.1681316174047418,-0.23756670867689436,0.09825230055,1.6110478357916007,0.1654668012159484,-1.3366663850644587, ,0.12686756892843687,0.05530124799444684,0.0484158404863222,0.014588840766673964,0.2069275957528938,-0.12199471140503068, ,1.008591890335083
0.013423848163353194,0.02162253602082925,-0.08803525326742444, ,0.014482329218935042,0.021313010792566308,-0.08926160974181603, ,0.0016492841520608474, ,0.017360435528033326,0.006491125795910575,-0.045859059598252164,0.06991243056403801,0.0775412240417991,0.025875730568838583, ,0.04946284244821946, ,0.10440395847999391, ,0.0006861401382810302, ,0.1681316174047418,-0.23756670867689436,0.09825230055,1.6110478357916007,0.1654668012159484,-1.3366663850644587, ,0.12686756892843687,0.05530124799444684,0.0484158404863222,0.014588840766673964,0.2069275957528938,-0.12199471140503068, ,1.0138728618621826
0.013600399807693285,0.0216876088901728,-0.08850110278665013, ,0.014605797499512642,0.02131802528078926,-0.08950076605656153, ,0.0014651768549395672, ,0.019000857348005783,0.006613437879707693,-0.04975008831169953,0.04733036270688871,0.04045619379958143,0.011643910256169999, ,0.05366415402827031, ,0.06226204367650177, ,0.0007046886315348049, ,0.16938270013036616,-0.23699522644420176,0.09874359446000001,1.6114672156785694,0.1672430757128991,-1.337706424111809, ,0.13290888173455292,0.06386066053732892,0.05239740631578948,0.019493326193743808,0.17377360540925377,-0.10699094597777994, ,1.0191588401794434
0.013600399807693285,0.0216876088901728,-0.08850110278665013, ,0.014728987696518172,0.021321999447675884,-0.0897388465010115, ,0.0017144650447548301, ,0.019000857348005783,0.006613437879707693,-0.04975008831169953,0.04733036270688871,0.04045619379958143,0.011643910256169999, ,0.05366415402827031, ,0.06226204367650177, ,0.0007281718039352706, ,0.16938270013036616,-0.23699522644420176,0.09874359446000001,1.6114672156785694,0.1672430757128991,-1.337706424111809, ,0.13290888173455292,0.06386066053732892,0.05239740631578948,0.019493326193743808,0.17377360540925377,-0.10699094597777994, ,1.0244100093841553
0.013799917305049755,0.021752467168865287,-0.08901608525367022, ,0.014851898698246987,0.021324955931042385,-0.08997585134476087, ,0.001486802495190765, ,0.02041436501625956,0.00603990758138261,-0.051340550487491685,0.0020567433885064173,0.024672334988506663,-0.04217690172029542, ,0.05557948278787243, ,0.024750709233586517, ,0.0007454134105547137, ,0.17076506931485236,-0.23629245775264732,0.09928544368000002,1.6120962855090233,0.1688827137100844,-1.3385533665153229, ,0.14184894104405196,0.07442897377134963,0.0539959712542373,0.0689982643347733,0.15481308626062326,-0.06385844526864404, ,1.0296719074249268
0.013799917305049755,0.021752467168865287,-0.08901608525367022, ,0.014974529440377176,0.021326917209317276,-0.09021178087384583, ,0.0017293046153401977, ,0.02041436501625956,0.00603990758138261,-0.051340550487491685,0.0020567433885064173,0.024672334988506663,-0.04217690172029542, ,0.05557948278787243, ,0.024750709233586517, ,0.0007672776595499466, ,0.17076506931485236,-0.23629245775264732,0.09928544368000002,1.6120962855090233,0.1688827137100844,-1.3385533665153229, ,0.14184894104405196,0.07442897377134963,0.0539959712542373,0.0689982643347733,0.15481308626062326,-0.06385844526864404, ,1.0354278087615967
0.014010751700356566,0.021807059937181354,-0.08953657106506707, ,0.01509687890571401,0.021327905601981955,-0.09044663539073372, ,0.0014958202632699693, ,0.021068480296207892,0.004917091777613446,-0.05012699541942216,0.05160556629438574,0.04614573303214145,-0.016943574672158578, ,0.0545964680480335, ,0.06922605478300775, ,0.0007831155422395123, ,0.17227100222532613,-0.23548157080085375,0.09983247806000001,1.6120962855090233,0.17079562470680054,-1.3396231447262292, ,0.15330685227539706,0.08237581732506143,0.05274440900662252,0.05025207610147889,0.19320935663034894,-0.12424783865270801, ,1.0409188270568848
0.014010751700356566,0.021807059937181354,-0.08953657106506707, ,0.015218946123934074,0.021327943270010932,-0.09068041521431339, ,0.001731376903995575, ,0.021068480296207892,0.004917091777613446,-0.05012699541942216,0.05160556629438574,0.04614573303214145,-0.016943574672158578, ,0.0545964680480335, ,0.06922605478300775, ,0.0008032913158938966, ,0.17227100222532613,-0.23548157080085375,0.09983247806000001,1.6120962855090233,0.17079562470680054,-1.3396231447262292, ,0.15330685227539706,0.08237581732506143,0.05274440900662252,0.05025207610147889,0.19320935663034894,-0.12424783865270801, ,1.0462169647216797
0.014255265807283646,0.021849402483036916,-0.09006616817517896, ,0.015340730171328311,0.021327052216308144,-0.09091312067988283, ,0.0014725526245220153, ,0.021568474848818745,0.002455034725894827,-0.04308109979122157,0.02745304094841863,0.022890489046575643,0.007684609571176975, ,0.0482411386892004, ,0.03574206969531179, ,0.000817234259823649, ,0.17413218084801424,-0.2345162291915757,0.10039117905000002,1.6120962855090233,0.1729818087030476,-1.3409974374846692, ,0.17006620350980425,0.08944103822664541,0.04551089005714286,0.022895371972306396,0.19303171714241665,-0.11159956807555524, ,1.0514869689941406
0.014255265807283646,0.021849402483036916,-0.09006616817517896, ,0.015462230170547138,0.0213252542861505,-0.09114475213914129, ,0.001701422250296507, ,0.021568474848818745,0.002455034725894827,-0.04308109979122157,0.02745304094841863,0.022890489046575643,0.007684609571176975, ,0.0482411386892004, ,0.03574206969531179, ,0.0008352789126904421, ,0.17413218084801424,-0.2345162291915757,0.10039117905000002,1.6120962855090233,0.1729818087030476,-1.3409974374846692, ,0.17006620350980425,0.08944103822664541,0.04551089005714286,0.022895371972306396,0.19303171714241665,-0.11159956807555524, ,1.0567519664764404
0.01447857347644546,0.021861058822439203,-0.09047992528513421, ,0.01558344529034296,0.021322571167623164,-0.09137530996017555, ,0.0015206657738744953, ,0.02285148296423687,0.000571696065337768,-0.04042312076811115,-0.03148581369751625,-0.02470657533697889,0.0016141584662056209, ,0.04643862403957755, ,0.04002078706537732, ,0.0008489866499141231, ,0.17592385487483433,-0.23353544211654917,0.10082802878000001,1.6120962855090233,0.17475808319999833,-1.3419557977918795, ,0.18390880146990463,0.10193011982649922,0.04270458852546917,0.018514421888739422,0.15933029701661372,-0.06569001881417394, ,1.061985969543457
0.014657946258501123,0.021864461749431685,-0.09079005167937315, ,0.015704374745314494,0.02131902439206113,-0.09160479452745149, ,0.0014339875861822157, ,0.02352041155608709,9.68409655634156e-05,-0.03917685478225488,-0.03822684846240776,-0.06443734048443729,-0.004715054876602174, ,0.04569513200079647, ,0.07492242990935873, ,0.0008604572565076152, ,0.17592385487483433,-0.23353544211654917,0.10082802878000001,1.6120962855090233,0.17475808319999833,-1.3419557977918795, ,0.18390880146990463,0.10193011982649922,0.04270458852546917,0.018514421888739422,0.15933029701661372,-0.06569001881417394, ,1.0681219100952148
0.014657946258501123,0.021864461749431685,-0.09079005167937315, ,0.015825017795650247,0.02131463533448789,-0.09183320624180216, ,0.0016590770025860842, ,0.02352041155608709,9.68409655634156e-05,-0.03917685478225488,-0.03822684846240776,-0.06443734048443729,-0.004715054876602174, ,0.04569513200079647, ,0.07492242990935873, ,0.0008758153285475858, ,0.17736028318944008,-0.23274000063050404,0.10115599015000001,1.6125156653959922,0.17585117519812185,-1.342438747320748, ,0.18866191164705923,0.10326108983511509,0.04148128,0.01600056340115328,0.12395741363138105,-0.060618870764834236, ,1.073530912399292
0.014960281669976257,0.021854884294414526,-0.09127645720292296, ,0.015945373746872295,0.021309425214055353,-0.0920605455204177, ,0.0013721248113569545, ,0.02362537647213445,-0.0016380038747899474,-0.03685879360245405,-0.03986937921425213,-0.0460483278410921,-0.04751984675525317, ,0.0438110960371025, ,0.060909341361484105, ,0.0008851796584119136, ,0.17980838951056927,-0.2313421859802694,0.10167061728000001,1.613144735226446,0.17749081319530713,-1.3431223322439805, ,0.1932727933981075,0.11530612583046268,0.03894574943765281,0.06123223380371478,0.1369578355032851,-0.06282505776211188, ,1.0788187980651855
0.014960281669976257,0.021854884294414526,-0.09127645720292296, ,0.016065441949579193,0.021303415094481658,-0.0922868127968338, ,0.001595718003982397, ,0.02362537647213445,-0.0016380038747899474,-0.03685879360245405,-0.03986937921425213,-0.0460483278410921,-0.04751984675525317, ,0.0438110960371025, ,0.060909341361484105, ,0.000898337775922478, ,0.17980838951056927,-0.2313421859802694,0.10167061728000001,1.613144735226446,0.17749081319530713,-1.3431223322439805, ,0.1932727933981075,0.11530612583046268,0.03894574943765281,0.06123223380371478,0.1369578355032851,-0.06282505776211188, ,1.0840659141540527
0.015194901489989499,0.021833726005469515,-0.09164251168546166, ,0.016185221799189853,0.02129662588449119,-0.09251200852092072, ,0.0014231077266471906, ,0.024541535770441568,-0.00208644962540433,-0.03880776000074901,-0.0028617626818750208,-0.028413684202892753,-0.032001769424233856, ,0.045963925923347186, ,0.028555894545527802, ,0.0009078790477538365, ,0.18174679546199962,-0.23016060785051307,0.10205691170000002,1.613144735226446,0.17913045119249243,-1.3444593470883375, ,0.20020451805584552,0.12388634668207675,0.04094810159383034,0.04970487864298365,0.1649351336262308,-0.11016456071173321, ,1.08931303024292
0.015194901489989499,0.021833726005469515,-0.09164251168546166, ,0.016304712735687153,0.02128907833825495,-0.09273613315887305, ,0.0016505544552015718, ,0.024541535770441568,-0.00208644962540433,-0.03880776000074901,-0.0028617626818750208,-0.028413684202892753,-0.032001769424233856, ,0.045963925923347186, ,0.028555894545527802, ,0.0009211411086011174, ,0.18174679546199962,-0.23016060785051307,0.10205691170000002,1.613144735226446,0.17913045119249243,-1.3444593470883375, ,0.20020451805584552,0.12388634668207675,0.04094810159383034,0.04970487864298365,0.1649351336262308,-0.11016456071173321, ,1.0945708751678467
0.015447144859431964,0.02181392698713557,-0.09205381371022991, ,0.01642391424336071,0.02128079305582776,-0.0929591871931979, ,0.0014345770672061669, ,0.02622416900395734,-0.001991057593065029,-0.042735039081980945,-0.0639515913707726,-0.09025133709913781,0.014823833444807848, ,0.050179227929746564, ,0.11061178667918849, ,0.0009301487569976972, ,0.18373926054354953,-0.22888635692626602,0.10248987256000001,1.6133544251699303,0.18049681619014685,-1.34532848990488, ,0.20407944421176513,0.13053224423448526,0.04499664271186441,-0.011668568677103596,0.11970535536323267,-0.06641072684592639, ,1.0998330116271973
0.015447144859431964,0.02181392698713557,-0.09205381371022991, ,0.01654282585055065,0.021271790483588963,-0.0931811711227046, ,0.0016629382304337685, ,0.02622416900395734,-0.001991057593065029,-0.042735039081980945,-0.0639515913707726,-0.09025133709913781,0.014823833444807848, ,0.050179227929746564, ,0.11061178667918849, ,0.0009427830582638362, ,0.18373926054354953,-0.22888635692626602,0.10248987256000001,1.6133544251699303,0.18049681619014685,-1.34532848990488, ,0.20407944421176513,0.13053224423448526,0.04499664271186441,-0.011668568677103596,0.11970535536323267,-0.06641072684592639, ,1.1051669120788574
0.015720261660303134,0.021795904657514954,-0.09249727385791867, ,0.01666144712939056,0.021262090914681057,-0.09340208546249254, ,0.0014104861711591466, ,0.026861809667692565,-0.0017805801149087422,-0.04289998900123062,-0.0402445293143002,-0.07702111767499636,-0.009931736309795384, ,0.05064717504930219, ,0.08690068699870412, ,0.0009507102296688415, ,0.18585528935108706,-0.22756576960477362,0.10295783325,1.613144735226446,0.1817265446880358,-1.3462495722980072, ,0.20948552220412975,0.1284126408098387,0.045381229401709404,0.017172436674871755,0.13209394588043155,-0.08287126923826725, ,1.110454797744751
0.015720261660303134,0.021795904657514954,-0.09249727385791867, ,0.016779777695550845,0.02125171448944864,-0.09362193074394067, ,0.0016381606390228523, ,0.026861809667692565,-0.0017805801149087422,-0.04289998900123062,-0.0402445293143002,-0.07702111767499636,-0.009931736309795384, ,0.05064717504930219, ,0.08690068699870412, ,0.0009621677364914083, ,0.18585528935108706,-0.22756576960477362,0.10295783325,1.613144735226446,0.1817265446880358,-1.3462495722980072, ,0.20948552220412975,0.1284126408098387,0.045381229401709404,0.017172436674871755,0.13209394588043155,-0.08287126923826725, ,1.115696907043457
0.01599372406550454,0.02177420943997728,-0.09293802284102697, ,0.016897817207981943,0.021240681195878273,-0.09384070751469653, ,0.0013845130615505095, ,0.027237453335925914,-0.0027485348473071185,-0.044224756162494876,-0.0039242243616330365,-0.06491779074438617,-0.0058242502033868096, ,0.05201213671505653, ,0.06503498997046611, ,0.0009690914303448363, ,0.18797131815862456,-0.22622201408465856,0.10342320136000001,1.613144735226446,0.1830929096856902,-1.3472003938546904, ,0.20994898574882914,0.14017273494604252,0.04657547228070176,0.013474045292827249,0.14581621919104593,-0.13136751613337344, ,1.120934009552002
0.01599372406550454,0.02177420943997728,-0.09293802284102697, ,0.017015565368657632,0.021229010870037802,-0.09405841633866506, ,0.0016114225761864527, ,0.027237453335925914,-0.0027485348473071185,-0.044224756162494876,-0.0039242243616330365,-0.06491779074438617,-0.0058242502033868096, ,0.05201213671505653, ,0.06503498997046611, ,0.0009794516101164752, ,0.18797131815862456,-0.22622201408465856,0.10342320136000001,1.613144735226446,0.1830929096856902,-1.3472003938546904, ,0.20994898574882914,0.14017273494604252,0.04657547228070176,0.013474045292827249,0.14581621919104593,-0.13136751613337344, ,1.126175880432129
0.016267214918029523,0.021746457017393438,-0.09338610570830568, ,0.01713302192231816,0.02121672319651568,-0.09427505779599694, ,0.0013492499782722558, ,0.026966389322940886,-0.0027362394128471307,-0.04437450146354999,-0.021395806703097153,-0.07655315869281452,0.0033501467483594023, ,0.05199778398527612, ,0.07948581379887508, ,0.0009853214254840275, ,0.19006417876753942,-0.22480875396867547,0.10389505092000001,1.6133544251699303,0.18459591118311003,-1.3483443120552105, ,0.20320544230935927,0.13873821865273506,0.04671205724340176,0.0,0.13002209056657446,-0.11488280391088655, ,1.1314809322357178
0.016267214918029523,0.021746457017393438,-0.09338610570830568, ,0.017250186656212314,0.021203837708857417,-0.09449063248307639, ,0.0015750074756164189, ,0.026966389322940886,-0.0027362394128471307,-0.04437450146354999,-0.021395806703097153,-0.07655315869281452,0.0033501467483594023, ,0.05199778398527612, ,0.07948581379887508, ,0.000994535270017346, ,0.19006417876753942,-0.22480875396867547,0.10389505092000001,1.6133544251699303,0.18459591118311003,-1.3483443120552105, ,0.20320544230935927,0.13873821865273506,0.04671205724340176,0.0,0.13002209056657446,-0.11488280391088655, ,1.140820026397705
0.01649699076291031,0.02172020200964412,-0.09375653680401404, ,0.017367059399842222,0.021190373790009535,-0.0947051410125127, ,0.0013919724565073452, ,0.02645825358841914,-0.003380584161530473,-0.04237501916628353,-0.01743697586916344,-0.06311315095275055,-0.023596778296690442, ,0.050071047338408864, ,0.06547657076813682, ,0.0010006496882710384, ,0.1918017936642399,-0.22361173037317067,0.10428523421000001,1.6137738050568995,0.18568900318123358,-1.3491539765446414, ,0.20062778342171414,0.13996599049921946,0.044618519663865555,0.02867598490761582,0.1346562380150175,-0.11463978550964432, ,1.1463708877563477
0.01649699076291031,0.02172020200964412,-0.09375653680401404, ,0.017483640024705014,0.021176350672754644,-0.09491858401312586, ,0.00161851931055551, ,0.02645825358841914,-0.003380584161530473,-0.04237501916628353,-0.01743697586916344,-0.06311315095275055,-0.023596778296690442, ,0.050071047338408864, ,0.06547657076813682, ,0.0010100113492147425, ,0.1918017936642399,-0.22361173037317067,0.10428523421000001,1.6137738050568995,0.18568900318123358,-1.3491539765446414, ,0.20062778342171414,0.13996599049921946,0.044618519663865555,0.02867598490761582,0.1346562380150175,-0.11463978550964432, ,1.151702880859375
0.01689362575171024,0.021662461749866073,-0.09437898747194112, ,0.017599928444036548,0.021161787440153474,-0.09513096212993713, ,0.0011467363009261496, ,0.024633808136482468,-0.0042160756982204395,-0.03753013956238788,-0.03940840243403848,-0.06793876757610096,-0.023459266549901985, ,0.045090034078169285, ,0.07854058737975878, ,0.0010120520201358084, ,0.19482910495093594,-0.22148797883275895,0.10494115695000002,1.613983495000384,0.1878751871774806,-1.3507733055235027, ,0.18717345475043548,0.13498853706752598,0.039525586898263035,0.02469798575745394,0.11679918968966677,-0.08837735209480597, ,1.1569788455963135
0.01713654351408949,0.021611615650215445,-0.09473121675451071, ,0.01771592461255419,0.021146703025982393,-0.09534227602415697, ,0.0009618833798595573, ,0.024633808136482468,-0.0042160756982204395,-0.03753013956238788,-0.03940840243403848,-0.06793876757610096,-0.023459266549901985, ,0.045090034078169285, ,0.07854058737975878, ,0.001011314246014099, ,0.19669800630649825,-0.22011333238114697,0.10531189589,1.613983495000384,0.18896827917560413,-1.3517463274932147, ,0.18075607915899194,0.1347967919864642,0.034931604210526324,0.023984783411510537,0.10435524338323122,-0.07307424890799352, ,1.1627318859100342
0.01713654351408949,0.021611615650215445,-0.09473121675451071, ,0.017831628526199374,0.021131116215172274,-0.09555252637317332, ,0.0011783770070925225, ,0.02340510368356545,-0.005307250291006457,-0.03318454539787545,-0.05457951239574838,-0.07380364030674634,-0.025879646265091785, ,0.040953386152472106, ,0.09179248473542498, ,0.0010137354454500182, ,0.19669800630649825,-0.22011333238114697,0.10531189589,1.613983495000384,0.18896827917560413,-1.3517463274932147, ,0.18075607915899194,0.1347967919864642,0.034931604210526324,0.023984783411510537,0.10435524338323122,-0.07307424890799352, ,1.1680808067321777
0.01732709167954206,0.021565960261219458,-0.09499994745850233, ,0.01794704022188178,0.0211150456442507,-0.0957617138705418, ,0.0010807165463046782, ,0.02260792500642895,-0.00560770603286272,-0.03247991483406758,-0.04353136822840806,-0.05596477457393318,-0.01957083810189505, ,0.0399688567221481, ,0.07090133895611189, ,0.0010146923183193704, ,0.1981653255526009,-0.21900125884725866,0.10559448711000001,1.613983495000384,0.18978809817419678,-1.3524148349153933, ,0.1741228285476528,0.13518082843087004,0.03410880411134904,0.019959069271991016,0.11675087670012063,-0.08521594339830742, ,1.1743919849395752
0.01732709167954206,0.021565960261219458,-0.09499994745850233, ,0.018062159777219915,0.021098509801775318,-0.09596983922597098, ,0.001303658345143285, ,0.02260792500642895,-0.00560770603286272,-0.03247991483406758,-0.04353136822840806,-0.05596477457393318,-0.01957083810189505, ,0.0399688567221481, ,0.07090133895611189, ,0.0010187622623591438, ,0.1981653255526009,-0.21900125884725866,0.10559448711000001,1.613983495000384,0.18978809817419678,-1.3524148349153933, ,0.1741228285476528,0.13518082843087004,0.03410880411134904,0.019959069271991016,0.11675087670012063,-0.08521594339830742, ,1.1799869537353516
0.017467868229723366,0.021530134562720363,-0.09521046419228296, ,0.018176987310287242,0.021081527028780824,-0.09617690316531544, ,0.0012798839316606543, ,0.02156360945306982,-0.005628964074009771,-0.032469259050333356,-0.030522192621201566,-0.031355994749381624,-0.013942721744436852, ,0.039381813981439064, ,0.043758045673975385, ,0.0010223889522105538, ,0.19923878542211812,-0.2181363127653455,0.10581485641,1.613983495000384,0.1906079171727894,-1.3530016635974311, ,0.16418155978974183,0.13441493138593594,0.033963350788912584,0.017645348988021274,0.1323004946578838,-0.09788738478993407, ,1.1852939128875732
0.017467868229723366,0.021530134562720363,-0.09521046419228296, ,0.018291522979351944,0.021064115519210315,-0.09638290643056012, ,0.0015067188515433417, ,0.02156360945306982,-0.005628964074009771,-0.032469259050333356,-0.030522192621201566,-0.031355994749381624,-0.013942721744436852, ,0.039381813981439064, ,0.043758045673975385, ,0.0010290236083657976, ,0.19923878542211812,-0.2181363127653455,0.10581485641,1.613983495000384,0.1906079171727894,-1.3530016635974311, ,0.16418155978974183,0.13441493138593594,0.033963350788912584,0.017645348988021274,0.1323004946578838,-0.09788738478993407, ,1.1905889511108398
0.017769607374095855,0.02144171697812019,-0.09563881849242953, ,0.018405766982622078,0.02104629332036095,-0.09658784977981157, ,0.001209015839873879, ,0.019599883429280547,-0.006035998768569911,-0.027720675625945407,-0.05454936489104413,-0.056721076645565284,-0.018245880207980767, ,0.03448223555302712, ,0.07869496411438905, ,0.0010314559358186094, ,0.20157105075013393,-0.21622879774541204,0.10626337275000002,1.613983495000384,0.19238419166974016,-1.3544500963454849, ,0.14874128770920184,0.12619274143413667,0.028961475490909095,0.01383298872723305,0.09128577730346342,-0.06644016756231276, ,1.1959059238433838
0.017769607374095855,0.02144171697812019,-0.09563881849242953, ,0.018519719557986807,0.021028078333318018,-0.09679173398728504, ,0.0014363075419886059, ,0.019599883429280547,-0.006035998768569911,-0.027720675625945407,-0.05454936489104413,-0.056721076645565284,-0.018245880207980767, ,0.03448223555302712, ,0.07869496411438905, ,0.0010368539572342093, ,0.20157105075013393,-0.21622879774541204,0.10626337275000002,1.613983495000384,0.19238419166974016,-1.3544500963454849, ,0.14874128770920184,0.12619274143413667,0.028961475490909095,0.01383298872723305,0.09128577730346342,-0.06644016756231276, ,1.201174020767212
0.017974109517659567,0.021386403867361542,-0.09596984542623414, ,0.01863338098276051,0.02100948831339813,-0.09699455984329393, ,0.0012754386837657333, ,0.020005246981016234,-0.004361130052251572,-0.03633812462315458,0.015536917010844437,0.0276713270903948,0.010005159774774064, ,0.041709575198412466, ,0.03173381120394305, ,0.0010399932299517292, ,0.20306926092773347,-0.21490048769104544,0.10660818589000001,1.6141931849438687,0.19375055666739455,-1.3554825966423083, ,0.141426142412028,0.12737844504492724,0.03783565681710214,0.002618592136267705,0.1727462003589147,-0.13986580156082154, ,1.2064378261566162
0.017974109517659567,0.021386403867361542,-0.09596984542623414, ,0.0187467515734249,0.02099054087058601,-0.0971963281542376, ,0.0015026453808680777, ,0.020005246981016234,-0.004361130052251572,-0.03633812462315458,0.015536917010844437,0.0276713270903948,0.010005159774774064, ,0.041709575198412466, ,0.03173381120394305, ,0.0010460016994441495, ,0.20306926092773347,-0.21490048769104544,0.10660818589000001,1.6141931849438687,0.19375055666739455,-1.3554825966423083, ,0.141426142412028,0.12737844504492724,0.03783565681710214,0.002618592136267705,0.1727462003589147,-0.13986580156082154, ,1.2117879390716553
0.018180017182870937,0.021352973437261422,-0.09636733332610128, ,0.018859831685371368,0.020971253469973125,-0.0973970397425894, ,0.0012915700505173068, ,0.019944749621507513,-0.0025045168714377627,-0.039700045006045875,0.02368658776162384,0.035352066729612774,0.011329834337886528, ,0.04449897994006165, ,0.04255260795903695, ,0.001049150011637395, ,0.20448252104371656,-0.21365712769829528,0.10702299869000001,1.6141931849438687,0.19566346766411072,-1.3569607685539178, ,0.13253762787495918,0.11530612583046268,0.04148128,0.0030007271049552775,0.17135714597715818,-0.1360881658198336, ,1.217188835144043
0.01838492919898688,0.02133273572011162,-0.09677481267627552, ,0.018972621712645233,0.020951643432199865,-0.09759669544688668, ,0.0010798634687511925, ,0.02043613188009538,-0.0017333855595044697,-0.04211519256709323,-0.016567465092416637,-0.007669562964840589,0.00027035310834790625, ,0.04684367146885366, ,0.018252961467906167, ,0.0010495387895755443, ,0.20580310836520896,-0.2125296086986585,0.10744947810000001,1.6144028748873531,0.19702983266176513,-1.3578299113704602, ,0.12669818632639623,0.11190677070574384,0.04400224176795581,0.0034646015427843716,0.12118284442480946,-0.09233395165804559, ,1.223261833190918
0.01838492919898688,0.02133273572011162,-0.09677481267627552, ,0.019085122087687104,0.02093172793389198,-0.09779529612171743, ,0.0013009472658090835, ,0.02043613188009538,-0.0017333855595044697,-0.04211519256709323,-0.016567465092416637,-0.007669562964840589,0.00027035310834790625, ,0.04684367146885366, ,0.018252961467906167, ,0.0010526813955284635, ,0.20580310836520896,-0.2125296086986585,0.10744947810000001,1.6144028748873531,0.19702983266176513,-1.3578299113704602, ,0.12669818632639623,0.11190677070574384,0.04400224176795581,0.0034646015427843716,0.12118284442480946,-0.09233395165804559, ,1.2285068035125732
0.018580123964381978,0.02131595412088915,-0.09718983115421163, ,0.019197333281076583,0.02091152400810124,-0.0979928426377108, ,0.001090567971002171, ,0.020354801755600505,-0.0014083939098653588,-0.04538087314014171,-0.01597455359013427,0.027050159301913627,0.0035020192611142915, ,0.04975665960328103, ,0.03141186097853658, ,0.0010531491310281388, ,0.20700013196071376,-0.21143298063051863,0.10788243896000001,1.6146125648308374,0.19839619765941952,-1.3587807329271433, ,0.12058061189132248,0.11460983280008549,0.04726650302670624,0.00568155330798263,0.1499784107222621,-0.09508121247376573, ,1.233773946762085
0.018580123964381978,0.02131595412088915,-0.09718983115421163, ,0.019309255801274183,0.02089104854474274,-0.09818933588152275, ,0.0013081237266128068, ,0.020354801755600505,-0.0014083939098653588,-0.04538087314014171,-0.01597455359013427,0.027050159301913627,0.0035020192611142915, ,0.04975665960328103, ,0.03141186097853658, ,0.0010562585773157569, ,0.20700013196071376,-0.21143298063051863,0.10788243896000001,1.6146125648308374,0.19839619765941952,-1.3587807329271433, ,0.12058061189132248,0.11460983280008549,0.04726650302670624,0.00568155330798263,0.1499784107222621,-0.09508121247376573, ,1.239163875579834
0.018580123964381978,0.02131595412088915,-0.09718983115421163, ,0.019420890194364406,0.020870318291035594,-0.09838477675582652, ,0.00152753858777672, ,0.020354801755600505,-0.0014083939098653588,-0.04538087314014171,-0.01597455359013427,0.027050159301913627,0.0035020192611142915, ,0.04975665960328103, ,0.03141186097853658, ,0.0010619366497309493, ,0.20700013196071376,-0.21143298063051863,0.10788243896000001,1.6146125648308374,0.19839619765941952,-1.3587807329271433, ,0.12058061189132248,0.11460983280008549,0.04726650302670624,0.00568155330798263,0.1499784107222621,-0.09508121247376573, ,1.2445809841156006
0.018784190085285406,0.02130610884720755,-0.09765352811207897, ,0.019532237043799677,0.02084934985194399,-0.09857916617930151, ,0.0012747583549002949, ,0.01983815771009975,-0.0007101984022319637,-0.04470234744392301,0.03116150704632814,0.041773455635076936,0.008125642194571745, ,0.04891172405567538, ,0.052114130632438437, ,0.0010644702414591557, ,0.20819715555621857,-0.21031318436375607,0.10836595513000001,1.6146125648308374,0.20003583565660482,-1.3597910328109382, ,0.11672440536097266,0.10532401948775891,0.04671205724340176,0.005144188258237068,0.1611937699966074,-0.13321304811319307, ,1.250067949295044
0.01898492390929384,0.021295464808361395,-0.09809211158199098, ,0.019643296970140747,0.020828159690611265,-0.09877250508661914, ,0.0010558240769487023, ,0.01781146240972526,-0.001475724364648821,-0.037376156520274394,-0.0021818937409067646,0.032113836818566485,0.006312860653899054, ,0.04142949470849873, ,0.03218674003773232, ,0.0010643685218766799, ,0.2094019018845976,-0.20924744722711308,0.10882484179000002,1.6146125648308374,0.2016754736537901,-1.3610463689151548, ,0.10945437319316122,0.0962443626353659,0.039137129041769046,0.0046856419802224466,0.1439025563869081,-0.09105011256743571, ,1.2552909851074219
0.01898492390929384,0.021295464808361395,-0.09809211158199098, ,0.019754070630801458,0.020806764128804365,-0.09896479442843428, ,0.001261741012998234, ,0.01781146240972526,-0.001475724364648821,-0.037376156520274394,-0.0021818937409067646,0.032113836818566485,0.006312860653899054, ,0.04142949470849873, ,0.03218674003773232, ,0.0010666635508432096, ,0.2094019018845976,-0.20924744722711308,0.10882484179000002,1.6146125648308374,0.2016754736537901,-1.3610463689151548, ,0.10945437319316122,0.0962443626353659,0.039137129041769046,0.0046856419802224466,0.1439025563869081,-0.09105011256743571, ,1.2605500221252441
0.019153744970319894,0.021273038395575004,-0.09843842074390508, ,0.019864558719789944,0.020785179347348273,-0.09915603517137016, ,0.0011217099018366564, ,0.01749154696723444,-0.003262563128447145,-0.03464889811439454,0.008763862680005506,0.036238286211231034,0.005585715892491124, ,0.03895054138283272, ,0.037282284489578536, ,0.0010672962675212952, ,0.2104521935554921,-0.2082743828849608,0.1091865067,1.6146125648308374,0.2030418386514445,-1.3618338329915567, ,0.11177496061068408,0.10710715751520403,0.03611975401360545,0.004332739797295303,0.1505437227983896,-0.11267073877114848, ,1.2657840251922607
0.019153744970319894,0.021273038395575004,-0.09843842074390508, ,0.019974761967452476,0.02076342138656912,-0.09934622829801017, ,0.0013258555580224318, ,0.01749154696723444,-0.003262563128447145,-0.03464889811439454,0.008763862680005506,0.036238286211231034,0.005585715892491124, ,0.03895054138283272, ,0.037282284489578536, ,0.00107023444127699, ,0.2104521935554921,-0.2082743828849608,0.1091865067,1.6146125648308374,0.2030418386514445,-1.3618338329915567, ,0.11177496061068408,0.10710715751520403,0.03611975401360545,0.004332739797295303,0.1505437227983896,-0.11267073877114848, ,1.2710978984832764
0.019330016766034134,0.02124166793145315,-0.09879394602352534, ,0.02008468114021585,0.020741506146732067,-0.0995353748068843, ,0.0011702122753362361, ,0.01685616466045644,-0.0028061310635957384,-0.034188103410653516,0.012858706855369635,0.06235578968396377,0.011600514087493135, ,0.03822081989471231, ,0.06366744963360957, ,0.0010713577877270938, ,0.21157198982225467,-0.2072009230154436,0.10955724564000001,1.6146125648308374,0.20468147664862982,-1.3630891690957732, ,0.10771503014582383,0.10095419314730934,0.03571482403587444,0.004011770996639751,0.17312870851909018,-0.110795671589449, ,1.2807719707489014
0.01949157235727299,0.02121557504978035,-0.09911048786711568, ,0.020194317040329854,0.02071944938847975,-0.09972347571245857, ,0.0010562882465992727, ,0.01658869905690094,-0.0027916650454716647,-0.032457730872929705,0.027758991542929465,0.0667750395373972,0.01354522131040046, ,0.036557935165242424, ,0.07231480825389466, ,0.001071190348381229, ,0.2126222814931492,-0.20626647233766243,0.10988909588000001,1.6146125648308374,0.20632111464581507,-1.3643445051999896, ,0.10845364749539518,0.096734904748696,0.03403592205128206,0.0037511517638033967,0.1784109584394931,-0.1216056431364469, ,1.2862119674682617
0.01949157235727299,0.02121557504978035,-0.09911048786711568, ,0.020303670505609408,0.020697266733270533,-0.09991053204512092, ,0.001252284951700191, ,0.01658869905690094,-0.0027916650454716647,-0.032457730872929705,0.027758991542929465,0.0667750395373972,0.01354522131040046, ,0.036557935165242424, ,0.07231480825389466, ,0.0010731803989671518, ,0.2126222814931492,-0.20626647233766243,0.10988909588000001,1.6146125648308374,0.20632111464581507,-1.3643445051999896, ,0.10845364749539518,0.096734904748696,0.03403592205128206,0.0037511517638033967,0.1784109584394931,-0.1216056431364469, ,1.2915229797363281
0.019662078445320308,0.021177219732187027,-0.09941845627922534, ,0.02041274240917867,0.02067497366382105,-0.10009654485117322, ,0.001129403210209248, ,0.015705261802626415,-0.004375005641314704,-0.026902539693295688,-0.053112924156728164,-0.008274075949701202,-0.0007573755770765903, ,0.031456995479541935, ,0.05375340876169567, ,0.0010737915164806529, ,0.21375752322566022,-0.20523162613251633,0.11021187209000001,1.614822254774322,0.20782411614323493,-1.3653250659202287, ,0.10371250443548719,0.09968166130091469,0.028093142010582012,0.0,0.09758394584491206,-0.04431769262361003, ,1.2967448234558105
0.019662078445320308,0.021177219732187027,-0.09941845627922534, ,0.02052153365921248,0.02065258552454234,-0.10028151519281683, ,0.0013261881483587232, ,0.015705261802626415,-0.004375005641314704,-0.026902539693295688,-0.053112924156728164,-0.008274075949701202,-0.0007573755770765903, ,0.031456995479541935, ,0.05375340876169567, ,0.0010765054587589117, ,0.21375752322566022,-0.20523162613251633,0.11021187209000001,1.614822254774322,0.20782411614323493,-1.3653250659202287, ,0.10371250443548719,0.09968166130091469,0.028093142010582012,0.0,0.09758394584491206,-0.04431769262361003, ,1.3019838333129883
0.01982832406158656,0.021129138700743833,-0.09969460381751825, ,0.020630045198678965,0.020630117521978603,-0.10046544414814111, ,0.001219005223053509, ,0.017487763274338614,-0.00441138288323716,-0.028984627503046773,-0.12630419619196998,-0.10579900355622347,-0.021830678593022918, ,0.03413782059200909, ,0.1647609136668834, ,0.001078021413698216, ,0.21481553762942895,-0.20418133446162182,0.11049964847000002,1.614822254774322,0.20823402564253127,-1.3654142834108962, ,0.10747105499260563,0.10382597544690457,0.030282911634980987,0.0,0.0017028696481491857,0.024864408422593534, ,1.3072478771209717
0.01982832406158656,0.021129138700743833,-0.09969460381751825, ,0.020738278005083967,0.020607584725251416,-0.10064833281111464, ,0.001417615505651939, ,0.017487763274338614,-0.00441138288323716,-0.028984627503046773,-0.12630419619196998,-0.10579900355622347,-0.021830678593022918, ,0.03413782059200909, ,0.1647609136668834, ,0.0010815960883503604, ,0.21481553762942895,-0.20418133446162182,0.11049964847000002,1.614822254774322,0.20823402564253127,-1.3654142834108962, ,0.10747105499260563,0.10382597544690457,0.030282911634980987,0.0,0.0017028696481491857,0.024864408422593534, ,1.3126769065856934
0.02000628902259339,0.021090127332354432,-0.10000711367931987, ,0.020846233090210508,0.020585002066490297,-0.10083018229156843, ,0.001279882616261454, ,0.017579364430969937,-0.003372630500716589,-0.03235978262594703,0.031674120086919146,0.035067525884394914,0.010137779763773315, ,0.03698059250322739, ,0.04725405560699007, ,0.001083661573016101, ,0.21595077936193996,-0.20314648825647572,0.11082760984000001,1.614822254774322,0.2091904811408893,-1.3661125299966306, ,0.11364903180655184,0.10042004397721775,0.03403592205128206,0.0,0.15202200426820586,-0.1297925090838082, ,1.3181078433990479
0.02000628902259339,0.021090127332354432,-0.10000711367931987, ,0.020953911499865148,0.02056238434128161,-0.10101099371519028, ,0.0014779296838741398, ,0.018352948542261053,-0.0031274426525186604,-0.03311900664259023,0.0399930999203796,0.04065480528135942,0.012510059665420594, ,0.03799316015721265, ,0.05702825078453082, ,0.0010877261927156683, ,0.2171014665601994,-0.202157978448575,0.11116723782000001,1.614822254774322,0.21083011913807462,-1.3674495448409876, ,0.11966827434863908,0.09926458322015773,0.03500837696703297,0.0,0.16383461531962915,-0.13696534471811805, ,1.3237597942352295
0.02018257920560724,0.021057515252688692,-0.10032927606883914, ,0.021061314313617213,0.020539746209098868,-0.10119076822350706, ,0.0013350763667684341, ,0.018352948542261053,-0.0031274426525186604,-0.03311900664259023,0.0399930999203796,0.04065480528135942,0.012510059665420594, ,0.03799316015721265, ,0.05702825078453082, ,0.0010902501740835539, ,0.2171014665601994,-0.202157978448575,0.11116723782000001,1.614822254774322,0.21083011913807462,-1.3674495448409876, ,0.11966827434863908,0.09926458322015773,0.03500837696703297,0.0,0.16383461531962915,-0.13696534471811805, ,1.3291759490966797
0.020374326520882214,0.02102387097706115,-0.10067147401544144, ,0.021168442644543903,0.02051710219374828,-0.10136950697387767, ,0.0011724696280343968, ,0.019427954679905834,-0.0032827496834127393,-0.03457576539794947,-0.006872531070076302,-0.004817280907408525,0.0023220352389473594, ,0.039795796529061477, ,0.008389783288361374, ,0.0010910806736184107, ,0.21833710382007535,-0.2011231322434289,0.11152890273000002,1.614822254774322,0.21233312063549445,-1.368756820521789, ,0.1221324859182378,0.10303685294079346,0.036533971376146786,0.0,0.11985020066810559,-0.0937498257993885, ,1.3343908786773682
0.020374326520882214,0.02102387097706115,-0.10067147401544144, ,0.021275297638971263,0.02049446668380376,-0.10154721113947812, ,0.0013634270687374642, ,0.019427954679905834,-0.0032827496834127393,-0.03457576539794947,-0.006872531070076302,-0.004817280907408525,0.0023220352389473594, ,0.039795796529061477, ,0.008389783288361374, ,0.0010938041375696012, ,0.21833710382007535,-0.2011231322434289,0.11152890273000002,1.614822254774322,0.21233312063549445,-1.368756820521789, ,0.1221324859182378,0.10303685294079346,0.036533971376146786,0.0,0.11985020066810559,-0.0937498257993885, ,1.3396639823913574
0.020578820227939835,0.020997248581736926,-0.1010424873324183, ,0.021381880476218588,0.02047185393305047,-0.10172388190929392, ,0.001176963834885933, ,0.02037375655386765,-0.0022970313608259687,-0.037582528997282164,-0.006112558687281845,-0.0104722030583648,0.002041780758742849, ,0.04281136291944509, ,0.01212251761248447, ,0.0010946275009093669, ,0.2195881865456997,-0.20010373150403127,0.1119216786,1.614822254774322,0.21342621263361797,-1.3696481637513602, ,0.12340304493949386,0.09905735026980249,0.039822028800000006,0.0,0.11534692024562179,-0.09060110683179427, ,1.3449640274047852
0.020578820227939835,0.020997248581736926,-0.1010424873324183, ,0.02148819236833864,0.02044927806091791,-0.1018995204881021, ,0.0013644541807482898, ,0.02037375655386765,-0.0022970313608259687,-0.037582528997282164,-0.006112558687281845,-0.0104722030583648,0.002041780758742849, ,0.04281136291944509, ,0.01212251761248447, ,0.0010972728605156308, ,0.2195881865456997,-0.20010373150403127,0.1119216786,1.614822254774322,0.21342621263361797,-1.3696481637513602, ,0.12340304493949386,0.09905735026980249,0.039822028800000006,0.0,0.11534692024562179,-0.09060110683179427, ,1.350294828414917
0.020775172334026176,0.020973335529715472,-0.10140732484843967, ,0.02159423456016469,0.020426753053921488,-0.10207412809728267, ,0.0011892190318858976, ,0.020029542560089226,-0.002712558825493602,-0.03718579562458599,-0.0014748456394003428,3.61750871816639e-05,0.002935722710975937, ,0.04232403509569553, ,0.001450991285975359, ,0.0010981655417910705, ,0.22077748740833028,-0.199130667161879,0.11230797302000001,1.614822254774322,0.21465594113150693,-1.3706509248846281, ,0.12073402233902134,0.10138562132315254,0.039330398814814815,0.0,0.12332589397558531,-0.09749136699730528, ,1.3556299209594727
0.020775172334026176,0.020973335529715472,-0.10140732484843967, ,0.021700008327817384,0.020404292762068624,-0.1022477059715068, ,0.0013730883871151634, ,0.020029542560089226,-0.002712558825493602,-0.03718579562458599,-0.0014748456394003428,3.61750871816639e-05,0.002935722710975937, ,0.04232403509569553, ,0.001450991285975359, ,0.0011008090306884174, ,0.22077748740833028,-0.199130667161879,0.11230797302000001,1.614822254774322,0.21465594113150693,-1.3706509248846281, ,0.12073402233902134,0.10138562132315254,0.039330398814814815,0.0,0.12332589397558531,-0.09749136699730528, ,1.361008882522583
0.020981731954853897,0.020942867413948314,-0.10177655036194791, ,0.021805514980338843,0.020381910905410663,-0.10242025536371549, ,0.001186442921867075, ,0.019936606439541583,-0.0032559152584266614,-0.03420308332504763,0.0005837953032251414,-0.003669556007745173,-0.001783379722384308, ,0.039723043305308035, ,0.0037094001645896235, ,0.0011016245915567856, ,0.2220440155997031,-0.19808809822385867,0.11269945260000001,1.6150319447178065,0.2158856696293959,-1.371653686017896, ,0.1251938542987741,0.10031389171085707,0.0363671495890411,0.004883378033073642,0.12310772423744742,-0.0974005809818924, ,1.3662779331207275
0.020981731954853897,0.020942867413948314,-0.10177655036194791, ,0.021910755858147796,0.020359621070361416,-0.10259177754175113, ,0.0013666956738384818, ,0.019936606439541583,-0.0032559152584266614,-0.03420308332504763,0.0005837953032251414,-0.003669556007745173,-0.001783379722384308, ,0.039723043305308035, ,0.0037094001645896235, ,0.0011041252621443488, ,0.2220440155997031,-0.19808809822385867,0.11269945260000001,1.6150319447178065,0.2158856696293959,-1.371653686017896, ,0.1251938542987741,0.10031389171085707,0.0363671495890411,0.004883378033073642,0.12310772423744742,-0.0974005809818924, ,1.371495008468628
0.021186811491015915,0.020907059478826276,-0.10211827823823187, ,0.022015732333110695,0.020337436711178113,-0.10276227378919262, ,0.0011942822654379085, ,0.020561104061066884,-0.003810848106616434,-0.03370842779291704,0.004718511032289782,-0.0013437658540473697,0.010562331176113517, ,0.03966786694255219, ,0.0049016867170198096, ,0.0011049678509601766, ,0.22335688018832128,-0.1970532520187126,0.11306371009,1.615241634661291,0.2172520346270503,-1.3726861863147195, ,0.13216844228199273,0.1039396950257073,0.03595668514672686,-0.00663702233098009,0.1349027842054593,-0.1075177777550401, ,1.3767428398132324
0.021186811491015915,0.020907059478826276,-0.10211827823823187, ,0.02212044580828457,0.020315371150400705,-0.10293174540534344, ,0.001372405533486834, ,0.020561104061066884,-0.003810848106616434,-0.03370842779291704,0.004718511032289782,-0.0013437658540473697,0.010562331176113517, ,0.03966786694255219, ,0.0049016867170198096, ,0.0011074441257983864, ,0.22335688018832128,-0.1970532520187126,0.11306371009,1.615241634661291,0.2172520346270503,-1.3726861863147195, ,0.13216844228199273,0.1039396950257073,0.03595668514672686,-0.00663702233098009,0.1349027842054593,-0.1075177777550401, ,1.3820009231567383
0.021390380288282967,0.02086918275162152,-0.10244719693190704, ,0.022224897717659387,0.020293437579290943,-0.10310019370522051, ,0.001205946362552165, ,0.020493016617312416,-0.0037604383178467425,-0.03263841739385272,-0.0024042186476595498,-0.013404676475458966,0.008280379861307382, ,0.038721711175968454, ,0.013617216341593477, ,0.0011083478160438338, ,0.2246620220440652,-0.19603385127931494,0.11341500468000001,1.615241634661291,0.21848176312493928,-1.3736889474479872, ,0.13180130772009832,0.10084690920135046,0.034931604210526324,-0.0064765307335907536,0.12214774227467769,-0.09732818395539994, ,1.3873848915100098
0.021390380288282967,0.02086918275162152,-0.10244719693190704, ,0.022329089525900684,0.02027164905827157,-0.10326762001954173, ,0.001382503378007195, ,0.020493016617312416,-0.0037604383178467425,-0.03263841739385272,-0.0024042186476595498,-0.013404676475458966,0.008280379861307382, ,0.038721711175968454, ,0.013617216341593477, ,0.0011108401393344098, ,0.2246620220440652,-0.19603385127931494,0.11341500468000001,1.615241634661291,0.21848176312493928,-1.3736889474479872, ,0.13180130772009832,0.10084690920135046,0.034931604210526324,-0.0064765307335907536,0.12214774227467769,-0.09732818395539994, ,1.3926739692687988
0.021591629769962893,0.020825502990592777,-0.10275452779129735, ,0.022433022728092306,0.0202500185173654,-0.10343402569471505, ,0.0012250885231952057, ,0.019958043390210206,-0.004859004509946504,-0.029365072155106708,-0.010735999282202015,-0.022509945265919415,0.005102184563285498, ,0.03583630677773335, ,0.024938674410506737, ,0.0011118694040538764, ,0.2259826093655576,-0.1950067278070431,0.11374426234000001,1.615241634661291,0.21971149162282821,-1.3746100298411144, ,0.13216844228199273,0.10428235336095688,0.031479864664031625,-0.006092746514368724,0.11312128611652802,-0.09224282372706478, ,1.397920846939087
0.021591629769962893,0.020825502990592777,-0.10275452779129735, ,0.02253669884947875,0.02022855875663464,-0.10359941209282579, ,0.001401187876939428, ,0.019958043390210206,-0.004859004509946504,-0.029365072155106708,-0.010735999282202015,-0.022509945265919415,0.005102184563285498, ,0.03583630677773335, ,0.024938674410506737, ,0.0011144526047046402, ,0.2259826093655576,-0.1950067278070431,0.11374426234000001,1.615241634661291,0.21971149162282821,-1.3746100298411144, ,0.13216844228199273,0.10428235336095688,0.031479864664031625,-0.006092746514368724,0.11312128611652802,-0.09224282372706478, ,1.403160810470581
0.021787949921677156,0.020774952131434907,-0.10304372814077374, ,0.022640119445207902,0.02020728244661975,-0.10376378059162546, ,0.0012517656729078013, ,0.019769967891012968,-0.005206288304993073,-0.029155712445714112,0.0005379133552552557,-0.005640335504024357,0.007300457665758044, ,0.03560916506383659, ,0.005664068115689021, ,0.0011156677646002437, ,0.22728775122130154,-0.19395643613614857,0.11405407565000002,1.615241634661291,0.22094122012071718,-1.3756127909743823, ,0.13143620714469637,0.10650610724856428,0.031232963764705888,-0.00575323408429493,0.12948989577783016,-0.1055903273444588, ,1.4083809852600098
0.021787949921677156,0.020774952131434907,-0.10304372814077374, ,0.02274328610007375,0.02018620212877892,-0.10392713258452056, ,0.001428179677285903, ,0.019769967891012968,-0.005206288304993073,-0.029155712445714112,0.0005379133552552557,-0.005640335504024357,0.007300457665758044, ,0.03560916506383659, ,0.005664068115689021, ,0.0011184090971676616, ,0.22728775122130154,-0.19395643613614857,0.11405407565000002,1.615241634661291,0.22094122012071718,-1.3756127909743823, ,0.13143620714469637,0.10650610724856428,0.031232963764705888,-0.00575323408429493,0.12948989577783016,-0.1055903273444588, ,1.4135959148406982
0.021985418868025585,0.020724736377280895,-0.10333771246223249, ,0.02284620042825855,0.020165330215927015,-0.10408946948055972, ,0.0012724066812155757, ,0.019934652171479078,-0.004722235717616446,-0.030251005797714642,0.003844688375462727,-0.0035978953222762042,0.007505894763218907, ,0.03653509571828097, ,0.005263187791349754, ,0.0011197482065941652, ,0.22858517034417125,-0.19290614446525403,0.11436907412000001,1.615241634661291,0.22217094861860617,-1.37661555210765, ,0.12981797750816795,0.10348630486201829,0.032441571323828924,-0.00544888556898423,0.12982966735204107,-0.10586738828058642, ,1.4194748401641846
0.022185936454208664,0.02067746514458177,-0.10364095513415864, ,0.02294886407307593,0.020144678992674716,-0.10425079270442239, ,0.0011125742660153537, ,0.019934652171479078,-0.004722235717616446,-0.030251005797714642,0.003844688375462727,-0.0035978953222762042,0.007505894763218907, ,0.03653509571828097, ,0.005263187791349754, ,0.0011196863622788308, ,0.229882589467041,-0.19187129826010793,0.11469444291000001,1.615241634661291,0.22340067711649514,-1.3776183132409177, ,0.13161850424198443,0.10359928117736984,0.03277533234567902,-0.00517383854729104,0.1185602619389631,-0.09667794381160687, ,1.4271869659423828
0.022185936454208664,0.02067746514458177,-0.10364095513415864, ,0.023051278706712915,0.020124260615867827,-0.10441110369640745, ,0.0012837372287554274, ,0.0203816549910486,-0.0047380738034839475,-0.03049756468471973,-0.00537114125308287,-0.016362973421276388,0.004742749661804443, ,0.036985979171032655, ,0.017221198403335962, ,0.0011210885064367505, ,0.229882589467041,-0.19187129826010793,0.11469444291000001,1.615241634661291,0.22340067711649514,-1.3776183132409177, ,0.13161850424198443,0.10359928117736984,0.03277533234567902,-0.00517383854729104,0.1185602619389631,-0.09667794381160687, ,1.4325339794158936
0.022394361271144667,0.02062934609658181,-0.10395072791022587, ,0.023153446029972973,0.020104087115026276,-0.10457040391242108, ,0.0011118025978053882, ,0.020836987504155635,-0.0047705715351518616,-0.030508368556256927,-0.03355989426357197,-0.048979412094944136,-0.0021226941625018926, ,0.03725183153866056, ,0.059373587412964425, ,0.0011210098122958066, ,0.23121862225428183,-0.19082100658921342,0.11502758944000001,1.615241634661291,0.22449376911461866,-1.3785096564704893, ,0.13216844228199273,0.10337357468243004,0.03284291035051547,-0.004922905098310811,0.08578403626256684,-0.06818548768573869, ,1.4378728866577148
0.022394361271144667,0.02062934609658181,-0.10395072791022587, ,0.02325536777201828,0.020084170392783304,-0.10472869482396485, ,0.0012821003320455738, ,0.020836987504155635,-0.0047705715351518616,-0.030508368556256927,-0.03355989426357197,-0.048979412094944136,-0.0021226941625018926, ,0.03725183153866056, ,0.059373587412964425, ,0.0011223635141424434, ,0.23121862225428183,-0.19082100658921342,0.11502758944000001,1.615241634661291,0.22449376911461866,-1.3785096564704893, ,0.13216844228199273,0.10337357468243004,0.03284291035051547,-0.004922905098310811,0.08578403626256684,-0.06818548768573869, ,1.4431238174438477
0.022601049774866145,0.020583594448055718,-0.10424576569835417, ,0.023357045690112415,0.020064522225324656,-0.10488597791812458, ,0.0011184084596529873, ,0.020730756583291387,-0.00473200054353566,-0.02926285499509008,-0.028140930156662376,-0.04730153115502385,-0.0012649162919018317, ,0.036172790604587994, ,0.0550393072447016, ,0.0011223305553550312, ,0.2325392095757742,-0.18982477404843845,0.11534647678000001,1.615241634661291,0.22531358811321128,-1.379178163892668, ,0.13328222128998704,0.10031389171085707,0.031667617335984104,-0.004698716975355343,0.08857065314041866,-0.07055485251039716, ,1.4484179019927979
0.022601049774866145,0.020583594448055718,-0.10424576569835417, ,0.023458481569362984,0.020045154262827755,-0.10504225469755822, ,0.0012882165350341773, ,0.020730756583291387,-0.00473200054353566,-0.02926285499509008,-0.028140930156662376,-0.04730153115502385,-0.0012649162919018317, ,0.036172790604587994, ,0.0550393072447016, ,0.0011237015138647762, ,0.2325392095757742,-0.18982477404843845,0.11534647678000001,1.615241634661291,0.22531358811321128,-1.379178163892668, ,0.13328222128998704,0.10031389171085707,0.031667617335984104,-0.004698716975355343,0.08857065314041866,-0.07055485251039716, ,1.4536879062652588
0.022803976708361987,0.020533263792933413,-0.10453331337135403, ,0.023559677222463927,0.0200260780299007,-0.10519752668048395, ,0.0011267208994521763, ,0.019821679517682905,-0.005012753098687815,-0.02832588444229022,0.007723263007040311,-0.0031559156967028114,0.006336519291574077, ,0.03493397203250889, ,0.008342083664911563, ,0.001123726262926968, ,0.23386751963014082,-0.18880537330904082,0.11565758638000001,1.615241634661291,0.22654331661110025,-1.380099246285795, ,0.12964063054435898,0.10052642114244785,0.030632329846153848,-0.004492132376556164,0.1297998861669103,-0.10656616336442627, ,1.4590859413146973
0.022991695299732298,0.020486703437937626,-0.1048018062290706, ,0.02366063448943855,0.020007304926021607,-0.10535179540066848, ,0.000989843756169165, ,0.019821679517682905,-0.005012753098687815,-0.02832588444229022,0.006148359322397763,-0.003951852089904651,0.005605889400386368, ,0.03493397203250889, ,0.008342083664911563, ,0.0011226377872622705, ,0.23507998869139407,-0.18786319989838543,0.11594795534,1.615241634661291,0.22763640860922377,-1.3809089107752257, ,0.12308293327946923,0.0956622394742649,0.02977347947663552,-0.004311164496403265,0.12224336637383641,-0.10019702259772512, ,1.4648828506469727
0.022991695299732298,0.020486703437937626,-0.1048018062290706, ,0.023761355237381387,0.019988846225977658,-0.10550506240741563, ,0.0011553386843272462, ,0.019056339760049824,-0.0047097883505098975,-0.02752639764134109,0.006148359322397763,-0.003951852089904651,0.005605889400386368, ,0.03380870832294962, ,0.0073077803764282495, ,0.0011229015041740848, ,0.23507998869139407,-0.18786319989838543,0.11594795534,1.615241634661291,0.22763640860922377,-1.3809089107752257, ,0.12308293327946923,0.0956622394742649,0.02977347947663552,-0.004311164496403265,0.12224336637383641,-0.10019702259772512, ,1.4701619148254395
0.023187822176925003,0.020436773330231403,-0.10508045545318953, ,0.02386184136020158,0.019970713080304195,-0.10565732926555403, ,0.0010021464021683594, ,0.018018219496940623,-0.0046039562917610565,-0.025629976903979983,0.014795578791425663,0.010722689123952673,0.008189263634667023, ,0.031666202226899975, ,0.01827222356967235, ,0.001121935463358039, ,0.23636196234851534,-0.18687469009048469,0.11624999091000002,1.615241634661291,0.22900277360687818,-1.38202308981219, ,0.1178843994515165,0.090723653497582,0.027798972984293194,-0.0041287063441507845,0.1318329951502757,-0.10398267341269508, ,1.4754338264465332
0.023187822176925003,0.020436773330231403,-0.10508045545318953, ,0.023962094778364796,0.019952916515724024,-0.10580859755542583, ,0.0011678212189092463, ,0.018018219496940623,-0.0046039562917610565,-0.025629976903979983,0.014795578791425663,0.010722689123952673,0.008189263634667023, ,0.031666202226899975, ,0.01827222356967235, ,0.0011222996360211437, ,0.23636196234851534,-0.18687469009048469,0.11624999091000002,1.615241634661291,0.22900277360687818,-1.38202308981219, ,0.1178843994515165,0.090723653497582,0.027798972984293194,-0.0041287063441507845,0.1318329951502757,-0.10398267341269508, ,1.4806950092315674
0.02338046458406037,0.020391112195947005,-0.10535417107093195, ,0.024062117438636104,0.019935467435586437,-0.105958868872875, ,0.0010187846649170023, ,0.01934649855081854,-0.004277230948775837,-0.02826887433887458,-0.04140083214514744,-0.05388375106056429,-0.005129622152450558, ,0.03452116694367488, ,0.06795196448926576, ,0.0011214845575085127, ,0.2375821541426428,-0.18594023941270352,0.11654684132000001,1.615241634661291,0.22995922910523628,-1.3827213363979243, ,0.11803102183889398,0.09195440073495231,0.030573534587332057,-0.003964760019922488,0.06610226319889041,-0.0489067191205679, ,1.485893964767456
0.02338046458406037,0.020391112195947005,-0.10535417107093195, ,0.024161911313822348,0.019918376620306433,-0.10610814482923481, ,0.0011843202033830404, ,0.01934649855081854,-0.004277230948775837,-0.02826887433887458,-0.04140083214514744,-0.05388375106056429,-0.005129622152450558, ,0.03452116694367488, ,0.06795196448926576, ,0.0011219754609919075, ,0.2375821541426428,-0.18594023941270352,0.11654684132000001,1.615241634661291,0.22995922910523628,-1.3827213363979243, ,0.11803102183889398,0.09195440073495231,0.030573534587332057,-0.003964760019922488,0.06610226319889041,-0.0489067191205679, ,1.4911158084869385
0.02338046458406037,0.020391112195947005,-0.10535417107093195, ,0.024261478402514906,0.01990165472780378,-0.1062564270513169, ,0.0013527083261255606, ,0.01950734605781626,-0.003707819270312995,-0.02900458910415671,-0.04051498338782752,-0.06449185737553764,-0.00679267349323253, ,0.03515040061025863, ,0.07616195257003042, ,0.0011237640878534085, ,0.23869422767653115,-0.18507529333079037,0.11684887689000001,1.615241634661291,0.23050577510429804,-1.383003650532429, ,0.11615292724415029,0.08762413809646424,0.03141777420118344,-0.003823373874888028,0.0533491165334918,-0.045529453011622104, ,1.4965238571166992
0.023566991699152863,0.020353363579303202,-0.10563368426874689, ,0.024360820728832076,0.019885312293942293,-0.10640371718139896, ,0.0012009109961428736, ,0.01950734605781626,-0.003707819270312995,-0.02900458910415671,-0.04051498338782752,-0.06449185737553764,-0.00679267349323253, ,0.03515040061025863, ,0.07616195257003042, ,0.0011243575256094814, ,0.23869422767653115,-0.18507529333079037,0.11684887689000001,1.615241634661291,0.23050577510429804,-1.383003650532429, ,0.11615292724415029,0.08762413809646424,0.03141777420118344,-0.003823373874888028,0.0533491165334918,-0.045529453011622104, ,1.5021779537200928
0.023760719291159804,0.02031792627497176,-0.10593494602169565, ,0.024459940342161736,0.019869359732968953,-0.10655001687721374, ,0.0010336508975840757, ,0.018341387745832202,-0.003213956107798985,-0.02901192584250954,0.04295094441800602,0.036456070557343644,0.013171318379811644, ,0.03447358205056583, ,0.05633656142792484, ,0.001123665108601654, ,0.23988352853916173,-0.18419490178312878,0.11717554197,1.615241634661291,0.23187214010195245,-1.3840361508292527, ,0.1131072009040176,0.08266284107880731,0.031479864664031625,-0.003682308331437553,0.1530272507412367,-0.12415608700486006, ,1.5074398517608643
0.023760719291159804,0.02031792627497176,-0.10593494602169565, ,0.02455883931690381,0.01985380733795287,-0.10669532781193612, ,0.0011960695757866544, ,0.018341387745832202,-0.003213956107798985,-0.02901192584250954,0.04295094441800602,0.036456070557343644,0.013171318379811644, ,0.03447358205056583, ,0.05633656142792484, ,0.0011242136272924495, ,0.23988352853916173,-0.18419490178312878,0.11717554197,1.615241634661291,0.23187214010195245,-1.3840361508292527, ,0.1131072009040176,0.08266284107880731,0.031479864664031625,-0.003682308331437553,0.1530272507412367,-0.12415608700486006, ,1.5126760005950928
0.02394598025724412,0.020284630789220506,-0.10622664782903626, ,0.02465751975221285,0.019838665281224774,-0.10683965167417223, ,0.0010396862033198867, ,0.018211912442575716,-0.003339765020489716,-0.029201364071725782,0.01673406839550194,0.026714422767766935,0.00644247604080715, ,0.03457668938544591, ,0.03152250300449473, ,0.0011235780827513022, ,0.2410110475387985,-0.18336084663271254,0.11749183673000001,1.6150319447178065,0.23323850509960684,-1.3852320086063574, ,0.10970744688840552,0.08360964013962183,0.03160478476190477,0.0,0.13889963216066728,-0.09800226605141688, ,1.517892837524414
0.02394598025724412,0.020284630789220506,-0.10622664782903626, ,0.024755983771740625,0.0198239436148158,-0.10698299016794753, ,0.00120016336379155, ,0.018211912442575716,-0.003339765020489716,-0.029201364071725782,0.01673406839550194,0.026714422767766935,0.00644247604080715, ,0.03457668938544591, ,0.03152250300449473, ,0.0011241496146993637, ,0.2410110475387985,-0.18336084663271254,0.11749183673000001,1.6150319447178065,0.23323850509960684,-1.3852320086063574, ,0.10970744688840552,0.08360964013962183,0.03160478476190477,0.0,0.13889963216066728,-0.09800226605141688, ,1.52308988571167
0.02412891372849934,0.020255043335431693,-0.10651822398945271, ,0.024854233523378677,0.019809652270896944,-0.10712534501269451, ,0.0010454941138396579, ,0.01836677662386915,-0.0027256790587525614,-0.028972215885581205,-0.0046046462163728775,-0.006551600304359744,-0.004319598534289057, ,0.03441158385199891, ,0.008006611033691633, ,0.0011235669813596625, ,0.24209995287406416,-0.1825576824137932,0.11780813149000001,1.615241634661291,0.2344682335974958,-1.3862347697396253, ,0.10796011553864708,0.07740370437069395,0.031479864664031625,0.005344948066816625,0.10225891097351876,-0.06931749727158587, ,1.5284309387207031
0.02412891372849934,0.020255043335431693,-0.10651822398945271, ,0.024952271179000715,0.01979580106221801,-0.10726671794324207, ,0.0012037708069486564, ,0.01836677662386915,-0.0027256790587525614,-0.028972215885581205,-0.0046046462163728775,-0.006551600304359744,-0.004319598534289057, ,0.03441158385199891, ,0.008006611033691633, ,0.0011241567153713462, ,0.24209995287406416,-0.1825576824137932,0.11780813149000001,1.615241634661291,0.2344682335974958,-1.3862347697396253, ,0.10796011553864708,0.07740370437069395,0.031479864664031625,0.005344948066816625,0.10225891097351876,-0.06931749727158587, ,1.5338330268859863
0.02428302361531589,0.020231544899595978,-0.10675635817121966, ,0.025050098934205383,0.019782399682546855,-0.10740711070980188, ,0.001101641882518422, ,0.017711342951586218,-0.002769228311264477,-0.027058254081760272,-0.0013206273311277485,-0.009556263300743119,-0.006835562759558207, ,0.032457809669503394, ,0.00964633196875482, ,0.0011239923735257046, ,0.24301123535322264,-0.18190897285235832,0.11806738949000001,1.6154513246047757,0.23528805259608845,-1.3868215984216632, ,0.10532401948775891,0.07419620137487942,0.02949779911111111,0.0074658243038622975,0.09613346567848913,-0.06894451155722636, ,1.5392069816589355
0.02428302361531589,0.020231544899595978,-0.10675635817121966, ,0.02514771900805864,0.01976945770710854,-0.10754652507795903, ,0.0012592007132294404, ,0.017711342951586218,-0.002769228311264477,-0.027058254081760272,-0.0013206273311277485,-0.009556263300743119,-0.006835562759558207, ,0.032457809669503394, ,0.00964633196875482, ,0.0011249721441032679, ,0.24421598168160166,-0.1810826404348163,0.11839016570000001,1.6154513246047757,0.23610787159468108,-1.3871633908832792, ,0.10359928117736984,0.07232998594395638,0.027416198829604135,0.0074658243038622975,0.04658209105339161,-0.02532820290059089, ,1.5445318222045898
0.02448496422790476,0.02019922158164481,-0.1070513213850325, ,0.02524513364283644,0.019756984593024423,-0.10768496282865798, ,0.0010839430670387597, ,0.017540632753107896,-0.0029880176491138685,-0.025047453126378728,-0.04308876931282264,-0.056494252213422434,-0.015878556783888786, ,0.030724207963248734, ,0.0710509163585385, ,0.0011246769708869765, ,0.24421598168160166,-0.1810826404348163,0.11839016570000001,1.6154513246047757,0.23610787159468108,-1.3871633908832792, ,0.10359928117736984,0.07232998594395638,0.027416198829604135,0.0074658243038622975,0.04658209105339161,-0.02532820290059089, ,1.5506060123443604
0.024659436005685993,0.020169046549119485,-0.10730327877012691, ,0.025342345103767105,0.019744989679751395,-0.10782242575819219, ,0.0009569235392221655, ,0.01717594171492237,-0.002704707659019034,-0.025816772106622244,0.018155855074494017,0.017837220665944026,-0.0009637692776203037, ,0.03112610061219418, ,0.025451719902397585, ,0.0011234787320893707, ,0.2452662733524962,-0.1803567035446392,0.11866627547000001,1.6154513246047757,0.23692769059327373,-1.3877502195653175, ,0.10428235336095688,0.07081861310333641,0.028292738046181175,0.007173003721862154,0.12299847184041794,-0.08516814470085614, ,1.5558559894561768
0.024659436005685993,0.020169046549119485,-0.10730327877012691, ,0.025439355678774048,0.0197334821895209,-0.10795891567819195, ,0.0011080842761448208, ,0.01717594171492237,-0.002704707659019034,-0.025816772106622244,0.018155855074494017,0.017837220665944026,-0.0009637692776203037, ,0.03112610061219418, ,0.025451719902397585, ,0.0011233695515507568, ,0.2452662733524962,-0.1803567035446392,0.11866627547000001,1.6154513246047757,0.23692769059327373,-1.3877502195653175, ,0.10428235336095688,0.07081861310333641,0.028292738046181175,0.007173003721862154,0.12299847184041794,-0.08516814470085614, ,1.5611178874969482
0.024819735620999827,0.0201464557109635,-0.10754766029786139, ,0.025536167678218227,0.01972247122777826,-0.10809443441561262, ,0.0009959918023933103, ,0.01717594171492237,-0.002704707659019034,-0.025816772106622244,0.018155855074494017,0.017837220665944026,-0.0009637692776203037, ,0.03112610061219418, ,0.025451719902397585, ,0.0011224725251482396, ,0.2452662733524962,-0.1803567035446392,0.11866627547000001,1.6154513246047757,0.23692769059327373,-1.3877502195653175, ,0.10428235336095688,0.07081861310333641,0.028292738046181175,0.007173003721862154,0.12299847184041794,-0.08516814470085614, ,1.5669238567352295
0.024819735620999827,0.0201464557109635,-0.10754766029786139, ,0.025632783434640698,0.019711965783621666,-0.10822898381272249, ,0.0011463114655844593, ,0.01706901320176344,-0.002142832294505683,-0.025598242132643778,0.02855883146634582,0.02594601247289421,0.002017041096309318, ,0.030841740259035483, ,0.03858486007004459, ,0.001122639231025416, ,0.24624706042752273,-0.17971571671607856,0.11893460750000001,1.6154513246047757,0.23829405559092814,-1.388782719862141, ,0.1039396950257073,0.06522126567592494,0.02819258676106195,0.006851247350130454,0.13094233669790775,-0.0902011730977991, ,1.5724968910217285
0.02499284831328859,0.02012312523315462,-0.10779232168343729, ,0.025729205302505075,0.0197019747302414,-0.1083625657270916, ,0.00102213875329881, ,0.015566264230060701,-0.0023285920711335066,-0.020926396768357534,-0.02025990998227709,-0.020686323535946634,-0.006567828190629718, ,0.02618482394098799, ,0.02895486005656093, ,0.0011219413110412036, ,0.2473127975641657,-0.17906700715464371,0.11920553211000001,1.6154513246047757,0.23938714758905166,-1.38934734813115, ,0.09614685061648508,0.05861454080202025,0.023253739445255477,0.006522802223574465,0.07559717686198696,-0.03502115574445777, ,1.5778429508209229
0.02499284831328859,0.02012312523315462,-0.10779232168343729, ,0.02582543565794026,0.019692506825358978,-0.10849518203157976, ,0.0011716000036691388, ,0.015566264230060701,-0.0023285920711335066,-0.020926396768357534,-0.02025990998227709,-0.020686323535946634,-0.006567828190629718, ,0.02618482394098799, ,0.02895486005656093, ,0.0011222837847834652, ,0.2473127975641657,-0.17906700715464371,0.11920553211000001,1.6154513246047757,0.23938714758905166,-1.38934734813115, ,0.09614685061648508,0.05861454080202025,0.023253739445255477,0.006522802223574465,0.07559717686198696,-0.03502115574445777, ,1.5830519199371338
0.02515406583898556,0.020097868379332275,-0.10801615864444139, ,0.02592147689848288,0.01968357071166634,-0.10862683461432449, ,0.0010646536675674818, ,0.016963684859083974,-0.0026060727360968775,-0.024206802425446112,-0.015374043814440574,-0.0020483533773868645,-0.0035657351627960817, ,0.029673683673732288, ,0.01550963130184841, ,0.0011218890579532187, ,0.2482935846391922,-0.1784414657918315,0.11945312350000001,1.6154513246047757,0.24020696658764432,-1.389607461852626, ,0.1027023177039727,0.06640793670991657,0.026726193825503362,0.006244653234034138,0.10127408268883259,-0.04751847841085635, ,1.5884079933166504
0.02515406583898556,0.020097868379332275,-0.10801615864444139, ,0.026017331442819733,0.019675174917264983,-0.1087575253787296, ,0.0012138871036248685, ,0.016963684859083974,-0.0026060727360968775,-0.024206802425446112,-0.015374043814440574,-0.0020483533773868645,-0.0035657351627960817, ,0.029673683673732288, ,0.01550963130184841, ,0.001122514894998604, ,0.2482935846391922,-0.1784414657918315,0.11945312350000001,1.6154513246047757,0.24020696658764432,-1.389607461852626, ,0.1027023177039727,0.06640793670991657,0.026726193825503362,0.006244653234034138,0.10127408268883259,-0.04751847841085635, ,1.5936717987060547
0.025325235592581992,0.020079180713067076,-0.10827572681870108, ,0.02611300173053049,0.01966732785610495,-0.10888725624345331, ,0.001078965477308684, ,0.016580227653154807,-0.0010637993858022476,-0.025884540742559088,0.012014009062381493,0.055179946881368395,0.009372095952761908, ,0.030757845627040818, ,0.05647257149876853, ,0.0011222206421763747, ,0.24932070811146406,-0.17781592442901933,0.11973960359000001,1.6154513246047757,0.2415733315852987,-1.3903132471888873, ,0.09947268507177229,0.05526903992922002,0.028648941582733817,0.005981702349496014,0.15623353501031756,-0.06417537058379953, ,1.5989458560943604
0.025325235592581992,0.020079180713067076,-0.10827572681870108, ,0.026208490221830125,0.019660037828424282,-0.10901602914239618, ,0.001226322562910468, ,0.016580227653154807,-0.0010637993858022476,-0.025884540742559088,0.012014009062381493,0.055179946881368395,0.009372095952761908, ,0.030757845627040818, ,0.05647257149876853, ,0.0011229193127853285, ,0.24932070811146406,-0.17781592442901933,0.11973960359000001,1.6154513246047757,0.2415733315852987,-1.3903132471888873, ,0.09947268507177229,0.05526903992922002,0.028648941582733817,0.005981702349496014,0.15623353501031756,-0.06417537058379953, ,1.604362964630127
0.0255046355175561,0.020068269613312425,-0.1085490520950503, ,0.02630379939731149,0.019653313021187925,-0.10914384602469004, ,0.0010791810315186048, ,0.017988533339121607,-0.0012044023845474475,-0.026653884383305508,0.03589543633991366,0.031066455908302575,0.0060546461592716665, ,0.032178680356957, ,0.0474720294515553, ,0.0011226277242435503, ,0.2503941679809813,-0.17723671946345249,0.12004293545000001,1.6154513246047757,0.24307633308271853,-1.391130450428845, ,0.10820631876678537,0.05782872733605776,0.029662591284916204,0.0057360962903596335,0.14062166097155018,-0.09057798975101487, ,1.609637975692749
0.0255046355175561,0.020068269613312425,-0.1085490520950503, ,0.026398931757687958,0.01964716150852702,-0.10927070885468551, ,0.0012238816445053564, ,0.017988533339121607,-0.0012044023845474475,-0.026653884383305508,0.03589543633991366,0.031066455908302575,0.0060546461592716665, ,0.032178680356957, ,0.0474720294515553, ,0.0011232982800068734, ,0.25142129145325315,-0.17669612816225677,0.12033071183,1.6156610145482602,0.24430606158060753,-1.3916431391212696, ,0.10214956034281031,0.05322318651624834,0.029941375037593993,0.0003341111100486489,0.0984747011063531,-0.007414521441511942, ,1.6157019138336182
0.025678099139325367,0.020059041963469797,-0.1088076370636722, ,0.026493889823535708,0.01964159125217797,-0.1093966196119402, ,0.0010893484194538874, ,0.017817100387635752,-0.0006848585465027516,-0.0269621252212329,-0.04407792230440564,-0.005249398670871438,0.0043111611225083125, ,0.032324515369874476, ,0.044389246136097675, ,0.00112307492566113, ,0.25142129145325315,-0.17669612816225677,0.12033071183,1.6156610145482602,0.24430606158060753,-1.3916431391212696, ,0.10214956034281031,0.05322318651624834,0.029941375037593993,0.0003341111100486489,0.0984747011063531,-0.007414521441511942, ,1.6209259033203125
0.025863204309342122,0.020051592005053763,-0.10908414688273843, ,0.026588676135036488,0.019636610101921595,-0.1095215802912077, ,0.0009433277991496687, ,0.018073922014356505,-0.0006451424776177195,-0.02674238145398068,-0.01882505475129844,-0.02431796668105331,0.001134472083390979, ,0.03228370845531345, ,0.030752764308098545, ,0.0011219001078407937, ,0.2524715831241477,-0.17614781412818684,0.12063793256000001,1.6156610145482602,0.24512588057920015,-1.391739895362464, ,0.10281358782066174,0.05231363922738191,0.02977347947663552,0.0003341111100486489,0.07976015787395983,-0.03177233681374751, ,1.6261768341064453
0.025863204309342122,0.020051592005053763,-0.10908414688273843, ,0.026683293251720072,0.019632225796022303,-0.10964559290242504, ,0.0010787193906247983, ,0.018073922014356505,-0.0006451424776177195,-0.02674238145398068,-0.01882505475129844,-0.02431796668105331,0.001134472083390979, ,0.03228370845531345, ,0.030752764308098545, ,0.0011216197135731573, ,0.2524715831241477,-0.17614781412818684,0.12063793256000001,1.6156610145482602,0.24512588057920015,-1.391739895362464, ,0.10281358782066174,0.05231363922738191,0.02977347947663552,0.0003341111100486489,0.07976015787395983,-0.03177233681374751, ,1.6317138671875
0.026034341755652956,0.02004618396373457,-0.10932825697656294, ,0.02677774375220685,0.019628445961667355,-0.10976865947070141, ,0.0009597426340924998, ,0.01724305640345048,-0.0006249817404630157,-0.023993660391030694,-0.022242259348865277,-0.00839559332810306,-0.0036226925988653634, ,0.029553499543516028, ,0.023773854045151567, ,0.0011205753453184433, ,0.25346781566492266,-0.17566900468998492,0.12091144975000001,1.6158707044917449,0.2459456995777928,-1.3919183303437994, ,0.10236994774376568,0.04773488005959295,0.02699798562711865,0.00909265595494948,0.09393532259698809,-0.021737758745805677, ,1.637704849243164
0.026034341755652956,0.02004618396373457,-0.10932825697656294, ,0.026872030233950187,0.01962527811540577,-0.10989078203630581, ,0.0010933060699859112, ,0.01724305640345048,-0.0006249817404630157,-0.023993660391030694,-0.022242259348865277,-0.00839559332810306,-0.0036226925988653634, ,0.029553499543516028, ,0.023773854045151567, ,0.00112040054227144, ,0.25346781566492266,-0.17566900468998492,0.12091144975000001,1.6158707044917449,0.2459456995777928,-1.3919183303437994, ,0.10236994774376568,0.04773488005959295,0.02699798562711865,0.00909265595494948,0.09393532259698809,-0.021737758745805677, ,1.643042802810669
0.026204769275109483,0.020036478639332778,-0.10955635154802545, ,0.026966155312979218,0.019622729663587725,-0.1100119626546555, ,0.000979019097912655, ,0.01677717525064825,-0.001198797704346671,-0.021622292671860135,0.023634696609720552,0.0116253907837099,0.00030455791105315225, ,0.027394055298814148, ,0.02633901798747205, ,0.0011195000235175623, ,0.25451038460294295,-0.17518247251890878,0.12116941146000001,1.6158707044917449,0.24703879157591632,-1.392564637352949, ,0.10497449287441457,0.048865572378203284,0.024581499259259263,0.00909265595494948,0.11694977937171454,-0.06869917051585817, ,1.6483948230743408
0.026204769275109483,0.020036478639332778,-0.10955635154802545, ,0.027060121623641135,0.01962080790280346,-0.11013220339630496, ,0.0011117621834332908, ,0.01677717525064825,-0.001198797704346671,-0.021622292671860135,0.023634696609720552,0.0116253907837099,0.00030455791105315225, ,0.027394055298814148, ,0.02633901798747205, ,0.0011194510498461427, ,0.25451038460294295,-0.17518247251890878,0.12116941146000001,1.6158707044917449,0.24703879157591632,-1.392564637352949, ,0.10497449287441457,0.048865572378203284,0.024581499259259263,0.00909265595494948,0.11694977937171454,-0.06869917051585817, ,1.6536648273468018
0.026378734868311195,0.020024494048798466,-0.10977167340524156, ,0.02715393181834399,0.01961952002032274,-0.11025150634693286, ,0.0009975840450869911, ,0.016943158597962114,-0.001067594313155069,-0.02039961983036644,-0.013063430234664584,-0.004438183086809903,-0.0012663525975193512, ,0.026539684815699266, ,0.01379663531005361, ,0.001118684590696714, ,0.2556070126710828,-0.17469594034783265,0.12141570656000002,1.6158707044917449,0.24813188357403987,-1.3930475868818175, ,0.10759290426130474,0.045755516662714935,0.023459221678939622,0.008746781449238468,0.10331994264844839,-0.029059434974243577, ,1.6588799953460693
0.026378734868311195,0.020024494048798466,-0.10977167340524156, ,0.027247588567298926,0.01961887309453369,-0.11036987360733118, ,0.0011301675055333123, ,0.016943158597962114,-0.001067594313155069,-0.02039961983036644,-0.013063430234664584,-0.004438183086809903,-0.0012663525975193512, ,0.026539684815699266, ,0.01379663531005361, ,0.001118756358914443, ,0.2556070126710828,-0.17469594034783265,0.12141570656000002,1.6158707044917449,0.24813188357403987,-1.3930475868818175, ,0.10759290426130474,0.045755516662714935,0.023459221678939622,0.008746781449238468,0.10331994264844839,-0.029059434974243577, ,1.6641128063201904
0.026548395676251103,0.020015077698295646,-0.10997521381641641, ,0.027341094558262915,0.019618874095382124,-0.11048730729339307, ,0.001023517729043555, ,0.01716621103189585,-0.000872224508727444,-0.020518373847222493,0.008778945062378491,-0.008751162880952774,0.002895682125537344, ,0.026766457406978455, ,0.012395527072972813, ,0.0011181648146295305, ,0.25668819527347425,-0.17424802184112761,0.12165033505000002,1.616080394435229,0.2492249755721634,-1.3935305364106862, ,0.10857773633692308,0.04407661010611741,0.023668367786032693,0.004325200430527605,0.10072608711189088,-0.05034890932398213, ,1.6693248748779297
0.026548395676251103,0.020015077698295646,-0.10997521381641641, ,0.027434452496281327,0.01961952988481075,-0.11060380953610102, ,0.001156151953629181, ,0.01716621103189585,-0.000872224508727444,-0.020518373847222493,0.008778945062378491,-0.008751162880952774,0.002895682125537344, ,0.026766457406978455, ,0.012395527072972813, ,0.001118399303141874, ,0.25668819527347425,-0.17424802184112761,0.12165033505000002,1.616080394435229,0.2492249755721634,-1.3935305364106862, ,0.10857773633692308,0.04407661010611741,0.023668367786032693,0.004325200430527605,0.10072608711189088,-0.05034890932398213, ,1.674745798110962
0.02672487256384157,0.020005885299042406,-0.11018291226071662, ,0.02752766510343027,0.019620847217198107,-0.11071938248151555, ,0.0010394856823899342, ,0.01731671736766211,-0.0010076346093964956,-0.020614843039632774,-0.019687928720780748,-0.030630188662095537,-0.0016472104716763608, ,0.026941710811421014, ,0.036411801270041844, ,0.001117915170499224, ,0.25779254607448837,-0.17380010333442258,0.1218901487,1.616080394435229,0.250044794570756,-1.3937089713920212, ,0.10734948140098505,0.045189019789747986,0.023738914336810735,0.004207687347454553,0.0772427897312471,-0.022972269371684985, ,1.680037021636963
