NicholasDascanio/dvrk_moveit_final/test/execution/third_experiment_notsharpbends/thirdexp_200vel4.0/thirdexp_200vel4.0_23.csv
Current Position (x),Current Position (y),Current Position (z), ,Planned Position (x),Planned Position (y),Planned Position (z), ,Position Error,,Cartesian linear Velocity(x),Cartesian linear Velocity(y),Cartesian linear Velocity(z),Cartesian Angular Velocity(x),Cartesian Angular Velocity(y),Cartesian Angular Velocity(z), ,Total Linear Velocity, ,Total Angular Velocity, ,MSE, ,Joint 1 Position,Joint 2 Position,Joint 3 Position,Joint 4 Position,Joint 5 Position,Joint 6 Position, ,Joint 1 Velocity,Joint 2 Velocity,Joint 3 Velocity,Joint 4 Velocity,Joint 5 Velocity,Joint 6 Velocity, ,Time Stamp
0.009404272086885348,0.020284400569417004,-0.08019752062517971, ,0.009615006812194184,0.02025087113341674,-0.08033516628266274, ,0.0002539284831471701, ,0.001206759905617851,0.00022975168045619225,-0.0009466351639647448,0.2516120234194443,-0.09964458915538403,-0.026257627219322646, ,0.0015508621596176135, ,0.27062456369881044, ,2.1160706928930844e-05, ,0.13234447326558543,-0.24565240999620744,0.08983419329,1.6030796179391889,0.13909595676121836,-1.309608575321491, ,0.0019868768939382163,0.00015020444015680713,0.0009904964208962664,-0.001224455110022531,-0.1011301439639675,-0.2519240738116473, ,0.054325103759765625
0.00946979944206565,0.0203049844994091,-0.08028201813699849, ,0.009709350336486287,0.020283554228242417,-0.08053246755450072, ,0.0003472301805246906, ,0.002406248462194593,0.0005339755338037851,-0.002113328347567919,0.027939526722221664,-0.17794452887160275,-0.04242611553449918, ,0.0032467396318690282, ,0.1801246027303218, ,2.7325393803266394e-05, ,0.13256843251893793,-0.24563696453045897,0.08992363730000001,1.6030796179391889,0.1351334982680206,-1.3178124797339734, ,0.006343996270960329,0.0001685628891405288,0.0022460253130287653,-0.0011591151630398779,-0.17676317296098693,-0.028232319381552573, ,0.11061215400695801
0.00953741095228714,0.020341983422279233,-0.08045291064620866, ,0.0098041257176147,0.020315126514547976,-0.08072864742811837, ,0.0003845631709284545, ,0.001246397971133517,0.0004633183059880924,-0.0027412516228266545,0.022050415474744022,0.012821758160671728,0.005160425796583936, ,0.0030467412451271915, ,0.02550722064014016, ,3.080380733125985e-05, ,0.1331321920187563,-0.2455520144688425,0.0901051179,1.602869927995704,0.13527013476778604,-1.313431566929939, ,0.013777140179801218,0.0030677572396861736,0.0029254015647382924,0.0009755003441522245,0.027140478325576832,-0.024978602127602847, ,0.16380095481872559
0.00964830940222578,0.020401955794215724,-0.08072735378343161, ,0.009899325664434976,0.020345603678498112,-0.08092372579338636, ,0.00032364593483155945, ,0.0019597669310307516,0.0009311842854988111,-0.004224196972994577,-0.003907565034517905,-0.016365455202068314,0.01604346349803403, ,0.004748855721558423, ,0.016825492180762392, ,3.11754230817113e-05, ,0.1340357517650406,-0.24540528254423224,0.09039678315,1.6037086877696423,0.13527013476778604,-1.3144933905517662, ,0.017521591868255314,0.001843760210048511,0.004526516487638534,-0.015641630935509625,0.005112237487415419,5.347415642256107e-05, ,0.21639513969421387
0.009720952531028285,0.02042369710734205,-0.08085099946851008, ,0.009994942937056873,0.02037500131769111,-0.08111772236851975, ,0.00038546482059327076, ,0.00196202652148314,0.0009045615216563168,-0.0037716959052186113,0.015651133151145656,-0.0026568735851668383,0.014294196922417143, ,0.004346661893787836, ,0.01587504158732092, ,3.3232011569120495e-05, ,0.1347925795867146,-0.24527399608537043,0.09053030102000001,1.6037086877696423,0.13595331726661325,-1.3149688013301077, ,0.019898708651388295,0.000975535272972129,0.004102191995879475,-0.009941384759080943,0.02024957540580464,-0.017914231763100502, ,0.2638390064239502
0.009840802206085523,0.020465530491495278,-0.08107749843289513, ,0.010090970346703441,0.020403334941365207,-0.08131065670062106, ,0.0003475847563475153, ,0.002415707857853238,0.0007376318972805647,-0.004075826335286583,-0.002871313104102443,-0.022130049630978553,-0.0021931282589264735, ,0.004795008403099546, ,0.022315544682721875, ,3.404028910621101e-05, ,0.13588920765485446,-0.24506548229776637,0.09077270725000001,1.6037086877696423,0.1360899537663787,-1.3149985404936637, ,0.022546196616410257,0.004026032519076908,0.004386893836408704,0.0017104580751196848,0.0,-0.0008928101283924728, ,0.31200695037841797
0.009944459753791712,0.020495508301455724,-0.08125589300790077, ,0.010187400755568824,0.02043061997060177,-0.0815025481662217, ,0.00035223513872383445, ,0.002014843784109209,0.0003586171530652513,-0.0029462004613555826,0.0033881554095056238,-0.011883153646607993,0.005640606083264163, ,0.0035872411258971696, ,0.012356736520856804, ,3.4705108479659345e-05, ,0.13690860839425212,-0.2448569685101623,0.09096455817000001,1.6041280676566114,0.13663649976544046,-1.3154442121084493, ,0.01974551426518327,0.004133658162989867,0.00335979994094073,-0.004064729142165601,0.014420008276508647,-0.012416299940511046, ,0.36247992515563965
0.010052455545208868,0.020534366173684038,-0.08148107885856681, ,0.010284227076676151,0.020456871738529395,-0.08169341597182486, ,0.00037223325453964584, ,0.0018802211061502527,0.000781388402321774,-0.00449444435198825,-0.00638578017259731,0.014149472994449937,-0.00036592578834252577, ,0.004934149296121362, ,0.015523716455781022, ,3.547289409789924e-05, ,0.1379125636679013,-0.24462528652393556,0.09120437182,1.6039183777131267,0.13731968226426766,-1.3155929079262285, ,0.018654794880768776,0.004683557079796604,0.004776255328335833,0.007824844962613174,0.0318788836822218,0.002775227076910245, ,0.4119091033935547
0.010124510115820376,0.020552293664128474,-0.08160147946925733, ,0.010381442273736856,0.020482105490529978,-0.08188327915444814, ,0.0003877519517144291, ,0.0015042664390199371,0.0005534623640733766,-0.0033059814508345775,0.04641279862206055,0.0343020906245068,0.004331226463857019, ,0.003674051096714594, ,0.05771292140196083, ,3.668183362035546e-05, ,0.13865394602382686,-0.24445538640070263,0.09133400082000001,1.6043377576000957,0.13800286476309484,-1.3157416037440077, ,0.018274011468991103,0.003847415577628194,0.0035555382857142864,0.008024737365816511,0.05216077456175148,-0.04915891027149015, ,0.4560980796813965
0.010195882041913767,0.020580646965715637,-0.08176673514325389, ,0.010479039361007669,0.02050633638444122,-0.08207215658216435, ,0.0004230630983575921, ,0.0023814681006399953,0.0010609698116811075,-0.005507004300353728,-0.014785591329650637,-0.01948192670033118,-0.007082010264035403, ,0.006092958527659528, ,0.024457292856314754, ,3.8060646699023e-05, ,0.13927948738663903,-0.24428548627746968,0.09150899997,1.6043377576000957,0.13841277426239118,-1.3160758574550973, ,0.01913244789485298,0.004369491325656153,0.005843291093176817,0.006288787468082961,-0.001915539600879526,0.011306317370483277, ,0.4983999729156494
0.010333395638584587,0.020618619912167045,-0.08201547291546087, ,0.010577011403149929,0.020529579490762707,-0.08226006695464612, ,0.00035651519097168265, ,0.0016871076669521927,0.00012807729599542613,-0.0020943949292041722,0.011628986755593682,0.0023627364818484516,-0.004116267052476018, ,0.0026924387074016226, ,0.011866585718062799, ,3.8570744908625924e-05, ,0.14055373831088608,-0.24396113149675225,0.09177473942000001,1.6047571374870648,0.1388226837616875,-1.3164101111661863, ,0.018802643463140634,0.0052203994206248445,0.002274244934323244,0.008483079477595131,0.019698200644152918,-0.015648669869004705, ,0.5460169315338135
0.01042493220303991,0.02064515185677575,-0.08219032212359105, ,0.01067535151508728,0.020551849792859424,-0.08244702880370569, ,0.000370558263425342, ,0.002366057531198571,0.0011407778526192297,-0.006373669375556115,0.02090643324857977,0.012543096774966896,0.0006664385696614238, ,0.006893711892650424, ,0.02438048845624623, ,3.913431131004715e-05, ,0.14142640712567345,-0.24373717224339975,0.09196140518000001,1.6047571374870648,0.1395058662605147,-1.3168855219445281, ,0.02100419246535431,0.00595510644910767,0.006738075939086295,0.0067148092201204275,0.03289343766406362,-0.025896225414372018, ,0.5900919437408447
0.010521806286306931,0.02067611865792567,-0.08239207183702622, ,0.01077405286186377,0.020573162187166212,-0.08263306049383921, ,0.0003637360340465658, ,0.0023463321770795854,0.0005234738634806272,-0.00376963831557384,-0.004197282036190674,-0.012825401285190937,-0.0020426345227102893, ,0.004470958801106172, ,0.013494743193418202, ,3.9901797249160274e-05, ,0.1422681850089639,-0.24348232205855033,0.09217529303000001,1.605176517374034,0.1397791392600456,-1.3166999640512178, ,0.022514102386351313,0.00551863368924266,0.0040541642962585904,0.0036133658068701856,0.009090489690419232,-0.0007696141876429446, ,0.6278510093688965
0.010621952074108137,0.020697555877014447,-0.08257234598135751, ,0.010873108658502217,0.020593531483392307,-0.08281818022276759, ,0.0003665176375055104, ,0.0026421111640203615,0.0006667279869949053,-0.005056927408940129,-0.020913696489089046,-0.021516730654299942,-0.0059691037478772834, ,0.00574437049910373, ,0.030005872684866722, ,4.0605063835945666e-05, ,0.14322580388536776,-0.2431811354764556,0.09236714395000001,1.6053862073175185,0.14046232175887277,-1.3168486598689972, ,0.022740700109865987,0.007559687524624267,0.005356022703429724,0.00511097392861826,0.0,0.014139509924985215, ,0.6670360565185547
0.010700701775243555,0.02072129966006663,-0.08274093739322111, ,0.010972512169862692,0.020612972404726076,-0.08300240602197981, ,0.0003924048020827247, ,0.0026579921444778473,0.0006773209640806766,-0.005278943774715864,-0.01554246214292399,-0.0067943900978064894,-0.0019747928524473735, ,0.0059490279294268315, ,0.016962660822107355, ,4.14307841048854e-05, ,0.14397490897416754,-0.24294945349022884,0.09254603197000001,1.6053862073175185,0.14141877725723084,-1.3173835489744508, ,0.02425790939633711,0.00809027410386047,0.005594946090621708,0.0050951123579539605,0.016744836212636508,0.00824094800496962, ,0.7039589881896973
0.010796600239786784,0.020739099136354452,-0.08290114460289227, ,0.011072256710499858,0.02063149958803847,-0.08318575575727413, ,0.00041056992320719895, ,0.0027707662463258296,0.0005789567415886077,-0.004461155266232926,-0.0032016396559491614,-0.010124554977196677,-0.0065803708465950106, ,0.005283393115209883, ,0.010618714997862202, ,4.2304366963385406e-05, ,0.14489391418620026,-0.24266371237388254,0.09271714225000001,1.6058055872044876,0.14196532325629263,-1.3177475418490958, ,0.02667142820642799,0.007007373079971331,0.004797834795180723,0.009508390710338427,0.014700671468995214,-0.002400183874446289, ,0.7410390377044678
0.010895680651844574,0.020756256378073948,-0.08306404040578794, ,0.011172335644522295,0.020649127584088933,-0.08336824712930112, ,0.00042491916184707237, ,0.003087670631453925,0.0006495346614077584,-0.005151113065825151,-0.006952342988436663,-0.02566976687258864,-0.008627115440241145, ,0.0060406598167441735, ,0.026594585928253624, ,4.349251251940457e-05, ,0.14581291939823296,-0.24237024852466202,0.09289084511000001,1.6058055872044876,0.1422385962558235,-1.3178070201762073, ,0.027530299262683716,0.008132085200527083,0.0055040813821700075,0.007751965229157881,0.0,0.0, ,0.7732970714569092
0.010992837133375316,0.020781323399679388,-0.08325410773116511, ,0.011272742385449475,0.02066587085772798,-0.08354989767410562, ,0.00042328232886158784, ,0.003233539936232589,0.0009395522672795251,-0.0068750764523192905,0.005905063219635366,-0.0067000462608258725,-0.005972445269541525, ,0.007655404313777056, ,0.008930866484570404, ,4.457469421103897e-05, ,0.14671647914451724,-0.24208450740831572,0.09309306635,1.6062249670914566,0.14305841525441615,-1.3183121701181049, ,0.028243137368592495,0.009731448962732278,0.007276752635906807,0.009721032249247369,0.019800117379499806,-0.01415193602459998, ,0.8053500652313232
0.01107564197000098,0.020801579577790913,-0.08341251956755234, ,0.011373470396070947,0.020681743788103352,-0.08373072476366876, ,0.00045201430807093106, ,0.003225317954480528,0.0006431716030647969,-0.0058232175250143665,-0.013453292613547574,-0.007264676930794147,-0.005736067235834715, ,0.00668776554329754, ,0.015289427927772582, ,4.5757810511069084e-05, ,0.14747330696619124,-0.24184510268921475,0.09326158405000001,1.6062249670914566,0.1436049612534779,-1.3183494480321878, ,0.02999271224983274,0.010137249835445838,0.006195570408401401,0.009721032249247369,0.0210257364319068,0.004810136985241175, ,0.8368089199066162
0.011219022538729318,0.020826904282572264,-0.0836726406560521, ,0.011474513188303524,0.02069676066886273,-0.08391074560645037, ,0.0003727020252338211, ,0.003230441571557454,0.0005266457689044224,-0.005511757357341792,-0.012487368432762542,-0.011074332215898132,-0.0018569956193248737, ,0.006410349263446018, ,0.016690572168645564, ,4.6363706573830853e-05, ,0.1488170624863063,-0.2413585705181386,0.09353769382,1.606434657034941,0.14469805325160143,-1.3187507188209158, ,0.030126013193165324,0.010454673912257547,0.0058691273102431845,0.004951280389449609,0.018413966016483655,0.0028577707299086274, ,0.8700599670410156
0.011282342777725036,0.020836470054757996,-0.08378129770569903, ,0.011575864323050175,0.02071093570835935,-0.08408997724793103, ,0.000444068496392562, ,0.0030563857297877224,0.0003794866127556448,-0.005443567432747926,-0.001958371604997742,-0.005892331646492474,0.001582947401214545, ,0.006254432845061542, ,0.006209250099297553, ,4.7351124769959285e-05, ,0.1496974540339679,-0.2410419384702954,0.09370750781000001,1.6068540369219102,0.1449713262511323,-1.318891875888168, ,0.02931632423802001,0.010382689060211999,0.005430893801568361,0.011569039351806715,0.01631426394066096,-0.005148959174489993, ,0.9050741195678711
0.011383965019652317,0.02085280491644082,-0.08396034078567428, ,0.011677517410057769,0.020724283029855916,-0.08426843657115433, ,0.0004445378434674233, ,0.002992716872089831,0.0006265118938029885,-0.0059501221707397205,0.026134333826733382,0.021576305307468846,0.000713291544143395, ,0.006689755247861921, ,0.03389012168508883, ,4.855217806254672e-05, ,0.15036933179402542,-0.2407948110183202,0.09384361826000001,1.6068540369219102,0.1459277817494904,-1.3195901224739024, ,0.02974825754184037,0.010567332905541845,0.006325977569499604,0.010254193282775046,0.050362667896269045,-0.035093579583143075, ,0.9314920902252197
0.011482314449209387,0.020865730278068328,-0.08412257457023217, ,0.011779466107775183,0.0207368166717288,-0.08444614029726911, ,0.00045783469265752645, ,0.003541009782751238,0.0005464072469020023,-0.005822093408035682,-0.009041112299812524,-0.02192451433548892,-0.007877463008620215, ,0.006836233086495775, ,0.023715523055065572, ,4.976045785100061e-05, ,0.15125744607456124,-0.24046273350472855,0.09401602483,1.6068540369219102,0.14620105474902126,-1.3195679220608734, ,0.031748725847598115,0.011106812197334488,0.006207642837100547,0.008478012492828813,0.008041542694553242,-0.0006999376747222905, ,0.9589369297027588
0.01158804106555797,0.02088829279066647,-0.08432358941910237, ,0.011881704123211587,0.020748550587672828,-0.08462310498607184, ,0.00044212605621590643, ,0.0038872700925362434,0.0008061115342332548,-0.0067905162643584,-0.03840594121766526,-0.03068186006499767,-0.011182114529114688, ,0.007865862680880374, ,0.04915681889041059, ,5.081687187810937e-05, ,0.15223051041671354,-0.24012293325826267,0.09422991268000001,1.6072734168088794,0.14715751024737936,-1.3197760962057645, ,0.03304211057049818,0.010911848415092422,0.007240368872727274,0.00990362575615329,0.0,0.029079060215933414, ,0.9899511337280273
0.011692537940247482,0.020908193937819,-0.084524657681724, ,0.011984225211794394,0.020759498646905124,-0.0847993470365476, ,0.00042737102800242315, ,0.0037672592679023125,0.00039945509320752026,-0.005630978925406175,-0.0266055938806259,-0.011198378728696322,-0.005640076411368659, ,0.0067867319397080786, ,0.02886626588651142, ,5.1738609477108707e-05, ,0.15324218842323695,-0.23975996481317413,0.09444380053000001,1.6072734168088794,0.14866051174479922,-1.3203482632253007, ,0.03600035719213611,0.012285984147911804,0.0060427964795144165,0.00971416086496841,0.023175229393619774,0.0158997506289606, ,1.0159010887145996
0.011740468092838973,0.020911583965269175,-0.0845924496163704, ,0.012087023177227292,0.020769674634369878,-0.08497488268741409, ,0.0005352510985879304, ,0.003995976423968589,0.00021573788118659304,-0.005338412101808288,-0.045557677628452614,-0.03456881128552751,-0.010597450342768832, ,0.00667180741501318, ,0.0571883266082923, ,5.3448487918147746e-05, ,0.15369010692994198,-0.2395977874228154,0.09451639277000001,1.6072734168088794,0.14879714824456466,-1.3202146449085754, ,0.03666806088039829,0.013510384618233314,0.005721555862068966,0.008866317953464367,0.0,0.033525117550280314, ,1.0372891426086426
0.01184769579371782,0.020927612238589317,-0.0847860411279511, ,0.012190091871348513,0.020779092250942488,-0.08514972801766209, ,0.0005211155480842505, ,0.004396630015473488,0.0009711889779114336,-0.008910182069849592,-0.004052572888776573,-0.002001934348281801,-0.007045038075712432, ,0.00998323134268901, ,0.004520069910181505, ,5.501645524677866e-05, ,0.15472495313508805,-0.23920392804622997,0.09472250288,1.6079024866393328,0.15016351324221905,-1.3209204302448367, ,0.038280331407208865,0.014982150546016858,0.009436499715639812,0.013445190779080376,0.034087875464786754,-0.00873188891379642, ,1.058717966079712
0.011936946942198245,0.02094779507548422,-0.08497247453399655, ,0.01229342519398888,0.020787765113634067,-0.08532389894709856, ,0.000525533491619292, ,0.004609964104267155,0.0011620198873530105,-0.009486499345579562,0.002494006767030343,0.0015277142624522066,-0.004218609148825091, ,0.010611113471022587, ,0.0029247057615864806, ,5.654379359993955e-05, ,0.15548950368963627,-0.23889501873126098,0.09491953896000001,1.6079024866393328,0.15084669574104626,-1.3211508048027567, ,0.040142530270080704,0.014430800115339232,0.010075149601518027,0.012040426130768842,0.03998455055522382,-0.014937848726908029, ,1.0797820091247559
0.012029903900487275,0.02096652894564876,-0.08515850713303429, ,0.012397017092829579,0.020795706755795566,-0.08549741123688875, ,0.0005280230185772186, ,0.0048033244778697025,0.000680093842478901,-0.008671459501433958,-0.004043352188051679,-0.0015601231108448286,-0.0028440776326373214, ,0.00993622984633957, ,0.004333893400594344, ,5.80234398949271e-05, ,0.1563081133743041,-0.23857066395054355,0.09511657504000001,1.6079024866393328,0.1516665147396389,-1.321655954744654, ,0.043751471442356284,0.017554003247959818,0.009207405502890174,0.010314880110133916,0.04093990616893051,-0.011741181886332679, ,1.101172924041748
0.012128971048220819,0.02097708742525428,-0.08532926969554085, ,0.012500861563260707,0.020802930627322327,-0.08567028049009748, ,0.0005337803925273864, ,0.004929232726986941,0.0003738370187738411,-0.007917530035391621,0.0028509906279204937,-0.005317284848495561,0.006649868586090823, ,0.009334043671139174, ,0.006033376716818728, ,5.976116971542278e-05, ,0.157234841319211,-0.23819225003970657,0.09529805564,1.6081121765828172,0.15262297023799698,-1.3221908438501073, ,0.046518108607093524,0.018758043399579122,0.008432404192694549,0.0005346730901588739,0.04229670027317521,-0.02129943824466548, ,1.1169581413269043
0.012179592824423777,0.020980878982530995,-0.0854081808061003, ,0.012604952648238875,0.02080945009485825,-0.0858425221522322, ,0.000631641708727663, ,0.005138043061862823,0.00040552005904815594,-0.008447089586729323,0.0017859935115768757,-0.008190202044857155,-0.00584949472398874, ,0.009895314826223472, ,0.008382668987401224, ,6.191525638009609e-05, ,0.15771365075741295,-0.23799918171785095,0.09538231449000001,1.6085315564697864,0.1530328797372933,-1.3222800613407748, ,0.04733014541569615,0.020016228972467996,0.008973978321126761,0.012112136285696382,0.03736946819813805,-0.019695519667131987, ,1.1329660415649414
0.012283496994169718,0.02099372091561247,-0.08560397400381921, ,0.012709284438145566,0.020815278442000488,-0.08601415151178447, ,0.0006175615369150221, ,0.005338746032263464,0.0007469778948053417,-0.01025738491129418,0.03767832540850698,0.028532360124675343,0.00541790311381276, ,0.011587671482691518, ,0.047262582095401, ,6.394256045415587e-05, ,0.15868671509956522,-0.2375821541426428,0.09558972089000001,1.6085315564697864,0.1543992447349477,-1.3228224891967553, ,0.05039667634544386,0.021139884508458627,0.010880335737704918,0.010406263875604676,0.07874853758615785,-0.05694752921683463, ,1.1488909721374512
0.012403396535780827,0.021007715270782677,-0.08582555361962335, ,0.012813851070644935,0.020820428869503194,-0.0861851837007724, ,0.0005769600649629061, ,0.006161166864800343,0.0008045010123616464,-0.012281759117491096,0.008425128610713203,0.013844229189995123,0.01021140100959327, ,0.01376404032378866, ,0.016206331926841667, ,6.572558074860235e-05, ,0.15977562043483087,-0.2371033447044409,0.09582434938,1.6087412464132707,0.15562897323283667,-1.323090141668758, ,0.054885449137345735,0.02584339367060751,0.012950253268292683,0.0024469924342691656,0.07016789052080515,-0.03355332665596547, ,1.1643850803375244
0.012467693814945452,0.021017071031572514,-0.08594627237738975, ,0.012918646730542273,0.020824914495482683,-0.08635563369528271, ,0.0006386386732999943, ,0.006769775458176164,0.001105908770035844,-0.012400148826083411,0.021703327075083947,0.01933175597894453,0.01389413885430079, ,0.014170976849560663, ,0.029064598778882705, ,6.805212896788119e-05, ,0.16037027086614616,-0.23686393998533994,0.09595268209,1.6087412464132707,0.1564487922314293,-1.323840327831077, ,0.06284565666123892,0.023083663721350227,0.013240907331670824,0.0024469924342691656,0.08400151511112262,-0.044110607496775214, ,1.1751320362091064
0.012538833079241134,0.021028590630128633,-0.0860829478271935, ,0.013023665649641449,0.020828748355620683,-0.08652551631601241, ,0.0006861970732209059, ,0.007321735726564937,0.001257733146854288,-0.014909109886068743,0.014434201922809437,0.020483579606008676,0.0016155130719469235, ,0.016657468724666006, ,0.025058381471646674, ,7.055255085554095e-05, ,0.1610112576947068,-0.2366013670676163,0.09609786657000001,1.6089509363567556,0.15726861123002195,-1.3242637990328339, ,0.06424979117025781,0.0282683769909058,0.015771100514851488,0.014280417644928727,0.08377583224662558,-0.04010293774823188, ,1.1856849193572998
0.012617615067155133,0.021042504759939705,-0.08624097050738633, ,0.013128902106603273,0.02083194340336978,-0.0866948462288118, ,0.0007153696192093282, ,0.008433975182450523,0.0015560228155386937,-0.016498660752767763,-0.009965576086411451,-0.007449975252418144,-0.00194522490685007, ,0.018594594671989696, ,0.012442411965166248, ,7.31393279613889e-05, ,0.16168313545476434,-0.23630790321839576,0.09626508798000001,1.6091606263002398,0.15795179372884915,-1.324657531071035, ,0.071512390021455,0.029370764951553937,0.017504188483516484,0.012625673309412236,0.0628996048679371,-0.017033926865292356, ,1.1963491439819336
0.01270336161947234,0.021060264369542607,-0.08641432008666824, ,0.013234350426803487,0.020834512510156795,-0.08686363794522495, ,0.0007312999067038688, ,0.008659753126066972,0.001691434460882726,-0.017615657219509095,0.038793588922439774,0.00942229144476189,0.005195989443385658, ,0.01970186930255937, ,0.039921428096776734, ,7.575102997380449e-05, ,0.16241679507781567,-0.23601443936917524,0.09644916116,1.6093703162437245,0.1587716127274418,-1.3249993235326512, ,0.07379233402680464,0.030790701349276698,0.01867387048065651,0.009884115129773073,0.08327597274080867,-0.06760236090222063, ,1.2068791389465332
0.01274244725551197,0.021067512604359635,-0.08649268074450102, ,0.013340004982190876,0.020836468465588058,-0.08703190582303348, ,0.0008373889873247099, ,0.00856759580262845,0.0016271784618453315,-0.01731985705469972,0.043162020233416205,0.015893938099329666,0.006786004583098785, ,0.01939146348213929, ,0.045995387816414414, ,7.878592788255272e-05, ,0.16274114985853308,-0.2358754301774392,0.09653212372000002,1.6093703162437245,0.15904488572697267,-1.3251404805999034, ,0.07384975996768155,0.03066137045507941,0.018372331626297582,0.009884115129773073,0.08999170561131754,-0.07184153688585569, ,1.2180211544036865
0.012879438039947746,0.021087415598155287,-0.08674989370639521, ,0.013445860191145242,0.02083782397765311,-0.0871996640667977, ,0.0007651296671079261, ,0.008953585195142074,0.0009472301957676366,-0.016160902566816425,0.0207123520448897,0.011220025224568018,0.006357863343344114, ,0.018499694718145353, ,0.023556090314389582, ,8.14506551252844e-05, ,0.16396134165266057,-0.23537345254061462,0.09680564091,1.6093703162437245,0.16054788722439253,-1.3262843988004234, ,0.08001428461928396,0.035004404853733226,0.017164667586206897,0.009884115129773073,0.09150452212507877,-0.05367762989479587, ,1.22896409034729
0.012974457757461932,0.021095349168548664,-0.08691194464805656, ,0.013551910518334997,0.020838591672928793,-0.0873669267283986, ,0.0007787071311021165, ,0.009672553563929234,0.0007092364377976906,-0.015502533968413052,-0.012391520648161732,-0.015905373876246735,3.522946372705593e-05, ,0.01828633009145303, ,0.020162584326531625, ,8.449544322998671e-05, ,0.16481084226882525,-0.23500276136265183,0.09697804748000001,1.609580006187209,0.16136770622298516,-1.3267078700021804, ,0.08682245339292843,0.03598670517954902,0.016558016133056134,0.011074168221334064,0.07031864954796928,-0.021335354343506484, ,1.2343449592590332
0.012974457757461932,0.021095349168548664,-0.08691194464805656, ,0.013658150474576036,0.020838784096784767,-0.08753370770757997, ,0.0009590884576888583, ,0.009672553563929234,0.0007092364377976906,-0.015502533968413052,-0.012391520648161732,-0.015905373876246735,3.522946372705593e-05, ,0.01828633009145303, ,0.020162584326531625, ,8.829802155372094e-05, ,0.16481084226882525,-0.23500276136265183,0.09697804748000001,1.609580006187209,0.16136770622298516,-1.3267078700021804, ,0.08682245339292843,0.03598670517954902,0.016558016133056134,0.011074168221334064,0.07031864954796928,-0.021335354343506484, ,1.239635944366455
0.013075486429631002,0.021102623297089715,-0.08707838119337823, ,0.013764574616688624,0.020838413713586166,-0.08770002075249109, ,0.0009649274454649482, ,0.01081316106478899,0.0009485709640648292,-0.018867799653527882,0.030216269178178046,0.02080449814125241,0.00582778438109219, ,0.021767363249888635, ,0.03668579663589797, ,0.000494731916344669, ,0.16572984748085798,-0.23460890198606638,0.09715563921,1.6099993860741781,0.16232416172134326,-1.327161080367493, ,0.0978318985138874,0.04251655087745106,0.020086773669609086,0.015587356804961447,0.11834693751564082,-0.06960965964894796, ,1.2450180053710938
0.013075486429631002,0.021102623297089715,-0.08707838119337823, ,0.01387117754735647,0.02083749290689938,-0.08786587946022753, ,0.0011504659920746638, ,0.01081316106478899,0.0009485709640648292,-0.018867799653527882,0.030216269178178046,0.02080449814125241,0.00582778438109219, ,0.021767363249888635, ,0.03668579663589797, ,0.0005096349635203507, ,0.16572984748085798,-0.23460890198606638,0.09715563921,1.6099993860741781,0.16232416172134326,-1.327161080367493, ,0.0978318985138874,0.04251655087745106,0.020086773669609086,0.015587356804961447,0.11834693751564082,-0.06960965964894796, ,1.250762939453125
0.01318783321944583,0.021116725005646875,-0.08729452280867535, ,0.013977953914984052,0.020836033979695766,-0.08803129727737424, ,0.0011162055291449808, ,0.01144509409507243,0.0018479617049168245,-0.023300627612600718,0.09436400510706593,0.07042933228242791,0.016329750945405418, ,0.0260254565464084, ,0.1177490952724118, ,0.0005231143094231202, ,0.16673380275450717,-0.23416098347936135,0.09738508254000001,1.6102090760176624,0.16382716321876312,-1.3280599623475915, ,0.10160272115467964,0.04436509656777502,0.02473417937888199,0.017430995547779486,0.1728310868103622,-0.1352348967568387, ,1.2561399936676025
0.01318783321944583,0.021116725005646875,-0.08729452280867535, ,0.01408489841355491,0.020834049154556042,-0.08819628750054713, ,0.0013030008283874935, ,0.01144509409507243,0.0018479617049168245,-0.023300627612600718,0.09436400510706593,0.07042933228242791,0.016329750945405418, ,0.0260254565464084, ,0.1177490952724118, ,0.0005400683641832153, ,0.16673380275450717,-0.23416098347936135,0.09738508254000001,1.6102090760176624,0.16382716321876312,-1.3280599623475915, ,0.10160272115467964,0.04436509656777502,0.02473417937888199,0.017430995547779486,0.1728310868103622,-0.1352348967568387, ,1.2614679336547852
0.013314715481943401,0.02113946482246196,-0.0875518942462798, ,0.01419200578248913,0.02083155057387422,-0.08836086327693508, ,0.0012324286382887763, ,0.014125012431721937,0.0023896023707047397,-0.02815760534751051,0.06820728036093658,0.059385541378629725,-0.0035557034671070274, ,0.03159235531885094, ,0.09043703842370919, ,0.0005547994338450358, ,0.16783043082264704,-0.2336976195069079,0.09765859973,1.6104187659611469,0.1654668012159484,-1.329151940971527, ,0.1221324859182378,0.0519414020571816,0.029941375037593993,0.03788685869908387,0.17769514377382778,-0.11319101969752056, ,1.2666919231414795
0.013314715481943401,0.02113946482246196,-0.0875518942462798, ,0.014299270806501937,0.020828550300062584,-0.08852503760484184, ,0.0014188111303724766, ,0.014125012431721937,0.0023896023707047397,-0.02815760534751051,0.06820728036093658,0.059385541378629725,-0.0035557034671070274, ,0.03159235531885094, ,0.09043703842370919, ,0.0005727996775226908, ,0.16783043082264704,-0.2336976195069079,0.09765859973,1.6104187659611469,0.1654668012159484,-1.329151940971527, ,0.1221324859182378,0.0519414020571816,0.029941375037593993,0.03788685869908387,0.17769514377382778,-0.11319101969752056, ,1.2719600200653076
0.013461432804507406,0.0211697627966418,-0.0878712844654873, ,0.014406688315461576,0.02082506031575597,-0.08868882333422833, ,0.0012964172103225252, ,0.015847493249563197,0.003993918658687611,-0.03712739190073534,0.08275818569339433,0.07215419631322043,0.00660364851514624, ,0.040565227201359945, ,0.10979560464289433, ,0.0005875673822737077, ,0.1690506226167745,-0.23315702820571219,0.09799693142000002,1.6104187659611469,0.16737971221266457,-1.3303850766627145, ,0.1251938542987741,0.057548175596404356,0.03923352591133005,0.030410057468295587,0.19570058516783562,-0.13446877239079283, ,1.2772431373596191
0.013461432804507406,0.0211697627966418,-0.0878712844654873, ,0.014514253184246989,0.020821092524015674,-0.08885223316725449, ,0.001480628942884382, ,0.015847493249563197,0.003993918658687611,-0.03712739190073534,0.08275818569339433,0.07215419631322043,0.00660364851514624, ,0.040565227201359945, ,0.10979560464289433, ,0.0006054286134859212, ,0.1690506226167745,-0.23315702820571219,0.09799693142000002,1.6104187659611469,0.16737971221266457,-1.3303850766627145, ,0.1251938542987741,0.057548175596404356,0.03923352591133005,0.030410057468295587,0.19570058516783562,-0.13446877239079283, ,1.282621145248413
0.013461432804507406,0.0211697627966418,-0.0878712844654873, ,0.014621960332605908,0.020816658748533917,-0.089015279658821, ,0.0016674026552201523, ,0.015847493249563197,0.003993918658687611,-0.03712739190073534,0.08275818569339433,0.07215419631322043,0.00660364851514624, ,0.040565227201359945, ,0.10979560464289433, ,0.0006262516339120826, ,0.1690506226167745,-0.23315702820571219,0.09799693142000002,1.6104187659611469,0.16737971221266457,-1.3303850766627145, ,0.1251938542987741,0.057548175596404356,0.03923352591133005,0.030410057468295587,0.19570058516783562,-0.13446877239079283, ,1.2880539894104004
0.01370026814947915,0.02122309814472144,-0.0884006413015683, ,0.014729804725012622,0.020811770733838143,-0.0891779752171115, ,0.001354025042441561, ,0.01777891988838608,0.003329727574990556,-0.03643258512612513,0.01827495089394182,0.009474195639346584,0.00355300985707231, ,0.04067567254629795, ,0.02058324623972991, ,0.0006402472763838033, ,0.17091952397233684,-0.23229980485667326,0.0985569287,1.610838145848116,0.16970253270867705,-1.3317074298445697, ,0.14163722620667282,0.06263824525311602,0.03866216388349515,0.0215048740540097,0.15027743405206886,-0.07639315270885089, ,1.2935340404510498
0.013888268863389388,0.021252539753916548,-0.08876519116298964, ,0.014837781370526736,0.020806440145495958,-0.0893403321041348, ,0.0011963970762353942, ,0.0176632881803346,0.001755722910667519,-0.03203693008349782,0.007441243126933921,-0.010793351690229576,-0.05450646975434874, ,0.036625663153798574, ,0.013108577019787869, ,0.0006507406688338333, ,0.17244090234855908,-0.2316202043637415,0.09894451941000001,1.6116769056220543,0.17120553420609688,-1.3323612756042462, ,0.1444397892822995,0.06866638318268507,0.03403592205128206,0.07350358068989367,0.12008302022580859,-0.06270506071981269, ,1.298835039138794
0.013888268863389388,0.021252539753916548,-0.08876519116298964, ,0.014945885322649713,0.02080067857031812,-0.08950236243626658, ,0.0013660719564818177, ,0.0176632881803346,0.001755722910667519,-0.03203693008349782,0.007441243126933921,-0.010793351690229576,-0.05450646975434874, ,0.036625663153798574, ,0.013108577019787869, ,0.0006639875445310183, ,0.17244090234855908,-0.2316202043637415,0.09894451941000001,1.6116769056220543,0.17120553420609688,-1.3323612756042462, ,0.1444397892822995,0.06866638318268507,0.03403592205128206,0.07350358068989367,0.12008302022580859,-0.06270506071981269, ,1.3041601181030273
0.014077680082306941,0.021259462177743063,-0.08909399694866774, ,0.01505411167918465,0.020794497516564748,-0.08966407818479105, ,0.0012225397397654216, ,0.01946289288270729,0.0005564002068885519,-0.03260285247460001,0.03675087128140773,0.027616018534722606,-0.016158191121850816, ,0.03797446207696029, ,0.04596992694342363, ,0.0006741430389898257, ,0.17404723078639778,-0.23080931741194793,0.09929322142000001,1.6116769056220543,0.17284517220328216,-1.3334532542281816, ,0.16885576789763485,0.08266284107880731,0.03470329307189543,0.04771721515921859,0.1907526547225489,-0.10999381046051314, ,1.3095059394836426
0.014077680082306941,0.021259462177743063,-0.08909399694866774, ,0.01516245558209233,0.020787908414147557,-0.08982549117644337, ,0.001390749669122661, ,0.01946289288270729,0.0005564002068885519,-0.03260285247460001,0.03675087128140773,0.027616018534722606,-0.016158191121850816, ,0.03797446207696029, ,0.04596992694342363, ,0.0006869395859564834, ,0.17404723078639778,-0.23080931741194793,0.09929322142000001,1.6116769056220543,0.17284517220328216,-1.3334532542281816, ,0.16885576789763485,0.08266284107880731,0.03470329307189543,0.04771721515921859,0.1907526547225489,-0.10999381046051314, ,1.3147730827331543
0.014275075119149017,0.021263562034469014,-0.08940822107866025, ,0.015270912217350217,0.020780922614835506,-0.08998661309395171, ,0.0012486671529638603, ,0.02004146305332896,-0.0002551814189810427,-0.029110033958160208,0.03099689009796547,-0.01597602343385282,-0.009068028984966574, ,0.035342883808763874, ,0.034871472829041905, ,0.0006967944555531041, ,0.17576940021734985,-0.23000615319302858,0.09962896053,1.6116769056220543,0.1746214467002329,-1.3346566507558135, ,0.17737746085695474,0.08201982848614588,0.031232963764705888,0.0323202996292363,0.1582854830592365,-0.10618653329976563, ,1.3201310634613037
0.014275075119149017,0.021263562034469014,-0.08940822107866025, ,0.015379476814810883,0.020773551392459302,-0.09014745547657872, ,0.0014164325009436399, ,0.02004146305332896,-0.0002551814189810427,-0.029110033958160208,0.03099689009796547,-0.01597602343385282,-0.009068028984966574, ,0.035342883808763874, ,0.034871472829041905, ,0.0007092020080598376, ,0.17576940021734985,-0.23000615319302858,0.09962896053,1.6116769056220543,0.1746214467002329,-1.3346566507558135, ,0.17737746085695474,0.08201982848614588,0.031232963764705888,0.0323202996292363,0.1582854830592365,-0.10618653329976563, ,1.3256781101226807
0.014411074525441239,0.021258807180382353,-0.08959780856729913, ,0.015488144648058661,0.02076580594311476,-0.09030802972066376, ,0.0013811387894303313, ,0.020920956145231102,-0.001098417332675577,-0.027793251794399846,-0.004805914705343507,-0.057737867412872575,-0.01229932701450486, ,0.03480456538982085, ,0.05793739349724237, ,0.0007205907670661171, ,0.17697414654572888,-0.22944239369321018,0.09983247806000001,1.6116769056220543,0.17557790219859098,-1.335109861121126, ,0.18534558898138823,0.08746261894789933,0.029885199849906192,0.026590606111307424,0.12489324320732821,-0.07670444679232132, ,1.331531047821045
0.014411074525441239,0.021258807180382353,-0.08959780856729913, ,0.015596911034268614,0.020757697385367972,-0.09046834708016477, ,0.001554077396627844, ,0.020920956145231102,-0.001098417332675577,-0.027793251794399846,-0.004805914705343507,-0.057737867412872575,-0.01229932701450486, ,0.03480456538982085, ,0.05793739349724237, ,0.0007344822108921458, ,0.17697414654572888,-0.22944239369321018,0.09983247806000001,1.6116769056220543,0.17557790219859098,-1.335109861121126, ,0.18534558898138823,0.08746261894789933,0.029885199849906192,0.026590606111307424,0.12489324320732821,-0.07670444679232132, ,1.3370110988616943
0.014701515907274356,0.02123582977354645,-0.08997054965699679, ,0.015705771334063773,0.020749236760458895,-0.09062841866720014, ,0.001295412427456046, ,0.0217297313732834,-0.0018944599396561496,-0.028523557492732856,-0.03435097423111488,-0.07383854799269535,-0.000384623110937979, ,0.035907708588257974, ,0.08143771681217893, ,0.0007436777882128655, ,0.1795380938599714,-0.22818358823471158,0.10023303167000001,1.6120962855090233,0.17708090369601082,-1.3359270643610839, ,0.19017423158010174,0.09683361383517426,0.030573534587332057,0.010298453690714752,0.11712411252571571,-0.05910411547382936, ,1.3423781394958496
0.014701515907274356,0.02123582977354645,-0.08997054965699679, ,0.015814720951373644,0.02074043503250639,-0.09078825545259117, ,0.0014674073012653603, ,0.0217297313732834,-0.0018944599396561496,-0.028523557492732856,-0.03435097423111488,-0.07383854799269535,-0.000384623110937979, ,0.035907708588257974, ,0.08143771681217893, ,0.0007553508448750024, ,0.1795380938599714,-0.22818358823471158,0.10023303167000001,1.6120962855090233,0.17708090369601082,-1.3359270643610839, ,0.19017423158010174,0.09683361383517426,0.030573534587332057,0.010298453690714752,0.11712411252571571,-0.05910411547382936, ,1.347661018371582
0.014924957118354138,0.02121553728247478,-0.09026401012492867, ,0.015923755333291535,0.020731303088711846,-0.09094786826640291, ,0.0013037417636295827, ,0.022160915350326958,-0.0022579168551165258,-0.0287356213661939,-0.016192654814121386,-0.025610770034372364,-0.04447060634710968, ,0.03635849684723278, ,0.030300066313317987, ,0.0007640554626330117, ,0.18151511347577287,-0.22717191022818817,0.10054803014000001,1.612725355339477,0.17858390519343065,-1.3367442676010417, ,0.19729093879099954,0.10182075274514032,0.030869789767441865,0.06558832429417125,0.16120101843434845,-0.07232181085449853, ,1.3529000282287598
0.014924957118354138,0.02121553728247478,-0.09026401012492867, ,0.01603286996993335,0.020721851739564496,-0.091107267798487, ,0.001477254144007732, ,0.022160915350326958,-0.0022579168551165258,-0.0287356213661939,-0.016192654814121386,-0.025610770034372364,-0.04447060634710968, ,0.03635849684723278, ,0.030300066313317987, ,0.0007751991920294917, ,0.18151511347577287,-0.22717191022818817,0.10054803014000001,1.612725355339477,0.17858390519343065,-1.3367442676010417, ,0.19729093879099954,0.10182075274514032,0.030869789767441865,0.06558832429417125,0.16120101843434845,-0.07232181085449853, ,1.358206033706665
0.015143802205844378,0.021190883787893095,-0.09054128044596647, ,0.01614206039429464,0.020712091719044638,-0.09126646459902353, ,0.0013235004011503972, ,0.023151251142423026,-0.002307006632545407,-0.02933571128364033,-0.009144725686726968,-0.05304903277703332,-0.049961710205295794, ,0.03744177700883406, ,0.05383125635072276, ,0.0007836345952467363, ,0.18346124216007745,-0.22616795495453898,0.10084617684000001,1.6129350452829614,0.1800869066908505,-1.3375614708409995, ,0.20320544230935927,0.10348630486201829,0.03160478476190477,0.06542914891985481,0.13916684740753013,-0.08089643191329057, ,1.3636870384216309
0.015386749141285532,0.02116012366293078,-0.09084129516956051, ,0.0162513221821088,0.02070203368482853,-0.09142546907906264, ,0.0011395578649191615, ,0.02352549871892951,-0.003009910903198229,-0.028789172752895997,-0.07481416515107639,-0.08675749537510526,-0.03385166538346957, ,0.0373004707934851, ,0.11456003899560066, ,0.000789027372059955, ,0.18559271643336342,-0.22504815868777645,0.10116895305000001,1.6129350452829614,0.18145327168850492,-1.338267256177261, ,0.20407944421176513,0.10845364749539518,0.030989905680933853,0.04074858792969211,0.11113013070482966,-0.024418269471408172, ,1.369555950164795
0.015386749141285532,0.02116012366293078,-0.09084129516956051, ,0.016360650951705046,0.020691688218492568,-0.09158429151106619, ,0.0013114724798619515, ,0.02352549871892951,-0.003009910903198229,-0.028789172752895997,-0.07481416515107639,-0.08675749537510526,-0.03385166538346957, ,0.0373004707934851, ,0.11456003899560066, ,0.0007968250602361041, ,0.18559271643336342,-0.22504815868777645,0.10116895305000001,1.6129350452829614,0.18145327168850492,-1.338267256177261, ,0.20407944421176513,0.10845364749539518,0.030989905680933853,0.04074858792969211,0.11113013070482966,-0.024418269471408172, ,1.3748369216918945
0.01562058710427288,0.02112659541001951,-0.09112004812193657, ,0.016470042363866857,0.020681065825718232,-0.09174294202945035, ,0.001143707859795207, ,0.02409991777795198,-0.0034335631618493553,-0.02885395388075231,-0.0009344070869115572,-0.051811670439143996,-0.01405899596552498, ,0.03775110657243091, ,0.051819902648035265, ,0.0008019262778766791, ,0.18765468611078137,-0.22395925335251077,0.10146969233000001,1.6129350452829614,0.18281963668615933,-1.3391363989938037, ,0.21325155406397928,0.11257051193175657,0.031171842504892373,0.030215098992369602,0.15883498182228567,-0.10416533145931725, ,1.380152940750122
0.01562058710427288,0.02112659541001951,-0.09112004812193657, ,0.01657949212168849,0.020670176936494946,-0.09190143063112731, ,0.0013184746038769745, ,0.02409991777795198,-0.0034335631618493553,-0.02885395388075231,-0.0009344070869115572,-0.051811670439143996,-0.01405899596552498, ,0.03775110657243091, ,0.051819902648035265, ,0.0008094124854998719, ,0.18765468611078137,-0.22395925335251077,0.10146969233000001,1.6129350452829614,0.18281963668615933,-1.3391363989938037, ,0.21325155406397928,0.11257051193175657,0.031171842504892373,0.030215098992369602,0.15883498182228567,-0.10416533145931725, ,1.3854100704193115
0.01586076410205115,0.02109604036506641,-0.09141497014909988, ,0.016688995970434477,0.020659031905326076,-0.09205976717604665, ,0.0011369730109592508, ,0.0241841686571332,-0.002965363910477385,-0.029603890218871488,-0.030511604173658922,-0.0628674425527094,0.01365729052879451, ,0.03834133165200735, ,0.06988025890625153, ,0.000814091921577863, ,0.18976299218544465,-0.2228626252843709,0.10178857967,1.613144735226446,0.1844592746833446,-1.3401466988775983, ,0.21041450456423677,0.10832984196172464,0.03204992257545272,0.0,0.15142837088324707,-0.07588549582748746, ,1.3907380104064941
0.01586076410205115,0.02109604036506641,-0.09141497014909988, ,0.0167985496973968,0.02064764101143247,-0.09221796138773794, ,0.0013135062742547546, ,0.0241841686571332,-0.002965363910477385,-0.029603890218871488,-0.030511604173658922,-0.0628674425527094,0.01365729052879451, ,0.03834133165200735, ,0.06988025890625153, ,0.0008211259265451433, ,0.18976299218544465,-0.2228626252843709,0.10178857967,1.613144735226446,0.1844592746833446,-1.3401466988775983, ,0.21041450456423677,0.10832984196172464,0.03204992257545272,0.0,0.15142837088324707,-0.07588549582748746, ,1.396043062210083
0.015953623205814223,0.0210845217122106,-0.09152877651729538, ,0.016908149131752395,0.02063601445895637,-0.09237602285385221, ,0.0013528136805631267, ,0.02428654418544453,-0.0034145947398772124,-0.02953860243123801,-0.028861322273349338,-0.06499366378536008,0.012347544436460649, ,0.0383930295665748, ,0.07111349919437436, ,0.000828510478684282, ,0.190566156404364,-0.22244559770916278,0.10191172722000001,1.613144735226446,0.18500582068240637,-1.3403473342719625, ,0.2108820923521573,0.11257051193175657,0.03192146597194389,0.0,0.14970860006287592,-0.08169862318354221, ,1.4014101028442383
0.015953623205814223,0.0210845217122106,-0.09152877651729538, ,0.017017790144421084,0.020624162377165828,-0.09253396102670347, ,0.001534528555791892, ,0.02428654418544453,-0.0034145947398772124,-0.02953860243123801,-0.028861322273349338,-0.06499366378536008,0.012347544436460649, ,0.0383930295665748, ,0.07111349919437436, ,0.0008381819591926054, ,0.190566156404364,-0.22244559770916278,0.10191172722000001,1.613144735226446,0.18500582068240637,-1.3403473342719625, ,0.2108820923521573,0.11257051193175657,0.03192146597194389,0.0,0.14970860006287592,-0.08169862318354221, ,1.4068360328674316
0.01634838838338725,0.021027724094698764,-0.09201079761530948, ,0.017127468647925442,0.020612094820660967,-0.09269178522381227, ,0.0011151044233453852, ,0.022898483416240786,-0.0032856915214960368,-0.027629703306543095,-0.045103746464077346,-0.05139903041540938,-0.042884777736366356, ,0.03603521633549442, ,0.06838268911568422, ,0.0008419241546541294, ,0.19397188160189702,-0.22059214181934889,0.10243283580000001,1.613983495000384,0.1874652776781843,-1.3416177478772329, ,0.19647399908586083,0.10626757173400983,0.029941375037593993,0.05523571241880869,0.13644923876606696,-0.04875091496546602, ,1.4121670722961426
0.01634838838338725,0.021027724094698764,-0.09201079761530948, ,0.0172371805962456,0.02059982176957512,-0.09284950462844528, ,0.0012947901186551609, ,0.022898483416240786,-0.0032856915214960368,-0.027629703306543095,-0.045103746464077346,-0.05139903041540938,-0.042884777736366356, ,0.03603521633549442, ,0.06838268911568422, ,0.0008479623675074766, ,0.19397188160189702,-0.22059214181934889,0.10243283580000001,1.613983495000384,0.1874652776781843,-1.3416177478772329, ,0.19647399908586083,0.10626757173400983,0.029941375037593993,0.05523571241880869,0.13644923876606696,-0.04875091496546602, ,1.4174730777740479
0.016572645802293905,0.020994234341311275,-0.09228540332457365, ,0.01734692198467926,0.020587353129781452,-0.09300712829015874, ,0.0011339942031836033, ,0.023275225048135735,-0.0036402949353194604,-0.028369067021483434,-0.010046768251413601,-0.04935404918450842,-0.03581130369358037, ,0.036875355075265334, ,0.05036607338568834, ,0.0008517259442926889, ,0.19587167388895624,-0.21954185014845437,0.10272968621,1.613983495000384,0.18869500617607327,-1.342212115309798, ,0.19811470053960498,0.11099057492218804,0.030691351676300584,0.04794490872542805,0.14190252667670547,-0.08971422294263398, ,1.4227299690246582
0.016572645802293905,0.020994234341311275,-0.09228540332457365, ,0.01745668884969875,0.020574698733096385,-0.09316466512533962, ,0.001315539262246211, ,0.023275225048135735,-0.0036402949353194604,-0.028369067021483434,-0.010046768251413601,-0.04935404918450842,-0.03581130369358037, ,0.036875355075265334, ,0.05036607338568834, ,0.0008577494938765009, ,0.19587167388895624,-0.21954185014845437,0.10272968621,1.613983495000384,0.18869500617607327,-1.342212115309798, ,0.19811470053960498,0.11099057492218804,0.030691351676300584,0.04794490872542805,0.14190252667670547,-0.08971422294263398, ,1.4279999732971191
0.016713823795174058,0.020972905191410186,-0.09246298706562209, ,0.017566477268809617,0.020561868337484447,-0.09332212391774838, ,0.001278313487400269, ,0.023623001371374054,-0.0033731643507877466,-0.030553658830920906,-0.011420548973941255,-0.02551580639830534,-0.022272973138491952, ,0.03876790553390364, ,0.027954582601012544, ,0.0008631413399473183, ,0.19706869748446104,-0.21886997238839684,0.10292153713,1.613983495000384,0.18965146167443137,-1.3426653256751107, ,0.19894537014354458,0.11283821826215314,0.03297890583850932,0.03950701042827484,0.16908095533993855,-0.09170603806691557, ,1.4333889484405518
0.016713823795174058,0.020972905191410186,-0.09246298706562209, ,0.0176762833604079,0.020548871627262284,-0.09347951331905974, ,0.0014626887919725346, ,0.023623001371374054,-0.0033731643507877466,-0.030553658830920906,-0.011420548973941255,-0.02551580639830534,-0.022272973138491952, ,0.03876790553390364, ,0.027954582601012544, ,0.000870730548200802, ,0.19706869748446104,-0.21886997238839684,0.10292153713,1.613983495000384,0.18965146167443137,-1.3426653256751107, ,0.19894537014354458,0.11283821826215314,0.03297890583850932,0.03950701042827484,0.16908095533993855,-0.09170603806691557, ,1.4388179779052734
0.016713823795174058,0.020972905191410186,-0.09246298706562209, ,0.017786103283637392,0.020535718213302107,-0.09363684184940468, ,0.0016488938136265026, ,0.023623001371374054,-0.0033731643507877466,-0.030553658830920906,-0.011420548973941255,-0.02551580639830534,-0.022272973138491952, ,0.03876790553390364, ,0.027954582601012544, ,0.0008804575890186232, ,0.19706869748446104,-0.21886997238839684,0.10292153713,1.613983495000384,0.18965146167443137,-1.3426653256751107, ,0.19894537014354458,0.11283821826215314,0.03297890583850932,0.03950701042827484,0.16908095533993855,-0.09170603806691557, ,1.444167137145996
0.017171519550512816,0.020925040587183197,-0.09310150606634687, ,0.017895933238249395,0.020522417633238137,-0.09379411789791343, ,0.0010800886923070456, ,0.022727706617950986,-0.002200067691923806,-0.03183953415903967,-0.03895740697110813,-0.05146656658397371,-0.01679624193330667, ,0.03918092496898656, ,0.06454807752622048, ,0.0008829221705407026, ,0.20079877746271146,-0.21678483451235622,0.10360986712,1.613983495000384,0.1929307376688019,-1.3449309616631218, ,0.18007009783391037,0.10171162010554209,0.034329335172413794,0.025443576524442284,0.12620762909412225,-0.055824819776101486, ,1.449463129043579
0.017396235801451086,0.020899768940430538,-0.09341196858769804, ,0.01800576946445925,0.020508979351669173,-0.09395134972325639, ,0.001261472992896173, ,0.02178801166783376,-0.0027066880586946737,-0.030710923996191162,-0.04039987744902743,-0.06433692544665284,0.0031263750705519244, ,0.03775188028939182, ,0.0759694856824017, ,0.0008875386439840619, ,0.2025672832909089,-0.21575771104008434,0.10394430994000001,1.6141931849438687,0.1940238296669254,-1.3453322324518497, ,0.16976197058760426,0.10281358782066174,0.03297890583850932,0.0,0.10804802203516894,-0.06036978754860319, ,1.4553699493408203
0.017396235801451086,0.020899768940430538,-0.09341196858769804, ,0.018115608242803543,0.0204954127603628,-0.0941085454541856, ,0.0010799166452379481, ,0.02178801166783376,-0.0027066880586946737,-0.030710923996191162,-0.04039987744902743,-0.06433692544665284,0.0031263750705519244, ,0.03775188028939182, ,0.0759694856824017, ,0.0008898564512280846, ,0.2025672832909089,-0.21575771104008434,0.10394430994000001,1.6141931849438687,0.1940238296669254,-1.3453322324518497, ,0.16976197058760426,0.10281358782066174,0.03297890583850932,0.0,0.10804802203516894,-0.06036978754860319, ,1.4608840942382812
0.017396235801451086,0.020899768940430538,-0.09341196858769804, ,0.018225445894000526,0.02048172717846171,-0.09426571309007782, ,0.0012614388481728132, ,0.02178801166783376,-0.0027066880586946737,-0.030710923996191162,-0.04039987744902743,-0.06433692544665284,0.0031263750705519244, ,0.03775188028939182, ,0.0759694856824017, ,0.0008942800511917123, ,0.20422767085886717,-0.21471514210206405,0.10426967873000001,1.614822254774322,0.19539019466457985,-1.3460380177881113, ,0.16111535069349878,0.10225963530007626,0.03092973110679612,0.01518673488938208,0.15212523096524944,-0.08695207002991608, ,1.4662940502166748
0.017607760525007447,0.020871128160218667,-0.09371535001497044, ,0.018335278778805298,0.020467931852685643,-0.09442286050147564, ,0.0010919803846828717, ,0.020276461400420945,-0.0031317097905210834,-0.0288441807712748,-0.010185150518806835,-0.00946254014836145,-0.0018534914650882245, ,0.035396740775116356, ,0.013901690226414022, ,0.0008966059374680789, ,0.20422767085886717,-0.21471514210206405,0.10426967873000001,1.614822254774322,0.19539019466457985,-1.3460380177881113, ,0.16111535069349878,0.10225963530007626,0.03092973110679612,0.01518673488938208,0.15212523096524944,-0.08695207002991608, ,1.471869945526123
0.017806351342404367,0.02083827965042359,-0.09398730244137751, ,0.018445103297868748,0.020454035957536823,-0.09457999543062891, ,0.0009523299090339365, ,0.01937104404033929,-0.003143806611726762,-0.025955014247400363,0.029824060169281658,0.01573333559655679,-0.039775537532988986, ,0.03253895560412868, ,0.033719440016565905, ,0.0008972538906258214, ,0.20584944476245431,-0.21371118682841486,0.10456264027,1.615241634661291,0.19716646916153055,-1.3473230930558837, ,0.15816156926411795,0.09614685061648508,0.02804368225352113,0.058921837077096494,0.16543724829083814,-0.11214173074521439, ,1.477424144744873
0.017806351342404367,0.02083827965042359,-0.09398730244137751, ,0.01855491589159571,0.02044004859550434,-0.09473712549203768, ,0.0011318884506476144, ,0.01937104404033929,-0.003143806611726762,-0.025955014247400363,0.029824060169281658,0.01573333559655679,-0.039775537532988986, ,0.03253895560412868, ,0.033719440016565905, ,0.0008999508395915892, ,0.20584944476245431,-0.21371118682841486,0.10456264027,1.615241634661291,0.19716646916153055,-1.3473230930558837, ,0.15816156926411795,0.09614685061648508,0.02804368225352113,0.058921837077096494,0.16543724829083814,-0.11214173074521439, ,1.4827461242675781
0.018005553618892934,0.020809005259024526,-0.0942622820248294, ,0.01866471304000305,0.02042597879726883,-0.09489425817299328, ,0.0009902495971679858, ,0.020331823193838017,-0.002781127579733499,-0.029236305272740414,-0.020592762399004778,-0.004458752493535672,0.04448893758813219, ,0.035719451997491686, ,0.021069432276880174, ,0.0009009769618367754, ,0.2074480504674188,-0.21274584521913678,0.10485949068000001,1.6154513246047757,0.19880610715871586,-1.3481700354593973, ,0.16002856923856792,0.09773114475640657,0.031479864664031625,-0.029850909218015056,0.16586085212833643,-0.08101394495524161, ,1.4881601333618164
0.018005553618892934,0.020809005259024526,-0.0942622820248294, ,0.018774491262576135,0.020411835521905366,-0.09505140083412039, ,0.0011712033961414224, ,0.020331823193838017,-0.002781127579733499,-0.029236305272740414,-0.020592762399004778,-0.004458752493535672,0.04448893758813219, ,0.035719451997491686, ,0.021069432276880174, ,0.0009040132139076141, ,0.2074480504674188,-0.21274584521913678,0.10485949068000001,1.6154513246047757,0.19880610715871586,-1.3481700354593973, ,0.16002856923856792,0.09773114475640657,0.031479864664031625,-0.029850909218015056,0.16586085212833643,-0.08101394495524161, ,1.4934799671173096
0.01820164565314383,0.020783000020421973,-0.09455030689862937, ,0.018884247118128396,0.020397627657089624,-0.09520856070991904, ,0.0010235988953182856, ,0.020112613252694537,-0.002139792607449366,-0.030031382110307137,0.016280471958926096,0.015451836161127159,-0.00693539405498422, ,0.03620745552659886, ,0.022445235142273846, ,0.0009053419437010661, ,0.20897715157651522,-0.2118036718084814,0.10516930399,1.6150319447178065,0.20044574515590113,-1.3492620140833327, ,0.15531414330355284,0.09340250153392793,0.032375633170731714,0.025416821535432406,0.1694232424673385,-0.10254930528933012, ,1.4987249374389648
0.01820164565314383,0.020783000020421973,-0.09455030689862937, ,0.018993977204658025,0.020383364019300684,-0.09536574490930551, ,0.001205171095808629, ,0.020112613252694537,-0.002139792607449366,-0.030031382110307137,0.016280471958926096,0.015451836161127159,-0.00693539405498422, ,0.03620745552659886, ,0.022445235142273846, ,0.000908636769548402, ,0.20897715157651522,-0.2118036718084814,0.10516930399,1.6150319447178065,0.20044574515590113,-1.3492620140833327, ,0.15531414330355284,0.09340250153392793,0.032375633170731714,0.025416821535432406,0.1694232424673385,-0.10254930528933012, ,1.5040099620819092
0.01820164565314383,0.020783000020421973,-0.09455030689862937, ,0.01910367815920723,0.020369053354026896,-0.09552296041615635, ,0.001389629213053694, ,0.020112613252694537,-0.002139792607449366,-0.030031382110307137,0.016280471958926096,0.015451836161127159,-0.00693539405498422, ,0.03620745552659886, ,0.022445235142273846, ,0.0009138649482821552, ,0.20897715157651522,-0.2118036718084814,0.10516930399,1.6150319447178065,0.20044574515590113,-1.3492620140833327, ,0.15531414330355284,0.09340250153392793,0.032375633170731714,0.025416821535432406,0.1694232424673385,-0.10254930528933012, ,1.5094740390777588
0.018583466255255667,0.02074080110239722,-0.09512553224753065, ,0.019213346657716655,0.020354704335967398,-0.09568021408984745, ,0.001216228381495894, ,0.01759640882184875,-0.0022562851572203316,-0.026939667701012433,-0.018888034307274277,0.00038776262889496366,0.002022543696967504, ,0.035609361946963417, ,0.01889163864101166, ,0.0009171161679941308, ,0.21188862187009788,-0.21001972051453555,0.10578893061000001,1.615241634661291,0.20358838465050627,-1.3505177660261016, ,0.13125441432706886,0.08564705916829492,0.02890891382940109,0.008875245563950026,0.1328653255465515,-0.06306697336209241, ,1.515470027923584
0.018583466255255667,0.02074080110239722,-0.09512553224753065, ,0.01932297941488907,0.020340325569240876,-0.09583751266579801, ,0.001101896765547486, ,0.01759640882184875,-0.0022562851572203316,-0.026939667701012433,-0.018888034307274277,0.00038776262889496366,0.002022543696967504, ,0.032256319101492376, ,0.01889163864101166, ,0.0009190819190319325, ,0.21188862187009788,-0.21001972051453555,0.10578893061000001,1.615241634661291,0.20358838465050627,-1.3505177660261016, ,0.13125441432706886,0.08564705916829492,0.02890891382940109,0.008875245563950026,0.1328653255465515,-0.06306697336209241, ,1.520772933959961
0.01876652352402851,0.020710033785059957,-0.09539757072355272, ,0.019432573184041364,0.020325925587585388,-0.09599486275601155, ,0.0009736113336486991, ,0.017852352712000804,-0.002895212717569054,-0.027205784954740953,0.022282108178359832,0.03518966063779903,0.01041885121400734, ,0.0326686927965792, ,0.041650806193359126, ,0.0009196559128700038, ,0.21327871378745827,-0.20907754710388016,0.10608059586000002,1.615241634661291,0.2050913861479261,-1.3510899330456376, ,0.13615056177685905,0.09222248936683264,0.029173647472527476,0.007627622028740059,0.17373981136590733,-0.11091740815416615, ,1.5260610580444336
0.01876652352402851,0.020710033785059957,-0.09539757072355272, ,0.019542124756965696,0.020311512854565453,-0.09615227084961725, ,0.0011532339246040715, ,0.017852352712000804,-0.002895212717569054,-0.027205784954740953,0.022282108178359832,0.03518966063779903,0.01041885121400734, ,0.0326686927965792, ,0.041650806193359126, ,0.0009220890171589003, ,0.21327871378745827,-0.20907754710388016,0.10608059586000002,1.615241634661291,0.2050913861479261,-1.3510899330456376, ,0.13615056177685905,0.09222248936683264,0.029173647472527476,0.007627622028740059,0.17373981136590733,-0.11091740815416615, ,1.5313770771026611
0.01894259249878318,0.020688284685939185,-0.09567970645694085, ,0.019651630963787182,0.02029709576377577,-0.09630974331341309, ,0.0010260169385502514, ,0.017557806997626723,-0.0014472594821212357,-0.028719316091312296,0.03725805035528218,0.08957745223633234,0.030196205149590472, ,0.033692287890958204, ,0.0970168167271154, ,0.0009231604390289144, ,0.2146301920404476,-0.2082048782890928,0.10638392772000001,1.6154513246047757,0.20727757014417317,-1.3524642258040775, ,0.1340352281899305,0.08055767534674939,0.030989905680933853,0.001293343773155365,0.2285271960143912,-0.11578200733809446, ,1.536729097366333
0.01894259249878318,0.020688284685939185,-0.09567970645694085, ,0.019761088672819928,0.020282682639044695,-0.09646728639240643, ,0.00120612236614108, ,0.017557806997626723,-0.0014472594821212357,-0.028719316091312296,0.03725805035528218,0.08957745223633234,0.030196205149590472, ,0.033692287890958204, ,0.0970168167271154, ,0.0009260478056320997, ,0.2146301920404476,-0.2082048782890928,0.10638392772000001,1.6154513246047757,0.20727757014417317,-1.3524642258040775, ,0.1340352281899305,0.08055767534674939,0.030989905680933853,0.001293343773155365,0.2285271960143912,-0.11578200733809446, ,1.5420200824737549
0.019133807942961475,0.020673807041674527,-0.09597798876690214, ,0.01987049479042679,0.02026828173463964,-0.09662490621035645, ,0.0010609714720573708, ,0.019317037929149055,-0.0016428649279758155,-0.029415257574493987,-0.020125031158356017,-0.014757545969341064,-0.02200461301934984, ,0.03522931077528458, ,0.024955560899955858, ,0.0009274106709495268, ,0.2160511748893049,-0.2073631004058023,0.10670670393000001,1.616080394435229,0.20905384464112386,-1.3532592286310066, ,0.13934940023270306,0.08427792323132396,0.031794034970059885,0.03090354765268116,0.120976228806675,-0.05569548598343608, ,1.5474529266357422
0.019133807942961475,0.020673807041674527,-0.09597798876690214, ,0.019979846260877388,0.02025390123547147,-0.09678260877031622, ,0.0012407719658982877, ,0.019317037929149055,-0.0016428649279758155,-0.029415257574493987,-0.020125031158356017,-0.014757545969341064,-0.02200461301934984, ,0.03522931077528458, ,0.024955560899955858, ,0.0009305442838990144, ,0.2160511748893049,-0.2073631004058023,0.10670670393000001,1.616080394435229,0.20905384464112386,-1.3532592286310066, ,0.13934940023270306,0.08427792323132396,0.031794034970059885,0.03090354765268116,0.120976228806675,-0.05569548598343608, ,1.552757978439331
0.019328739711481892,0.020658426357909456,-0.09628048551060239, ,0.02008914006620376,0.02023954925729764,-0.0969403999551737, ,0.0010904832869108822, ,0.01940213594732274,-0.001421207315351426,-0.031042851649714192,-0.02422960946097717,-0.000664415521762801,-0.01989340287172605, ,0.036634974383746535, ,0.024238122762422085, ,0.0009321278383842804, ,0.21744126680666528,-0.20652132252251185,0.10703336901,1.616080394435229,0.21028357313901283,-1.3536085598431498, ,0.13673910887387722,0.0849569754328297,0.03346388974789917,0.03090354765268116,0.1327186754460589,-0.05220040615965031, ,1.558143138885498
0.019328739711481892,0.020658426357909456,-0.09628048551060239, ,0.02019837322605977,0.020225233846927163,-0.097098285528194, ,0.0012699271908345937, ,0.01940213594732274,-0.001421207315351426,-0.031042851649714192,-0.02422960946097717,-0.000664415521762801,-0.01989340287172605, ,0.036634974383746535, ,0.024238122762422085, ,0.0009354395967416364, ,0.21744126680666528,-0.20652132252251185,0.10703336901,1.616080394435229,0.21028357313901283,-1.3536085598431498, ,0.13673910887387722,0.0849569754328297,0.03346388974789917,0.03090354765268116,0.1327186754460589,-0.05220040615965031, ,1.5633959770202637
0.019523075013900663,0.02064282589264201,-0.0965920915228999, ,0.020307542797579917,0.02021096298242595,-0.09725627113356178, ,0.001114912477313756, ,0.019151042422535854,-0.0015209461452951405,-0.030829826945977867,0.01810906943064531,0.02197621659564536,-0.015374280944390459, ,0.03632566492943521, ,0.02847568505872489, ,0.000937182051892822, ,0.21880819052540304,-0.20566409917347292,0.10736910812000001,1.616080394435229,0.21164993813666727,-1.3543960239195516, ,0.13576100366018712,0.0849569754328297,0.03325430379958247,0.03090354765268116,0.154885919194469,-0.09448857357159259, ,1.5686569213867188
0.019523075013900663,0.02064282589264201,-0.0965920915228999, ,0.020416645875234188,0.020196744573318832,-0.09741436229692171, ,0.001293671771928214, ,0.019151042422535854,-0.0015209461452951405,-0.030829826945977867,0.01810906943064531,0.02197621659564536,-0.015374280944390459, ,0.03632566492943521, ,0.02847568505872489, ,0.000940609837662393, ,0.21880819052540304,-0.20566409917347292,0.10736910812000001,1.616080394435229,0.21164993813666727,-1.3543960239195516, ,0.13576100366018712,0.0849569754328297,0.03325430379958247,0.03090354765268116,0.154885919194469,-0.09448857357159259, ,1.5739309787750244
0.019711996294555344,0.02062585762065166,-0.09690027210131434, ,0.020525679590689735,0.020182586460796664,-0.09757256442592202, ,0.0011447911588118229, ,0.0189253094159889,-0.0015691787427608197,-0.030776350597376698,0.0145645335580976,0.029763333252774776,-0.010408800618198506, ,0.036163702997761435, ,0.033135389432753314, ,0.00094255442167334, ,0.22014422331264388,-0.204806875824434,0.10770095836000002,1.616080394435229,0.21328957613385255,-1.3554063238033465, ,0.13328222128998704,0.0846538283304824,0.033185024,0.0268594908877747,0.16113689668383044,-0.09146354063795747, ,1.5791881084442139
0.019711996294555344,0.02062585762065166,-0.09690027210131434, ,0.020634641112665393,0.020168496417918323,-0.09773088281075504, ,0.0013230143161691735, ,0.0189253094159889,-0.0015691787427608197,-0.030776350597376698,0.0145645335580976,0.029763333252774776,-0.010408800618198506, ,0.036163702997761435, ,0.033135389432753314, ,0.0009461436659610365, ,0.22014422331264388,-0.204806875824434,0.10770095836000002,1.616080394435229,0.21328957613385255,-1.3554063238033465, ,0.13328222128998704,0.0846538283304824,0.033185024,0.0268594908877747,0.16113689668383044,-0.09146354063795747, ,1.5845601558685303
0.019841160043325784,0.020615630013463112,-0.09711190080035949, ,0.020743527646791365,0.020154482149816275,-0.09788932262469892, ,0.0012772272064474298, ,0.018510044411325963,-0.0013857088633226831,-0.02998942677239097,0.020802001230020822,0.01843748039055814,-0.009607765035838666, ,0.03526907499920789, ,0.027796396908905334, ,0.000949237904657171, ,0.22104778305892814,-0.2042353935917414,0.10792910540000002,1.616080394435229,0.21438266813197607,-1.3561343095526368, ,0.12893606190009615,0.08069467819597856,0.032375633170731714,0.023422994717065538,0.1458154536117407,-0.09454198729126931, ,1.5901060104370117
0.020093521258193227,0.0205921870675534,-0.09749849364412637, ,0.020852336435466363,0.020140551293900452,-0.09804788892466054, ,0.0010400050574763471, ,0.018922691515006206,-0.0020049313621566837,-0.02695571689900073,-0.031242928954904655,-0.023909654243566524,-0.012910366472685399, ,0.032995434191386556, ,0.039341809110729084, ,0.0009500783412573487, ,0.22281628888712554,-0.20314648825647572,0.10834780707000001,1.616080394435229,0.21602230612916135,-1.3569812519561504, ,0.1353736684143663,0.08008180722233821,0.029388951143911442,0.018881512290787224,0.1100303890086341,-0.042815359787464306, ,1.5961689949035645
0.020093521258193227,0.0205921870675534,-0.09749849364412637, ,0.02096106475771626,0.020126711420063014,-0.0982065866517169, ,0.0012127221484618262, ,0.018922691515006206,-0.0020049313621566837,-0.02695571689900073,-0.031242928954904655,-0.023909654243566524,-0.012910366472685399, ,0.032995434191386556, ,0.039341809110729084, ,0.0009524879174702338, ,0.22281628888712554,-0.20314648825647572,0.10834780707000001,1.616080394435229,0.21602230612916135,-1.3569812519561504, ,0.1353736684143663,0.08008180722233821,0.029388951143911442,0.018881512290787224,0.1100303890086341,-0.042815359787464306, ,1.6014230251312256
0.020291438998863227,0.020568567721403044,-0.09777242025315175, ,0.02106970992905104,0.020112970030882367,-0.09836542063165582, ,0.001079316610309112, ,0.01956137149673095,-0.0027181256997809125,-0.02730781327935119,-0.002608557773061482,-0.010197234212932149,-0.00790980371008839, ,0.03370092177156044, ,0.010524874039889135, ,0.0009536409055869508, ,0.22425271720173132,-0.20230471037318526,0.10864725006,1.616080394435229,0.2172520346270503,-1.3577389768689967, ,0.14184894104405196,0.08746261894789933,0.02977347947663552,0.01637613835370868,0.1311675607376634,-0.07916263943362094, ,1.6066920757293701
0.020291438998863227,0.020568567721403044,-0.09777242025315175, ,0.02117826930132205,0.020099334561826738,-0.09852439557551923, ,0.0012538399534449563, ,0.01956137149673095,-0.0027181256997809125,-0.02730781327935119,-0.002608557773061482,-0.010197234212932149,-0.00790980371008839, ,0.03370092177156044, ,0.010524874039889135, ,0.0009563454015135994, ,0.22425271720173132,-0.20230471037318526,0.10864725006,1.616080394435229,0.2172520346270503,-1.3577389768689967, ,0.14184894104405196,0.08746261894789933,0.02977347947663552,0.01637613835370868,0.1311675607376634,-0.07916263943362094, ,1.6119260787963867
0.020481032106055355,0.0205417527606743,-0.09804795876040988, ,0.0212867402625823,0.020085812381460337,-0.09868351608014451, ,0.001122933822431268, ,0.01926472125298686,-0.002552382096032666,-0.028457943581919252,-0.0012549881452637486,0.019056572889741177,0.012541809532151877, ,0.034460102905115225, ,0.01909736371844992, ,0.0009578327981289358, ,0.22561964092046904,-0.2014320415583979,0.10894669305000002,1.6162900843787136,0.21875503612447017,-1.3586378588490948, ,0.1381323749031598,0.08730169416602647,0.03092973110679612,0.0010409784489051658,0.16039287991660478,-0.08366832365367492, ,1.6171810626983643
0.020481032106055355,0.0205417527606743,-0.09804795876040988, ,0.021395120236941203,0.020072410791645685,-0.09884278662870598, ,0.0012990728752222344, ,0.01926472125298686,-0.002552382096032666,-0.028457943581919252,-0.0012549881452637486,0.019056572889741177,0.012541809532151877, ,0.034460102905115225, ,0.01909736371844992, ,0.000960852621820027, ,0.22561964092046904,-0.2014320415583979,0.10894669305000002,1.6162900843787136,0.21875503612447017,-1.3586378588490948, ,0.1381323749031598,0.08730169416602647,0.03092973110679612,0.0010409784489051658,0.16039287991660478,-0.08366832365367492, ,1.6224651336669922
0.020481032106055355,0.0205417527606743,-0.09804795876040988, ,0.02150340668442584,0.02005913702774992,-0.09900221159125706, ,0.001479447933975452, ,0.01926472125298686,-0.002552382096032666,-0.028457943581919252,-0.0012549881452637486,0.019056572889741177,0.012541809532151877, ,0.034460102905115225, ,0.01909736371844992, ,0.0009654017035056008, ,0.22561964092046904,-0.2014320415583979,0.10894669305000002,1.6162900843787136,0.21875503612447017,-1.3586378588490948, ,0.1381323749031598,0.08730169416602647,0.03092973110679612,0.0010409784489051658,0.16039287991660478,-0.08366832365367492, ,1.6278281211853027
0.020680963215820213,0.0205189560980265,-0.09834563863367422, ,0.021611597100833956,0.020045998258846502,-0.0991617952252718, ,0.0013250962710632604, ,0.019692846055144167,-0.002080765409403681,-0.029135463633721895,0.03127441839001418,0.02202599436527903,0.007262496133083777, ,0.035228014584879876, ,0.03825196307006029, ,0.0009685294823539284, ,0.22704062376932635,-0.2005516500107363,0.10927076555000001,1.6167094642656827,0.22039467412165545,-1.35964815873289, ,0.14017273494604252,0.08390534178467797,0.031794034970059885,0.00794829316157691,0.16411195147768884,-0.11128587991498053, ,1.6332991123199463
0.020920217920355425,0.02049479964231397,-0.09870205486550518, ,0.021719689017599783,0.020033001587923635,-0.09932154167618731, ,0.0011118342443803932, ,0.019969074947452103,-0.0018497762202551989,-0.03050900718916634,-0.01811884793053747,-0.005894975369904077,0.0013550190504435444, ,0.036510069104160624, ,0.01905300376087067, ,0.0009697648682334669, ,0.2287241795359073,-0.1995399720042129,0.10965965255000001,1.6169191542091674,0.22230758511837162,-1.3607179369437963, ,0.13576100366018712,0.08368336998101479,0.033185024,0.0067794952688874635,0.13128741832813132,-0.06187730835747614, ,1.6388721466064453
0.020920217920355425,0.02049479964231397,-0.09870205486550518, ,0.021827680001639652,0.020020154052082517,-0.09948145497794426, ,0.001286950038099741, ,0.019969074947452103,-0.0018497762202551989,-0.03050900718916634,-0.01811884793053747,-0.005894975369904077,0.0013550190504435444, ,0.036510069104160624, ,0.01905300376087067, ,0.0009724758525912983, ,0.2287241795359073,-0.1995399720042129,0.10965965255000001,1.6169191542091674,0.22230758511837162,-1.3607179369437963, ,0.13576100366018712,0.08368336998101479,0.033185024,0.0067794952688874635,0.13128741832813132,-0.06187730835747614, ,1.6442010402679443
0.021134295723696215,0.020473754930296607,-0.09902490928983974, ,0.02193556765522529,0.02000746262274938,-0.09964153905353085, ,0.0011134170331927745, ,0.021613229325073247,-0.002259611444231043,-0.03206980516116317,-0.048483984569768476,-0.03280873086515252,-0.004019841888744102, ,0.03873899751945156, ,0.05854123041695727, ,0.0009736702693760566, ,0.2301683305833873,-0.19864413499080283,0.11001094714000001,1.6169191542091674,0.22353731361626059,-1.3613123043763613, ,0.14554745637802266,0.09055051675426601,0.034931604210526324,0.0067794952688874635,0.11376934071251354,-0.038171874710215034, ,1.6494791507720947
0.021134295723696215,0.020473754930296607,-0.09902490928983974, ,0.022043349615825814,0.019994934205871766,-0.09980179771552124, ,0.0012881008853706188, ,0.021613229325073247,-0.002259611444231043,-0.03206980516116317,-0.048483984569768476,-0.03280873086515252,-0.004019841888744102, ,0.03873899751945156, ,0.05854123041695727, ,0.0009763125434600446, ,0.2301683305833873,-0.19864413499080283,0.11001094714000001,1.6169191542091674,0.22353731361626059,-1.3613123043763613, ,0.14554745637802266,0.09055051675426601,0.034931604210526324,0.0067794952688874635,0.11376934071251354,-0.038171874710215034, ,1.6547300815582275
0.021345637586636525,0.02045385041103387,-0.09933834829456002, ,0.022151023555978904,0.019982575642129758,-0.09996223466662185, ,0.0011224886069193128, ,0.021148133483767182,-0.0020239223196477883,-0.031108832002631717,-0.020243823080245176,-0.01382377295376396,0.03302936094389174, ,0.037670933622239396, ,0.024512852472658244, ,0.0009775306773222052, ,0.2315970361651188,-0.19777918890888968,0.1103531677,1.617128844152652,0.22476704211414955,-1.361906671808926, ,0.1444397892822995,0.08526230149009054,0.03403592205128206,-0.025682525399269494,0.13854188253776095,-0.06851885197872835, ,1.6600000858306885
0.021345637586636525,0.02045385041103387,-0.09933834829456002, ,0.022258587183138986,0.01997039370713521,-0.1001228535002088, ,0.0012971722198646554, ,0.021148133483767182,-0.0020239223196477883,-0.031108832002631717,-0.020243823080245176,-0.01382377295376396,0.03302936094389174, ,0.037670933622239396, ,0.024512852472658244, ,0.0009801723429630517, ,0.2315970361651188,-0.19777918890888968,0.1103531677,1.617128844152652,0.22476704211414955,-1.361906671808926, ,0.1444397892822995,0.08526230149009054,0.03403592205128206,-0.025682525399269494,0.13854188253776095,-0.06851885197872835, ,1.665243148803711
0.02155873970653137,0.02043091823211501,-0.09965525966116383, ,0.0223660382395409,0.019958395111639337,-0.10028365770087233, ,0.0011268953443389926, ,0.021088149017545334,-0.00253915476215036,-0.03085332931975867,0.021740524688478674,0.013909933502709793,0.0024095444034227904, ,0.037457779779450744, ,0.02580908184182362, ,0.0009813749905153136, ,0.23304890994547303,-0.19689107462835387,0.11069927713000001,1.6169191542091674,0.22627004361156938,-1.3628872325291652, ,0.14532456593946522,0.08986452799097612,0.03374748203389831,0.009769079568629449,0.16061305725426947,-0.10700691660887053, ,1.6706979274749756
0.02155873970653137,0.02043091823211501,-0.09965525966116383, ,0.022473374502055592,0.01994658650173554,-0.10044465064495818, ,0.0013016421011675312, ,0.021088149017545334,-0.00253915476215036,-0.03085332931975867,0.021740524688478674,0.013909933502709793,0.0024095444034227904, ,0.037457779779450744, ,0.02580908184182362, ,0.0009839787881628925, ,0.23304890994547303,-0.19689107462835387,0.11069927713000001,1.6169191542091674,0.22627004361156938,-1.3628872325291652, ,0.14532456593946522,0.08986452799097612,0.03374748203389831,0.009769079568629449,0.16061305725426947,-0.10700691660887053, ,1.6761000156402588
0.021769167140020886,0.020406807748813868,-0.09996322006294224, ,0.022580593782048363,0.01993497445906435,-0.10060583560110865, ,0.0011375388250959824, ,0.021026192457873356,-0.002249672781726926,-0.03031418716062993,-0.01736164425843825,-0.009295316935949925,-0.0015046850365874652, ,0.03696094885294578, ,0.019692740005013493, ,0.0009852171755575143, ,0.23448533826007878,-0.19601068308069228,0.11103631253000001,1.6169191542091674,0.2277730451089892,-1.3637861145092636, ,0.1427021677570989,0.08549274014276646,0.03325430379958247,0.009060636336573964,0.13436019006690364,-0.06377496472949044, ,1.6813960075378418
0.021769167140020886,0.020406807748813868,-0.09996322006294224, ,0.02268769392523543,0.019923565501016875,-0.1007672157308051, ,0.0013128684470100974, ,0.021026192457873356,-0.002249672781726926,-0.03031418716062993,-0.01736164425843825,-0.009295316935949925,-0.0015046850365874652, ,0.03696094885294578, ,0.019692740005013493, ,0.0009878383857291348, ,0.23448533826007878,-0.19601068308069228,0.11103631253000001,1.6169191542091674,0.2277730451089892,-1.3637861145092636, ,0.1427021677570989,0.08549274014276646,0.03325430379958247,0.009060636336573964,0.13436019006690364,-0.06377496472949044, ,1.6867079734802246
0.021968685908930946,0.020384167265284057,-0.10025024602179056, ,0.02279467281154499,0.019912366080940738,-0.10092879408890956, ,0.0011684511971959456, ,0.02058237753020919,-0.0026414406445743393,-0.029556979882795615,0.02151354326576837,0.020135418098012448,0.004974070391251613, ,0.03611407666363428, ,0.029465998164767422, ,0.0009892718207407762, ,0.23584453924594231,-0.19519207339602448,0.11135131100000001,1.6169191542091674,0.22913941010664365,-1.3646552573258062, ,0.14184894104405196,0.08722145363830036,0.032441571323828924,0.007848173391124126,0.16374181441682104,-0.10459424717658718, ,1.6919760704040527
0.021968685908930946,0.020384167265284057,-0.10025024602179056, ,0.022901528354969055,0.019901382588341766,-0.10109057362420619, ,0.0013451492678518025, ,0.02058237753020919,-0.0026414406445743393,-0.029556979882795615,0.02151354326576837,0.020135418098012448,0.004974070391251613, ,0.03611407666363428, ,0.029465998164767422, ,0.0009920740053636977, ,0.23584453924594231,-0.19519207339602448,0.11135131100000001,1.6169191542091674,0.22913941010664365,-1.3646552573258062, ,0.14184894104405196,0.08722145363830036,0.032441571323828924,0.007848173391124126,0.16374181441682104,-0.10459424717658718, ,1.697242021560669
0.02218650407677119,0.020356018703686453,-0.10055491981197191, ,0.023008258503428886,0.01989062134909155,-0.1012525571799435, ,0.0011741264551085508, ,0.021134473387639057,-0.002688524426661624,-0.02909827429062692,-0.08070317048072212,-0.08751998850017337,-0.016956802956875093, ,0.03606388353544498, ,0.11904927236930447, ,0.0009934962901273295, ,0.23730413575917073,-0.1942885136497402,0.11168575382000001,1.6169191542091674,0.23023250210476714,-1.3650565281145342, ,0.13733276636537015,0.08611337709480106,0.03192146597194389,0.006844090979501505,0.04947385049189683,-0.0014441784673415517, ,1.702552080154419
0.02218650407677119,0.020356018703686453,-0.10055491981197191, ,0.023114861238628086,0.019880088625629757,-0.10141474749437629, ,0.0013519097982479923, ,0.021134473387639057,-0.002688524426661624,-0.02909827429062692,-0.08070317048072212,-0.08751998850017337,-0.016956802956875093, ,0.03606388353544498, ,0.11904927236930447, ,0.0009962746894150863, ,0.23730413575917073,-0.1942885136497402,0.11168575382000001,1.6169191542091674,0.23023250210476714,-1.3650565281145342, ,0.13733276636537015,0.08611337709480106,0.03192146597194389,0.006844090979501505,0.04947385049189683,-0.0014441784673415517, ,1.7123820781707764
0.022392715525797455,0.020329237860025176,-0.10084453568594495, ,0.023221334575910257,0.01986979061716832,-0.10157714720130666, ,0.0011976731322106138, ,0.021234582337200783,-0.0027718185348998858,-0.03028928648331157,-0.03852363300894145,-0.04385701992989299,-0.0016784065700986325, ,0.037094896423819475, ,0.058373649902280736, ,0.0009978239082058212, ,0.23865561401216,-0.1934312903007013,0.11200334487000001,1.617128844152652,0.2310523211033598,-1.3654799993162912, ,0.13873821865273506,0.08860592115636862,0.033185024,0.0,0.09679912540515846,-0.04760894858253402, ,1.7177350521087646
0.022605341836912905,0.02030378750656418,-0.10115002608417784, ,0.023327676564118327,0.01985973345989677,-0.10173975883062682, ,0.001032829205010631, ,0.01987268654594599,-0.00231279376470136,-0.02835354208785756,0.002527380967833996,0.003510764528872383,-0.002065585898881577, ,0.034701527840707166, ,0.0043237480783508715, ,0.000998091124211965, ,0.2400688741281431,-0.19255862148591393,0.11233908398000002,1.6173385340961361,0.23241868610101418,-1.3663491421328335, ,0.13290888173455292,0.08021719489304377,0.031232963764705888,0.010704826483665674,0.1370782919695473,-0.07798221309446302, ,1.72304105758667
0.022605341836912905,0.02030378750656418,-0.10115002608417784, ,0.023433885285454273,0.019849923227186605,-0.10190258480886007, ,0.001207816900159579, ,0.01987268654594599,-0.00231279376470136,-0.02835354208785756,0.003883918094438735,-0.021204210933665854,-0.008199753143475827, ,0.034701527840707166, ,0.0043237480783508715, ,0.0009996799558479317, ,0.24144352057975507,-0.191701398136875,0.11264630471,1.6173385340961361,0.23378505109866862,-1.367218284949376, ,0.13422481125667718,0.08549274014276646,0.028804360795660042,0.010704826483665674,0.11319971544265277,-0.08442214514517711, ,1.7291600704193115
0.022808197927204885,0.020273492082051196,-0.10142861123015132, ,0.02353995885533048,0.01984036592979383,-0.10206562745970278, ,0.0010624791745782447, ,0.01975973212794931,-0.003375511452270528,-0.026076833706753965,0.003883918094438735,-0.021204210933665854,-0.008199753143475827, ,0.03289137193098551, ,0.02155670019068892, ,0.0010001521304248513, ,0.24144352057975507,-0.191701398136875,0.11264630471,1.6173385340961361,0.23378505109866862,-1.367218284949376, ,0.13422481125667718,0.08549274014276646,0.028804360795660042,0.010704826483665674,0.11319971544265277,-0.08442214514517711, ,1.734450101852417
0.022999465950716873,0.020239983559831254,-0.101678520517362, ,0.02364589542223295,0.01983106751606507,-0.10222888900456645, ,0.0009423316105287245, ,0.01920486805734953,-0.0032468925518104575,-0.02534673219424348,-0.030480374140427327,-0.03576490050288129,-0.01073751193063425, ,0.0319660147855485, ,0.04699117846828158, ,0.000999720634007716, ,0.24273321696975056,-0.190875065719333,0.11292241448000001,1.6173385340961361,0.23474150659702667,-1.3678348527949697, ,0.12823911021414972,0.08230437255721663,0.027994396344463976,0.009611238262898081,0.0924421632825894,-0.04717935484586527, ,1.7397119998931885
0.022999465950716873,0.020239983559831254,-0.101678520517362, ,0.023751693167582712,0.019822033872142777,-0.10239237156311987, ,0.0011180836474800207, ,0.01920486805734953,-0.0032468925518104575,-0.02534673219424348,-0.030480374140427327,-0.03576490050288129,-0.01073751193063425, ,0.0319660147855485, ,0.04699117846828158, ,0.001000597397070474, ,0.24273321696975056,-0.190875065719333,0.11292241448000001,1.6173385340961361,0.23474150659702667,-1.3678348527949697, ,0.12823911021414972,0.08230437255721663,0.027994396344463976,0.009611238262898081,0.0924421632825894,-0.04717935484586527, ,1.74509596824646
0.023185204050240427,0.02021110258312357,-0.10192987068142902, ,0.023857350305584384,0.01981327082216688,-0.10255607715382947, ,0.0010010920260770362, ,0.01873125929073861,-0.0028012380503884445,-0.025578285056268298,-0.005354523204590699,-0.02022376738007715,-0.0066669470101878925, ,0.0318269646000297, ,0.02092034266519403, ,0.0010006010340484635, ,0.24396113149675225,-0.1900950696990363,0.11319982054000001,1.6173385340961361,0.23569796209538477,-1.368533099380704, ,0.12356372598759216,0.07804024799216347,0.028242573617021278,0.008643657481926866,0.10370564305000544,-0.0683712109384618, ,1.7505810260772705
0.023185204050240427,0.02021110258312357,-0.10192987068142902, ,0.0239628650841829,0.01980478412875474,-0.10272000769453289, ,0.0011807488596436858, ,0.01873125929073861,-0.0028012380503884445,-0.025578285056268298,-0.005354523204590699,-0.02022376738007715,-0.0066669470101878925, ,0.0318269646000297, ,0.02092034266519403, ,0.0010019159816805454, ,0.24396113149675225,-0.1900950696990363,0.11319982054000001,1.6173385340961361,0.23569796209538477,-1.368533099380704, ,0.12356372598759216,0.07804024799216347,0.028242573617021278,0.008643657481926866,0.10370564305000544,-0.0683712109384618, ,1.7560441493988037
0.023383448823231467,0.020184402835654928,-0.10220991425719325, ,0.024068235780490076,0.01979657949207582,-0.10288416500283913, ,0.0010363176108994809, ,0.01903911582717345,-0.0023097560728594585,-0.027739806978068916,0.008270874444201758,-0.008600837517052547,-0.003803249698316002, ,0.03372417227712429, ,0.011931694960078705, ,0.0010021652688487986, ,0.24524310515387354,-0.18928418274724274,0.11350833756,1.6173385340961361,0.23679105409350829,-1.369179406389854, ,0.12150696742441842,0.07696426728180923,0.030514964597701155,0.007809181397270646,0.1136096035992529,-0.08112764792561619, ,1.761343002319336
0.023383448823231467,0.020184402835654928,-0.10220991425719325, ,0.024173460707372627,0.019788662551800937,-0.10304855079691244, ,0.00121821196640867, ,0.01903911582717345,-0.0023097560728594585,-0.027739806978068916,0.008270874444201758,-0.008600837517052547,-0.003803249698316002, ,0.03372417227712429, ,0.011931694960078705, ,0.0010037195616369992, ,0.24524310515387354,-0.18928418274724274,0.11350833756,1.6173385340961361,0.23679105409350829,-1.369179406389854, ,0.12150696742441842,0.07696426728180923,0.030514964597701155,0.007809181397270646,0.1136096035992529,-0.08112764792561619, ,1.7667369842529297
0.02357127525694333,0.020166778087825524,-0.10249844265481134, ,0.024278538208766704,0.019781038886108722,-0.10321316669583191, ,0.0010769614986506294, ,0.019593694438885055,-0.0014959722397609007,-0.0313435883075184,0.005868443770818651,-0.007279238839594084,-0.0035395964041708104, ,0.03699420660992386, ,0.009348566687354787, ,0.0010042427183299537, ,0.2464015150850072,-0.1885505231241914,0.11382463232000001,1.6173385340961361,0.23788414609163183,-1.3700707496194253, ,0.11730153468290579,0.0754347707142057,0.034255508645161296,0.0071689404376006705,0.11077877161110981,-0.07736871388712203, ,1.7719950675964355
0.02357127525694333,0.020166778087825524,-0.10249844265481134, ,0.02438346666068543,0.019773714012198143,-0.10337801422018407, ,0.001260079514345664, ,0.019593694438885055,-0.0014959722397609007,-0.0313435883075184,0.005868443770818651,-0.007279238839594084,-0.0035395964041708104, ,0.03699420660992386, ,0.009348566687354787, ,0.0010060571636917673, ,0.2464015150850072,-0.1885505231241914,0.11382463232000001,1.6173385340961361,0.23788414609163183,-1.3700707496194253, ,0.11730153468290579,0.0754347707142057,0.034255508645161296,0.0071689404376006705,0.11077877161110981,-0.07736871388712203, ,1.777256965637207
0.023775571751398127,0.020155972891005763,-0.10282901820883703, ,0.02448824447107715,0.019766693386493176,-0.10354309479260505, ,0.0010813631700284955, ,0.020021741042349897,-0.0007553231720344809,-0.03339633755953793,-0.006512940352637796,-0.018051221333784433,0.0006876222994631721, ,0.038945551605436717, ,0.019189149043846686, ,0.001006587487680054, ,0.24760626141338624,-0.18780141803539163,0.11418629723000001,1.617548224039621,0.23897723808975535,-1.3707987353687154, ,0.11460983280008549,0.07167442715896584,0.03645036961098399,0.0009423364242644143,0.09824161145868242,-0.06278835544455967, ,1.7826180458068848
0.023775571751398127,0.020155972891005763,-0.10282901820883703, ,0.024592870079683003,0.019759982404846704,-0.10370840973832159, ,0.0012641655289854, ,0.020021741042349897,-0.0007553231720344809,-0.03339633755953793,-0.006512940352637796,-0.018051221333784433,0.0006876222994631721, ,0.038945551605436717, ,0.019189149043846686, ,0.0010083887327241475, ,0.24760626141338624,-0.18780141803539163,0.11418629723000001,1.617548224039621,0.23897723808975535,-1.3707987353687154, ,0.11460983280008549,0.07167442715896584,0.03645036961098399,0.0009423364242644143,0.09824161145868242,-0.06278835544455967, ,1.7880361080169678
0.023816898423211882,0.020153943314706265,-0.10289919323567245, ,0.02469734195789482,0.01975358640274517,-0.10387396028569369, ,0.0013731850845851471, ,0.019826870829291215,-0.0008376183269101934,-0.03300984596198106,-0.0008964531060824506,-0.011520175031530848,0.0018616008651778202, ,0.038515663589982346, ,0.011553305462853368, ,0.001010922040723182, ,0.24784566613248718,-0.18764696337790715,0.11426277834000001,1.617548224039621,0.23925051108928622,-1.3710215711761085, ,0.11405882398854661,0.07162033325167605,0.03603803511312218,0.0009423364242644143,0.10433371134441544,-0.06835136752428965, ,1.7934839725494385
0.023816898423211882,0.020153943314706265,-0.10289919323567245, ,0.024801658608612945,0.01974751065551268,-0.10403974756675577, ,0.0015607063501386846, ,0.019826870829291215,-0.0008376183269101934,-0.03300984596198106,-0.0008964531060824506,-0.011520175031530848,0.0018616008651778202, ,0.038515663589982346, ,0.011553305462853368, ,0.0010147136566501856, ,0.24784566613248718,-0.18764696337790715,0.11426277834000001,1.617548224039621,0.23925051108928622,-1.3710215711761085, ,0.11405882398854661,0.07162033325167605,0.03603803511312218,0.0009423364242644143,0.10433371134441544,-0.06835136752428965, ,1.798788070678711
0.024169332347280834,0.02014612479751487,-0.10351099513513794, ,0.02490581856610395,0.019741760378515487,-0.10420577261775883, ,0.0010902468914085978, ,0.01840163877708391,-0.00043575509943222376,-0.031762949621098276,0.0006906083051838737,-0.003160501277760009,0.0025584492510133876, ,0.0367109678545988, ,0.0032300740355627154, ,0.0010152310075731885, ,0.24980724028254023,-0.186403603385157,0.11492907140000001,1.617548224039621,0.2411634220860024,-1.3721730281271554, ,0.10225963530007626,0.06451185693981698,0.03462785113043479,0.0010530437344162685,0.10077909030139558,-0.06299339685809893, ,1.804034948348999
0.024358054532123124,0.02013733560613909,-0.10382494584327534, ,0.025009820395858622,0.01973634072736631,-0.10437203637971237, ,0.0012711157181027673, ,0.018944943650138674,-0.000857583017063558,-0.03174266674657531,-0.014460892354841813,0.007961955446295016,0.004611805497842423, ,0.0367109678545988, ,0.01650690508354524, ,0.0010169717198897162, ,0.2508961456178059,-0.18572400289222524,0.11527258825000002,1.617548224039621,0.24239315058389135,-1.3726857168195798, ,0.10796011553864708,0.06817309020005086,0.03470329307189543,0.0011604237896181624,0.11787519943940124,-0.05135687437169539, ,1.80997896194458
0.024358054532123124,0.02013733560613909,-0.10382494584327534, ,0.025113662694449798,0.019731256798128597,-0.10453853969892594, ,0.0011158225146107295, ,0.018944943650138674,-0.000857583017063558,-0.03174266674657531,-0.014460892354841813,0.007961955446295016,0.004611805497842423, ,0.03697625225360493, ,0.01650690508354524, ,0.001017639630664858, ,0.2508961456178059,-0.18572400289222524,0.11527258825000002,1.617548224039621,0.24239315058389135,-1.3726857168195798, ,0.10796011553864708,0.06817309020005086,0.03470329307189543,0.0011604237896181624,0.11787519943940124,-0.05135687437169539, ,1.815295934677124
0.02453851678207518,0.020130642915740696,-0.10413347691362722, ,0.025217344089389856,0.019726513627520755,-0.10470528332754998, ,0.0009752382118008213, ,0.018063165766620086,-0.0006086981160184592,-0.03034071113535637,0.01796594254367182,0.026338607120252704,0.00663442735428927, ,0.03531582114446694, ,0.03188215182412816, ,0.0010173550573838914, ,0.2519155463572035,-0.18507529333079037,0.11560962365,1.6177579139831053,0.24362287908178032,-1.373443441732426, ,0.10371250443548719,0.0629707641396621,0.03325430379958247,0.0031498383463600104,0.13189751949996395,-0.07822508299600589, ,1.8206639289855957
0.02453851678207518,0.020130642915740696,-0.10413347691362722, ,0.025320863238989008,0.019722116193120805,-0.10487226792411986, ,0.0011509874972930431, ,0.018063165766620086,-0.0006086981160184592,-0.03034071113535637,0.01796594254367182,0.026338607120252704,0.00663442735428927, ,0.03531582114446694, ,0.03188215182412816, ,0.0010182459403166191, ,0.2519155463572035,-0.18507529333079037,0.11560962365,1.6177579139831053,0.24362287908178032,-1.373443441732426, ,0.10371250443548719,0.0629707641396621,0.03325430379958247,0.0031498383463600104,0.13189751949996395,-0.07822508299600589, ,1.8261771202087402
0.024730675138588225,0.020122356698622893,-0.1044448001369846, ,0.025424218832212717,0.01971806941357038,-0.10503949405409523, ,0.000999055513407449, ,0.018006852002615308,-0.0011005721344253098,-0.028479871614984647,-0.02118880285752431,0.009023914485931669,0.00311218289997813, ,0.03371292133994283, ,0.023029929713580324, ,0.0010181188513966907, ,0.25302761989109185,-0.18441113830360706,0.11595184421000002,1.6177579139831053,0.24485260757966928,-1.374037809164991, ,0.10555833321298196,0.06390366434913858,0.03135592818897638,0.0031498383463600104,0.11611215048790734,-0.039952201000320015, ,1.831536054611206
0.024730675138588225,0.020122356698622893,-0.1044448001369846, ,0.025527409588539815,0.019714378148779223,-0.10520696219040404, ,0.0011756373916071035, ,0.018006852002615308,-0.0011005721344253098,-0.028479871614984647,-0.02118880285752431,0.009023914485931669,0.00311218289997813, ,0.03371292133994283, ,0.023029929713580324, ,0.0010191551575822856, ,0.25302761989109185,-0.18441113830360706,0.11595184421000002,1.6177579139831053,0.24485260757966928,-1.374037809164991, ,0.10555833321298196,0.06390366434913858,0.03135592818897638,0.0031498383463600104,0.11611215048790734,-0.039952201000320015, ,1.836806058883667
0.0249086902045001,0.020112913881420672,-0.10473677092703901, ,0.025630434257820047,0.01971104720012945,-0.10537467271398199, ,0.0010437097287176024, ,0.017817933268728006,-0.0008386731394007516,-0.029886432618518245,-0.00044530451292002215,0.008222373644788745,0.0018388005228119784, ,0.034804898696373585, ,0.008232975218136982, ,0.0010193156449753269, ,0.25403929789761526,-0.18377787420792066,0.11627202784000001,1.6177579139831053,0.2459456995777928,-1.374602437434, ,0.099368525192116,0.06339141052670058,0.03270803186858317,0.0031498383463600104,0.10898506170505357,-0.0601816079233059, ,1.8420741558074951
0.0249086902045001,0.020112913881420672,-0.10473677092703901, ,0.025733291620132093,0.01970808131067997,-0.1055426259143167, ,0.0012219898385482386, ,0.017817933268728006,-0.0008386731394007516,-0.029886432618518245,-0.00044530451292002215,0.008222373644788745,0.0018388005228119784, ,0.034804898696373585, ,0.008232975218136982, ,0.0010206317111673589, ,0.25403929789761526,-0.18377787420792066,0.11627202784000001,1.6177579139831053,0.2459456995777928,-1.374602437434, ,0.099368525192116,0.06339141052670058,0.03270803186858317,0.0031498383463600104,0.10898506170505357,-0.0601816079233059, ,1.8473260402679443
0.025091855676884642,0.020106717117691356,-0.10505247933334734, ,0.02583598048564135,0.01970548516537071,-0.10571082198998744, ,0.0010715054195486774, ,0.018288184630920083,-0.00043563930243107024,-0.03201485505464234,-0.027951882938288694,0.005801207686597434,0.0009181316402999368, ,0.03687273278272445, ,0.02854694621200697, ,0.0010209599286407865, ,0.2550355304383902,-0.18313688737936,0.11661684098000001,1.6177579139831053,0.24703879157591632,-1.375167065703009, ,0.09763059831118392,0.06301257739606293,0.034931604210526324,0.003132362910199173,0.10473363474059968,-0.03229476024879924, ,1.8526380062103271
0.025091855676884642,0.020106717117691356,-0.10505247933334734, ,0.02593849969445775,0.019703263391226942,-0.105879261049208, ,0.0012502595760768452, ,0.018288184630920083,-0.00043563930243107024,-0.03201485505464234,-0.027951882938288694,0.005801207686597434,0.0009181316402999368, ,0.03687273278272445, ,0.02854694621200697, ,0.0010224297981756333, ,0.2550355304383902,-0.18313688737936,0.11661684098000001,1.6177579139831053,0.24703879157591632,-1.375167065703009, ,0.09763059831118392,0.06301257739606293,0.034931604210526324,0.003132362910199173,0.10473363474059968,-0.03229476024879924, ,1.8579699993133545
0.025268679231364034,0.020105725444084697,-0.10535770918469027, ,0.026040848116493372,0.019701420557563784,-0.10604794311036868, ,0.0014338061526745383, ,0.01873459271375958,4.927872040790226e-05,-0.03204686838421379,0.00770233107389341,0.00047838876546598894,0.0017855003155483294, ,0.03689799315304327, ,0.007714982754654872, ,0.0010250500297329511, ,0.25599314931479406,-0.18256540514666741,0.11695128380000001,1.6177579139831053,0.24813188357403987,-1.3758950514522994, ,0.10073985303447004,0.058542221812751864,0.03516293933774835,0.0029640697544306674,0.1025051132315382,-0.06365103120319593, ,1.86509108543396
0.025460363151074323,0.020102557094127498,-0.10568568247719215, ,0.026143024651320602,0.019699961176190318,-0.10621686810257736, ,0.0009540798528813264, ,0.018046886257802295,-0.0006803857845973883,-0.029981290045917427,-0.06612310567140298,-0.027579446566439077,-0.0069044699122851605, ,0.03500043972917145, ,0.07164402802902312, ,0.0010246008513984473, ,0.25701255005419166,-0.181932141050981,0.11731035613000002,1.61796760392659,0.24908833907239794,-1.376184904337331, ,0.09604953599035504,0.06102697206332526,0.03284291035051547,0.004443819156728248,0.0688753780090356,0.008188532124310047, ,1.8703949451446533
0.025460363151074323,0.020102557094127498,-0.10568568247719215, ,0.02624502822802977,0.019698889701614004,-0.10638603586620182, ,0.0011265618120056586, ,0.018046886257802295,-0.0006803857845973883,-0.029981290045917427,-0.06612310567140298,-0.027579446566439077,-0.0069044699122851605, ,0.03500043972917145, ,0.07164402802902312, ,0.0010252421153016372, ,0.25701255005419166,-0.181932141050981,0.11731035613000002,1.61796760392659,0.24908833907239794,-1.376184904337331, ,0.09604953599035504,0.06102697206332526,0.03284291035051547,0.004443819156728248,0.0688753780090356,0.008188532124310047, ,1.875683069229126
0.02564587129724616,0.02009571231821963,-0.1059877984796921, ,0.026346857805086856,0.019698210531245056,-0.10655544615341074, ,0.0009857046394842928, ,0.017796732686646142,-0.0008489900873015836,-0.02848913162279704,-0.02414051931376327,-0.022764790355344924,-0.004257721615627656, ,0.03360171274071204, ,0.03318104256362254, ,0.0010249950060777788, ,0.2580087825949666,-0.18131432242104303,0.11764220637000002,1.6181772938700745,0.24977152157122512,-1.3764152788952508, ,0.09723047290826925,0.05972117152830131,0.03135592818897638,0.0033150746496885416,0.07520233675548225,-0.032784461848294824, ,1.8809750080108643
0.02564587129724616,0.02009571231821963,-0.1059877984796921, ,0.02644851237019157,0.0196979280056007,-0.10672509862871668, ,0.0011602053960813755, ,0.017796732686646142,-0.0008489900873015836,-0.02848913162279704,-0.02414051931376327,-0.022764790355344924,-0.004257721615627656, ,0.03360171274071204, ,0.03318104256362254, ,0.0010258348221647577, ,0.2580087825949666,-0.18131432242104303,0.11764220637000002,1.6181772938700745,0.24977152157122512,-1.3764152788952508, ,0.09723047290826925,0.05972117152830131,0.03135592818897638,0.0033150746496885416,0.07520233675548225,-0.032784461848294824, ,1.8862850666046143
0.025819531714746474,0.020089479372368685,-0.10626374346042847, ,0.02654999094013484,0.019698046408509518,-0.10689499286951673, ,0.0010417611346296362, ,0.0175246005865807,-0.0006284084065275313,-0.027751645707259125,-0.01711629341795458,-0.002659398424113962,0.015123303724490805, ,0.03282773769704231, ,0.017321184711837096, ,0.0010259331327355287, ,0.2589664014713705,-0.18075056292122466,0.11794683452000002,1.618386983813559,0.2505913405698178,-1.3766753926167266, ,0.09793286022546002,0.055986396199687774,0.030691351676300584,-0.011456717254169994,0.09908793333829632,-0.03988945743760278, ,1.891638994216919
