NicholasDascanio/dvrk_moveit_final/test/execution/third_experiment_notsharpbends/thirdexp_200vel4.0/thirdexp_200vel4.0_17.csv
Current Position (x),Current Position (y),Current Position (z), ,Planned Position (x),Planned Position (y),Planned Position (z), ,Position Error,,Cartesian linear Velocity(x),Cartesian linear Velocity(y),Cartesian linear Velocity(z),Cartesian Angular Velocity(x),Cartesian Angular Velocity(y),Cartesian Angular Velocity(z), ,Total Linear Velocity, ,Total Angular Velocity, ,MSE, ,Joint 1 Position,Joint 2 Position,Joint 3 Position,Joint 4 Position,Joint 5 Position,Joint 6 Position, ,Joint 1 Velocity,Joint 2 Velocity,Joint 3 Velocity,Joint 4 Velocity,Joint 5 Velocity,Joint 6 Velocity, ,Time Stamp
0.009878231501779291,0.020392392814474167,-0.07768421392585989, ,0.010060863495559982,0.020330364110782918,-0.07794786446705768, ,0.0003266704962310065, ,0.0019602936820234773,0.0006633146212686292,-0.0033139108464481175,0.2602426590155955,-0.15602870342842073,-0.14007422441608727, ,0.003907011991890527, ,0.30343236126797996, ,2.7222541352583876e-05, ,0.18139154974978527,-0.24783022066673874,0.08840568171,1.7068761399640284,0.49694694964690694,-1.2794344714683223, ,0.0004903337939482016,0.0009255206154686328,0.002956349576837417,0.002037951390760162,-0.16286413192682878,-0.29132823259584617, ,0.0527188777923584
0.009994429831054835,0.02044159290569659,-0.07801494139469534, ,0.010130452107573778,0.020341858701103093,-0.0782685883121869, ,0.0003046075015955217, ,0.001299004594474859,0.00048737674723492143,-0.005251315552954036,-0.09772036772654787,-0.03238659523226137,0.025499768206188118, ,0.005431506611144742, ,0.10294737400903771, ,2.8694454446660374e-05, ,0.18145333161277907,-0.2474672522216502,0.08872586534000002,1.7066664500205435,0.49066167065769667,-1.2882763124623229, ,0.0011433576768523723,0.00967293351335938,0.005212307434554975,-0.007183183818908093,-0.03073087718798053,0.08888800672000566, ,0.10543704032897949
0.01003435534493422,0.0204562060302929,-0.07828070365231526, ,0.010201121134547955,0.020352872593419922,-0.07858898265963615, ,0.00036541014506472985, ,0.0009034870687304228,0.0003514012634799316,-0.006245302855498057,0.040781399682731846,0.02234533683470234,-0.008895320624716088, ,0.006320093313253419, ,0.04650200671839942, ,3.114650446535181e-05, ,0.18145333161277907,-0.24681854266021533,0.08899419737000001,1.7066664500205435,0.49175476265582013,-1.2854104336454286, ,-0.0005324201902319447,0.0147515842621593,0.0062984624436536185,-0.006065151947633381,0.02427136762453305,-0.057214897395588035, ,0.15785694122314453
0.010098261518297975,0.020474774630889224,-0.07861681543406977, ,0.010272856533174782,0.02036341309378868,-0.07890902020922774, ,0.00035814583871706307, ,0.001473659872130275,0.0005444732033392623,-0.007467289489158634,0.005651016855959685,0.002405509272426615,0.0014631773407603112, ,0.007630762530886448, ,0.006141697090267343, ,3.304473125873954e-05, ,0.18148422254427599,-0.24603854663991864,0.08932993648000001,1.7062470701335748,0.49175476265582013,-1.2864722572672558, ,0.002098139346756921,0.015742691034915525,0.007527793724007564,-0.01043154256187754,0.0073412409336220535,-0.023554920612598684, ,0.2051839828491211
0.01015834315951884,0.020489683979832248,-0.07889041383179606, ,0.0103456443533336,0.020373487477593547,-0.07922867392399909, ,0.00040373661502784844, ,0.0012702827602422075,0.00023841567313186892,-0.005797017040767336,-0.004121028066633233,-0.003411344532605808,-0.003000564569342516, ,0.005939349029574737, ,0.005349779182303852, ,3.5171411932723385e-05, ,0.18162323173601203,-0.24540528254423224,0.08960474996000001,1.7058276902466056,0.4918913991555856,-1.2869103901315144, ,0.00257168515699288,0.014536908939716727,0.00579229509818182,-0.003439129340353024,0.0,-0.011382478581387847, ,0.25200605392456055
0.010225796493580372,0.020506035715474234,-0.07922947243966534, ,0.010419470737830177,0.02038310298958531,-0.07954791702937569, ,0.00039246544395145, ,0.0016195531555448573,0.0005441264573487631,-0.007821813755256738,-0.0034780036587611883,-0.00331176814110147,0.0011671393934816923, ,0.008006234848363226, ,0.00480252937451132, ,3.6458237976061345e-05, ,0.1817159045305027,-0.24458667285956445,0.08994437794000001,1.705618000303121,0.4921646721551165,-1.2877049771198912, ,0.0024529169372144114,0.016587474490206394,0.007866079762962965,-0.009068200831195179,0.001398697400202408,-0.01510296278812703, ,0.30312085151672363
0.010285507120175567,0.020515298889749754,-0.07953356873805173, ,0.010494321922135744,0.020392266843920655,-0.07986672301234116, ,0.00041198577195805696, ,0.0009901741910310245,-0.0001011653068623744,-0.005309755464365379,-0.001540546547626951,0.004090848676833589,0.004092176129063221, ,0.00540223865071273, ,0.004371306708705295, ,3.7691497243318774e-05, ,0.18179313185924495,-0.24380667683926777,0.0902477098,1.7051986204161522,0.49243794515464734,-1.2883362066279869, ,0.0010533510483198801,0.01649234298895912,0.005238017599473858,-0.010857044143794615,0.00808254095377033,-0.016758314812251346, ,0.35051703453063965
0.0103478208736753,0.02053427294132809,-0.07983801597883458, ,0.010570184234126223,0.020400986224201483,-0.08018506562060848, ,0.0004331907973270072, ,0.0016869116761204853,0.0005083336164448738,-0.008090561038418358,0.011433093796463895,-0.0003942954841917442,-0.008148622788430007, ,0.008280172219526155, ,0.0114398893361097, ,3.9423850129903734e-05, ,0.18188580465373566,-0.24313479907921023,0.09055363424000001,1.7049889304726675,0.4925745816544128,-1.2891827331929484, ,0.0028217093843100373,0.01781767584650221,0.008135245924412667,-0.004308279078390782,0.0036203694829839046,-0.031039685907500596, ,0.39267492294311523
0.010414368428355088,0.020551656380589176,-0.08015115129714516, ,0.010647044093821242,0.020409268283513516,-0.08050291886179156, ,0.0004451435218288658, ,0.0016768673026786108,0.0003406804621288517,-0.007650049175887802,-0.012826673287884033,0.0009288408702003601,0.007707522618051324, ,0.007839081548342931, ,0.012860259204039211, ,4.09685253773994e-05, ,0.1820248138454717,-0.24243203038765582,0.09086863271000001,1.7045695505856984,0.4928478546539437,-1.2900589989214657, ,0.004160268062460862,0.018054973660287438,0.007687650347490348,-0.011504855175402999,0.008163767957435585,-0.006581721236005958, ,0.43456482887268066
0.010497843010807941,0.02056129619489589,-0.08051328270315884, ,0.010724888013123034,0.02041712014446482,-0.08082025700257588, ,0.0004081291304192125, ,0.0016224218237888119,0.00019545344789852364,-0.007266177552659488,0.0009971003996888975,0.0037460526264449876,0.006103935528732888, ,0.007447670162633028, ,0.0038764802633650293, ,4.1842231110008284e-05, ,0.18227194129744687,-0.24149757970987465,0.09123159391,1.7041501706987296,0.49325776415324,-1.2907199675931171, ,0.004733137717759484,0.018394444961905558,0.007293411868131869,-0.013849820560025745,0.012263270608864767,-0.02159389279486094, ,0.4777548313140869
0.010570059544192436,0.020570497735711925,-0.08081876116569157, ,0.010803702595555336,0.020424548899224976,-0.08113705456788867, ,0.00042095228732513275, ,0.0019850506724836017,0.0003861899183784784,-0.008352824102786482,-0.0019501675988837525,-0.004171693992877227,0.00011096340193933499, ,0.008594139824175284, ,0.004605012896182701, ,4.2704375494458955e-05, ,0.18248045508505095,-0.2407330291553264,0.09153751835000001,1.7037307908117605,0.49339440065300544,-1.2910764217172352, ,0.005816179354228534,0.01940632751706969,0.008454783184713377,-0.009259703206404358,0.004026538321073992,-0.019561254846805126, ,0.5200510025024414
0.01062098324919139,0.020579817189705356,-0.08106120133345343, ,0.010883474536002248,0.02043156160956438,-0.08145328634007183, ,0.0004945826979479863, ,0.0016138381913810799,0.00022928628649248546,-0.007936303636347059,0.0028470985269300948,0.0039584285397990596,0.0031729758797600072, ,0.00810197268061484, ,0.004875971189684829, ,4.453289950835403e-05, ,0.1825962960781643,-0.24014610145688536,0.09178122087000001,1.703521100868276,0.4938043101523018,-1.2919824266093085, ,0.0028717666214964823,0.0196799961755435,0.007940584007976072,-0.012688687961451258,0.010240681365857018,-0.02486353064845114, ,0.556790828704834
0.010698550883605695,0.020597045370305905,-0.08140983854137755, ,0.010964190620446884,0.020438165306892755,-0.08176892735805105, ,0.0004740802913001099, ,0.002048742012767197,0.0005438732971892233,-0.009409986478899197,-0.006623775672587216,0.001531240659680593,0.007917641929160326, ,0.009645775631401477, ,0.006798457791112568, ,4.595702226924554e-05, ,0.18279708713289414,-0.23935838270371446,0.09213251546000001,1.7031017209813069,0.49421421965159806,-1.2925617165408194, ,0.004795648647999209,0.020071265135040352,0.009492736305125149,-0.014655111660759413,0.010183914718099596,-0.015646252839598484, ,0.5944998264312744
0.010777735459990093,0.020609975793939826,-0.0817423322971169, ,0.011045837725710047,0.020444366992297586,-0.08208395291650762, ,0.00046476848823737046, ,0.0019316519159825567,0.00017489885896512032,-0.007727030155394987,-0.0015982375086467493,0.006051897658178888,0.0024190898698221493, ,0.007966734824115201, ,0.0062593770339253035, ,4.713941344571374e-05, ,0.1830364918519951,-0.23856294121766933,0.09246695828000001,1.7028920310378222,0.494487492651129,-1.293192946048915, ,0.007610943186179288,0.019819745521819296,0.007792960626223093,-0.008366093499794324,0.016247075021457426,-0.01896588544058582, ,0.6317169666290283
0.010861039055064699,0.020615884633982142,-0.08207082400147594, ,0.011128402819188825,0.020450173636584006,-0.08239833856504909, ,0.0004541027487010134, ,0.002416310925404322,0.00020795828466885457,-0.008768122240063183,-0.006156648574388916,-0.004596570992322595,0.004672424485000921, ,0.009097349765348218, ,0.00768327630192629, ,4.810915449712793e-05, ,0.18336084663271254,-0.23772116333437887,0.09279751223,1.7022629612073688,0.49503403865019074,-1.2942103688446849, ,0.01035871884006493,0.022022961605586165,0.008839518046614873,-0.012710384526725878,0.009091487660362274,-0.01791655390461494, ,0.6687719821929932
0.010933247590295844,0.02062496571353493,-0.08233508215033564, ,0.011211872958595232,0.0204555921803133,-0.08271206010737994, ,0.0004984294029381161, ,0.002556192284604049,0.0001471052572178442,-0.00916963948233569,0.001993798980727387,-0.0026493636366723694,-0.001678065153549907, ,0.009520401629583699, ,0.0033157649535315603, ,4.9674635660973815e-05, ,0.18366203321480729,-0.237072453772944,0.09306454797000001,1.7022629612073688,0.49530731164972164,-1.2946782408724993, ,0.011239718294263979,0.023927620160986075,0.009239449837587009,-0.009167323285495532,0.011162515543898853,-0.027651052259571658, ,0.7003848552703857
0.011017022077724276,0.020640991389414803,-0.08264848533939038, ,0.011296235291694372,0.02046062953384122,-0.08302509360047308, ,0.0005023188231762675, ,0.0029010179442434023,0.0005863851147886387,-0.01104888352144399,0.006764746351426209,-0.006335412902726729,-0.003416339456639947, ,0.01143842557724202, ,0.009268175936272743, ,5.113371429819113e-05, ,0.18399411072839894,-0.23640057601288647,0.09338213902,1.7016338913769151,0.49558058464925253,-1.2955545066010166, ,0.010717031143839654,0.023903511727574503,0.011185963146067417,-0.01032130950179704,0.007060712908062167,-0.033259167474775066, ,0.7322030067443848
0.011102341286960688,0.02065548473904685,-0.08297410625486319, ,0.011381477056043122,0.020465292577357692,-0.08333741535373981, ,0.0004960678756740649, ,0.0024460968097650294,3.123195403394675e-05,-0.009004563259995574,0.001115918564912449,-0.005072076367732407,-0.004605672554013549, ,0.009330944461358535, ,0.005193377872327046, ,5.243005395493715e-05, ,0.18431074277624215,-0.2356514709240867,0.09371139668,1.7016338913769151,0.49585385764878337,-1.2961857361091123, ,0.009698256023642823,0.024464279855238663,0.009024822390934847,-0.007334918853838272,0.006589165768325784,-0.02735810623426984, ,0.7638218402862549
0.011176243445657187,0.020650251631302834,-0.08323770854220269, ,0.011467585578728453,0.020469588160925947,-0.0836490019282019, ,0.0005354267245831426, ,0.0023748490578332534,-0.00013401056112642896,-0.008459175303453454,0.0060034174632093784,0.007661355801180149,0.003643314471446153, ,0.008787235839132905, ,0.00973331139102535, ,5.388299080265767e-05, ,0.18465826575558225,-0.23489464310241268,0.09397583984,1.7007951316029768,0.4964004036478451,-1.2970398014246007, ,0.011596261121346312,0.024571968295823608,0.00851808102673797,-0.013298718036061726,0.0231799160881023,-0.03227192419388132, ,0.7958128452301025
0.011245845743854847,0.020656738316653395,-0.08349655294420817, ,0.01155454827610536,0.020473523104519747,-0.08395983013566091, ,0.000586080901834718, ,0.002848181230831805,0.0007035889074596491,-0.011358539995589763,-0.0055233355306948135,0.009450860689804781,-0.033078131314571727, ,0.011731308729454491, ,0.010946497800534897, ,5.589997136202983e-05, ,0.1849208386733059,-0.23426137900672628,0.09423639413000001,1.7005854416594925,0.4965370401476106,-1.2973145768085783, ,0.00945979945707682,0.024881211735309595,0.01153425888486604,0.028622013457232094,0.012719602206722472,-0.013446967330645007, ,0.8219249248504639
0.011320138142667982,0.020676812468226564,-0.08379485351696404, ,0.011642352653535533,0.020477104198064363,-0.08426987703787048, ,0.0006077441316863037, ,0.003135547568856226,0.0010418880940509373,-0.013001735611142083,0.026008175230707354,0.030397348893707727,-0.008181342167420457, ,0.013415003475926703, ,0.040005294987739484, ,5.792617058966041e-05, ,0.18519885705677797,-0.23365128310966254,0.09454102228000001,1.7007951316029768,0.4972202226464378,-1.2982800600277633, ,0.01233228610246534,0.02425790939633711,0.013363096912751681,-0.0009080216660127963,0.04453526876545159,-0.04881428447254956, ,0.8479418754577637
0.011426847765384258,0.020697280711881823,-0.08418363892587899, ,0.0117309863051252,0.02048033820147359,-0.08457911994570601, ,0.0005440308274550235, ,0.0035450003746495327,0.0005785154857026059,-0.012501793297002498,-0.009466891939973384,-0.017788315054678667,0.0041036088505464535, ,0.013007557167448452, ,0.020150580390968603, ,5.944952373041923e-05, ,0.18560816189911186,-0.2328481188907432,0.09493509444,1.7001660617725234,0.4973568591462032,-1.298881550372303, ,0.013980103352750557,0.026776789378801007,0.012651955138999207,-0.01648281209130579,0.0,-0.020917646269774874, ,0.8742320537567139
0.011486694062000431,0.02070799988227249,-0.08440248847524744, ,0.011820436913463435,0.020483231844690135,-0.08488753641833655, ,0.0006302193814190857, ,0.0034652624962904256,0.0002813488782772261,-0.011929980061474202,0.0007347272158312328,-0.009744062811074814,0.0012948027644572046, ,0.012426247447507104, ,0.00977171133892596, ,6.174438505496548e-05, ,0.18586301208396128,-0.23236930945254128,0.09515805632,1.7001660617725234,0.49776676864549957,-1.2996241977840952, ,0.01507736599276625,0.02857480926180993,0.012058146495079488,-0.01541166452974054,0.00921660916167355,-0.03253391356056932, ,0.8991830348968506
0.011555343902029901,0.020711098467524693,-0.08463922389534022, ,0.011910692249360052,0.0204857918277231,-0.08519510426239474, ,0.0006971646235758252, ,0.0028125529775960773,-0.0001909441350494786,-0.009353099642090804,0.005994292474369219,0.0028934708177953327,0.0023438792432764043, ,0.009768694223353164, ,0.006656098261294054, ,6.431688267414241e-05, ,0.18632637605641475,-0.23144258150763433,0.09551194349000001,1.6997466818855542,0.49790340514526504,-1.300225688128635, ,0.01666612953257302,0.03417246725188001,0.013329549389121339,-0.012716898885688879,0.016545108639708872,-0.034648191222266894, ,0.920557975769043
0.011669929596577568,0.02071861829494484,-0.08503781769177572, ,0.01200174017158375,0.02048802482068788,-0.08550180153114799, ,0.0006152662929613962, ,0.004030893670668853,0.0008306323497127345,-0.015180801710761282,0.05013805168886556,0.03222227656257154,0.007235870427269986, ,0.01572878871579373, ,0.05959948429116755, ,6.631687575942076e-05, ,0.1866893445015033,-0.23081704014482216,0.09580101616000002,1.6991176120551008,0.49872322414385767,-1.3014659467317975, ,0.01899458397887726,0.030641569763794244,0.015601186601371206,-0.02659405291428726,0.0593480403849138,-0.08456808431575936, ,0.9416449069976807
0.01176333155992175,0.020737459508000145,-0.0853733861000347, ,0.012093568626600019,0.020489937463844324,-0.08580760652366937, ,0.0005990584769893627, ,0.004564064802720768,0.0008783551469393416,-0.0171175284996455,-0.0001603601438062044,-0.00485159114313213,0.007218049419329846, ,0.0177373046775367, ,0.00485408924258841, ,6.814087015259934e-05, ,0.18704459021371764,-0.23012971691901615,0.09614194043,1.6991176120551008,0.49885986064362303,-1.3019857583361967, ,0.016909647462307692,0.0347735220075012,0.017389532227074237,-0.022681506410697556,0.017856400555927562,-0.03866430759728999, ,0.9627690315246582
0.011810157931921715,0.020747186015479726,-0.0855420058156696, ,0.012186165648309094,0.020491536367635507,-0.08611249778400852, ,0.0007295201376006939, ,0.004775173606235084,0.0009721013959843854,-0.01712261375919516,-0.002899152684550579,-0.010507323305943672,0.004478003705558831, ,0.01780256065964496, ,0.01089988337271878, ,7.096397513723857e-05, ,0.18721449033695056,-0.22978991667255028,0.09631305071000001,1.6991176120551008,0.49885986064362303,-1.3021491158164777, ,0.018784034354408306,0.033807246725497245,0.017427583719912477,-0.019462534389640403,0.013177137027291213,-0.034568373553947644, ,0.9786338806152344
0.01190915484970181,0.020759074522620796,-0.08589516610114971, ,0.012279519357783783,0.020492828112726715,-0.08641645410036246, ,0.0006926746694888734, ,0.005083591961772422,0.0005251151709461573,-0.01757500052879781,0.05385041631402593,0.025587258054881445,-0.006990419952547497, ,0.01830298600676399, ,0.05962024350150292, ,7.350250817468384e-05, ,0.18765468611078137,-0.2290408115837505,0.09666045643000001,1.6984885422246472,0.49981631614198113,-1.3037458285437584, ,0.025191648940395744,0.03944178784641346,0.018080376299659483,-0.018545519272037257,0.056862620630851866,-0.09799095235680283, ,0.9942460060119629
0.011964131532679455,0.02076357057378084,-0.08607673684863926, ,0.012373617963007427,0.02049381925004435,-0.08671945450424606, ,0.0008084125791383029, ,0.005387881435148847,0.0005974561522609206,-0.018041199573142624,0.005268411931936565,-0.0076592645024065095,0.022946975828885482, ,0.01883802277976799, ,0.009296159729175513, ,7.65645136674664e-05, ,0.187917259028505,-0.22860061580991972,0.09685749251,1.698069162337678,0.4999529526417466,-1.3041022826678765, ,0.024946619757747313,0.039052239324473575,0.018372331626297582,-0.0418603083914396,0.02770546631415741,-0.05169178287094497, ,1.0104119777679443
0.012073137861766243,0.020774329714141632,-0.08644891097165586, ,0.01246844975861161,0.0204945163008143,-0.08702147826966354, ,0.0007499335655997766, ,0.005689675333598704,0.0005331374148105467,-0.020119857331691412,-0.03105147449231187,-0.018078291438824952,0.017726253650071532, ,0.020915671157112053, ,0.03593070264344618, ,7.923241122950424e-05, ,0.18837290026808423,-0.2277433924608808,0.0972347129,1.698069162337678,0.5002262256412775,-1.3046518334358317, ,0.02212049919777874,0.045081682450579946,0.020343309731800766,-0.030782322415241082,0.011379857371509502,-0.018905083574969152, ,1.0266239643096924
0.012127303458134776,0.020780940226458988,-0.08664444154343927, ,0.012564003125614141,0.020494925756601116,-0.08732250491227886, ,0.0008557340759294109, ,0.005523601166952391,0.0005227389929944289,-0.019939039981437912,0.042886768545084976,0.039508127248767295,0.004364378513446238, ,0.020696587672554483, ,0.05831092422021888, ,8.277184906437938e-05, ,0.1886123049871852,-0.22730319668704999,0.09743434156000001,1.698069162337678,0.5007727716403392,-1.3053425412710389, ,0.026156819613690954,0.04540523519544056,0.020395405275288096,-0.025121693133437657,0.07383336912900551,-0.09076704365663164, ,1.037194013595581
0.012190059302671405,0.020785743099807043,-0.08686123371354568, ,0.012660266531156277,0.020495054079345404,-0.08762251418858666, ,0.0009408203367354444, ,0.006527166938055669,0.0007826617975894252,-0.022630546027906966,0.00687912536765144,0.009336340718867686,-0.017971071114535504, ,0.02356603660456863, ,0.011596710227415112, ,8.66677115699406e-05, ,0.18889032337065728,-0.2268012190502254,0.09765471086000001,1.6978594723941938,0.5011826811396356,-1.3062485461631121, ,0.028184419827285645,0.05023660220141386,0.023051825643994214,0.0,0.03883446838848226,-0.05597784112583904, ,1.0476739406585693
0.0122640039863278,0.02079456263679166,-0.08710748593666542, ,0.012757228528241247,0.020494907701404923,-0.08792148609508356, ,0.0009978275336710786, ,0.007925142526072121,0.0015555081191233253,-0.02618866470327119,-0.01993925957958478,-0.03202577288795349,0.0015587015186840764, ,0.027405722915252166, ,0.03772548055226077, ,9.076966236860328e-05, ,0.1892069554185005,-0.22629151868052658,0.09790489483,1.6972304025637401,0.501319317639401,-1.3063599640668084, ,0.033215590324981024,0.049528675134901244,0.026726193825503362,-0.021156278233849402,0.006138680938955396,-0.03386899040120436, ,1.0580899715423584
0.012340550341896284,0.02080904694649231,-0.08737156439532472, ,0.012854877755471188,0.020494493025590445,-0.08821940086743826, ,0.001040338185858489, ,0.008288889994245794,0.0012261696645301245,-0.027789575864585567,-0.010649240061867835,-0.034627107124389926,0.04477362212110159, ,0.029025328871805717, ,0.03622742453413367, ,9.500019863028448e-05, ,0.18952358746634368,-0.225789541043702,0.09817452315000001,1.696811022676771,0.5015925906389319,-1.306827836094623, ,0.034952832986545404,0.054475856233335694,0.028292738046181175,-0.07254196029781017,0.0171191785832334,-0.057825909858796015, ,1.0686779022216797
0.012423931396272887,0.020827969527024814,-0.08767027263994731, ,0.012953202936785332,0.020493816425206784,-0.08851623897966338, ,0.0010523524632857677, ,0.008177363928556641,0.0018041632438050427,-0.030098261948331904,0.04853207404694498,0.041721802989975056,0.016403918764020347, ,0.031241473366996644, ,0.06400036215097565, ,9.920679407430983e-05, ,0.18988655591143225,-0.2252257815438836,0.09848174388000001,1.696811022676771,0.5024124096375245,-1.3080680946977856, ,0.03454566492845678,0.055625405368388496,0.03092973110679612,-0.04304063639921531,0.08888589926684803,-0.11029146142389035, ,1.0792438983917236
0.012518352027585946,0.02084936781525081,-0.08800070998216665, ,0.013052192881197498,0.02049288424408999,-0.08881198114328563, ,0.0010345179990486491, ,0.008945764448971669,0.0016035469491880794,-0.03111364739578819,0.0015018854669981397,-0.015057369965805666,0.00270841259653469, ,0.03241384146725243, ,0.015131123304351419, ,0.00010324594581778823, ,0.1902186334250239,-0.22470063570843635,0.09877600171,1.696811022676771,0.5028223191368209,-1.308729063369437, ,0.035369713588695784,0.05949651508368074,0.03204992257545272,-0.031512924527011675,0.031161644780264213,-0.0731734612385675, ,1.0897648334503174
0.012607775815657222,0.020864844532656125,-0.08829672201390434, ,0.013151836482533432,0.020491702796646027,-0.08910660830651708, ,0.0010445824866215287, ,0.009812460595982286,0.001588732375625869,-0.030973105106166406,-0.03729863948713757,-0.04227258662270976,-0.019203781460111695, ,0.03252908995694005, ,0.05637491979763388, ,0.00010777160226396007, ,0.19063566100023202,-0.22404420341412726,0.09912211114000001,1.6966013327332867,0.5029589556365863,-1.3090038387534144, ,0.04227035258729211,0.06098775164426143,0.03160478476190477,0.0,0.0,-0.02384386108662162, ,1.0950169563293457
0.012607775815657222,0.020864844532656125,-0.08829672201390434, ,0.013252122719169047,0.020490278367890632,-0.08940010165342617, ,0.0013315139401312035, ,0.009812460595982286,0.001588732375625869,-0.030973105106166406,-0.03729863948713757,-0.04227258662270976,-0.019203781460111695, ,0.03252908995694005, ,0.05637491979763388, ,0.0006089232618214077, ,0.19063566100023202,-0.22404420341412726,0.09912211114000001,1.6966013327332867,0.5029589556365863,-1.3090038387534144, ,0.04227035258729211,0.06098775164426143,0.03160478476190477,0.0,0.0,-0.02384386108662162, ,1.100348949432373
0.012706762344023884,0.02087838595651075,-0.088622296239754, ,0.013353040653767344,0.02048861721348609,-0.08969244260310812, ,0.0013095069933696157, ,0.010522379341987534,0.0016306868516539048,-0.03454680924697736,0.03020613457150232,0.004260435246635409,-0.01593568934354705, ,0.03615054129293064, ,0.030504305692634775, ,0.0006264378551101128, ,0.19108357950693705,-0.22338777111981817,0.09945525767,1.6961819528463176,0.503505501635648,-1.3100212615491842, ,0.04730655112585781,0.06866638318268507,0.03539735893333334,-0.0166694320285281,0.0571084801366076,-0.10144077132741816, ,1.1057460308074951
0.012706762344023884,0.02087838595651075,-0.088622296239754, ,0.013454579433016357,0.020486725559780927,-0.08998361280885671, ,0.0016018149288445627, ,0.010522379341987534,0.0016306868516539048,-0.03454680924697736,0.03020613457150232,0.004260435246635409,-0.01593568934354705, ,0.03615054129293064, ,0.030504305692634775, ,0.0006502275398353434, ,0.19108357950693705,-0.22338777111981817,0.09945525767,1.6961819528463176,0.503505501635648,-1.3100212615491842, ,0.04730655112585781,0.06866638318268507,0.03539735893333334,-0.0166694320285281,0.0571084801366076,-0.10144077132741816, ,1.1111948490142822
0.012817964475637485,0.02089418744708149,-0.0890009804450251, ,0.01355672828736675,0.020484609603848312,-0.09027359415733457, ,0.0015274395699818746, ,0.012481458807732571,0.0020718313973167105,-0.04278827218474344,0.06960716324380077,0.012275416562275272,0.056803325552457505, ,0.044619676554898076, ,0.0706802631715034, ,0.000671113540553118, ,0.19160100260951007,-0.22265411149676684,0.09984414467000001,1.695133503128895,0.5045985936337716,-1.31156603469988, ,0.05422682374769759,0.07901493884968425,0.043284813913043486,-0.1085965945444329,0.0936934371861796,-0.1681489531909518, ,1.1172678470611572
0.012956368135625425,0.02092512253838559,-0.08947337248767748, ,0.013659476530769172,0.02048227551352447,-0.09056236876774443, ,0.0013698130532118669, ,0.014335473837517963,0.0038421846937812063,-0.04965905188165365,0.048664506320199134,0.031427791407622335,8.67719960401366e-05, ,0.05182942819626758, ,0.0579278711714738, ,0.0006873623664289028, ,0.19219565304082536,-0.22182777907922482,0.10033025342000002,1.6947141232419258,0.5055550491321297,-1.3132444261673013, ,0.05994753099082172,0.08055767534674939,0.051218043472668826,-0.03544829043148061,0.1023050953890061,-0.1332617264015259, ,1.1225390434265137
0.012956368135625425,0.02092512253838559,-0.08947337248767748, ,0.013762813560411905,0.020479729427447118,-0.09084991899100048, ,0.0016563844729534493, ,0.014335473837517963,0.0038421846937812063,-0.04965905188165365,0.048664506320199134,0.031427791407622335,8.67719960401366e-05, ,0.05182942819626758, ,0.0579278711714738, ,0.0007093855961226424, ,0.19219565304082536,-0.22182777907922482,0.10033025342000002,1.6947141232419258,0.5055550491321297,-1.3132444261673013, ,0.05994753099082172,0.08055767534674939,0.051218043472668826,-0.03544829043148061,0.1023050953890061,-0.1332617264015259, ,1.1277799606323242
0.01310591717214087,0.02096541589444595,-0.08999554421051685, ,0.013866728856458309,0.020476977455093914,-0.09113622740889811, ,0.0014555290059287346, ,0.016013298381156785,0.004352908307658352,-0.055651447420404544,0.033456379127931514,0.02410005448229735,-0.05419136929589716, ,0.058072860578456884, ,0.04122630380946385, ,0.000725966560785, ,0.19279802620501488,-0.22097827846306012,0.10086821377,1.6945044332984414,0.5065115046304878,-1.3145144239340196, ,0.06292900633850848,0.09124705919083728,0.057297883165467633,0.01954610297690461,0.08533030696504881,-0.11889306180889112, ,1.1330108642578125
0.01310591717214087,0.02096541589444595,-0.08999554421051685, ,0.013971211981784595,0.020474025676821283,-0.09142127683328675, ,0.0017386526292517256, ,0.016013298381156785,0.004352908307658352,-0.055651447420404544,0.033456379127931514,0.02410005448229735,-0.05419136929589716, ,0.058072860578456884, ,0.04122630380946385, ,0.0007479814753168855, ,0.19279802620501488,-0.22097827846306012,0.10086821377,1.6945044332984414,0.5065115046304878,-1.3145144239340196, ,0.06292900633850848,0.09124705919083728,0.057297883165467633,0.01954610297690461,0.08533030696504881,-0.11889306180889112, ,1.1383709907531738
0.013281105087846103,0.02101166895426666,-0.09059491775437271, ,0.014076252581716969,0.020470880143902546,-0.09170505030523943, ,0.0014687090776998645, ,0.01763593780467841,0.004476663528550624,-0.06000953735868993,0.005479357309855284,0.0007228966330370503,-0.021102980075139218, ,0.0627073471979348, ,0.005455980008556692, ,0.0007633161051548212, ,0.1934930721636951,-0.22000521412090784,0.10148524781000001,1.6945044332984414,0.5073313236290804,-1.315754682537182, ,0.06967470011635153,0.09773114475640657,0.06173957953488373,-0.013648925222892011,0.07568460170088412,-0.10342962510696464, ,1.1439809799194336
0.013281105087846103,0.02101166895426666,-0.09059491775437271, ,0.014181840383769382,0.020467546878566324,-0.09198753109422433, ,0.0017454984448343465, ,0.01763593780467841,0.004476663528550624,-0.06000953735868993,0.005479357309855284,0.0007228966330370503,-0.021102980075139218, ,0.0627073471979348, ,0.005455980008556692, ,0.000783778237231478, ,0.1934930721636951,-0.22000521412090784,0.10148524781000001,1.6945044332984414,0.5073313236290804,-1.315754682537182, ,0.06967470011635153,0.09773114475640657,0.06173957953488373,-0.013648925222892011,0.07568460170088412,-0.10342962510696464, ,1.1492500305175781
0.013463273801638295,0.02105041354094271,-0.0912055566683017, ,0.014287965197380894,0.020464031874035067,-0.09226870269727604, ,0.0014677325493499035, ,0.018570610456208458,0.0032347262184020146,-0.06056376596197208,-0.01702443940575366,-0.014029775052783886,0.07749085393607244, ,0.06342949451099845, ,0.02204203484434601, ,0.000797736488499201, ,0.19423445451962065,-0.21897809064863596,0.10211265217000001,1.6936656735245033,0.508151142627673,-1.3169132624002038, ,0.07961152815307952,0.10626757173400983,0.06222192000000001,-0.1154047137959216,0.09344424149049503,-0.10733722602038814, ,1.1545429229736328
0.013463273801638295,0.02105041354094271,-0.0912055566683017, ,0.014394616913653537,0.020460341094564165,-0.09254854883816646, ,0.0017375884013745777, ,0.018570610456208458,0.0032347262184020146,-0.06056376596197208,-0.01702443940575366,-0.014029775052783886,0.07749085393607244, ,0.06342949451099845, ,0.02204203484434601, ,0.0008165335267567085, ,0.19423445451962065,-0.21897809064863596,0.10211265217000001,1.6936656735245033,0.508151142627673,-1.3169132624002038, ,0.07961152815307952,0.10626757173400983,0.06222192000000001,-0.1154047137959216,0.09344424149049503,-0.10733722602038814, ,1.1598539352416992
0.013644731052585476,0.02107733972587182,-0.09177949465963561, ,0.014501785505089263,0.020456480475478888,-0.09282705346657537, ,0.0014890896539000212, ,0.01879774204499216,0.0020800335435551503,-0.05681272768772706,0.05937504743698501,0.025005276658952434,0.00907349717009773, ,0.05987793978463362, ,0.06442102332605174, ,0.0008297209017987343, ,0.1950685096700369,-0.21791235351199298,0.10270376041000001,1.6930366036940496,0.509380871125562,-1.318406095974315, ,0.09186538389009755,0.11138138680571688,0.058561807058823544,-0.05946765036351545,0.1335941612431882,-0.17898802131546665, ,1.1651840209960938
0.013644731052585476,0.02107733972587182,-0.09177949465963561, ,0.014609461025327742,0.02045245592321405,-0.09310420075726257, ,0.0017538614347266347, ,0.01879774204499216,0.0020800335435551503,-0.05681272768772706,0.05937504743698501,0.025005276658952434,0.00907349717009773, ,0.05987793978463362, ,0.06442102332605174, ,0.0008474928351242708, ,0.1950685096700369,-0.21791235351199298,0.10270376041000001,1.6930366036940496,0.509380871125562,-1.318406095974315, ,0.09186538389009755,0.11138138680571688,0.058561807058823544,-0.05946765036351545,0.1335941612431882,-0.17898802131546665, ,1.1704418659210205
0.013644731052585476,0.02107733972587182,-0.09177949465963561, ,0.01471763360888413,0.020448273315352424,-0.0933799751092382, ,0.0020269144317696447, ,0.01879774204499216,0.0020800335435551503,-0.05681272768772706,0.05937504743698501,0.025005276658952434,0.00907349717009773, ,0.05987793978463362, ,0.06442102332605174, ,0.000869746072796825, ,0.1950685096700369,-0.21791235351199298,0.10270376041000001,1.6930366036940496,0.509380871125562,-1.318406095974315, ,0.09186538389009755,0.11138138680571688,0.058561807058823544,-0.05946765036351545,0.1335941612431882,-0.17898802131546665, ,1.1757700443267822
0.013927960154649695,0.021086085714316517,-0.092588281141752, ,0.014826293470885864,0.020443938500661677,-0.09365436114493372, ,0.0015348883882056385, ,0.01956484796459181,-0.0006066288456471235,-0.05222500603585792,0.002866681798445121,0.005547202393457573,-0.02187545546027145, ,0.05577277588464966, ,0.006212955626072438, ,0.0008820635230821735, ,0.19653582891613955,-0.21608206582080178,0.10353597859000001,1.6930366036940496,0.5114304186220436,-1.320730794450886, ,0.10626757173400983,0.12858664167814468,0.05363236202020203,-0.018187987272099183,0.11921597561378833,-0.13008025029637552, ,1.1812169551849365
0.014129084275233619,0.02107282937933513,-0.09310791252222016, ,0.01493543090681074,0.02043945729913424,-0.09392734370937378, ,0.0013125633518858311, ,0.019228798152482008,-0.0019689050543274405,-0.049084314971956526,-0.022396995670502674,-0.005175877974304008,-0.013523541445089885, ,0.052753134899909855, ,0.022981083828817545, ,0.0008898907926967853, ,0.1976479024500279,-0.21474603303356093,0.10406875378000001,1.6926172238070805,0.5125235106201671,-1.3219488526410195, ,0.10734948140098505,0.13365766416686023,0.0502486167823344,-0.023770942529269718,0.11046293028037468,-0.1105339575738119, ,1.1871240139007568
0.014129084275233619,0.02107282937933513,-0.09310791252222016, ,0.015045036292224324,0.020434835502025312,-0.09419890786934643, ,0.001560857178721143, ,0.019228798152482008,-0.0019689050543274405,-0.049084314971956526,-0.022396995670502674,-0.005175877974304008,-0.013523541445089885, ,0.052753134899909855, ,0.022981083828817545, ,0.0009018723353043631, ,0.1976479024500279,-0.21474603303356093,0.10406875378000001,1.6926172238070805,0.5125235106201671,-1.3219488526410195, ,0.10734948140098505,0.13365766416686023,0.0502486167823344,-0.023770942529269718,0.11046293028037468,-0.1105339575738119, ,1.1926429271697998
0.014318297611411844,0.02104114375380676,-0.09357621726348764, ,0.01515510008251722,0.020430078871890606,-0.09446903891257524, ,0.001367760637918337, ,0.018989311074055496,-0.0038824307266436117,-0.04608882789995314,-0.05273599117313581,-0.017635253274405193,0.08096086279379837, ,0.049998472582729284, ,0.05560466674461208, ,0.0009100458142975908, ,0.19874453051816776,-0.21337138658194899,0.10454708479000001,1.6917784640331426,0.513753239118056,-1.3231149712545682, ,0.11151226975143451,0.1407966491965442,0.04698764460176992,-0.1191855268415023,0.1226324043117946,-0.10442953538339403, ,1.197890043258667
0.014318297611411844,0.02104114375380676,-0.09357621726348764, ,0.015265612812642836,0.0204251931426255,-0.09473772234688935, ,0.0016204614480653016, ,0.018989311074055496,-0.0038824307266436117,-0.04608882789995314,-0.05273599117313581,-0.017635253274405193,0.08096086279379837, ,0.049998472582729284, ,0.05560466674461208, ,0.0009222943597073789, ,0.19874453051816776,-0.21337138658194899,0.10454708479000001,1.6917784640331426,0.513753239118056,-1.3231149712545682, ,0.11151226975143451,0.1407966491965442,0.04698764460176992,-0.1191855268415023,0.1226324043117946,-0.10442953538339403, ,1.2031989097595215
0.014509049145919328,0.021004099066625065,-0.09403438978463861, ,0.015376565096854722,0.020420184019502644,-0.09500494389939583, ,0.0014267151071799455, ,0.01975525058934556,-0.004078401111165434,-0.046511969002748045,-0.028055341809117628,0.0008099453608649355,0.012222658960852074, ,0.050697796224135706, ,0.02806315258412064, ,0.0009308438639018293, ,0.19986432678493032,-0.2119581264659659,0.10501504548000001,1.6913590841461734,0.514982967615945,-1.3242810898681174, ,0.1178843994515165,0.14577103157983223,0.047548691104477625,-0.05184732417979866,0.13337769170082214,-0.12113562810325676, ,1.2085368633270264
0.014509049145919328,0.021004099066625065,-0.09403438978463861, ,0.015487947628444302,0.020415057179211032,-0.09527068951564988, ,0.0016833447683455998, ,0.01975525058934556,-0.004078401111165434,-0.046511969002748045,-0.028055341809117628,0.0008099453608649355,0.012222658960852074, ,0.050697796224135706, ,0.02806315258412064, ,0.0009433855456425587, ,0.19986432678493032,-0.2119581264659659,0.10501504548000001,1.6913590841461734,0.514982967615945,-1.3242810898681174, ,0.1178843994515165,0.14577103157983223,0.047548691104477625,-0.05184732417979866,0.13337769170082214,-0.12113562810325676, ,1.2138278484344482
0.014715148700061144,0.02096165031415916,-0.09451381062040862, ,0.015599751179478052,0.020409818269893597,-0.09553494535882638, ,0.0014593684612435502, ,0.01962604783528934,-0.004211315315496268,-0.04452274843071524,-0.03789231870944092,-0.012801962059023779,-0.03647755690915659, ,0.048838428088385025, ,0.039994288359678894, ,0.0009518442819638865, ,0.2010845185790578,-0.21044447082261789,0.10550504310000001,1.6911493942026892,0.516212696113834,-1.3252021722612444, ,0.1170122583951551,0.14356572096591644,0.04551089005714286,0.0,0.1072353603167424,-0.09992535459099512, ,1.2191648483276367
0.014715148700061144,0.02096165031415916,-0.09451381062040862, ,0.015711966600535136,0.020404472911185346,-0.095797697808891, ,0.001718272067467551, ,0.01962604783528934,-0.004211315315496268,-0.04452274843071524,-0.03789231870944092,-0.012801962059023779,-0.03647755690915659, ,0.048838428088385025, ,0.039994288359678894, ,0.0009642060204397521, ,0.2010845185790578,-0.21044447082261789,0.10550504310000001,1.6911493942026892,0.516212696113834,-1.3252021722612444, ,0.1170122583951551,0.14356572096591644,0.04551089005714286,0.0,0.1072353603167424,-0.09992535459099512, ,1.224402904510498
0.014921104446909693,0.020921380736503892,-0.09496878602144393, ,0.01582458482044521,0.020399026694252757,-0.09605893346177147, ,0.0015091560464288191, ,0.02153386054293364,-0.004546612179844791,-0.04705551862548095,-0.0386496936516662,-0.015448644563804874,-0.031803380947388424, ,0.05194805737762878, ,0.04162005208369612, ,0.000972856020852277, ,0.20232787857180792,-0.20900031977513792,0.10597170750000001,1.6913590841461734,0.5173057881119575,-1.3261751942309563, ,0.13107312369954527,0.15135078398480187,0.048269125818181824,-0.0062176529709832154,0.12035064818458907,-0.1073466991669388, ,1.2296149730682373
0.014921104446909693,0.020921380736503892,-0.09496878602144393, ,0.015937596846025866,0.02039348518183158,-0.09631863912852898, ,0.0017703202887644081, ,0.02153386054293364,-0.004546612179844791,-0.04705551862548095,-0.0386496936516662,-0.015448644563804874,-0.031803380947388424, ,0.05194805737762878, ,0.04162005208369612, ,0.000985316400038404, ,0.20232787857180792,-0.20900031977513792,0.10597170750000001,1.6913590841461734,0.5173057881119575,-1.3261751942309563, ,0.13107312369954527,0.15135078398480187,0.048269125818181824,-0.0062176529709832154,0.12035064818458907,-0.1073466991669388, ,1.2348790168762207
0.01515103206044403,0.02087751262502336,-0.09548564945019737, ,0.016050993761819718,0.020387853908264215,-0.09657680183452882, ,0.0014967665979281647, ,0.022681780164989652,-0.0034701919759966703,-0.05229961317860521,0.00555748321877249,0.020796212931912524,0.00702571780166307, ,0.0571117756897378, ,0.02151689586746668, ,0.0009931848646213234, ,0.2036098522289292,-0.20754072326190948,0.10646559399000001,1.69073001431572,0.5186721531096119,-1.3273710520080613, ,0.1353736684143663,0.1499161793972682,0.05363236202020203,-0.0513663916158238,0.17001529926715728,-0.15177837289552595, ,1.2401549816131592
0.01515103206044403,0.02087751262502336,-0.09548564945019737, ,0.016164766729832403,0.020382138379538863,-0.09683340881861216, ,0.0017576998999144081, ,0.022681780164989652,-0.0034701919759966703,-0.05229961317860521,0.00555748321877249,0.020796212931912524,0.00702571780166307, ,0.0571117756897378, ,0.02151689586746668, ,0.0010047684257621277, ,0.2036098522289292,-0.20754072326190948,0.10646559399000001,1.69073001431572,0.5186721531096119,-1.3273710520080613, ,0.1353736684143663,0.1499161793972682,0.05363236202020203,-0.0513663916158238,0.17001529926715728,-0.15177837289552595, ,1.245595932006836
0.01515103206044403,0.02087751262502336,-0.09548564945019737, ,0.016278906989270214,0.020376344073327977,-0.09708844753226695, ,0.0020229269547289708, ,0.022681780164989652,-0.0034701919759966703,-0.05229961317860521,0.00555748321877249,0.020796212931912524,0.00702571780166307, ,0.0571117756897378, ,0.02151689586746668, ,0.0010199648217168568, ,0.20495360774904425,-0.20608112674868104,0.10700485063000001,1.6901009444852664,0.5203117911067973,-1.3288714243326996, ,0.1407966491965442,0.14667224352159317,0.05492693627586208,-0.10066223830329764,0.15667028538661462,-0.14473518215261982, ,1.2510240077972412
0.015602893040483302,0.020814679848252582,-0.09650768459351868, ,0.01639340585627717,0.020370476439025887,-0.09734190563879902, ,0.0012321330825408431, ,0.023522484293061276,-0.0032177473762278956,-0.05186437820225231,-0.06341237058826707,-0.02883469692604521,0.01038611272270607, ,0.057040116512861366, ,0.06965768599864687, ,0.0010230849431995623, ,0.20635914513215312,-0.20459836203682993,0.10755966275,1.6898912545417817,0.5216781561044516,-1.3301489608499448, ,0.13673910887387722,0.1427021677570989,0.05363236202020203,-0.04044988352468287,0.1194108181768398,-0.0796609854116452, ,1.2576549053192139
0.015602893040483302,0.020814679848252582,-0.09650768459351868, ,0.016508254723673295,0.020364540897787817,-0.09759377101250458, ,0.0014838761948423314, ,0.023522484293061276,-0.0032177473762278956,-0.05186437820225231,-0.06341237058826707,-0.02883469692604521,0.01038611272270607, ,0.057040116512861366, ,0.06965768599864687, ,0.0010297630772813416, ,0.20635914513215312,-0.20459836203682993,0.10755966275,1.6898912545417817,0.5216781561044516,-1.3301489608499448, ,0.13673910887387722,0.1427021677570989,0.05363236202020203,-0.04044988352468287,0.1194108181768398,-0.0796609854116452, ,1.263152837753296
0.01583942812455659,0.020780928916666986,-0.09701955676011938, ,0.016623445060691175,0.02035854284256656,-0.09784403173783875, ,0.0012136109510980809, ,0.023462522632263404,-0.003586739169657574,-0.04988231039480799,-0.07568641061074212,-0.04899740346189659,-0.02985006027831617, ,0.05524128489150662, ,0.09016024322101758, ,0.0010323894754787238, ,0.20772606885089087,-0.2031696564550984,0.10808854907000001,1.6896815645982974,0.5226346116028098,-1.3309288861758197, ,0.13615056177685905,0.1424879002379441,0.0515495518446602,0.0009299922500213715,0.08941925710927766,-0.06005022418988825, ,1.2684080600738525
0.01583942812455659,0.020780928916666986,-0.09701955676011938, ,0.016738968412714827,0.020352487638153116,-0.09809267610858996, ,0.0014643496150907177, ,0.023462522632263404,-0.003586739169657574,-0.04988231039480799,-0.07568641061074212,-0.04899740346189659,-0.02985006027831617, ,0.05524128489150662, ,0.09016024322101758, ,0.0010384734211070616, ,0.20772606885089087,-0.2031696564550984,0.10808854907000001,1.6896815645982974,0.5226346116028098,-1.3309288861758197, ,0.13615056177685905,0.1424879002379441,0.0515495518446602,0.0009299922500213715,0.08941925710927766,-0.06005022418988825, ,1.2736468315124512
0.01583942812455659,0.020780928916666986,-0.09701955676011938, ,0.016854816401016028,0.020346380621212613,-0.0983396926270489, ,0.0017212217405689905, ,0.02265438340057538,-0.003355382193298143,-0.04711633796274347,-0.030109799691280876,-0.009576512485302072,-0.02591253309537298, ,0.05238729788739661, ,0.03159236349619478, ,0.001047956036655144, ,0.20912388350112548,-0.20175639633911532,0.10860447249,1.6898912545417817,0.5238643401006987,-1.3319316473090876, ,0.13576100366018712,0.13328222128998704,0.049011727753846164,-0.00425200861202831,0.13064644915411286,-0.09645269129732478, ,1.2789099216461182
0.016075512274369444,0.020746447643197215,-0.09751660428480019, ,0.016970980722493176,0.020340227100324834,-0.09858507000318155, ,0.0014520667554877948, ,0.02265438340057538,-0.003355382193298143,-0.04711633796274347,-0.030109799691280876,-0.009576512485302072,-0.02591253309537298, ,0.05238729788739661, ,0.03159236349619478, ,0.0010534917999268241, ,0.20912388350112548,-0.20175639633911532,0.10860447249,1.6898912545417817,0.5238643401006987,-1.3319316473090876, ,0.13576100366018712,0.13328222128998704,0.049011727753846164,-0.00425200861202831,0.13064644915411286,-0.09645269129732478, ,1.2842400074005127
0.016302690928451123,0.020708348038664583,-0.09797998143582837, ,0.01708745314940725,0.020334032356019195,-0.09882879715379816, ,0.0012150934518739115, ,0.021727425584033445,-0.0036068021320284313,-0.04387954019922376,-0.022358304397108664,-0.007555341453761916,0.03082764366671729, ,0.04909688475071111, ,0.023596912698916873, ,0.0010556756060342172, ,0.21050625268561168,-0.20043580901762292,0.10908669237000002,1.6890524947678438,0.5252307050983531,-1.3331275050861924, ,0.13328222128998704,0.12535923587644754,0.04577244689655173,-0.06345720779971929,0.14220362692390182,-0.10842929471356777, ,1.2895128726959229
0.016302690928451123,0.020708348038664583,-0.09797998143582837, ,0.017204225529121257,0.020327801640816788,-0.09907086320172744, ,0.0014654703082258133, ,0.021727425584033445,-0.0036068021320284313,-0.04387954019922376,-0.022358304397108664,-0.007555341453761916,0.03082764366671729, ,0.04909688475071111, ,0.023596912698916873, ,0.0010611395353967718, ,0.21050625268561168,-0.20043580901762292,0.10908669237000002,1.6890524947678438,0.5252307050983531,-1.3331275050861924, ,0.13328222128998704,0.12535923587644754,0.04577244689655173,-0.06345720779971929,0.14220362692390182,-0.10842929471356777, ,1.294806957244873
0.016522218569242613,0.0206737446301229,-0.09841531528185272, ,0.01732128978383657,0.020321540179265903,-0.099311257474985, ,0.0012511095853804336, ,0.02249676957016489,-0.0032990794266759644,-0.044638734550114294,-0.02150987030876121,-0.014412544153071525,0.02186118146724834, ,0.05009595980108757, ,0.02588858263078293, ,0.0010636391413176096, ,0.21185773093860097,-0.19920789449062123,0.10954169016000001,1.68842342493739,0.5265970700960074,-1.3342416841231566, ,0.1375317993601026,0.12340304493949386,0.04671205724340176,-0.05419308526971398,0.13749329267769225,-0.1058009247006285, ,1.3000710010528564
0.016522218569242613,0.0206737446301229,-0.09841531528185272, ,0.0174386379103311,0.02031525316798165,-0.0995499695059469, ,0.0015019256790547168, ,0.02249676957016489,-0.0032990794266759644,-0.044638734550114294,-0.02150987030876121,-0.014412544153071525,0.02186118146724834, ,0.05009595980108757, ,0.02588858263078293, ,0.0010693311742752344, ,0.21185773093860097,-0.19920789449062123,0.10954169016000001,1.68842342493739,0.5265970700960074,-1.3342416841231566, ,0.1375317993601026,0.12340304493949386,0.04671205724340176,-0.05419308526971398,0.13749329267769225,-0.1058009247006285, ,1.305387020111084
0.016751242737809483,0.02064550193971488,-0.09887279698723064, ,0.017556261979696605,0.0203089457756828,-0.09978698903051955, ,0.0012637535849085663, ,0.0218539639960545,-0.0021173300014828327,-0.04374783873214799,0.00921588950598472,0.010610742845503495,-0.05378997670231929, ,0.04894846496479796, ,0.014048495957366347, ,0.0010718237692833542, ,0.21324010012308717,-0.19798770269649377,0.11002131746000002,1.6882137349939055,0.5279634350936618,-1.3353558631601208, ,0.13161850424198443,0.11270420612644985,0.04603702751445087,0.02632984753228727,0.14076441722103875,-0.10938186384003153, ,1.310736894607544
0.016751242737809483,0.02064550193971488,-0.09887279698723064, ,0.017674154137076736,0.020302623143231502,-0.10002230598731122, ,0.0015135066109011833, ,0.0218539639960545,-0.0021173300014828327,-0.04374783873214799,0.00921588950598472,0.010610742845503495,-0.05378997670231929, ,0.04894846496479796, ,0.014048495957366347, ,0.0010774146913291496, ,0.21324010012308717,-0.19798770269649377,0.11002131746000002,1.6882137349939055,0.5279634350936618,-1.3353558631601208, ,0.13161850424198443,0.11270420612644985,0.04603702751445087,0.02632984753228727,0.14076441722103875,-0.10938186384003153, ,1.3161509037017822
0.016953814452269657,0.020624252736387905,-0.09927722227493156, ,0.017792306601404493,0.020296290383671072,-0.10025591051680441, ,0.0013298342241574621, ,0.021126981527497406,-0.0023192561214396496,-0.041770496920075166,-0.011489179732525539,-0.01149743020557178,-0.044304421134871014, ,0.04686686153744521, ,0.016250076705499654, ,0.0010805699354895033, ,0.2144525691843404,-0.19694513375847345,0.11044650058000001,1.6882137349939055,0.5291931635915509,-1.3363586242933885, ,0.1255250549715222,0.10920246439409755,0.043881023471074386,0.018052409070462565,0.11348915628208783,-0.08778159221025027, ,1.3215138912200928
0.016953814452269657,0.020624252736387905,-0.09927722227493156, ,0.01791071166513942,0.020289952582262953,-0.10048779296052535, ,0.0015788889301863159, ,0.021126981527497406,-0.0023192561214396496,-0.041770496920075166,-0.011489179732525539,-0.01149743020557178,-0.044304421134871014, ,0.04686686153744521, ,0.016250076705499654, ,0.001086722021843785, ,0.2144525691843404,-0.19694513375847345,0.11044650058000001,1.6882137349939055,0.5291931635915509,-1.3363586242933885, ,0.1255250549715222,0.10920246439409755,0.043881023471074386,0.018052409070462565,0.11348915628208783,-0.08778159221025027, ,1.3267910480499268
0.01718069801329264,0.02060380600945948,-0.09972841363386523, ,0.01802936169400634,0.020283614796527093,-0.10071794386021671, ,0.0013423570779285418, ,0.021873605640945554,-0.0015904011898004381,-0.04416369113097115,-0.04874372054534364,-0.05671846530090765,-0.024323282409357078, ,0.04930938667223456, ,0.07478480187784488, ,0.0010898395225277455, ,0.21571137464283902,-0.1958562284232078,0.11090279466000001,1.68842342493739,0.5300129825901435,-1.337027131715567, ,0.12276447808340334,0.10485849895963623,0.04617046817391306,0.0,0.071614179544415,-0.054178529597579954, ,1.3320579528808594
0.01718069801329264,0.02060380600945948,-0.09972841363386523, ,0.018148249126732074,0.020277282056278535,-0.10094635395700884, ,0.0015893872026218044, ,0.021873605640945554,-0.0015904011898004381,-0.04416369113097115,-0.04874372054534364,-0.05671846530090765,-0.024323282409357078, ,0.04930938667223456, ,0.07478480187784488, ,0.0010958581692758667, ,0.2170396846972056,-0.1947827685536906,0.11140445889000002,1.6880040450504212,0.5309694380885015,-1.337807057041442, ,0.12686756892843687,0.0963420726481937,0.047548691104477625,-0.022690619054336923,0.09831761664694001,-0.07640497301407682, ,1.337890863418579
0.017407150803473978,0.020591145931297017,-0.10018919140580154, ,0.018267366474783497,0.020270959363666217,-0.1011730141905901, ,0.0013455102047650186, ,0.0223282878577045,-0.0006847809326300545,-0.045020036423803055,-0.019324821011779902,-0.03553335879359315,-0.0025078365150620918, ,0.05025758692160579, ,0.04044605487549138, ,0.0010988302173174042, ,0.2170396846972056,-0.1947827685536906,0.11140445889000002,1.6880040450504212,0.5309694380885015,-1.337807057041442, ,0.12686756892843687,0.0963420726481937,0.047548691104477625,-0.022690619054336923,0.09831761664694001,-0.07640497301407682, ,1.343139886856079
0.017619999487981593,0.020587885103860663,-0.10061730398389526, ,0.01838670632210513,0.020264651693210855,-0.10139791569837919, ,0.0011409092234010495, ,0.022372777028921785,-0.00012492154288636006,-0.04505598767908335,-0.003221794136662846,-0.02490252502024081,0.056427753107185584, ,0.05030505723200639, ,0.025106374308836256, ,0.0010993252644478, ,0.2170396846972056,-0.1947827685536906,0.11140445889000002,1.6880040450504212,0.5309694380885015,-1.337807057041442, ,0.12686756892843687,0.0963420726481937,0.047548691104477625,-0.022690619054336923,0.09831761664694001,-0.07640497301407682, ,1.3483798503875732
0.017619999487981593,0.020587885103860663,-0.10061730398389526, ,0.018506261324856936,0.020258363991843557,-0.10162104981469612, ,0.0013789669682834154, ,0.022372777028921785,-0.00012492154288636006,-0.04505598767908335,-0.003221794136662846,-0.02490252502024081,0.056427753107185584, ,0.05030505723200639, ,0.025106374308836256, ,0.0011025769121668187, ,0.2182598764913331,-0.19391782247177744,0.11185816039000002,1.6873749752199676,0.5320625300866252,-1.3386984002710134, ,0.12823911021414972,0.08786753848006552,0.04783426882882884,-0.08382821011548901,0.12266461209942721,-0.09659023586370362, ,1.3537559509277344
0.01785394162245486,0.020590172326981675,-0.10107991541831261, ,0.018626024211151913,0.020252101178943827,-0.1018424080699334, ,0.0011365732130753712, ,0.02294423664716787,6.070656145389615e-05,-0.0455386046643825,-0.006095350956722484,-0.03239663445162991,0.02789067755915093, ,0.050992217007958814, ,0.03296209016950177, ,0.0011029676742462275, ,0.21960363201144817,-0.19301426272549316,0.11235075059,1.6873749752199676,0.5332922585845141,-1.3397011614042813, ,0.1303529417011961,0.08762413809646424,0.0484158404863222,-0.053702645010873136,0.11113052661462892,-0.0874843814281034, ,1.3589859008789062
0.01785394162245486,0.020590172326981675,-0.10107991541831261, ,0.018745987780793696,0.020245868146377435,-0.10206198218972742, ,0.0013706738710961635, ,0.02294423664716787,6.070656145389615e-05,-0.0455386046643825,-0.006095350956722484,-0.03239663445162991,0.02789067755915093, ,0.050992217007958814, ,0.03296209016950177, ,0.0011060097901195221, ,0.21960363201144817,-0.19301426272549316,0.11235075059,1.6873749752199676,0.5332922585845141,-1.3397011614042813, ,0.1303529417011961,0.08762413809646424,0.0484158404863222,-0.053702645010873136,0.11113052661462892,-0.0874843814281034, ,1.3642749786376953
0.01808737379642337,0.02059327168290547,-0.10153529410866843, ,0.01886614490501469,0.020239669758535545,-0.1022797640941299, ,0.001133911072239643, ,0.022269079323826147,0.0002735661230911339,-0.04343324620902698,-0.0028463717110032466,-0.032783336068934514,0.014003411288016233, ,0.0488101793543982, ,0.03290432176207812, ,0.0011063232876714338, ,0.22092421933294054,-0.1921415939107058,0.11283556305000002,1.6873749752199676,0.5342487140828721,-1.3404810867301562, ,0.12652925541129437,0.08152658209490615,0.046304684651162796,-0.037679184733938095,0.10362250265074323,-0.08161472086250543, ,1.3695249557495117
0.01808737379642337,0.02059327168290547,-0.10153529410866843, ,0.018986488526213676,0.02023351085237239,-0.10249574589677966, ,0.0013639291733069606, ,0.022269079323826147,0.0002735661230911339,-0.04343324620902698,-0.0028463717110032466,-0.032783336068934514,0.014003411288016233, ,0.0488101793543982, ,0.03290432176207812, ,0.0011091855752896063, ,0.22092421933294054,-0.1921415939107058,0.11283556305000002,1.6873749752199676,0.5342487140828721,-1.3404810867301562, ,0.12652925541129437,0.08152658209490615,0.046304684651162796,-0.037679184733938095,0.10362250265074323,-0.08161472086250543, ,1.374755859375
0.01830074247271914,0.020597482568559006,-0.10195154484592028, ,0.019107011657692893,0.020227396237442907,-0.10270991990407287, ,0.001167118939930782, ,0.021679467006552704,0.00031986317043531965,-0.041355518199516564,0.006840870024889337,-0.025408243325528268,0.006615950588550938, ,0.0466945445173904, ,0.026310746178477652, ,0.0011098222056702784, ,0.2221366883941938,-0.19136159789040913,0.11328019052000002,1.6873749752199676,0.5353418060809957,-1.3413724299597276, ,0.12453666871190391,0.07696426728180923,0.044246698666666674,-0.029351014728249997,0.10749046907524877,-0.08497656558665248, ,1.3800239562988281
0.01830074247271914,0.020597482568559006,-0.10195154484592028, ,0.019227707383396304,0.020221330695941352,-0.10292227861433509, ,0.0013939434084787301, ,0.021679467006552704,0.00031986317043531965,-0.041355518199516564,0.006840870024889337,-0.025408243325528268,0.006615950588550938, ,0.0466945445173904, ,0.026310746178477652, ,0.0011129104796138486, ,0.2221366883941938,-0.19136159789040913,0.11328019052000002,1.6873749752199676,0.5353418060809957,-1.3413724299597276, ,0.12453666871190391,0.07696426728180923,0.044246698666666674,-0.029351014728249997,0.10749046907524877,-0.08497656558665248, ,1.3853428363800049
0.01850944267254816,0.020599645064077434,-0.10234525289040836, ,0.019348568857647963,0.020215318982740732,-0.1031328147169932, ,0.0012132983647930283, ,0.020733907542184557,5.4511007525700204e-05,-0.038067096789961445,0.009519134495736306,-0.02395887419798934,-0.0206152226800406, ,0.04334745380566305, ,0.025779093025369286, ,0.0011139899192394312, ,0.2233337119896986,-0.19062021553448358,0.11370148477000001,1.687165285276483,0.5362982615793538,-1.3421523552856025, ,0.12088782364136405,0.07396488040410817,0.040843106461538464,0.0,0.09948497278558621,-0.07862641540493623, ,1.3906328678131104
0.01850944267254816,0.020599645064077434,-0.10234525289040836, ,0.019469589304888294,0.02020936582542873,-0.10334152109174528, ,0.0014376194798031328, ,0.020733907542184557,5.4511007525700204e-05,-0.038067096789961445,0.009519134495736306,-0.02395887419798934,-0.0206152226800406, ,0.04334745380566305, ,0.025779093025369286, ,0.0011174327869050025, ,0.2233337119896986,-0.19062021553448358,0.11370148477000001,1.687165285276483,0.5362982615793538,-1.3421523552856025, ,0.12088782364136405,0.07396488040410817,0.040843106461538464,0.0,0.09948497278558621,-0.07862641540493623, ,1.3959779739379883
0.018708657673003865,0.020597336967618764,-0.1027077935340165, ,0.019590762019412795,0.020203475924347233,-0.10354839080773275, ,0.0012805617423379653, ,0.020543305746352263,-0.00044863382866748157,-0.03640219690370201,0.008287977826348077,-0.025065214653937948,-0.009101536259001895, ,0.04180129929459402, ,0.026398705307656777, ,0.001119149933804297, ,0.2244998446537065,-0.1899097241100549,0.11409037177000002,1.6867459053895137,0.5372547170777118,-1.3429322806114774, ,0.12197550328852286,0.07460451380382924,0.039137129041769046,-0.012486617829200238,0.10185050177885083,-0.08071155931848754, ,1.4013018608093262
0.018708657673003865,0.020597336967618764,-0.1027077935340165, ,0.019712080365110227,0.0201976539526314,-0.10375341712271316, ,0.0015033071212304698, ,0.020543305746352263,-0.00044863382866748157,-0.03640219690370201,0.008287977826348077,-0.025065214653937948,-0.009101536259001895, ,0.04180129929459402, ,0.026398705307656777, ,0.0011231515711733195, ,0.2244998446537065,-0.1899097241100549,0.11409037177000002,1.6867459053895137,0.5372547170777118,-1.3429322806114774, ,0.12197550328852286,0.07460451380382924,0.039137129041769046,-0.012486617829200238,0.10185050177885083,-0.08071155931848754, ,1.4066369533538818
0.018931883305435212,0.02059436480164201,-0.10310485930665227, ,0.01983353777519893,0.020191904556245546,-0.10395659348222816, ,0.0013039962184812589, ,0.020800711654596567,3.4334439914547864e-05,-0.03752178725569509,0.031472137987590305,-0.002280302594054989,0.034527849923302385, ,0.042901693475352186, ,0.03155346060322578, ,0.0011250159489806179, ,0.2258281547080731,-0.18913745082263247,0.11451814747000001,1.6861168355590603,0.5384844455756008,-1.3439350417447453, ,0.12372482602147429,0.06987992750991957,0.040531327022900764,-0.05900928674981652,0.13591491278669762,-0.10863824812575001, ,1.4119598865509033
0.018931883305435212,0.02059436480164201,-0.10310485930665227, ,0.019955127751965927,0.02018623235402321,-0.10415791351877793, ,0.0015239830923704047, ,0.020800711654596567,3.4334439914547864e-05,-0.03752178725569509,0.031472137987590305,-0.002280302594054989,0.034527849923302385, ,0.042901693475352186, ,0.03155346060322578, ,0.0011290870422805137, ,0.2258281547080731,-0.18913745082263247,0.11451814747000001,1.6861168355590603,0.5384844455756008,-1.3439350417447453, ,0.12372482602147429,0.06987992750991957,0.040531327022900764,-0.05900928674981652,0.13591491278669762,-0.10863824812575001, ,1.4172439575195312
0.0191472948997801,0.020595083573537627,-0.10348830756792227, ,0.02007684386650428,0.020180641937705242,-0.10435737105099145, ,0.0013383177831343925, ,0.021754197471969466,0.00020590537138180981,-0.03791503532014279,0.03306352615894113,-0.008731153755504309,-0.05691134056828087, ,0.04371312626659276, ,0.0341957812406654, ,0.0011312004841073206, ,0.22711012836519437,-0.18841151393245537,0.11493296027000001,1.6859071456155759,0.5398508105732552,-1.3450492207817095, ,0.1287611147333389,0.07277372818901133,0.04105363793814434,0.03670056834860987,0.11600982666284103,-0.09253396168444071, ,1.4226109981536865
0.0191472948997801,0.020595083573537627,-0.10348830756792227, ,0.0201986797584506,0.02017513787197716,-0.10455496008279774, ,0.0015554780939604656, ,0.021754197471969466,0.00020590537138180981,-0.03791503532014279,0.03306352615894113,-0.008731153755504309,-0.05691134056828087, ,0.04371312626659276, ,0.0341957812406654, ,0.001135443260205852, ,0.22711012836519437,-0.18841151393245537,0.11493296027000001,1.6859071456155759,0.5398508105732552,-1.3450492207817095, ,0.1287611147333389,0.07277372818901133,0.04105363793814434,0.03670056834860987,0.11600982666284103,-0.09253396168444071, ,1.4283690452575684
0.0191472948997801,0.020595083573537627,-0.10348830756792227, ,0.020320629135722745,0.020169724694507153,-0.10475067480259691, ,0.0017751660317799217, ,0.021754197471969466,0.00020590537138180981,-0.03791503532014279,0.03306352615894113,-0.008731153755504309,-0.05691134056828087, ,0.04371312626659276, ,0.0341957812406654, ,0.001141777149033318, ,0.22711012836519437,-0.18841151393245537,0.11493296027000001,1.6859071456155759,0.5398508105732552,-1.3450492207817095, ,0.1287611147333389,0.07277372818901133,0.04105363793814434,0.03670056834860987,0.11600982666284103,-0.09253396168444071, ,1.4338419437408447
0.019532815239085146,0.020601792026970253,-0.10416342644670105, ,0.020442685774258753,0.020164406915986588,-0.10494450958243276, ,0.001276425082412506, ,0.022254754537117373,0.0006104804849827751,-0.0399782804734642,0.013566202173036305,-0.029410206445866654,-0.039636415701794304, ,0.04575925803096965, ,0.03238672509372294, ,0.0011430972268115453, ,0.22934199816584527,-0.18718359940545368,0.11566277154000001,1.6859071456155759,0.5414904485704405,-1.3463862356260665, ,0.12569131332247785,0.07097751799436858,0.04316751089430895,0.01995475918268545,0.09490217407622309,-0.07550743924965089, ,1.4392719268798828
0.019532815239085146,0.020601792026970253,-0.10416342644670105, ,0.020564843517752448,0.020159189020164232,-0.10513645897716227, ,0.0014858573602262366, ,0.022254754537117373,0.0006104804849827751,-0.0399782804734642,0.013566202173036305,-0.029410206445866654,-0.039636415701794304, ,0.04575925803096965, ,0.03238672509372294, ,0.0011464249950971248, ,0.22934199816584527,-0.18718359940545368,0.11566277154000001,1.6859071456155759,0.5414904485704405,-1.3463862356260665, ,0.12569131332247785,0.07097751799436858,0.04316751089430895,0.01995475918268545,0.09490217407622309,-0.07550743924965089, ,1.4446790218353271
0.01976358228841877,0.020603799113054197,-0.10456435506140369, ,0.020687096277393863,0.020154075463889077,-0.10532651772362903, ,0.0012790705110123915, ,0.0224968233305578,9.402147298030782e-05,-0.03788781137919322,0.019496867949730164,-0.028028317268538685,-0.036299085112634445, ,0.04406361482117683, ,0.03414141702307846, ,0.0011477004327501562, ,0.23067803095308612,-0.18644221704952813,0.11609702869,1.6859071456155759,0.5425835405685641,-1.347277578855638, ,0.1319846196918926,0.07156632093399003,0.041159719689922485,0.015677198691669232,0.10359731913586491,-0.08269357168235977, ,1.449988842010498
0.01976358228841877,0.020603799113054197,-0.10456435506140369, ,0.020809438031604937,0.020149070677144762,-0.10551468073983308, ,0.001484490175468476, ,0.0224968233305578,9.402147298030782e-05,-0.03788781137919322,0.019496867949730164,-0.028028317268538685,-0.036299085112634445, ,0.04406361482117683, ,0.03414141702307846, ,0.0011509079541093784, ,0.23067803095308612,-0.18644221704952813,0.11609702869,1.6859071456155759,0.5425835405685641,-1.347277578855638, ,0.1319846196918926,0.07156632093399003,0.041159719689922485,0.015677198691669232,0.10359731913586491,-0.08269357168235977, ,1.4553439617156982
0.019989311697246916,0.020605119854789005,-0.10494191657672097, ,0.02093186282577828,0.02014417906308978,-0.10570094312410289, ,0.00129498661884151, ,0.022506798800528156,4.437409263562884e-06,-0.03778822800822416,0.03265720597813953,-0.012949426535740377,-0.02240053062925279, ,0.04398302158719422, ,0.03512981209927399, ,0.0011522671867955304, ,0.2320063410074527,-0.18573172562509946,0.11650795262000001,1.6861168355590603,0.5436766325666875,-1.3481689220852093, ,0.1327229951866724,0.0711905037948018,0.041159719689922485,0.0,0.12281100517950558,-0.09844468558696592, ,1.4606869220733643
0.02021352708140605,0.020603680919039715,-0.10530928276636337, ,0.021054364772014993,0.020139404998095415,-0.10588530015426675, ,0.001119980439063245, ,0.022766002335418298,-0.00023612328705429448,-0.03593216545424658,0.0035851076338591008,-0.05317760840742245,-0.015776774175577307, ,0.042537831759203615, ,0.05329775918404654, ,0.0011519654414896214, ,0.23333465106181933,-0.18503667966641926,0.11690850623000001,1.6859071456155759,0.5447697245648111,-1.34897858657464, ,0.1353736684143663,0.06936910932636753,0.03923352591133005,-0.005217525799637328,0.08525045699987353,-0.06993674239309429, ,1.466372013092041
0.02021352708140605,0.020603680919039715,-0.10530928276636337, ,0.021176938048862035,0.02013475283178334,-0.10606774728682383, ,0.0013127538505103406, ,0.022766002335418298,-0.00023612328705429448,-0.03593216545424658,0.0035851076338591008,-0.05317760840742245,-0.015776774175577307, ,0.042537831759203615, ,0.05329775918404654, ,0.001153454223054628, ,0.23333465106181933,-0.18503667966641926,0.11690850623000001,1.6859071456155759,0.5447697245648111,-1.34897858657464, ,0.1353736684143663,0.06936910932636753,0.03923352591133005,-0.005217525799637328,0.08525045699987353,-0.06993674239309429, ,1.4719970226287842
0.02043647037381847,0.020594558885536768,-0.1056478416920161, ,0.021299576901050145,0.020130226887063833,-0.1062482801561155, ,0.0011493839355610584, ,0.022736776979584296,-0.0011442200100105218,-0.03381555776448256,0.014523404152183565,-0.03969656423109296,-0.011431204909360386, ,0.04076471775658111, ,0.04226940103174496, ,0.001153416880967531, ,0.23469385204768284,-0.1843261882419906,0.11727924517000002,1.6856974556720912,0.5457261800631692,-1.3498401906406556, ,0.14017273494604252,0.07344964516909504,0.03713009678321679,-0.011867063819880083,0.10521900804240902,-0.085799045827631, ,1.477571964263916
0.02043647037381847,0.020594558885536768,-0.1056478416920161, ,0.02142227563923234,0.020125831460175537,-0.10642689457349763, ,0.001341059585830605, ,0.022736776979584296,-0.0011442200100105218,-0.03381555776448256,0.014523404152183565,-0.03969656423109296,-0.011431204909360386, ,0.04076471775658111, ,0.04226940103174496, ,0.0011551227237390136, ,0.23469385204768284,-0.1843261882419906,0.11727924517000002,1.6856974556720912,0.5457261800631692,-1.3498401906406556, ,0.14017273494604252,0.07344964516909504,0.03713009678321679,-0.011867063819880083,0.10521900804240902,-0.085799045827631, ,1.482846975326538
0.02066251326774902,0.020581702131839266,-0.10598157675295351, ,0.021545028639720794,0.02012157082072154,-0.10660358652651115, ,0.0011736483134391757, ,0.022045138945708767,-0.0015108675329953067,-0.031585281766331574,0.024794951472360702,-0.027280393745496782,-0.014382447388875914, ,0.03854738507468986, ,0.03686431968285311, ,0.0011552896209435194, ,0.23609166669791748,-0.18359252861893927,0.11764609524000001,1.6854877657286067,0.5468192720612927,-1.3507315338702268, ,0.13853568110725661,0.07260668826202814,0.034855167439824954,-0.009320840277445981,0.11576175423479146,-0.09439594842668152, ,1.4880850315093994
0.02066251326774902,0.020581702131839266,-0.10598157675295351, ,0.021667830344225387,0.02011744921170942,-0.1067783521780532, ,0.0013642009661874856, ,0.022045138945708767,-0.0015108675329953067,-0.031585281766331574,0.024794951472360702,-0.027280393745496782,-0.014382447388875914, ,0.03854738507468986, ,0.03686431968285311, ,0.001157154900811769, ,0.23609166669791748,-0.18359252861893927,0.11764609524000001,1.6854877657286067,0.5468192720612927,-1.3507315338702268, ,0.13853568110725661,0.07260668826202814,0.034855167439824954,-0.009320840277445981,0.11576175423479146,-0.09439594842668152, ,1.4933218955993652
0.02088902106572347,0.020564514876761114,-0.10630303487709193, ,0.021790675259590494,0.020113470849587218,-0.10695118786554869, ,0.0011985504979819038, ,0.02210330816694012,-0.001318860590038139,-0.030912906425287563,0.029568407980303454,-0.026863209776023186,-0.05015283500684952, ,0.03802503660533758, ,0.03994864904749136, ,0.0011575212335300886, ,0.23747403588240368,-0.18287431446163638,0.11798961209000002,1.6852780757851225,0.5480490005591817,-1.3516526162633542, ,0.13873821865273506,0.0710306448790949,0.034255508645161296,0.028817627828868823,0.10946905523805989,-0.0889314636373642, ,1.4985580444335938
0.02088902106572347,0.020564514876761114,-0.10630303487709193, ,0.021913557957534423,0.02010963992428465,-0.10712209010012216, ,0.0013883221972745446, ,0.02210330816694012,-0.001318860590038139,-0.030912906425287563,0.029568407980303454,-0.026863209776023186,-0.05015283500684952, ,0.03802503660533758, ,0.03994864904749136, ,0.0011595458033874962, ,0.23747403588240368,-0.18287431446163638,0.11798961209000002,1.6852780757851225,0.5480490005591817,-1.3516526162633542, ,0.13873821865273506,0.0710306448790949,0.034255508645161296,0.028817627828868823,0.10946905523805989,-0.0889314636373642, ,1.503967046737671
0.02106572111218185,0.020553790939134082,-0.1065540417028469, ,0.02203647307438595,0.02010596059924888,-0.10729105556576923, ,0.0012984994492045484, ,0.022796752403233034,-0.001226428139441805,-0.03306203508427433,0.01696087285066733,-0.038564919775293305,-0.0479134247568816, ,0.04017828032692928, ,0.04212938096517895, ,0.0011607540959598184, ,0.2386170003477889,-0.18227966403032111,0.11827868476000002,1.6852780757851225,0.5488688195577742,-1.352239444945392, ,0.13894134928033788,0.07333612176079658,0.03645036961098399,0.026491506542830952,0.09792734053399012,-0.07941291312228964, ,1.509929895401001
0.02106572111218185,0.020553790939134082,-0.1065540417028469, ,0.022159415310822578,0.020102437011483912,-0.10745808111852705, ,0.0014890180097127538, ,0.022796752403233034,-0.001226428139441805,-0.03306203508427433,0.01696087285066733,-0.038564919775293305,-0.0479134247568816, ,0.04017828032692928, ,0.04212938096517895, ,0.0011635839572852749, ,0.2386170003477889,-0.18227966403032111,0.11827868476000002,1.6852780757851225,0.5488688195577742,-1.352239444945392, ,0.13894134928033788,0.07333612176079658,0.03645036961098399,0.026491506542830952,0.09792734053399012,-0.07941291312228964, ,1.5152409076690674
0.021330416525204197,0.020535296078543947,-0.10692329678373938, ,0.022282379431608282,0.020099073271588146,-0.10762316378564618, ,0.0012594989213317032, ,0.021711468070432397,-0.0014812833436378323,-0.02902509820595578,0.0010537059545593034,-0.05608801148039167,-0.03970602543119773, ,0.03627724316955358, ,0.056097724802375334, ,0.0011644037433027657, ,0.2402542197171245,-0.1814301634141564,0.11868701611000002,1.6852780757851225,0.5499619115558978,-1.352804073214401, ,0.13556705936924396,0.06792909202467486,0.03224455773279353,0.02126415195444876,0.07750188705640963,-0.0598031028694835, ,1.5204699039459229
0.021562164593610805,0.020516339454249962,-0.10722286258713591, ,0.022405360265331416,0.020095873463793015,-0.10778630076476187, ,0.0010978311208677644, ,0.023285946975566577,-0.0017507795274343918,-0.030695006936251355,0.015003767477443754,-0.027506191124479926,-0.035176567537057335, ,0.03856791420752619, ,0.03133171461059225, ,0.0011638395685363674, ,0.24172926169610137,-0.1807042265239793,0.11902145893000002,1.6852780757851225,0.5509183670542559,-1.3533389623198544, ,0.1480451506372399,0.0732794915509427,0.034329335172413794,0.018163176775191255,0.1201335735767902,-0.07762032927397855, ,1.5265769958496094
0.021562164593610805,0.020516339454249962,-0.10722286258713591, ,0.022528352704142947,0.02009284164600189,-0.10794748942306641, ,0.001279825734182289, ,0.023285946975566577,-0.0017507795274343918,-0.030695006936251355,0.015003767477443754,-0.027506191124479926,-0.035176567537057335, ,0.03856791420752619, ,0.03133171461059225, ,0.0011648142421972574, ,0.24172926169610137,-0.1807042265239793,0.11902145893000002,1.6852780757851225,0.5509183670542559,-1.3533389623198544, ,0.1480451506372399,0.0732794915509427,0.034329335172413794,0.018163176775191255,0.1201335735767902,-0.07762032927397855, ,1.5317928791046143
0.021562164593610805,0.020516339454249962,-0.10722286258713591, ,0.02265135170349339,0.02008998184982651,-0.10810672729647867, ,0.001466058045101096, ,0.023285946975566577,-0.0017507795274343918,-0.030695006936251355,0.015003767477443754,-0.027506191124479926,-0.035176567537057335, ,0.03856791420752619, ,0.03133171461059225, ,0.001167324607221456, ,0.24172926169610137,-0.1807042265239793,0.11902145893000002,1.6852780757851225,0.5509183670542559,-1.3533389623198544, ,0.1480451506372399,0.0732794915509427,0.034329335172413794,0.018163176775191255,0.1201335735767902,-0.07762032927397855, ,1.5370628833770752
0.02178666007690981,0.020501304190962293,-0.10753105522459579, ,0.022774352281871465,0.020087298080626734,-0.10826401208881646, ,0.0012977529487330766, ,0.022861356379942254,-0.0013233049415213277,-0.031129547896266655,0.04298937569594721,0.009649613403476873,-0.03287537186638293, ,0.03864507088523633, ,0.044058736127937044, ,0.001168402527399238, ,0.24315024454495868,-0.18000145783242488,0.11936627207000002,1.6852780757851225,0.5524213685516758,-1.3544828805203746, ,0.14488082680682562,0.06982850740137658,0.034931604210526324,0.015946997063071674,0.15536099519055538,-0.10156353946318598, ,1.5424389839172363
0.02202565779012563,0.02048810193931048,-0.10784844201605723, ,0.022897349520542225,0.020084794317549462,-0.10841934167096974, ,0.001117331609964757, ,0.02288495659040653,-0.001165740329571893,-0.029401088992521463,0.05255740819270191,0.004839004014291795,-0.03242383698380261, ,0.03727605427894627, ,0.05277949551142875, ,0.0011679839133219062, ,0.24467934565405514,-0.17929868914087044,0.11972404811000001,1.6852780757851225,0.554061006548861,-1.3556565378844505, ,0.14781455071412894,0.06526612211724263,0.033323873472803356,0.014134862665185112,0.1537767551965405,-0.1075212819056151, ,1.547757863998413
0.02202565779012563,0.02048810193931048,-0.10784844201605723, ,0.02302033856328303,0.02008247451356342,-0.10857271408006716, ,0.0012955668534322734, ,0.02288495659040653,-0.001165740329571893,-0.029401088992521463,0.05255740819270191,0.004839004014291795,-0.03242383698380261, ,0.03727605427894627, ,0.05277949551142875, ,0.0011690211729976, ,0.24467934565405514,-0.17929868914087044,0.11972404811000001,1.6852780757851225,0.554061006548861,-1.3556565378844505, ,0.14781455071412894,0.06526612211724263,0.033323873472803356,0.014134862665185112,0.1537767551965405,-0.1075212819056151, ,1.5530798435211182
0.022258344047150137,0.020476665716504278,-0.10814872624464109, ,0.023143314616123657,0.02008034259550104,-0.10872412751865247, ,0.0011275333921108455, ,0.02429314278553097,-0.0010064830306852565,-0.03154201388583962,-0.07798599825196516,-0.11654861497611066,-0.01671070125203751, ,0.039825474692258875, ,0.1402332498203789, ,0.0011686865941194812, ,0.24612349670153513,-0.17864997957943557,0.12006108351000001,1.6852780757851225,0.5548808255474537,-1.3558349728657857, ,0.14577103157983223,0.06631512338118153,0.03516293933774835,0.012761210901183269,0.027532537911698504,0.019584624612837834, ,1.5583930015563965
0.022258344047150137,0.020476665716504278,-0.10814872624464109, ,0.023266272947083295,0.020078402464095688,-0.10887358035385368, ,0.0013038204497483222, ,0.02429314278553097,-0.0010064830306852565,-0.03154201388583962,-0.07798599825196516,-0.11654861497611066,-0.01671070125203751, ,0.039825474692258875, ,0.1402332498203789, ,0.0011697676649645122, ,0.24612349670153513,-0.17864997957943557,0.12006108351000001,1.6852780757851225,0.5548808255474537,-1.3558349728657857, ,0.14577103157983223,0.06631512338118153,0.03516293933774835,0.012761210901183269,0.027532537911698504,0.019584624612837834, ,1.5636570453643799
0.022504147089032436,0.020467675553030563,-0.10847241558383755, ,0.023389208885908046,0.020076657994019094,-0.10902107111655418, ,0.0011123183039600402, ,0.023635586928184214,-0.0005342314874001801,-0.030930031468248256,0.007260640720596045,-0.02040975919583915,-0.018942505998131055, ,0.03893062058776754, ,0.021662106697793764, ,0.001169311717654953, ,0.24762170687913468,-0.1779858245522523,0.12042404471000001,1.6852780757851225,0.5557006445460463,-1.3560134078471209, ,0.14735549931439562,0.061342560800562884,0.03500837696703297,0.011590633507720558,0.12786014452380517,-0.05821659339836423, ,1.5689399242401123
0.022504147089032436,0.020467675553030563,-0.10847241558383755, ,0.02351211782380886,0.020075113033919546,-0.10916659850056461, ,0.0012853016204191902, ,0.023635586928184214,-0.0005342314874001801,-0.030930031468248256,0.007260640720596045,-0.02040975919583915,-0.018942505998131055, ,0.03893062058776754, ,0.021662106697793764, ,0.001170225023975931, ,0.24762170687913468,-0.1779858245522523,0.12042404471000001,1.6852780757851225,0.5557006445460463,-1.3560134078471209, ,0.14735549931439562,0.061342560800562884,0.03500837696703297,0.011590633507720558,0.12786014452380517,-0.05821659339836423, ,1.5743029117584229
0.022708595448947322,0.020462900044367505,-0.1087372070788017, ,0.023634995213200373,0.02007377140646208,-0.10931016136179462, ,0.0011566824241969673, ,0.022957053495562634,-0.0006745513143625414,-0.02914490954073731,0.0900604422822096,0.030802737805327312,-0.032897178049596305, ,0.03710669854368068, ,0.09518230345823783, ,0.001170119222415158, ,0.2489268487348786,-0.17746067871680501,0.12072608028000001,1.6852780757851225,0.5572036460434662,-1.3570756473075003, ,0.1482764711851106,0.05968361104306338,0.033393734842767295,0.010748363395638508,0.18149253548896122,-0.14010125110129185, ,1.579859972000122
0.022708595448947322,0.020462900044367505,-0.1087372070788017, ,0.02375783656743673,0.020072636908362872,-0.10945175871742281, ,0.0013280799239161725, ,0.022957053495562634,-0.0006745513143625414,-0.02914490954073731,0.0900604422822096,0.030802737805327312,-0.032897178049596305, ,0.03710669854368068, ,0.09518230345823783, ,0.0011713437239771814, ,0.2489268487348786,-0.17746067871680501,0.12072608028000001,1.6852780757851225,0.5572036460434662,-1.3570756473075003, ,0.1482764711851106,0.05968361104306338,0.033393734842767295,0.010748363395638508,0.18149253548896122,-0.14010125110129185, ,1.585129976272583
0.02296119526763258,0.020452833648506794,-0.10905323582850449, ,0.02388063746055216,0.020071713310432653,-0.10959138974507057, ,0.0011314752742017519, ,0.02261715052392957,-0.0009012915127934177,-0.027235744078548556,0.02770691268139445,-0.006698129125083381,-0.019741318709903408, ,0.035413748456289036, ,0.028504788330183304, ,0.0011710370435942935, ,0.2505486226384658,-0.1767965236896217,0.12108774519000001,1.6852780757851225,0.5589799205404169,-1.358115686354851, ,0.14577103157983223,0.05797003149570604,0.03129432518664047,0.009842466118449342,0.14059588281310412,-0.07581683262898053, ,1.5903868675231934
0.02296119526763258,0.020452833648506794,-0.10905323582850449, ,0.0240033935269964,0.02007100435761019,-0.10972905378197066, ,0.0012995001829298788, ,0.02261715052392957,-0.0009012915127934177,-0.027235744078548556,0.02770691268139445,-0.006698129125083381,-0.019741318709903408, ,0.035413748456289036, ,0.028504788330183304, ,0.0011720176782457103, ,0.2505486226384658,-0.1767965236896217,0.12108774519000001,1.6852780757851225,0.5589799205404169,-1.358115686354851, ,0.14577103157983223,0.05797003149570604,0.03129432518664047,0.009842466118449342,0.14059588281310412,-0.07581683262898053, ,1.595625877380371
0.02318973319825103,0.020443087267184162,-0.10931995926637003, ,0.024126100461374096,0.02007051376900356,-0.10986475032414118, ,0.001145596770082092, ,0.022908433937269043,-0.0010365202404112152,-0.02610116832946655,-0.04449920677019901,-0.03069390869785455,0.00029481795553782465, ,0.03474394490886361, ,0.05405814758193016, ,0.0011718175198505312, ,0.25202366461744263,-0.17622504145692908,0.12139496592000001,1.6852780757851225,0.5602096490383058,-1.3583833388268536, ,0.14850851574095583,0.05706370508627226,0.030168203636363643,0.009151709070467853,0.11881730831620581,-0.0005597392265930985, ,1.6010088920593262
0.02318973319825103,0.020443087267184162,-0.10931995926637003, ,0.02424875401818178,0.020070245237926613,-0.1099984790255544, ,0.0013118404397758517, ,0.022908433937269043,-0.0010365202404112152,-0.02610116832946655,-0.04449920677019901,-0.03069390869785455,0.00029481795553782465, ,0.03474394490886361, ,0.05405814758193016, ,0.0011728703237597442, ,0.25202366461744263,-0.17622504145692908,0.12139496592000001,1.6852780757851225,0.5602096490383058,-1.3583833388268536, ,0.14850851574095583,0.05706370508627226,0.030168203636363643,0.009151709070467853,0.11881730831620581,-0.0005597392265930985, ,1.6065418720245361
0.023413528556032282,0.02043219323427795,-0.10956612510247685, ,0.024371350011546503,0.0200702024319389,-0.11013023969731071, ,0.0011690528464214213, ,0.02207265962258442,-0.0008255376814910422,-0.023114019473921874,0.013478561382760126,-0.0025001102099966766,-0.008124688710758415, ,0.03197095105746574, ,0.013708230029501245, ,0.001172841835122891, ,0.25340603380192883,-0.17571534108723028,0.12166200166000002,1.6852780757851225,0.5615760140359602,-1.3586807304624122, ,0.14850851574095583,0.050638709476238414,0.02746346813793104,0.008589060367228755,0.14674336101484622,-0.04643558408437823, ,1.6121158599853516
0.02362970681335965,0.020422534208366462,-0.10978646095601527, ,0.024493884314962716,0.020070388992881372,-0.11026003230680743, ,0.0010464601432243238, ,0.02217658868235225,-0.001119384108023716,-0.022746088566861628,0.04728772834317595,0.02127984639886807,-0.014111489776363067, ,0.031787397683029094, ,0.05185513499925058, ,0.0011719056744421608, ,0.25498919404114484,-0.17518247251890878,0.12194459288000001,1.6852780757851225,0.5632156520331455,-1.3592826366455042, ,0.1520784319847288,0.05242924947981811,0.027089815510204087,0.008037137954705849,0.17596733986453666,-0.08872206374778327, ,1.6175079345703125
0.02362970681335965,0.020422534208366462,-0.10978646095601527, ,0.024616352861031154,0.020070808536917763,-0.11038785697691238, ,0.0012078321676841986, ,0.02217658868235225,-0.001119384108023716,-0.022746088566861628,0.04728772834317595,0.02127984639886807,-0.014111489776363067, ,0.031787397683029094, ,0.05185513499925058, ,0.0011721698398336462, ,0.25498919404114484,-0.17518247251890878,0.12194459288000001,1.6852780757851225,0.5632156520331455,-1.3592826366455042, ,0.1520784319847288,0.05242924947981811,0.027089815510204087,0.008037137954705849,0.17596733986453666,-0.08872206374778327, ,1.622788906097412
0.023850433293841657,0.020413136736478012,-0.11001829020457524, ,0.024738751641196117,0.020071464654570183,-0.11051371398513384, ,0.0010729836998504517, ,0.02197451980995655,-0.0004232557294704876,-0.023341586232772948,0.03852752962815677,0.0008457570030964809,-0.013561505895793566, ,0.03206069734351825, ,0.0385367216490403, ,0.0011714458534104113, ,0.2564796814858702,-0.17467277214920995,0.12221940636000002,1.6852780757851225,0.5648552900303309,-1.3600479003088775, ,0.1464458974667759,0.04683955654416129,0.027654186666666667,0.007567403125881069,0.14936321784528553,-0.07579728109609564, ,1.6280088424682617
0.023850433293841657,0.020413136736478012,-0.11001829020457524, ,0.024861076705483657,0.020072360910759375,-0.11063760376279293, ,0.001233319728327516, ,0.02197451980995655,-0.0004232557294704876,-0.023341586232772948,0.03852752962815677,0.0008457570030964809,-0.013561505895793566, ,0.03206069734351825, ,0.0385367216490403, ,0.001171894214822854, ,0.2564796814858702,-0.17467277214920995,0.12221940636000002,1.6852780757851225,0.5648552900303309,-1.3600479003088775, ,0.1464458974667759,0.04683955654416129,0.027654186666666667,0.007567403125881069,0.14936321784528553,-0.07579728109609564, ,1.6332569122314453
0.023850433293841657,0.020413136736478012,-0.11001829020457524, ,0.024983324162239195,0.0200735008448415,-0.11075952689419441, ,0.0013957886976988492, ,0.02197451980995655,-0.0004232557294704876,-0.023341586232772948,0.03852752962815677,0.0008457570030964809,-0.013561505895793566, ,0.03206069734351825, ,0.0385367216490403, ,0.001173504966498221, ,0.2564796814858702,-0.17467277214920995,0.12221940636000002,1.6852780757851225,0.5648552900303309,-1.3600479003088775, ,0.1464458974667759,0.04683955654416129,0.027654186666666667,0.007567403125881069,0.14936321784528553,-0.07579728109609564, ,1.6385388374328613
0.024175620465302045,0.020412588223597646,-0.11036684181478205, ,0.02510549017786536,0.02007488797064686,-0.11087948411579776, ,0.0011142267596751937, ,0.023027726735268175,0.00011796929347979603,-0.024919496036072408,-0.02868140663071748,-0.033188403363366856,0.0098413623516858, ,0.03393039047874659, ,0.043864377286427156, ,0.0011730815507351995, ,0.25861115575915616,-0.1740240625877751,0.12263162658000001,1.6854877657286067,0.5667682010270471,-1.3604642485986596, ,0.14874128770920184,0.04405614742733091,0.029388951143911442,0.0,0.11811473741761828,-0.00635761166712602, ,1.6445858478546143
0.024175620465302045,0.020412588223597646,-0.11036684181478205, ,0.02522757097656055,0.020076525776519243,-0.11099747631538961, ,0.0012717066170425863, ,0.023027726735268175,0.00011796929347979603,-0.024919496036072408,-0.02868140663071748,-0.033188403363366856,0.0098413623516858, ,0.03393039047874659, ,0.043864377286427156, ,0.0011737810192905711, ,0.25861115575915616,-0.1740240625877751,0.12263162658000001,1.6854877657286067,0.5667682010270471,-1.3604642485986596, ,0.14874128770920184,0.04405614742733091,0.029388951143911442,0.0,0.11811473741761828,-0.00635761166712602, ,1.6499688625335693
0.024413933405054652,0.020414865079342044,-0.11062080093970572, ,0.02534956284005536,0.020078417725351166,-0.1111135045312536, ,0.0011096648551573523, ,0.02221277041101378,0.00011449963501335324,-0.02310104789599531,0.012959695305162769,-0.026691827939722437,-0.001506698717159475, ,0.03204806848145293, ,0.029671548698861017, ,0.0011733294970079427, ,0.26015570233400104,-0.1735838668139443,0.12293236586000002,1.6854877657286067,0.567997929524936,-1.3607319010706622, ,0.14532456593946522,0.04099219937730919,0.0275109007253886,0.0,0.1213403532601729,-0.04685929172595275, ,1.655729055404663
0.024413933405054652,0.020414865079342044,-0.11062080093970572, ,0.025471462107352055,0.02008056725462586,-0.11122756995134311, ,0.001264235193813327, ,0.02221277041101378,0.00011449963501335324,-0.02310104789599531,0.012959695305162769,-0.026691827939722437,-0.001506698717159475, ,0.03204806848145293, ,0.029671548698861017, ,0.001173965201181407, ,0.26015570233400104,-0.1735838668139443,0.12293236586000002,1.6854877657286067,0.567997929524936,-1.3607319010706622, ,0.14532456593946522,0.04099219937730919,0.0275109007253886,0.0,0.1213403532601729,-0.04685929172595275, ,1.6619009971618652
0.024767116059037014,0.02041363269148408,-0.11095748018684942, ,0.025593265174461748,0.02008297777645362,-0.1113396739124528, ,0.0009684663533863514, ,0.021863385232850474,0.00024742208642922556,-0.02005234865247617,0.04856458962116649,-0.01255898654406415,-0.006692151680803638, ,0.029667583622690608, ,0.050162179637527414, ,0.001172538125849497, ,0.2625343040592622,-0.17294287998538366,0.12334069721000002,1.6856974556720912,0.5700474770214176,-1.3613413460042811, ,0.14944400245428469,0.03523837413979605,0.024657602972136226,0.0008070311659305828,0.13991228659328053,-0.07695719307830759, ,1.6679730415344238
0.024767116059037014,0.02041363269148408,-0.11095748018684942, ,0.02571496849414152,0.020085652677608534,-0.11144981789938736, ,0.001117314437131481, ,0.021863385232850474,0.00024742208642922556,-0.02005234865247617,0.04856458962116649,-0.01255898654406415,-0.006692151680803638, ,0.029667583622690608, ,0.050162179637527414, ,0.0011721572728238554, ,0.2625343040592622,-0.17294287998538366,0.12334069721000002,1.6856974556720912,0.5700474770214176,-1.3613413460042811, ,0.14944400245428469,0.03523837413979605,0.024657602972136226,0.0008070311659305828,0.13991228659328053,-0.07695719307830759, ,1.6732399463653564
0.024767116059037014,0.02041363269148408,-0.11095748018684942, ,0.025836568575634062,0.02008859531957077,-0.11155800354413706, ,0.0012688602291206406, ,0.021863385232850474,0.00024742208642922556,-0.02005234865247617,0.04856458962116649,-0.01255898654406415,-0.006692151680803638, ,0.029667583622690608, ,0.050162179637527414, ,0.0011728196218395868, ,0.2625343040592622,-0.17294287998538366,0.12334069721000002,1.6856974556720912,0.5700474770214176,-1.3613413460042811, ,0.14944400245428469,0.03523837413979605,0.024657602972136226,0.0008070311659305828,0.13991228659328053,-0.07695719307830759, ,1.679218053817749
0.025110265914644422,0.020421460898747263,-0.11127451791710849, ,0.025958061984404007,0.02009180903856105,-0.11166423262504598, ,0.000989598948264816, ,0.022103456222813435,0.0007065935041665393,-0.020148179876300396,0.0566312821685101,0.0031987993098062328,-0.00757615414121596, ,0.029916737851940284, ,0.056721522518002644, ,0.0011715732226996224, ,0.2648820148530265,-0.17240228868418794,0.12373217679000001,1.6861168355590603,0.5725069340171954,-1.36236672338913, ,0.15135078398480187,0.03169570526335029,0.025005983547880698,0.005318280497976343,0.15718230915757134,-0.07938325438149266, ,1.6845769882202148
0.025110265914644422,0.020421460898747263,-0.11127451791710849, ,0.026079445341876055,0.020095297145579866,-0.11176850706598337, ,0.0011356570059905462, ,0.022103456222813435,0.0007065935041665393,-0.020148179876300396,0.0566312821685101,0.0031987993098062328,-0.00757615414121596, ,0.029916737851940284, ,0.056721522518002644, ,0.0011713305455596963, ,0.2648820148530265,-0.17240228868418794,0.12373217679000001,1.6861168355590603,0.5725069340171954,-1.36236672338913, ,0.15135078398480187,0.03169570526335029,0.025005983547880698,0.005318280497976343,0.15718230915757134,-0.07938325438149266, ,1.6899299621582031
0.02533917558049392,0.02043178837702527,-0.11148471804480348, ,0.02620071532517411,0.020099062926448252,-0.1118708289355182, ,0.0010010187695811711, ,0.02187297091899862,0.0010688895140407847,-0.020462843974168414,-0.0013662840347858209,-0.014439375504060378,0.00812970142222691, ,0.029971609318282296, ,0.014503748108561662, ,0.0011701875135061491, ,0.2664342841607456,-0.1721011021020932,0.12399273108000002,1.6861168355590603,0.5740099355146153,-1.362775532928385, ,0.1464458974667759,0.028739231241208592,0.02524375835182251,0.005318280497976343,0.13398941425747513,-0.01695630019609131, ,1.6953458786010742
0.02533917558049392,0.02043178837702527,-0.11148471804480348, ,0.026321868666856988,0.020103109641841154,-0.11197120044608576, ,0.0011447185416972071, ,0.02187297091899862,0.0010688895140407847,-0.020462843974168414,-0.0013662840347858209,-0.014439375504060378,0.00812970142222691, ,0.029971609318282296, ,0.014503748108561662, ,0.001170017720360756, ,0.2664342841607456,-0.1721011021020932,0.12399273108000002,1.6861168355590603,0.5740099355146153,-1.362775532928385, ,0.1464458974667759,0.028739231241208592,0.02524375835182251,0.005318280497976343,0.13398941425747513,-0.01695630019609131, ,1.7007980346679688
0.025546991477356853,0.020442873465411487,-0.1116830689461891, ,0.026442902154658388,0.020107440527330985,-0.11206962395316364, ,0.0010317926008017795, ,0.02157782347660871,0.0007094372248243484,-0.02078161869239419,-0.014434379282490048,-0.00945258554632707,0.04546469643909764, ,0.02996633849237708, ,0.01725395034954511, ,0.0011691023222179815, ,0.26780893061235755,-0.1718153609857469,0.12423643360000002,1.6865362154460295,0.5752396640125043,-1.3627981491799661, ,0.14334885431793168,0.03054294868312545,0.025486098432000007,-0.03203519341530312,0.14244585811962837,-0.014643021359126158, ,1.7060818672180176
0.025546991477356853,0.020442873465411487,-0.1116830689461891, ,0.02656381263122343,0.02011205879342178,-0.11216610195443955, ,0.0011733219904244932, ,0.02157782347660871,0.0007094372248243484,-0.02078161869239419,-0.014434379282490048,-0.00945258554632707,0.04546469643909764, ,0.02996633849237708, ,0.01725395034954511, ,0.0011691300831930243, ,0.26780893061235755,-0.1718153609857469,0.12423643360000002,1.6865362154460295,0.5752396640125043,-1.3627981491799661, ,0.14334885431793168,0.03054294868312545,0.025486098432000007,-0.03203519341530312,0.14244585811962837,-0.014643021359126158, ,1.711439847946167
0.025766170257322186,0.020452775505178503,-0.11189368393683143, ,0.026684596993847454,0.02011696762559049,-0.11226063708898605, ,0.0010444755709130146, ,0.021100188205494877,0.0013220845904909986,-0.02026359250529289,0.047432659855218384,0.06296797851371641,-0.001051037517237246, ,0.029284450331059336, ,0.07883413044195052, ,0.0011683153478186453, ,0.2692839725913344,-0.17152189713652635,0.12449698789000001,1.686326525502545,0.577015938509455,-1.3631030795660517, ,0.14400142876854444,0.02691348314193726,0.025324024674085854,0.01710220806109655,0.2086022910810227,-0.05803032619381626, ,1.7167549133300781
0.025766170257322186,0.020452775505178503,-0.11189368393683143, ,0.026805252194212734,0.02012217018432222,-0.112353232136428, ,0.0011832902000368116, ,0.021100188205494877,0.0013220845904909986,-0.02026359250529289,0.047432659855218384,0.06296797851371641,-0.001051037517237246, ,0.029284450331059336, ,0.07883413044195052, ,0.0011684125871187633, ,0.2692839725913344,-0.17152189713652635,0.12449698789000001,1.686326525502545,0.577015938509455,-1.3631030795660517, ,0.14400142876854444,0.02691348314193726,0.025324024674085854,0.01710220806109655,0.2086022910810227,-0.05803032619381626, ,1.722019910812378
0.02598287929618047,0.020463992637967533,-0.11209150656409146, ,0.026925775238127652,0.02012766960515111,-0.11244389001611688, ,0.0010612916832825222, ,0.021931709874646682,0.0011864995358471981,-0.01914725839047249,-0.051096070098625046,-0.02027082688561877,0.015620722413703651, ,0.029138036705408956, ,0.05497010304336419, ,0.0011677214845133683, ,0.27075129183743707,-0.1712516014859285,0.12474457928000002,1.686326525502545,0.5786555765066402,-1.3631332345681597, ,0.14758466805360929,0.026027685561840586,0.02406164882175227,0.015562025394600899,0.12728306059871922,0.04052496547824752, ,1.7273378372192383
0.02598287929618047,0.020463992637967533,-0.11209150656409146, ,0.027046163185263785,0.020133468998697834,-0.11253261378630192, ,0.0011976619249130574, ,0.021931709874646682,0.0011864995358471981,-0.01914725839047249,-0.051096070098625046,-0.02027082688561877,0.015620722413703651, ,0.029138036705408956, ,0.05497010304336419, ,0.001167913410413366, ,0.27075129183743707,-0.1712516014859285,0.12474457928000002,1.686326525502545,0.5786555765066402,-1.3631332345681597, ,0.14758466805360929,0.026027685561840586,0.02406164882175227,0.015562025394600899,0.12728306059871922,0.04052496547824752, ,1.732619047164917
0.026179389164688215,0.020474588828978953,-0.11225466022922048, ,0.027166413148893894,0.020139571450706543,-0.1126194066432999, ,0.0011043065406514483, ,0.021500756170347197,0.0010031294251448284,-0.017281562835151282,-0.02608105250140031,-0.011978859232781714,0.015856640082505688, ,0.02760328238752769, ,0.028700397674955583, ,0.0011675082711155194, ,0.27208732462467794,-0.171027642232576,0.12495198568000002,1.6865362154460295,0.5797486685047639,-1.3627177179554821, ,0.14850851574095583,0.02454019693779953,0.022215915648535565,0.00934644265283984,0.1378296005030669,0.014725229440862804, ,1.737936019897461
0.026179389164688215,0.020474588828978953,-0.11225466022922048, ,0.027286522295629986,0.020145980022084595,-0.11270427192066751, ,0.0012393055275771664, ,0.021500756170347197,0.0010031294251448284,-0.017281562835151282,-0.02608105250140031,-0.011978859232781714,0.015856640082505688, ,0.02760328238752769, ,0.028700397674955583, ,0.0011679626841310997, ,0.27208732462467794,-0.171027642232576,0.12495198568000002,1.6865362154460295,0.5797486685047639,-1.3627177179554821, ,0.14850851574095583,0.02454019693779953,0.022215915648535565,0.00934644265283984,0.1378296005030669,0.014725229440862804, ,1.743237018585205
0.026428885756927856,0.020488195775814438,-0.11244518911396849, ,0.027406487845161222,0.020152697748941444,-0.11278721308837394, ,0.0010886896564319944, ,0.021743473440854772,0.0013467734801307619,-0.016525464479820326,0.048590146512656536,0.025781679001383933,-0.02466379861089805, ,0.027343800254422276, ,0.05500632761605232, ,0.0011674641116298473, ,0.27373998945976197,-0.17076506931485236,0.12518661417000002,1.687165285276483,0.5815249430017145,-1.363022648341568, ,0.15506036202364507,0.022407778408139498,0.021730984338335608,0.039293301920242774,0.17550009453696053,-0.04836726308750336, ,1.7486379146575928
0.026637379035099475,0.020499517293338,-0.11259610780870952, ,0.027526307069991447,0.020159727642624237,-0.11286823375196924, ,0.0009897992659848138, ,0.021451675129685505,0.001198288312393301,-0.014852294405833136,0.032520842896324544,0.014129803264678989,-0.030783510754490567, ,0.02611897604935401, ,0.035457803658289766, ,0.001166353706344566, ,0.27534631789760067,-0.17054111006149986,0.12540439089000002,1.6873749752199676,0.5834378539984307,-1.3636023541116309, ,0.15405347655595905,0.021263038664232754,0.020086773669609086,0.049705060364328986,0.16327414759077824,-0.030399036149459845, ,1.7545478343963623
0.026637379035099475,0.020499517293338,-0.11259610780870952, ,0.02764597729517744,0.020167072689758637,-0.11294733765175843, ,0.0011185491796651174, ,0.021451675129685505,0.001198288312393301,-0.014852294405833136,0.032520842896324544,0.014129803264678989,-0.030783510754490567, ,0.02611897604935401, ,0.035457803658289766, ,0.0011660567838186065, ,0.27534631789760067,-0.17054111006149986,0.12540439089000002,1.6873749752199676,0.5834378539984307,-1.3636023541116309, ,0.15405347655595905,0.021263038664232754,0.020086773669609086,0.049705060364328986,0.16327414759077824,-0.030399036149459845, ,1.7598118782043457
0.026830594779677374,0.020506795025274926,-0.11272879174986314, ,0.027765495898066754,0.02017473585228623,-0.11302452866197249, ,0.0010352602169095575, ,0.020805545877243307,0.0004651170071454656,-0.01437330937887375,-0.018115282777088702,-0.007795267659931873,0.04591671452533615, ,0.02529187805563739, ,0.019721284302175426, ,0.0011652493976031185, ,0.27672868708208687,-0.1703325962738958,0.12558327891,1.687584665163452,0.584804218996085,-1.3636547095267677, ,0.14874128770920184,0.02320786049363433,0.019307650327272732,-0.025208473056315638,0.14836513843998347,-0.0012545287220992532, ,1.7651629447937012
0.026830594779677374,0.020506795025274926,-0.11272879174986314, ,0.02788486030814013,0.020182720068003493,-0.11309981079043181, ,0.0011636818770178695, ,0.020805545877243307,0.0004651170071454656,-0.01437330937887375,-0.018115282777088702,-0.007795267659931873,0.04591671452533615, ,0.02529187805563739, ,0.019721284302175426, ,0.0011652397809124115, ,0.27672868708208687,-0.1703325962738958,0.12558327891,1.687584665163452,0.584804218996085,-1.3636547095267677, ,0.14874128770920184,0.02320786049363433,0.019307650327272732,-0.025208473056315638,0.14836513843998347,-0.0012545287220992532, ,1.7704570293426514
