NicholasDascanio/dvrk_moveit_final/test/execution/third_experiment_notsharpbends/thirdexp_200vel4.0/thirdexp_200vel4.0_30.csv
Current Position (x),Current Position (y),Current Position (z), ,Planned Position (x),Planned Position (y),Planned Position (z), ,Position Error,,Cartesian linear Velocity(x),Cartesian linear Velocity(y),Cartesian linear Velocity(z),Cartesian Angular Velocity(x),Cartesian Angular Velocity(y),Cartesian Angular Velocity(z), ,Total Linear Velocity, ,Total Angular Velocity, ,MSE, ,Joint 1 Position,Joint 2 Position,Joint 3 Position,Joint 4 Position,Joint 5 Position,Joint 6 Position, ,Joint 1 Velocity,Joint 2 Velocity,Joint 3 Velocity,Joint 4 Velocity,Joint 5 Velocity,Joint 6 Velocity, ,Time Stamp
0.010196274074900596,0.019811934868483167,-0.08016879301419136, ,0.010342222830489528,0.01983048464728494,-0.08022891529146302, ,0.00015893338785756355, ,0.0016044952050303467,0.00036675394766594327,-0.00017965425280825595,0.044086716147647066,-0.17077109716296118,-0.05361426246967044, ,0.0016556536387922506, ,0.17637008297022694, ,1.3244448988130296e-05, ,0.1431176856251286,-0.23986036034053904,0.08979271201000001,1.6047571374870648,0.15002687674245363,-1.314356391870036, ,0.0003619065559899526,-0.0015234651963039107,0.0013686481011557742,0.012254108695896365,-0.1642422426550923,-0.17903151026877184, ,0.05373501777648926
0.010242416649054197,0.019838666315842596,-0.08020858491093506, ,0.010379626710445964,0.01994441005455573,-0.08036418977346359, ,0.00023285448775294218, ,0.0015514419026683107,0.0007316562313981219,-0.0010339772545314902,-0.07842886258744926,-0.1432989410615726,-0.034012896289216346, ,0.0020028484169270643, ,0.1633575005811728, ,1.7808539800477534e-05, ,0.14314857655662552,-0.24008431959389157,0.08984197103000001,1.6049668274305493,0.14401487075277425,-1.3216241363883372, ,0.0008442711842039242,-0.005526451754697886,0.0011906851584585622,0.0,-0.14663589458475784,0.08391296398047648, ,0.10593390464782715
0.010263894076802157,0.01993338485070674,-0.08036992627229954, ,0.01041844738621184,0.02005478573569345,-0.08050112413905108, ,0.00023630019163174058, ,0.0003756596974074222,0.001854872796069243,-0.003001185142857372,0.015647059824422348,0.014413122616877215,0.005664956886596845, ,0.003548067862874355, ,0.021273659404876938, ,1.9627752101320198e-05, ,0.14320263568674507,-0.24071758368957796,0.09002345163000001,1.605176517374034,0.14469805325160143,-1.316218677876558, ,0.0010747096307746635,-0.012895358276732,0.0033992342125480153,0.0,0.015953105875362188,-0.002883473384183731, ,0.15836405754089355
0.010274717609441583,0.01998199676607624,-0.08043166934256472, ,0.0104586684840264,0.02016166216213029,-0.08063969247729989, ,0.00033074341019107803, ,0.0004429608266919279,0.0018360501634270847,-0.0022022031018394165,0.028871858649375616,-0.0015098737132121054,0.002054880300947768, ,0.0029012054388400984, ,0.02891131163485288, ,2.338613359593474e-05, ,0.1432412493511162,-0.2411037203332892,0.09009604387,1.605176517374034,0.14483468975136687,-1.3169835257013793, ,0.0015300378812074182,-0.014944400245428468,0.0026151389788212124,0.0,0.0,-0.014080752638477453, ,0.20600199699401855
0.010319325862695869,0.020113073983539346,-0.08060497471471365, ,0.010500273742222566,0.02026508947624865,-0.08077986902518991, ,0.00029400487235049197, ,0.0008798060090609367,0.0022532143608305277,-0.004052421396027639,0.015518241606217497,-0.0018203924201146123,-0.00045304803700709477, ,0.0047194441134963405, ,0.015624648796669614, ,2.5056726995676324e-05, ,0.14344976313872027,-0.2421153983398126,0.0902995614,1.6053862073175185,0.144561416751836,-1.3159439024925808, ,0.0037227359064124547,-0.014248790023794413,0.004553691114922814,0.002899235097197992,0.0012428628525600568,-0.001013471318806581, ,0.2532351016998291
0.01036234286832427,0.020220280200381725,-0.08075306770892386, ,0.010543247010890912,0.020365117492284424,-0.08092162816729902, ,0.0002865602520433037, ,0.0007389102129616172,0.0018489317584992173,-0.0021170421042371996,-0.03290982685232542,-0.006620909440980096,0.011026339975248553, ,0.0029062698122368233, ,0.03356922914267132, ,2.6091467827578304e-05, ,0.1437123360564439,-0.24291083982585773,0.09047326426,1.6060152771479719,0.144561416751836,-1.314800400130613, ,0.005364231181506217,-0.015237145401167433,0.002576226996603591,-0.008731110204396585,0.0009094391382119423,0.0467771066309591, ,0.3001270294189453
0.010391953983763644,0.020299621749863345,-0.08086537708060382, ,0.010587572251544197,0.020461795697230924,-0.08106494443549417, ,0.0003231006422651886, ,0.0010561185486413559,0.0022068787457953515,-0.003935630174399124,0.005660617249541087,-0.007287995173257043,0.010266274929234495, ,0.004634100242449279, ,0.00922807999244718, ,2.7389665354298656e-05, ,0.1438745134468026,-0.2434977675242988,0.09060418955,1.6060152771479719,0.144561416751836,-1.3143920064299102, ,0.005986239553394423,-0.014031781984100367,0.004453120357841768,-0.0083693389422687,0.0007450017246685833,0.007061875373601899, ,0.34746599197387695
0.010431266284806123,0.020388855260581398,-0.0810224047374748, ,0.010633233536780348,0.020555173251741575,-0.08120979250862335, ,0.00032181768414678785, ,0.0007620556822035095,0.0019694767329094813,-0.003173949784098495,0.001563337152547225,-0.0023537163685832226,-0.0009629206817968545, ,0.0038122860197300707, ,0.0028255978967581335, ,2.8740985897882846e-05, ,0.14407530450153244,-0.2440692497569914,0.09078178128000002,1.6058055872044876,0.144561416751836,-1.3139019339890665, ,0.0037206956941048534,-0.013331967063567124,0.003626778579234973,0.003212779387136209,0.000623963969478059,0.012078228791119618, ,0.38919901847839355
0.010479760771229332,0.02049293681914596,-0.0812068012345796, ,0.010680215049945522,0.020645298991032287,-0.08135614721220608, ,0.00029274625584412587, ,0.0009615896032214564,0.0019551070322050422,-0.003424449739866682,-0.004210809396307596,-0.0033489797459607257,-0.005236813634532612, ,0.0040588119066143225, ,0.005380202657889393, ,2.948882362003836e-05, ,0.14433787741925608,-0.24471795931842627,0.09099048397000001,1.6062249670914566,0.144561416751836,-1.3133301828080826, ,0.005660018099557883,-0.012252671602126633,0.0038898196630036633,0.0075044360554485405,0.0005243180415061345,0.017383643207015447, ,0.4320249557495117
0.010515253873257017,0.020564501655283146,-0.08131886711972386, ,0.01072850108479665,0.020732221425783626,-0.0815039835181233, ,0.0003284393027677134, ,0.0012521816533432077,0.0020187691014232627,-0.0036806284441542525,-0.0005204545172396104,-0.008255676943631123,0.0019288500085296446, ,0.004380686398470903, ,0.008272065886260921, ,3.0494570509249302e-05, ,0.14456955940548283,-0.2452044914895024,0.09112011297000001,1.606434657034941,0.144561416751836,-1.3128401103672394, ,0.008697119115260589,-0.012221472262067493,0.004188485805942677,0.0,0.0004653113485800169,0.012614688206500217, ,0.47382497787475586
0.010550761087937755,0.02062670032974833,-0.0814477680079714, ,0.010778076045163152,0.02081598874304178,-0.0816532765443074, ,0.0003601887723021083, ,0.0011463127585681723,0.0019732314546114806,-0.003658800186363159,-0.0006408887945468593,-0.009291271250402678,0.0012102007862018688, ,0.004312133360374584, ,0.009313348444026604, ,3.1976659183364076e-05, ,0.14480124139170955,-0.24553656900309406,0.09126400116000001,1.606434657034941,0.14483468975136687,-1.312899588694351, ,0.0071422215833641224,-0.011772353499376104,0.0041405800675851315,0.0,-0.0022057218673680185,0.012289703352705263, ,0.5111749172210693
0.010601338001694436,0.020707013509805916,-0.08159199956585934, ,0.010828924444609048,0.02089664880712053,-0.08180400155443183, ,0.0003642828271341081, ,0.0016592012673557674,0.0022519395658425192,-0.00507586750544265,-0.0064390693406358585,-0.011089078769994324,-0.005717787700685561, ,0.005795568271240584, ,0.012822998033660644, ,3.3301623455539174e-05, ,0.1451564871039239,-0.2460231011741702,0.09142862999000001,1.6066443469784255,0.14483468975136687,-1.3121644800330858, ,0.010801282474432846,-0.010576523122562843,0.005636522123142251,0.007097199205435941,-0.002066357155342648,0.017899679148457602, ,0.5477979183197021
0.010655271293371743,0.020783950664060725,-0.08175430983774588, ,0.010881030906093714,0.020974249160501196,-0.08195613395759939, ,0.00035765052193240294, ,0.0013854630026384652,0.0022312590088619795,-0.004256875099980786,0.005332621113702025,-0.008072267521975252,0.0009076849229585506, ,0.005001900650067348, ,0.00967462399738649, ,3.4403739895748276e-05, ,0.145504010083264,-0.24641696055075565,0.09161011059000002,1.6068540369219102,0.14469805325160143,-1.3118897046491085, ,0.009238579905500541,-0.012803149157915646,0.004813784079782412,0.0012463716447772381,0.0008941914881030673,0.00751082595188488, ,0.5842459201812744
0.01071062668209917,0.0208616948284618,-0.08189446386264886, ,0.010934380161633422,0.021048837024733976,-0.08210964930803188, ,0.00036248116797145706, ,0.0017379915639922775,0.0022042379703779477,-0.003979055503565711,0.004526981504885366,-0.01275244407570018,0.000714879465784836, ,0.004869513569856931, ,0.01353212438798744, ,3.541753146825844e-05, ,0.1459210376584721,-0.24688032452320913,0.09177085055,1.6070637268653947,0.14469805325160143,-1.311399632208265, ,0.01390431378146092,-0.013100074759590113,0.004585150120898101,0.0014801806675882995,0.0008193509216863363,0.008642909408561432, ,0.6209349632263184
0.010775658960876839,0.020955791627471243,-0.08208156145425137, ,0.010988957051961729,0.02112045930133779,-0.08226452330475799, ,0.0003257093139870024, ,0.0016338260692285423,0.00246001673908427,-0.005382171123654231,0.0041030936078421155,-0.00853138578372981,-0.004089959138282254, ,0.00613912338899969, ,0.009466779601807194, ,3.631597690617472e-05, ,0.1463844016309256,-0.24739002489290796,0.09198214582000001,1.6072734168088794,0.14483468975136687,-1.3111026564112587, ,0.010040908680309265,-0.011923224218930868,0.00598377592787378,0.006107862681028736,1.7409304696914145e-05,0.008556451466355239, ,0.6536839008331299
0.010833952135663082,0.02103225170988784,-0.08224855672506445, ,0.011044746526189591,0.021189162572699826,-0.08242073179130098, ,0.00031416484109364663, ,0.0017796871256147556,0.0020504801997387892,-0.004328000804663222,-0.000754232285853924,-0.012204947712318214,-0.0038529668241293544, ,0.005109143399804436, ,0.012228230186043668, ,3.7045287358118646e-05, ,0.1466083608842781,-0.24761398414626046,0.09209492305000001,1.6072734168088794,0.14483468975136687,-1.3108576201908368, ,0.011972866711893865,-0.010449789074284418,0.0056766969066286525,0.006046666628607786,1.7409304696914145e-05,0.008956365367523584, ,0.68526291847229
0.010883278148282235,0.02109530838828274,-0.08239299663617869, ,0.01110173364146591,0.021254993102975878,-0.08257825075536718, ,0.00032793459604783153, ,0.0015223482240548075,0.0020486996965238735,-0.004613608675940969,0.0073473199027634176,-0.004939421087910994,-0.006471097406320597, ,0.005272579973460585, ,0.008853303809706666, ,3.781096034289488e-05, ,0.14713350671972536,-0.2480387344543428,0.09232955154000001,1.607692796695848,0.1449713262511323,-1.3104789656536902, ,0.010331952093087857,-0.009344575485492035,0.00513501338491296,0.009033011172693397,0.0032776003874799087,0.003181773964420426, ,0.7163040637969971
0.01091519714171772,0.02113394230881405,-0.08248527764917013, ,0.011159903562637685,0.021317996838990206,-0.08273705632853348, ,0.00039642124804275777, ,0.0017865869456317857,0.0019639166951308205,-0.004847451168441871,-0.0025019487803340057,-0.009342465460098658,-0.007194184856500978, ,0.005526901892574531, ,0.009671680613836017, ,3.9261075352183575e-05, ,0.14735746597307786,-0.2481931891118273,0.09242936587000002,1.607692796695848,0.14510796275089774,-1.310508704817246, ,0.01271224937152991,-0.00770558074179509,0.005347033071500504,0.009033011172693397,0.001303002353396087,0.011383764168436485, ,0.7426679134368896
0.010977018445227525,0.02120068933109543,-0.08266890521910292, ,0.011219241561908778,0.021378219411133458,-0.08289712478593453, ,0.0003771911163560143, ,0.0021853665817267295,0.002335656667654972,-0.006776775620414718,-0.0005073344203737015,-0.008261755107420353,-0.005366708123574102, ,0.0074937178339684225, ,0.008277316677301947, ,4.048327629539368e-05, ,0.14778993901403445,-0.24840942563230559,0.0926328834,1.607692796695848,0.14524459925066321,-1.310130050280099, ,0.014426412520290479,-0.006158844739308295,0.007371037260527535,0.007702936960091869,0.004410645461870686,0.007699886493223739, ,0.7687249183654785
0.011022892332723246,0.021251452025541896,-0.08281404562283765, ,0.01127973301850027,0.02143570613426317,-0.08305843254594987, ,0.0003995518522536754, ,0.002281007040546663,0.0023147012508226692,-0.006682499078783044,-0.014811397836469535,-0.0068541143595218955,0.0008209749984246405, ,0.00743078925401062, ,0.01632042818671558, ,4.177174342465321e-05, ,0.14810657106187763,-0.24854843482404163,0.09279103078,1.6079024866393328,0.14551787225019408,-1.3100261711269297, ,0.016169184112876264,-0.006193428832059127,0.007293411868131869,0.0024736846197938476,0.008990807385977188,0.021294610198561388, ,0.7950410842895508
0.011090636212641109,0.021314759754427582,-0.08298676664231305, ,0.011341363418309394,0.021490502008602204,-0.083220956169891, ,0.00038547919060798495, ,0.0021876203205519165,0.0018959249950265267,-0.004784056600527497,-0.0028543516156637173,-0.004255929532666572,-0.004119695873672268, ,0.005591727086572512, ,0.005124476249029047, ,4.288959452265776e-05, ,0.1486317168973249,-0.24874150314589724,0.09298158541000001,1.6081121765828172,0.14579114524972495,-1.309758934493479, ,0.018746926424036105,-0.00675325268777386,0.005359627025572006,0.00867329944202895,0.01275685006914002,0.010783961048568597, ,0.8220930099487305
0.011140861755962189,0.02135510768848679,-0.08309922303406542, ,0.01140411835356859,0.021542651720637285,-0.08338467236168859, ,0.0004312286154919289, ,0.00253866464912731,0.002237816124698641,-0.006456884945059601,-0.0006489338195328566,-0.006521401736928911,-0.004606740526121886, ,0.007289993306061897, ,0.006553608509316888, ,4.449249722266577e-05, ,0.14902557627391036,-0.2488573441390106,0.09310602925000001,1.6081121765828172,0.14579114524972495,-1.309595577013198, ,0.01973319641473711,-0.005715612112394177,0.0070952389844098004,0.00867329944202895,0.011435611132039974,0.007553313502475092, ,0.8435919284820557
0.01119310627238542,0.02140403765227791,-0.08324916728009318, ,0.011467983522504584,0.021592199644018307,-0.08354955796757843, ,0.0004485498889718361, ,0.0028944245797425596,0.002665283758319342,-0.008379483242166209,-0.00294914079161868,-0.013608466859065894,-0.0026889198108209678, ,0.009257276627924818, ,0.013924358525624663, ,4.612249662074512e-05, ,0.1494194356504958,-0.24895773966637552,0.09326936179,1.608321866526302,0.14620105474902126,-1.309766473244006, ,0.019770196158014744,-0.005001234473888577,0.009086600981175131,0.0049236033542123395,0.005108895916213073,0.00860729162884288, ,0.8643999099731445
0.01125500137650193,0.021460326800293902,-0.08343268292025167, ,0.011532944728997232,0.021639189840456156,-0.08371558997578803, ,0.0004350642439969766, ,0.0031772278624890337,0.0027843079795667487,-0.009038970546870861,-0.0028835709323336107,-0.01752390635948308,-0.0032619238611763346, ,0.009977481463899325, ,0.01775956686068618, ,4.759646284141569e-05, ,0.14983646322570393,-0.24904268972799198,0.09346769416,1.6085315564697864,0.14633769124878673,-1.3096328549272809, ,0.021606771757393162,-0.004352923779532425,0.009784282260442262,0.004865969802498917,0.002975526500966306,0.007893300461465094, ,0.8857970237731934
0.011321504859325683,0.02151410512152134,-0.08361468440444536, ,0.011598987882238088,0.021683666060621578,-0.08388274551622414, ,0.00042143148876328245, ,0.0033279188061466885,0.002451448067341917,-0.008601026269301018,0.0031189866570420165,-0.010501465191239788,-0.000920644026231847, ,0.009542656553202857, ,0.010954852890789986, ,4.920711081967601e-05, ,0.15032299539678007,-0.24910447159098578,0.09366473024000001,1.6085315564697864,0.1466109642483176,-1.3096106545142518, ,0.02521842720129439,-0.0017616216811686444,0.009315094456140352,0.004865969802498917,0.01395788192149619,-0.0006653402002026691, ,0.9019780158996582
0.011387160644549425,0.02156464728813974,-0.08378546307950703, ,0.011666098996389065,0.02172567174504356,-0.08405100186015756, ,0.0004174282260192201, ,0.0031865469201607564,0.0024694854946579413,-0.008360378080651522,0.015005760077188096,-0.00501029803563559,-0.0014423220163167446, ,0.009281614166412565, ,0.01582011002034757, ,5.074010453308619e-05, ,0.15081725030073045,-0.24915853072110536,0.09385009971000001,1.6087412464132707,0.1468842372478485,-1.3096701328413638, ,0.024345033750249045,-0.0026342666719544154,0.009076245880341883,0.006662992952824408,0.018271874273752542,-0.011422407165951219, ,0.9176859855651855
0.011420020886610364,0.0215882674159948,-0.08387058969562, ,0.011734264190240613,0.021765250025006986,-0.08422033641990971, ,0.0005023887627331996, ,0.00352638112244818,0.0023996741322595268,-0.008529223204781798,-0.0009192964662734508,-0.01613629254129726,-0.004092430758975214, ,0.009536322574178302, ,0.01616245642941381, ,5.269635285227022e-05, ,0.15106437775270565,-0.24916625345397958,0.0939421363,1.6089509363567556,0.1470208737476139,-1.3096181932647788, ,0.02702846526871854,-0.0012791290517013927,0.009255555793143523,0.006941896677627758,0.009478278621618721,0.0032022444588124767, ,0.9334690570831299
0.01149645575128229,0.021644114650307664,-0.0840786571311786, ,0.01180346968687026,0.02180244372345118,-0.08439072674853902, ,0.00046552454084310146, ,0.0037610031119309833,0.002963036718355706,-0.01103519832231541,0.023195870133526617,0.007240524844301998,0.02121188604852693, ,0.012029145148975115, ,0.024299659002301875, ,5.438555879889819e-05, ,0.15162813725252403,-0.24916625345397958,0.09415991302000001,1.6093703162437245,0.1475674197466757,-1.3099005073992835, ,0.02829366176460071,-0.0006102642801043586,0.01181662575667656,-0.011707166037702792,0.03979774912766164,-0.023792965519669487, ,0.9493789672851562
0.011537163594303793,0.02167386114909082,-0.08418811586644971, ,0.01187370181330102,0.02183729535586814,-0.08456215053952704, ,0.0005290280233171203, ,0.004335140346993885,0.0030902825573097532,-0.01168415912233535,0.011389176403915652,-0.004141893380181021,0.01941332206288844, ,0.012839893399409497, ,0.012118927434706432, ,5.666956372128582e-05, ,0.15193704656749302,-0.2491739761868538,0.09428435686000002,1.6093703162437245,0.14770405624644115,-1.3097668890825584, ,0.03311128456331849,0.0,0.01259194586561265,-0.011707166037702792,0.0329052702022744,-0.013079359204041546, ,0.9599030017852783
0.011585809688105752,0.021707072381418436,-0.08431853754956409, ,0.01194494700015878,0.021869847131199733,-0.08473458562646335, ,0.0005732113313313131, ,0.005333256073887712,0.0037442682825366987,-0.01431796685947332,-0.016886896122905913,-0.039306149446349525,0.011164182202911713, ,0.015731094695228518, ,0.042780136082386545, ,5.914199492498873e-05, ,0.15228456954683312,-0.24915853072110536,0.09442435618000002,1.6093703162437245,0.14784069274620656,-1.3097149495059737, ,0.03642876835257995,0.0003755935270319889,0.015375300694980696,-0.011707166037702792,0.0,0.014794517113831365, ,0.9703640937805176
0.011638447405983432,0.021748291560584138,-0.08447687759993372, ,0.01201719178133103,0.021900140952736045,-0.08490800998273221, ,0.0005936166029112118, ,0.005410163705019849,0.004423158581148028,-0.01691514791185891,0.030882669965330733,0.017217912884038497,0.026362586882829702, ,0.01830181499275857, ,0.03535808879868321, ,6.167035988808041e-05, ,0.15267070619054432,-0.24915080798823114,0.09459417017,1.6093703162437245,0.14838723874526832,-1.3100789423806187, ,0.03898806144555085,0.00035604934996859555,0.01812151481228669,-0.011707166037702792,0.061038291997830216,-0.03292083142622997, ,0.9810130596160889
0.01169575001891423,0.021792728928928137,-0.08465111250227314, ,0.012090422793624517,0.0219282184190133,-0.0850824017211978, ,0.0006001119823680366, ,0.006040391220299682,0.004616424918270047,-0.017753259958468312,0.02111758840354725,-0.0017553966554670172,-0.005215678030873417, ,0.019312585126627983, ,0.021190379747384174, ,6.417968232277449e-05, ,0.1530954564986267,-0.2491353625224827,0.09478083593000002,1.6091606263002398,0.14907042124409553,-1.31055435315896, ,0.04215768172299901,0.0011215218458378007,0.019030838136200722,0.01511118498894611,0.037875517481203394,-0.01998010671401712, ,0.9926049709320068
0.011759830019203369,0.02183741044268047,-0.0848278948349203, ,0.012164626776423024,0.02195412082471116,-0.08525773909389006, ,0.0006018702641753965, ,0.006291881071942215,0.0045758895608403,-0.017988457024071845,-0.002238849403521457,-0.019206395555598096,-0.007907681827279732, ,0.01959875299102858, ,0.01933639556309961, ,6.664588492449244e-05, ,0.15352020680670903,-0.24911219432386,0.09497009427000001,1.6091606263002398,0.14907042124409553,-1.3103093169385385, ,0.04266948811082319,0.002222565170158103,0.019260957097944377,0.013326734726074345,0.02083515744395991,0.0020222342827211533, ,1.0030949115753174
0.011819606187829904,0.021878774708161,-0.0849924338968896, ,0.012239790571345442,0.021977889161550808,-0.08543400049169013, ,0.0006175432362716239, ,0.006664871749117908,0.004257837569475726,-0.017095366103434127,-0.01743093342859085,-0.04213049869102615,-0.01629107637431411, ,0.018836168357993444, ,0.045594022634714126, ,6.950027534598017e-05, ,0.15392951164904292,-0.24908130339236312,0.09514638971000001,1.609580006187209,0.14920705774386098,-1.310257377361954, ,0.04620104262827205,0.0033523096440835945,0.01835116534562212,0.016477599571559736,0.0,0.016566739203068753, ,1.008847951889038
0.011819606187829904,0.021878774708161,-0.0849924338968896, ,0.012315901121903035,0.021999564119192155,-0.08561116444401577, ,0.0008023255158294317, ,0.006664871749117908,0.004257837569475726,-0.017095366103434127,-0.01743093342859085,-0.04213049869102615,-0.01629107637431411, ,0.018836168357993444, ,0.045594022634714126, ,0.0003948855182667668, ,0.15392951164904292,-0.24908130339236312,0.09514638971000001,1.609580006187209,0.14920705774386098,-1.310257377361954, ,0.04620104262827205,0.0033523096440835945,0.01835116534562212,0.016477599571559736,0.0,0.016566739203068753, ,1.0142738819122314
0.011887162846019147,0.021924237996996918,-0.08517690776230966, ,0.012392945473157571,0.0220191860861318,-0.08578920961850708, ,0.000799840464497907, ,0.006920714003934733,0.004522979693257297,-0.01892142876682997,0.05928878907755957,0.04209164683021687,-0.012452055420327322, ,0.020648827913663695, ,0.07271083012756609, ,0.0004058302465432841, ,0.15446238021736441,-0.24903496699511776,0.09534472208000001,1.6099993860741781,0.15002687674245363,-1.3109258847841323, ,0.05520473621784223,0.006191433056023561,0.020317361632653064,0.03577843997700174,0.09140919364898228,-0.059995407712863935, ,1.019834041595459
0.011887162846019147,0.021924237996996918,-0.08517690776230966, ,0.012470910771378409,0.022036795150600114,-0.08596811482071176, ,0.0009896662884294925, ,0.006920714003934733,0.004522979693257297,-0.01892142876682997,0.05928878907755957,0.04209164683021687,-0.012452055420327322, ,0.020648827913663695, ,0.07271083012756609, ,0.00042119435290871067, ,0.15446238021736441,-0.24903496699511776,0.09534472208000001,1.6099993860741781,0.15002687674245363,-1.3109258847841323, ,0.05520473621784223,0.006191433056023561,0.020317361632653064,0.03577843997700174,0.09140919364898228,-0.059995407712863935, ,1.0250980854034424
0.011968485863022717,0.021976691208827937,-0.08540084802438581, ,0.012549784263700644,0.022052431101459172,-0.08614785899377, ,0.0009495629259542598, ,0.00886254533319782,0.005773924599996322,-0.024486665779625147,0.04385547272034881,0.0068057047067141534,-0.019536726394998708, ,0.02667357711429973, ,0.04438030307156754, ,0.0004347422650380837, ,0.15508019884730237,-0.24895773966637552,0.09558453573,1.6099993860741781,0.15084669574104626,-1.3114310347260298, ,0.06438055736666945,0.008455371071739676,0.02619870315789474,0.03577843997700174,0.06442961720091701,-0.04680870532384267, ,1.0304160118103027
0.011968485863022717,0.021976691208827937,-0.08540084802438581, ,0.012629553297781839,0.022066133429099636,-0.08632842121810039, ,0.0011425419439845483, ,0.00886254533319782,0.005773924599996322,-0.024486665779625147,0.04385547272034881,0.0068057047067141534,-0.019536726394998708, ,0.02667357711429973, ,0.04438030307156754, ,0.0004524372570117453, ,0.15508019884730237,-0.24895773966637552,0.09558453573,1.6099993860741781,0.15084669574104626,-1.3114310347260298, ,0.06438055736666945,0.008455371071739676,0.02619870315789474,0.03577843997700174,0.06442961720091701,-0.04680870532384267, ,1.0357179641723633
0.012069872771265007,0.022043386150430257,-0.0856875029353944, ,0.012710205321460229,0.022077941326338835,-0.08650978071108525, ,0.001042765829616932, ,0.010807277494286772,0.00726713336662987,-0.031329831248692916,0.023252985998072438,-0.009332604834825925,-0.017233230738262963, ,0.033928849085674534, ,0.0250553125283293, ,0.00046683551488016446, ,0.15578296753885681,-0.2488573441390106,0.09589046017000001,1.6099993860741781,0.15139324174010801,-1.3117133488605344, ,0.07322294873338794,0.011551404112056006,0.033393734842767295,0.031217816951725853,0.05804492887919487,-0.029939144849434628, ,1.041024923324585
0.012069872771265007,0.022043386150430257,-0.0856875029353944, ,0.012791727882411556,0.02208789368931758,-0.08669191682675528, ,0.0012377006858141897, ,0.010807277494286772,0.00726713336662987,-0.031329831248692916,0.023252985998072438,-0.009332604834825925,-0.017233230738262963, ,0.033928849085674534, ,0.0250553125283293, ,0.00048518944752145074, ,0.15578296753885681,-0.2488573441390106,0.09589046017000001,1.6099993860741781,0.15139324174010801,-1.3117133488605344, ,0.07322294873338794,0.011551404112056006,0.033393734842767295,0.031217816951725853,0.05804492887919487,-0.029939144849434628, ,1.0463988780975342
0.01218468110152761,0.02212283915441982,-0.08604134519716451, ,0.012874108627806259,0.022096029118397212,-0.08687480905547462, ,0.0010819847943161704, ,0.011602737165029447,0.008033196546218606,-0.03626762284552025,0.04424403979488812,0.01486498672660648,0.008290546688142976, ,0.03891652892198682, ,0.04667376286945881, ,0.0004990684090748163, ,0.15655524082627925,-0.2487028894815261,0.09626638427,1.6102090760176624,0.15234969723846611,-1.3124932741864093, ,0.07622244301885203,0.01673667399620296,0.03847539014492755,0.012235589307386014,0.09096610273181789,-0.05887505755850084, ,1.0516700744628906
0.012305963400812773,0.02220256458918845,-0.08641592991205402, ,0.012957335303967745,0.02210238591905808,-0.0870584370236274, ,0.0012774539658409478, ,0.011602737165029447,0.008033196546218606,-0.03626762284552025,0.04424403979488812,0.01486498672660648,0.008290546688142976, ,0.03891652892198682, ,0.04667376286945881, ,0.0005167589899104101, ,0.15734295957945016,-0.24849437569392205,0.09666304901000002,1.6104187659611469,0.15316951623705874,-1.3130801028684473, ,0.0858019363096481,0.025850433549024998,0.04137353641558442,0.007885838016743797,0.09364556441110174,-0.06783294577226162, ,1.0574390888214111
0.012305963400812773,0.02220256458918845,-0.08641592991205402, ,0.013041395756028525,0.02210700210279546,-0.08724278049330111, ,0.0011107091525743627, ,0.012936436687552634,0.007930578476774294,-0.03911480991967711,0.043556998500333545,0.006806749602376478,0.01165523057378431, ,0.04195490226659817, ,0.04408460500488301, ,0.0005299578824140536, ,0.15734295957945016,-0.24849437569392205,0.09666304901000002,1.6104187659611469,0.15316951623705874,-1.3130801028684473, ,0.0858019363096481,0.025850433549024998,0.04137353641558442,0.007885838016743797,0.09364556441110174,-0.06783294577226162, ,1.0628728866577148
0.012437597640225418,0.022278152317719565,-0.08680336208918685, ,0.01312627792758805,0.02210991538801759,-0.08742781936197255, ,0.0009447386348892408, ,0.013503531572227398,0.007451008577835574,-0.03891397160591998,0.04860471109303548,0.010674710001656472,0.005636593089993412, ,0.041858811257553266, ,0.04976221599351785, ,0.000538974855293949, ,0.15823107385998597,-0.24820091184470153,0.09707267665000001,1.610838145848116,0.1541259717354168,-1.3138600281943222, ,0.09267279449069411,0.030592179741608886,0.041159719689922485,0.01569984379187306,0.10276801712897687,-0.07632915395061651, ,1.0681140422821045
0.012437597640225418,0.022278152317719565,-0.08680336208918685, ,0.013211969860369542,0.02211116320094234,-0.08761353366219304, ,0.001133100030076918, ,0.013503531572227398,0.007451008577835574,-0.03891397160591998,0.04860471109303548,0.010674710001656472,0.005636593089993412, ,0.041858811257553266, ,0.04976221599351785, ,0.000551615816459544, ,0.15823107385998597,-0.24820091184470153,0.09707267665000001,1.610838145848116,0.1541259717354168,-1.3138600281943222, ,0.09267279449069411,0.030592179741608886,0.041159719689922485,0.01569984379187306,0.10276801712897687,-0.07632915395061651, ,1.0734200477600098
0.012571175361136019,0.022344779676776966,-0.0871684108548456, ,0.01329845969387762,0.02211078267649508,-0.0877999035612734, ,0.000991201359494542, ,0.014733173579259929,0.0064041826052460725,-0.03751151547641491,0.04207532251620604,-0.007500000327531192,-0.021576761309708526, ,0.04080678561091592, ,0.04273767071459799, ,0.0005607738486061066, ,0.15917324727064136,-0.2478765570639841,0.09745897107000001,1.6110478357916007,0.1550824272337749,-1.3145582747800566, ,0.10710715751520403,0.0385759925034434,0.03972272199501248,0.040140014255901565,0.09271320698142005,-0.07391470027144807, ,1.079643964767456
0.012571175361136019,0.022344779676776966,-0.0871684108548456, ,0.01338573566505516,0.02210881065920536,-0.08798690936096834, ,0.001178613452536374, ,0.014733173579259929,0.0064041826052460725,-0.03751151547641491,0.04207532251620604,-0.007500000327531192,-0.021576761309708526, ,0.04080678561091592, ,0.04273767071459799, ,0.0005733828201148876, ,0.15917324727064136,-0.2478765570639841,0.09745897107000001,1.6110478357916007,0.1550824272337749,-1.3145582747800566, ,0.10710715751520403,0.0385759925034434,0.03972272199501248,0.040140014255901565,0.09271320698142005,-0.07391470027144807, ,1.0849370956420898
0.012740490621336037,0.02240700955637964,-0.08757370519867425, ,0.013473786107940146,0.022105283704103966,-0.08817453149716281, ,0.0009948633079779907, ,0.01495303385252991,0.004799065064099736,-0.03410803972477319,0.04333292307731999,-0.007363476968979047,-0.01824850363136492, ,0.037549735295352944, ,0.04395357611826772, ,0.0005818124298721496, ,0.1604474981948884,-0.24739002489290796,0.09788804306000001,1.6110478357916007,0.15617551923189843,-1.3153679392694873, ,0.11558701773260752,0.046313783093445964,0.03611975401360545,0.03774802590257908,0.10220968894245172,-0.08314001912555435, ,1.0902609825134277
0.012740490621336037,0.02240700955637964,-0.08757370519867425, ,0.013562599453322943,0.022100238077620127,-0.08836275053955531, ,0.0011800695834472154, ,0.01495303385252991,0.004799065064099736,-0.03410803972477319,0.04333292307731999,-0.007363476968979047,-0.01824850363136492, ,0.037549735295352944, ,0.04395357611826772, ,0.0005935429622951901, ,0.1604474981948884,-0.24739002489290796,0.09788804306000001,1.6110478357916007,0.15617551923189843,-1.3153679392694873, ,0.11558701773260752,0.046313783093445964,0.03611975401360545,0.03774802590257908,0.10220968894245172,-0.08314001912555435, ,1.0955090522766113
0.012892831330317699,0.022444223340556933,-0.08789466057801759, ,0.01365216422840378,0.02209370975847905,-0.0885515471913443, ,0.0010634595639255411, ,0.015421675967228564,0.0026284770569123326,-0.030273244509731845,0.021376761368043694,-0.02303596681120677,-0.013126619819325593, ,0.03407647743565815, ,0.03142604439839193, ,0.0006025798200188508, ,0.1615750171945252,-0.246911215454706,0.09820563411000001,1.6110478357916007,0.15713197473025653,-1.3160661858552216, ,0.12585801267701696,0.0584340773143293,0.03224455773279353,0.029939422095991663,0.0994034313178352,-0.07484226170890783, ,1.1007518768310547
0.012892831330317699,0.022444223340556933,-0.08789466057801759, ,0.013742469056448842,0.022085734438598303,-0.08874090228891256, ,0.0012516084019178052, ,0.015421675967228564,0.0026284770569123326,-0.030273244509731845,0.021376761368043694,-0.02303596681120677,-0.013126619819325593, ,0.03407647743565815, ,0.03142604439839193, ,0.000614825642318831, ,0.1615750171945252,-0.246911215454706,0.09820563411000001,1.6110478357916007,0.15713197473025653,-1.3160661858552216, ,0.12585801267701696,0.0584340773143293,0.03224455773279353,0.029939422095991663,0.0994034313178352,-0.07484226170890783, ,1.1059870719909668
0.013042349563764958,0.02246291767263686,-0.08818392800217498, ,0.013833502656448051,0.022076347523985337,-0.08893079680151234, ,0.0011546309797134792, ,0.015907734487054917,0.001659571433154281,-0.030339493587211767,0.025407841064327825,-0.0129433441082345,-0.005602948116665458, ,0.0342971582639268, ,0.028514256746968475, ,0.000624822037455769, ,0.1629033272488918,-0.24624706042752273,0.09853229919,1.6110478357916007,0.15822506672838005,-1.3168758503446525, ,0.1327229951866724,0.0690661874515799,0.03192146597194389,0.024424787094156925,0.11747340725719907,-0.08969379571676822, ,1.1113619804382324
0.013042349563764958,0.02246291767263686,-0.08818392800217498, ,0.013925253842772083,0.02206558413563477,-0.08912121183094988, ,0.001347551439166101, ,0.015907734487054917,0.001659571433154281,-0.030339493587211767,0.025407841064327825,-0.0129433441082345,-0.005602948116665458, ,0.0342971582639268, ,0.028514256746968475, ,0.0006379625720323205, ,0.1629033272488918,-0.24624706042752273,0.09853229919,1.6110478357916007,0.15822506672838005,-1.3168758503446525, ,0.1327229951866724,0.0690661874515799,0.03192146597194389,0.024424787094156925,0.11747340725719907,-0.08969379571676822, ,1.1170520782470703
0.013202812592574997,0.022476461202371713,-0.0884978125608479, ,0.014017711524828105,0.022053479110424264,-0.08931212861127125, ,0.001227226446045132, ,0.015827060505060442,0.0008883015014170106,-0.03148120255429979,0.057836350123292246,0.03393191811407417,0.029704084554661548, ,0.035247000412136006, ,0.06705510824141596, ,0.0006484851412111207, ,0.1642548055018811,-0.24549795533872293,0.09886155685,1.6112575257350852,0.15972806822579988,-1.3181014472853132, ,0.13441493138593594,0.07947817550960702,0.03291076760330579,0.0,0.1737044688408389,-0.13621077216544492, ,1.1223809719085693
0.013366625253691571,0.022482434674373344,-0.08881675943656048, ,0.014110864706718572,0.02204006700201318,-0.08950352850844603, ,0.0011050942399134232, ,0.017008867266128404,0.0002287045078512254,-0.03228379976514729,0.028525614841277556,0.0025507665866033196,0.006846188204119393, ,0.03649106190157817, ,0.028638820563440213, ,0.0006564958271532663, ,0.1642548055018811,-0.24549795533872293,0.09886155685,1.6112575257350852,0.15972806822579988,-1.3181014472853132, ,0.13441493138593594,0.07947817550960702,0.03291076760330579,0.014820205728073181,0.1454980432338425,-0.11340768452701055, ,1.1286249160766602
0.013366625253691571,0.022482434674373344,-0.08881675943656048, ,0.014204702486896488,0.022025382081738078,-0.08969539302005318, ,0.0012974079910699852, ,0.017008867266128404,0.0002287045078512254,-0.03228379976514729,0.028525614841277556,0.0025507665866033196,0.006846188204119393, ,0.03649106190157817, ,0.028638820563440213, ,0.0006675460368759683, ,0.1656371746863673,-0.24465617745543247,0.09919470338000001,1.6116769056220543,0.16136770622298516,-1.3192751046493891, ,0.1420612897581898,0.0885232663791705,0.03367613429175476,0.014820205728073181,0.1454980432338425,-0.11340768452701055, ,1.1340301036834717
0.01355200374942633,0.022480571755130577,-0.08916040973763753, ,0.014299214057823443,0.022009458339511075,-0.08988770377496635, ,0.0011442148889459726, ,0.018447116736729278,-0.00023796078397283335,-0.0338454422775851,-0.012803945776276617,-0.036331036959827104,-0.04542326569622901, ,0.03854694156737433, ,0.0385206550042053, ,0.0006756251699619006, ,0.1671585530625895,-0.24366766764753173,0.09955247942,1.6120962855090233,0.16259743472087412,-1.3201961870425165, ,0.14944400245428469,0.0978318985138874,0.03524073345132744,0.056636938405623484,0.10260022513279259,-0.07445719645711309, ,1.1393060684204102
0.01355200374942633,0.022480571755130577,-0.08916040973763753, ,0.014394388705625837,0.021992329484715672,-0.09008044253303737, ,0.001339572048701524, ,0.018447116736729278,-0.00023796078397283335,-0.0338454422775851,-0.012803945776276617,-0.036331036959827104,-0.04542326569622901, ,0.03854694156737433, ,0.0385206550042053, ,0.0006866909512742277, ,0.1671585530625895,-0.24366766764753173,0.09955247942,1.6120962855090233,0.16259743472087412,-1.3201961870425165, ,0.14944400245428469,0.0978318985138874,0.03524073345132744,0.056636938405623484,0.10260022513279259,-0.07445719645711309, ,1.1445300579071045
0.013720157038783027,0.02247349116822076,-0.08947123305819557, ,0.014490215809751817,0.02197402894710425,-0.09027359118478204, ,0.0012191109811530466, ,0.018781223889998214,-0.001240110671508031,-0.03537126132552077,0.007602555324862818,-0.0036331239004955595,0.04212394697672879, ,0.04006742284003438, ,0.008422770893350733, ,0.0006954191484853558, ,0.1685409222470757,-0.24272549423687634,0.09987525563,1.6123059754525078,0.16382716321876312,-1.3211172694356437, ,0.15506036202364507,0.11060249598889368,0.03661795751724139,-0.022273496226603424,0.16172190887358745,-0.12016342912951984, ,1.149867057800293
0.013720157038783027,0.02247349116822076,-0.08947123305819557, ,0.014586684842628482,0.02195458987769503,-0.09046713175106506, ,0.0014184298328100886, ,0.018781223889998214,-0.001240110671508031,-0.03537126132552077,0.007602555324862818,-0.0036331239004955595,0.04212394697672879, ,0.04006742284003438, ,0.008422770893350733, ,0.0007070806111357548, ,0.1685409222470757,-0.24272549423687634,0.09987525563,1.6123059754525078,0.16382716321876312,-1.3211172694356437, ,0.15506036202364507,0.11060249598889368,0.03661795751724139,-0.022273496226603424,0.16172190887358745,-0.12016342912951984, ,1.1551470756530762
0.013930354155069243,0.022457736564215576,-0.08987106521313544, ,0.014683785369318612,0.0219340451496693,-0.09066104638278517, ,0.001210777246513957, ,0.019045268510602065,-0.0019589006971808555,-0.03598740859416031,0.014416281599275112,0.008841272018969741,0.03827108179144323, ,0.04076337966736063, ,0.01690966899607159, ,0.0007150757958242976, ,0.170270814410902,-0.24145896604550351,0.10028877214000001,1.6123059754525078,0.16574007421547926,-1.3225954413472527, ,0.15659561313279005,0.11891847313091576,0.03713009678321679,-0.016850812352610767,0.17472036043024797,-0.13431553954688558, ,1.1604359149932861
0.013930354155069243,0.022457736564215576,-0.08987106521313544, ,0.014781507047177041,0.021912427359267534,-0.09085531736055927, ,0.0014108776220682472, ,0.019045268510602065,-0.0019589006971808555,-0.03598740859416031,0.014416281599275112,0.008841272018969741,0.03827108179144323, ,0.04076337966736063, ,0.01690966899607159, ,0.0007259476993593594, ,0.170270814410902,-0.24145896604550351,0.10028877214000001,1.6123059754525078,0.16574007421547926,-1.3225954413472527, ,0.15659561313279005,0.11891847313091576,0.03713009678321679,-0.016850812352610767,0.17472036043024797,-0.13431553954688558, ,1.1656920909881592
0.014123528860492127,0.022433572398394348,-0.09023238931768579, ,0.014879839625507778,0.021889768826686928,-0.0910499270944077, ,0.001239393526789502, ,0.019641221367047774,-0.002967820335649261,-0.036223941256709906,-0.010881941247033565,-0.007173386144600153,0.015669752618533393, ,0.04131294536224254, ,0.013031183510602687, ,0.0007338468659352077, ,0.1718462519172438,-0.2402233287856276,0.10066080737000001,1.6120962855090233,0.16737971221266457,-1.3238507774514694, ,0.15949065808146348,0.12946376747403926,0.037216849345794396,0.0,0.15694297462015064,-0.11667036141322087, ,1.170922040939331
0.014123528860492127,0.022433572398394348,-0.09023238931768579, ,0.014978772945221534,0.02186610159697879,-0.0912448581234394, ,0.0014417207210649318, ,0.019641221367047774,-0.002967820335649261,-0.036223941256709906,-0.010881941247033565,-0.007173386144600153,0.015669752618533393, ,0.04131294536224254, ,0.013031183510602687, ,0.0007445722273765671, ,0.1718462519172438,-0.2402233287856276,0.10066080737000001,1.6120962855090233,0.16737971221266457,-1.3238507774514694, ,0.15949065808146348,0.12946376747403926,0.037216849345794396,0.0,0.15694297462015064,-0.11667036141322087, ,1.176265001296997
0.014315024652577375,0.022403405446159985,-0.09058737811945533, ,0.01507829693849091,0.021841457440944182,-0.09144009311553646, ,0.0012749482372046818, ,0.02008811824073412,-0.0034121811178560893,-0.03717363858091868,-0.028144234325801723,-0.021576314554516803,0.010747959432893457, ,0.04239168408756055, ,0.03546215291133504, ,0.0007524882872247479, ,0.17337535302634025,-0.23894907786138056,0.10102506486000001,1.6120962855090233,0.16874607721031895,-1.3249649564884336, ,0.15975916087284645,0.13556705936924396,0.038107204593301434,0.0,0.14232314494111153,-0.10540840718070163, ,1.1817009449005127
0.014315024652577375,0.022403405446159985,-0.09058737811945533, ,0.015178401628408502,0.021815867856031814,-0.0916356148670389, ,0.0014796690512386568, ,0.02008811824073412,-0.0034121811178560893,-0.03717363858091868,-0.028144234325801723,-0.021576314554516803,0.010747959432893457, ,0.04239168408756055, ,0.03546215291133504, ,0.0007631821219896583, ,0.17337535302634025,-0.23894907786138056,0.10102506486000001,1.6120962855090233,0.16874607721031895,-1.3249649564884336, ,0.15975916087284645,0.13556705936924396,0.038107204593301434,0.0,0.14232314494111153,-0.10540840718070163, ,1.187027931213379
0.014529427084041162,0.02236754370017765,-0.09098931648886668, ,0.015279077128643391,0.02178936406723493,-0.0918314063024299, ,0.0012670367522013084, ,0.02041552616074397,-0.003521532713672719,-0.038962046556418016,-0.013744668859584114,-0.0005366815610570453,0.014823479340950515, ,0.04412749678984718, ,0.013751878530594452, ,0.0007704843630072185, ,0.17507435425866963,-0.23749720408102634,0.10143728508000001,1.6123059754525078,0.17038571520750423,-1.3263019713327906, ,0.16057012108032281,0.14017273494604252,0.03992183338345865,6.358964050497153e-05,0.16476360152917552,-0.12428808933097393, ,1.1923730373382568
0.014529427084041162,0.02236754370017765,-0.09098931648886668, ,0.015380313643097578,0.021761977027987652,-0.09202745047402085, ,0.001472562766737703, ,0.02041552616074397,-0.003521532713672719,-0.038962046556418016,-0.013744668859584114,-0.0005366815610570453,0.014823479340950515, ,0.04412749678984718, ,0.013751878530594452, ,0.0007805140544890826, ,0.17507435425866963,-0.23749720408102634,0.10143728508000001,1.6123059754525078,0.17038571520750423,-1.3263019713327906, ,0.16057012108032281,0.14017273494604252,0.03992183338345865,6.358964050497153e-05,0.16476360152917552,-0.12428808933097393, ,1.1976990699768066
0.014730320750525749,0.02232623506716709,-0.09137518513984128, ,0.015482101465562755,0.021733737421062275,-0.09222373056163523, ,0.001279162631172744, ,0.0200249265807477,-0.004470271840314429,-0.038383741623882736,-0.012152052771013812,0.01322019366787251,0.006411326391913662, ,0.04352347224130483, ,0.01795445876674822, ,0.0007875372738789933, ,0.17665751449788566,-0.23604533030067215,0.10183135724,1.6125156653959922,0.17216198970445498,-1.327750404080844, ,0.1568544488569765,0.14735549931439562,0.039137129041769046,0.009057472705402832,0.1728821241943604,-0.13136341202013835, ,1.202970027923584
0.014730320750525749,0.02232623506716709,-0.09137518513984128, ,0.0155844309793778,0.021704675659466294,-0.09242022987229478, ,0.0014859202108995942, ,0.0200249265807477,-0.004470271840314429,-0.038383741623882736,-0.012152052771013812,0.01322019366787251,0.006411326391913662, ,0.04352347224130483, ,0.01795445876674822, ,0.0007972370368931683, ,0.17823295200422745,-0.2345239519244499,0.10222024424000001,1.6125156653959922,0.17380162770164026,-1.329087418925201, ,0.15256743015831317,0.15232253861712805,0.03866216388349515,0.008987710295831697,0.1618060523224276,-0.12306789037820579, ,1.208695888519287
0.014932400708752507,0.02227578861851982,-0.09175744214017936, ,0.015687292657084264,0.021674821887338637,-0.09261693183990334, ,0.0012921862905844216, ,0.01979527503593022,-0.005160712355600345,-0.038065187953410205,-0.025310785994181396,0.006789071398185884,0.0025052627348366814, ,0.04321393756294159, ,0.02620395887953575, ,0.0008040171636560622, ,0.17823295200422745,-0.2345239519244499,0.10222024424000001,1.6125156653959922,0.17380162770164026,-1.329087418925201, ,0.15256743015831317,0.15232253861712805,0.03866216388349515,0.008987710295831697,0.1618060523224276,-0.12306789037820579, ,1.2139620780944824
0.015119479792648565,0.022222303520092117,-0.09211158646755763, ,0.01579067706008407,0.0216442059808472,-0.09281382002493241, ,0.0011304134225128255, ,0.019493386458920545,-0.005632097308334922,-0.03670401328233608,-0.038006096185299404,-0.005516480978467788,-0.0006109271276289881, ,0.041939208704472285, ,0.038403493269314276, ,0.0008084279239108834, ,0.17967710305170745,-0.23305663267834725,0.10257931657000001,1.6125156653959922,0.1753046291990601,-1.3303130158658618, ,0.14920902760765847,0.15256743015831317,0.037216849345794396,0.00784392894356271,0.14591369807198545,-0.11077093476216797, ,1.2192230224609375
0.015119479792648565,0.022222303520092117,-0.09211158646755763, ,0.0158945748382958,0.02161285754908535,-0.09301087811410566, ,0.0013345119658190947, ,0.019493386458920545,-0.005632097308334922,-0.03670401328233608,-0.038006096185299404,-0.005516480978467788,-0.0006109271276289881, ,0.041939208704472285, ,0.038403493269314276, ,0.0008154423778029928, ,0.17967710305170745,-0.23305663267834725,0.10257931657000001,1.6125156653959922,0.1753046291990601,-1.3303130158658618, ,0.14920902760765847,0.15256743015831317,0.037216849345794396,0.00784392894356271,0.14591369807198545,-0.11077093476216797, ,1.2257559299468994
0.015221133069657089,0.022190598937024346,-0.09229723871095588, ,0.015998976729811706,0.02158080593496903,-0.09320808992008385, ,0.0013440752174518537, ,0.01915460030618553,-0.006497837940806173,-0.03424523809989035,-0.03823449459526639,-0.004263514453262769,-0.00024615721441545403, ,0.03977256520910972, ,0.03847085955126178, ,0.0008223980730615305, ,0.1804570990720041,-0.2322534684594279,0.10276727862000001,1.6125156653959922,0.1759878116978873,-1.330870105384344, ,0.1499161793972682,0.1548074087413879,0.03462785113043479,0.007331714084343538,0.1480269423619854,-0.11281493022582045, ,1.2310829162597656
0.015221133069657089,0.022190598937024346,-0.09229723871095588, ,0.016103873560554385,0.021548080216133626,-0.09340543938114991, ,0.001555689495491675, ,0.01915460030618553,-0.006497837940806173,-0.03424523809989035,-0.03823449459526639,-0.004263514453262769,-0.00024615721441545403, ,0.03977256520910972, ,0.03847085955126178, ,0.000831921338287896, ,0.1804570990720041,-0.2322534684594279,0.10276727862000001,1.6125156653959922,0.1759878116978873,-1.330870105384344, ,0.1499161793972682,0.1548074087413879,0.03462785113043479,0.007331714084343538,0.1480269423619854,-0.11281493022582045, ,1.236449956893921
0.015527857105279128,0.022076169304352272,-0.09284976787417822, ,0.016209256243932713,0.021514709205830217,-0.09360291056089336, ,0.001160502535517585, ,0.018496370025406498,-0.007039734123769978,-0.03338562132989141,-0.015732840859877657,0.02199693895280065,0.004956602662440633, ,0.0388107365587543, ,0.0270434119292018, ,0.0008361339177395586, ,0.18288203719451063,-0.22967407567943693,0.10332468332000001,1.6125156653959922,0.17885717819296154,-1.333128202621828, ,0.14488082680682562,0.15633763024459765,0.03367613429175476,0.006091027105864014,0.1700264111935207,-0.13697962724055782, ,1.2417430877685547
0.015527857105279128,0.022076169304352272,-0.09284976787417822, ,0.016315115780499555,0.021480721453823223,-0.09380048764789584, ,0.0013704752652080846, ,0.018496370025406498,-0.007039734123769978,-0.03338562132989141,-0.015732840859877657,0.02199693895280065,0.004956602662440633, ,0.0388107365587543, ,0.0270434119292018, ,0.0008428977322644767, ,0.18288203719451063,-0.22967407567943693,0.10332468332000001,1.6125156653959922,0.17885717819296154,-1.333128202621828, ,0.14488082680682562,0.15633763024459765,0.03367613429175476,0.006091027105864014,0.1700264111935207,-0.13697962724055782, ,1.2469940185546875
0.015715824678745067,0.02200249839123514,-0.09318560799998934, ,0.016421443257608685,0.021446145247287145,-0.09399815495541561, ,0.0012114697496804535, ,0.01928078713423899,-0.007299914809409933,-0.03464821119170942,-0.05880080140675285,-0.024627391271419954,-0.0010194994061238328, ,0.040317937044518734, ,0.06374945264096726, ,0.0008475048824821763, ,0.18433391097486482,-0.22807546997447245,0.10366301501000001,1.612725355339477,0.1803601796903814,-1.3343537995624888, ,0.145102357123044,0.16084227382791658,0.034931604210526324,-0.00010558620349963042,0.12377140270695812,-0.09936027223318628, ,1.2522380352020264
0.015715824678745067,0.02200249839123514,-0.09318560799998934, ,0.016528229849069646,0.021411008611702708,-0.09419589692107219, ,0.0014249722888969374, ,0.01928078713423899,-0.007299914809409933,-0.03464821119170942,-0.05880080140675285,-0.024627391271419954,-0.0010194994061238328, ,0.040317937044518734, ,0.06374945264096726, ,0.0008546341097218647, ,0.18433391097486482,-0.22807546997447245,0.10366301501000001,1.612725355339477,0.1803601796903814,-1.3343537995624888, ,0.145102357123044,0.16084227382791658,0.034931604210526324,-0.00010558620349963042,0.12377140270695812,-0.09936027223318628, ,1.2574620246887207
0.015906359652171347,0.021933955777950535,-0.0935400199212889, ,0.016635466814806106,0.02137533931175424,-0.09439369810653152, ,0.001253960148836511, ,0.019412798057794337,-0.006708861768543404,-0.03696119069504417,-0.03539186871541383,0.0032489386072989085,0.004991302019756013, ,0.04228469193759778, ,0.03553971007476564, ,0.0008595039394671653, ,0.18573944835797368,-0.22650003246813064,0.10402079105,1.612725355339477,0.18158990818827037,-1.3354382394358972, ,0.14334885431793168,0.15922305630615904,0.03739157633802818,-0.00010558620349963042,0.15054970780601176,-0.12114775727876177, ,1.2628169059753418
0.015906359652171347,0.021933955777950535,-0.0935400199212889, ,0.016743145500512743,0.02133916485222686,-0.09459154319719104, ,0.0014695876976457177, ,0.019412798057794337,-0.006708861768543404,-0.03696119069504417,-0.03539186871541383,0.0032489386072989085,0.004991302019756013, ,0.04228469193759778, ,0.03553971007476564, ,0.000866854346192208, ,0.18573944835797368,-0.22650003246813064,0.10402079105,1.612725355339477,0.18158990818827037,-1.3354382394358972, ,0.14334885431793168,0.15922305630615904,0.03739157633802818,-0.00010558620349963042,0.15054970780601176,-0.12114775727876177, ,1.2681910991668701
0.01610516180633422,0.02186528723572974,-0.09393087492258907, ,0.01685125733731069,0.02130251247890269,-0.09478941700186427, ,0.0012690423437186754, ,0.019431786026547358,-0.006732675599670107,-0.03822632124683194,-0.02738240555194381,0.014008234651338707,0.005824481567318534, ,0.04340708311990002, ,0.030756221303390684, ,0.0008716422985437136, ,0.18719904487120212,-0.2248473676330466,0.10441615950000001,1.612725355339477,0.18336618268522106,-1.3369683509240913, ,0.14058806156810486,0.16111535069349878,0.03866216388349515,4.476956519702092e-05,0.15865345490342878,-0.13095356847153716, ,1.2734529972076416
0.01610516180633422,0.02186528723572974,-0.09393087492258907, ,0.01695979384140419,0.02126540917945749,-0.09498730445246545, ,0.0014853595353851638, ,0.019431786026547358,-0.006732675599670107,-0.03822632124683194,-0.02738240555194381,0.014008234651338707,0.005824481567318534, ,0.04340708311990002, ,0.030756221303390684, ,0.0008788625013300836, ,0.18719904487120212,-0.2248473676330466,0.10441615950000001,1.612725355339477,0.18336618268522106,-1.3369683509240913, ,0.14058806156810486,0.16111535069349878,0.03866216388349515,4.476956519702092e-05,0.15865345490342878,-0.13095356847153716, ,1.2788140773773193
0.016299116664223453,0.02180198604473261,-0.09431496418884418, ,0.017068746613738965,0.021227881684358584,-0.09518519060369514, ,0.0012958472475164942, ,0.019991343409420048,-0.005972766182384324,-0.040690142420075216,-0.06157358345181196,-0.02486577145373346,-0.004339521236047733, ,0.045727622257764514, ,0.06640407536536333, ,0.0008837111611694604, ,0.18855824585706563,-0.22327965285957901,0.10480504650000001,1.612725355339477,0.18459591118311003,-1.3380527907974997, ,0.13615056177685905,0.15789840525535903,0.04126635108808291,0.00038399762099547793,0.11408654017226562,-0.09348971250731458, ,1.2841579914093018
0.016299116664223453,0.02180198604473261,-0.09431496418884418, ,0.01717810733965719,0.021189956467760573,-0.0953830606327244, ,0.0015126251432584401, ,0.019991343409420048,-0.005972766182384324,-0.040690142420075216,-0.06157358345181196,-0.02486577145373346,-0.004339521236047733, ,0.045727622257764514, ,0.06640407536536333, ,0.0008909400575153107, ,0.18855824585706563,-0.22327965285957901,0.10480504650000001,1.612725355339477,0.18459591118311003,-1.3380527907974997, ,0.13615056177685905,0.15789840525535903,0.04126635108808291,0.00038399762099547793,0.11408654017226562,-0.09348971250731458, ,1.2895009517669678
0.016501501695099265,0.02173960713887931,-0.09472122234065299, ,0.01728786778855456,0.021151659748402496,-0.09558089983887977, ,0.0013050284164960147, ,0.019557449560961337,-0.006220846511367251,-0.03915599266133546,-0.03722203308461,-0.013239678703249342,-0.0022481593541271772, ,0.044208421436894726, ,0.039505402111946905, ,0.0008956456070491823, ,0.18994833777442605,-0.22168104715461456,0.10521726672000001,1.612725355339477,0.185825639680999,-1.339137230670908, ,0.13441493138593594,0.15556875665323078,0.03972272199501248,0.0006062278870282449,0.12413589767559564,-0.11547607032107392, ,1.2948389053344727
0.016501501695099265,0.02173960713887931,-0.09472122234065299, ,0.017398019813536916,0.021113017490504694,-0.09577869364332889, ,0.001521382555480468, ,0.01936718244430673,-0.0068093935064101095,-0.03783848672586232,-0.009915243560283494,0.014003383060941338,0.003597564983967456, ,0.04304888701766239, ,0.01715602595228336, ,0.0009026763592787474, ,0.18994833777442605,-0.22168104715461456,0.10521726672000001,1.612725355339477,0.185825639680999,-1.339137230670908, ,0.13441493138593594,0.15556875665323078,0.03972272199501248,0.0006062278870282449,0.12413589767559564,-0.11547607032107392, ,1.3006329536437988
0.016690529454876382,0.021671873029661084,-0.09508991620865796, ,0.017508555351077787,0.02107405540466603,-0.09597642758876399, ,0.0013462743801574482, ,0.01936718244430673,-0.0068093935064101095,-0.03783848672586232,-0.009915243560283494,0.014003383060941338,0.003597564983967456, ,0.04304888701766239, ,0.01715602595228336, ,0.0009076052261773995, ,0.19127664782879267,-0.2201287778468954,0.10559059824000001,1.612725355339477,0.18719200467865343,-1.3404964459282938, ,0.13673910887387722,0.157374695785192,0.038382678361445786,0.0007382077541346574,0.15437464491732378,-0.14450240625095967, ,1.306077003479004
0.016888301477721735,0.02160209453477685,-0.09546902179406651, ,0.017619466420674173,0.021034798948760196,-0.09617408733908842, ,0.0011634190468157465, ,0.018957422553281447,-0.006765902780111108,-0.035871990879794896,-0.01852452602996024,0.0017138434659051559,-0.0003090866988241818, ,0.04113345402435428, ,0.018602040890640485, ,0.0009104163670635352, ,0.19267446247902728,-0.21853789487480518,0.10597559637000001,1.6129350452829614,0.18869500617607327,-1.3418037216090952, ,0.1338461799132169,0.15135078398480187,0.03645036961098399,0.0018972677559471135,0.13852829436321695,-0.12968918615874173, ,1.3112928867340088
0.016888301477721735,0.02160209453477685,-0.09546902179406651, ,0.017730745124502907,0.02099527332883242,-0.09637165867910001, ,0.0013757531101941207, ,0.018957422553281447,-0.006765902780111108,-0.035871990879794896,-0.01852452602996024,0.0017138434659051559,-0.0003090866988241818, ,0.04113345402435428, ,0.018602040890640485, ,0.0009154743751410416, ,0.19267446247902728,-0.21853789487480518,0.10597559637000001,1.6129350452829614,0.18869500617607327,-1.3418037216090952, ,0.1338461799132169,0.15135078398480187,0.03645036961098399,0.0018972677559471135,0.13852829436321695,-0.12968918615874173, ,1.316514015197754
0.017088485707204105,0.0215272665244317,-0.0958389416634773, ,0.017842383647077603,0.02095550349999639,-0.09656912751417687, ,0.0011951763202217405, ,0.019437366656354937,-0.007073034293540626,-0.03547832080859742,-0.032146009090542924,-0.008621725471559634,-0.0024246511793395388, ,0.041067630611577005, ,0.03328128363414742, ,0.0009184819229376084, ,0.19410316806075884,-0.21693156643696648,0.10635152047000002,1.6129350452829614,0.1901980076734931,-1.343192676030037, ,0.13773141009937706,0.15256743015831317,0.03611975401360545,0.0018972677559471135,0.1318720863729266,-0.11721805574273088, ,1.321763038635254
0.017088485707204105,0.0215272665244317,-0.0958389416634773, ,0.017954374254906414,0.02091551416733178,-0.09676647986996191, ,0.0014086628581559226, ,0.019437366656354937,-0.007073034293540626,-0.03547832080859742,-0.032146009090542924,-0.008621725471559634,-0.0024246511793395388, ,0.041067630611577005, ,0.03328128363414742, ,0.0009236966137378032, ,0.19410316806075884,-0.21693156643696648,0.10635152047000002,1.6129350452829614,0.1901980076734931,-1.343192676030037, ,0.13773141009937706,0.15256743015831317,0.03611975401360545,0.0018972677559471135,0.1318720863729266,-0.11721805574273088, ,1.3271050453186035
0.01726819848335215,0.02146168382538121,-0.09616619062279295, ,0.018066709296146573,0.020875329786779844,-0.09696370189204785, ,0.001271791964639776, ,0.018646649510596584,-0.006998037293930641,-0.03313612687595343,-0.04180761959270838,-0.025540035450690418,-0.006622479729974173, ,0.038661000611437346, ,0.048991126926951685, ,0.0009273607753262451, ,0.1953619735192574,-0.21552602905385762,0.10668466700000001,1.6129350452829614,0.19129109967161662,-1.3442473767398893, ,0.13125441432706886,0.14554745637802266,0.03374748203389831,0.0018948678957415657,0.10787236493130807,-0.10062843846193079, ,1.3328421115875244
0.01726819848335215,0.02146168382538121,-0.09616619062279295, ,0.018179381200262728,0.02083497456604109,-0.09716077984566233, ,0.0014873554254404365, ,0.018646649510596584,-0.006998037293930641,-0.03313612687595343,-0.04180761959270838,-0.025540035450690418,-0.006622479729974173, ,0.038661000611437346, ,0.048991126926951685, ,0.0009331940529316013, ,0.1953619735192574,-0.21552602905385762,0.10668466700000001,1.6129350452829614,0.19129109967161662,-1.3442473767398893, ,0.13125441432706886,0.14554745637802266,0.03374748203389831,0.0018948678957415657,0.10787236493130807,-0.10062843846193079, ,1.338257074356079
0.017460663275480282,0.021387368419605892,-0.09651023212260007, ,0.018292382477682778,0.02079447246547172,-0.09735770011535211, ,0.00132720926853311, ,0.019392633179720318,-0.0079195593752193,-0.03467967799132199,-0.01872769102043413,-0.008506841336230454,-0.0041994915502922186, ,0.040515104688530625, ,0.020567999378308482, ,0.0009372560654635756, ,0.19670572903937247,-0.21400465067763538,0.10703466530000001,1.6129350452829614,0.19238419166974016,-1.3453837561898823, ,0.13673910887387722,0.1571141416530973,0.03524073345132744,0.0018662034923158963,0.1309088249827977,-0.13502068011509424, ,1.3435540199279785
0.017460663275480282,0.021387368419605892,-0.09651023212260007, ,0.01840570571945547,0.020753847198980803,-0.09755444920466884, ,0.0015442939073832772, ,0.019392633179720318,-0.0079195593752193,-0.03467967799132199,-0.01872769102043413,-0.008506841336230454,-0.0041994915502922186, ,0.040515104688530625, ,0.020567999378308482, ,0.0009434503291566338, ,0.19670572903937247,-0.21400465067763538,0.10703466530000001,1.6129350452829614,0.19238419166974016,-1.3453837561898823, ,0.13673910887387722,0.1571141416530973,0.03524073345132744,0.0018662034923158963,0.1309088249827977,-0.13502068011509424, ,1.348803997039795
0.017656933485499345,0.02131433210933468,-0.0968751129164814, ,0.018519343596905664,0.02071312223492672,-0.09775101373585275, ,0.001368359148292907, ,0.019846300757711134,-0.00632270556510798,-0.03829840735886082,0.027831724153651444,0.02472767214814465,0.004278516943594516, ,0.043596103789832155, ,0.037228755602576685, ,0.0009477423374307375, ,0.19807265275811023,-0.21246010410279048,0.10740670053000001,1.6129350452829614,0.19388719316716,-1.347181104311527, ,0.1359555036654309,0.1482764711851106,0.03923352591133005,0.001826634080455061,0.16409191118185446,-0.17288320345341254, ,1.354011058807373
0.017656933485499345,0.02131433210933468,-0.0968751129164814, ,0.018633288861290846,0.020672320797013408,-0.09794738044951894, ,0.0015859401020819916, ,0.019846300757711134,-0.00632270556510798,-0.03829840735886082,0.027831724153651444,0.02472767214814465,0.004278516943594516, ,0.043596103789832155, ,0.037228755602576685, ,0.0009541243150772501, ,0.19807265275811023,-0.21246010410279048,0.10740670053000001,1.6129350452829614,0.19388719316716,-1.347181104311527, ,0.1359555036654309,0.1482764711851106,0.03923352591133005,0.001826634080455061,0.16409191118185446,-0.17288320345341254, ,1.3592848777770996
0.017827151268616327,0.021261200574217876,-0.09719731369133373, ,0.01874753434346016,0.020631465865188773,-0.0981435362043413, ,0.0014625347354293183, ,0.02058927891227503,-0.006429684872360048,-0.03850211147758325,0.026132167438755356,-0.006781273181391546,-0.0023507164653154005, ,0.04413243525931417, ,0.026996133626967532, ,0.0009591580816153894, ,0.1992310626892439,-0.21121674411004035,0.10773725448000002,1.6129350452829614,0.19511692166504896,-1.3485105804053568, ,0.13934940023270306,0.14897479051565274,0.039525586898263035,0.0017882740660755082,0.13527602635466093,-0.17183621018727835, ,1.3645799160003662
0.017827151268616327,0.021261200574217876,-0.09719731369133373, ,0.018862072953508356,0.020590580176539933,-0.09833946797673741, ,0.0016808661527044529, ,0.02058927891227503,-0.006429684872360048,-0.03850211147758325,0.026132167438755356,-0.006781273181391546,-0.0023507164653154005, ,0.04413243525931417, ,0.026996133626967532, ,0.0009662336509397919, ,0.1992310626892439,-0.21121674411004035,0.10773725448000002,1.6129350452829614,0.19511692166504896,-1.3485105804053568, ,0.13934940023270306,0.14897479051565274,0.039525586898263035,0.0017882740660755082,0.13527602635466093,-0.17183621018727835, ,1.3698670864105225
0.018074064914991982,0.02118445865224912,-0.09764876068886534, ,0.018976897680433414,0.020549686226190668,-0.09853516286055408, ,0.001415539418459716, ,0.020716455598999692,-0.00617526609227639,-0.03784095506530357,-0.0475331974580271,-0.04557496685923515,-0.010656192773334818, ,0.04358030890379356, ,0.06585138475359277, ,0.0009705958428574611, ,0.20089145025720218,-0.2094636837475914,0.10820132630000001,1.6129350452829614,0.19648328666270337,-1.3497881169226025, ,0.13673910887387722,0.1437832447855618,0.03894574943765281,0.0017299331106515974,0.09289887022913602,-0.09303717646209202, ,1.3751220703125
0.018074064914991982,0.02118445865224912,-0.09764876068886534, ,0.019092001591794153,0.020508806268198353,-0.09873060806675166, ,0.001631899191461295, ,0.020716455598999692,-0.00617526609227639,-0.03784095506530357,-0.0475331974580271,-0.04557496685923515,-0.010656192773334818, ,0.04358030890379356, ,0.06585138475359277, ,0.0009769545289017288, ,0.20089145025720218,-0.2094636837475914,0.10820132630000001,1.6129350452829614,0.19648328666270337,-1.3497881169226025, ,0.13673910887387722,0.1437832447855618,0.03894574943765281,0.0017299331106515974,0.09289887022913602,-0.09303717646209202, ,1.3804950714111328
0.018280543657370727,0.02111827992291564,-0.09802694379316049, ,0.01920737783336409,0.020467962316449873,-0.0989257909230888, ,0.0014456350653083323, ,0.021442942671512893,-0.006877360113697718,-0.03968643455258115,-0.010940092338794661,0.004274469206752165,-0.0005349283006514585, ,0.04563015406552531, ,0.011741305659210551, ,0.000981418153057982, ,0.20227381944168835,-0.2079886417686145,0.10859021330000002,1.6129350452829614,0.19771301516059234,-1.351035914276292, ,0.14422027592472764,0.15380379507045505,0.04073864838874681,0.0016809033761677641,0.15152505432806984,-0.13918938732101632, ,1.3857710361480713
0.018280543657370727,0.02111827992291564,-0.09802694379316049, ,0.019323019628791994,0.020427176145560052,-0.09912069887380817, ,0.0016615296441858931, ,0.021046180416749712,-0.006791810382691953,-0.037683120300631305,0.02259794192664572,0.026950380052440524,0.005318911068073198, ,0.043693111058846254, ,0.035169787860725714, ,0.0009878342992006982, ,0.20377202961928792,-0.2064440951937696,0.10899854465000001,1.6129350452829614,0.19948928965754306,-1.3528110619849074, ,0.14532456593946522,0.14758466805360929,0.03894574943765281,0.001629587752437384,0.1757920527647746,-0.1668397934780927, ,1.3910799026489258
0.018498679416468506,0.021047963317672558,-0.09842267700657116, ,0.019438920279255235,0.020386469291766785,-0.09931531947932017, ,0.0014554854209226622, ,0.021046180416749712,-0.006791810382691953,-0.037683120300631305,0.02259794192664572,0.026950380052440524,0.005318911068073198, ,0.043693111058846254, ,0.035169787860725714, ,0.0009922048704317447, ,0.20377202961928792,-0.2064440951937696,0.10899854465000001,1.6129350452829614,0.19948928965754306,-1.3528110619849074, ,0.14532456593946522,0.14758466805360929,0.03894574943765281,0.001629587752437384,0.1757920527647746,-0.1668397934780927, ,1.3966119289398193
0.018708361544903213,0.020978684994437537,-0.09878609213946572, ,0.01955507316311815,0.020345863053828912,-0.09950964041588893, ,0.0012809786419963522, ,0.02120203318373356,-0.007262153912262273,-0.03561579564583572,-0.020568326397169823,-0.010026480928126635,-0.0006307465296303404, ,0.04208028029915504, ,0.022880757479731346, ,0.0009948787016499355, ,0.2052161806667679,-0.20498449868054117,0.10937446875000001,1.613144735226446,0.2009922911549629,-1.3543633738861303, ,0.14667224352159317,0.14689929033819007,0.036872248888888896,-0.00030110700315888494,0.13975291021244501,-0.12330804250269903, ,1.4020090103149414
0.018708361544903213,0.020978684994437537,-0.09878609213946572, ,0.019671471735587174,0.02030537849392212,-0.0997036494753162, ,0.0014909172839593175, ,0.02120203318373356,-0.007262153912262273,-0.03561579564583572,-0.020568326397169823,-0.010026480928126635,-0.0006307465296303404, ,0.04208028029915504, ,0.022880757479731346, ,0.000999429514331673, ,0.2052161806667679,-0.20498449868054117,0.10937446875000001,1.613144735226446,0.2009922911549629,-1.3543633738861303, ,0.14667224352159317,0.14689929033819007,0.036872248888888896,-0.00030110700315888494,0.13975291021244501,-0.12330804250269903, ,1.4073460102081299
0.01893468224534488,0.02090302113135324,-0.0991701466538306, ,0.019788109528369402,0.020265036438536676,-0.09989733456462722, ,0.001290025136688282, ,0.022170742223765517,-0.007313435485974749,-0.037572738723130154,-0.025574606554830535,-0.02617745883220794,-0.004521870598814052, ,0.04423504091234435, ,0.03659569608051738, ,0.001002071292716733, ,0.206768449974487,-0.20343222937282204,0.10977242978000001,1.613144735226446,0.20249529265238275,-1.3555072920866507, ,0.1496797185464839,0.15039134953798858,0.03894574943765281,-0.00032723180209362756,0.12628146983254884,-0.12167991002299913, ,1.4126060009002686
0.01893468224534488,0.02090302113135324,-0.0991701466538306, ,0.019904980149328115,0.020224857479373696,-0.10009068370575464, ,0.0014995907526073513, ,0.022170742223765517,-0.007313435485974749,-0.037572738723130154,-0.025574606554830535,-0.02617745883220794,-0.004521870598814052, ,0.04423504091234435, ,0.03659569608051738, ,0.001006553450013045, ,0.206768449974487,-0.20343222937282204,0.10977242978000001,1.613144735226446,0.20249529265238275,-1.3555072920866507, ,0.1496797185464839,0.15039134953798858,0.03894574943765281,-0.00032723180209362756,0.12628146983254884,-0.12167991002299913, ,1.417896032333374
0.019147413527527017,0.02083342453298578,-0.09952857205621514, ,0.020022077282138614,0.02018486197424178,-0.10028368503522408, ,0.001325090822284867, ,0.02157787036507315,-0.007418944882710043,-0.03617877010281574,-0.0013919001605216584,0.004711199071571208,0.0019273161381657754, ,0.04277322338586357, ,0.0049062001857146376, ,0.0010093975336940432, ,0.2082048782890928,-0.2020035237910905,0.11014446501000001,1.613144735226446,0.20372502115027172,-1.3565917319600589, ,0.1482764711851106,0.14758466805360929,0.03756795169811321,-0.0003826375310363667,0.15638541293254798,-0.1430850887519577, ,1.4231328964233398
0.019147413527527017,0.02083342453298578,-0.09952857205621514, ,0.020139394685946964,0.02014507004795437,-0.10047632680383894, ,0.0015349584936950246, ,0.02157787036507315,-0.007418944882710043,-0.03617877010281574,-0.0013919001605216584,0.004711199071571208,0.0019273161381657754, ,0.04277322338586357, ,0.0049062001857146376, ,0.0010140485156409544, ,0.2082048782890928,-0.2020035237910905,0.11014446501000001,1.613144735226446,0.20372502115027172,-1.3565917319600589, ,0.1482764711851106,0.14758466805360929,0.03756795169811321,-0.0003826375310363667,0.15638541293254798,-0.1430850887519577, ,1.428406000137329
0.01926745443320072,0.020791125582464442,-0.09972817812704589, ,0.02025692619502419,0.020105501593225824,-0.10066859737636501, ,0.0015275873089795715, ,0.021709125270021678,-0.007656714354873427,-0.035601662583173786,0.015063626542893232,0.01841432488975836,0.005094752809114949, ,0.042395633895340866, ,0.02378955677702109, ,0.0010185532418983108, ,0.20903893343950902,-0.20117719137354848,0.11035187141000001,1.613144735226446,0.20468147664862982,-1.3574533360260745, ,0.15159255840011304,0.1482764711851106,0.037043747720930234,-0.00040901228825003505,0.17374562210430547,-0.16019831776465152, ,1.433769941329956
0.01926745443320072,0.020791125582464442,-0.09972817812704589, ,0.02037466571842526,0.02006617627156902,-0.10086048523121513, ,0.0017417197569208594, ,0.021709125270021678,-0.007656714354873427,-0.035601662583173786,0.015063626542893232,0.01841432488975836,0.005094752809114949, ,0.042395633895340866, ,0.02378955677702109, ,0.0010248416463767677, ,0.20903893343950902,-0.20117719137354848,0.11035187141000001,1.613144735226446,0.20468147664862982,-1.3574533360260745, ,0.15159255840011304,0.1482764711851106,0.037043747720930234,-0.00040901228825003505,0.17374562210430547,-0.16019831776465152, ,1.4391639232635498
0.019582211651663975,0.020680442511121683,-0.10024970752705269, ,0.020492607239643686,0.020027113514191355,-0.10105197896013512, ,0.0013781503391078428, ,0.021476039241592866,-0.007654235515757072,-0.035212474810185246,0.018871157638148544,0.02692500913165443,0.006069808698460285, ,0.04194908777428949, ,0.032878907703411495, ,0.0010278874109692772, ,0.2112321895757888,-0.19903027163451406,0.11089501692,1.613144735226446,0.20741420664393861,-1.3597633728401435, ,0.14897479051565274,0.14599529470533967,0.03670233069124424,-0.0004624252386281404,0.17967925322027697,-0.16172076108516087, ,1.4443740844726562
0.019582211651663975,0.020680442511121683,-0.10024970752705269, ,0.020610744816267783,0.019988332522891623,-0.10124306726788736, ,0.0015886032485201778, ,0.021476039241592866,-0.007654235515757072,-0.035212474810185246,0.018871157638148544,0.02692500913165443,0.006069808698460285, ,0.04194908777428949, ,0.032878907703411495, ,0.0010326798540252677, ,0.2112321895757888,-0.19903027163451406,0.11089501692,1.613144735226446,0.20741420664393861,-1.3597633728401435, ,0.14897479051565274,0.14599529470533967,0.03670233069124424,-0.0004624252386281404,0.17967925322027697,-0.16172076108516087, ,1.4496290683746338
0.01981434679835865,0.02060005654446985,-0.10061977092916981, ,0.020729072579642127,0.019949852270958076,-0.10143373897193655, ,0.0013863739852158108, ,0.023216653679297223,-0.007798544547746174,-0.036450702680328004,-0.0753682228389601,-0.0554875364408432,-0.010603052322475057, ,0.043914508206483176, ,0.09359044484879975, ,0.001035677261916713, ,0.21280762708213058,-0.1975011705254176,0.11128131134000001,1.613144735226446,0.208780571641593,-1.3610409093573888, ,0.15506036202364507,0.14897479051565274,0.038107204593301434,-0.0004890107495647044,0.10173183413947624,-0.07034978745403207, ,1.4548699855804443
0.01981434679835865,0.02060005654446985,-0.10061977092916981, ,0.02084758473451725,0.019911691504063234,-0.1016239830021342, ,0.001596830908098513, ,0.023216653679297223,-0.007798544547746174,-0.036450702680328004,-0.0753682228389601,-0.0554875364408432,-0.010603052322475057, ,0.043914508206483176, ,0.09359044484879975, ,0.0010403928387753836, ,0.21280762708213058,-0.1975011705254176,0.11128131134000001,1.613144735226446,0.208780571641593,-1.3610409093573888, ,0.15506036202364507,0.14897479051565274,0.038107204593301434,-0.0004890107495647044,0.10173183413947624,-0.07034978745403207, ,1.4601190090179443
0.020043110125349855,0.020525661017890006,-0.10098497932319532, ,0.020966275558710844,0.019873868741162082,-0.101813788400404, ,0.0014014250161240391, ,0.02293173766106707,-0.0073966013757403234,-0.037162352862136185,-0.013244915622022064,-0.0073653349254812145,-0.0006657638387023027, ,0.044290120504662515, ,0.015152724826080799, ,0.001043401440253289, ,0.21433672819122704,-0.1960492967450634,0.11166371689000001,1.613144735226446,0.21001030013948196,-1.3620436704906567, ,0.15380379507045505,0.14554745637802266,0.03894574943765281,-0.0005084428458223412,0.14953403475707014,-0.12908257165124754, ,1.4655869007110596
0.020271076307991593,0.02045198416528627,-0.10135033006328, ,0.02108513940276284,0.01983640227538835,-0.10200314432042595, ,0.001211530536045982, ,0.023055788163464392,-0.007510149570416773,-0.037062426735231156,0.009813487007965449,0.01719416102260967,0.004375536642433093, ,0.04428989941186312, ,0.01979580181765426, ,0.0010447909369127326, ,0.21588127476607194,-0.19461286843045764,0.11204741873000001,1.613144735226446,0.21164993813666727,-1.3635440428152947, ,0.15633763024459765,0.14554745637802266,0.03894574943765281,-0.0005227605382008534,0.17713018429111524,-0.1520986882094332, ,1.4719219207763672
0.020271076307991593,0.02045198416528627,-0.10135033006328, ,0.021204170689592863,0.01979931017495148,-0.10219204002732163, ,0.001416024055658082, ,0.023055788163464392,-0.007510149570416773,-0.037062426735231156,0.009813487007965449,0.01719416102260967,0.004375536642433093, ,0.04428989941186312, ,0.01979580181765426, ,0.0010478338313286782, ,0.21588127476607194,-0.19461286843045764,0.11204741873000001,1.613144735226446,0.21164993813666727,-1.3635440428152947, ,0.15633763024459765,0.14554745637802266,0.03894574943765281,-0.0005227605382008534,0.17713018429111524,-0.1520986882094332, ,1.4773640632629395
0.020505302451307404,0.020374371248891205,-0.10172526054391952, ,0.021323363914154604,0.019762610284032957,-0.10238046489733946, ,0.0012135768537099064, ,0.022672036162046945,-0.007567222908462928,-0.0359825946443263,-0.00559232064277498,0.002771214431451302,0.0007014244030440643, ,0.043197583307604495, ,0.0062364540767158826, ,0.0010491813355756798, ,0.21746443500528798,-0.19313010371860653,0.11244149089000001,1.613144735226446,0.21342621263361797,-1.3650741543034888, ,0.1520784319847288,0.14291708066034756,0.03783565681710214,-0.0005335758418187356,0.15802281378221078,-0.13407726280806703, ,1.482637882232666
0.020505302451307404,0.020374371248891205,-0.10172526054391952, ,0.02144271364309613,0.01972632022368391,-0.10256840841753907, ,0.0014176065076572418, ,0.022672036162046945,-0.007567222908462928,-0.0359825946443263,-0.00559232064277498,0.002771214431451302,0.0007014244030440643, ,0.043197583307604495, ,0.0062364540767158826, ,0.001052152506318273, ,0.21746443500528798,-0.19313010371860653,0.11244149089000001,1.613144735226446,0.21342621263361797,-1.3650741543034888, ,0.1520784319847288,0.14291708066034756,0.03783565681710214,-0.0005335758418187356,0.15802281378221078,-0.13407726280806703, ,1.4878959655761719
0.020722808263798922,0.020301524580114957,-0.10206516412291097, ,0.021562214514412825,0.019690457392721177,-0.10275586018547614, ,0.001247023260377311, ,0.022807254671058243,-0.007771816756251313,-0.03508258652533649,-0.021348467995905777,-0.020567269857851428,-0.0041957849030319835, ,0.04256007376204814, ,0.029643153184414472, ,0.0010537114723507455, ,0.21891630878564217,-0.19177090273274303,0.11279926693000002,1.613144735226446,0.21479257763127238,-1.3662700120805935, ,0.1520784319847288,0.1422742752001061,0.036957799350348035,-0.0005405868438640778,0.13418994258023048,-0.11764956369697507, ,1.4931280612945557
0.020722808263798922,0.020301524580114957,-0.10206516412291097, ,0.021681861237107775,0.01965503896862458,-0.10294280990888739, ,0.0014518913103668623, ,0.022807254671058243,-0.007771816756251313,-0.03508258652533649,-0.021348467995905777,-0.020567269857851428,-0.0041957849030319835, ,0.04256007376204814, ,0.029643153184414472, ,0.0010568716297953177, ,0.21891630878564217,-0.19177090273274303,0.11279926693000002,1.613144735226446,0.21479257763127238,-1.3662700120805935, ,0.1520784319847288,0.1422742752001061,0.036957799350348035,-0.0005405868438640778,0.13418994258023048,-0.11764956369697507, ,1.4984490871429443
0.02089381306361875,0.020243683679217073,-0.10232704971150479, ,0.02180164859084383,0.019620081908433243,-0.10312924740537635, ,0.0013625584952836403, ,0.023014155183091897,-0.007774438854582576,-0.03518770073288884,-0.022307352933467525,-0.02274880227207366,-0.004660579073928115, ,0.042758245066448, ,0.031860195453078506, ,0.001059278612988139, ,0.22005155051815317,-0.19071288832897426,0.11307537670000001,1.613144735226446,0.21574903312963048,-1.3670499374064684, ,0.15281311040011397,0.14184894104405196,0.03713009678321679,-0.0005443855962443511,0.13269297932282195,-0.11624114412287215, ,1.5037920475006104
0.02089381306361875,0.020243683679217073,-0.10232704971150479, ,0.021921571425604202,0.019585602949642913,-0.10331516260209639, ,0.0015702625837168654, ,0.023014155183091897,-0.007774438854582576,-0.03518770073288884,-0.022307352933467525,-0.02274880227207366,-0.004660579073928115, ,0.042758245066448, ,0.031860195453078506, ,0.0010632706752594573, ,0.22005155051815317,-0.19071288832897426,0.11307537670000001,1.613144735226446,0.21574903312963048,-1.3670499374064684, ,0.15281311040011397,0.14184894104405196,0.03713009678321679,-0.0005443855962443511,0.13269297932282195,-0.11624114412287215, ,1.509093999862671
0.021179720128906985,0.020146878790315844,-0.102757110038909, ,0.022041624661345818,0.01955161861110215,-0.10350054553543779, ,0.0012844883967927194, ,0.022205001748289446,-0.007707351556375596,-0.03208692845392222,-0.02540809162319538,-0.030145212047393677,-0.005610127745633709, ,0.03977482053086131, ,0.03942424275296483, ,0.0010649855413178548, ,0.22196678827096086,-0.18896755069939952,0.11353037449000002,1.613144735226446,0.2175253076265812,-1.3685800488946627, ,0.14944400245428469,0.13441493138593594,0.03403592205128206,-0.0005481389871270489,0.12168170870380939,-0.1058301475123852, ,1.5143160820007324
0.021179720128906985,0.020146878790315844,-0.102757110038909, ,0.022161803287661035,0.019518145193909892,-0.10368538635071017, ,0.0014904664293465602, ,0.022205001748289446,-0.007707351556375596,-0.03208692845392222,-0.02540809162319538,-0.030145212047393677,-0.005610127745633709, ,0.03977482053086131, ,0.03942424275296483, ,0.0010682584712257677, ,0.22196678827096086,-0.18896755069939952,0.11353037449000002,1.613144735226446,0.2175253076265812,-1.3685800488946627, ,0.14944400245428469,0.13441493138593594,0.03403592205128206,-0.0005481389871270489,0.12168170870380939,-0.1058301475123852, ,1.519582986831665
0.021411935893198376,0.020066532136193676,-0.10310059005172523, ,0.02228210236342685,0.019485198782311423,-0.10386967530183, ,0.0012987033056763156, ,0.022954065255288574,-0.007583180900906364,-0.035066544417216496,0.0032854140778471436,0.018528050485562622,0.0035354500350849353, ,0.042591739594486325, ,0.01881567371608592, ,0.001070017592099436, ,0.2235267803115542,-0.18755429058341644,0.11389463198000001,1.613144735226446,0.21902830912400104,-1.3698873245754637, ,0.15355492161564852,0.13793160110242844,0.037216849345794396,-0.0005490833746994482,0.1754283068845065,-0.13790742288934493, ,1.5248379707336426
0.021411935893198376,0.020066532136193676,-0.10310059005172523, ,0.022402517016468792,0.01945279524459579,-0.10405340275100344, ,0.0015052494722781846, ,0.022954065255288574,-0.007583180900906364,-0.035066544417216496,0.0032854140778471436,0.018528050485562622,0.0035354500350849353, ,0.042591739594486325, ,0.01881567371608592, ,0.0010733148033129113, ,0.2235267803115542,-0.18755429058341644,0.11389463198000001,1.613144735226446,0.21902830912400104,-1.3698873245754637, ,0.15355492161564852,0.13793160110242844,0.037216849345794396,-0.0005490833746994482,0.1754283068845065,-0.13790742288934493, ,1.5302269458770752
0.02151388095331737,0.02003476504679747,-0.10325675477240226, ,0.022523042443213123,0.01942095023399226,-0.1042365591684121, ,0.0015346635434348198, ,0.022207141748533433,-0.006947406798817097,-0.03463523049703108,0.009773771292705374,0.023405273418235978,0.004601313648524707, ,0.04172556527418386, ,0.025363035852279912, ,0.0010767835908326248, ,0.22419865807161174,-0.18695964015210115,0.11406055710000002,1.613144735226446,0.21971149162282821,-1.3705260928340866, ,0.14689929033819007,0.13071204071414708,0.036787093579676675,-0.0005490350305687919,0.17359677630007192,-0.13733642322092637, ,1.5356791019439697
0.02151388095331737,0.02003476504679747,-0.10325675477240226, ,0.022643673908343053,0.019389679189567202,-0.10441913513189809, ,0.0017446191517250483, ,0.022207141748533433,-0.006947406798817097,-0.03463523049703108,0.009773771292705374,0.023405273418235978,0.004601313648524707, ,0.04172556527418386, ,0.025363035852279912, ,0.0010817674383019713, ,0.22419865807161174,-0.18695964015210115,0.11406055710000002,1.613144735226446,0.21971149162282821,-1.3705260928340866, ,0.14689929033819007,0.13071204071414708,0.036787093579676675,-0.0005490350305687919,0.17359677630007192,-0.13733642322092637, ,1.540945053100586
0.02185484243617396,0.01992276844641675,-0.10377096322483817, ,0.022764406744459165,0.019358997337120994,-0.1046011213266485, ,0.0013543661131999172, ,0.022816429474152355,-0.007339597712712748,-0.03362906093741855,-0.015251348295567655,-0.010665405231171422,-0.0021003784169120045, ,0.04129616069401654, ,0.018609446073327575, ,0.0010837866877456597, ,0.22646141880375953,-0.18494400687192855,0.11460759148,1.613144735226446,0.22217094861860617,-1.372531615100622, ,0.15039134953798858,0.13143620714469637,0.035875701621621625,-0.000547025958557085,0.14238832386815678,-0.11294938525232726, ,1.5461790561676025
0.02207917034344903,0.019855249489545878,-0.10412307588160416, ,0.022885236351732584,0.01932891969008461,-0.10478250854488028, ,0.001166883415301869, ,0.022723726743136774,-0.006049800337982879,-0.03763287668992828,0.007341326494840123,0.017725681380284925,0.0026135014773646546, ,0.04437568308415719, ,0.01918383106150094, ,0.0010843976930953376, ,0.22789784711836528,-0.18366203321480729,0.11498221929,1.613144735226446,0.223673950116026,-1.3737572120412826, ,0.14163722620667282,0.1255250549715222,0.040022139497487445,-0.0005445801733455805,0.1623459389959156,-0.12973923201959645, ,1.5522260665893555
0.02207917034344903,0.019855249489545878,-0.10412307588160416, ,0.02300615819756353,0.019299461050416508,-0.10496328768552537, ,0.0013690007838544915, ,0.022723726743136774,-0.006049800337982879,-0.03763287668992828,0.007341326494840123,0.017725681380284925,0.0026135014773646546, ,0.04437568308415719, ,0.01918383106150094, ,0.0010864750879183971, ,0.22789784711836528,-0.18366203321480729,0.11498221929,1.613144735226446,0.223673950116026,-1.3737572120412826, ,0.14163722620667282,0.1255250549715222,0.040022139497487445,-0.0005445801733455805,0.1623459389959156,-0.12973923201959645, ,1.5574240684509277
0.022316198950135688,0.019794991138744816,-0.10450816587063727, ,0.023127167816238366,0.01927063600949948,-0.10514344975391515, ,0.0011559430849771032, ,0.02314405883197216,-0.005287257519109533,-0.03747752276258634,0.009134657176389664,0.007729609650252543,0.0025647639816854364, ,0.04436403119320139, ,0.01196306362694805, ,0.0010869784792014313, ,0.22927249356997725,-0.18248045508505095,0.11536592113000001,1.613144735226446,0.22517695161344586,-1.3749828089819434, ,0.14422027592472764,0.11891847313091576,0.039822028800000006,-0.0005415080572194854,0.15687337713166025,-0.12564739466061212, ,1.5626819133758545
0.022316198950135688,0.019794991138744816,-0.10450816587063727, ,0.023248260808580275,0.01924245894903768,-0.10532298586146696, ,0.0013557148468927524, ,0.02314405883197216,-0.005287257519109533,-0.03747752276258634,0.009134657176389664,0.007729609650252543,0.0025647639816854364, ,0.04436403119320139, ,0.01196306362694805, ,0.0010889118343646782, ,0.22927249356997725,-0.18248045508505095,0.11536592113000001,1.613144735226446,0.22517695161344586,-1.3749828089819434, ,0.14422027592472764,0.11891847313091576,0.039822028800000006,-0.0005415080572194854,0.15687337713166025,-0.12564739466061212, ,1.5680420398712158
0.022530510215933063,0.01974455372130365,-0.10484922419884582, ,0.023369432841617407,0.019214944041952432,-0.10550188722536553, ,0.001187538045930945, ,0.022398115614095215,-0.005479499926413781,-0.035492377175705206,-0.006758237198126656,-0.009305089992104552,-0.0014137327847460013, ,0.042325043887614155, ,0.011497919295598263, ,0.0010896163073044372, ,0.23071664461745722,-0.1813065996881688,0.11575869700000001,1.613144735226446,0.2266799531108657,-1.3762084059226039, ,0.13853568110725661,0.11502659582844943,0.03801625661097852,-0.0005376983957328831,0.1316063130498771,-0.10533923226918593, ,1.5732979774475098
0.022530510215933063,0.01974455372130365,-0.10484922419884582, ,0.02349067964822774,0.019188105253280494,-0.10568014516825174, ,0.0013863585011377338, ,0.022398115614095215,-0.005479499926413781,-0.035492377175705206,-0.006758237198126656,-0.009305089992104552,-0.0014137327847460013, ,0.042325043887614155, ,0.011497919295598263, ,0.0010917208618706309, ,0.23071664461745722,-0.1813065996881688,0.11575869700000001,1.613144735226446,0.2266799531108657,-1.3762084059226039, ,0.13853568110725661,0.11502659582844943,0.03801625661097852,-0.0005376983957328831,0.1316063130498771,-0.10533923226918593, ,1.5785980224609375
0.022761430717312237,0.019687985736521064,-0.10521473555726593, ,0.023611997026802056,0.019161956341069677,-0.10585775111790517, ,0.0011889655095679943, ,0.02306304805315597,-0.005699457215992022,-0.0360502490981773,-0.019537892323510195,-0.025018902932426847,-0.004674622608093313, ,0.04317416424321075, ,0.031742933875677476, ,0.0010924056833332885, ,0.2321299047334403,-0.18012502155841245,0.11615017658000001,1.613144735226446,0.22790968160875466,-1.3772111670558718, ,0.14121568684296246,0.11730153468290579,0.03866216388349515,-0.0005334247667416879,0.11832010946950562,-0.09473554935107961, ,1.5838820934295654
0.022761430717312237,0.019687985736521064,-0.10521473555726593, ,0.023733380840901073,0.01913651085727601,-0.10603469660692921, ,0.0013860547276884894, ,0.02306304805315597,-0.005699457215992022,-0.0360502490981773,-0.019537892323510195,-0.025018902932426847,-0.004674622608093313, ,0.04317416424321075, ,0.031742933875677476, ,0.0010944591731539542, ,0.2321299047334403,-0.18012502155841245,0.11615017658000001,1.613144735226446,0.22790968160875466,-1.3772111670558718, ,0.14121568684296246,0.11730153468290579,0.03866216388349515,-0.0005334247667416879,0.11832010946950562,-0.09473554935107961, ,1.589169979095459
0.022996851099782438,0.019630111163163964,-0.10558101466977164, ,0.023854827018905816,0.01911178214866129,-0.10621097327243788, ,0.0011839068739322857, ,0.021934676338293022,-0.005190248444354681,-0.0337494402034135,0.03600460722490839,0.03254592812333516,0.007540041293574797, ,0.04058439871457481, ,0.04853375519235703, ,0.0010950803377426923, ,0.2336049467124172,-0.1789357206957819,0.11654424874000001,1.613144735226446,0.22954931960593997,-1.3785481819002288, ,0.13955432582128055,0.10808307694586651,0.03645036961098399,-0.0005286391022158956,0.17515531926413605,-0.14126864110432982, ,1.5944230556488037
0.022996851099782438,0.019630111163163964,-0.10558101466977164, ,0.02397633155368429,0.019087783357687963,-0.10638657285573681, ,0.0013792843793589812, ,0.021934676338293022,-0.005190248444354681,-0.0337494402034135,0.03600460722490839,0.03254592812333516,0.007540041293574797, ,0.04058439871457481, ,0.04853375519235703, ,0.001097040365615908, ,0.2336049467124172,-0.1789357206957819,0.11654424874000001,1.613144735226446,0.22954931960593997,-1.3785481819002288, ,0.13955432582128055,0.10808307694586651,0.03645036961098399,-0.0005286391022158956,0.17515531926413605,-0.14126864110432982, ,1.599816083908081
0.023214672755964054,0.019580618060285413,-0.1059017502741081, ,0.02409789050223863,0.019064527423418035,-0.10656148720201214, ,0.0012172411210753507, ,0.022017106263918396,-0.005018585834672972,-0.03189543313580168,-0.03839731452346094,-0.06334789526799797,-0.010111087298505069, ,0.0390801461990235, ,0.07407615397499459, ,0.0010978636584615207, ,0.2349641476982807,-0.17790859722351002,0.11689165446000001,1.613144735226446,0.23064241160406349,-1.3793578463896594, ,0.13498853706752598,0.1027023177039727,0.034552736485900216,-0.000523863263996696,0.07295595362147275,-0.061602431058437386, ,1.6051290035247803
0.023214672755964054,0.019580618060285413,-0.1059017502741081, ,0.024219499985366117,0.019042027082408774,-0.10673570826001348, ,0.0014125310349345607, ,0.022017106263918396,-0.005018585834672972,-0.03189543313580168,-0.03839731452346094,-0.06334789526799797,-0.010111087298505069, ,0.0390801461990235, ,0.07407615397499459, ,0.0011000042528592966, ,0.2349641476982807,-0.17790859722351002,0.11689165446000001,1.613144735226446,0.23064241160406349,-1.3793578463896594, ,0.13498853706752598,0.1027023177039727,0.034552736485900216,-0.000523863263996696,0.07295595362147275,-0.061602431058437386, ,1.6103410720825195
0.023436713116423778,0.01952804020334342,-0.10621829617465871, ,0.024341156187315298,0.019020294869609815,-0.10690922808173907, ,0.001246278256503593, ,0.022631966491200303,-0.005345113836725347,-0.03237138630352326,-0.019135157330891186,-0.04442246358720378,-0.0065373122193160705, ,0.039858283962036035, ,0.04836810901766592, ,0.0011009925907217578, ,0.23633879414989267,-0.17686602828548972,0.11723517131000001,1.613144735226446,0.23146223060265614,-1.3799446750716975, ,0.14058806156810486,0.10603010229996734,0.03516293933774835,-0.0005187096297995511,0.09788732372707479,-0.08406724723790168, ,1.615678071975708
0.023436713116423778,0.01952804020334342,-0.10621829617465871, ,0.02446285535665635,0.01899934311870372,-0.10708203882130374, ,0.00144171421028212, ,0.022631966491200303,-0.005345113836725347,-0.03237138630352326,-0.019135157330891186,-0.04442246358720378,-0.0065373122193160705, ,0.039858283962036035, ,0.04836810901766592, ,0.0011032793130006863, ,0.23633879414989267,-0.17686602828548972,0.11723517131000001,1.613144735226446,0.23146223060265614,-1.3799446750716975, ,0.14058806156810486,0.10603010229996734,0.03516293933774835,-0.0005187096297995511,0.09788732372707479,-0.08406724723790168, ,1.620980978012085
0.023665595292714316,0.019477816110872067,-0.10655950287572549, ,0.024584593801004598,0.018979183965205704,-0.107254132737884, ,0.001255270058725994, ,0.022090946219633933,-0.004181720454198747,-0.03369616152909213,0.049757795687346985,0.03102975552571634,0.008670847405770628, ,0.04050836941460976, ,0.05863992256488013, ,0.0011042925846388551, ,0.2377674997316242,-0.17580801388172096,0.11760591025000001,1.613144735226446,0.23296523210007597,-1.381170272012358, ,0.13793160110242844,0.09713095348871113,0.03670233069124424,-0.0005132479073559038,0.17187805415159702,-0.1442777926964201, ,1.626328945159912
0.023665595292714316,0.019477816110872067,-0.10655950287572549, ,0.024706367894196533,0.018959829344089435,-0.10742550219052414, ,0.001449645719405166, ,0.022090946219633933,-0.004181720454198747,-0.03369616152909213,0.049757795687346985,0.03102975552571634,0.008670847405770628, ,0.04050836941460976, ,0.05863992256488013, ,0.0011065796914916121, ,0.2377674997316242,-0.17580801388172096,0.11760591025000001,1.613144735226446,0.23296523210007597,-1.381170272012358, ,0.13793160110242844,0.09713095348871113,0.03670233069124424,-0.0005132479073559038,0.17187805415159702,-0.1442777926964201, ,1.6316759586334229
0.023874398178481505,0.019438922450996838,-0.10686878266080956, ,0.02482817407085163,0.01894129099284137,-0.10759613964106589, ,0.0012986045193745393, ,0.02243124772868513,-0.004154459265374392,-0.032552520470696684,0.05372847849816176,0.02846109959266247,0.009320212311678068, ,0.039750308117653926, ,0.060800880246460284, ,0.0011078430127276842, ,0.2390880870531166,-0.17491217686831093,0.11794424194000001,1.613144735226446,0.23460487009726125,-1.3825072868567152, ,0.1427021677570989,0.09470752650545987,0.03571482403587444,-0.0005081407478639782,0.17407538017065402,-0.14586816546294376, ,1.6381850242614746
0.024099477797329773,0.01939554936098361,-0.10719273962224646, ,0.024950008827323487,0.018923580451824223,-0.1077660376530235, ,0.0011290829536788293, ,0.0219174920662627,-0.00427004081924261,-0.03100534910915782,0.011761790831257784,-0.012258685935664907,0.0010594081912993487, ,0.03820917926956087, ,0.016987832427002848, ,0.0011079818358711558, ,0.24050134716909968,-0.1739545579919071,0.1182994254,1.613144735226446,0.23610787159468108,-1.383896241277657, ,0.13673910887387722,0.09249214576849003,0.03403592205128206,-0.000502505855079854,0.12659524699089325,-0.10171893699411008, ,1.643493890762329
0.024099477797329773,0.01939554936098361,-0.10719273962224646, ,0.025071868721356687,0.018906709065173877,-0.10793518889126949, ,0.001317474804696506, ,0.0219174920662627,-0.00427004081924261,-0.03100534910915782,0.011761790831257784,-0.012258685935664907,0.0010594081912993487, ,0.03820917926956087, ,0.016987832427002848, ,0.0011093421798245673, ,0.24050134716909968,-0.1739545579919071,0.1182994254,1.613144735226446,0.23610787159468108,-1.383896241277657, ,0.13673910887387722,0.09249214576849003,0.03403592205128206,-0.000502505855079854,0.12659524699089325,-0.10171893699411008, ,1.648742914199829
0.02432795958282909,0.01935230051882125,-0.10751101707162772, ,0.0251937503717432,0.018890687981695777,-0.1081035861217191, ,0.0011462189597655974, ,0.0225436649632317,-0.003986171336753263,-0.030951856165431984,-0.023226799721271,-0.05909421317731307,-0.006716146373781857, ,0.03849836089999136, ,0.06349473874902184, ,0.0011095800945338642, ,0.24191460728508277,-0.17301238458125168,0.1186494237,1.613144735226446,0.2372009635928046,-1.3847875845072284, ,0.13773141009937706,0.08944103822664541,0.03410880411134904,-0.000496772060204389,0.07999297018122557,-0.06373518263699576, ,1.654038906097412
0.02432795958282909,0.01935230051882125,-0.10751101707162772, ,0.025315650457978945,0.018875528155762305,-0.10827122221101511, ,0.0013344500758672457, ,0.0225436649632317,-0.003986171336753263,-0.030951856165431984,-0.023226799721271,-0.05909421317731307,-0.006716146373781857, ,0.03849836089999136, ,0.06349473874902184, ,0.0011110215687731807, ,0.24191460728508277,-0.17301238458125168,0.1186494237,1.613144735226446,0.2372009635928046,-1.3847875845072284, ,0.13773141009937706,0.08944103822664541,0.03410880411134904,-0.000496772060204389,0.07999297018122557,-0.06373518263699576, ,1.6593348979949951
0.02456011218749303,0.019317335529867037,-0.10782478943558496, ,0.025437565719920726,0.018861240348209178,-0.10843809012621315, ,0.0011636516890489064, ,0.023088177265905934,-0.003282217887155544,-0.03106380136358969,-0.020639868045592164,-0.06681727960254176,-0.006138923632371855, ,0.03884323157098565, ,0.06993228211239806, ,0.0011113567924692046, ,0.24332786740106585,-0.17215516123221278,0.11899682942,1.613144735226446,0.23788414609163183,-1.3853446740257107, ,0.14100585669906504,0.0830971467237047,0.034477947012987016,-0.0004911211604532448,0.07546501626784753,-0.06013723755475644, ,1.6648058891296387
0.02456011218749303,0.019317335529867037,-0.10782478943558496, ,0.025559492957442396,0.018847835127232353,-0.10860418293446623, ,0.0013515349708820375, ,0.023088177265905934,-0.003282217887155544,-0.03106380136358969,-0.020639868045592164,-0.06681727960254176,-0.006138923632371855, ,0.03884323157098565, ,0.06993228211239806, ,0.0011128769075224503, ,0.24332786740106585,-0.17215516123221278,0.11899682942,1.613144735226446,0.23788414609163183,-1.3853446740257107, ,0.14100585669906504,0.0830971467237047,0.034477947012987016,-0.0004911211604532448,0.07546501626784753,-0.06013723755475644, ,1.6702179908752441
0.024789923067686313,0.019284148574817975,-0.1081413841962385, ,0.02568142903009193,0.01883532286928487,-0.10876949380270956, ,0.0011793002470504616, ,0.02247624999503327,-0.0031591731315596928,-0.031259996152384575,0.030234640718281348,-0.00515659730292472,0.004764189502019231, ,0.03863094029610851, ,0.030670737602637246, ,0.0011132946643748276, ,0.24474885024992316,-0.1713133833489223,0.11934812401000001,1.613144735226446,0.23911387458952077,-1.3863474351589784, ,0.13914507559893075,0.08180770824006102,0.03470329307189543,-0.0004854586823165317,0.13620219710854253,-0.10974750505999313, ,1.6755990982055664
0.024789923067686313,0.019284148574817975,-0.1081413841962385, ,0.02580337085674759,0.018823713759973562,-0.10893401599734569, ,0.0013665071576835638, ,0.02247624999503327,-0.0031591731315596928,-0.031259996152384575,0.030234640718281348,-0.00515659730292472,0.004764189502019231, ,0.03863094029610851, ,0.030670737602637246, ,0.0011148772424580075, ,0.24474885024992316,-0.1713133833489223,0.11934812401000001,1.613144735226446,0.23911387458952077,-1.3863474351589784, ,0.13914507559893075,0.08180770824006102,0.03470329307189543,-0.0004854586823165317,0.13620219710854253,-0.10974750505999313, ,1.680907964706421
0.025009653548696723,0.019254815383113372,-0.1084468738565665, ,0.02592531541527486,0.018813017794956,-0.1090977428839293, ,0.0012071670363239843, ,0.022757378331028148,-0.0026436761815041626,-0.03137786807764993,0.040983625959586684,-0.00014761770967926602,0.006432119880234092, ,0.03885174252659209, ,0.040983520721485915, ,0.0011154504709913365, ,0.24610805123578666,-0.17053338732862564,0.11968775199000001,1.6129350452829614,0.24048023958717518,-1.3872982567156613, ,0.14100585669906504,0.0771519850068868,0.03500837696703297,0.0,0.14304699142098926,-0.11587599229576014, ,1.68648099899292
0.025009653548696723,0.019254815383113372,-0.1084468738565665, ,0.026047259742183006,0.018803244780837173,-0.10926066792685218, ,0.0013938448301132114, ,0.022757378331028148,-0.0026436761815041626,-0.03137786807764993,0.040983625959586684,-0.00014761770967926602,0.006432119880234092, ,0.03885174252659209, ,0.040983520721485915, ,0.0011171689546896194, ,0.24610805123578666,-0.17053338732862564,0.11968775199000001,1.6129350452829614,0.24048023958717518,-1.3872982567156613, ,0.14100585669906504,0.0771519850068868,0.03500837696703297,0.0,0.14304699142098926,-0.11587599229576014, ,1.6917600631713867
