NicholasDascanio/dvrk_moveit_final/test/execution/third_experiment_notsharpbends/thirdexp_200vel4.0/thirdexp_200vel4.0_26.csv
Current Position (x),Current Position (y),Current Position (z), ,Planned Position (x),Planned Position (y),Planned Position (z), ,Position Error,,Cartesian linear Velocity(x),Cartesian linear Velocity(y),Cartesian linear Velocity(z),Cartesian Angular Velocity(x),Cartesian Angular Velocity(y),Cartesian Angular Velocity(z), ,Total Linear Velocity, ,Total Angular Velocity, ,MSE, ,Joint 1 Position,Joint 2 Position,Joint 3 Position,Joint 4 Position,Joint 5 Position,Joint 6 Position, ,Joint 1 Velocity,Joint 2 Velocity,Joint 3 Velocity,Joint 4 Velocity,Joint 5 Velocity,Joint 6 Velocity, ,Time Stamp
0.009957463517446651,0.019991667307131786,-0.07989045037176795, ,0.010114759498939318,0.020002764750491703,-0.08000449817725933, ,0.00019460750494332474, ,0.0015315672325967376,0.00017487370335996392,-0.0002256137155432516,0.10526594734606215,-0.14482645249404713,-0.03580748174473938, ,0.0015579411249248445, ,0.17904083615944832, ,1.6217292078610396e-05, ,0.1404378973177727,-0.24287994889436082,0.08953993546000001,1.6047571374870648,0.14606441824925584,-1.312758847465651, ,0.001980486651855234,-0.0013400815807105382,0.000269398328380315,-0.0007809845794059942,-0.14731381393611148,-0.10404626995506988, ,0.052896976470947266
0.010021739229531774,0.020028524173458635,-0.0799978849823493, ,0.010154431241663143,0.020093475706276412,-0.0801887790002165, ,0.0002413843361867739, ,0.0011361599701903433,0.0010841677897515066,-0.003211235158143231,-0.06869996165035336,-0.06917462033322959,-0.015599632482501636, ,0.003574676281160683, ,0.09749262961201224, ,1.981781096045903e-05, ,0.1404610655163954,-0.2429957898874742,0.08965400898,1.6047571374870648,0.1408722312581691,-1.3183264159420545, ,0.0005020969517242514,-0.003271019097873138,0.0034108804111349037,-0.0007809845794059942,-0.07051287943609859,0.07183673922175887, ,0.10753011703491211
0.010036841503276413,0.020089645688027884,-0.08018365214455979, ,0.010195870955193503,0.020180990670768062,-0.08037318314440908, ,0.00026373523153482264, ,0.00019553845189949123,0.0009379851822170179,-0.0024005768308350173,0.037073046741978595,0.020199389036820347,0.0063595894138109765, ,0.00258472834336064, ,0.0422187886149523, ,2.186647102077879e-05, ,0.14047651098214384,-0.24316569001070715,0.08985104506000001,1.6047571374870648,0.1422385962558235,-1.314294834350163, ,0.0006468291683566366,-0.003916256405693215,0.002586685859045145,-0.0007750117706914653,0.021631054858692104,-0.03330288586880009, ,0.15973806381225586
0.010065209094664691,0.0201539264141282,-0.08036185713760982, ,0.010239053468036542,0.020265358037109528,-0.08055770683480905, ,0.0002845979210154793, ,0.00074730003882218,0.0015644208813941594,-0.004518861333699103,0.01278007727554884,-0.0008389130525500959,-0.0012314623518772266, ,0.004840039028289601, ,0.012807581676275204, ,2.400792667513172e-05, ,0.14051512464651494,-0.24338964926405965,0.09004159969000002,1.6049668274305493,0.1422385962558235,-1.314866585531147, ,0.0013207134729762088,-0.00494519618404215,0.004819610142208775,0.0019568153851200584,0.0,-0.007617768005048639, ,0.20682907104492188
0.010099825541580098,0.020213649003300405,-0.08052157141651915, ,0.01028395379588578,0.020346625872185112,-0.08074234628801152, ,0.0003167453323642059, ,0.0008393651620867799,0.001420275064692175,-0.003520405860107455,0.011075203322004049,-0.0036956554341617026,-0.0009921936444272765, ,0.0038877979055745994, ,0.011675529845410416, ,2.6021406520892128e-05, ,0.14066185657112523,-0.24361360851741215,0.09021400626000001,1.6049668274305493,0.1422385962558235,-1.314703228050866, ,0.004158412559045154,-0.006075181690814059,0.003834571863264324,0.0018911007896794821,0.0,-0.004802798843968221, ,0.25447893142700195
0.01014103541525632,0.020289746510409427,-0.08071403229055443, ,0.01033054714104291,0.020424841917532167,-0.08092709771237575, ,0.000315535001564271, ,0.0009013230588072164,0.0014919438414982059,-0.0036989844205615394,0.011078348796933165,-0.004149463557883773,-0.0008486871551968181, ,0.0040891032545142475, ,0.011829956009733408, ,2.7400090298455547e-05, ,0.14083175669435816,-0.24393024056525536,0.09042270895000001,1.6049668274305493,0.1422385962558235,-1.3140497981297417, ,0.004586922017215092,-0.006343793575793484,0.004031589855732726,0.0017844905823726413,0.0,-0.0045543621010943145, ,0.30167412757873535
0.010180459181522904,0.020367443326563463,-0.080902263823381, ,0.010378808891837801,0.020500053590251404,-0.0811119573081652, ,0.0003176467333034119, ,0.000841464720653428,0.0015715526420527063,-0.004197648884843183,0.005908884704387053,-0.004726020116417505,0.0076782621606821195, ,0.004560493037301166, ,0.007566385087164396, ,2.8444883248710133e-05, ,0.14100937955046533,-0.24430865447609237,0.09065344857,1.6053862073175185,0.1422385962558235,-1.3136414044290388, ,0.0031615217532980303,-0.006948935584555219,0.004178596935991606,-0.006902285449593954,-2.6113747868894423e-05,-0.00023616992260197967, ,0.3549220561981201
0.010224509000564092,0.020444432361783987,-0.08109158750724976, ,0.010428714622049865,0.020572307983918865,-0.08129692126769038, ,0.00031656604960016946, ,0.0010872769157932683,0.001874891276474594,-0.0053490360408174065,-0.002020831431164901,-0.005317337695296276,0.006218466670795772, ,0.005771444789321042, ,0.00568839480521313, ,2.9616027769900768e-05, ,0.14117927967369825,-0.2446021183253129,0.09083363288000001,1.6053862073175185,0.14210195975605808,-1.3133666290450612, ,0.003964831845503559,-0.00602918420505494,0.005735978221101909,-0.005552559533044619,0.0,0.0072320552241039344, ,0.39673805236816406
0.010269940672258494,0.020515128891326905,-0.08130773581757175, ,0.010480240090327686,0.02064165186949674,-0.0814819857754471, ,0.00030099328408581894, ,0.0010428689665499626,0.0013089034988118704,-0.0037002041943387876,-0.007249796668364656,-0.003895627993360823,-0.00868493453091855, ,0.004061073150091894, ,0.00823015604357881, ,3.0378707078550922e-05, ,0.14135690252980543,-0.24477974118142007,0.0910643725,1.6055958972610032,0.14210195975605808,-1.3125498416436554, ,0.006232447223472615,-0.003977110711928403,0.00400624032193159,0.00968926085466438,0.0,0.012511820148497764, ,0.43856310844421387
0.010308419875110634,0.020568030865921474,-0.08145635725676673, ,0.010533361239609075,0.020708131696243314,-0.08166714700825835, ,0.0003386136138036821, ,0.0010075438926837777,0.0015107375059553176,-0.004331637583367646,-0.005870116438613994,-0.0027230161302599374,-0.007181017919754822, ,0.0046968666854859285, ,0.0064709413784684085, ,3.1417663134803906e-05, ,0.14158086178315793,-0.244949641304653,0.09122511246000001,1.6055958972610032,0.1422385962558235,-1.3124162233269303, ,0.004699968334060051,-0.004514813195937486,0.004658909482304768,0.00819758481856241,0.0,0.011462136951401383, ,0.48139500617980957
0.010361535397988574,0.02063074461663408,-0.08163986073774197, ,0.01058805419654149,0.020771793592624804,-0.08185240113541419, ,0.000341143665291545, ,0.0014007015701949352,0.0017897515001183166,-0.005057764298585842,-0.002988166520519451,-0.006528786007966364,-0.005649174657895825, ,0.00554492155228294, ,0.007180124134194193, ,3.26421078150859e-05, ,0.14190521656387536,-0.24512726416076017,0.09142344483,1.6055958972610032,0.1422385962558235,-1.3122528658466492, ,0.008154422887864346,-0.005504324500130974,0.005473818391752578,0.006736788953290827,0.0,0.009361580705432502, ,0.5183169841766357
0.010406921015304191,0.020685873949522142,-0.08180857659838454, ,0.010644295270901112,0.02083268336722486,-0.0820377443188103, ,0.0003611334745375143, ,0.001614205088683711,0.0018741594327981305,-0.005619236135300468,0.0023732814137505803,-0.009629090588571174,0.0006962104314556389, ,0.0061395395912189656, ,0.009917249852111483, ,3.389341649274546e-05, ,0.14217551221447322,-0.24525855061962198,0.09160492543000001,1.6058055872044876,0.14237523275558894,-1.312282605010205, ,0.00973322054670645,-0.004880044741879911,0.006061191598173516,3.229222610695266e-05,0.00010145762863453036,0.0024620118734050736, ,0.5559210777282715
0.010469606589397494,0.020750224575674353,-0.0819983396404946, ,0.010702060955013255,0.020890846509656075,-0.0822231727130903, ,0.0003526463822916801, ,0.0014513247016884891,0.0013367190740938338,-0.0039245137979057754,0.004043795503778247,-0.008755014869259978,-0.004393013016057626, ,0.004392603991111682, ,0.00964378382723214, ,3.49145887656876e-05, ,0.14261570798830403,-0.2454284507428549,0.09181103554,1.6060152771479719,0.1425118692553544,-1.3122306654336202, ,0.010704154438235277,-0.0035085093521957772,0.004280787831228165,0.005271414139012955,0.0006895015149404983,0.000156134255205567, ,0.5933511257171631
0.010539161886702078,0.020818734123165802,-0.08222117923826991, ,0.010761327923171058,0.020946328191468997,-0.08240868246578291, ,0.0003174829985279343, ,0.0017615609430540028,0.0016882101795706002,-0.005779373366285226,-0.011890619594850833,-0.0068515032692703735,-0.0031883793566150126, ,0.006273301130459635, ,0.013723335052041432, ,3.5523596075421944e-05, ,0.1430790719607575,-0.2455520144688425,0.09205084919,1.6060152771479719,0.1426485057551198,-1.3116886534161922, ,0.011485112581483051,-0.002134389545005551,0.0061931615552099535,0.004624635988704566,0.0036314895756755193,0.014643736448571124, ,0.6299240589141846
0.01058547134688489,0.020863200268009106,-0.08237055448756081, ,0.010822073031055498,0.020999173267063482,-0.08259426971744287, ,0.0003528703976042639, ,0.0016417722206644742,0.001472475118220234,-0.005068920164900411,0.021321143921640348,0.00040695569413630304,0.0022602918658995844, ,0.005527888442837578, ,0.021325027261832413, ,3.6632554973451564e-05, ,0.14341887220722338,-0.2456137963318363,0.09221158915000001,1.6062249670914566,0.14305841525441615,-1.3116145134265786, ,0.012224261439967896,-0.0017487138701107981,0.005453204902430675,0.0010864965236024686,0.01274447789822131,-0.01943576508152088, ,0.661492109298706
0.010641751740367307,0.020910541415540978,-0.08253996080970821, ,0.010884273315154498,0.02104942627459856,-0.08277993060179004, ,0.00036836289094383087, ,0.001920752895950105,0.0017113997014656494,-0.006074070295628704,0.014459184704954107,-0.004016442637632483,0.0015040058941426374, ,0.0065964013357069475, ,0.015006659372605138, ,3.775806679999036e-05, ,0.14379728611806036,-0.24565240999620744,0.09239306975000001,1.6062249670914566,0.14305841525441615,-1.3115328346864383, ,0.013401629933409234,-0.0015274062910416322,0.006509526571311812,0.0010231646403090113,0.009416280806710002,-0.012803270162840658, ,0.6932821273803711
0.010696527600819909,0.020959392837482528,-0.08271961515362204, ,0.010947905992181987,0.021097131436902138,-0.08296566124584781, ,0.0003777587813849377, ,0.0018187287740162057,0.0015206374821586529,-0.005646538674576469,0.007408904981644407,-0.004662035189620775,0.0019551963061550087, ,0.006124011080090245, ,0.008753652917285585, ,3.88537941955338e-05, ,0.14416797729602315,-0.2456755781948301,0.09258492067000001,1.606434657034941,0.14333168825394704,-1.311755670493831, ,0.012749824205088108,-0.0006222602323830005,0.006038215132676271,0.00015594687757693602,0.008300607280518606,-0.006768588658157033, ,0.7254130840301514
0.010757898499306832,0.021004755685341395,-0.08288985181053549, ,0.011012948458497065,0.021142332662381705,-0.08315145777008376, ,0.00039040438568958423, ,0.0020113509573570307,0.001437196261673196,-0.005455883510615858,-0.001537554251556832,-0.011368298201143453,-0.0040990184263561165, ,0.005989802221245579, ,0.011471803355723663, ,3.9946027671342004e-05, ,0.14463134126847663,-0.24568330092770432,0.09276769756000001,1.6066443469784255,0.1436049612534779,-1.3118151488209426, ,0.014635555453187966,-9.307847871556324e-05,0.005851877854518736,0.004844404039923727,0.002156000656522152,0.0023078692712236587, ,0.7569389343261719
0.01082748427056301,0.02105646170373544,-0.08308838962364234, ,0.01107937828952309,0.021185073545933592,-0.08333731628854706, ,0.0003767706029430193, ,0.0023772100608985304,0.0018466073700876445,-0.007047052445351041,-0.006704654097325158,-0.008220776700790768,-0.0027565717526880445, ,0.007663030381019462, ,0.010608182631795787, ,4.113421870883401e-05, ,0.14514104163817543,-0.24568330092770432,0.09298028912,1.6066443469784255,0.14387823425300877,-1.3117112696677733, ,0.01671898195180951,-9.369536324699767e-05,0.0075349155723746465,0.004844404039923727,0.00755501879105179,0.007479355967356932, ,0.7832930088043213
0.010870878788437958,0.021089898346639113,-0.08321408953957064, ,0.011147173239166572,0.021225397369853554,-0.08352323290900833, ,0.00043619746865700663, ,0.002454346997931706,0.0020324165248865717,-0.007810007333073112,-0.0012107058741227287,-0.0027455641421906822,-0.0013593677843874799, ,0.008435090435765593, ,0.003000650282036879, ,4.263114322255373e-05, ,0.14546539641889286,-0.24569102366057854,0.09311510328000001,1.6066443469784255,0.1441515072525397,-1.311770747994885, ,0.016879569825412805,0.0,0.008330968368200839,0.004844404039923727,0.013366459908604975,0.0018948834348814572, ,0.809751033782959
0.010954131688376226,0.02115194197800317,-0.08345400459087084, ,0.011216311239235964,0.021263347104746196,-0.08370920373309837, ,0.000382460221915054, ,0.002687854096176448,0.001989443819254801,-0.0077445947486920325,0.001993515674893057,-0.006048372074081141,-0.0002188004151161588, ,0.008435709464755874, ,0.00636842850566567, ,4.3695951435146726e-05, ,0.14606004685020815,-0.24568330092770432,0.09337176870000001,1.6068540369219102,0.14442478025207056,-1.3119935838022778, ,0.019602755950933855,0.00036498526162973493,0.008287623059313217,0.003521352297571725,0.01309877601837892,-0.0018537090964088872, ,0.8368110656738281
0.011010837567841854,0.021191016478622805,-0.0836063191823038, ,0.011286770398860448,0.021298965410434755,-0.0838952248564464, ,0.0004138337681546447, ,0.0029536360844525777,0.0019842307207500577,-0.007811706343782617,0.004273266339516296,-0.010202777531369597,-0.0006244047967868527, ,0.008583932296683276, ,0.011061529978895906, ,4.5162515621736035e-05, ,0.14647707442541627,-0.2456755781948301,0.09353510124000002,1.6068540369219102,0.144561416751836,-1.312023322965834, ,0.022376076764553353,0.0007022626213760601,0.008383585010526317,0.003521352297571725,0.011672781345546522,-0.004467295528307371, ,0.8580060005187988
0.011070418444907396,0.021233170296876824,-0.08377211876433957, ,0.01135852900390841,0.02133229463687102,-0.08408129236881963, ,0.00043407562324363847, ,0.0029630563567691224,0.0021017752512021808,-0.008295839977585269,0.011019110931508048,-0.006070513320673064,-0.001121251221755125, ,0.009056385764401705, ,0.012580615978780919, ,4.668003394962043e-05, ,0.14690182473349864,-0.24566013272908166,0.09370621152000001,1.6070637268653947,0.14483468975136687,-1.312164480033086, ,0.022043424287681943,0.0007691148428531927,0.008984101252115061,0.00489753866144194,0.015125153270652312,-0.01108015428976136, ,0.8792650699615479
0.01113087301989385,0.02127439788342165,-0.08393785211865902, ,0.011431565516406872,0.021363376825045213,-0.0842674023542608, ,0.0004549028328081457, ,0.003055422184087955,0.002053322343932769,-0.008188031694064592,0.020759816737469766,0.0033752087875981358,0.0018319664915372922, ,0.008977505243335513, ,0.021032403298933605, ,4.824835381517403e-05, ,0.14738063417170055,-0.24563696453045897,0.0938902847,1.6070637268653947,0.14524459925066321,-1.3124987337441754, ,0.02440764957779598,0.0010834030603399016,0.008795588912203204,0.00489753866144194,0.027424269205960285,-0.021129005491147285, ,0.9002020359039307
0.01122812768107739,0.021333801612086624,-0.08417646727938416, ,0.011505858573959022,0.021392253707895156,-0.08445355089122743, ,0.0003966439515703586, ,0.0032914385056131237,0.0021458334046428654,-0.008640209745395085,0.006388589474889076,-0.0118919297220097,-0.0017718587884772254, ,0.009491648586053645, ,0.013499334051689156, ,4.9412071165514956e-05, ,0.14812973926050033,-0.24559835086608786,0.09414695012,1.6072734168088794,0.14551787225019408,-1.3125582120712869, ,0.02462936453632774,0.001332414324301054,0.009277117949912638,0.00467915081785834,0.01191207377560958,-0.00702848893124028, ,0.9224691390991211
0.011259283020292478,0.02135544952297184,-0.08426339158849462, ,0.011581386989163635,0.021418966711216472,-0.08463973405272995, ,0.0004994187124565698, ,0.003191006884397787,0.0021250842082082403,-0.008961930678210828,0.0351193562729881,0.02143792259622777,0.006660407897517444, ,0.009747548887248861, ,0.04114551801181102, ,5.138500655293082e-05, ,0.14838458944534974,-0.24558290540033942,0.09424028300000001,1.6074831067523636,0.1459277817494904,-1.3128924657823764, ,0.02665644425799741,0.002536248722088648,0.009601453598553349,0.004974691815874334,0.04836194944230047,-0.036897232250638914, ,0.9380130767822266
0.011337366224871144,0.021402501523511044,-0.08446466530329698, ,0.01165812974903279,0.02144355695457156,-0.08482594790647031, ,0.00048487102017739247, ,0.003975778342042144,0.002590903833345799,-0.011452249821564434,0.010432857902084165,-0.007581523870786805,-0.0005003989822576496, ,0.012396516529824817, ,0.012896659692102677, ,5.321216677679049e-05, ,0.14895607167804234,-0.24552112353734562,0.09445546714000001,1.6074831067523636,0.14606441824925584,-1.312758847465651, ,0.028318991810943234,0.004406649617007386,0.012177990458715598,0.004974691815874334,0.020143048596627407,-0.014070076005902557, ,0.9539880752563477
0.011379980596223978,0.021431298874584483,-0.08458749216138989, ,0.01173606601441126,0.02146606525220014,-0.08501218851498073, ,0.0005553129917546334, ,0.00452027336480168,0.0030322250186844628,-0.013029360391618734,0.004590834005297272,-0.01733258782473099,-0.005203903776151537, ,0.014120605230341744, ,0.01793025326261217, ,5.5362582491052784e-05, ,0.14926498099301133,-0.24548250987297449,0.09458639243000001,1.607692796695848,0.14633769124878673,-1.3129816832730439, ,0.03094129167214567,0.004066592205869477,0.01386319540469974,0.007871752138675612,0.012065057837840273,-0.007472314598348308, ,0.9697799682617188
0.011421147069721443,0.021460731559484934,-0.08471674725896, ,0.011815175119393917,0.0214865321139276,-0.08519845193576085, ,0.0006228668944405816, ,0.004275648964664581,0.0031157594532699516,-0.013639122309707555,0.050146968171685374,0.036019309899255864,0.008610143789617997, ,0.014629244287345834, ,0.06174227587675558, ,5.811603264943169e-05, ,0.1495738903079803,-0.24543617347572913,0.09472379917000001,1.607692796695848,0.1468842372478485,-1.313345676147689, ,0.03296177198974323,0.004905446675857416,0.014507114316939893,0.007871752138675612,0.06917846257807898,-0.05383967615753267, ,0.9802320003509521
0.011468491291044068,0.02149040414458207,-0.08485218077608525, ,0.011895436570744584,0.021504997746075227,-0.08538473422141743, ,0.0006827213320222732, ,0.004971221630284975,0.0029687227647807713,-0.014098039804487253,0.015077464735045756,-0.005148363809182671,-0.0014502055245535909, ,0.015240770508095965, ,0.01593220122353353, ,6.112927342987536e-05, ,0.14991369055444617,-0.24537439161273536,0.09486768736000001,1.607692796695848,0.14715751024737936,-1.313568511955082, ,0.03594581119639045,0.007880892700352754,0.01495663053521127,0.007871752138675612,0.02979248600621676,-0.0217230532038818, ,0.9907231330871582
0.011525372666754132,0.02152146990104143,-0.08500635667902384, ,0.011976830047314504,0.02152150205236974,-0.08557103141980175, ,0.0007229601167206549, ,0.0058336325661496324,0.0033240803475870434,-0.0160713481747029,-0.010862222232526772,-0.037270384729006574,-0.008975255548130431, ,0.01741749153083136, ,0.0388209785748911, ,6.42908606396696e-05, ,0.15031527266390585,-0.24527399608537043,0.09503101990000001,1.607692796695848,0.1472941467471448,-1.3136799298587782, ,0.0391812310315734,0.009542652831701151,0.01701796102564103,0.007871752138675612,0.0,0.0025707214640581563, ,1.001235008239746
0.011643208236007303,0.021592154463615176,-0.08535102724464944, ,0.012059335399460337,0.021536084634852355,-0.08575733957414808, ,0.0005842904679725438, ,0.006390470373447043,0.0036022457606335787,-0.0179794231937706,0.024008294030017724,0.002307916782418083,-0.0014678846548344055, ,0.01941839191319928, ,0.024118929978629668, ,6.666434369536337e-05, ,0.1512111096773159,-0.24505775956489215,0.09539657368000001,1.6081121765828172,0.14866051174479922,-1.3146307514154614, ,0.046885840690944064,0.012025971557276742,0.019053602296650717,0.01179257304079322,0.0477879563311005,-0.0341565793552154, ,1.0123419761657715
0.011708465439505412,0.0216266214242845,-0.08552994830909788, ,0.012142932648462095,0.02154878479478821,-0.08594365472321185, ,0.0006049572659527184, ,0.0069181176027172196,0.0034263742571427895,-0.01863301348357639,-0.010521687211741269,-0.032860875692945865,-0.01844563082870788, ,0.020169025340709357, ,0.034504214337661404, ,6.909541884259013e-05, ,0.15167447364976938,-0.2449187503731561,0.09558583202000001,1.6085315564697864,0.14893378474433008,-1.3147719084827139, ,0.047686905305764214,0.015842561195070246,0.019665199407407408,0.01940292452406003,0.010440476375520997,-0.002287644400002364, ,1.0228559970855713
0.011778918807747382,0.021659662275665403,-0.08571523793150564, ,0.012227601985942332,0.02155964153357644,-0.08612997290140789, ,0.0006191331347157677, ,0.007197526403338382,0.0030190779302938634,-0.01794200210297202,-0.007259611005315556,-0.036158990388330606,0.04225639028369548, ,0.019566161027114976, ,0.03688051895690023, ,7.154920607233803e-05, ,0.15218417401946818,-0.24474885024992316,0.09578157181000001,1.6087412464132707,0.14920705774386098,-1.314913065549966, ,0.053735527496302816,0.017615916383603263,0.01896287085714286,-0.039705913435350765,0.028059780538202975,-0.01597066172723614, ,1.033452033996582
0.011778918807747382,0.021659662275665403,-0.08571523793150564, ,0.01231332377328315,0.02156869355365856,-0.0863162901389486, ,0.0008093996118388687, ,0.007197526403338382,0.0030190779302938634,-0.01794200210297202,-0.007259611005315556,-0.036158990388330606,0.04225639028369548, ,0.019566161027114976, ,0.03688051895690023, ,7.529463960414782e-05, ,0.15218417401946818,-0.24474885024992316,0.09578157181000001,1.6087412464132707,0.14920705774386098,-1.314913065549966, ,0.053735527496302816,0.017615916383603263,0.01896287085714286,-0.039705913435350765,0.028059780538202975,-0.01597066172723614, ,1.0401649475097656
0.01185036463208507,0.021690041883616,-0.08589916698767813, ,0.012400078541045377,0.021575979259428748,-0.08650260246198191, ,0.0008242147994237459, ,0.007761236368030447,0.0028772891440107945,-0.019126452729564154,0.01818070941400071,-0.007322102108022079,0.0436226809916115, ,0.020840747990293746, ,0.019599714652930703, ,0.0004231691567956991, ,0.1527479335192866,-0.24455578192806754,0.09597601531000001,1.6087412464132707,0.14989024024268818,-1.315470155068448, ,0.061581402698553396,0.022697187648522073,0.020188607756653994,-0.03279110958694778,0.06416385894577961,-0.04541111678843108, ,1.0455081462860107
0.01185036463208507,0.021690041883616,-0.08589916698767813, ,0.012487846988386044,0.02158153675814252,-0.08668890589272986, ,0.0010207079185552328, ,0.007761236368030447,0.0028772891440107945,-0.019126452729564154,0.01818070941400071,-0.007322102108022079,0.0436226809916115, ,0.020840747990293746, ,0.019599714652930703, ,0.00043889386105252896, ,0.1527479335192866,-0.24455578192806754,0.09597601531000001,1.6087412464132707,0.14989024024268818,-1.315470155068448, ,0.061581402698553396,0.022697187648522073,0.020188607756653994,-0.03279110958694778,0.06416385894577961,-0.04541111678843108, ,1.0508301258087158
0.011938964490385917,0.021722137797572243,-0.08611801950106532, ,0.012576609982476783,0.021585403860826673,-0.08687519644962599, ,0.0009993021937699303, ,0.009422396149444087,0.003528037653552704,-0.023451190604420503,0.02285794414467741,-0.0035098217337800265,0.0016316036900207948, ,0.02551836475260131, ,0.023125686286325924, ,0.0004532633054811803, ,0.15344297947796678,-0.24428548627746968,0.09620675493000001,1.6085315564697864,0.15057342274151536,-1.31602724458693, ,0.07299764735266984,0.02840375383372367,0.02473417937888199,0.011246666145587813,0.06885518867954667,-0.0492365816194412, ,1.0561399459838867
0.011938964490385917,0.021722137797572243,-0.08611801950106532, ,0.01266634855792137,0.021587618083187383,-0.08706147014745383, ,0.0011988670724619565, ,0.009422396149444087,0.003528037653552704,-0.023451190604420503,0.02285794414467741,-0.0035098217337800265,0.0016316036900207948, ,0.02551836475260131, ,0.023125686286325924, ,0.00047190339965569967, ,0.15344297947796678,-0.24428548627746968,0.09620675493000001,1.6085315564697864,0.15057342274151536,-1.31602724458693, ,0.07299764735266984,0.02840375383372367,0.02473417937888199,0.011246666145587813,0.06885518867954667,-0.0492365816194412, ,1.061424970626831
0.012037809631394704,0.021762293730669447,-0.08638156919632019, ,0.012757043916174986,0.021588216646521476,-0.08724772299748539, ,0.0011392204329723837, ,0.010770877185760582,0.004790025614595019,-0.029519927565863528,0.0542912346211443,0.028737635483354416,0.013263168702381938, ,0.03178651072755617, ,0.06142774155800217, ,0.00048817942485854563, ,0.15419980729964078,-0.24397657696250072,0.09648416099000001,1.6085315564697864,0.15152987823987346,-1.316807169912805, ,0.08152658209490615,0.031391644577727675,0.031110960000000003,0.009346633609346077,0.11135826280983127,-0.0838949886218115, ,1.066723108291626
0.012158037957039491,0.021812031646259538,-0.08670826312810546, ,0.012848677424961069,0.021587236478623963,-0.08743395100761846, ,0.001026712540351666, ,0.010770877185760582,0.004790025614595019,-0.029519927565863528,0.0542912346211443,0.028737635483354416,0.013263168702381938, ,0.03178651072755617, ,0.06142774155800217, ,0.0005010016418940961, ,0.15509564431305084,-0.2435904403187895,0.09682767784000001,1.6089509363567556,0.15262297023799698,-1.3176985131423764, ,0.08877169462906527,0.042440492646901064,0.03611975401360545,0.019121697549980513,0.10737739142358785,-0.08093510816823214, ,1.0719950199127197
0.012158037957039491,0.021812031646259538,-0.08670826312810546, ,0.012941230617689526,0.021584714214697622,-0.08762015018251537, ,0.0012233568401690343, ,0.012278109773664213,0.005021901609305585,-0.0344593550395464,0.041919475118895835,0.01997818548731036,0.001134749052716797, ,0.03692449898277845, ,0.04643621109500048, ,0.0005178005999935132, ,0.15509564431305084,-0.2435904403187895,0.09682767784000001,1.6089509363567556,0.15262297023799698,-1.3176985131423764, ,0.08877169462906527,0.042440492646901064,0.03611975401360545,0.019121697549980513,0.10737739142358785,-0.08093510816823214, ,1.0778350830078125
0.012279551122920555,0.02186150061039026,-0.08705229137492274, ,0.013034685192875806,0.021580686198263286,-0.08780631652374042, ,0.001103466412137195, ,0.013129832395736419,0.005433344341329085,-0.03726887548644084,0.04016933929277711,0.018263406914230944,-0.013823000944954415, ,0.03988587230455683, ,0.04412545694845668, ,0.0005311111866331423, ,0.1559683131278382,-0.24315796727783293,0.09718804646000001,1.6093703162437245,0.1537160622361205,-1.3185898563719478, ,0.09249214576849003,0.04564547453509898,0.03904120470588236,0.03371253934077524,0.10583848674562756,-0.08010165119030614, ,1.083169937133789
0.012279551122920555,0.02186150061039026,-0.08705229137492274, ,0.013129023013557301,0.02157518848206779,-0.08799244602989859, ,0.0012990257515073634, ,0.013129832395736419,0.005433344341329085,-0.03726887548644084,0.04016933929277711,0.018263406914230944,-0.013823000944954415, ,0.03988587230455683, ,0.04412545694845668, ,0.0005481759547414583, ,0.1559683131278382,-0.24315796727783293,0.09718804646000001,1.6093703162437245,0.1537160622361205,-1.3185898563719478, ,0.09249214576849003,0.04564547453509898,0.03904120470588236,0.03371253934077524,0.10583848674562756,-0.08010165119030614, ,1.0884089469909668
0.012426005893766521,0.02191351794116445,-0.08745409832237235, ,0.013224226106712325,0.021568256828993666,-0.08817853469677289, ,0.001131887275521401, ,0.015051195648581478,0.004847314941997827,-0.04047257426343014,0.02538872850718431,0.0028580955286121095,-0.016398724792556114, ,0.04345186095103018, ,0.025546969520553395, ,0.0005608653312801527, ,0.1570108820658585,-0.24260193051088874,0.09760804442000001,1.6093703162437245,0.15480915423424405,-1.319481199601519, ,0.10734948140098505,0.06055963086054293,0.04225148944297083,0.03371253934077524,0.1052630388689195,-0.08002819383288219, ,1.0936391353607178
0.012426005893766521,0.02191351794116445,-0.08745409832237235, ,0.01332027666267787,0.021559926712968566,-0.08836457851746303, ,0.0013242813713251196, ,0.015051195648581478,0.004847314941997827,-0.04047257426343014,0.02538872850718431,0.0028580955286121095,-0.016398724792556114, ,0.04345186095103018, ,0.025546969520553395, ,0.0005771082257491946, ,0.1570108820658585,-0.24260193051088874,0.09760804442000001,1.6093703162437245,0.15480915423424405,-1.319481199601519, ,0.10734948140098505,0.06055963086054293,0.04225148944297083,0.03371253934077524,0.1052630388689195,-0.08002819383288219, ,1.0988781452178955
0.012584873953675534,0.021960266296699192,-0.08786979041403074, ,0.013417157034567744,0.021550233319874434,-0.08855057348252314, ,0.0011507770223501699, ,0.015556566380838487,0.004263927619068049,-0.039982367725031845,0.07518506832320009,0.0537966303137973,0.00017088846189389196, ,0.04311354271225868, ,0.09244874124279828, ,0.000589059659011715, ,0.15818473746274064,-0.2419532209494539,0.09804230157,1.6093703162437245,0.15617551923189843,-1.3205136998983429, ,0.11936722208612675,0.06531104030176929,0.04180790425196851,0.03186770084198682,0.17058237068515036,-0.13474474404194287, ,1.1040799617767334
0.012584873953675534,0.021960266296699192,-0.08786979041403074, ,0.01351484973769024,0.02153921154845628,-0.08873651558010016, ,0.0013391618921436397, ,0.015556566380838487,0.004263927619068049,-0.039982367725031845,0.07518506832320009,0.0537966303137973,0.00017088846189389196, ,0.04311354271225868, ,0.09244874124279828, ,0.0006043678678511419, ,0.15818473746274064,-0.2419532209494539,0.09804230157,1.6093703162437245,0.15617551923189843,-1.3205136998983429, ,0.11936722208612675,0.06531104030176929,0.04180790425196851,0.03186770084198682,0.17058237068515036,-0.13474474404194287, ,1.1095480918884277
0.012736118866847689,0.021991378978226676,-0.08823311272396578, ,0.013613337448965868,0.021526896011231696,-0.08892240079607128, ,0.0012084597278307632, ,0.01663589148809258,0.00240108493740808,-0.03662196353618302,0.05843592117642232,0.029846330160918044,0.0025188201221046204, ,0.040294991099710624, ,0.06561626654045016, ,0.0006164497050507343, ,0.1593972065239939,-0.24128134318939637,0.09842211454000001,1.6093703162437245,0.15795179372884915,-1.3219621326463962, ,0.13556705936924396,0.07610019371168467,0.03829041230769231,0.025736061415534403,0.16405642273484428,-0.1295765039366448, ,1.1151819229125977
0.012736118866847689,0.021991378978226676,-0.08823311272396578, ,0.013712603006345298,0.021513321035399456,-0.08910822511418286, ,0.0013956655641313314, ,0.01663589148809258,0.00240108493740808,-0.03662196353618302,0.05843592117642232,0.029846330160918044,0.0025188201221046204, ,0.040294991099710624, ,0.06561626654045016, ,0.000631728447385648, ,0.1593972065239939,-0.24128134318939637,0.09842211454000001,1.6093703162437245,0.15795179372884915,-1.3219621326463962, ,0.13556705936924396,0.07610019371168467,0.03829041230769231,0.025736061415534403,0.16405642273484428,-0.1295765039366448, ,1.1204640865325928
0.012940922476120168,0.022009802140473298,-0.08865383493617225, ,0.01381262940822871,0.02149852066375005,-0.08929398451618725, ,0.0011962747212575257, ,0.01768581428801868,0.0006591446183426724,-0.03431752994194828,0.021313668452287618,-0.013141049581584928,0.00507708512002221, ,0.038612373146113314, ,0.025038211796014193, ,0.0006425851064985686, ,0.1610730395577006,-0.24030827884724407,0.09886155685,1.6097896961306934,0.15959143172603446,-1.3231357900104723, ,0.14689929033819007,0.08794897271406003,0.03579508206741574,0.01344573194068209,0.1344750740169103,-0.10598500495813014, ,1.1257410049438477
0.012940922476120168,0.022009802140473298,-0.08865383493617225, ,0.013913399812881271,0.021482528655573086,-0.08947967498198237, ,0.0013804858853521222, ,0.01768581428801868,0.0006591446183426724,-0.03431752994194828,0.021313668452287618,-0.013141049581584928,0.00507708512002221, ,0.038612373146113314, ,0.025038211796014193, ,0.0006565077627033526, ,0.1610730395577006,-0.24030827884724407,0.09886155685,1.6097896961306934,0.15959143172603446,-1.3231357900104723, ,0.14689929033819007,0.08794897271406003,0.03579508206741574,0.01344573194068209,0.1344750740169103,-0.10598500495813014, ,1.1310410499572754
0.013116677150490664,0.022009109446326044,-0.08898360597424773, ,0.014014897537852527,0.021465378487567483,-0.08966529248974858, ,0.0012518545143908263, ,0.01774896268837709,-0.001078249945404392,-0.030976187679187053,0.0402778054427966,0.017715732429166776,-0.03368738023945844, ,0.035717117781175825, ,0.044001366654067744, ,0.000667532702549417, ,0.16256352700242593,-0.23938155090233712,0.09920507370000001,1.6104187659611469,0.1610944332234543,-1.3241980294708515, ,0.15531414330355284,0.09793286022546002,0.03224455773279353,0.059206145240728036,0.16378115682509237,-0.1274888954139367, ,1.1362810134887695
0.013116677150490664,0.022009109446326044,-0.08898360597424773, ,0.014117106059394757,0.021447103354750578,-0.08985083301608746, ,0.0014383294444726652, ,0.01774896268837709,-0.001078249945404392,-0.030976187679187053,0.0402778054427966,0.017715732429166776,-0.03368738023945844, ,0.035717117781175825, ,0.044001366654067744, ,0.0006815471887662032, ,0.16256352700242593,-0.23938155090233712,0.09920507370000001,1.6104187659611469,0.1610944332234543,-1.3241980294708515, ,0.15531414330355284,0.09793286022546002,0.03224455773279353,0.059206145240728036,0.16378115682509237,-0.1274888954139367, ,1.1416831016540527
0.013251882837523574,0.02199562681203175,-0.08921340906708258, ,0.014220009011878847,0.021427736171366323,-0.09003629253615911, ,0.001391727442032592, ,0.01809185641398669,-0.002142366126451049,-0.030623901994356738,0.031019199712548264,0.017337879648621535,-0.03356277983896251, ,0.03563324816072824, ,0.03553541736643789, ,0.000694228979003103, ,0.16375282786505652,-0.23860155488204046,0.09944359106000002,1.6106284559046316,0.16232416172134326,-1.3250374331238384, ,0.15922305630615904,0.10783743358917133,0.03173070023904383,0.05812088624981661,0.1677033167512145,-0.1280756645894971, ,1.1472749710083008
0.013251882837523574,0.02199562681203175,-0.08921340906708258, ,0.014323590187214536,0.021407309571795635,-0.09022166702382148, ,0.0015846948999312005, ,0.01809185641398669,-0.002142366126451049,-0.030623901994356738,0.031019199712548264,0.017337879648621535,-0.03356277983896251, ,0.03563324816072824, ,0.03553541736643789, ,0.0007098511881421925, ,0.16375282786505652,-0.23860155488204046,0.09944359106000002,1.6106284559046316,0.16232416172134326,-1.3250374331238384, ,0.15922305630615904,0.10783743358917133,0.03173070023904383,0.05812088624981661,0.1677033167512145,-0.1280756645894971, ,1.1527700424194336
0.01334271014043491,0.021984774087712107,-0.0893673144728506, ,0.014427833534266916,0.021385855911464854,-0.09040695245176689, ,0.0016177276930577596, ,0.01832838083199375,-0.002483695061884559,-0.030919526351335918,0.015122799922666734,-0.004572951768790001,0.05244628600391308, ,0.036029368505067945, ,0.015798186791557603, ,0.0007255042313303919, ,0.16454826935110162,-0.23806096358084475,0.09960303473000001,1.610838145848116,0.1631439807199359,-1.3257059405460168, ,0.16084227382791658,0.11047373871766097,0.031985565301204825,-0.0319786709428553,0.1687111420897692,-0.12904532050102807, ,1.1580641269683838
0.01334271014043491,0.021984774087712107,-0.0893673144728506, ,0.014532723158273942,0.021363407267754313,-0.09059214479166139, ,0.001817260855642077, ,0.01832838083199375,-0.002483695061884559,-0.030919526351335918,0.015122799922666734,-0.004572951768790001,0.05244628600391308, ,0.036029368505067945, ,0.015798186791557603, ,0.0007440085808949967, ,0.16454826935110162,-0.23806096358084475,0.09960303473000001,1.610838145848116,0.1631439807199359,-1.3257059405460168, ,0.16084227382791658,0.11047373871766097,0.031985565301204825,-0.0319786709428553,0.1687111420897692,-0.12904532050102807, ,1.1634531021118164
0.013661747080023013,0.021922245492225507,-0.08984785229443706, ,0.0146382433202657,0.021339995440908636,-0.09077724001428221, ,0.0014684418828355315, ,0.01994303982337396,-0.005247665071910681,-0.026898005324754684,-0.047891775837779385,-0.0657345169116282,0.02466693137662664, ,0.03389344356293946, ,0.08133040530192333, ,0.0007560824692606724, ,0.1673747895830678,-0.23608394396504326,0.10009951380000001,1.610838145848116,0.1654668012159484,-1.3273550086884343, ,0.17905083312919012,0.1287611147333389,0.02770228090434783,-0.018404034271506692,0.1210623980250822,-0.08198640562572793, ,1.1695480346679688
0.01385875168562158,0.021874095064014283,-0.0901363378746929, ,0.014744378436481416,0.021315651954944954,-0.09096223408965626, ,0.0013335284045705108, ,0.02043995218038491,-0.004616508279980808,-0.0317674657642115,0.004012664480717567,-0.02017816473007126,0.030165833756292792, ,0.038056217296466854, ,0.02057249268406034, ,0.0007655487960690304, ,0.1691124044797683,-0.23479424757504777,0.10039636421,1.610838145848116,0.16683316621360278,-1.3283058302451174, ,0.17871363758657396,0.1338461799132169,0.03270803186858317,-0.014335829983388882,0.1665367999086435,-0.13824076660237034, ,1.1748530864715576
0.01385875168562158,0.021874095064014283,-0.0901363378746929, ,0.014851113077786656,0.021290408058561836,-0.09114712298719742, ,0.0015320437972377386, ,0.02043995218038491,-0.004616508279980808,-0.0317674657642115,0.004012664480717567,-0.02017816473007126,0.030165833756292792, ,0.038056217296466854, ,0.02057249268406034, ,0.0007779116186685256, ,0.1691124044797683,-0.23479424757504777,0.10039636421,1.610838145848116,0.16683316621360278,-1.3283058302451174, ,0.17871363758657396,0.1338461799132169,0.03270803186858317,-0.014335829983388882,0.1665367999086435,-0.13824076660237034, ,1.180176019668579
0.014083864860630508,0.021825873927341508,-0.09049976844092854, ,0.014958431969092948,0.021264294726049168,-0.09133190267584561, ,0.0013314226269105966, ,0.021737979485800592,-0.0042372382578391215,-0.03567363005595409,0.04402891269097058,0.02750054717524329,0.028098974711507158, ,0.04198930603794083, ,0.05191114979600785, ,0.0007866975076882411, ,0.17108170136269557,-0.2333192055960709,0.10077099202,1.6106284559046316,0.16901935020984984,-1.3300885167042602, ,0.18941505301091974,0.13934940023270306,0.036872248888888896,0.0,0.2230029630917429,-0.18136520083849317, ,1.185452938079834
0.014083864860630508,0.021825873927341508,-0.09049976844092854, ,0.015066319988773036,0.02123734265819592,-0.09151656912420457, ,0.0015314929849941433, ,0.021737979485800592,-0.0042372382578391215,-0.03567363005595409,0.04402891269097058,0.02750054717524329,0.028098974711507158, ,0.04198930603794083, ,0.05191114979600785, ,0.0007983349370211458, ,0.17108170136269557,-0.2333192055960709,0.10077099202,1.6106284559046316,0.16901935020984984,-1.3300885167042602, ,0.18941505301091974,0.13934940023270306,0.036872248888888896,0.0,0.2230029630917429,-0.18136520083849317, ,1.1907680034637451
0.014302790086502516,0.0217874830481793,-0.09086799839838423, ,0.015174762168082383,0.021209582283201106,-0.0917011183006798, ,0.0013373082579637649, ,0.0221119238911589,-0.0037090500281053394,-0.03822218530870935,0.017960609221897572,0.018362794605949886,0.009012520531838361, ,0.04431286133903687, ,0.025684511490662115, ,0.0008066268342664169, ,0.17295832545113213,-0.2319368364115847,0.10115210128,1.6110478357916007,0.17120553420609688,-1.3319528819035436, ,0.18534558898138823,0.13934940023270306,0.039525586898263035,0.01518462676291733,0.2058039830042373,-0.15266510587244358, ,1.196155071258545
0.014302790086502516,0.0217874830481793,-0.09086799839838423, ,0.015283743690572647,0.02118104375758043,-0.09188554617361658, ,0.0015379993697659743, ,0.0221119238911589,-0.0037090500281053394,-0.03822218530870935,0.017960609221897572,0.018362794605949886,0.009012520531838361, ,0.04431286133903687, ,0.025684511490662115, ,0.0008177082363194405, ,0.17295832545113213,-0.2319368364115847,0.10115210128,1.6110478357916007,0.17120553420609688,-1.3319528819035436, ,0.18534558898138823,0.13934940023270306,0.039525586898263035,0.01518462676291733,0.2058039830042373,-0.15266510587244358, ,1.2020540237426758
0.014484614487391495,0.02175494833996338,-0.09118325799073794, ,0.015393249891513486,0.02115175696707759,-0.09206984871143847, ,0.0014055252527009504, ,0.023000039526221688,-0.004246644122358197,-0.03908809837254774,-0.034736658726081455,-0.039292419264616386,-0.009507585730493059, ,0.04555123751218718, ,0.052444622443615335, ,0.0008264816246236421, ,0.17445653562873167,-0.2307707037475768,0.10147747007,1.6112575257350852,0.1727085357035167,-1.3330968001040635, ,0.1860724344283741,0.1462202489344696,0.04032610511392406,0.018585653715281567,0.1464740503299019,-0.10609961732973162, ,1.2074799537658691
0.014484614487391495,0.02175494833996338,-0.09118325799073794, ,0.01550326625730786,0.021121751527571862,-0.0922540218827853, ,0.0016078323743751782, ,0.023000039526221688,-0.004246644122358197,-0.03908809837254774,-0.034736658726081455,-0.039292419264616386,-0.009507585730493059, ,0.04555123751218718, ,0.052444622443615335, ,0.0008379720768258705, ,0.17445653562873167,-0.2307707037475768,0.10147747007,1.6112575257350852,0.1727085357035167,-1.3330968001040635, ,0.1860724344283741,0.1462202489344696,0.04032610511392406,0.018585653715281567,0.1464740503299019,-0.10609961732973162, ,1.2128889560699463
0.01475567384038922,0.02169613582902749,-0.09162145936926323, ,0.015613778424910983,0.021091056785987612,-0.09243806165665128, ,0.0013301516537864045, ,0.022438599719081853,-0.006348342240322903,-0.03380717836114932,-0.1163158720545719,-0.12780476762035614,0.03578149711430516, ,0.04106966660804554, ,0.1728102906563339, ,0.0008451051141731246, ,0.17661890083351453,-0.22901764338512784,0.10192857899,1.6116769056220543,0.17380162770164026,-1.3337431071132133, ,0.1804124364229482,0.15232253861712805,0.03462785113043479,-0.04954398049426869,0.06561981499740084,-0.04209012626294295, ,1.2181730270385742
0.01475567384038922,0.02169613582902749,-0.09162145936926323, ,0.015724772181247456,0.02105970182120308,-0.09262196400252283, ,0.0015314076406181163, ,0.022438599719081853,-0.006348342240322903,-0.03380717836114932,-0.1163158720545719,-0.12780476762035614,0.03578149711430516, ,0.04106966660804554, ,0.1728102906563339, ,0.0008549094359794817, ,0.17661890083351453,-0.22901764338512784,0.10192857899,1.6116769056220543,0.17380162770164026,-1.3337431071132133, ,0.1804124364229482,0.15232253861712805,0.03462785113043479,-0.04954398049426869,0.06561981499740084,-0.04209012626294295, ,1.2233779430389404
0.014987810286745222,0.021629364065598015,-0.09198699002437014, ,0.01583623346262993,0.021027715444959804,-0.09280572489051751, ,0.001323680372725802, ,0.02223594319209962,-0.006026613835939717,-0.036366289478286976,0.025399892061820716,0.010797648958218527,0.053465138188688845, ,0.043049555797805714, ,0.027598553118508732, ,0.000861511843539289, ,0.178526415853448,-0.22738814674866648,0.1023032068,1.6116769056220543,0.1753046291990601,-1.3348870253137335, ,0.18570830050581366,0.1545552794111902,0.03739157633802818,-0.03455799227889739,0.20984917900872213,-0.18343177011965606, ,1.228628158569336
0.014987810286745222,0.021629364065598015,-0.09198699002437014, ,0.015948148354176413,0.020995126202771375,-0.09298934029152098, ,0.00152617591661569, ,0.02223594319209962,-0.006026613835939717,-0.036366289478286976,0.025399892061820716,0.010797648958218527,0.053465138188688845, ,0.043049555797805714, ,0.027598553118508732, ,0.0008707432889986834, ,0.178526415853448,-0.22738814674866648,0.1023032068,1.6116769056220543,0.1753046291990601,-1.3348870253137335, ,0.18570830050581366,0.1545552794111902,0.03739157633802818,-0.03455799227889739,0.20984917900872213,-0.18343177011965606, ,1.2339091300964355
0.01520855749828185,0.02156781162986231,-0.09235227428125092, ,0.016060503089227553,0.020961962374832135,-0.09317280617732639, ,0.001328960948346352, ,0.021638369915917187,-0.006369059519011275,-0.03507379262582504,0.08056964741674555,0.07854034955603129,0.028213232798445377, ,0.04170077818139797, ,0.11251667216618325, ,0.0008770202432363226, ,0.18040303994188456,-0.2258281547080731,0.10267913090000001,1.6114672156785694,0.17790072269460347,-1.3370039654839654, ,0.1860724344283741,0.1545552794111902,0.03611975401360545,0.005282850155352952,0.270368648811229,-0.23173233964826476, ,1.2395551204681396
0.015419753151212074,0.021500088676133323,-0.09267190417063341, ,0.016173284048766633,0.02092825197692717,-0.09335611852077198, ,0.0011674567662504332, ,0.020605092197373692,-0.006683668319245992,-0.029109497016543143,-0.02050186643983601,-0.04141688602532424,-0.0011628697769471242, ,0.03628503911008085, ,0.04621324565794498, ,0.0008809450611148917, ,0.18222560490020154,-0.22432222179759934,0.10300838856000001,1.6114672156785694,0.18022354319061595,-1.338816391106664, ,0.17222675418960212,0.1422742752001061,0.02999776180790961,0.005348593957874017,0.13295494935425317,-0.11851101561207479, ,1.2453069686889648
0.015419753151212074,0.021500088676133323,-0.09267190417063341, ,0.01628647776083428,0.02089402276133988,-0.09353927329587891, ,0.001367792616381711, ,0.020605092197373692,-0.006683668319245992,-0.029109497016543143,-0.02050186643983601,-0.04141688602532424,-0.0011628697769471242, ,0.03628503911008085, ,0.04621324565794498, ,0.0008874363618517827, ,0.18222560490020154,-0.22432222179759934,0.10300838856000001,1.6114672156785694,0.18022354319061595,-1.338816391106664, ,0.17222675418960212,0.1422742752001061,0.02999776180790961,0.005348593957874017,0.13295494935425317,-0.11851101561207479, ,1.2506060600280762
0.015639212028354273,0.021425016062005593,-0.09297788576131266, ,0.016400070899948934,0.020859302217762353,-0.09372226647798992, ,0.0012054215144146547, ,0.02264833367338116,-0.008209750279398503,-0.031726713549426785,-0.1495096088885524,-0.16318990605309328,-0.031959577753837155, ,0.03983630718927491, ,0.22132337527187804, ,0.0008916203770170837, ,0.1839786652626505,-0.22278539795562866,0.10332209074000001,1.6114672156785694,0.1807700891896777,-1.3390987052411685, ,0.17573507696013105,0.1630531641898123,0.032375633170731714,0.0049572815581325905,0.011742458188184207,-0.009912081132606396, ,1.2558929920196533
0.015639212028354273,0.021425016062005593,-0.09297788576131266, ,0.016514050286523523,0.02082411757420349,-0.09390509404390739, ,0.001409303434293594, ,0.02264833367338116,-0.008209750279398503,-0.031726713549426785,-0.1495096088885524,-0.16318990605309328,-0.031959577753837155, ,0.03983630718927491, ,0.22132337527187804, ,0.0008983435336050901, ,0.1839786652626505,-0.22278539795562866,0.10332209074000001,1.6114672156785694,0.1807700891896777,-1.3390987052411685, ,0.17573507696013105,0.1630531641898123,0.032375633170731714,0.0049572815581325905,0.011742458188184207,-0.009912081132606396, ,1.2611820697784424
0.0158529654741815,0.021349537021467364,-0.09331568148715914, ,0.01662840288628245,0.02078849579789787,-0.09408775197203145, ,0.0012297004790765666, ,0.02083621381246789,-0.007052134970492866,-0.03483452031358975,0.011507109983603785,0.014403116999226013,0.012085383710154796, ,0.041198594868743076, ,0.01843399217539736, ,0.0009025916995726732, ,0.18566222102923144,-0.22117906951778996,0.10366690388000001,1.6116769056220543,0.18199981768756668,-1.3400197876342959, ,0.1659037439833405,0.1571141416530973,0.03563492510067114,0.0,0.18487983957389237,-0.16597615318640568, ,1.2664029598236084
0.0158529654741815,0.021349537021467364,-0.09331568148715914, ,0.016743115809682053,0.020752463596215888,-0.094270236242498, ,0.0014352836221016752, ,0.02083621381246789,-0.007052134970492866,-0.03483452031358975,0.011507109983603785,0.014403116999226013,0.012085383710154796, ,0.041198594868743076, ,0.01843399217539736, ,0.0009093346353008884, ,0.18566222102923144,-0.22117906951778996,0.10366690388000001,1.6116769056220543,0.18199981768756668,-1.3400197876342959, ,0.1659037439833405,0.1571141416530973,0.03563492510067114,0.0,0.18487983957389237,-0.16597615318640568, ,1.2716810703277588
0.0160470667553807,0.021287431816891626,-0.09364277799465204, ,0.016858176311325343,0.02071604741757129,-0.09445254283731686, ,0.001280663087602415, ,0.02100120765541349,-0.0067655620209532575,-0.034117799279890705,0.02042491261441493,0.015650792021590098,0.0006478470035947439, ,0.04063062613531908, ,0.025730878691087214, ,0.0009139762409546574, ,0.18721449033695056,-0.2197426412031842,0.10400264299,1.6120962855090233,0.18391272868428285,-1.3417429957663267, ,0.16707208020857534,0.15159255840011304,0.03531887254988914,0.012400817374952534,0.18907872954681612,-0.17060115351431138, ,1.2778220176696777
0.0160470667553807,0.021287431816891626,-0.09364277799465204, ,0.016973571789382042,0.020679273452331105,-0.09463466774051088, ,0.0014873175324572336, ,0.02100120765541349,-0.0067655620209532575,-0.034117799279890705,0.02042491261441493,0.015650792021590098,0.0006478470035947439, ,0.04063062613531908, ,0.025730878691087214, ,0.000921054528504072, ,0.18721449033695056,-0.2197426412031842,0.10400264299,1.6120962855090233,0.18391272868428285,-1.3417429957663267, ,0.16707208020857534,0.15159255840011304,0.03531887254988914,0.012400817374952534,0.18907872954681612,-0.17060115351431138, ,1.2832951545715332
0.01627357777453728,0.021216062873171015,-0.0940043057254189, ,0.017089289785005412,0.020642167633724225,-0.09481660693825242, ,0.0012863028765623021, ,0.02157622363995437,-0.006495415058928067,-0.03451242737996788,-0.027831622186041842,-0.0520357453100711,-0.015160233457513602, ,0.04121688351885222, ,0.059010753421804625, ,0.0009255087766511235, ,0.18898299616514797,-0.21814403549821973,0.10437467822000002,1.6120962855090233,0.18541573018170268,-1.3431319501872685, ,0.16475163465012285,0.14897479051565274,0.03555538285714287,0.012400817374952534,0.1127661101295687,-0.1162241856600436, ,1.288619041442871
0.01627357777453728,0.021216062873171015,-0.0940043057254189, ,0.017205317981750293,0.02060475563875059,-0.09499835641900317, ,0.0014933094555407691, ,0.02157622363995437,-0.006495415058928067,-0.03451242737996788,-0.027831622186041842,-0.0520357453100711,-0.015160233457513602, ,0.04121688351885222, ,0.059010753421804625, ,0.0009323497486859385, ,0.18898299616514797,-0.21814403549821973,0.10437467822000002,1.6120962855090233,0.18541573018170268,-1.3431319501872685, ,0.16475163465012285,0.14897479051565274,0.03555538285714287,0.012400817374952534,0.1127661101295687,-0.1162241856600436, ,1.2938849925994873
0.016488457725952293,0.021152906857158666,-0.09435825817930456, ,0.01732164420499124,0.020567062889089972,-0.09517991217365128, ,0.001308635988425243, ,0.022260049521679516,-0.006762516624114971,-0.037096655749334705,-0.06444796972997155,-0.07463063246708228,-0.021183684823423473, ,0.0437881639668039, ,0.09860629721426678, ,0.0009368293467780732, ,0.19058160187011244,-0.21666127078636863,0.10473893571000001,1.6120962855090233,0.18637218568006078,-1.343993554253284, ,0.1630531641898123,0.15633763024459765,0.038107204593301434,0.01128161316776167,0.08811264138572582,-0.08698482346746028, ,1.2991349697113037
0.016488457725952293,0.021152906857158666,-0.09435825817930456, ,0.017438256421339855,0.02052911455201107,-0.09536127019564992, ,0.0015156739447039606, ,0.022260049521679516,-0.006762516624114971,-0.037096655749334705,-0.06444796972997155,-0.07463063246708228,-0.021183684823423473, ,0.0437881639668039, ,0.09860629721426678, ,0.0009436392832242601, ,0.19058160187011244,-0.21666127078636863,0.10473893571000001,1.6120962855090233,0.18637218568006078,-1.343993554253284, ,0.1630531641898123,0.15633763024459765,0.038107204593301434,0.01128161316776167,0.08811264138572582,-0.08698482346746028, ,1.3044469356536865
0.016724070078008028,0.021080334662039634,-0.09474837391985229, ,0.017555142738063155,0.02049093554128047,-0.0955424264811559, ,0.001291740128646477, ,0.02136029017398737,-0.006601089859200196,-0.03523621721920153,0.0011509373866608753,-0.0018085878251302239,-0.002519721125743296, ,0.0417304132206348, ,0.002131039291344387, ,0.0009476869674733557, ,0.1923578304311841,-0.21500860595128457,0.10514078561000001,1.6120962855090233,0.1878751871774806,-1.3453008299340854, ,0.1630531641898123,0.14944400245428469,0.0363671495890411,0.009756153167057094,0.16302027633203212,-0.14605349055222627, ,1.3098220825195312
0.016928858387829142,0.0210101909089452,-0.09508066698554417, ,0.017672291402500234,0.0204525505180713,-0.0957233770291668, ,0.0011299255077262195, ,0.02026708503582054,-0.007615008434819207,-0.03228632315655336,-0.004798299861132734,0.012034410329780011,-0.0005578858941772241, ,0.03887350964707126, ,0.012954367250003079, ,0.0009497816633383312, ,0.19393326793752588,-0.21352584123943347,0.10548300617,1.6120962855090233,0.18951482517466592,-1.3468012022587232, ,0.157374695785192,0.15183510649355325,0.033185024,0.008666500704148178,0.17157054047800246,-0.1426080190285704, ,1.3158860206604004
0.016928858387829142,0.0210101909089452,-0.09508066698554417, ,0.01778969080148186,0.020413983891872687,-0.09590411784166003, ,0.0013321285838985716, ,0.02026708503582054,-0.007615008434819207,-0.03228632315655336,-0.004798299861132734,0.012034410329780011,-0.0005578858941772241, ,0.03887350964707126, ,0.012954367250003079, ,0.0009541265147083339, ,0.19393326793752588,-0.21352584123943347,0.10548300617,1.6120962855090233,0.18951482517466592,-1.3468012022587232, ,0.157374695785192,0.15183510649355325,0.033185024,0.008666500704148178,0.17157054047800246,-0.1426080190285704, ,1.3212499618530273
0.017139898563072766,0.02093275150049157,-0.0954116271393395, ,0.01790732946074735,0.020375259821398636,-0.0960846449237311, ,0.0011630563585101378, ,0.021053798628142443,-0.0072273262297236525,-0.033018184730013556,-0.014124129947513565,-0.018855943115999158,-0.005758323676238871, ,0.03982081370301873, ,0.023558403898139534, ,0.0009564740410431856, ,0.19556276457398725,-0.21198129466458857,0.10582393044,1.6120962855090233,0.1911544631718512,-1.348383253323502, ,0.16002856923856792,0.14874128770920184,0.03410880411134904,0.007775852251827275,0.14280737055255838,-0.13035454012930064, ,1.3265669345855713
0.017139898563072766,0.02093275150049157,-0.0954116271393395, ,0.018025196044363253,0.020336402215496818,-0.09626495428373114, ,0.0013665838120834818, ,0.021053798628142443,-0.0072273262297236525,-0.033018184730013556,-0.014124129947513565,-0.018855943115999158,-0.005758323676238871, ,0.03982081370301873, ,0.023558403898139534, ,0.0009610308162769668, ,0.19556276457398725,-0.21198129466458857,0.10582393044,1.6120962855090233,0.1911544631718512,-1.348383253323502, ,0.16002856923856792,0.14874128770920184,0.03410880411134904,0.007775852251827275,0.14280737055255838,-0.13035454012930064, ,1.331869125366211
0.017341879090296476,0.02086634512915695,-0.0957314470961593, ,0.018143279354137273,0.020297434734056916,-0.09644504193340538, ,0.0012145447757416071, ,0.0212137742556417,-0.006771769719576233,-0.03307474361336501,-0.03127773490819168,-0.06088932507375535,-0.014402018943163944, ,0.03987254379136256, ,0.06845266268246436, ,0.0009638166839633914, ,0.19706097475158682,-0.21058348001435392,0.10615448439000001,1.6120962855090233,0.19224755516997472,-1.3494379540333545, ,0.15608049598432694,0.14334885431793168,0.034255508645161296,0.007090399545577265,0.09587393679889768,-0.10797777157110636, ,1.3371570110321045
0.017341879090296476,0.02086634512915695,-0.0957314470961593, ,0.018261568329042608,0.020258380788920973,-0.09662490388803197, ,0.0014190539009521106, ,0.0212137742556417,-0.006771769719576233,-0.03307474361336501,-0.03127773490819168,-0.06088932507375535,-0.014402018943163944, ,0.03987254379136256, ,0.06845266268246436, ,0.0009687649145828339, ,0.19706097475158682,-0.21058348001435392,0.10615448439000001,1.6120962855090233,0.19224755516997472,-1.3494379540333545, ,0.15608049598432694,0.14334885431793168,0.034255508645161296,0.007090399545577265,0.09587393679889768,-0.10797777157110636, ,1.3424389362335205
0.01756080439907827,0.020797198302452566,-0.09607505906388022, ,0.01838005204463223,0.020219263544791647,-0.09680453616655921, ,0.0012398839188372491, ,0.02164807615070952,-0.0069547916363936315,-0.034355385953215654,-0.01990832515388271,-0.02917356521853743,-0.0005856259370253182, ,0.0411983115154854, ,0.03531841527916484, ,0.0009716801726930965, ,0.19868274865517396,-0.20910843803537704,0.10651096414000001,1.6123059754525078,0.19347728366786368,-1.3508491088673251, ,0.15975916087284645,0.14689929033819007,0.03508548792951543,0.0,0.13387428065764742,-0.12413291518230037, ,1.3477110862731934
0.01756080439907827,0.020797198302452566,-0.09607505906388022, ,0.01849871971245434,0.0201801059201404,-0.0969839347917444, ,0.0014444871865384153, ,0.02164807615070952,-0.0069547916363936315,-0.034355385953215654,-0.01990832515388271,-0.02917356521853743,-0.0005856259370253182, ,0.0411983115154854, ,0.03531841527916484, ,0.0009767100345425149, ,0.19868274865517396,-0.20910843803537704,0.10651096414000001,1.6123059754525078,0.19347728366786368,-1.3508491088673251, ,0.15975916087284645,0.14689929033819007,0.03508548792951543,0.0,0.13387428065764742,-0.12413291518230037, ,1.3530769348144531
0.01777368435994068,0.02072635743520669,-0.0964178650991886, ,0.018617560679475363,0.02014093058811775,-0.09716309579029175, ,0.0012689446871026317, ,0.02087865537067396,-0.006819006270753253,-0.03413752078322674,0.013398008686115084,0.00035290844857028213,0.004630244690876272, ,0.04059294793228477, ,0.013400926063863484, ,0.0009797861887799898, ,0.20025818616151575,-0.20763339605640016,0.10686614760000002,1.6123059754525078,0.1949802851652835,-1.3523197420284077, ,0.15380379507045505,0.14400142876854444,0.03539735893333334,0.0,0.15766010542116907,-0.15456958852894653, ,1.3587660789489746
0.01777368435994068,0.02072635743520669,-0.0964178650991886, ,0.018736564427493923,0.02010175997746147,-0.0973420151929905, ,0.0014735377173955237, ,0.02087865537067396,-0.006819006270753253,-0.03413752078322674,0.013398008686115084,0.00035290844857028213,0.004630244690876272, ,0.04059294793228477, ,0.013400926063863484, ,0.000984929433869735, ,0.20025818616151575,-0.20763339605640016,0.10686614760000002,1.6123059754525078,0.1949802851652835,-1.3523197420284077, ,0.15380379507045505,0.14400142876854444,0.03539735893333334,0.0,0.15766010542116907,-0.15456958852894653, ,1.3640780448913574
0.01798042165980927,0.02065903550091841,-0.09675116304878772, ,0.01885572057255998,0.02006261627340562,-0.09752068903485382, ,0.0013092113369660879, ,0.021104228065052064,-0.0069171663189452415,-0.03367292730185177,0.005281210085292146,-0.0020346222196711283,-0.006535076205416962, ,0.04033734826660617, ,0.005655755994502054, ,0.0009882725462727901, ,0.201779564537738,-0.20622013594041708,0.10721225703000001,1.6125156653959922,0.19648328666270337,-1.3538720539296305, ,0.15556875665323078,0.14334885431793168,0.03500837696703297,0.010699262080496834,0.15476360144688264,-0.14364473560706315, ,1.3693969249725342
0.01798042165980927,0.02065903550091841,-0.09675116304878772, ,0.018975018864394132,0.020023521418589818,-0.09769911335525606, ,0.0015138399954220379, ,0.021104228065052064,-0.0069171663189452415,-0.03367292730185177,0.005281210085292146,-0.0020346222196711283,-0.006535076205416962, ,0.04033734826660617, ,0.005655755994502054, ,0.0009936354794273742, ,0.201779564537738,-0.20622013594041708,0.10721225703000001,1.6125156653959922,0.19648328666270337,-1.3538720539296305, ,0.15556875665323078,0.14334885431793168,0.03500837696703297,0.010699262080496834,0.15476360144688264,-0.14364473560706315, ,1.3746140003204346
0.018195623278543113,0.0205886240309391,-0.09708982984778143, ,0.01909444918580297,0.019984497113967863,-0.09787728419807161, ,0.0013390077285667925, ,0.02123387446924822,-0.007017427365926104,-0.03301752705700806,0.001681403758232588,-0.015281170734135867,-0.00850229639602577, ,0.039878299923292865, ,0.015372119508123401, ,0.0009971240880045401, ,0.20336272477695402,-0.2047759848929371,0.10756484791000001,1.6125156653959922,0.1979862881601232,-1.3551793296104317, ,0.1558242061715448,0.1420612897581898,0.03440348060475163,0.00974172506992118,0.14164796811894592,-0.1389152808906116, ,1.3798439502716064
0.018384318602534176,0.020524566913042802,-0.0973794000149006, ,0.019214001552096332,0.01994556481971647,-0.09805519761181308, ,0.0015435525183857444, ,0.02123387446924822,-0.007017427365926104,-0.03301752705700806,0.001681403758232588,-0.015281170734135867,-0.00850229639602577, ,0.039878299923292865, ,0.015372119508123401, ,0.0010025883723083521, ,0.20476053942718864,-0.20350945670156428,0.10786688348000001,1.6125156653959922,0.19935265315777762,-1.356456866127677, ,0.16002856923856792,0.14334885431793168,0.03410880411134904,0.009036765616112599,0.15936463555123512,-0.13449444068962718, ,1.3874270915985107
0.018384318602534176,0.020524566913042802,-0.0973794000149006, ,0.019333666110509462,0.019906745756144904,-0.09823284964976861, ,0.0014182171738016311, ,0.02152394192858114,-0.00729374368476449,-0.03264402995032041,-0.004096048609277059,-0.002263963125001144,-0.004797734616862597, ,0.03977576478813941, ,0.00467611735960789, ,0.0010067035089568004, ,0.20476053942718864,-0.20350945670156428,0.10786688348000001,1.6125156653959922,0.19935265315777762,-1.356456866127677, ,0.16002856923856792,0.14334885431793168,0.03410880411134904,0.009036765616112599,0.15936463555123512,-0.13449444068962718, ,1.3929729461669922
0.018628887757131986,0.020444126128131034,-0.09774690084767061, ,0.019453433139616765,0.01986806090460346,-0.09841023637014193, ,0.0012048818385663957, ,0.02118253467950955,-0.0064375110059627155,-0.03175527020126352,0.00010080849687132658,-0.010455488099525581,-0.004776615064399984, ,0.038710961095738385, ,0.010454429823439351, ,0.0010086464337568945, ,0.20657538165263142,-0.20191857372947403,0.10825188161000002,1.6125156653959922,0.2011289276547283,-1.3580686563560116, ,0.15608049598432694,0.13216844228199273,0.033393734842767295,0.008267166903290078,0.14707689866040743,-0.1278391139569306, ,1.398569107055664
0.018628887757131986,0.020444126128131034,-0.09774690084767061, ,0.019573293048751238,0.01982953100839247,-0.09858735383618883, ,0.0014056990225343774, ,0.02118253467950955,-0.0064375110059627155,-0.03175527020126352,0.00010080849687132658,-0.010455488099525581,-0.004776615064399984, ,0.038710961095738385, ,0.010454429823439351, ,0.0010125013132595885, ,0.20657538165263142,-0.20191857372947403,0.10825188161000002,1.6125156653959922,0.2011289276547283,-1.3580686563560116, ,0.15608049598432694,0.13216844228199273,0.033393734842767295,0.008267166903290078,0.14707689866040743,-0.1278391139569306, ,1.4039499759674072
0.01881757662586558,0.02038239791444469,-0.09802058488793143, ,0.01969323637742227,0.019791176573671115,-0.09876419811635591, ,0.0012920074720257238, ,0.021753636594993013,-0.00747248436893602,-0.03094733260687247,-0.04933312549003443,-0.040240480981464655,-0.0116340122292483, ,0.0385589953607638, ,0.06366337403449777, ,0.0010151888724784937, ,0.20797319630286604,-0.20072155013396922,0.10853965799000001,1.6125156653959922,0.2023586561526173,-1.3590714174892795, ,0.16002856923856792,0.13996599049921946,0.0325077786122449,0.007754832627963038,0.12076662690548519,-0.08608681259632152, ,1.4093959331512451
0.01881757662586558,0.02038239791444469,-0.09802058488793143, ,0.01981325379473382,0.019753017870366832,-0.09894076528441897, ,0.0014947321588060158, ,0.021753636594993013,-0.00747248436893602,-0.03094733260687247,-0.04933312549003443,-0.040240480981464655,-0.0116340122292483, ,0.0385589953607638, ,0.06366337403449777, ,0.0010197559513958987, ,0.20797319630286604,-0.20072155013396922,0.10853965799000001,1.6125156653959922,0.2023586561526173,-1.3590714174892795, ,0.16002856923856792,0.13996599049921946,0.0325077786122449,0.007754832627963038,0.12076662690548519,-0.08608681259632152, ,1.4147260189056396
0.019060471083887368,0.020299535681436255,-0.09837083264142397, ,0.019933336098799864,0.019715074933083727,-0.09911705141962147, ,0.0012885379953876239, ,0.02103865372661032,-0.007176054812992863,-0.03051777999490097,-0.020947025627836683,-0.009308210408119093,-0.005071710116056294, ,0.0377552063843448, ,0.022921478857176273, ,0.001022291631056198, ,0.2097571475968119,-0.19916155809337588,0.10890780435000001,1.6125156653959922,0.20386165765003716,-1.36029701442994, ,0.15506036202364507,0.13518082843087004,0.03211453935483872,0.00718336817917735,0.1473677239668666,-0.10985906643928138, ,1.4199669361114502
0.019060471083887368,0.020299535681436255,-0.09837083264142397, ,0.020053474216166586,0.019677367562011907,-0.09929305260681219, ,0.0014911867938340287, ,0.02103865372661032,-0.007176054812992863,-0.03051777999490097,-0.020947025627836683,-0.009308210408119093,-0.005071710116056294, ,0.0377552063843448, ,0.022921478857176273, ,0.0010266738288391684, ,0.2097571475968119,-0.19916155809337588,0.10890780435000001,1.6125156653959922,0.20386165765003716,-1.36029701442994, ,0.15506036202364507,0.13518082843087004,0.03211453935483872,0.00718336817917735,0.1473677239668666,-0.10985906643928138, ,1.4252879619598389
0.019272215933265238,0.020227544583279824,-0.09868077730362086, ,0.02017365920122678,0.019639915323836094,-0.09946876493658341, ,0.001333728841110323, ,0.02157818158985824,-0.007017245087452524,-0.03138550057435795,0.01058898384924588,0.01993899553752301,0.00218927175318413, ,0.03872866245618736, ,0.02257564324527604, ,0.001029516930804642, ,0.2113325851031537,-0.19780235710751237,0.10923446943000001,1.6125156653959922,0.20563793214698786,-1.3618271259181343, ,0.16057012108032281,0.1347967919864642,0.033185024,0.006746881195155001,0.18289233390373819,-0.14107384438090892, ,1.4308860301971436
0.019485062885235716,0.0201613865349562,-0.09899107877363841, ,0.020293882235638928,0.019602737552644904,-0.09964418450541002, ,0.001180179869298338, ,0.021102407756388126,-0.006390955983982765,-0.03152389325041051,0.051723796059826785,0.062399471902122396,0.011645398475880876, ,0.0384696214846124, ,0.08104945429217938, ,0.0010308991595981622, ,0.21293119080811818,-0.19650493798464264,0.10956372709000001,1.6125156653959922,0.20768747964346948,-1.3634983944735806, ,0.15816156926411795,0.12823911021414972,0.03346388974789917,0.006361322731484265,0.2237757309233283,-0.17585123652838272, ,1.4364421367645264
0.019485062885235716,0.0201613865349562,-0.09899107877363841, ,0.02041413462774359,0.019565853350839553,-0.09981930741578661, ,0.001379781417393848, ,0.021102407756388126,-0.006390955983982765,-0.03152389325041051,0.051723796059826785,0.062399471902122396,0.011645398475880876, ,0.0384696214846124, ,0.08104945429217938, ,0.001034070816487214, ,0.21293119080811818,-0.19650493798464264,0.10956372709000001,1.6125156653959922,0.20768747964346948,-1.3634983944735806, ,0.15816156926411795,0.12823911021414972,0.03346388974789917,0.006361322731484265,0.2237757309233283,-0.17585123652838272, ,1.4417610168457031
0.019711633053621964,0.020093271551412932,-0.09932519132062616, ,0.02053440781198382,0.019529281590042944,-0.0999941297763662, ,0.001201050222551663, ,0.022809461100683284,-0.006585485899514694,-0.03417624923926988,-0.06172080624102519,-0.06613063039283282,-0.010247536992105353, ,0.04161317282184796, ,0.09045812055231886, ,0.0010355751354607676, ,0.21449890558158577,-0.19519207339602448,0.10990594765000002,1.612725355339477,0.2091904811408893,-1.364723991414241, ,0.15633763024459765,0.1340352281899305,0.03595668514672686,0.0,0.09203013043235979,-0.06942348767922246, ,1.4470181465148926
0.019711633053621964,0.020093271551412932,-0.09932519132062616, ,0.020654693348321488,0.019493040912008576,-0.10016864770209902, ,0.0014003778802044132, ,0.022809461100683284,-0.006585485899514694,-0.03417624923926988,-0.06172080624102519,-0.06613063039283282,-0.010247536992105353, ,0.04161317282184796, ,0.09045812055231886, ,0.00103883230282455, ,0.21449890558158577,-0.19519207339602448,0.10990594765000002,1.612725355339477,0.2091904811408893,-1.364723991414241, ,0.15633763024459765,0.1340352281899305,0.03595668514672686,0.0,0.09203013043235979,-0.06942348767922246, ,1.4522919654846191
0.01993022073527219,0.020030428288776023,-0.0996495862916578, ,0.020774982921656412,0.01945714972952915,-0.10034285731436902, ,0.0012340567932505784, ,0.022265327744797617,-0.006454939660519817,-0.03324850695413612,-0.032767123084134694,-0.035039741496994264,-0.0037555067191010014, ,0.040532385573556415, ,0.047973192598419305, ,0.0010405599531823025, ,0.2160588976221791,-0.19387148607453208,0.11026113111000001,1.612725355339477,0.2101469366392474,-1.3655039167401162, ,0.1545552794111902,0.1303529417011961,0.03524073345132744,0.0,0.12190813281165912,-0.09459486273270117, ,1.4579970836639404
0.01993022073527219,0.020030428288776023,-0.0996495862916578, ,0.020895268341241738,0.019421626227346174,-0.10051675474113417, ,0.0014331566388765921, ,0.022265327744797617,-0.006454939660519817,-0.03324850695413612,-0.032767123084134694,-0.035039741496994264,-0.0037555067191010014, ,0.040532385573556415, ,0.047973192598419305, ,0.0010440037837585682, ,0.2160588976221791,-0.19387148607453208,0.11026113111000001,1.612725355339477,0.2101469366392474,-1.3655039167401162, ,0.1545552794111902,0.1303529417011961,0.03524073345132744,0.0,0.12190813281165912,-0.09459486273270117, ,1.4633851051330566
0.020151523813415204,0.01996853580027588,-0.09998371942360368, ,0.021015541540101063,0.01938648836305883,-0.10069033611706411, ,0.0012588141255464578, ,0.021792696610033736,-0.005874064505233215,-0.03269073120865915,0.017626259351679243,0.015986464445313944,0.004676389314040039, ,0.03972543475288116, ,0.023795266936737995, ,0.001045871699774115, ,0.21761888966277246,-0.19258951241741082,0.11061631457000001,1.6129350452829614,0.21178657463643272,-1.3668409315844732, ,0.1545552794111902,0.12308293327946923,0.034855167439824954,0.0030593715939282776,0.1733380281175585,-0.13718513508996785, ,1.4691839218139648
0.020151523813415204,0.01996853580027588,-0.09998371942360368, ,0.021135794574454102,0.019351753868031705,-0.10086359758367631, ,0.00145718717382214, ,0.021792696610033736,-0.005874064505233215,-0.03269073120865915,0.017626259351679243,0.015986464445313944,0.004676389314040039, ,0.03972543475288116, ,0.023795266936737995, ,0.0010494175228262532, ,0.21761888966277246,-0.19258951241741082,0.11061631457000001,1.6129350452829614,0.21178657463643272,-1.3668409315844732, ,0.1545552794111902,0.12308293327946923,0.034855167439824954,0.0030593715939282776,0.1733380281175585,-0.13718513508996785, ,1.4744999408721924
0.020371793244669843,0.019906026174806916,-0.10030428529448979, ,0.021256019623123214,0.019317440248305763,-0.10103653528947795, ,0.0012901471762508932, ,0.021725430325575616,-0.006589419416648174,-0.03065953165769919,0.008572865457531548,0.00538000486693175,0.002008539984729962, ,0.038149988893175314, ,0.010119850955539087, ,0.001051475041231592, ,0.21918660443624002,-0.19133842969178647,0.11095853513000001,1.6129350452829614,0.21342621263361797,-1.3681779464288302, ,0.15633763024459765,0.12535923587644754,0.03277533234567902,0.0030593715939282776,0.16429546380581103,-0.13031218225685898, ,1.4799771308898926
0.020371793244669843,0.019906026174806916,-0.10030428529448979, ,0.021376208986961086,0.01928356478550523,-0.10120914539010022, ,0.0014883148044556875, ,0.021725430325575616,-0.006589419416648174,-0.03065953165769919,0.008572865457531548,0.00538000486693175,0.002008539984729962, ,0.038149988893175314, ,0.010119850955539087, ,0.0010551770731233217, ,0.21918660443624002,-0.19133842969178647,0.11095853513000001,1.6129350452829614,0.21342621263361797,-1.3681779464288302, ,0.15633763024459765,0.12535923587644754,0.03277533234567902,0.0030593715939282776,0.16429546380581103,-0.13031218225685898, ,1.4855070114135742
0.020593904241556334,0.019839778894646293,-0.10062234627912368, ,0.021496355088261712,0.01925014453774829,-0.10138142404844006, ,0.0013184404671520418, ,0.022441823597988027,-0.006592204249916825,-0.032572194769705694,-0.0020615868574603634,-0.005298972816192884,-0.0009757055890377347, ,0.040100379990612015, ,0.005682656920563917, ,0.0010573893705521343, ,0.22075431920970762,-0.19006417876753942,0.11129816311000001,1.6129350452829614,0.21492921413103783,-1.3694035433694909, ,0.1571141416530973,0.12823911021414972,0.034779064454148474,0.0030593715939282776,0.1541628533845771,-0.12244292746727119, ,1.4909651279449463
0.020593904241556334,0.019839778894646293,-0.10062234627912368, ,0.02161645047018066,0.01921719634055534,-0.10155336743479668, ,0.0015165784577933726, ,0.02253128281735822,-0.005917972142604024,-0.0328394097973882,0.009423007144415456,0.004463812910220135,0.002000269577851668, ,0.04026298468217694, ,0.010424993859074583, ,0.0010612159462791448, ,0.22075431920970762,-0.19006417876753942,0.11129816311000001,1.6129350452829614,0.21492921413103783,-1.3694035433694909, ,0.1571141416530973,0.12823911021414972,0.034779064454148474,0.0030593715939282776,0.1541628533845771,-0.12244292746727119, ,1.4962990283966064
0.02082036939309369,0.019775395272267484,-0.10094923952918157, ,0.021736487796157496,0.019184736807756377,-0.10172497172700766, ,0.0013378754773426755, ,0.02253128281735822,-0.005917972142604024,-0.0328394097973882,0.009423007144415456,0.004463812910220135,0.002000269577851668, ,0.04026298468217694, ,0.010424993859074583, ,0.0010635023886846286, ,0.22234520218179785,-0.1887976505761666,0.11164816141000002,1.6129350452829614,0.2165688521282231,-1.3709039156941292, ,0.1571141416530973,0.12166274558778303,0.03524073345132744,0.0030593715939282776,0.16407297163558318,-0.12747118017866066, ,1.5017681121826172
0.02082036939309369,0.019775395272267484,-0.10094923952918157, ,0.021856459849324033,0.01915278233240327,-0.10189623311059247, ,0.0015355543460299265, ,0.02253128281735822,-0.005917972142604024,-0.0328394097973882,0.009423007144415456,0.004463812910220135,0.002000269577851668, ,0.04026298468217694, ,0.010424993859074583, ,0.0010673716670235244, ,0.22234520218179785,-0.1887976505761666,0.11164816141000002,1.6129350452829614,0.2165688521282231,-1.3709039156941292, ,0.1571141416530973,0.12166274558778303,0.03524073345132744,0.0030593715939282776,0.16407297163558318,-0.12747118017866066, ,1.507498025894165
0.020946352639593116,0.019742203935337377,-0.1011327292883953, ,0.02197635953193036,0.019121349087675845,-0.10206714777888547, ,0.0015229946997599739, ,0.022769439606526262,-0.005794901045762,-0.03301432531220591,-0.0009937942021109453,-0.009709809697592562,-0.000735500354063911, ,0.04052127754582252, ,0.009758525035546561, ,0.0010710759193221947, ,0.22322559372945946,-0.18811805008323484,0.11184519749,1.6129350452829614,0.2175253076265812,-1.3716838410200038, ,0.1571141416530973,0.1204275908102421,0.035476194922048995,0.0030593715939282776,0.14960773678653985,-0.11582294333238985, ,1.513005018234253
0.020946352639593116,0.019742203935337377,-0.1011327292883953, ,0.022096179864757613,0.019090453027792848,-0.10223771193317824, ,0.0017227502832639747, ,0.022769439606526262,-0.005794901045762,-0.03301432531220591,-0.0009937942021109453,-0.009709809697592562,-0.000735500354063911, ,0.04052127754582252, ,0.009758525035546561, ,0.0010763313577410798, ,0.22322559372945946,-0.18811805008323484,0.11184519749,1.6129350452829614,0.2175253076265812,-1.3716838410200038, ,0.1571141416530973,0.1204275908102421,0.035476194922048995,0.0030593715939282776,0.14960773678653985,-0.11582294333238985, ,1.518254041671753
0.021350596576471675,0.019632074736691842,-0.10171070592582508, ,0.022215913986542123,0.01906010988891797,-0.102407921782853, ,0.0012498111691576436, ,0.022321965948742556,-0.0061415067024680435,-0.032416579794409144,-0.018616235918184433,-0.024022464436377487,-0.00557322397371907, ,0.039834945888761755, ,0.030390907213151287, ,0.0010777191962324125, ,0.22599805483130606,-0.18594023941270352,0.11246612040000001,1.6129350452829614,0.21998476462235914,-1.3736893632865397, ,0.15039134953798858,0.12104201729396784,0.034779064454148474,0.0030593715939282776,0.12812974374625524,-0.0987171488195161, ,1.5234770774841309
0.021350596576471675,0.019632074736691842,-0.10171070592582508, ,0.022335555153385075,0.019030335190072602,-0.10257777354552604, ,0.0014436204962990382, ,0.022321965948742556,-0.0061415067024680435,-0.032416579794409144,-0.018616235918184433,-0.024022464436377487,-0.00557322397371907, ,0.039834945888761755, ,0.030390907213151287, ,0.0010806231748043697, ,0.22599805483130606,-0.18594023941270352,0.11246612040000001,1.6129350452829614,0.21998476462235914,-1.3736893632865397, ,0.15039134953798858,0.12104201729396784,0.034779064454148474,0.0030593715939282776,0.12812974374625524,-0.0987171488195161, ,1.528743028640747
0.021577885701392654,0.019569469344034335,-0.10203995595525185, ,0.022455096738176403,0.019001144234042117,-0.10274726344718266, ,0.0012620525036005172, ,0.021972427651976708,-0.0060912492697650185,-0.03198368860863412,0.011869849735373814,0.010322217078840453,0.0011282721597720188, ,0.039279094078171345, ,0.015729209425860802, ,0.0010820517521964654, ,0.22754260140615096,-0.18471232488570183,0.11282000757,1.6129350452829614,0.22148776611977897,-1.3749149602272002, ,0.1499161793972682,0.11906768075090436,0.03440348060475163,0.003027080206686959,0.1625967462335127,-0.1272552254197641, ,1.534013032913208
0.021577885701392654,0.019569469344034335,-0.10203995595525185, ,0.022574532230011105,0.01897255210828522,-0.10291638772231598, ,0.0014552481340516224, ,0.021972427651976708,-0.0060912492697650185,-0.03198368860863412,0.011869849735373814,0.010322217078840453,0.0011282721597720188, ,0.039279094078171345, ,0.015729209425860802, ,0.0010849673489297087, ,0.22754260140615096,-0.18471232488570183,0.11282000757,1.6129350452829614,0.22148776611977897,-1.3749149602272002, ,0.1499161793972682,0.11906768075090436,0.03440348060475163,0.003027080206686959,0.1625967462335127,-0.1272552254197641, ,1.5393519401550293
0.021795879742701647,0.01950927494584561,-0.10235630378452774, ,0.022693855233604697,0.01894457368584463,-0.1030851426140668, ,0.0012870328413654142, ,0.022116121937903355,-0.005976667382081443,-0.032019758707363156,0.026272418414843162,0.02288158972689294,0.003941240216456196, ,0.03937141539551258, ,0.03483925170898341, ,0.0010865337480958771, ,0.22754260140615096,-0.18471232488570183,0.11282000757,1.6129350452829614,0.22148776611977897,-1.3749149602272002, ,0.1499161793972682,0.11906768075090436,0.03440348060475163,0.003027080206686959,0.1625967462335127,-0.1272552254197641, ,1.5448739528656006
0.021882720443233212,0.01948614344985364,-0.10248106455126593, ,0.02281305946871612,0.018917223626252463,-0.10325352437435786, ,0.001336373692615244, ,0.021994873896388087,-0.005897568143354829,-0.03171852445961666,0.022548539294017275,0.0179125314693045,0.002969343668670672, ,0.039046390122760746, ,0.0287969321891919, ,0.001088455593822949, ,0.2296354620150658,-0.18308282824924046,0.11329574600000002,1.6129350452829614,0.2239472231155569,-1.376838803753595, ,0.1499161793972682,0.11586928151217434,0.034255508645161296,0.002821339609832752,0.17030407253344376,-0.1348105201549673, ,1.5506479740142822
0.021882720443233212,0.01948614344985364,-0.10248106455126593, ,0.02293213876955975,0.018890516376443643,-0.10342152926403755, ,0.0015298772206218253, ,0.021994873896388087,-0.005897568143354829,-0.03171852445961666,0.022548539294017275,0.0179125314693045,0.002969343668670672, ,0.039046390122760746, ,0.0287969321891919, ,0.0010918252245618717, ,0.2296354620150658,-0.18308282824924046,0.11329574600000002,1.6129350452829614,0.2239472231155569,-1.376838803753595, ,0.1499161793972682,0.11586928151217434,0.034255508645161296,0.002821339609832752,0.17030407253344376,-0.1348105201549673, ,1.555906057357788
0.022238159324106985,0.01939458089953037,-0.10297702680035088, ,0.023051087084227755,0.018864466171661144,-0.10358915355301332, ,0.0011474198574209418, ,0.02247793230377793,-0.005836873559215417,-0.031012283406023133,-0.0033082074755323007,-0.020495445298733976,-0.00381227079446681, ,0.038743880234883406, ,0.020760029594841148, ,0.0010922463960229252, ,0.23204495467182384,-0.18128343148954615,0.11383370635000001,1.6129350452829614,0.22627004361156938,-1.3786512293762936, ,0.15110977955170507,0.1131072009040176,0.03367613429175476,0.0026179669891337083,0.13242078682117087,-0.10623223153439607, ,1.561156988143921
0.022238159324106985,0.01939458089953037,-0.10297702680035088, ,0.023169898474105662,0.018839087036367032,-0.10375639352039263, ,0.0013357109567421481, ,0.02247793230377793,-0.005836873559215417,-0.031012283406023133,-0.0033082074755323007,-0.020495445298733976,-0.00381227079446681, ,0.038743880234883406, ,0.020760029594841148, ,0.0010940769566298368, ,0.23204495467182384,-0.18128343148954615,0.11383370635000001,1.6129350452829614,0.22627004361156938,-1.3786512293762936, ,0.15110977955170507,0.1131072009040176,0.03367613429175476,0.0026179669891337083,0.13242078682117087,-0.10623223153439607, ,1.5665440559387207
0.02246617046301242,0.01933631169550771,-0.1032918301105881, ,0.0232885671132902,0.018814392785151266,-0.10392324545462073, ,0.0011607846208731467, ,0.02219509188162619,-0.005541588660262348,-0.030908363569265233,-0.0009596091193539133,-0.01843887498936885,-0.003426043645899314, ,0.038453325565459995, ,0.01846306453520443, ,0.0010945747750197123, ,0.2335740557809203,-0.18014818975703514,0.11417592691000002,1.6129350452829614,0.22763640860922377,-1.3796837296731175, ,0.14758466805360929,0.10945437319316122,0.03360508759493671,0.0025024396186441506,0.1309242302257958,-0.10501226522452378, ,1.5717909336090088
0.02246617046301242,0.01933631169550771,-0.1032918301105881, ,0.023407087288009613,0.018790397023638484,-0.10408970565361692, ,0.0013490562192467793, ,0.02219509188162619,-0.005541588660262348,-0.030908363569265233,-0.0009596091193539133,-0.01843887498936885,-0.003426043645899314, ,0.038453325565459995, ,0.01846306453520443, ,0.0010964598227547276, ,0.2335740557809203,-0.18014818975703514,0.11417592691000002,1.6129350452829614,0.22763640860922377,-1.3796837296731175, ,0.14758466805360929,0.10945437319316122,0.03360508759493671,0.0025024396186441506,0.1309242302257958,-0.10501226522452378, ,1.5770580768585205
0.022693950202504785,0.019278998749056798,-0.10361150525805238, ,0.02352545339603839,0.018767113149399793,-0.10425577042491532, ,0.0011698299163663648, ,0.021600853735237593,-0.005541835841480187,-0.03134295042223017,0.0391555469359916,0.037297926995242876,0.006305070960939265, ,0.03846673066112352, ,0.05407644557300399, ,0.001096999308737166, ,0.23507998869139407,-0.17902067075739836,0.11452333263000002,1.6129350452829614,0.22900277360687818,-1.380716229969941, ,0.14465997188791277,0.10945437319316122,0.03403592205128206,0.002395303732604468,0.18463604973768652,-0.14513795617712869, ,1.5824849605560303
0.022693950202504785,0.019278998749056798,-0.10361150525805238, ,0.023643659946116075,0.018744554352861043,-0.10442143608580295, ,0.0013577803045691902, ,0.021600853735237593,-0.005541835841480187,-0.03134295042223017,0.0391555469359916,0.037297926995242876,0.006305070960939265, ,0.03846673066112352, ,0.05407644557300399, ,0.0010989028196556477, ,0.23507998869139407,-0.17902067075739836,0.11452333263000002,1.6129350452829614,0.22900277360687818,-1.380716229969941, ,0.14465997188791277,0.10945437319316122,0.03403592205128206,0.002395303732604468,0.18463604973768652,-0.14513795617712869, ,1.588123083114624
0.02287325277868164,0.019237183634171026,-0.10387252403585234, ,0.023761701557366392,0.018722733618210242,-0.10458669896345583, ,0.0012506181985266055, ,0.022146049279204407,-0.004780536967186373,-0.03180101101190757,-0.00687127103706957,-0.026073800651781217,-0.004450122588475706, ,0.03904619486904008, ,0.026963399675161464, ,0.0011000022064590604, ,0.23626156682115043,-0.178148001942611,0.11480722014000001,1.613144735226446,0.23036913860453262,-1.381667051526624, ,0.1422742752001061,0.1027023177039727,0.03462785113043479,0.002142129588839366,0.11779864275902534,-0.09251799227738079, ,1.5935680866241455
0.02287325277868164,0.019237183634171026,-0.10387252403585234, ,0.02387957295871335,0.01870166372430872,-0.1047515553950794, ,0.0014394992216401317, ,0.022146049279204407,-0.004780536967186373,-0.03180101101190757,-0.00687127103706957,-0.026073800651781217,-0.004450122588475706, ,0.03904619486904008, ,0.026963399675161464, ,0.0011024446310287084, ,0.23626156682115043,-0.178148001942611,0.11480722014000001,1.613144735226446,0.23036913860453262,-1.381667051526624, ,0.1422742752001061,0.1027023177039727,0.03462785113043479,0.002142129588839366,0.11779864275902534,-0.09251799227738079, ,1.598850965499878
0.02313856661088186,0.019185882076250826,-0.10424628995949722, ,0.023997268988301228,0.018681357245596504,-0.10491600172804336, ,0.00120017870780215, ,0.022890756154356484,-0.004704752325733867,-0.03144088045292221,-0.04842958472206593,-0.07416933615749227,-0.012738192643047434, ,0.03917461391538726, ,0.08858038371273984, ,0.0011031427315770902, ,0.23793739985485715,-0.17698959201147732,0.11521555149000001,1.613144735226446,0.23132559410289066,-1.3822019406320774, ,0.14488082680682562,0.10084690920135046,0.03440348060475163,0.002142129588839366,0.07152454085799546,-0.04910207126251073, ,1.6041810512542725
0.02313856661088186,0.019185882076250826,-0.10424628995949722, ,0.024114784592909378,0.018661826553007334,-0.10508003432002684, ,0.0013866381642630619, ,0.022890756154356484,-0.004704752325733867,-0.03144088045292221,-0.04842958472206593,-0.07416933615749227,-0.012738192643047434, ,0.03917461391538726, ,0.08858038371273984, ,0.0011051533374826644, ,0.23793739985485715,-0.17698959201147732,0.11521555149000001,1.613144735226446,0.23132559410289066,-1.3822019406320774, ,0.14488082680682562,0.10084690920135046,0.03440348060475163,0.002142129588839366,0.07152454085799546,-0.04910207126251073, ,1.6095831394195557
0.02335965157870047,0.019138981029497654,-0.10455635443317218, ,0.02423211482737285,0.01864308381487184,-0.1052436495391487, ,0.0012163390688689072, ,0.02200298686708473,-0.004439369478940526,-0.031759007724550516,0.024477270481323445,0.020090082640904335,0.00480107937059263, ,0.03889053874776886, ,0.03166568933258575, ,0.0011059363355910182, ,0.2393738281694629,-0.17599335947070235,0.11555517947,1.613144735226446,0.2326919591005451,-1.3832344409289008, ,0.14291708066034756,0.09833879954245676,0.034779064454148474,0.00208755245754273,0.16536406323149758,-0.119582709848605, ,1.6149349212646484
0.02357736970462015,0.019096450509233396,-0.10487061058165403, ,0.024349254853999382,0.018625140997827982,-0.10540684376410968, ,0.001051420641484614, ,0.02157543874238619,-0.004071850337334477,-0.031326567740955304,0.044158418010805486,0.04071881352939794,0.009016206624637074, ,0.03825484764738675, ,0.06006627578966058, ,0.0011055551069609035, ,0.2407948110183202,-0.17503574059429852,0.11589999261000002,1.613144735226446,0.2344682335974958,-1.3846828736769545, ,0.14058806156810486,0.09367911308832258,0.03440348060475163,0.0020208362224695604,0.18394013481835655,-0.13473025064974883, ,1.6208529472351074
0.02357736970462015,0.019096450509233396,-0.10487061058165403, ,0.024466199941986802,0.018608009867731735,-0.10556961338432976, ,0.0012317460652570905, ,0.02157543874238619,-0.004071850337334477,-0.031326567740955304,0.044158418010805486,0.04071881352939794,0.009016206624637074, ,0.03825484764738675, ,0.06006627578966058, ,0.0011064314330601825, ,0.2407948110183202,-0.17503574059429852,0.11589999261000002,1.613144735226446,0.2344682335974958,-1.3846828736769545, ,0.14058806156810486,0.09367911308832258,0.03440348060475163,0.0020208362224695604,0.18394013481835655,-0.13473025064974883, ,1.6261560916900635
0.02378833863487773,0.01905654669664606,-0.10516562763403663, ,0.024582945466840988,0.018591701990565358,-0.10573195480008869, ,0.0010808362860223126, ,0.021414254612938624,-0.004014694780619117,-0.02888132960823855,0.013976574502163915,0.003659129661905431,0.0031575208095505486, ,0.03617760736628405, ,0.014446929424419122, ,0.001106254914804749, ,0.2407948110183202,-0.17503574059429852,0.11589999261000002,1.613144735226446,0.2344682335974958,-1.3846828736769545, ,0.14058806156810486,0.09367911308832258,0.03440348060475163,0.0020208362224695604,0.18394013481835655,-0.13473025064974883, ,1.631507158279419
0.02378833863487773,0.01905654669664606,-0.10516562763403663, ,0.02469948690979434,0.018576228733344614,-0.10589386442265944, ,0.0012614378086363328, ,0.021414254612938624,-0.004014694780619117,-0.02888132960823855,0.013976574502163915,0.003659129661905431,0.0031575208095505486, ,0.03617760736628405, ,0.014446929424419122, ,0.001107317811337842, ,0.2421771802028064,-0.17413990358088846,0.1162253614,1.613144735226446,0.23610787159468108,-1.38577485230089, ,0.14058806156810486,0.08868873042847737,0.031985565301204825,0.001959395952986559,0.14624973274847222,-0.09967528851494005, ,1.637171983718872
0.024012293944981607,0.019015114202259896,-0.10546822858419527, ,0.024815819857222893,0.01856160126503084,-0.106055338674452, ,0.0010936297974902516, ,0.021766006193189667,-0.004097555654872779,-0.029319480407594262,-0.05939153191395315,-0.05437116106930203,-0.0085504291279022, ,0.03674480805934431, ,0.0805205287673891, ,0.0011072246955973822, ,0.24360588578453793,-0.17322089836885576,0.11655980422000001,1.613144735226446,0.2372009635928046,-1.386176123089618, ,0.13673910887387722,0.08952541656459506,0.032375633170731714,0.0018967409874585635,0.08336316173257699,-0.02707759252603946, ,1.6424119472503662
0.024012293944981607,0.019015114202259896,-0.10546822858419527, ,0.024931940000064674,0.018547830557436543,-0.10621637398914649, ,0.0012742936938943332, ,0.021766006193189667,-0.004097555654872779,-0.029319480407594262,-0.05939153191395315,-0.05437116106930203,-0.0085504291279022, ,0.03674480805934431, ,0.0805205287673891, ,0.0011083535401804699, ,0.24360588578453793,-0.17322089836885576,0.11655980422000001,1.613144735226446,0.2372009635928046,-1.386176123089618, ,0.13673910887387722,0.08952541656459506,0.032375633170731714,0.0018967409874585635,0.08336316173257699,-0.02707759252603946, ,1.647711992263794
0.0242308123148771,0.018977643698161784,-0.10576564169485216, ,0.025047843133237352,0.018534927386136435,-0.1063769668118344, ,0.0011123198684448174, ,0.021633410781132553,-0.003329188735847202,-0.029942831309049747,-0.037040294437002554,-0.015181146392498193,0.0008123097549053994, ,0.03708990572199293, ,0.04003032036372869, ,0.0011083801598332505, ,0.24498825496902413,-0.1723482295540684,0.11688906188,1.6133544251699303,0.23829405559092814,-1.3865773938783459, ,0.1365423619546342,0.08316997507315581,0.033185024,0.0009277941477033204,0.12314732402921409,-0.04345970355802883, ,1.653135061264038
0.0242308123148771,0.018977643698161784,-0.10576564169485216, ,0.025163525155056127,0.01852290233137634,-0.1065371135991566, ,0.0012930243045016004, ,0.021633410781132553,-0.003329188735847202,-0.029942831309049747,-0.037040294437002554,-0.015181146392498193,0.0008123097549053994, ,0.03708990572199293, ,0.04003032036372869, ,0.0011096111207977062, ,0.24498825496902413,-0.1723482295540684,0.11688906188,1.6133544251699303,0.23829405559092814,-1.3865773938783459, ,0.1365423619546342,0.08316997507315581,0.033185024,0.0009277941477033204,0.12314732402921409,-0.04345970355802883, ,1.6586899757385254
0.02444428167032454,0.018948001003836333,-0.10606437241635033, ,0.025278982066651523,0.018511765778981216,-0.10669681081944028, ,0.001134462100176018, ,0.021211326516165113,-0.0029171045562319965,-0.030060698411766496,0.03504589327449468,0.03104772769856688,0.0098107603555337, ,0.0369063065148836, ,0.04682041738201707, ,0.0011097756968200792, ,0.24634745595488763,-0.17155278806802327,0.11722091212,1.6133544251699303,0.239797057088348,-1.3875579545985848, ,0.1353736684143663,0.07921280597535124,0.033393734842767295,0.0009277941477033204,0.16891294316409153,-0.11170103538848881, ,1.6639831066131592
0.02444428167032454,0.018948001003836333,-0.10606437241635033, ,0.025394209971387458,0.018501527921265686,-0.10685605495283912, ,0.001314710321402298, ,0.021211326516165113,-0.0029171045562319965,-0.030060698411766496,0.03504589327449468,0.03104772769856688,0.0098107603555337, ,0.0369063065148836, ,0.04682041738201707, ,0.0011111239509291725, ,0.24634745595488763,-0.17155278806802327,0.11722091212,1.6133544251699303,0.239797057088348,-1.3875579545985848, ,0.1353736684143663,0.07921280597535124,0.033393734842767295,0.0009277941477033204,0.16891294316409153,-0.11170103538848881, ,1.6693041324615479
0.02465642585671282,0.018919340027913102,-0.10636430626425446, ,0.02550920507427873,0.018492198757939785,-0.10701484249146799, ,0.001154503980653145, ,0.021909305614623127,-0.0027181220959511393,-0.031408030590141696,-0.016387726788706345,0.007967787373126803,0.0005167700936384338, ,0.03839101777492661, ,0.018221214597103085, ,0.0011114074805352117, ,0.24768348874212848,-0.17076506931485236,0.11755405865000002,1.6135641151134148,0.24130005858576783,-1.3884568365786834, ,0.13576100366018712,0.07927898208727718,0.034855167439824954,0.005853731433823448,0.14499155462457755,-0.059083148223769276, ,1.6746649742126465
0.02465642585671282,0.018919340027913102,-0.10636430626425446, ,0.02562396368140935,0.018483788097022513,-0.10717316993954601, ,0.0013342021480747084, ,0.021909305614623127,-0.0027181220959511393,-0.031408030590141696,-0.016387726788706345,0.007967787373126803,0.0005167700936384338, ,0.03839101777492661, ,0.018221214597103085, ,0.001112854199155598, ,0.24768348874212848,-0.17076506931485236,0.11755405865000002,1.6135641151134148,0.24130005858576783,-1.3884568365786834, ,0.13576100366018712,0.07927898208727718,0.034855167439824954,0.005853731433823448,0.14499155462457755,-0.059083148223769276, ,1.6799261569976807
0.02487834462097884,0.018896816450289178,-0.10668384628155203, ,0.025738482199349884,0.018476305555746666,-0.10733103381353044, ,0.001155646039106808, ,0.021809215874571863,-0.002023281567068851,-0.031407210126961585,-0.0030389022941246678,-0.010591174758596826,-0.0018216010728247735, ,0.03829031748787722, ,0.011017138938091824, ,0.0011131302755423799, ,0.24904268972799198,-0.17000824149317836,0.11790924211,1.6135641151134148,0.24266642358342222,-1.3890809431748041, ,0.13216844228199273,0.072551178561522,0.034931604210526324,0.005734688439979941,0.12249987529535455,-0.06590912740722153, ,1.6851999759674072
0.02487834462097884,0.018896816450289178,-0.10668384628155203, ,0.025852757134575723,0.0184697605614698,-0.10748843064225716, ,0.0013338712352850193, ,0.02160312574984514,-0.0018873688430456038,-0.030038628370582052,-0.019956270949844077,-0.017675548902068274,-0.002181382912612076, ,0.03829031748787722, ,0.017934199153972347, ,0.0011145452816945765, ,0.24904268972799198,-0.17000824149317836,0.11790924211,1.6135641151134148,0.24266642358342222,-1.3890809431748041, ,0.13216844228199273,0.072551178561522,0.034931604210526324,0.005734688439979941,0.12249987529535455,-0.06590912740722153, ,1.691028118133545
0.02509758802625449,0.018875619238168488,-0.10699433726266523, ,0.02596678509288476,0.018464162352583656,-0.107645356967079, ,0.0011613039933061576, ,0.02160312574984514,-0.0018873688430456038,-0.030038628370582052,-0.019956270949844077,-0.017675548902068274,-0.002181382912612076, ,0.037048298175479784, ,0.02665808174578015, ,0.0011148431078831852, ,0.25037872251523285,-0.16928230460300125,0.11825535154000001,1.6135641151134148,0.24389615208131118,-1.3894302743869473, ,0.1319846196918926,0.0688157661772812,0.03360508759493671,0.005503957248447435,0.11514107667158631,-0.04540241285987144, ,1.6967649459838867
0.025255187240058926,0.018861183566523065,-0.10721070201964776, ,0.02608056277881522,0.01845951997942147,-0.10780180934200247, ,0.0010917812435290825, ,0.020779707677266356,-0.0019476806062859644,-0.02866334315217052,0.016440249867728223,-0.009568353172838728,-0.0008843117256381048, ,0.035456691209922925, ,0.019021457626494872, ,0.001114697146716387, ,0.2513440641245109,-0.16878032696617665,0.11849775777000002,1.6135641151134148,0.24471597107990384,-1.3897720668485636, ,0.12754965263235318,0.06678180264494778,0.03211453935483872,0.005347702511711427,0.11889507382806577,-0.07985207136896905, ,1.7021501064300537
0.025255187240058926,0.018861183566523065,-0.10721070201964776, ,0.0261940869950635,0.018455842305167922,-0.10795778433382705, ,0.0012664779004246808, ,0.020779707677266356,-0.0019476806062859644,-0.02866334315217052,0.016440249867728223,-0.009568353172838728,-0.0008843117256381048, ,0.035456691209922925, ,0.019021457626494872, ,0.0011156517426516592, ,0.2513440641245109,-0.16878032696617665,0.11849775777000002,1.6135641151134148,0.24471597107990384,-1.3897720668485636, ,0.12754965263235318,0.06678180264494778,0.03211453935483872,0.005347702511711427,0.11889507382806577,-0.07985207136896905, ,1.7093329429626465
0.025508818125504092,0.01883578858232921,-0.10754005594542469, ,0.02630735464190213,0.018453138006768118,-0.10811327852228292, ,0.0010548299169147281, ,0.018231529969095637,-0.0020680019610373364,-0.021419730527336443,-0.028290903599108384,-0.024799037094165442,-0.0024891797963678412, ,0.028204080786095393, ,0.03762130989689161, ,0.0011152716062408034, ,0.25293494709660114,-0.16798488548013155,0.11886979300000002,1.6135641151134148,0.24608233607755825,-1.3901511372242628, ,0.11876963899683453,0.05595338535287192,0.02454362329738059,0.00509987000711363,0.09453770305964435,-0.024662641562908677, ,1.7146201133728027
0.025508818125504092,0.01883578858232921,-0.10754005594542469, ,0.026420362716597683,0.01845141557583673,-0.10826828850017045, ,0.0012284049834902096, ,0.018231529969095637,-0.0020680019610373364,-0.021419730527336443,-0.028290903599108384,-0.024799037094165442,-0.0024891797963678412, ,0.028204080786095393, ,0.03762130989689161, ,0.0011159742980249613, ,0.25293494709660114,-0.16798488548013155,0.11886979300000002,1.6135641151134148,0.24608233607755825,-1.3901511372242628, ,0.11876963899683453,0.05595338535287192,0.02454362329738059,0.00509987000711363,0.09453770305964435,-0.024662641562908677, ,1.719831943511963
0.02569477679308324,0.018813238371328228,-0.10774637590628669, ,0.026533108312828558,0.01845068331956677,-0.10842281087349699, ,0.0011365782715770383, ,0.01935734539288277,-0.002434089882416753,-0.021640960087309858,-0.05746221894716797,-0.03568979648726059,-0.0038383718387754867, ,0.029136965657315477, ,0.06764365035267174, ,0.0011161014830468876, ,0.25417058435647705,-0.16742112598031314,0.11910831036000001,1.6135641151134148,0.24703879157591632,-1.390359311369154, ,0.12737844504492724,0.05964609777402312,0.024966789216300942,0.004917650722619144,0.09224200773736108,0.0009072063258336524, ,1.7250909805297852
0.02569477679308324,0.018813238371328228,-0.10774637590628669, ,0.02664558862010237,0.018450949361637263,-0.10857684226161463, ,0.001313381446600332, ,0.01935734539288277,-0.002434089882416753,-0.021640960087309858,-0.05746221894716797,-0.03568979648726059,-0.0038383718387754867, ,0.029136965657315477, ,0.06764365035267174, ,0.0011173117895717554, ,0.25417058435647705,-0.16742112598031314,0.11910831036000001,1.6135641151134148,0.24703879157591632,-1.390359311369154, ,0.12737844504492724,0.05964609777402312,0.024966789216300942,0.004917650722619144,0.09224200773736108,0.0009072063258336524, ,1.7303409576416016
