NicholasDascanio/dvrk_moveit_final/test/execution/third_experiment_notsharpbends/thirdexp_200vel4.0/thirdexp_200vel4.0_29.csv
Current Position (x),Current Position (y),Current Position (z), ,Planned Position (x),Planned Position (y),Planned Position (z), ,Position Error,,Cartesian linear Velocity(x),Cartesian linear Velocity(y),Cartesian linear Velocity(z),Cartesian Angular Velocity(x),Cartesian Angular Velocity(y),Cartesian Angular Velocity(z), ,Total Linear Velocity, ,Total Angular Velocity, ,MSE, ,Joint 1 Position,Joint 2 Position,Joint 3 Position,Joint 4 Position,Joint 5 Position,Joint 6 Position, ,Joint 1 Velocity,Joint 2 Velocity,Joint 3 Velocity,Joint 4 Velocity,Joint 5 Velocity,Joint 6 Velocity, ,Time Stamp
0.009657415785523581,0.020426546768764535,-0.0798463236330014, ,0.00983852000274077,0.020406278898026434,-0.07997601017772141, ,0.00022366967599458313, ,0.0014111145747177614,0.00017407700182634105,-0.0006444256022816649,0.18622937850332957,-0.15102103079562065,-0.04027597692180871, ,0.0015610353943526787, ,0.23976808202992342, ,1.863913966621526e-05, ,0.13649930355191822,-0.24821635731044997,0.08956456497000001,1.6043377576000957,0.1431950517541816,-1.3069885644021226, ,-0.0013520845299888394,-0.00015525752656659795,0.0006447647550348615,-0.0007561688578164332,-0.15764175616308224,-0.1861564369603399, ,0.052018165588378906
0.009717792975346497,0.020449554726271503,-0.07993259189849304, ,0.009899910264388405,0.02045970628432681,-0.08017820129680475, ,0.00030593093605904673, ,0.002922169383563628,0.0005353768458583851,-0.0020893293722863363,0.19134248434480355,-0.26536996249259764,-0.06790356919235557, ,0.003631941560545313, ,0.32715923234493055, ,2.4072755093346813e-05, ,0.13660742181215735,-0.2482240800433242,0.08965530527000001,1.6043377576000957,0.1388226837616875,-1.3174719347880137, ,0.0019888716556908832,4.3260997381292176e-05,0.002178745933524826,-0.0007288975261665722,-0.27203326460105837,-0.191426302045745, ,0.1072390079498291
0.009766393682020062,0.020510574128297546,-0.08016670619727269, ,0.00996275977350684,0.020510839310658103,-0.08037973833710561, ,0.00028972815674226923, ,0.0009899618367871568,0.0006111409424842732,-0.0023988987037939437,0.02020912374690877,-0.019420290617107053,-0.0028023403541433517, ,0.002666126906383083, ,0.028027778545423904, ,2.560402402487185e-05, ,0.1368391037983841,-0.2482240800433242,0.08990160037000001,1.6047571374870648,0.13909595676121836,-1.3090368241405068, ,0.006634782183859431,0.00021364213465242823,0.00256007899710704,-0.0006207391374318734,-0.013071029977326861,-0.02050511919116791, ,0.1616230010986328
0.009819851982035218,0.020554539199888738,-0.08033628106009104, ,0.010027045252576867,0.020559714988083122,-0.0805806302813955, ,0.00032040970973626413, ,0.0013095714204238225,0.0011788355700084912,-0.004681196725881985,-0.01974946735887503,-0.00830154803082616,0.0006288063150040669, ,0.005001823006936204, ,0.021423285425430087, ,2.7798499476394225e-05, ,0.13707078578461082,-0.2482240800433242,0.09008048839,1.6047571374870648,0.1378662282633294,-1.31105617639244, ,0.00812669220120782,0.00044683997275606795,0.004948372637465052,-0.0006207391374318734,0.0,0.01922483910028252, ,0.21041512489318848
0.00988066535068838,0.020610610875412848,-0.08055683984011383, ,0.010092743599914411,0.020606370078048067,-0.0807808860133763, ,0.0003085317745559159, ,0.0010529572416108199,0.001132522013651639,-0.004318065148093516,-0.0032004965963223497,-0.00571834209961343,0.0006341980264485568, ,0.004586612223335008, ,0.006553061370844676, ,2.8965405061761583e-05, ,0.13745692242832205,-0.24820863457757575,0.09031382059000001,1.6047571374870648,0.13800286476309484,-1.3110042368158554, ,0.005561922414608048,-0.00016762178715047519,0.004557599862660945,-0.0006207391374318734,0.0,0.003284122773949072, ,0.25736498832702637
0.009944107809080265,0.02066220162883437,-0.0807541133049112, ,0.010159831889135338,0.020650841093066415,-0.08098051431806748, ,0.000312927082955013, ,0.0012981767180616302,0.00096039079674137,-0.003947999820359335,0.002689738085175053,-0.008111473316923145,-0.004113331520324696, ,0.004265479557487075, ,0.008545799516654328, ,2.985080230581512e-05, ,0.13789711820215284,-0.24820863457757575,0.09052381957000001,1.6047571374870648,0.13800286476309484,-1.3109225580757147, ,0.009132485794638647,0.0009049642785010357,0.004188485805942677,0.004141258585992542,0.0,-0.003034311964947504, ,0.3052959442138672
0.009990147744357889,0.02070476078261661,-0.08092063647105796, ,0.010228287368620557,0.0206931642974035,-0.0811795238821933, ,0.00035194836376607514, ,0.0017308037567142246,0.0012991833370917495,-0.005062746532843347,0.0014824906413148547,-0.013269008306157034,0.0030635821128298492, ,0.005505902418627691, ,0.013351567571052622, ,3.107567205601717e-05, ,0.13819058205137338,-0.2481931891118273,0.09070011501000001,1.605176517374034,0.1381395012628603,-1.3110339759794112, ,0.01247494959359416,0.00027514373431434803,0.005395938861788619,-0.0032397276545579443,0.0,-0.0021876430674039175, ,0.3527541160583496
0.010073983166309858,0.02076241415659734,-0.08114732767332702, ,0.010298087460981504,0.02073337570776115,-0.08137792329456833, ,0.0003228626750442869, ,0.0016789118011600885,0.001259639670856562,-0.004932359221535234,0.001352977773144552,-0.012783484414229579,0.003056383491788895, ,0.005360373534254296, ,0.012854883107372424, ,3.2052741774387564e-05, ,0.13883929161280822,-0.24817002091320461,0.09094252124,1.605176517374034,0.13827613776262573,-1.3109820364028266, ,0.011989506198164345,0.00033394884541981785,0.005255299082810954,-0.0032397276545579443,0.0,-0.0021183602607219637, ,0.3960089683532715
0.010144102012911075,0.020808038946521487,-0.08134222435288344, ,0.010369209762524756,0.02077151109396188,-0.08157572104648508, ,0.00032638702313611344, ,0.001617248854848673,0.0010936363955615061,-0.004983167234220427,0.0031104882750175463,-0.006283675329598622,-0.006263156390752574, ,0.005351961332858653, ,0.007011398568336947, ,3.2885659499875806e-05, ,0.1393876056468782,-0.24810823905021082,0.09114992764,1.6049668274305493,0.13854941076215663,-1.3112048722102192, ,0.011481371101497852,0.002522768266508723,0.005260505785997359,0.0070645125244168955,0.0035689529057501734,-0.004658282457710179, ,0.437716007232666
0.010210962033829268,0.02084677220496304,-0.08151247143872378, ,0.010441632042717442,0.02080760597963349,-0.08177292553209986, ,0.00035011281176699317, ,0.0019142250681125064,0.0010749377391213327,-0.004604411484854966,0.0026422007315784705,-0.010666054268213456,-0.003558984965783058, ,0.005101014984906624, ,0.010988445581104884, ,3.3831610975614795e-05, ,0.13992047421519965,-0.24803101172146858,0.09133140824000001,1.6053862073175185,0.13868604726192205,-1.3113979688540565, ,0.01570101614137505,0.001709864072882164,0.00492846891089109,0.004494353146926067,0.004055320471775171,-0.003727629161100242, ,0.4806959629058838
0.010283857288214746,0.020890313964782758,-0.0817101944573992, ,0.010515332243652021,0.020841695642893135,-0.08196954504881919, ,0.0003510087256578516, ,0.0014805584408567754,0.0008710012160441022,-0.003958023746744969,0.004793687251055159,-0.0047110424431271135,0.007884988720382766, ,0.004314701425932, ,0.006721112808939271, ,3.463516935414412e-05, ,0.14049195644789228,-0.24793061619410367,0.09154140722000001,1.6055958972610032,0.13895932026145294,-1.3115391259213087, ,0.012076475128336827,0.001879158065907994,0.004210629532117368,-0.006147459544632563,0.009154956030081223,-0.007487917491031543, ,0.5224440097808838
0.010357044321383456,0.020928842008207674,-0.08190358082790472, ,0.010590288479511323,0.020873815117032155,-0.08216558779768673, ,0.0003550752712701533, ,0.0020605379322650775,0.0011879013772869002,-0.0058787044413089575,0.00308255590337541,-0.006398107121336025,-0.005467220806977684, ,0.006341615895079819, ,0.007101965827316919, ,3.568777763256603e-05, ,0.14108660687920757,-0.24779160700236763,0.09174622104,1.6053862073175185,0.13936922976074928,-1.3118733796323978, ,0.015528872779982128,0.004150407578915751,0.006205224589014414,0.007041338500531806,0.007636001157289347,-0.00623357346077908, ,0.5592870712280273
0.010437041795255798,0.020972825329445815,-0.08213376429872432, ,0.01066647903603313,0.020903999191199688,-0.08236106188376886, ,0.0003302161064037773, ,0.001940003791137837,0.0009679665647018352,-0.0052380005282228964,0.0038013054245844323,-0.0029091518001885548,-0.004963978762521842, ,0.005668970233973115, ,0.004786761241644193, ,3.639305537796792e-05, ,0.1416967027762713,-0.24759853868051201,0.09198862727000001,1.6058055872044876,0.1397791392600456,-1.3119625971230653, ,0.015468124133410071,0.004772039776751745,0.0055250820395421445,0.007314623953050843,0.01110758203007946,-0.007523348914140531, ,0.596580982208252
0.010499192909067458,0.020999671404421685,-0.08228327437502177, ,0.01074388236997577,0.02093228241108801,-0.08255597531654167, ,0.00037253189421574214, ,0.0019978488770073556,0.0005894141843744064,-0.0038763357453674573,-0.0027717151112928795,-0.010956959195183849,0.009678817395912757, ,0.004400544060331038, ,0.011302095318474975, ,3.736644799424863e-05, ,0.14219868041309588,-0.24745180675590173,0.09214677465000001,1.6060152771479719,0.139915775759811,-1.3120740150267618, ,0.018274011468991103,0.004962549194397009,0.004128774370139969,-0.008335953413957205,0.00965767462938375,-0.0032845778104811495, ,0.6356220245361328
0.010577073011649963,0.02103216745624548,-0.08248138659619751, ,0.010822477108582185,0.020958699079615544,-0.08275033601027712, ,0.0003714223478595791, ,0.0019324963809105732,0.0006633788942431914,-0.004723853388772922,-0.005124464077282312,-0.006648493333891665,0.01003202528420533, ,0.005146785857035554, ,0.008394199982006415, ,3.822470746221613e-05, ,0.14284738997453075,-0.24722784750254923,0.09235547734,1.6060152771479719,0.14046232175887277,-1.3123563291612663, ,0.016218926945559868,0.006488637025110137,0.004957613295985062,-0.008335953413957205,0.011980794092925412,-0.0024483375621185523, ,0.673166036605835
0.010643179771228167,0.02105701348543902,-0.08263741974668085, ,0.010902242049044823,0.020983283257612066,-0.08294415178442886, ,0.00040820822292553043, ,0.002327611478548796,0.0009619652531057865,-0.005808080332915632,-0.004441547635906942,-0.008548498683655065,-0.005501619777668194, ,0.006330635789307133, ,0.009633492021954819, ,3.955948341857608e-05, ,0.1433957040086007,-0.24704250191356783,0.09252010617,1.6060152771479719,0.14073559475840366,-1.3125791649686591, ,0.018618195322438844,0.006518704787304064,0.006119405117172494,0.0069804329526557945,0.008629362605231372,-0.0010436219565880664, ,0.7045731544494629
0.010727982240516049,0.02109367389468356,-0.08286180937073254, ,0.010983156157971342,0.02100606876450288,-0.08313743036401931, ,0.00038568811094437936, ,0.0022229918029113,0.0009118366371784885,-0.0061028463305729955,0.010973217992985342,0.005333280580419598,-0.0030429378069878428, ,0.006558801105636615, ,0.012200630574088035, ,4.061899206452553e-05, ,0.14407530450153244,-0.24678765172871844,0.09275603095000001,1.6062249670914566,0.14128214075746542,-1.3128614791031639, ,0.018252922015478127,0.007897813404745985,0.006394544969891611,0.007715509934076427,0.022386288889648713,-0.017714979210292976, ,0.736152172088623
0.010803629717108024,0.021118926448595397,-0.08303514187588347, ,0.011065198570847742,0.021027089178992184,-0.08333017938002518, ,0.00040484500513783556, ,0.002563102910429774,0.0008808447451368261,-0.006109037196481928,0.007169583265107129,-0.005307681005724223,-0.003529571640833196, ,0.006683241688169635, ,0.008920448046209195, ,4.172262941213294e-05, ,0.1447162913300931,-0.2465559697424917,0.09293880784000001,1.6062249670914566,0.14169205025676176,-1.3131140540741124, ,0.02116817790731001,0.008029106173927207,0.00635120076555024,0.006288786127439207,0.014998066034026394,-0.014527714061573372, ,0.7684271335601807
0.010887148935451665,0.021141718098368265,-0.08321628255787906, ,0.011148348591504658,0.021046377839748356,-0.0835224063697638, ,0.00041355388214687545, ,0.0026383562399296804,0.0006342172851417158,-0.005846411799043491,0.002396439750571968,-0.009517395056518455,0.0013154542284208226, ,0.006445439173364633, ,0.009814465105625962, ,4.279643273893608e-05, ,0.1454190600216475,-0.2462702286261454,0.09312936247,1.606434657034941,0.14196532325629263,-1.3132552111413647, ,0.022428962788577353,0.010240409413880953,0.006124110542099193,0.00045861886455439486,0.013202697335466822,-0.012464983690249716, ,0.7997951507568359
0.010966361656802134,0.021167243276658382,-0.08340855496164191, ,0.011232585691581028,0.021063967846087533,-0.08371411877728, ,0.00041822278355064596, ,0.0031174791221905656,0.001129495606410061,-0.00790268569800106,0.00042624824781159736,-0.004228440007940283,-0.0036538632792476487, ,0.008570115380995998, ,0.0042498660739614886, ,4.4097328406808476e-05, ,0.14612182871320195,-0.2459844875097991,0.09333158371000001,1.6066443469784255,0.14292177875465073,-1.3138717789869585, ,0.02509173494406948,0.010684509515493953,0.00829193728266528,0.0072259251409305504,0.01970640696798663,-0.009975959211571628, ,0.8262410163879395
0.011065020750121904,0.021200108680493844,-0.08365228076935705, ,0.01131788950998921,0.021079892058657634,-0.08390532395373144, ,0.00045748814791668295, ,0.0030799630918688327,0.0010269032726920816,-0.008004990270162111,-0.013985072295868612,-0.007585307019444176,-0.004179290588301183, ,0.008638319987366177, ,0.015909717056867247, ,4.5560300665343294e-05, ,0.14690182473349864,-0.24563696453045897,0.09358695284000002,1.6066443469784255,0.14333168825394704,-1.3139609964776262, ,0.023837463340484998,0.012011342657994709,0.008357193871983212,0.006406761841612023,0.015159673054952912,0.003010964748134508, ,0.8529391288757324
0.011125566665682164,0.02121510712136742,-0.08379229222095616, ,0.011404239852379688,0.021094183100123235,-0.0840960291577752, ,0.0004295782707333197, ,0.0029257604441945127,0.0005012990260350766,-0.006110814107415664,-0.0014530137908102746,0.0014227948190700113,0.0028983323710209, ,0.006793631131118858, ,0.0020336139388692194, ,4.6768544781550495e-05, ,0.14741152510319744,-0.2453898370784838,0.09373343361000001,1.6068540369219102,0.14374159775324336,-1.3141318927084344, ,0.026641477136010883,0.012512782378490345,0.0064048297225572995,0.002312229053279735,0.028368280139348424,-0.010594639823932788, ,0.8792791366577148
0.01118735028125246,0.02122650104756427,-0.08392628246087262, ,0.011491616690605553,0.021106873355849074,-0.08428624155595447, ,0.0004862708942738362, ,0.003376928929812345,0.000583890878125016,-0.006802302135914604,-0.012268940862896779,-0.016156490770809516,-0.0025820692333786, ,0.007616816388940299, ,0.02028691916877838, ,4.8518233174226725e-05, ,0.14794439367151893,-0.24511954142788595,0.09387343293000001,1.6070637268653947,0.1441515072525397,-1.3144661464195235, ,0.028905556368708736,0.013597498432221059,0.007130175255147718,0.0037241156317428096,0.012218311896778187,-0.0006460595824186923, ,0.9001970291137695
0.011253614413379609,0.0212387056493424,-0.08407544740631324, ,0.011580000162187055,0.02111799497458402,-0.08447596822308366, ,0.0005305804827654924, ,0.003441702921874111,0.0007477457333942676,-0.00834963080741171,0.005862861264915881,0.005594698834701458,0.002614305877358515, ,0.009062051495347225, ,0.008103934641912424, ,5.044113346033292e-05, ,0.14851587590421156,-0.24481835484579118,0.09402898773000001,1.6070637268653947,0.14469805325160143,-1.3149118180343093, ,0.029280142412363704,0.016086953985162026,0.008694766113537119,0.0037241156317428096,0.03503635049115545,-0.021237474032730012, ,0.9215891361236572
0.011330943533394828,0.021258861385885813,-0.08426725268846343, ,0.011669370569776481,0.021127579869145856,-0.08466521614263572, ,0.0005386488712030866, ,0.004193218525263305,0.001164646993847817,-0.010244932868646613,-0.018860954129889567,-0.029969810323584152,-0.006061516720297049, ,0.01113095385418365, ,0.03541080355851827, ,5.232316886458853e-05, ,0.14911052633552682,-0.24448627733219952,0.09422861639,1.6070637268653947,0.1449713262511323,-1.3150529751015614, ,0.03087083329813623,0.016754403523741312,0.010676147131367292,0.0037241156317428096,0.0,0.0028292826846260002, ,0.9424340724945068
0.011454230806268995,0.02128771800933556,-0.08456030805803352, ,0.011759708380622371,0.021135659717104727,-0.08485399220712736, ,0.0004502095646451225, ,0.004406301775876696,0.0006641562757056236,-0.009038422386726688,-0.0009660647013382547,-0.01809566039423152,-0.003645579913964272, ,0.010077186022870445, ,0.01812142780771638, ,5.3639654597849564e-05, ,0.15012992707492448,-0.24395340876387803,0.09453454083000001,1.6072734168088794,0.1459277817494904,-1.3156695429471554, ,0.03714166010116273,0.019044138382193612,0.00944769366548043,0.005476002004228505,0.01827434252117825,-0.017069877447651212, ,0.9639830589294434
0.011497498578767692,0.021293693633542683,-0.08465100645264885, ,0.01185099422603497,0.02114226596146779,-0.08504230321850628, ,0.0005486371036280897, ,0.004697995827641288,0.0006843056281361904,-0.009377483949292038,-0.008457046163272357,-0.027683326495333567,-0.006676048492831074, ,0.010510787040391581, ,0.02894629722674946, ,5.572416072599226e-05, ,0.15050061825288724,-0.2437526177091482,0.09462917000000001,1.6074831067523636,0.14620105474902126,-1.315892378754548, ,0.03897204992134323,0.019799069801475232,0.009808381477832513,0.0064159219329261484,0.01004429382920116,-0.010183647024740422, ,0.9796571731567383
0.011588996387821288,0.021308870412351317,-0.0848611945422191, ,0.011943208900849517,0.02114742981136271,-0.08523015588853679, ,0.0005363413531603676, ,0.004676707630506014,0.0008810971080780119,-0.010839720013884783,0.018430948954180532,0.006051627907925909,0.0016650425065837143, ,0.011838389094573253, ,0.019399018790467445, ,5.767743517563454e-05, ,0.1513037824718066,-0.2433124219353174,0.09484824301000001,1.6074831067523636,0.1472941467471448,-1.3167837219841196, ,0.03968922691696812,0.021611692452395984,0.011305047210787794,0.0064159219329261484,0.045561283350448734,-0.038858526874992735, ,0.9955191612243652
0.011641762787476697,0.021318629962775976,-0.08497807396722952, ,0.01203633336289178,0.02115118224272187,-0.08541755683918541, ,0.0006138972818617973, ,0.0053097415738976176,0.0009142346608826275,-0.011650672397570547,-0.010751105300797887,-0.026293083051987836,-0.006983297528895878, ,0.012836173413920838, ,0.028406201205118616, ,5.997360692737878e-05, ,0.1517208100470147,-0.24308073994909066,0.09497009427000001,1.607692796695848,0.14743078324691022,-1.316895139887816, ,0.04219517188015597,0.023524279017964993,0.012140862439024392,0.007270850742613047,0.014591300014389168,-0.011434699669067731, ,1.0111379623413086
0.011747044468086727,0.021336611796916476,-0.08521807420738133, ,0.012130348732442295,0.021153553998966724,-0.08560451260300865, ,0.0005742533849080879, ,0.0054348609524096465,0.0008980689843932674,-0.01241124264945346,0.037493326269829534,0.025194679144757478,0.007186350032914672, ,0.013578777028008405, ,0.04517212721899697, ,6.199582520494777e-05, ,0.15260892432755055,-0.2425864850451403,0.09522027824000001,1.6079024866393328,0.14838723874526832,-1.3175117077334098, ,0.048244505113609955,0.02586452481833491,0.012960790496338487,0.007114165100564465,0.07395133796424029,-0.06199457390626906, ,1.027034044265747
0.011809316621889191,0.021345668470714365,-0.08534958434059707, ,0.012225236291701443,0.021154575591691722,-0.08579102962353807, ,0.0006359084823940916, ,0.006194275123038162,0.0008107611882481242,-0.012764089940245619,-0.0009343822820194941,-0.012814648843342966,-0.0015684976684402169, ,0.01421085395065822, ,0.012848655821624238, ,6.459438780385232e-05, ,0.1531340701629978,-0.24230846666166822,0.09535768498000001,1.6079024866393328,0.14879714824456466,-1.3177642827043585, ,0.05254537184854417,0.02785351968255673,0.013340713165829148,0.007114165100564465,0.03919611644656621,-0.02553627284527029, ,1.0374960899353027
0.011865768921347787,0.021352038823009643,-0.08547528352195352, ,0.012320977484252772,0.021154277301347675,-0.085977114255667, ,0.0007058034715779472, ,0.006021262853518935,0.0007696982016836987,-0.014023378439356428,0.029281186777371623,0.04815177811462052,0.010334001130154124, ,0.015280810990462803, ,0.056355843462425594, ,6.749194909013493e-05, ,0.15364377053269662,-0.24201500281244767,0.09548861027000001,1.6081121765828172,0.1496169672431573,-1.3182694326462558, ,0.054885449137345735,0.0317912702038428,0.014600193877176905,0.01031464082835007,0.10366180557991074,-0.05914314346646107, ,1.0479810237884521
0.011930003865651623,0.02136123575285596,-0.08562712188395123, ,0.012417553914528893,0.021152689177926724,-0.08616277276603611, ,0.0007537364204768467, ,0.006625892727521818,0.001124845068770223,-0.01594548709451296,0.05850708612311683,0.05092822387944501,0.011700828768342053, ,0.017303938555908092, ,0.07756779024374852, ,7.057031984782934e-05, ,0.15422297549826347,-0.24168292529885604,0.09564675765000001,1.6081121765828172,0.1507100592412808,-1.3188340609152651, ,0.058905612388870744,0.0331807487966681,0.016627151899791234,0.01031464082835007,0.11064482813515678,-0.08974194587570042, ,1.060007095336914
0.011999811004643098,0.021372137288815166,-0.08578884973904449, ,0.01251494734727523,0.02114984104164575,-0.08634801133342077, ,0.0007921128465259426, ,0.00711150312007252,0.0013304811206785456,-0.01663881157859698,-0.018500768290645415,0.004148778484106813,-0.00011541914662334952, ,0.0181436960784548, ,0.018960208726615017, ,7.37770794873874e-05, ,0.15481762592957873,-0.24134312505239014,0.09581527535,1.6081121765828172,0.15152987823987346,-1.3191758533768811, ,0.05786398875516511,0.03267801017853677,0.017351646535947715,0.01031464082835007,0.06136419117285847,-0.012240076033361264, ,1.0708019733428955
0.01207502651350031,0.021385629410168368,-0.08596278778177133, ,0.012613139707014907,0.021145762483630516,-0.08653283604911667, ,0.0008197908139181736, ,0.007833937036469231,0.0011834411165269423,-0.017999009309850537,-0.01968469046277217,0.007615036984623502,0.003817217690887201, ,0.019665590214985595, ,0.021106253524590137, ,7.705628268223326e-05, ,0.15543544455951672,-0.24099560207305004,0.09599675595000001,1.608321866526302,0.15221306073870067,-1.3193245491946608, ,0.06455574255678284,0.0380196079961822,0.01873977825882353,0.008078838913359967,0.07238092730824189,-0.01665181303154309, ,1.0811779499053955
0.012159493368077453,0.021397786394197815,-0.08616231264473863, ,0.012712113077513095,0.0211404828665994,-0.0867172529173261, ,0.0008243496556139144, ,0.008168318533485397,0.0013281004323948342,-0.019498871024746983,0.016035062411524255,0.02527902434960673,0.001027446767446314, ,0.021182333432904075, ,0.02993575587686684, ,8.029414302160258e-05, ,0.15613821325107113,-0.24056312903209348,0.09620416235000001,1.6085315564697864,0.15316951623705874,-1.320022795780395, ,0.06735056178741716,0.04053692505701443,0.020291479643312103,0.015305598403675338,0.09167897687172509,-0.053744988417938906, ,1.0917460918426514
0.012236362179115487,0.021409857161145372,-0.08634283381729005, ,0.012811849701241476,0.02113403132554771,-0.08690126785554425, ,0.0008480061053947398, ,0.008682725582982208,0.001141225633343937,-0.019771952158795812,0.014831232237928064,0.015662352596083697,0.004659990621803286, ,0.02162457425396591, ,0.021570158016676264, ,8.398506591762728e-05, ,0.15677147734675756,-0.24018471512125647,0.09639212440000001,1.6087412464132707,0.1539893352356514,-1.3203645882420112, ,0.07200071438427222,0.043213543514786325,0.020579859844961242,0.010049279807762096,0.08785162222106645,-0.05595968412484418, ,1.097114086151123
0.012236362179115487,0.021409857161145372,-0.08634283381729005, ,0.012912331978843374,0.021126436768431563,-0.08708488669494589, ,0.001043026731386846, ,0.008682725582982208,0.001141225633343937,-0.019771952158795812,0.014831232237928064,0.015662352596083697,0.004659990621803286, ,0.02162457425396591, ,0.021570158016676264, ,0.00047466462672444406, ,0.15677147734675756,-0.24018471512125647,0.09639212440000001,1.6087412464132707,0.1539893352356514,-1.3203645882420112, ,0.07200071438427222,0.043213543514786325,0.020579859844961242,0.010049279807762096,0.08785162222106645,-0.05595968412484418, ,1.102410078048706
0.012336290689267636,0.021418399078959538,-0.08655441455708558, ,0.013013542468597428,0.021117727876851487,-0.08726811518077127, ,0.0010288059703519436, ,0.009929033171216696,0.0005303596344862042,-0.020068842430641016,0.0028763268378776733,0.0066351494948136466,0.004525720639000089, ,0.022396995726277912, ,0.007231542673761037, ,0.0004885181603151316, ,0.15762097796292224,-0.2396827374844319,0.09661249370000001,1.6087412464132707,0.15494579073400946,-1.3209811560876052, ,0.08564705916829492,0.050855810052771046,0.020903952125984254,0.010049279807762096,0.09259673483034296,-0.051548347485806056, ,1.1077311038970947
0.012336290689267636,0.021418399078959538,-0.08655441455708558, ,0.01311546388588282,0.021107933106736865,-0.08745095897271292, ,0.00122771815960515, ,0.009929033171216696,0.0005303596344862042,-0.020068842430641016,0.0028763268378776733,0.0066351494948136466,0.004525720639000089, ,0.022396995726277912, ,0.007231542673761037, ,0.0005065474285904979, ,0.15762097796292224,-0.2396827374844319,0.09661249370000001,1.6087412464132707,0.15494579073400946,-1.3209811560876052, ,0.08564705916829492,0.050855810052771046,0.020903952125984254,0.010049279807762096,0.09259673483034296,-0.051548347485806056, ,1.1130220890045166
0.012438555941768315,0.021426035016785146,-0.08678008160670751, ,0.01321807910264337,0.02109708068902946,-0.08763342364530113, ,0.001201690452205122, ,0.010975850253957128,0.001279110565433979,-0.02605062146004503,0.09470853538140032,0.07568465182709366,0.02213384863261056, ,0.028297354842643053, ,0.1212347359414253, ,0.0005230984529622747, ,0.15850909224345805,-0.23913442345036195,0.09684712219000001,1.6087412464132707,0.15631215573166388,-1.3220136563844287, ,0.09442481747111521,0.058759716135276016,0.027089815510204087,0.010049279807762096,0.17269381999199016,-0.15117394753277677, ,1.118246078491211
0.012438555941768315,0.021426035016785146,-0.08678008160670751, ,0.0133213711468525,0.021085198630367556,-0.08781551468829106, ,0.0014027308348616397, ,0.010975850253957128,0.001279110565433979,-0.02605062146004503,0.09470853538140032,0.07568465182709366,0.02213384863261056, ,0.028297354842643053, ,0.1212347359414253, ,0.0005435550199831902, ,0.15850909224345805,-0.23913442345036195,0.09684712219000001,1.6087412464132707,0.15631215573166388,-1.3220136563844287, ,0.09442481747111521,0.058759716135276016,0.027089815510204087,0.010049279807762096,0.17269381999199016,-0.15117394753277677, ,1.1234910488128662
0.012616747861484503,0.021456965885264634,-0.08722146111919307, ,0.013425323201977181,0.02107231471376957,-0.08799723750704976, ,0.0011847276518007581, ,0.013540586474222259,0.002874807132210964,-0.034208237083756296,0.08630034239003444,0.08485711766763633,0.01057700449597272, ,0.036902784210568466, ,0.12103070962177626, ,0.0005581271252517713, ,0.15979106590057934,-0.23835442743006527,0.09723860177000002,1.6093703162437245,0.1587716127274418,-1.3237741424305425, ,0.10808307694586651,0.06235015871121602,0.034779064454148474,0.026152766335530455,0.1998083195427505,-0.15862454101386753, ,1.129296064376831
0.012616747861484503,0.021456965885264634,-0.08722146111919307, ,0.013529918606443104,0.02105845649931838,-0.08817859742294037, ,0.0013815934438490053, ,0.013540586474222259,0.002874807132210964,-0.034208237083756296,0.08630034239003444,0.08485711766763633,0.01057700449597272, ,0.036902784210568466, ,0.12103070962177626, ,0.0005764263767761543, ,0.15979106590057934,-0.23835442743006527,0.09723860177000002,1.6093703162437245,0.1587716127274418,-1.3237741424305425, ,0.10808307694586651,0.06235015871121602,0.034779064454148474,0.026152766335530455,0.1998083195427505,-0.15862454101386753, ,1.1347191333770752
0.012720606824461293,0.021478351457181397,-0.08748773146573086, ,0.01363514085309873,0.021043651324844925,-0.08835959967371083, ,0.0013362226111974693, ,0.014586261016684763,0.002934838998272553,-0.03723154465486416,0.04967937942493523,0.05485121432550525,0.00020498964285560955, ,0.040094391225953076, ,0.07400422225782356, ,0.0005929436862200959, ,0.16082591210572542,-0.2377366088001273,0.09758471120000001,1.609580006187209,0.16054788722439253,-1.3250592176983151, ,0.1121713257192326,0.07050292834953252,0.03875623240875913,0.028528847142655574,0.16501437361703764,-0.11473638188310809, ,1.1400129795074463
0.012720606824461293,0.021478351457181397,-0.08748773146573086, ,0.013740973588680127,0.021027926306612044,-0.08854024941387922, ,0.001533566164520556, ,0.014586261016684763,0.002934838998272553,-0.03723154465486416,0.04967937942493523,0.05485121432550525,0.00020498964285560955, ,0.040094391225953076, ,0.07400422225782356, ,0.0006129569304392546, ,0.16082591210572542,-0.2377366088001273,0.09758471120000001,1.609580006187209,0.16054788722439253,-1.3250592176983151, ,0.1121713257192326,0.07050292834953252,0.03875623240875913,0.028528847142655574,0.16501437361703764,-0.11473638188310809, ,1.1452751159667969
0.012893858307062332,0.021508502414328105,-0.08791914610743351, ,0.013847400613275516,0.021011308339998706,-0.0887205517151197, ,0.0013411546612219973, ,0.016621676219526704,0.00247385756785407,-0.04079074904355944,0.0071487160007938045,0.03154214166269165,-0.00445833660471681, ,0.044116723576750956, ,0.03234034494822488, ,0.0006281277164972284, ,0.1621387766943436,-0.2368871081839626,0.09803322754,1.609580006187209,0.1621875252215778,-1.3259061601018285, ,0.12619274143413667,0.08450306461128297,0.04236386042553192,0.028528847142655574,0.15543415920956055,-0.08600395134379067, ,1.15061616897583
0.012893858307062332,0.021508502414328105,-0.08791914610743351, ,0.01395440587978973,0.02099382410018357,-0.0889005115666503, ,0.001533862146873836, ,0.016621676219526704,0.00247385756785407,-0.04079074904355944,0.0071487160007938045,0.03154214166269165,-0.00445833660471681, ,0.044116723576750956, ,0.03234034494822488, ,0.0006466120926273633, ,0.1621387766943436,-0.2368871081839626,0.09803322754,1.609580006187209,0.1621875252215778,-1.3259061601018285, ,0.12619274143413667,0.08450306461128297,0.04236386042553192,0.028528847142655574,0.15543415920956055,-0.08600395134379067, ,1.155912160873413
0.013061351238755842,0.021528027525965367,-0.08831584794083412, ,0.014061973493408462,0.02097550004282871,-0.08908013387561792, ,0.0013750143658288667, ,0.017476957334856286,0.001526038803219074,-0.039786229694011924,0.04002875140773539,0.056703425460230654,0.006119796931450823, ,0.04348237465201266, ,0.06940806657266471, ,0.0006611801380913934, ,0.16345164128296175,-0.23602216210204946,0.09844544776000001,1.609580006187209,0.16396379971852854,-1.3271095566294604, ,0.1403800910628266,0.0916878662400684,0.04137353641558442,0.02592508803521956,0.19648924571117934,-0.12634851601393335, ,1.1612319946289062
0.013061351238755842,0.021528027525965367,-0.08831584794083412, ,0.014170087711063772,0.02095636240476415,-0.08925942346748608, ,0.0015641075251786114, ,0.017476957334856286,0.001526038803219074,-0.039786229694011924,0.04002875140773539,0.056703425460230654,0.006119796931450823, ,0.04348237465201266, ,0.06940806657266471, ,0.000678884596661731, ,0.16345164128296175,-0.23602216210204946,0.09844544776000001,1.609580006187209,0.16396379971852854,-1.3271095566294604, ,0.1403800910628266,0.0916878662400684,0.04137353641558442,0.02592508803521956,0.19648924571117934,-0.12634851601393335, ,1.1665990352630615
0.013190122399474905,0.021534365286305358,-0.08859383521447592, ,0.01427873294089742,0.020936437204670928,-0.08943838508642035, ,0.0015019505277819934, ,0.01777620068880284,0.0002452049999234079,-0.03654496405371322,0.04250892951459574,0.044292672686877026,0.016663045057088936, ,0.04063973221008934, ,0.06139042888529783, ,0.000694712787644813, ,0.1645019329538563,-0.23533483887624349,0.09873452043000001,1.6097896961306934,0.16533016471618295,-1.327978699446003, ,0.14850851574095583,0.09643998125860852,0.03801625661097852,0.013449125385381375,0.1950529217332488,-0.13544843033127676, ,1.172631025314331
0.013440316350913254,0.02152394400581122,-0.08906750829974656, ,0.014387893741725985,0.02091575024376525,-0.08961702339567527, ,0.001252904387582959, ,0.019615501506011674,-0.002006827860827288,-0.033751551696359,0.009149298420522887,0.004217961213504277,0.0062646912204920874, ,0.0390891608928528, ,0.010072589484839502, ,0.000705244704624778, ,0.166625684494268,-0.23393702422600884,0.09922711063,1.6102090760176624,0.16778962171196088,-1.329739185492117, ,0.17006620350980425,0.11283821826215314,0.03508548792951543,0.016206074750834826,0.17532715644370933,-0.11773502291093782, ,1.1778950691223145
0.013440316350913254,0.02152394400581122,-0.08906750829974656, ,0.014497554822506059,0.020894327106482737,-0.08979534297798086, ,0.001429655183803538, ,0.019615501506011674,-0.002006827860827288,-0.033751551696359,0.009149298420522887,0.004217961213504277,0.0062646912204920874, ,0.0390891608928528, ,0.010072589484839502, ,0.0007186597134984587, ,0.166625684494268,-0.23393702422600884,0.09922711063,1.6102090760176624,0.16778962171196088,-1.329739185492117, ,0.17006620350980425,0.11283821826215314,0.03508548792951543,0.016206074750834826,0.17532715644370933,-0.11773502291093782, ,1.1831109523773193
0.013634094609199352,0.021497264852860777,-0.08937371644695492, ,0.014607701041797462,0.02087219316116153,-0.08997334833592907, ,0.0013031433181484233, ,0.019797102374924446,-0.0032224002064195475,-0.029438722816756493,0.002685535561162084,-0.012770908517474647,-0.036610120167957436, ,0.03562228974413901, ,0.013049371452390185, ,0.0007292866881284581, ,0.16834013119234587,-0.23281722795924628,0.09954599797000001,1.6106284559046316,0.16942925970914616,-1.330912842856193, ,0.17671683716661224,0.11488733844851184,0.030691351676300584,0.055370253139250404,0.15540767469238057,-0.10682537907235279, ,1.1883490085601807
0.013634094609199352,0.021497264852860777,-0.08937371644695492, ,0.014718317407229332,0.0208493735607268,-0.09015104389236006, ,0.001483084677141218, ,0.019797102374924446,-0.0032224002064195475,-0.029438722816756493,0.002685535561162084,-0.012770908517474647,-0.036610120167957436, ,0.03562228974413901, ,0.013049371452390185, ,0.000742747366503686, ,0.16834013119234587,-0.23281722795924628,0.09954599797000001,1.6106284559046316,0.16942925970914616,-1.330912842856193, ,0.17671683716661224,0.11488733844851184,0.030691351676300584,0.055370253139250404,0.15540767469238057,-0.10682537907235279, ,1.1937310695648193
0.013828471162672863,0.02145558582736217,-0.08965609140689348, ,0.01482938907496331,0.02082589324337417,-0.09032843399074893, ,0.0013602918685115947, ,0.02026333930946329,-0.004860851471777194,-0.028734092474795782,-0.02137852875378194,-0.0027864876387306723,-0.02280556322115823, ,0.03549477239469545, ,0.02155890575046642, ,0.0007535814805740002, ,0.17009319155479483,-0.23161248163086728,0.09983895951,1.6106284559046316,0.17106889770633144,-1.332004821480128, ,0.18390880146990463,0.12964063054435898,0.02977347947663552,0.04303898490631754,0.17599031453938924,-0.09922782580232824, ,1.200679063796997
0.013828471162672863,0.02145558582736217,-0.08965609140689348, ,0.014940901349159126,0.02080177693325363,-0.09050552289559272, ,0.0015448303608536073, ,0.02026333930946329,-0.004860851471777194,-0.028734092474795782,-0.02137852875378194,-0.0027864876387306723,-0.02280556322115823, ,0.03549477239469545, ,0.02155890575046642, ,0.0007672237026477866, ,0.17009319155479483,-0.23161248163086728,0.09983895951,1.6106284559046316,0.17106889770633144,-1.332004821480128, ,0.18390880146990463,0.12964063054435898,0.02977347947663552,0.04303898490631754,0.17599031453938924,-0.09922782580232824, ,1.206284999847412
0.014036802882778964,0.021402312785559922,-0.08994672376621857, ,0.015052839681438451,0.0207770491411533,-0.09068231479279566, ,0.0014015632556640518, ,0.020623147982395753,-0.005572224671672596,-0.027777198546370282,-0.02430666357411115,-0.03262329079236608,-0.020079197671390287, ,0.03504192745240858, ,0.04068263093484536, ,0.0007779752204955198, ,0.17190031104736336,-0.23032278524087177,0.10012932847000001,1.6106284559046316,0.1727085357035167,-1.333178478844204, ,0.18534558898138823,0.133469678703897,0.028804360795660042,0.03288097191437414,0.14960236431725307,-0.10171002731228526, ,1.2115731239318848
0.014036802882778964,0.021402312785559922,-0.08994672376621857, ,0.015165189670350174,0.020751734165183645,-0.090858813790057, ,0.0015900998381364526, ,0.02245123429430097,-0.006231741934860794,-0.029128127027888782,-0.05259714356642017,-0.08767815954117493,-0.025907939890464148, ,0.03504192745240858, ,0.10224430646052972, ,0.0007915106307895354, ,0.17397000345765554,-0.22882457506327222,0.10044303065000001,1.6106284559046316,0.17393826420140568,-1.3338545250169096, ,0.19729093879099954,0.14356572096591644,0.030168203636363643,0.026246245340647106,0.10642637382175017,-0.0843789541951645, ,1.217621088027954
0.014261965550598358,0.02133963748203995,-0.09023973835260551, ,0.015277937060834345,0.020725856091460743,-0.09103502391725654, ,0.0014287773914696581, ,0.02245123429430097,-0.006231741934860794,-0.029128127027888782,-0.05259714356642017,-0.08767815954117493,-0.025907939890464148, ,0.03730067443134404, ,0.10224430646052972, ,0.0008019576268662588, ,0.17397000345765554,-0.22882457506327222,0.10044303065000001,1.6106284559046316,0.17393826420140568,-1.3338545250169096, ,0.19729093879099954,0.14356572096591644,0.030168203636363643,0.026246245340647106,0.10642637382175017,-0.0843789541951645, ,1.2231850624084473
0.014479238355632187,0.02128288544521756,-0.09052936678888535, ,0.01539106774368747,0.02069943879479046,-0.09121094912684222, ,0.0012792174601023191, ,0.023303041858871994,-0.005733349130218493,-0.03184217500030187,-0.03394962473624993,-0.07053760127479566,0.005462793890099877, ,0.0398726367434506, ,0.0782821657738073, ,0.0008096553661120017, ,0.17587751847758898,-0.2274576513445345,0.10074376993,1.610838145848116,0.17516799269929464,-1.3348572861501775, ,0.20277124264630508,0.14400142876854444,0.03311603226611227,0.0,0.1357394508528009,-0.10783278731615212, ,1.2284271717071533
0.014479238355632187,0.02128288544521756,-0.09052936678888535, ,0.01550456775502616,0.020672505939352017,-0.09138659329421578, ,0.0014692517823311614, ,0.023303041858871994,-0.005733349130218493,-0.03184217500030187,-0.03394962473624993,-0.07053760127479566,0.005462793890099877, ,0.0398726367434506, ,0.0782821657738073, ,0.0008201251504964328, ,0.17587751847758898,-0.2274576513445345,0.10074376993,1.610838145848116,0.17516799269929464,-1.3348572861501775, ,0.20277124264630508,0.14400142876854444,0.03311603226611227,0.0,0.1357394508528009,-0.10783278731615212, ,1.233860969543457
0.014713669462462258,0.021220030676249533,-0.09084502027624265, ,0.015618423275753057,0.02064508097938227,-0.09156196021811938, ,0.0012896315353038664, ,0.02315971281796575,-0.006499919510554737,-0.029587804316049755,-0.015128523058780744,-0.06947369695295882,-0.0019844503455196776, ,0.038132131014397684, ,0.07110164627064344, ,0.0008274611877590489, ,0.1779317654221327,-0.22596716389980914,0.10107173130000001,1.6110478357916007,0.1766709941967145,-1.3360012043506977, ,0.20407944421176513,0.14577103157983223,0.03081008030947776,0.007111714539329303,0.1364922481815837,-0.12711755110800205, ,1.239182949066162
0.014713669462462258,0.021220030676249533,-0.09084502027624265, ,0.015732620631019986,0.020617187159858805,-0.09173705362102337, ,0.0014823647585396015, ,0.02315971281796575,-0.006499919510554737,-0.029587804316049755,-0.015128523058780744,-0.06947369695295882,-0.0019844503455196776, ,0.038132131014397684, ,0.07110164627064344, ,0.0008375366273095189, ,0.1779317654221327,-0.22596716389980914,0.10107173130000001,1.6110478357916007,0.1766709941967145,-1.3360012043506977, ,0.20407944421176513,0.14577103157983223,0.03081008030947776,0.007111714539329303,0.1364922481815837,-0.12711755110800205, ,1.2444109916687012
0.014949908543802947,0.021152202372304554,-0.09114766904968433, ,0.015847146289693376,0.020588847517184265,-0.09191187714951062, ,0.0013062994623279332, ,0.023925671852900513,-0.0071550786859451284,-0.03143569898890404,-0.016011673267031016,-0.05888013959726587,-0.005269427066110802, ,0.04014767858215123, ,0.06101814337894151, ,0.0008446390945067676, ,0.18000145783242488,-0.22446123098933538,0.10138672977000002,1.6114672156785694,0.17803735919436892,-1.337115383387662, ,0.20856470672191377,0.15633763024459765,0.03264100721311476,0.011534778133238738,0.15097112971432172,-0.13575913847930207, ,1.2496559619903564
0.014949908543802947,0.021152202372304554,-0.09114766904968433, ,0.01596198686381907,0.020560084879870127,-0.09208643437466554, ,0.0015020605800301727, ,0.023925671852900513,-0.0071550786859451284,-0.03143569898890404,-0.016011673267031016,-0.05888013959726587,-0.005269427066110802, ,0.04014767858215123, ,0.06101814337894151, ,0.000854451355484729, ,0.18000145783242488,-0.22446123098933538,0.10138672977000002,1.6114672156785694,0.17803735919436892,-1.337115383387662, ,0.20856470672191377,0.15633763024459765,0.03264100721311476,0.011534778133238738,0.15097112971432172,-0.13575913847930207, ,1.2548611164093018
0.01518804137863427,0.02108580788794709,-0.09147828934920138, ,0.016077129108085942,0.02053092186922002,-0.09226072879245888, ,0.0013078940961734654, ,0.023612620654101933,-0.006148606356570143,-0.03308541296599341,0.0029605441375987465,-0.03454308033089662,-0.029385331303406256, ,0.04110967970457689, ,0.034669144434940465, ,0.0008611196310830927, ,0.18204798204409436,-0.22291668441449047,0.10173024662,1.6116769056220543,0.1796769971915542,-1.338452398232019, ,0.20147970606894008,0.14920902760765847,0.034477947012987016,0.040132313077766865,0.16216736504389664,-0.14258538390674486, ,1.2601699829101562
0.01518804137863427,0.02108580788794709,-0.09147828934920138, ,0.016192559919291947,0.02050138090001426,-0.0924347638241351, ,0.0015051431240745822, ,0.023612620654101933,-0.006148606356570143,-0.03308541296599341,0.0029605441375987465,-0.03454308033089662,-0.029385331303406256, ,0.04110967970457689, ,0.034669144434940465, ,0.0008704533048945636, ,0.18204798204409436,-0.22291668441449047,0.10173024662,1.6116769056220543,0.1796769971915542,-1.338452398232019, ,0.20147970606894008,0.14920902760765847,0.034477947012987016,0.040132313077766865,0.16216736504389664,-0.14258538390674486, ,1.2655091285705566
0.015337032287933093,0.021048255775477503,-0.09168585134260648, ,0.016308266335807484,0.02047148418119315,-0.09260854281659943, ,0.0014585337170950371, ,0.024211788722494725,-0.006276526582328095,-0.033264395257539915,-0.02720526235495666,-0.06978222937565993,-0.03564959781145301, ,0.041618811743384, ,0.07489756409899462, ,0.0008788544536402846, ,0.18329906476971874,-0.22199767920245775,0.10194672705,1.6116769056220543,0.18049681619014685,-1.3391209056541973, ,0.20320544230935927,0.15039134953798858,0.03470329307189543,0.03829513064139244,0.1282071627918632,-0.11384698128720674, ,1.2709031105041504
0.015337032287933093,0.021048255775477503,-0.09168585134260648, ,0.016424235537040928,0.020441253716540823,-0.09278206904280259, ,0.001658962220982516, ,0.024211788722494725,-0.006276526582328095,-0.033264395257539915,-0.02720526235495666,-0.06978222937565993,-0.03564959781145301, ,0.041618811743384, ,0.07489756409899462, ,0.0008898418869831328, ,0.18329906476971874,-0.22199767920245775,0.10194672705,1.6116769056220543,0.18049681619014685,-1.3391209056541973, ,0.20320544230935927,0.15039134953798858,0.03470329307189543,0.03829513064139244,0.1282071627918632,-0.11384698128720674, ,1.2761969566345215
0.01568951091112366,0.020957941510995115,-0.09219178522934468, ,0.016540454842902255,0.02041071130536908,-0.09295534570213011, ,0.0012675137350658732, ,0.024537474821090935,-0.00545668321995288,-0.036961369888157125,0.010861019284043094,-0.01612432148346772,-0.013037681925778834, ,0.04469905956916494, ,0.019439302983227595, ,0.0008950873293176153, ,0.1862414259947983,-0.21978897760042954,0.10247431708000002,1.6116769056220543,0.18281963668615933,-1.3410966887571771, ,0.20233889458096116,0.14897479051565274,0.03866216388349515,0.027370213283729898,0.18477973439599452,-0.15234590313385038, ,1.2815051078796387
0.01568951091112366,0.020957941510995115,-0.09219178522934468, ,0.016656911713268694,0.020379878543201235,-0.09312837592078639, ,0.0014653406532341845, ,0.024537474821090935,-0.00545668321995288,-0.036961369888157125,0.010861019284043094,-0.01612432148346772,-0.013037681925778834, ,0.04469905956916494, ,0.019439302983227595, ,0.0009028990186863354, ,0.1862414259947983,-0.21978897760042954,0.10247431708000002,1.6116769056220543,0.18281963668615933,-1.3410966887571771, ,0.20233889458096116,0.14897479051565274,0.03866216388349515,0.027370213283729898,0.18477973439599452,-0.15234590313385038, ,1.2867460250854492
0.015938013507145382,0.02090115616421622,-0.09256622426101678, ,0.016773593747448776,0.02034877682245586,-0.09330116275218288, ,0.0012423573805417625, ,0.024393031768100037,-0.00601261535734488,-0.03576499618314925,-0.009460661971754242,-0.03539041803382641,-0.014317954825977065, ,0.04370705314083298, ,0.036632325825132594, ,0.0009074862938465439, ,0.18812577281610907,-0.21838344021732067,0.10283987086000002,1.6116769056220543,0.1844592746833446,-1.3424337036015341, ,0.19978303485993848,0.15063006596582662,0.03747955651764706,0.023107270924669805,0.16455623710128456,-0.13570617229404008, ,1.2919621467590332
0.015938013507145382,0.02090115616421622,-0.09256622426101678, ,0.016890488683646947,0.020317427333130515,-0.0934737091773246, ,0.00143926272216666, ,0.024393031768100037,-0.00601261535734488,-0.03576499618314925,-0.009460661971754242,-0.03539041803382641,-0.014317954825977065, ,0.04370705314083298, ,0.036632325825132594, ,0.0009145766462241454, ,0.18812577281610907,-0.21838344021732067,0.10283987086000002,1.6116769056220543,0.1844592746833446,-1.3424337036015341, ,0.19978303485993848,0.15063006596582662,0.03747955651764706,0.023107270924669805,0.16455623710128456,-0.13570617229404008, ,1.2972221374511719
0.016169236909793556,0.020842990159805973,-0.09290608012585955, ,0.017007584398429098,0.020285851063485728,-0.09364601810519549, ,0.0012492952803936368, ,0.023826322465988568,-0.006147335605542889,-0.035581275988762984,-0.021042545353342552,-0.04190442978516599,0.005120364703888609, ,0.04326095905419768, ,0.04689043527216605, ,0.0009189808387790071, ,0.19014912882915588,-0.21683889364247577,0.10322098012000001,1.6118865955655386,0.1860989126805299,-1.3437707184458914, ,0.1913244789485298,0.1499161793972682,0.03713009678321679,0.0,0.1530828337695086,-0.12621619005749918, ,1.3031301498413086
0.016169236909793556,0.020842990159805973,-0.09290608012585955, ,0.017124868906185434,0.020254068800728484,-0.09381809237314691, ,0.001446315048289184, ,0.023826322465988568,-0.006147335605542889,-0.035581275988762984,-0.021042545353342552,-0.04190442978516599,0.005120364703888609, ,0.04326095905419768, ,0.04689043527216605, ,0.000925829335006412, ,0.19014912882915588,-0.21683889364247577,0.10322098012000001,1.6118865955655386,0.1860989126805299,-1.3437707184458914, ,0.1913244789485298,0.1499161793972682,0.03713009678321679,0.0,0.1530828337695086,-0.12621619005749918, ,1.3086161613464355
0.01637025136171074,0.02078881097162829,-0.093206927449338, ,0.017242330358596566,0.020222101131696108,-0.09398993474728234, ,0.0013018380268372254, ,0.022857670463387936,-0.00642594902519436,-0.033097502340135324,-0.020981098728149492,-0.039155753394798765,-0.00714272428556487, ,0.04073340865975369, ,0.04442228957161881, ,0.0009306499592606532, ,0.1917631799998688,-0.21554919725248028,0.10353468230000001,1.6120962855090233,0.1874652776781843,-1.3448848974828556, ,0.1842659059387782,0.1462202489344696,0.034552736485900216,0.011534509135359177,0.1461178756253957,-0.12044041198721298, ,1.31392502784729
0.016634233764752742,0.02070676211808094,-0.09356524361939784, ,0.017359957044098824,0.020189968443540495,-0.09416154792284573, ,0.0010720675363708732, ,0.022277975161153277,-0.007558438463447288,-0.028710668070817805,-0.020100043843888492,-0.038792484368289706,-0.008635121149739716, ,0.03711792869166272, ,0.04369037763423486, ,0.0009324400551734408, ,0.19392554520465166,-0.21383475055440246,0.10390931011000001,1.6125156653959922,0.18910491567536958,-1.346303591067353, ,0.18570830050581366,0.14689929033819007,0.03005436135849057,0.012809903787472775,0.14770417289588464,-0.1216236271185453, ,1.3191990852355957
0.016634233764752742,0.02070676211808094,-0.09356524361939784, ,0.01747773738734595,0.020157690924410946,-0.09433293452460695, ,0.00126583050326133, ,0.022277975161153277,-0.007558438463447288,-0.028710668070817805,-0.020100043843888492,-0.038792484368289706,-0.008635121149739716, ,0.03711792869166272, ,0.04369037763423486, ,0.0009366074357745394, ,0.19392554520465166,-0.21383475055440246,0.10390931011000001,1.6125156653959922,0.18910491567536958,-1.346303591067353, ,0.18570830050581366,0.14689929033819007,0.03005436135849057,0.012809903787472775,0.14770417289588464,-0.1216236271185453, ,1.3244261741638184
0.01685752033287424,0.020631258943006898,-0.09385482705233704, ,0.017595659948676994,0.02012528856413883,-0.09450409710724884, ,0.0011056254885423505, ,0.021584300856029224,-0.007278884807727809,-0.027973566135669,-0.014921530323969898,-0.03275665694893541,-0.008215687236185836, ,0.03607470872833767, ,0.03599490953449965, ,0.0009386940784013025, ,0.19577900109446555,-0.2123674313082998,0.10421264197,1.6125156653959922,0.1906079171727894,-1.3476925454882949, ,0.17871363758657396,0.141426142412028,0.02933482784530387,0.012809903787472775,0.14668931229558738,-0.12137525043438671, ,1.3297181129455566
0.01685752033287424,0.020631258943006898,-0.09385482705233704, ,0.01771371342357879,0.02009278115492091,-0.09467503815575398, ,0.0013022177970679967, ,0.021584300856029224,-0.007278884807727809,-0.027973566135669,-0.014921530323969898,-0.03275665694893541,-0.008215687236185836, ,0.03607470872833767, ,0.03599490953449965, ,0.0009431272944826037, ,0.19577900109446555,-0.2123674313082998,0.10421264197,1.6125156653959922,0.1906079171727894,-1.3476925454882949, ,0.17871363758657396,0.141426142412028,0.02933482784530387,0.012809903787472775,0.14668931229558738,-0.12137525043438671, ,1.3349339962005615
0.01707246189282657,0.020558854663239222,-0.0941355013283486, ,0.017831886642152517,0.020060188292003386,-0.0948457600857909, ,0.0011531962548559482, ,0.021895997524752416,-0.007275717343655097,-0.029217555273975144,-0.014153707248344105,-0.033524405903914985,-0.00929965236300962, ,0.037229508547072174, ,0.03638944803015581, ,0.000945658245812403, ,0.19753978418978874,-0.21096189392519094,0.10450689980000001,1.6125156653959922,0.19197428217044385,-1.349051760745681, ,0.17804304232358495,0.14334885431793168,0.030632329846153848,0.012809903787472775,0.14518863940125779,-0.1239730917640636, ,1.3402290344238281
0.01707246189282657,0.020558854663239222,-0.0941355013283486, ,0.017950168568576015,0.020027529374365246,-0.09501626524410099, ,0.0013521910540096214, ,0.021895997524752416,-0.007275717343655097,-0.029217555273975144,-0.014153707248344105,-0.033524405903914985,-0.00929965236300962, ,0.037229508547072174, ,0.03638944803015581, ,0.0009504979221004651, ,0.19753978418978874,-0.21096189392519094,0.10450689980000001,1.6125156653959922,0.19197428217044385,-1.349051760745681, ,0.17804304232358495,0.14334885431793168,0.030632329846153848,0.012809903787472775,0.14518863940125779,-0.1239730917640636, ,1.3455390930175781
0.0173184411581659,0.020483849125372086,-0.09448286391333291, ,0.018068548300571006,0.019994823605402605,-0.09518655590888538, ,0.001138854296595129, ,0.02156460516714607,-0.006160500978766031,-0.031698474377653725,0.00826500467599286,-0.01975414783234464,-0.007416774652327239, ,0.03883010747081509, ,0.021412721821255056, ,0.0009527138794474612, ,0.19949363560696753,-0.20938645641884912,0.10487115729000002,1.6125156653959922,0.1936139201676291,-1.3505521330703187, ,0.16855584646264793,0.1363461804001017,0.03325430379958247,0.012809903787472775,0.14953814393219128,-0.13946546173951047, ,1.3508110046386719
0.0173184411581659,0.020483849125372086,-0.09448286391333291, ,0.018187015068865015,0.01996208999361196,-0.09535663429019126, ,0.0013379566141685651, ,0.02156460516714607,-0.006160500978766031,-0.031698474377653725,0.00826500467599286,-0.01975414783234464,-0.007416774652327239, ,0.03883010747081509, ,0.021412721821255056, ,0.0009571934461302647, ,0.19949363560696753,-0.20938645641884912,0.10487115729000002,1.6125156653959922,0.1936139201676291,-1.3505521330703187, ,0.16855584646264793,0.1363461804001017,0.03325430379958247,0.012809903787472775,0.14953814393219128,-0.13946546173951047, ,1.3560841083526611
0.017539789523587677,0.020423822879466515,-0.09481500548919597, ,0.01830555823665862,0.019929347353274382,-0.09552650253029815, ,0.0011563458857186612, ,0.022027629132385314,-0.0057189976541034615,-0.033696377115091734,-0.011472278578968646,-0.017994584376188276,-0.007261884640509213, ,0.04066164298259515, ,0.02133951264769607, ,0.0009594825546312809, ,0.20120035957217114,-0.20801180996723717,0.10521985930000001,1.6125156653959922,0.19511692166504896,-1.3521044449715418, ,0.16795918859906334,0.1353736684143663,0.03539735893333334,0.012666254282778277,0.15072569983967063,-0.11874974705774462, ,1.3613240718841553
0.017539789523587677,0.020423822879466515,-0.09481500548919597, ,0.018424167299088433,0.019896614305138935,-0.09569616270410541, ,0.0013551793121322191, ,0.022027629132385314,-0.0057189976541034615,-0.033696377115091734,-0.011472278578968646,-0.017994584376188276,-0.007261884640509213, ,0.04066164298259515, ,0.02133951264769607, ,0.0009639791086937916, ,0.20120035957217114,-0.20801180996723717,0.10521985930000001,1.6125156653959922,0.19511692166504896,-1.3521044449715418, ,0.16795918859906334,0.1353736684143663,0.03539735893333334,0.012666254282778277,0.15072569983967063,-0.11874974705774462, ,1.3666210174560547
0.017752647695046454,0.02037087640751635,-0.09514404863688825, ,0.01854283188269276,0.019863909277106767,-0.09586561681951827, ,0.0011840892550420252, ,0.022157692394421735,-0.005321946316794247,-0.03453635026156581,0.022384591580291227,-0.008716422179617359,-0.00460176349786448, ,0.041376876806185015, ,0.024020758144171282, ,0.0009664522564055695, ,0.20281441074288406,-0.20672211357724168,0.10556596873000001,1.612725355339477,0.19661992316246882,-1.3535750781326241, ,0.16707208020857534,0.13235277762687694,0.0363671495890411,0.012087294936621999,0.1594267252690424,-0.14968187211079784, ,1.3719229698181152
0.017752647695046454,0.02037087640751635,-0.09514404863688825, ,0.018661541744874468,0.01983125050491456,-0.09603486681783467, ,0.0013823319210943023, ,0.022157692394421735,-0.005321946316794247,-0.03453635026156581,0.022384591580291227,-0.008716422179617359,-0.00460176349786448, ,0.041376876806185015, ,0.024020758144171282, ,0.0009710731415687776, ,0.20281441074288406,-0.20672211357724168,0.10556596873000001,1.612725355339477,0.19661992316246882,-1.3535750781326241, ,0.16707208020857534,0.13235277762687694,0.0363671495890411,0.012087294936621999,0.1594267252690424,-0.14968187211079784, ,1.377289056777954
0.017979152707105744,0.020316213946313007,-0.09549852968253157, ,0.018780286773369185,0.019798656032818742,-0.09620391457413167, ,0.0011862756135258034, ,0.02121208985691721,-0.005224620219094227,-0.03253600089668191,0.0315600744708148,-0.005637287078093525,-0.0032935918258354276, ,0.039189804374104555, ,0.032059021286562135, ,0.0009734380038979757, ,0.20451341197521347,-0.2053706353242524,0.10593930025000001,1.612725355339477,0.1982595611596541,-1.3548304142368406, ,0.16002856923856792,0.12602515479212587,0.034329335172413794,0.010809999321748504,0.1556006185556478,-0.15286235888324778, ,1.3826210498809814
0.017979152707105744,0.020316213946313007,-0.09549852968253157, ,0.018899056985705546,0.019766143714278758,-0.0963727618976529, ,0.0013831424756374072, ,0.02121208985691721,-0.005224620219094227,-0.03253600089668191,0.0315600744708148,-0.005637287078093525,-0.0032935918258354276, ,0.039189804374104555, ,0.032059021286562135, ,0.0009778913133734043, ,0.20451341197521347,-0.2053706353242524,0.10593930025000001,1.612725355339477,0.1982595611596541,-1.3548304142368406, ,0.16002856923856792,0.12602515479212587,0.034329335172413794,0.010809999321748504,0.1556006185556478,-0.15286235888324778, ,1.3878180980682373
0.018186045749268014,0.02026342039685516,-0.09581298749791513, ,0.019017842528674656,0.019733731212641256,-0.09654141053219353, ,0.001225992100697151, ,0.021479688151213636,-0.00587845823979233,-0.032188375333233404,0.011934967226241043,-0.00073373419738656,-0.0018030513109731127, ,0.03914108814204682, ,0.011956055152354044, ,0.0009805590637747348, ,0.20607340401580682,-0.20413499806437646,0.10627115049000001,1.612725355339477,0.19976256265707393,-1.3563010473979231, ,0.1630531641898123,0.13107312369954527,0.033963350788912584,0.009565258015048313,0.16392558697340162,-0.13838649046877335, ,1.3930480480194092
0.018186045749268014,0.02026342039685516,-0.09581298749791513, ,0.019136633677789006,0.0197014360018234,-0.09670986215648872, ,0.0014226130968399457, ,0.021479688151213636,-0.00587845823979233,-0.032188375333233404,0.011934967226241043,-0.00073373419738656,-0.0018030513109731127, ,0.03914108814204682, ,0.011956055152354044, ,0.000985261766254152, ,0.20607340401580682,-0.20413499806437646,0.10627115049000001,1.612725355339477,0.19976256265707393,-1.3563010473979231, ,0.1630531641898123,0.13107312369954527,0.033963350788912584,0.009565258015048313,0.16392558697340162,-0.13838649046877335, ,1.3982901573181152
0.018411720049205382,0.020201814480044204,-0.09615559155668013, ,0.019255420836753023,0.0196692753669973,-0.09687811838459952, ,0.001231857923178052, ,0.02110989087469502,-0.005576534291270648,-0.03217359562912852,0.03801112572695435,0.02928400321827141,0.01143562627696452, ,0.03888271445192487, ,0.04798295581783715, ,0.0009878575152744036, ,0.20778785071388467,-0.2027526288798903,0.10663281540000001,1.6129350452829614,0.2016754736537901,-1.357860898049673, ,0.16084227382791658,0.12703740503142005,0.03403592205128206,0.0025868274674747207,0.19375766478713952,-0.16184868708569666, ,1.4035401344299316
0.018411720049205382,0.020201814480044204,-0.09615559155668013, ,0.01937419453692346,0.019637266405273145,-0.09704618076629928, ,0.0014276627082493803, ,0.02110989087469502,-0.005576534291270648,-0.03217359562912852,0.03801112572695435,0.02928400321827141,0.01143562627696452, ,0.03888271445192487, ,0.04798295581783715, ,0.000992438819367893, ,0.20778785071388467,-0.2027526288798903,0.10663281540000001,1.6129350452829614,0.2016754736537901,-1.357860898049673, ,0.16084227382791658,0.12703740503142005,0.03403592205128206,0.0025868274674747207,0.19375766478713952,-0.16184868708569666, ,1.4090111255645752
0.018512652416593146,0.02017538184372933,-0.09630854713675664, ,0.019492945436777,0.019605426026383342,-0.0972140507874607, ,0.0014511240128211298, ,0.021033338786234885,-0.005339724231424948,-0.032048518458071815,0.03779559637402078,0.02755213561877985,0.011186115604011096, ,0.03870428310564051, ,0.04677171659071895, ,0.0009971675327024624, ,0.2085601240013071,-0.20215025571570078,0.10679485165000001,1.6129350452829614,0.2026319291521482,-1.3586408233755478, ,0.15949065808146348,0.12404828961891604,0.033963350788912584,0.00256299724878652,0.19057767413368132,-0.15869742645539694, ,1.4152531623840332
0.01881874028982132,0.020095373214551467,-0.09675763033635341, ,0.019611664321372492,0.01957377095336625,-0.097381729870442, ,0.001135912702250696, ,0.020809331009653858,-0.005541492652713889,-0.030178260043173047,-0.010409473771777051,-0.019073796281963273,-0.001676903010866014, ,0.037073761302608595, ,0.021728824593777493, ,0.000998583299738669, ,0.21087694386357447,-0.20035858168888068,0.10727188637000001,1.6133544251699303,0.2050913861479261,-1.3607280243822242, ,0.1548074087413879,0.12104201729396784,0.03204992257545272,0.004696993821618209,0.13770673421455945,-0.10699039556072641, ,1.4205710887908936
0.01881874028982132,0.020095373214551467,-0.09675763033635341, ,0.01973034210181728,0.019542317723249714,-0.09754921937447394, ,0.0013279689173192003, ,0.020809331009653858,-0.005541492652713889,-0.030178260043173047,-0.010409473771777051,-0.019073796281963273,-0.001676903010866014, ,0.037073761302608595, ,0.021728824593777493, ,0.0010019104271889773, ,0.21087694386357447,-0.20035858168888068,0.10727188637000001,1.6133544251699303,0.2050913861479261,-1.3607280243822242, ,0.1548074087413879,0.12104201729396784,0.03204992257545272,0.004696993821618209,0.13770673421455945,-0.10699039556072641, ,1.425788164138794
0.01903548784569822,0.020037201920989147,-0.09707505750423429, ,0.019848969814731283,0.019511082687735215,-0.0977165205960468, ,0.001161907595163781, ,0.02098068100371979,-0.005569733817690594,-0.031207646281118228,0.028344242730674592,0.023830984352081277,0.007063362720744832, ,0.038014840478254895, ,0.03703082918668889, ,0.0010035103988687254, ,0.21248327230141317,-0.19909205349750786,0.10760892177,1.6133544251699303,0.20659438764534596,-1.3618719425827441, ,0.157374695785192,0.12276447808340334,0.033185024,0.004696993821618209,0.18411365892491,-0.14739246897712913, ,1.4310071468353271
0.01903548784569822,0.020037201920989147,-0.09707505750423429, ,0.01996753862171158,0.01948008201388128,-0.09788363476929608, ,0.0013538457938546036, ,0.02098068100371979,-0.005569733817690594,-0.031207646281118228,0.028344242730674592,0.023830984352081277,0.007063362720744832, ,0.038014840478254895, ,0.03703082918668889, ,0.0010069790661458133, ,0.21248327230141317,-0.19909205349750786,0.10760892177,1.6133544251699303,0.20659438764534596,-1.3618719425827441, ,0.157374695785192,0.12276447808340334,0.033185024,0.004696993821618209,0.18411365892491,-0.14739246897712913, ,1.4362561702728271
0.01925065499193674,0.01998199789630822,-0.09739127708261393, ,0.02008603980879766,0.019449331684787494,-0.09805056306638997, ,0.0011900668441483194, ,0.021593174806432306,-0.005272454237006547,-0.03115133170820149,-0.010383097913507923,-0.02840074471433835,-0.003316126410742079, ,0.03826838694140205, ,0.030238744812137112, ,0.001008774044361524, ,0.21248327230141317,-0.19909205349750786,0.10760892177,1.6133544251699303,0.20659438764534596,-1.3618719425827441, ,0.157374695785192,0.12276447808340334,0.033185024,0.004696993821618209,0.18411365892491,-0.14739246897712913, ,1.4415171146392822
0.01925065499193674,0.01998199789630822,-0.09739127708261393, ,0.020204464785935683,0.019418847500278228,-0.09821730659791557, ,0.0013817439168769682, ,0.021593174806432306,-0.005272454237006547,-0.03115133170820149,-0.010383097913507923,-0.02840074471433835,-0.003316126410742079, ,0.03826838694140205, ,0.030238744812137112, ,0.0010123951110849751, ,0.21408960073925185,-0.19786413897050617,0.10794595717000001,1.6133544251699303,0.2083706621422967,-1.3632386965906569, ,0.15763611554563253,0.11906768075090436,0.03325430379958247,0.004696993821618209,0.13099995381572915,-0.10500800354087993, ,1.4468960762023926
0.019465501742424642,0.0199313483239975,-0.09770315576907333, ,0.020322805086442398,0.01938864507758624,-0.09838386641326571, ,0.0012218276549686353, ,0.021751479190435897,-0.005227364092189397,-0.03173309189647647,-0.010176563713550218,-0.027431904037422926,-0.003572489774235134, ,0.038825781429798645, ,0.029258154930198194, ,0.0010144088855453949, ,0.215641870046971,-0.19669800630649825,0.1082791037,1.6133544251699303,0.20960039064018565,-1.3642414577239248, ,0.1568544488569765,0.11906768075090436,0.03389108834042554,0.004696993821618209,0.13116599058031186,-0.10517685191965091, ,1.4522931575775146
0.019465501742424642,0.0199313483239975,-0.09770315576907333, ,0.020441052366471115,0.01935873985203673,-0.09855024350102569, ,0.001413201014669498, ,0.021751479190435897,-0.005227364092189397,-0.03173309189647647,-0.010176563713550218,-0.027431904037422926,-0.003572489774235134, ,0.038825781429798645, ,0.029258154930198194, ,0.0010182069058227673, ,0.215641870046971,-0.19669800630649825,0.1082791037,1.6133544251699303,0.20960039064018565,-1.3642414577239248, ,0.1568544488569765,0.11906768075090436,0.03389108834042554,0.004696993821618209,0.13116599058031186,-0.10517685191965091, ,1.4576351642608643
0.019497245396443777,0.019923274419093074,-0.09774944245013391, ,0.020559198404476453,0.019329147077730938,-0.09871643878935948, ,0.0015542887148465546, ,0.021818399982718523,-0.005270108581784196,-0.03178954436958219,-0.006862907465953919,-0.023723123474705253,-0.002785837635256531, ,0.03891518666915683, ,0.024695214532893785, ,0.0010232642813795955, ,0.2158658293003235,-0.1965203834503911,0.10832836272000002,1.6133544251699303,0.2097370271399511,-1.364352875627621, ,0.15763611554563253,0.11951755863787251,0.033963350788912584,0.004696993821618209,0.13574663788509947,-0.10892524637923985, ,1.4629731178283691
0.019497245396443777,0.019923274419093074,-0.09774944245013391, ,0.02067723510067737,0.019299881828229906,-0.09888245314639704, ,0.0017506305327758484, ,0.021818399982718523,-0.005270108581784196,-0.03178954436958219,-0.006862907465953919,-0.023723123474705253,-0.002785837635256531, ,0.03891518666915683, ,0.024695214532893785, ,0.0010300620968132054, ,0.2158658293003235,-0.1965203834503911,0.10832836272000002,1.6133544251699303,0.2097370271399511,-1.364352875627621, ,0.15763611554563253,0.11951755863787251,0.033963350788912584,0.004696993821618209,0.13574663788509947,-0.10892524637923985, ,1.4681999683380127
0.019908824770898982,0.01982642798072899,-0.09836082812808111, ,0.020795154476524053,0.019270958997238272,-0.09904828738062027, ,0.0012516894034045884, ,0.02170860047718664,-0.0048043806154382,-0.03239668838003326,0.04375200993082902,0.02645267811221971,0.007882428373351427, ,0.03929237617870785, ,0.05112677249609087, ,0.0010321142015038663, ,0.21886997238839684,-0.19428079091686598,0.10898298917000002,1.6133544251699303,0.2131529396340871,-1.367056644479891, ,0.15763611554563253,0.11488733844851184,0.034779064454148474,0.004523889203273822,0.18689130451110866,-0.15500061801124004, ,1.473586082458496
0.019908824770898982,0.01982642798072899,-0.09836082812808111, ,0.020912948674160357,0.01924239329928815,-0.09921394224125003, ,0.0014412373199145787, ,0.02170860047718664,-0.0048043806154382,-0.03239668838003326,0.04375200993082902,0.02645267811221971,0.007882428373351427, ,0.03929237617870785, ,0.05112677249609087, ,0.0010358676246085517, ,0.21886997238839684,-0.19428079091686598,0.10898298917000002,1.6133544251699303,0.2131529396340871,-1.367056644479891, ,0.15763611554563253,0.11488733844851184,0.034779064454148474,0.004523889203273822,0.18689130451110866,-0.15500061801124004, ,1.4789600372314453
0.020124274381364226,0.01977695440696667,-0.09867310878664604, ,0.021030609955891056,0.019214199270422755,-0.09937941841863283, ,0.0012794572339850864, ,0.02235290245928367,-0.005325846691049284,-0.03141722096945071,-0.003799811656792529,-0.021797741455201438,-0.0018012706007981046, ,0.038923754505110424, ,0.022125765363065427, ,0.001038082075602884, ,0.22042996442899018,-0.19314554918435498,0.10931872828000001,1.6133544251699303,0.21479257763127238,-1.3683119805841075, ,0.16084227382791658,0.11744670984959255,0.03381913273885351,0.004159878746835673,0.14097993068694983,-0.10997123403815898, ,1.4842109680175781
0.020124274381364226,0.01977695440696667,-0.09867310878664604, ,0.021148130703643332,0.019186391268880266,-0.09954471654462728, ,0.0014685866241085168, ,0.02235290245928367,-0.005325846691049284,-0.03141722096945071,-0.003799811656792529,-0.021797741455201438,-0.0018012706007981046, ,0.038923754505110424, ,0.022125765363065427, ,0.0010419604949587905, ,0.22042996442899018,-0.19314554918435498,0.10931872828000001,1.6133544251699303,0.21479257763127238,-1.3683119805841075, ,0.16084227382791658,0.11744670984959255,0.03381913273885351,0.004159878746835673,0.14097993068694983,-0.10997123403815898, ,1.4894630908966064
0.020351192411794512,0.019721990231373974,-0.09898829351063645, ,0.021265503418434212,0.019158983475777606,-0.09970983719299117, ,0.0012936639862250394, ,0.022289021594839743,-0.005360854398679723,-0.031170187232880807,-0.009469969010491719,-0.01923336246247235,-0.0013299634971105888, ,0.03869263257613679, ,0.021437656611393466, ,0.001044207847559382, ,0.22205946106545155,-0.19195624832172442,0.10965835626,1.6133544251699303,0.21615894262892676,-1.3691811234006501, ,0.15975916087284645,0.11658100928559063,0.03360508759493671,0.003840657711545842,0.14252451704280739,-0.10348665036374897, ,1.4955849647521973
0.020568191632133387,0.019669143172326282,-0.09928825810463006, ,0.0213827207198341,0.019131989895794153,-0.09987478087976731, ,0.0011384200643674814, ,0.0223004322156593,-0.005516361442265923,-0.030065095854637937,-0.054778808884215685,-0.010176754998502312,7.402264518364055e-06, ,0.03783714457137986, ,0.0557158835547652, ,0.0010450415839913121, ,0.22362717583891914,-0.19082100658921342,0.10998242876000001,1.6135641151134148,0.21766194412634665,-1.3699166479004674, ,0.16221699411704404,0.11544640092271385,0.03257425668711657,0.004628817992689112,0.154099571682716,-0.05683656866734209, ,1.5008339881896973
0.020568191632133387,0.019669143172326282,-0.09928825810463006, ,0.021499775345432327,0.019105424357855484,-0.10003954806367063, ,0.0013228997389172724, ,0.0223004322156593,-0.005516361442265923,-0.030065095854637937,-0.054778808884215685,-0.010176754998502312,7.402264518364055e-06, ,0.03783714457137986, ,0.0557158835547652, ,0.001047478936227505, ,0.22362717583891914,-0.19082100658921342,0.10998242876000001,1.6135641151134148,0.21766194412634665,-1.3699166479004674, ,0.16221699411704404,0.11544640092271385,0.03257425668711657,0.004628817992689112,0.154099571682716,-0.05683656866734209, ,1.5061781406402588
0.02078831117695863,0.019615557231991647,-0.09958681440505109, ,0.02161666015029992,0.01907930051581726,-0.10020413914647504, ,0.0011639686953057885, ,0.021927593194924114,-0.005465210915989116,-0.029415701990826756,0.02147285358644024,0.024677066215135303,0.0004866659212317626, ,0.03709408844130636, ,0.03271114510585964, ,0.0010484918906542725, ,0.22524122700963206,-0.1896857648567024,0.11030650126000001,1.6137738050568995,0.21943821862329735,-1.370956686947818, ,0.1619401733079706,0.11324217369745916,0.031985565301204825,0.011259150785653958,0.1880558419610432,-0.12942171138538022, ,1.5116240978240967
0.02078831117695863,0.019615557231991647,-0.09958681440505109, ,0.021733368106456107,0.019053631849149082,-0.10036855447339996, ,0.0013490775627576284, ,0.021927593194924114,-0.005465210915989116,-0.029415701990826756,0.02147285358644024,0.024677066215135303,0.0004866659212317626, ,0.03709408844130636, ,0.03271114510585964, ,0.0010510831464482669, ,0.22524122700963206,-0.1896857648567024,0.11030650126000001,1.6137738050568995,0.21943821862329735,-1.370956686947818, ,0.1619401733079706,0.11324217369745916,0.031985565301204825,0.011259150785653958,0.1880558419610432,-0.12942171138538022, ,1.5169391632080078
0.02101475738414464,0.01955755064147258,-0.09989233276920359, ,0.021849892302332516,0.019028431663617982,-0.10053279433349677, ,0.0011779678432111058, ,0.021824571813255214,-0.0056155184628076385,-0.029559921840703565,-0.01230527211958505,0.026547821548643977,0.00014662732871108695, ,0.037170350572285044, ,0.02926062169030437, ,0.0010521676310359834, ,0.2269016145775903,-0.18850418672694605,0.11063835150000001,1.6137738050568995,0.22135112962001352,-1.3720264651587244, ,0.15949065808146348,0.1141960788910599,0.03211453935483872,0.010788840046439315,0.18751170361983344,-0.09662742555960477, ,1.5222439765930176
0.02101475738414464,0.01955755064147258,-0.09989233276920359, ,0.021966225942237558,0.01900371309197239,-0.10069685896003489, ,0.0013635581542454657, ,0.021824571813255214,-0.0056155184628076385,-0.029559921840703565,-0.01230527211958505,0.026547821548643977,0.00014662732871108695, ,0.037170350572285044, ,0.02926062169030437, ,0.0010548065337750469, ,0.2269016145775903,-0.18850418672694605,0.11063835150000001,1.6137738050568995,0.22135112962001352,-1.3720264651587244, ,0.15949065808146348,0.1141960788910599,0.03211453935483872,0.010788840046439315,0.18751170361983344,-0.09662742555960477, ,1.5275399684906006
0.021233743668652386,0.01950441785088879,-0.10019021981932386, ,0.02208236234582112,0.01897948909462597,-0.10086074853089033, ,0.0012022115501966535, ,0.021856254216405,-0.005276772864414873,-0.02994841735625356,0.012525606053252817,0.017425375915772,-0.0009560115187945198, ,0.0374492707856788, ,0.021459507007379832, ,0.0010560452313920351, ,0.22848477481680635,-0.18739211319305774,0.11096242400000002,1.6137738050568995,0.22312740411696425,-1.3731481829462158, ,0.1568544488569765,0.11099057492218804,0.03257425668711657,0.009955945509285045,0.17565265401117586,-0.11847076765994002, ,1.532806158065796
0.021233743668652386,0.01950441785088879,-0.10019021981932386, ,0.02219829494753984,0.018955772460341195,-0.10102446316892984, ,0.001388284156984567, ,0.021856254216405,-0.005276772864414873,-0.02994841735625356,0.012525606053252817,0.017425375915772,-0.0009560115187945198, ,0.0374492707856788, ,0.021459507007379832, ,0.0010588138891053061, ,0.22848477481680635,-0.18739211319305774,0.11096242400000002,1.6137738050568995,0.22312740411696425,-1.3731481829462158, ,0.1568544488569765,0.11099057492218804,0.03257425668711657,0.009955945509285045,0.17565265401117586,-0.11847076765994002, ,1.5380280017852783
0.021454966385491128,0.019452476218044433,-0.10049806022885654, ,0.022314017296121105,0.018932575806913227,-0.10118800294239959, ,0.0012183127071978394, ,0.022250300330689032,-0.004977599962293662,-0.030882505630370836,-0.02533213346876547,-0.0029492150630752337,-0.004439664841449787, ,0.03838725726332076, ,0.02550268152297202, ,0.0010601320611556577, ,0.2300447668573997,-0.1862800396591694,0.11129686682,1.6137738050568995,0.22476704211414955,-1.3739951253497296, ,0.15556875665323078,0.10920246439409755,0.03360508759493671,0.009235281160488013,0.15369821114407545,-0.07897949125517213, ,1.5432679653167725
0.021454966385491128,0.019452476218044433,-0.10049806022885654, ,0.02242952305402876,0.0189099115818538,-0.10135136786531056, ,0.0014043756645095275, ,0.022250300330689032,-0.004977599962293662,-0.030882505630370836,-0.02533213346876547,-0.0029492150630752337,-0.004439664841449787, ,0.03838725726332076, ,0.02550268152297202, ,0.0010629537300356072, ,0.2300447668573997,-0.1862800396591694,0.11129686682,1.6137738050568995,0.22476704211414955,-1.3739951253497296, ,0.15556875665323078,0.10920246439409755,0.03360508759493671,0.009235281160488013,0.15369821114407545,-0.07897949125517213, ,1.5486700534820557
0.02168438238608119,0.0194008152739287,-0.10081853543118857, ,0.022544805996924804,0.018887792063075035,-0.10151455789782596, ,0.0012198232982837142, ,0.022354822723012088,-0.004770769527056426,-0.031387533418389534,-0.00371799605893163,-0.004753987338481678,-0.0043654205523873685, ,0.03882879852568332, ,0.006032696443369905, ,0.0010642290923790878, ,0.23164337256236417,-0.1851525206595326,0.11164556883000001,1.6137738050568995,0.22640668011133483,-1.3751687827138055, ,0.15405347655595905,0.10747105499260563,0.034181998969957085,0.008599514688362436,0.15040647683933484,-0.0990036973638588, ,1.554023027420044
0.02168438238608119,0.0194008152739287,-0.10081853543118857, ,0.022659860013140062,0.01886622935957258,-0.10167757294664669, ,0.0014054480259635465, ,0.022354822723012088,-0.004770769527056426,-0.031387533418389534,-0.00371799605893163,-0.004753987338481678,-0.0043654205523873685, ,0.03882879852568332, ,0.006032696443369905, ,0.0010669808579725107, ,0.23164337256236417,-0.1851525206595326,0.11164556883000001,1.6137738050568995,0.22640668011133483,-1.3751687827138055, ,0.15405347655595905,0.10747105499260563,0.034181998969957085,0.008599514688362436,0.15040647683933484,-0.0990036973638588, ,1.5594091415405273
0.021899868587997407,0.01935527448066671,-0.1011167030032693, ,0.022774679103131218,0.01884523541211051,-0.10184041286540021, ,0.0012446643135351398, ,0.022904040201002365,-0.0048355404194138085,-0.03181422698480239,-0.019599820590005406,-0.0202668864576128,-0.006944373733534055, ,0.03949838664195597, ,0.02819338685146733, ,0.0010684023256170118, ,0.23312613727421527,-0.18413311992013498,0.11197093762000002,1.6137738050568995,0.2277730451089892,-1.3759562467902073, ,0.15608049598432694,0.10832984196172464,0.03470329307189543,0.008084471320476365,0.1367527619870652,-0.08402620994254062, ,1.5646860599517822
0.021899868587997407,0.01935527448066671,-0.1011167030032693, ,0.022889257378952105,0.01882482199390414,-0.10200307745502449, ,0.0014303599858440166, ,0.022904040201002365,-0.0048355404194138085,-0.03181422698480239,-0.019599820590005406,-0.0202668864576128,-0.006944373733534055, ,0.03949838664195597, ,0.02819338685146733, ,0.0010712750054600833, ,0.23312613727421527,-0.18413311992013498,0.11197093762000002,1.6137738050568995,0.2277730451089892,-1.3759562467902073, ,0.15608049598432694,0.10832984196172464,0.03470329307189543,0.008084471320476365,0.1367527619870652,-0.08402620994254062, ,1.5698621273040771
0.022139024293963055,0.019307564050960388,-0.10145781015788509, ,0.02300358906371492,0.018805000711304167,-0.10216556646415666, ,0.0012251371925338327, ,0.022365734311537867,-0.004092824607000186,-0.033052870453022194,0.018113501694723824,0.026649541317302974,0.010100182957588761, ,0.04011819449753735, ,0.032222004068141796, ,0.0010724865187441287, ,0.23474791117780242,-0.18301332365337242,0.11234297285000001,1.613983495000384,0.22941268310617452,-1.3772932616345646, ,0.1508695414284114,0.10259128817131975,0.03603803511312218,-3.1059472819175145e-05,0.18070288928579312,-0.11795302860244723, ,1.5750410556793213
0.022139024293963055,0.019307564050960388,-0.10145781015788509, ,0.023117668491055572,0.018785783004480555,-0.1023278795895186, ,0.001409617232028433, ,0.022365734311537867,-0.004092824607000186,-0.033052870453022194,0.018113501694723824,0.026649541317302974,0.010100182957588761, ,0.04011819449753735, ,0.032222004068141796, ,0.0010751203524416622, ,0.23474791117780242,-0.18301332365337242,0.11234297285000001,1.613983495000384,0.22941268310617452,-1.3772932616345646, ,0.1508695414284114,0.10259128817131975,0.03603803511312218,-3.1059472819175145e-05,0.18070288928579312,-0.11795302860244723, ,1.5807530879974365
0.022366919964453807,0.019266806902791637,-0.10178293261539757, ,0.023231490104598462,0.018767180148106168,-0.10249001647630404, ,0.0012235505741822366, ,0.023171840082431505,-0.004283657985481908,-0.032036115319845196,-0.06996190349262128,-0.08688554022538833,-0.011906984505258263, ,0.03976929196413713, ,0.11155147375252493, ,0.0010762709743156202, ,0.2362538440882762,-0.182001645646849,0.11269815631,1.613983495000384,0.23064241160406349,-1.3781326652875512, ,0.1496797185464839,0.10193011982649922,0.03500837696703297,-2.1215906054955516e-05,0.06391107799531326,-0.029164128831215663, ,1.5864779949188232
0.022597402446040544,0.01922161101286324,-0.10209690591895171, ,0.02334504845742118,0.018749203252040596,-0.1026519767185648, ,0.0010441490522918437, ,0.02193345843344668,-0.004453845029926705,-0.03007951866911097,-0.05952198274139879,-0.05952407209245943,-0.007629154962523129, ,0.037492542962137575, ,0.08417812639975586, ,0.0010760238826077449, ,0.23775205426587576,-0.18097452217457716,0.11304167316000001,1.613983495000384,0.23132559410289066,-1.3785263973257522, ,0.14334885431793168,0.09926458322015773,0.03291076760330579,0.0001186594173811607,0.08527702634567083,-0.036956354484761755, ,1.5917580127716064
0.022597402446040544,0.01922161101286324,-0.10209690591895171, ,0.023458338211520123,0.018731863262013718,-0.10281375985959793, ,0.0012226785448203818, ,0.02193345843344668,-0.004453845029926705,-0.03007951866911097,-0.05952198274139879,-0.05952407209245943,-0.007629154962523129, ,0.037492542962137575, ,0.08417812639975586, ,0.0010771433838460093, ,0.23775205426587576,-0.18097452217457716,0.11304167316000001,1.613983495000384,0.23132559410289066,-1.3785263973257522, ,0.14334885431793168,0.09926458322015773,0.03291076760330579,0.0001186594173811607,0.08527702634567083,-0.036956354484761755, ,1.5969669818878174
0.022812499103498706,0.019178212052622632,-0.1023960440599726, ,0.023571354137273563,0.018715170960309793,-0.10297536539233179, ,0.001061075502300441, ,0.021437563325250226,-0.004470736632984409,-0.02948293945901751,0.022427860427654125,-0.001120972706748322,0.0017125979566292068, ,0.03672601702485193, ,0.022455360747832904, ,0.0010770216574706641, ,0.2391884825804815,-0.17999373509955063,0.11336963453000001,1.6141931849438687,0.2326919591005451,-1.3795588976225757, ,0.14422027592472764,0.09793286022546002,0.032375633170731714,0.0022089013422739653,0.14521361793526763,-0.11709097081605796, ,1.6022391319274902
0.022812499103498706,0.019178212052622632,-0.1023960440599726, ,0.02368409111290633,0.018699136966451563,-0.10313679275971377, ,0.0012401186254634145, ,0.021437563325250226,-0.004470736632984409,-0.02948293945901751,0.022427860427654125,-0.001120972706748322,0.0017125979566292068, ,0.03672601702485193, ,0.022455360747832904, ,0.0010782479504630909, ,0.2391884825804815,-0.17999373509955063,0.11336963453000001,1.6141931849438687,0.2326919591005451,-1.3795588976225757, ,0.14422027592472764,0.09793286022546002,0.032375633170731714,0.0022089013422739653,0.14521361793526763,-0.11709097081605796, ,1.6075160503387451
0.023029116889353524,0.01913477809202962,-0.1026955951699969, ,0.023796544123956258,0.01868377173788314,-0.10329804135509564, ,0.0010748454297388633, ,0.021484781225591307,-0.00406373514306237,-0.03008950815771145,0.03842351429072869,0.02081499267753446,0.006319241742109352, ,0.03719527212963315, ,0.04369903552640471, ,0.0010782225585173877, ,0.24064035636083572,-0.17902067075739836,0.11369889219000001,1.6141931849438687,0.23419496059796494,-1.3807844945632364, ,0.14422027592472764,0.09470752650545987,0.03311603226611227,0.0022089013422739653,0.1675004117174277,-0.12992894434649424, ,1.61275315284729
0.023029116889353524,0.01913477809202962,-0.1026955951699969, ,0.023908708262737936,0.018669085570654196,-0.10345911052261988, ,0.0012543947553654193, ,0.021484781225591307,-0.00406373514306237,-0.03008950815771145,0.03842351429072869,0.02081499267753446,0.006319241742109352, ,0.03719527212963315, ,0.04369903552640471, ,0.0010795275377532992, ,0.24064035636083572,-0.17902067075739836,0.11369889219000001,1.6141931849438687,0.23419496059796494,-1.3807844945632364, ,0.14422027592472764,0.09470752650545987,0.03311603226611227,0.0022089013422739653,0.1675004117174277,-0.12992894434649424, ,1.6180989742279053
0.02323375133231724,0.01909887289670402,-0.10298667131856482, ,0.024020578727806656,0.018655088600104196,-0.10361999955760862, ,0.0011032436315572278, ,0.02099316571802774,-0.003637087398529872,-0.029375289769201434,0.019018642505755457,1.1203930208456762e-05,0.002388131831801442, ,0.036288414964471376, ,0.019018070753015398, ,0.001079701920795975, ,0.241991834613825,-0.17814027920973677,0.11401907582000001,1.6141931849438687,0.23569796209538477,-1.381846734023616, ,0.1381323749031598,0.08885481419332471,0.032375633170731714,0.0022089013422739653,0.1401136402604749,-0.10480658806567372, ,1.6233971118927002
0.02323375133231724,0.01909887289670402,-0.10298667131856482, ,0.024132150823424244,0.01864179080154547,-0.10378070770694767, ,0.0012831755427111032, ,0.02099316571802774,-0.003637087398529872,-0.029375289769201434,0.019018642505755457,1.1203930208456762e-05,0.002388131831801442, ,0.036288414964471376, ,0.019018070753015398, ,0.0010811871297150635, ,0.241991834613825,-0.17814027920973677,0.11401907582000001,1.6141931849438687,0.23569796209538477,-1.381846734023616, ,0.1381323749031598,0.08885481419332471,0.032375633170731714,0.0022089013422739653,0.1401136402604749,-0.10480658806567372, ,1.6286780834197998
0.023454926592025888,0.01906232856086536,-0.10329328944904384, ,0.024243419959023006,0.018629201990947548,-0.10394123416947482, ,0.0011086716268136378, ,0.021473305029928457,-0.0034276169884170926,-0.030031741316753208,-0.026543432873675228,-0.029934368217447365,-0.003280805795709499, ,0.037077713975432976, ,0.040007446812716965, ,0.001081386292737517, ,0.24342826292843078,-0.17722899673057826,0.11435740751000001,1.6141931849438687,0.23692769059327373,-1.3825227801963216, ,0.1375317993601026,0.08754330402072949,0.03311603226611227,0.0022089013422739653,0.1090243389734995,-0.05793325995221109, ,1.6338779926300049
0.023454926592025888,0.01906232856086536,-0.10329328944904384, ,0.024354381648671153,0.01861733182562028,-0.1041015780963653, ,0.0012885542404929176, ,0.021473305029928457,-0.0034276169884170926,-0.030031741316753208,-0.026543432873675228,-0.029934368217447365,-0.003280805795709499, ,0.037077713975432976, ,0.040007446812716965, ,0.0010828767096278437, ,0.24342826292843078,-0.17722899673057826,0.11435740751000001,1.6141931849438687,0.23692769059327373,-1.3825227801963216, ,0.1375317993601026,0.08754330402072949,0.03311603226611227,0.0022089013422739653,0.1090243389734995,-0.05793325995221109, ,1.6391510963439941
0.02367028151916246,0.019028811420935137,-0.103597943364909, ,0.024465031510535785,0.01860618980489892,-0.10426173859152021, ,0.0011184188312080548, ,0.021254089568256845,-0.002988919434197855,-0.030647124991995855,-0.050766031512800736,-0.033181011572890426,-0.004186459245039948, ,0.037415454467834904, ,0.060647691202297654, ,0.0010831305819248452, ,0.2447951866471685,-0.1763563279157909,0.11469314662,1.6141931849438687,0.23802078259139725,-1.3830057297251899, ,0.13253762787495918,0.08390534178467797,0.03374748203389831,0.0022089013422739653,0.10062740846746976,-0.030150266335176746, ,1.6444201469421387
0.02367028151916246,0.019028811420935137,-0.103597943364909, ,0.02457536526635076,0.01859578527082585,-0.10442171471194998, ,0.0012981862225076156, ,0.021254089568256845,-0.002988919434197855,-0.030647124991995855,-0.050766031512800736,-0.033181011572890426,-0.004186459245039948, ,0.037415454467834904, ,0.060647691202297654, ,0.0010846557992339428, ,0.2447951866471685,-0.1763563279157909,0.11469314662,1.6141931849438687,0.23802078259139725,-1.3830057297251899, ,0.13253762787495918,0.08390534178467797,0.03374748203389831,0.0022089013422739653,0.10062740846746976,-0.030150266335176746, ,1.649796962738037
0.023771489978090046,0.01901533084216804,-0.10374496474731991, ,0.02468537874087701,0.018586127408836993,-0.10458150546816561, ,0.0013111859652865754, ,0.02126016600230444,-0.0026385528347886524,-0.03143676793731967,-0.035204875798728115,-0.009554421626554932,0.0005714083840646372, ,0.03804243680223972, ,0.03647793235658384, ,0.0010862510820934684, ,0.2454284507428549,-0.17596246853920544,0.11485518287000002,1.6141931849438687,0.23856732859045904,-1.3832063651195539, ,0.13235277762687694,0.08180770824006102,0.03462785113043479,0.0022089013422739653,0.1244548096568427,-0.04367430397274081, ,1.6551611423492432
0.024077283701226596,0.018977800669306724,-0.10419565202586767, ,0.024795067861371988,0.018577225248442703,-0.10474110982455995, ,0.0009865084786813746, ,0.01930373048804987,-0.0024685602386385072,-0.027141699100289487,-0.009995557297672443,-0.01337439083895275,0.00010015334533524005, ,0.03339759917206188, ,0.01669642975610909, ,0.0010855535813703067, ,0.24735913396141104,-0.17479633587519755,0.11535295823000001,1.6141931849438687,0.24075351258670605,-1.384580657877994, ,0.12197550328852286,0.07211013796236382,0.030111174896030254,0.0022089013422739653,0.10999658210262367,-0.05943997411183896, ,1.6612281799316406
0.024077283701226596,0.018977800669306724,-0.10419565202586767, ,0.024904428657049945,0.01856908766391435,-0.10490052669979946, ,0.0011610613268347762, ,0.01930373048804987,-0.0024685602386385072,-0.027141699100289487,-0.009995557297672443,-0.01337439083895275,0.00010015334533524005, ,0.03339759917206188, ,0.01669642975610909, ,0.00108607794071381, ,0.24735913396141104,-0.17479633587519755,0.11535295823000001,1.6141931849438687,0.24075351258670605,-1.384580657877994, ,0.12197550328852286,0.07211013796236382,0.030111174896030254,0.0022089013422739653,0.10999658210262367,-0.05943997411183896, ,1.6666491031646729
0.024286794602635216,0.018950735493978795,-0.10448615666979738, ,0.025013457258550306,0.018561723374965818,-0.10505975496720688, ,0.0010041832756183548, ,0.020888827503268783,-0.002572576734007795,-0.0291865797437005,-0.017128023181032178,-0.017217818548407732,-0.00318766831417375, ,0.03598357545671448, ,0.024285824551376282, ,0.0010855131499200481, ,0.24867972128290344,-0.17401633985490086,0.11567573444000001,1.6144028748873531,0.2418466045848296,-1.384981928666722, ,0.13125441432706886,0.07646812373768798,0.032441571323828924,0.005285326874481747,0.11497785006578452,-0.05574392590230867, ,1.671921968460083
0.024286794602635216,0.018950735493978795,-0.10448615666979738, ,0.02512214989740012,0.01855514094743838,-0.10521879345514945, ,0.0011794363793758823, ,0.020888827503268783,-0.002572576734007795,-0.0291865797437005,-0.017128023181032178,-0.017217818548407732,-0.00318766831417375, ,0.03598357545671448, ,0.024285824551376282, ,0.0010861564597108415, ,0.24867972128290344,-0.17401633985490086,0.11567573444000001,1.6144028748873531,0.2418466045848296,-1.384981928666722, ,0.13125441432706886,0.07646812373768798,0.032441571323828924,0.005285326874481747,0.11497785006578452,-0.05574392590230867, ,1.6772191524505615
0.02447768467140408,0.018931281986685432,-0.10476557585633937, ,0.02523050290547867,0.018549348793985065,-0.10537764094742662, ,0.00104270414450558, ,0.01996790834129368,-0.001781995434751224,-0.029959057880473317,-0.007327905820613207,0.015784606924632676,0.002892910674872346, ,0.03604771865654372, ,0.01740195060458886, ,0.0010858608657298534, ,0.24986129941265978,-0.1733367393619691,0.11598554775000001,1.6144028748873531,0.24307633308271853,-1.3855762960992868, ,0.12244766652705909,0.06987992750991957,0.033185024,0.0050457744770237515,0.13959444417292358,-0.05920468586579365, ,1.6827139854431152
0.02447768467140408,0.018931281986685432,-0.10476557585633937, ,0.02533851271448422,0.018544355174752662,-0.1055362961836542, ,0.0012185019903479502, ,0.01996790834129368,-0.001781995434751224,-0.029959057880473317,-0.007327905820613207,0.015784606924632676,0.002892910674872346, ,0.03604771865654372, ,0.01740195060458886, ,0.0010867570895448406, ,0.24986129941265978,-0.1733367393619691,0.11598554775000001,1.6144028748873531,0.24307633308271853,-1.3855762960992868, ,0.12244766652705909,0.06987992750991957,0.033185024,0.0050457744770237515,0.13959444417292358,-0.05920468586579365, ,1.6883680820465088
0.02447768467140408,0.018931281986685432,-0.10476557585633937, ,0.025446175855395933,0.018540168198067603,-0.10569475785965399, ,0.0013979715177358542, ,0.01996790834129368,-0.001781995434751224,-0.029959057880473317,-0.007327905820613207,0.015784606924632676,0.002892910674872346, ,0.03604771865654372, ,0.01740195060458886, ,0.001088845776982364, ,0.24986129941265978,-0.1733367393619691,0.11598554775000001,1.6144028748873531,0.24307633308271853,-1.3855762960992868, ,0.12244766652705909,0.06987992750991957,0.033185024,0.0050457744770237515,0.13959444417292358,-0.05920468586579365, ,1.6936759948730469
0.024770633697463726,0.018913945453732182,-0.10519873105288208, ,0.025553488957940865,0.018536795821118005,-0.10585302462783712, ,0.00108775194160488, ,0.02012814846807192,-0.0010773254347221301,-0.029796691534001565,0.003916731420775731,0.0001797327060103323,0.003501044490277248, ,0.03597423824374167, ,0.003917856707754366, ,0.0010888384847465142, ,0.2516529734394799,-0.17240228868418794,0.11646776763000001,1.6146125648308374,0.24498924407943473,-1.3864827168299123, ,0.12181892369508443,0.06272104531293508,0.033185024,0.003039446081315867,0.1234403024206568,-0.06394822066747595, ,1.6989500522613525
0.024770633697463726,0.018913945453732182,-0.10519873105288208, ,0.025660448750057324,0.01853424585063844,-0.10601109509759304, ,0.0012632806329358713, ,0.02012814846807192,-0.0010773254347221301,-0.029796691534001565,0.003916731420775731,0.0001797327060103323,0.003501044490277248, ,0.03597423824374167, ,0.003917856707754366, ,0.0010899937307610132, ,0.2516529734394799,-0.17240228868418794,0.11646776763000001,1.6146125648308374,0.24498924407943473,-1.3864827168299123, ,0.12181892369508443,0.06272104531293508,0.033185024,0.003039446081315867,0.1234403024206568,-0.06394822066747595, ,1.7042551040649414
0.024957553010640496,0.018904604259042668,-0.10548381126774775, ,0.025767052057360164,0.01853252594359347,-0.10616896783567563, ,0.001123908582600148, ,0.020068845984287174,-0.0007336099959286972,-0.03140695412847436,-0.026418464060871377,-0.0011734138255334661,0.0022960670382965506, ,0.037278593460527164, ,0.026443932858933362, ,0.0010902168547862706, ,0.25275732424049396,-0.1718153609857469,0.11678406239000001,1.6146125648308374,0.24608233607755825,-1.3869656663587808, ,0.11629527151773382,0.06170152246974693,0.034779064454148474,0.003039446081315867,0.11643348849476022,-0.03260934646730618, ,1.709611177444458
0.024957553010640496,0.018904604259042668,-0.10548381126774775, ,0.025873295802604862,0.018531643607861626,-0.10632664136658992, ,0.0012992486612955914, ,0.020068845984287174,-0.0007336099959286972,-0.03140695412847436,-0.026418464060871377,-0.0011734138255334661,0.0022960670382965506, ,0.037278593460527164, ,0.026443932858933362, ,0.001091583075743848, ,0.25275732424049396,-0.1718153609857469,0.11678406239000001,1.6146125648308374,0.24608233607755825,-1.3869656663587808, ,0.11629527151773382,0.06170152246974693,0.034779064454148474,0.003039446081315867,0.11643348849476022,-0.03260934646730618, ,1.7149441242218018
0.025170664240432343,0.018899130021609777,-0.10581829158309794, ,0.025979177005153203,0.018531606202918452,-0.1064841141729772, ,0.001109993859990026, ,0.02023417147628798,-0.00029490764394054755,-0.03136422246563007,0.010114238946666479,-0.008886820659779988,0.0019820162292737047, ,0.037325904097875715, ,0.01346265426785046, ,0.001091702626290901, ,0.2539852387674957,-0.17118209689006048,0.11715480133000002,1.6146125648308374,0.24731206457544722,-1.3875600337913458, ,0.11643796510241813,0.05737420892289647,0.034855167439824954,0.003039446081315867,0.10873513013740915,-0.06493522916710529, ,1.7204151153564453
0.025368854986570172,0.018895852571321634,-0.10611574464794717, ,0.026084692780436916,0.018532420940521366,-0.10664138469600418, ,0.0009595852007589136, ,0.02023417147628798,-0.00029490764394054755,-0.03136422246563007,0.010114238946666479,-0.008886820659779988,0.0019820162292737047, ,0.037325904097875715, ,0.01346265426785046, ,0.0010908502558035981, ,0.25513592596575513,-0.17063378285599054,0.11748665157000002,1.6146125648308374,0.2482685200738053,-1.3878498866763773, ,0.1121713257192326,0.05240029903836045,0.031985565301204825,0.003039446081315867,0.09565314118476889,-0.02268335765222237, ,1.726058006286621
0.025368854986570172,0.018895852571321634,-0.10611574464794717, ,0.026189840339422815,0.018534094885392687,-0.1067984513357476, ,0.001127374824312962, ,0.019237888624521807,-0.00027771111441016156,-0.02861459260714567,-0.027306070085402232,-0.017484363319319737,0.0007069833616985098, ,0.0344814209722495, ,0.032423837531199574, ,0.001091084387653017, ,0.25513592596575513,-0.17063378285599054,0.11748665157000002,1.6146125648308374,0.2482685200738053,-1.3878498866763773, ,0.1121713257192326,0.05240029903836045,0.031985565301204825,0.003039446081315867,0.09565314118476889,-0.02268335765222237, ,1.731415033340454
0.02556764688476463,0.018894957854045276,-0.10640568018027313, ,0.026294616988078064,0.01853663495590324,-0.10695531245158141, ,0.00097927343684384, ,0.019530625776941576,-0.0003795377247021918,-0.027909071224242833,-0.010447082790991527,-0.029704427437333442,-0.003911821121925643, ,0.03406619510193744, ,0.03148773754168615, ,0.0010903722159918122, ,0.256302058629763,-0.1701163597534175,0.11781202036,1.614822254774322,0.2492249755721634,-1.38830309704169, ,0.11488733844851184,0.05211254341486588,0.03135592818897638,0.006050254854308555,0.08548496933062957,-0.038477621117044586, ,1.7366559505462646
0.02556764688476463,0.018894957854045276,-0.10640568018027313, ,0.026399020126833324,0.018540047924757545,-0.10711196636256466, ,0.0011471628902779145, ,0.019530625776941576,-0.0003795377247021918,-0.027909071224242833,-0.010447082790991527,-0.029704427437333442,-0.003911821121925643, ,0.03406619510193744, ,0.03148773754168615, ,0.0010907316506391924, ,0.256302058629763,-0.1701163597534175,0.11781202036,1.614822254774322,0.2492249755721634,-1.38830309704169, ,0.11488733844851184,0.05211254341486588,0.03135592818897638,0.006050254854308555,0.08548496933062957,-0.038477621117044586, ,1.741835117340088
0.02576911036327822,0.01889200827648328,-0.10669755736319692, ,0.026503047250048862,0.018544340419676075,-0.10726841134782614, ,0.000992678479763994, ,0.019480778404339844,0.00017561152780100835,-0.028899569017899824,-0.005360078610128246,-0.010678905790944323,-6.010063231149168e-05, ,0.03485278548506626, ,0.011947774402070978, ,0.0010901149640299146, ,0.2574913594923936,-0.169583491185096,0.11813998173000001,1.614822254774322,0.2503180675702869,-1.3887043678304183, ,0.11283821826215314,0.04841680691758713,0.032441571323828924,0.006050254854308555,0.10271867657267258,-0.03998086929532889, ,1.7470359802246094
0.02576911036327822,0.01889200827648328,-0.10669755736319692, ,0.026606695945478948,0.018549518924079297,-0.1074246456469517, ,0.00116082123360753, ,0.019480778404339844,0.00017561152780100835,-0.028899569017899824,-0.005360078610128246,-0.010678905790944323,-6.010063231149168e-05, ,0.03485278548506626, ,0.011947774402070978, ,0.0010905568782147747, ,0.2574913594923936,-0.169583491185096,0.11813998173000001,1.614822254774322,0.2503180675702869,-1.3887043678304183, ,0.11283821826215314,0.04841680691758713,0.032441571323828924,0.006050254854308555,0.10271867657267258,-0.03998086929532889, ,1.7522821426391602
0.02593731647144219,0.018896837854537503,-0.10694887205617887, ,0.026709963893735988,0.018555589777772177,-0.10758066746037195, ,0.0010547984271095543, ,0.019405003843091084,0.0006473024691645295,-0.02899849643366998,0.025503702623552723,0.0031864072410996724,0.0023000403279447084, ,0.03489822302138802, ,0.025701586191992327, ,0.001090334776033997, ,0.2584644238345459,-0.16918963180851057,0.11842257295000001,1.6150319447178065,0.251274523068645,-1.3892392569358714, ,0.11243713454795115,0.04422038283246542,0.03264100721311476,0.007174938930444962,0.11621033632419325,-0.06647638091577782, ,1.757662057876587
0.02593731647144219,0.018896837854537503,-0.10694887205617887, ,0.026812848867755614,0.018562559177627724,-0.10773647494974732, ,0.0012241803497803259, ,0.019405003843091084,0.0006473024691645295,-0.02899849643366998,0.025503702623552723,0.0031864072410996724,0.0023000403279447084, ,0.03489822302138802, ,0.025701586191992327, ,0.0010911609832793448, ,0.2584644238345459,-0.16918963180851057,0.11842257295000001,1.6150319447178065,0.251274523068645,-1.3892392569358714, ,0.11243713454795115,0.04422038283246542,0.03264100721311476,0.007174938930444962,0.11621033632419325,-0.06647638091577782, ,1.7630860805511475
