NicholasDascanio/dvrk_moveit_final/test/execution/third_experiment_notsharpbends/thirdexp_200vel4.0/thirdexp_200vel4.0_27.csv
Current Position (x),Current Position (y),Current Position (z), ,Planned Position (x),Planned Position (y),Planned Position (z), ,Position Error,,Cartesian linear Velocity(x),Cartesian linear Velocity(y),Cartesian linear Velocity(z),Cartesian Angular Velocity(x),Cartesian Angular Velocity(y),Cartesian Angular Velocity(z), ,Total Linear Velocity, ,Total Angular Velocity, ,MSE, ,Joint 1 Position,Joint 2 Position,Joint 3 Position,Joint 4 Position,Joint 5 Position,Joint 6 Position, ,Joint 1 Velocity,Joint 2 Velocity,Joint 3 Velocity,Joint 4 Velocity,Joint 5 Velocity,Joint 6 Velocity, ,Time Stamp
0.009448460482578611,0.020254569618557587,-0.0789932886440722, ,0.009686230044800175,0.020227325043777656,-0.07917626288948912, ,0.00030125770705471803, ,0.001399713040751292,0.0003581438198124359,-0.0014492922850959779,0.2575706499475622,-0.10331574265913716,-0.029625709072964468, ,0.0020464387896435583, ,0.2775189766405394, ,2.5104808921226504e-05, ,0.13531000268928764,-0.24880328500889104,0.08867660632,1.6039183777131267,0.14278514225488526,-1.3058375232896275, ,0.0031537062614514703,0.0002663291192885387,0.0015237759364122006,0.0007918678937236312,-0.10447247242727872,-0.2577080504412792, ,0.052201032638549805
0.009555050677120426,0.020299052922113744,-0.07917383759327744, ,0.009803779224967312,0.02027982716594933,-0.07945564852272258, ,0.0003763680647568912, ,0.003369776230284227,0.0017880541905975498,-0.007270625779449132,-0.11305398999944398,-0.1671311678866919,-0.03989713779784399, ,0.008210635106707175, ,0.2017771838282193, ,3.080117144598224e-05, ,0.1356806938672504,-0.2487646713445199,0.08886716095000001,1.6043377576000957,0.1370464092647368,-1.3152067146385547, ,0.011341350885846367,0.0012312594090927798,0.0075349155723746465,0.00041379296666998875,-0.17119855970868247,0.0988753889302526, ,0.10493803024291992
0.009654591783576753,0.02036786673072838,-0.07946827420825048, ,0.009921374601135078,0.020330404286415065,-0.07973409481603042, ,0.0003784667779327295, ,0.0021267803258529965,0.0010931708801893154,-0.004748742327169971,-0.004930688885478396,-0.024419074546848604,-0.0014776078199031347, ,0.005316838423121859, ,0.02491190262093732, ,3.300289217951059e-05, ,0.13659969907928313,-0.24865655308428075,0.08918086313000001,1.6045474475435806,0.13868604726192205,-1.3106628601927912, ,0.01745070642855292,0.0019530390162350027,0.005079340408163266,-0.0005426283065376818,-0.007050815442724403,0.00292473823855062, ,0.15755105018615723
0.009754556800802259,0.02042430094973551,-0.07972186704511337, ,0.010039011329251975,0.020379086360989614,-0.08001159801733587, ,0.0004085373594373043, ,0.00283885968123963,0.0014684173629898854,-0.006724900336833655,0.020541866048104436,-0.0245990758623679,-0.008726994095531638, ,0.007445781247259656, ,0.03204813224303078, ,3.572268071174739e-05, ,0.13740286329820248,-0.24853298935829318,0.08945049145,1.6045474475435806,0.13868604726192205,-1.3114796475941968, ,0.023156891546722982,0.0037683468248249628,0.007162235395683454,0.0075342715452138935,-0.003440616455160337,-0.02327390358421213, ,0.2043299674987793
0.009903639926439783,0.0204899550573806,-0.08004481002364223, ,0.010156684628932681,0.02042590315269031,-0.08028815442308304, ,0.0003568623890148415, ,0.0027763263301710116,0.0008863681493790885,-0.00528804119106098,-0.012187879983649516,-0.02453978968369655,0.018852715700202066, ,0.006037964559865532, ,0.027399738905342096, ,3.642984596392969e-05, ,0.13871572788682066,-0.248285861906318,0.08979530459000001,1.605176517374034,0.13895932026145294,-1.312029198362152, ,0.025710360758187695,0.005916023859679114,0.005642512051009565,-0.018919555929221933,0.006011724814647186,0.0037933468810954765, ,0.2524731159210205
0.01001317617069335,0.020528323239578664,-0.08026901442015255, ,0.010274389783197698,0.02047088423224733,-0.08056376037812174, ,0.0003980037319673714, ,0.0027852177257230754,0.0009893042826668,-0.005663973258353695,-0.001760164882694855,-0.023662130201480516,-0.0007999761614615185, ,0.0063887990901835895, ,0.02372750682766583, ,3.7618576782438235e-05, ,0.13970423769472137,-0.2480387344543428,0.09003382195000001,1.6049668274305493,0.1392325932609838,-1.3120069979491231, ,0.024432786189101642,0.006064042860645715,0.006026792099886493,0.00013288933339504857,0.0007562195082620634,-0.004227141125260017, ,0.29944896697998047
0.010121966062104294,0.020573693250689088,-0.08051537288511453, ,0.010392122138213607,0.020514058978615385,-0.08083841227559187, ,0.0004253175280475924, ,0.002523109167704479,0.0011610499123704072,-0.0061296812276647825,0.00654891581776904,-0.0020452249309823654,0.0017978527613993545, ,0.006729569727995673, ,0.006860847961665101, ,3.947482922703654e-05, ,0.14066957930399945,-0.24779932973524185,0.09029567253000001,1.6053862073175185,0.1397791392600456,-1.3122893120836276, ,0.022460814570052258,0.005404766788655313,0.006509526571311812,0.0025620701615160606,0.02041127160811774,-0.011554719031077255, ,0.34111809730529785
0.010254341619841487,0.020634307014918328,-0.08084727908587877, ,0.010509877103031865,0.020555456579484002,-0.08111210655680737, ,0.0003763633400000052, ,0.002844184626665137,0.001166746009764311,-0.006567126856453276,0.0008207339865990396,-0.02301710660406325,-0.0014955905421560902, ,0.007251057687717643, ,0.023031734378570652, ,4.028235864281938e-05, ,0.14181254376938468,-0.24748269768739864,0.09064696712,1.6055958972610032,0.14073559475840366,-1.3124974862285188, ,0.023162543704776856,0.0065829971448276604,0.0069497432460732984,0.0005651842632956489,0.0,-0.007260232760302037, ,0.3831291198730469
0.010364849661508833,0.020685117026832196,-0.08112403809217884, ,0.010627650149327738,0.020595106031788643,-0.08138483971113958, ,0.0003810296052528274, ,0.002739906516670675,0.0011885497781239007,-0.006804900991308642,0.0033030263117467097,-0.0003513979103606544,0.0160789493317322, ,0.007431447759130528, ,0.003321663546431317, ,4.099043980077447e-05, ,0.14274699444716585,-0.247220124769675,0.09093992866,1.6060152771479719,0.14141877725723084,-1.3128912182667198, ,0.024357531200839524,0.006859652987438712,0.007204347137042063,-0.010732228897728699,0.02747638416794206,-0.011571704520198678, ,0.4253499507904053
0.010471768753271382,0.02072105399243299,-0.08135914065623917, ,0.010745436811137567,0.02063303614222039,-0.08165660827590132, ,0.00041367660388250566, ,0.0026644091856797615,0.0011651171097151584,-0.006810117427659503,0.026608078833777814,0.020325170088104378,0.0054433397372778865, ,0.007405016783681006, ,0.03348286701713411, ,4.1932781399415236e-05, ,0.14370461332356968,-0.24691893818758026,0.09118881634,1.6058055872044876,0.14210195975605808,-1.3132849503049204, ,0.024999194298859533,0.007371861651938592,0.007214135652173914,0.0049110852632334905,0.04578581822869249,-0.033217438113550615, ,0.4674379825592041
0.010595685357153554,0.020764894008462098,-0.0816374511630792, ,0.010863232684597638,0.02066927552773738,-0.08192740883622793, ,0.00040595556221881973, ,0.0030674560034385993,0.0012122231381450734,-0.007224937212938059,-0.003158966846159511,-0.015423189244747644,-0.008630422948380173, ,0.007942196736456669, ,0.015743373791149387, ,4.307998642413884e-05, ,0.14475490499446422,-0.24657141520824014,0.09148307417000001,1.6062249670914566,0.1425118692553544,-1.3133741677955881, ,0.02502556475698069,0.008063345562167182,0.007636055378715245,0.009691561750322724,0.007464839966169552,-0.0034653171375414217, ,0.5048489570617676
0.010691748020731468,0.020800107098542894,-0.08186201309353126, ,0.010981033427679915,0.020703852616074103,-0.08219723802496094, ,0.00045312992256161616, ,0.0031963019198701305,0.0010933668182944978,-0.0074846596249663454,0.005308749078252257,-0.004980021453417136,0.004286092150547527, ,0.008211694506246215, ,0.007278970185649144, ,4.4523510401211645e-05, ,0.14557351467913202,-0.24629339682476806,0.09172029524000001,1.606434657034941,0.14305841525441615,-1.3135748031899523, ,0.027715228258899178,0.010067355144157852,0.007893365470763133,0.0,0.023448773388991786,-0.015271805570999416, ,0.5414259433746338
0.010822193554601718,0.020841983016492583,-0.0821578209602004, ,0.011098834759930273,0.020736795646252273,-0.0824660925225297, ,0.0004273477453838501, ,0.003834021122886966,0.0012807404133085773,-0.008390178103337264,-0.02559048692538764,-0.04052337383804693,-0.01602959465202452, ,0.009313168235501029, ,0.04792720320151468, ,4.555639587063458e-05, ,0.14673192461026568,-0.24587636924955994,0.09203270113,1.6066443469784255,0.1441515072525397,-1.3143027889392425, ,0.029407171229770927,0.010715251680262043,0.008849339733333334,0.011432038090671831,-0.014329416914222277,0.01661320355922961, ,0.5781841278076172
0.010925639404973103,0.02087399781258309,-0.08239571097721268, ,0.011216632462203526,0.020768132669090212,-0.08273396905683277, ,0.00045858795927427264, ,0.003304864616585307,0.0009994608095025097,-0.00797889879119325,0.008132615938678107,0.004596741366695898,-0.0027660714068075526, ,0.008693898893120052, ,0.009341811433561132, ,4.712630759987581e-05, ,0.1475891479593046,-0.24552884627021984,0.0922828851,1.6066443469784255,0.144561416751836,-1.3144736851700505, ,0.028678435043357743,0.012605863650168808,0.008374769463722398,0.009120757341685742,0.03202683812460736,-0.01930911249793227, ,0.6098830699920654
0.011034384293763197,0.020904730245586735,-0.08263988465813889, ,0.011334422376400623,0.020797891547713596,-0.08300086440311934, ,0.00048139768869628045, ,0.003815731684396277,0.0010692076028111616,-0.008873710493461282,-0.0182277466669929,-0.028280569451607472,-0.0070002589484618755, ,0.009718320385075793, ,0.03364582146482002, ,4.872824181840021e-05, ,0.14849270770558887,-0.2451427096265086,0.09253955052000001,1.6070637268653947,0.1449713262511323,-1.3145629026607182, ,0.02951693361072186,0.01427665737302103,0.009282524195804198,0.005099306263811488,0.0,0.004840102919408593, ,0.6413941383361816
0.011140899353160613,0.02093648386194831,-0.08290356663774306, ,0.011452200405203502,0.02082609995806439,-0.08326677538387055, ,0.0004909313032422792, ,0.0035025893241669476,0.001036524761230544,-0.008933251773369049,-0.002177948259031179,-0.00046313577469375195,-0.0026837998593092745, ,0.00965119178137154, ,0.00222663343935511, ,5.0255640682491576e-05, ,0.14938854471899893,-0.24471795931842627,0.09281566029,1.6072734168088794,0.1459277817494904,-1.315179470506312, ,0.02841225795163796,0.014735549931439563,0.00932600206088993,0.00738509044723867,0.02697852455427463,-0.01132636277218865, ,0.6732780933380127
0.01126115206221007,0.02096541754278739,-0.08317292685877592, ,0.011569962511811131,0.020852785389411505,-0.08353169886868057, ,0.00048658735171387625, ,0.003295942060529406,0.0005734934064332428,-0.007530677693903908,0.020507305097133974,0.0230044761310193,0.004912486670270354, ,0.008240341939692255, ,0.03081810279997436, ,5.16163282385131e-05, ,0.15041566819127078,-0.24424687261309858,0.09309825151000001,1.6072734168088794,0.14674760074808305,-1.3157662991883499, ,0.031205834119852276,0.01594906580814635,0.007873856411270391,0.006205076949156812,0.05434534514964142,-0.03538259978198629, ,0.7049300670623779
0.01136298951837482,0.02098926534401168,-0.08339272194636092, ,0.011687704719674173,0.020877975144859905,-0.0837956317741364, ,0.0005293031264787583, ,0.004171125887400256,0.001048522012604976,-0.009547706237790811,-0.022982266922672922,-0.029123578085870405,-0.013483905492802649, ,0.010471694417934822, ,0.037099424713709785, ,5.353988487174851e-05, ,0.15124972334168701,-0.24386073596938734,0.09332899113000001,1.607692796695848,0.1470208737476139,-1.3158257775154616, ,0.0318981316162927,0.016353083156724242,0.009980458345864663,0.011489582848726683,0.0,0.00849588401306065, ,0.7320280075073242
0.011486748707848037,0.02102933733540055,-0.08370275383472359, ,0.011805423112230286,0.02090169634186067,-0.08405857106369928, ,0.0004944203673759515, ,0.0042312751958333596,0.001321472659620911,-0.010335138685180772,-0.004922802676543573,-0.008100428600625832,-0.005920149679511236, ,0.011245669006996441, ,0.009478966810134468, ,5.509276804309925e-05, ,0.15226140134821042,-0.2434050947298081,0.09365435992000001,1.607692796695848,0.14811396574573746,-1.316553763264752, ,0.03347334799240592,0.015442952247106716,0.010843302600408444,0.00975526235677055,0.02373573920874208,-0.008907100329195915, ,0.7587299346923828
0.011616654578299667,0.02106368471331965,-0.08399725835693213, ,0.011923113832638757,0.020923975912720712,-0.0843205137475837, ,0.0004668295953773356, ,0.0038572388169772877,0.0007971502088512668,-0.008700547675127016,0.038359819005621,0.030867160648455755,0.013390748721030713, ,0.009550563836435317, ,0.04923674715884261, ,5.6360090924965733e-05, ,0.1533503066834761,-0.24292628529160618,0.09396417323,1.6079024866393328,0.14907042124409553,-1.3170886523702052, ,0.03663974577547135,0.01658457559567822,0.009154489379310347,0.0009707571591271631,0.06934968660097966,-0.054609780945483605, ,0.7851710319519043
0.011708121001576423,0.021079921819391445,-0.08417969979606954, ,0.012040773083514249,0.020944840605111627,-0.08458145688263852, ,0.0005388071071146634, ,0.004975903398649925,0.001064877678067112,-0.01026582412621943,-0.033718757256340506,-0.03739905005276175,-0.010412152058240923, ,0.011457780068251022, ,0.05035517274068404, ,5.8381811850222515e-05, ,0.15411485723802432,-0.24257103957939186,0.09415602415,1.6081121765828172,0.1493436942436264,-1.317148130697317, ,0.03931107769613537,0.018096289389487184,0.010791877723577238,0.00795487309325847,0.0,0.017022353419971804, ,0.8061521053314209
0.011802645349471024,0.02110683613409572,-0.08441052297663043, ,0.01215839712666208,0.020964316982579983,-0.08484139757222581, ,0.000576648898943577, ,0.00509199219924495,0.001627500703245775,-0.01315641076161793,0.024420222415192643,0.005846409860980884,-0.0030727756177258464, ,0.01420099599410735, ,0.02511030419761628, ,6.053980965866708e-05, ,0.15491029872406945,-0.24220034840142907,0.09439843038000001,1.608321866526302,0.15043678624174994,-1.3177944377064668, ,0.03988942478287969,0.019857070842952664,0.013779248719723186,0.011227296430502772,0.04437128863166844,-0.04235389055057109, ,0.8271889686584473
0.011917370077915731,0.021142643166334907,-0.08469759033815319, ,0.012275982282811312,0.020982431425056503,-0.08510033296610127, ,0.0005625585657600938, ,0.005683860926189757,0.0016820177100740261,-0.0138754407320044,-0.012185063822321129,-0.014234236085403161,-0.005689500704691531, ,0.015088515967868947, ,0.018737362220131625, ,6.250544970238136e-05, ,0.1557752448059826,-0.24177559809334673,0.09469916966000001,1.608321866526302,0.15098333224081167,-1.3181584305811118, ,0.043391377027192854,0.02120602045999347,0.01454685983561644,0.009499504424167676,0.027707517004325975,-0.007334830844661517, ,0.8481581211090088
0.012028320686266688,0.021170813216710407,-0.08497130165764488, ,0.012393524931349235,0.020999210129365502,-0.08535826026029324, ,0.0005590695130090564, ,0.005823216182958369,0.0016024897289787605,-0.014122922005739951,0.01739137779811677,0.014248730882386701,0.0034963190650278086, ,0.014779406261610884, ,0.046954341268095376, ,6.474372177407962e-05, ,0.15668652728514107,-0.24130451138801903,0.09498564975000001,1.608321866526302,0.15221306073870067,-1.3189978342340984, ,0.04783111973713245,0.02275706032577237,0.014831295642458102,0.008259965975484201,0.06193404838545064,-0.0386309296906737, ,0.8652050495147705
0.012087553555024382,0.021186422125012337,-0.08511318807709681, ,0.012511021510054182,0.02101467910973402,-0.08561517669698157, ,0.0006788323406613884, ,0.00587833187824676,0.0013672069997753356,-0.014030536142933786,0.012567042514458586,0.013462016349882444,-0.001390120335893792, ,0.01527350598615845, ,0.01841618576279266, ,6.761118435005092e-05, ,0.15718078218909146,-0.24106510666891806,0.09513472310000001,1.6087412464132707,0.15289624323752785,-1.31947324501244, ,0.04831819834952687,0.025105010994304438,0.014694475571955721,0.012595569998919502,0.06056867377355187,-0.035440434752032034, ,0.8809311389923096
0.012213360123600811,0.021213607532822525,-0.08541202149097805, ,0.012628468514830099,0.021028864198301567,-0.08587107956437778, ,0.0006458942567265641, ,0.006387251678752182,0.0013217486979673905,-0.01541365548412312,0.002364272563755463,0.011672407478031417,-0.0037741978911183536, ,0.016736928601494953, ,0.01190940851054029, ,7.018711867375099e-05, ,0.15819246019561486,-0.2405090699019739,0.09544712899,1.6091606263002398,0.1539893352356514,-1.3199561945413083, ,0.05135115885198635,0.02933444870431863,0.01608970860606061,0.014532684415142673,0.06138052622738592,-0.029085680706138546, ,0.896679162979126
0.012277499156288738,0.021228820950549152,-0.08556553370491538, ,0.012745862499438826,0.021041791045629185,-0.08612596619660372, ,0.0007539422950605057, ,0.006823958788478317,0.0015621843236449228,-0.016269820688853614,-0.02211041271622458,-0.013969672973555537,0.04095024944523599, ,0.017711970490471733, ,0.02615379462805154, ,7.329215261111815e-05, ,0.15870216056531367,-0.24023877425137605,0.09560786895000001,1.6093703162437245,0.15453588123471315,-1.3201568299356725, ,0.05334285641285598,0.02822633597812932,0.01701796102564103,-0.03501002456119697,0.0491549387586927,-0.011110519582917474, ,0.9125690460205078
0.012350021921956287,0.021244633186438204,-0.0857365370298711, ,0.012863200075234534,0.021053485121209164,-0.08637983397356967, ,0.0008448197190021136, ,0.007118218815145739,0.001384885667023928,-0.01678840975878271,0.016119965890157184,0.002378773331565362,0.03749375094640695, ,0.018287636524160624, ,0.016294493830572833, ,7.723698545733214e-05, ,0.1592736427980063,-0.23992986493640706,0.09578675697000001,1.6093703162437245,0.1550824272337749,-1.320275786589896, ,0.057513297914224715,0.03171689223210922,0.017542743964757714,-0.02721255435377699,0.06838287531634306,-0.051599503548776925, ,0.9235501289367676
0.012500542357556661,0.021275124788172367,-0.08610146044025095, ,0.012980477910895322,0.021063971713973634,-0.08663268032085461, ,0.0007464035889856286, ,0.008399565881466184,0.002037609433625969,-0.020580722814899855,0.009100555811400055,0.01806218282323485,0.015217855314911453, ,0.022321978200527653, ,0.020225203881894194, ,8.054385483203027e-05, ,0.16048611185925954,-0.23924254171060108,0.09616786623000001,1.6091606263002398,0.1567220652309602,-1.3214494439539717, ,0.0665010102021519,0.035290792695600884,0.02155454874154263,0.0,0.08709838096390095,-0.043935966505365874, ,0.9355480670928955
0.012587126362382649,0.02129806686904584,-0.08632326920574049, ,0.01309769273215753,0.0210732759328044,-0.08688450270958364, ,0.0007913229611211027, ,0.008791363791798337,0.002261995914678639,-0.02263389750596441,-0.004877086478341614,0.012675232676903975,0.010460157270953556, ,0.024386431045732536, ,0.013580926175717071, ,8.402581754726255e-05, ,0.16115798961931707,-0.23887185053263832,0.09639990214000001,1.6093703162437245,0.15767852072931826,-1.3220660117995657, ,0.06613027286304585,0.03821866353542923,0.02363325151335312,0.0027660614591614313,0.08048992888326179,-0.03240500606497835, ,0.9463391304016113
0.012686511352634697,0.021323282445620546,-0.08656857392377669, ,0.013214841321547289,0.021081422707041674,-0.08713529865630709, ,0.0008116684123817289, ,0.009632424693257561,0.0023393407625280646,-0.023370566104264016,0.03175503639933696,-0.0033633312344600384,-0.002003613463873236, ,0.025385812587117976, ,0.03193254393085478, ,8.754284911713797e-05, ,0.16189937197524262,-0.23846254569030442,0.09665656756,1.609580006187209,0.1583617032281455,-1.322378065097626, ,0.07260668826202814,0.03952392401435684,0.0244682204608295,0.012401257052426081,0.06829345853190645,-0.06880470310264516, ,0.9567370414733887
0.012784524162177884,0.021344665440691336,-0.08681072854929421, ,0.013331920518114253,0.02108843678699359,-0.08738506572287896, ,0.0008337620058682796, ,0.009899743243066094,0.002076810526661713,-0.024092941574081556,0.028594249961750837,0.009233699286934202,-0.003268926253202007, ,0.026130210330848717, ,0.030048031805676213, ,9.11032615908353e-05, ,0.16264075433116817,-0.2380223499164736,0.09690934411,1.6097896961306934,0.15918152222673815,-1.3228015362993828, ,0.07537485429584652,0.04422038283246542,0.025163999241706165,0.01655185651532146,0.08311284366440914,-0.069600026128318, ,0.9673750400543213
0.012784524162177884,0.021344665440691336,-0.08681072854929421, ,0.013448927217164489,0.021094342744446045,-0.08763380151633535, ,0.0010869875715963564, ,0.009899743243066094,0.002076810526661713,-0.024092941574081556,0.028594249961750837,0.009233699286934202,-0.003268926253202007, ,0.026130210330848717, ,0.030048031805676213, ,9.645747831129509e-05, ,0.16264075433116817,-0.2380223499164736,0.09690934411,1.6097896961306934,0.15918152222673815,-1.3228015362993828, ,0.07537485429584652,0.04422038283246542,0.025163999241706165,0.01655185651532146,0.08311284366440914,-0.069600026128318, ,0.9728109836578369
0.012880671297309963,0.021363774040033104,-0.08704267765299448, ,0.013565858369991298,0.02109916497316998,-0.08788150368877234, ,0.0011149566812816557, ,0.01078183287432393,0.0020714872793122043,-0.025505818292595905,0.018772501254869126,0.02112009046541059,0.0011664708443972576, ,0.02776843075244124, ,0.028256932428802006, ,0.0005444585042052155, ,0.16338985941996795,-0.23758987687551705,0.09715175034000001,1.6097896961306934,0.1601379777250962,-1.3234997828851174, ,0.08442788394881742,0.048097790957157015,0.026681426331658296,0.01655185651532146,0.10466184648214714,-0.06359123747098792, ,0.9781601428985596
0.012880671297309963,0.021363774040033104,-0.08704267765299448, ,0.013682710983609223,0.02110292768943236,-0.088128169937225, ,0.0013746279409879375, ,0.01078183287432393,0.0020714872793122043,-0.025505818292595905,0.018772501254869126,0.02112009046541059,0.0011664708443972576, ,0.02776843075244124, ,0.028256932428802006, ,0.0005675187663380689, ,0.16338985941996795,-0.23758987687551705,0.09715175034000001,1.6097896961306934,0.1601379777250962,-1.3234997828851174, ,0.08442788394881742,0.048097790957157015,0.026681426331658296,0.01655185651532146,0.10466184648214714,-0.06359123747098792, ,0.9834461212158203
0.01299502528985109,0.0213865288668667,-0.08732972026437665, ,0.013799482120486014,0.02110565493250467,-0.08837379800354525, ,0.0013476421204409645, ,0.01235221788829936,0.003042581581353997,-0.033283601400984256,0.08239341700691567,0.07250355462306317,0.014019263154295778, ,0.03563190581008569, ,0.10975153644876325, ,0.0005886031813138228, ,0.16427797370050376,-0.2370492855743213,0.09745119333,1.6097896961306934,0.16150434272275063,-1.32436892570166, ,0.09331066033281296,0.058112027898634885,0.03470329307189543,0.01655185651532146,0.16666155057738719,-0.13707845437102026, ,0.9886810779571533
0.01299502528985109,0.0213865288668667,-0.08732972026437665, ,0.013916168898275212,0.021107370565171996,-0.08861838567427897, ,0.001608444417262972, ,0.01235221788829936,0.003042581581353997,-0.033283601400984256,0.08239341700691567,0.07250355462306317,0.014019263154295778, ,0.03563190581008569, ,0.10975153644876325, ,0.0006154411085756425, ,0.16427797370050376,-0.2370492855743213,0.09745119333,1.6097896961306934,0.16150434272275063,-1.32436892570166, ,0.09331066033281296,0.058112027898634885,0.03470329307189543,0.01655185651532146,0.16666155057738719,-0.13707845437102026, ,0.993920087814331
0.013133188542229982,0.021428990405440752,-0.0877194322372218, ,0.014032768489546824,0.02110809827424173,-0.08886193078054554, ,0.0014891335611612847, ,0.014417704658185081,0.0049449885495604865,-0.042130617012523464,0.07935269089235471,0.08997470317391457,0.022889708410378202, ,0.04480303571435609, ,0.11996734566946987, ,0.0006378434791547616, ,0.16528965170702717,-0.23644691241013183,0.09785822839000001,1.6099993860741781,0.16341725371946678,-1.3258470976132692, ,0.10182075274514032,0.06067579383533937,0.04400224176795581,0.013379094677662325,0.1941375430885218,-0.1370338870641408, ,0.9997460842132568
0.013289365173036125,0.02148198637924363,-0.08816979052501224, ,0.014149278121521856,0.021107861571053776,-0.08910443119791484, ,0.0013239988060872023, ,0.016204382475072436,0.005453833816546084,-0.04678661232636453,0.05648326418310828,0.07410691109636501,0.017691577930766252, ,0.04981278357685366, ,0.09317708526925655, ,0.0006549973623280726, ,0.16637855704229285,-0.23579820284869696,0.09832878166,1.6104187659611469,0.16533016471618295,-1.3271619120445974, ,0.1111205404665934,0.06711240562833859,0.04886138503067485,0.015643250907056393,0.1868305686915932,-0.12007513438546354, ,1.0050749778747559
0.013289365173036125,0.02148198637924363,-0.08816979052501224, ,0.01426569507580186,0.021106683791988077,-0.08934588484628521, ,0.0015739345486918408, ,0.016204382475072436,0.005453833816546084,-0.04678661232636453,0.05648326418310828,0.07410691109636501,0.017691577930766252, ,0.04981278357685366, ,0.09317708526925655, ,0.000677410464434506, ,0.16637855704229285,-0.23579820284869696,0.09832878166,1.6104187659611469,0.16533016471618295,-1.3271619120445974, ,0.1111205404665934,0.06711240562833859,0.04886138503067485,0.015643250907056393,0.1868305686915932,-0.12007513438546354, ,1.0103790760040283
0.013458625591812219,0.02153609419342977,-0.08865182940669786, ,0.014382016688103606,0.021104588098975537,-0.08958628968976175, ,0.0013827742573844805, ,0.018063186486257102,0.005286556507810037,-0.050263124451849536,-0.0156633842432551,0.025111565607479427,0.010885362057770126, ,0.05367129647595337, ,0.029590733745072074, ,0.0006942048404571245, ,0.16751379877480385,-0.2350877114242683,0.09883174218000002,1.6106284559046316,0.16696980271336823,-1.328172211928392, ,0.11981937065463481,0.07734062066705036,0.05239740631578948,0.011019160785933263,0.14647554765833584,-0.05874141067650545, ,1.015758991241455
0.013458625591812219,0.02153609419342977,-0.08865182940669786, ,0.014498240347988273,0.02110159748000517,-0.0898256437365334, ,0.0016270913668761933, ,0.018063186486257102,0.005286556507810037,-0.050263124451849536,-0.0156633842432551,0.025111565607479427,0.010885362057770126, ,0.05367129647595337, ,0.029590733745072074, ,0.0007158998759552424, ,0.16751379877480385,-0.2350877114242683,0.09883174218000002,1.6106284559046316,0.16696980271336823,-1.328172211928392, ,0.11981937065463481,0.07734062066705036,0.05239740631578948,0.011019160785933263,0.14647554765833584,-0.05874141067650545, ,1.0211460590362549
0.013649325877245938,0.021587186668790538,-0.08917833316609865, ,0.014614363498595505,0.02109773474963466,-0.09006394503875119, ,0.0013982736430214744, ,0.019416428969609878,0.004867319872488156,-0.05274329400668122,0.018968805512256482,0.031070694278386764,0.012672745736708223, ,0.05641403707720481, ,0.03639773976561894, ,0.000731408370661293, ,0.1687880496990509,-0.23423821080810361,0.09938007285000001,1.6106284559046316,0.16860944071055353,-1.3292641905523275, ,0.13017413108157858,0.08754330402072949,0.05492693627586208,0.011019160785933263,0.16319071533942506,-0.10342033240527365, ,1.026414155960083
0.013649325877245938,0.021587186668790538,-0.08917833316609865, ,0.014730383636374243,0.02109302254949866,-0.09030119169240565, ,0.0016351438240923524, ,0.019416428969609878,0.004867319872488156,-0.05274329400668122,0.018968805512256482,0.031070694278386764,0.012672745736708223, ,0.05641403707720481, ,0.03639773976561894, ,0.0007514913807375388, ,0.1687880496990509,-0.23423821080810361,0.09938007285000001,1.6106284559046316,0.16860944071055353,-1.3292641905523275, ,0.13017413108157858,0.08754330402072949,0.05492693627586208,0.011019160785933263,0.16319071533942506,-0.10342033240527365, ,1.0316710472106934
0.01385609942807504,0.021631143684531663,-0.08971039335040318, ,0.014846298310814403,0.0210874833488179,-0.09053738183720463, ,0.0013999894089988087, ,0.020022430914581835,0.0036768093217096265,-0.04902113898134705,0.007729904387434647,0.03869844027542997,0.017193336957295063, ,0.053080021981400466, ,0.03945931596600287, ,0.00076558916396061, ,0.17022447801365664,-0.23330376013032245,0.09993488497000001,1.6106284559046316,0.17038571520750423,-1.3302225508595378, ,0.14422027592472764,0.09012055228724672,0.051218043472668826,0.011019160785933263,0.1854418160703809,-0.09471228122756833, ,1.0369760990142822
0.01385609942807504,0.021631143684531663,-0.08971039335040318, ,0.014962105124179552,0.02108113944490857,-0.09077251365645075, ,0.0016290650103472236, ,0.020022430914581835,0.0036768093217096265,-0.04902113898134705,0.007729904387434647,0.03869844027542997,0.017193336957295063, ,0.053080021981400466, ,0.03945931596600287, ,0.000783960990479474, ,0.17022447801365664,-0.23330376013032245,0.09993488497000001,1.6106284559046316,0.17038571520750423,-1.3302225508595378, ,0.14422027592472764,0.09012055228724672,0.051218043472668826,0.011019160785933263,0.1854418160703809,-0.09471228122756833, ,1.0423200130462646
0.01406454586383568,0.02165783149505946,-0.0901919307299665, ,0.01507780173123743,0.021074012963690835,-0.09100658537691887, ,0.0014251995383786082, ,0.020845633722502154,0.0013535044234414208,-0.045448749813448076,0.03024253660878388,0.03234226185681343,0.0059885567597520555, ,0.050019608946116234, ,0.04427684505818449, ,0.0007973201268940393, ,0.17176902458850155,-0.2323152503224217,0.10043784549000001,1.6110478357916007,0.1722986262042204,-1.331537365290866, ,0.15869053772319527,0.10509074369708835,0.04740717714285715,0.020941660166266186,0.1913875145396978,-0.13024258967547822, ,1.0476231575012207
0.01406454586383568,0.02165783149505946,-0.0901919307299665, ,0.015193385838992511,0.021066125860198338,-0.09123959526873388, ,0.0016498473364615139, ,0.020845633722502154,0.0013535044234414208,-0.045448749813448076,0.03024253660878388,0.03234226185681343,0.0059885567597520555, ,0.050019608946116234, ,0.04427684505818449, ,0.0008147186413750082, ,0.17176902458850155,-0.2323152503224217,0.10043784549000001,1.6110478357916007,0.1722986262042204,-1.331537365290866, ,0.15869053772319527,0.10509074369708835,0.04740717714285715,0.020941660166266186,0.1913875145396978,-0.13024258967547822, ,1.0528690814971924
0.014282417210353554,0.021663517222442863,-0.09064837483855298, ,0.01530885520641734,0.021057499919086935,-0.09147154164524778, ,0.001448597778327143, ,0.02156622939775708,-0.00019523999064929306,-0.04253923900448897,-0.02421798910219898,0.0033702597501543436,0.001150985619991731, ,0.04769410051748189, ,0.0244485244493529, ,0.0008273962241140509, ,0.17332129389622067,-0.23125723591865294,0.10088247296000001,1.6112575257350852,0.17407490070117113,-1.3325774043382166, ,0.16855584646264793,0.11433366452827805,0.04474385258426967,0.0195974476095921,0.17091537286661954,-0.08294337981000302, ,1.0581130981445312
0.014282417210353554,0.021663517222442863,-0.09064837483855298, ,0.015424207644183965,0.021048156755143706,-0.09170242286291753, ,0.0016713381277192517, ,0.02156622939775708,-0.00019523999064929306,-0.04253923900448897,-0.02421798910219898,0.0033702597501543436,0.001150985619991731, ,0.04769410051748189, ,0.0244485244493529, ,0.000843944104576898, ,0.17332129389622067,-0.23125723591865294,0.10088247296000001,1.6112575257350852,0.17407490070117113,-1.3325774043382166, ,0.16855584646264793,0.11433366452827805,0.04474385258426967,0.0195974476095921,0.17091537286661954,-0.08294337981000302, ,1.0634820461273193
0.014367185447849486,0.021661452652989393,-0.09081377326464506, ,0.015539441014395562,0.021038117813796053,-0.09193223732118184, ,0.0017359986407872493, ,0.021563233635115385,-0.0007779569929335798,-0.04153030679163254,-0.012735878891487418,0.004565525599451472,0.001930783113070077, ,0.04680111797908834, ,0.01352490628393122, ,0.0008610989995040202, ,0.17410901264939158,-0.23072436735033144,0.10108599049000001,1.6114672156785694,0.17489471969976378,-1.3331642330202544, ,0.16976197058760426,0.11643796510241813,0.043284813913043486,0.01869162585562733,0.1747440682457736,-0.09871024302194029, ,1.069092035293579
0.014367185447849486,0.021661452652989393,-0.09081377326464506, ,0.01565455323031787,0.021027404371620633,-0.09216098346233953, ,0.0019683262806801686, ,0.021563233635115385,-0.0007779569929335798,-0.04153030679163254,-0.012735878891487418,0.004565525599451472,0.001930783113070077, ,0.04680111797908834, ,0.01352490628393122, ,0.0008819900802809286, ,0.17410901264939158,-0.23072436735033144,0.10108599049000001,1.6114672156785694,0.17489471969976378,-1.3331642330202544, ,0.16976197058760426,0.11643796510241813,0.043284813913043486,0.01869162585562733,0.1747440682457736,-0.09871024302194029, ,1.0752711296081543
0.01471326599442116,0.021623219398756482,-0.09141206809227213, ,0.01576954225611131,0.02101603753685253,-0.09238865977142569, ,0.001561448257941077, ,0.022168593395218282,-0.004008984848326708,-0.035440591757620335,-0.10283549809428755,-0.11144681896896681,0.02105768807492593, ,0.04199469057829734, ,0.15164259696611668, ,0.0008945726391264869, ,0.17684286008686706,-0.22877051593315265,0.10170820969000001,1.6116769056220543,0.1766709941967145,-1.334040914587324, ,0.17541024317647097,0.1327229951866724,0.03670233069124424,-0.029062840318797724,0.0724798019951961,-0.032770828011453694, ,1.0816161632537842
0.014933964677740476,0.02158392183491622,-0.09176817265849735, ,0.01588440610656207,0.02100403824989419,-0.09261526477609022, ,0.0013989885408702987, ,0.02238844041898448,-0.003947300042876838,-0.03678795780496897,-0.00020109864057324457,-0.03479054386818209,-0.006202190143198132, ,0.04324554637743742, ,0.034790156707203854, ,0.0009037438373400107, ,0.17861136591506446,-0.22744992861166025,0.10207765234,1.6114672156785694,0.17776408619483802,-1.3347689003366143, ,0.18075607915899194,0.1353736684143663,0.038198588776978425,0.01578780151457617,0.1461726749106215,-0.13028963770899965, ,1.0869269371032715
0.014933964677740476,0.02158392183491622,-0.09176817265849735, ,0.01599914284681259,0.020991427283823905,-0.0928407970464738, ,0.0016236309317772184, ,0.02238844041898448,-0.003947300042876838,-0.03678795780496897,-0.00020109864057324457,-0.03479054386818209,-0.006202190143198132, ,0.04324554637743742, ,0.034790156707203854, ,0.0009165989640263894, ,0.17861136591506446,-0.22744992861166025,0.10207765234,1.6114672156785694,0.17776408619483802,-1.3347689003366143, ,0.18075607915899194,0.1353736684143663,0.038198588776978425,0.01578780151457617,0.1461726749106215,-0.13028963770899965, ,1.0921521186828613
0.015171272517722755,0.021541288911313433,-0.09216529979524009, ,0.01611375059209503,0.020978225244905842,-0.0930652551950866, ,0.001419586325241872, ,0.02361537233414852,-0.004178282478110723,-0.03920327662522834,0.011004678517418603,-0.0266059586810767,-0.0020156933826269772, ,0.04595694455793954, ,0.02879040441588089, ,0.0009254233036968364, ,0.18052660366787213,-0.22599805483130606,0.10248987256000001,1.6114672156785694,0.17954036069178875,-1.3362990118248081, ,0.18903773218818878,0.1427021677570989,0.04073864838874681,0.013642671692083804,0.16351155702878425,-0.14903452159500646, ,1.0973889827728271
0.015171272517722755,0.021541288911313433,-0.09216529979524009, ,0.016228227507460575,0.020964452573097956,-0.0932886378766837, ,0.001646749056972234, ,0.02361537233414852,-0.004178282478110723,-0.03920327662522834,0.011004678517418603,-0.0266059586810767,-0.0020156933826269772, ,0.04595694455793954, ,0.02879040441588089, ,0.0009378599546153778, ,0.18052660366787213,-0.22599805483130606,0.10248987256000001,1.6114672156785694,0.17954036069178875,-1.3362990118248081, ,0.18903773218818878,0.1427021677570989,0.04073864838874681,0.013642671692083804,0.16351155702878425,-0.14903452159500646, ,1.1026251316070557
0.015414250059339609,0.0215022746179121,-0.09256498272452769, ,0.016342571807512328,0.02095012954256175,-0.09351094378814458, ,0.0014357882107899084, ,0.025117617580766288,-0.004037101576236298,-0.041355491323112704,-0.04156532864204381,-0.08602032007326835,-0.00878336572215041, ,0.046746653950359714, ,0.0955356009239661, ,0.0009462994165844377, ,0.18242639595493138,-0.22458479471532297,0.10290598165,1.6116769056220543,0.1807700891896777,-1.3373017729580758, ,0.19366722767034852,0.14532456593946522,0.04305084194594595,0.0070425313815550145,0.10881532072131894,-0.10012196858508723, ,1.108626127243042
0.015414250059339609,0.0215022746179121,-0.09256498272452769, ,0.016456781756135526,0.020935276262170694,-0.0937321716683481, ,0.0016645388264664297, ,0.025117617580766288,-0.004037101576236298,-0.041355491323112704,-0.04156532864204381,-0.08602032007326835,-0.00878336572215041, ,0.04855378012726218, ,0.0955356009239661, ,0.0009582700734158041, ,0.18242639595493138,-0.22458479471532297,0.10290598165,1.6116769056220543,0.1807700891896777,-1.3373017729580758, ,0.19366722767034852,0.14532456593946522,0.04305084194594595,0.0070425313815550145,0.10881532072131894,-0.10012196858508723, ,1.1143269538879395
0.015661554251000628,0.021461881542929308,-0.09298010527353502, ,0.01657085566622964,0.02091991267601955,-0.09395232029805137, ,0.0014372756765256441, ,0.02552288736469365,-0.003976304340583023,-0.044033206250746915,-0.04184963652543953,-0.07278177816100843,-0.018407938515280147, ,0.051050485094273054, ,0.08395483172590232, ,0.0009661226242864573, ,0.18431074277624215,-0.22313292093496875,0.10333764622000001,1.6118865955655386,0.18186318118780123,-1.338274794927788, ,0.1917109930474157,0.1499161793972682,0.04577244689655173,0.017978157640365477,0.11790733457030972,-0.10233071350236068, ,1.1199870109558105
0.01593665034346546,0.02142117922605997,-0.09345315346996655, ,0.01668479189944009,0.020904058563933455,-0.09417138849976588, ,0.0011588749393291516, ,0.025409524444349567,-0.004129295656135043,-0.043498947669971665,-0.04947906736831361,-0.07885150228357192,-0.01875264491047269, ,0.05054555829643894, ,0.09308910667911445, ,0.0009692315325935976, ,0.18636498972078586,-0.22154976069575275,0.10383023642000001,1.6120962855090233,0.1830929096856902,-1.339277556061056, ,0.18866191164705923,0.14874128770920184,0.04525230545454546,0.016087599013372225,0.10899218992429785,-0.09379047960631415, ,1.125797986984253
0.01593665034346546,0.02142117922605997,-0.09345315346996655, ,0.016798588865887414,0.020887733541976317,-0.09438937513763507, ,0.0013798598933639746, ,0.025409524444349567,-0.004129295656135043,-0.043498947669971665,-0.04947906736831361,-0.07885150228357192,-0.01875264491047269, ,0.05054555829643894, ,0.09308910667911445, ,0.0009757494430820162, ,0.18636498972078586,-0.22154976069575275,0.10383023642000001,1.6120962855090233,0.1830929096856902,-1.339277556061056, ,0.18866191164705923,0.14874128770920184,0.04525230545454546,0.016087599013372225,0.10899218992429785,-0.09379047960631415, ,1.1311330795288086
0.01618803878155473,0.021374610670226456,-0.09387705309145324, ,0.016912245023901686,0.020870957062960584,-0.09460627911731115, ,0.0011445139729836197, ,0.024456450143972318,-0.004639601038689441,-0.04128712312205245,-0.0399478045388948,-0.057448891893161186,-0.014307016397664452, ,0.048210687478383155, ,0.06997201081221485, ,0.0009783863888617288, ,0.18824933654209663,-0.22004382778527895,0.10427097502,1.6120962855090233,0.18432263818357916,-1.3403619959344644, ,0.1828457448140092,0.14735549931439562,0.04293480194070081,0.015081512915195168,0.12518742407640432,-0.10208195016479622, ,1.1363780498504639
0.01618803878155473,0.021374610670226456,-0.09387705309145324, ,0.017025758879750923,0.02085374841695546,-0.0948220993858328, ,0.0013660837998911088, ,0.024456450143972318,-0.004639601038689441,-0.04128712312205245,-0.0399478045388948,-0.057448891893161186,-0.014307016397664452, ,0.048210687478383155, ,0.06997201081221485, ,0.000984350964416027, ,0.18824933654209663,-0.22004382778527895,0.10427097502,1.6120962855090233,0.18432263818357916,-1.3403619959344644, ,0.1828457448140092,0.14735549931439562,0.04293480194070081,0.015081512915195168,0.12518742407640432,-0.10208195016479622, ,1.1417100429534912
0.016433267865937462,0.021325649664256714,-0.09428964880686506, ,0.01713912898737359,0.02083612673179626,-0.09503683493150152, ,0.0011384901093153986, ,0.02416898159947255,-0.004799978148082952,-0.04104925243415314,-0.01776972149028765,-0.03699287412348975,-0.008192827520471933, ,0.04787714054933256, ,0.041038021199928894, ,0.0009866864060054114, ,0.19008734696616209,-0.21855334034055363,0.10470004701,1.6120962855090233,0.18568900318123358,-1.3417212111918502, ,0.1804124364229482,0.14712704117592368,0.04270458852546917,0.01270210416407426,0.1441631244867172,-0.12442020658978774, ,1.1473159790039062
0.016433267865937462,0.021325649664256714,-0.09428964880686506, ,0.017252353948110536,0.020818110973593502,-0.09525048478375908, ,0.0013607730549300438, ,0.02416898159947255,-0.004799978148082952,-0.04104925243415314,-0.01776972149028765,-0.03699287412348975,-0.008192827520471933, ,0.04787714054933256, ,0.041038021199928894, ,0.000992269788825182, ,0.19008734696616209,-0.21855334034055363,0.10470004701,1.6120962855090233,0.18568900318123358,-1.3417212111918502, ,0.1804124364229482,0.14712704117592368,0.04270458852546917,0.01270210416407426,0.1441631244867172,-0.12442020658978774, ,1.1525859832763672
0.016673357891890252,0.02127724847297204,-0.09469686312365933, ,0.017365432410435186,0.020799719947241675,-0.09546304801306511, ,0.001137558753146041, ,0.02384700798086334,-0.004776810491236262,-0.039344618501212264,-0.019516265584464846,-0.04330002335712031,-0.007826177143994967, ,0.04625469395763504, ,0.04749402450356297, ,0.0009944063912416653, ,0.19187902099298218,-0.2170937438273252,0.10512393384000002,1.6120962855090233,0.18719200467865343,-1.3431101656127922, ,0.17804304232358495,0.14184894104405196,0.04105363793814434,0.010977023172514977,0.1356196469560955,-0.11775452451836887, ,1.1578609943389893
0.016673357891890252,0.02127724847297204,-0.09469686312365933, ,0.017478363069684293,0.020780972296927963,-0.09567452373077256, ,0.0013601998536557688, ,0.02384700798086334,-0.004776810491236262,-0.039344618501212264,-0.019516265584464846,-0.04330002335712031,-0.007826177143994967, ,0.04625469395763504, ,0.04749402450356297, ,0.0009997077457694057, ,0.19187902099298218,-0.2170937438273252,0.10512393384000002,1.6120962855090233,0.18719200467865343,-1.3431101656127922, ,0.17804304232358495,0.14184894104405196,0.04105363793814434,0.010977023172514977,0.1356196469560955,-0.11775452451836887, ,1.1631481647491455
0.016902194840847876,0.021229889224920136,-0.09507363151336104, ,0.01759114466778997,0.020761886506641666,-0.0958849110890067, ,0.0011626921166927077, ,0.02303312740396995,-0.005059854177183283,-0.037648828954122346,-0.030170757843253123,-0.05795587653817168,-0.011635577237577046, ,0.04442478366766271, ,0.06533821709479588, ,0.001002036093925453, ,0.19356257675956312,-0.21572682010858746,0.10551670971000002,1.6120962855090233,0.18828509667677693,-1.3441648663226444, ,0.16945882421155498,0.13955432582128055,0.03923352591133005,0.009695182041299998,0.112071718569677,-0.10502561989250808, ,1.1684739589691162
0.016902194840847876,0.021229889224920136,-0.09507363151336104, ,0.017703775993011647,0.02074248090068305,-0.09609420928054091, ,0.0013862460809328375, ,0.02303312740396995,-0.005059854177183283,-0.037648828954122346,-0.030170757843253123,-0.05795587653817168,-0.011635577237577046, ,0.04442478366766271, ,0.06533821709479588, ,0.0010074475021931626, ,0.19356257675956312,-0.21572682010858746,0.10551670971000002,1.6120962855090233,0.18828509667677693,-1.3441648663226444, ,0.16945882421155498,0.13955432582128055,0.03923352591133005,0.009695182041299998,0.112071718569677,-0.10502561989250808, ,1.1737511157989502
0.017121268800094215,0.02118006185370642,-0.0954401003975448, ,0.017816255879665486,0.020722773644172084,-0.09630241753867366, ,0.001198211333294246, ,0.022260174193343897,-0.005303303249983576,-0.0379896599783325,-0.016500264372705374,-0.04587195598266373,-0.0019040909828967605, ,0.0443492350074792, ,0.04874849682420695, ,0.0010100969998473443, ,0.19515345973165335,-0.21436761912272395,0.10589781897000002,1.6123059754525078,0.18937818867490044,-1.345219567032497, ,0.16002856923856792,0.14121568684296246,0.03942775128712872,0.0,0.11690367796951608,-0.12209423548484996, ,1.1792221069335938
0.017121268800094215,0.02118006185370642,-0.0954401003975448, ,0.017928583207856254,0.020702782743557545,-0.09650953513710621, ,0.0014224073130244545, ,0.022260174193343897,-0.005303303249983576,-0.0379896599783325,-0.016500264372705374,-0.04587195598266373,-0.0019040909828967605, ,0.0443492350074792, ,0.04874849682420695, ,0.0010157450863292224, ,0.19515345973165335,-0.21436761912272395,0.10589781897000002,1.6123059754525078,0.18937818867490044,-1.345219567032497, ,0.16002856923856792,0.14121568684296246,0.03942775128712872,0.0,0.11690367796951608,-0.12209423548484996, ,1.1846590042114258
0.017356982544738487,0.021124570275058874,-0.09584974748571759, ,0.018040756903208686,0.020682526047126,-0.09671556138981942, ,0.001188521850571605, ,0.02104294486741657,-0.004889275465020313,-0.036876017471094806,-0.02722038499433358,-0.02545492383764447,-0.010776403795586411, ,0.04273817038426507, ,0.037267067457997814, ,0.0010180799074676332, ,0.19672889723799517,-0.2129620817396151,0.10629448371000001,1.612725355339477,0.1906079171727894,-1.3464673643861864, ,0.1496797185464839,0.133469678703897,0.03866216388349515,0.012048623514376607,0.12307572002717745,-0.10052667218192936, ,1.1899549961090088
0.017356982544738487,0.021124570275058874,-0.09584974748571759, ,0.01815277593659896,0.02066202124551082,-0.09692049565094998, ,0.001411998711264703, ,0.02104294486741657,-0.004889275465020313,-0.036876017471094806,-0.02722038499433358,-0.02545492383764447,-0.010776403795586411, ,0.04273817038426507, ,0.037267067457997814, ,0.0010233321581849272, ,0.19672889723799517,-0.2129620817396151,0.10629448371000001,1.612725355339477,0.1906079171727894,-1.3464673643861864, ,0.1496797185464839,0.133469678703897,0.03866216388349515,0.012048623514376607,0.12307572002717745,-0.10052667218192936, ,1.1952180862426758
0.017558655839153635,0.021078313858900896,-0.09620669708866285, ,0.01826463932388467,0.020641285872200908,-0.09712433731466824, ,0.0012375256467060595, ,0.02073024697186925,-0.004612095097427429,-0.03770776710872651,-0.004611990233241705,-0.01611719128761482,-0.009710126305134192, ,0.043276902165339484, ,0.016761804018958184, ,0.0010261504935602053, ,0.19825799834709162,-0.2115874352880031,0.10669374103000001,1.612725355339477,0.19197428217044385,-1.3475815434231506, ,0.14356572096591644,0.13143620714469637,0.039137129041769046,0.01191155230914144,0.127929370545944,-0.1219857235167354, ,1.2005009651184082
0.017558655839153635,0.021078313858900896,-0.09620669708866285, ,0.018376346125637034,0.02062033730404988,-0.09732708581505493, ,0.0014606953233405613, ,0.02073024697186925,-0.004612095097427429,-0.03770776710872651,-0.004611990233241705,-0.01611719128761482,-0.009710126305134192, ,0.043276902165339484, ,0.016761804018958184, ,0.0010317939329080022, ,0.1996403675315778,-0.21030546163088185,0.10708133174000001,1.6129350452829614,0.19334064716809823,-1.3490224374206772, ,0.13673910887387722,0.12669818632639623,0.040428455634517774,-0.009287060846067023,0.12401179845944023,-0.09912182497602237, ,1.2057549953460693
0.017759714803105075,0.021034220370737516,-0.09658021421233379, ,0.018487895446871808,0.020599192761785012,-0.09752874062597805, ,0.001272477279910456, ,0.020447440882174022,-0.0040153020945135716,-0.038941474650683226,-0.026870558096978917,-0.01753789996511887,0.01034432060271084, ,0.04416626469954201, ,0.03208606049948469, ,0.001034879616843931, ,0.1996403675315778,-0.21030546163088185,0.10708133174000001,1.6129350452829614,0.19334064716809823,-1.3490224374206772, ,0.13673910887387722,0.12669818632639623,0.040428455634517774,-0.009287060846067023,0.12401179845944023,-0.09912182497602237, ,1.2115321159362793
0.01797292516136051,0.020996029850522277,-0.0969864559883413, ,0.01859928643677916,0.020577869310515993,-0.09772930126096954, ,0.0010578306970534363, ,0.02070706655462918,-0.0034135484850538935,-0.03971957338463847,0.015461153838347454,-0.02290393592267481,0.009811488072482149, ,0.04492303894902187, ,0.02763220400630948, ,0.0010351701368465829, ,0.20105362764756088,-0.20902348797376058,0.10750392228000001,1.6129350452829614,0.1945703756659872,-1.3502702347743667, ,0.1359555036654309,0.12150696742441842,0.04137353641558442,-0.009287060846067023,0.11768503822121154,-0.13634991793908574, ,1.217257022857666
0.01797292516136051,0.020996029850522277,-0.0969864559883413, ,0.01871051828845686,0.02055638386024406,-0.09792876727310273, ,0.0012748657871698656, ,0.02070706655462918,-0.0034135484850538935,-0.03971957338463847,0.015461153838347454,-0.02290393592267481,0.009811488072482149, ,0.04492303894902187, ,0.02763220400630948, ,0.001038166332475624, ,0.20105362764756088,-0.20902348797376058,0.10750392228000001,1.6129350452829614,0.1945703756659872,-1.3502702347743667, ,0.1359555036654309,0.12150696742441842,0.04137353641558442,-0.009287060846067023,0.11768503822121154,-0.13634991793908574, ,1.2225840091705322
0.01817970130694985,0.02096225805545062,-0.09738179255083716, ,0.018821590238639486,0.02053475316637098,-0.09812713825486934, ,0.0010725306752405153, ,0.020242619899309634,-0.003157723832852794,-0.03885084097034247,-0.031067431276555174,-0.0238693876338536,0.00930492465456784, ,0.04392177961211651, ,0.03917709075653215, ,0.0010385905836208696, ,0.20241282863342439,-0.20781874164538156,0.1079161425,1.6129350452829614,0.19580010416387617,-1.3515997108681965, ,0.13143620714469637,0.11615292724415029,0.040531327022900764,-0.009287060846067023,0.11201522275863834,-0.08456096800941426, ,1.227813959121704
0.01817970130694985,0.02096225805545062,-0.09738179255083716, ,0.018932501567431027,0.020512993830207955,-0.09832441383805544, ,0.001287276764095612, ,0.020242619899309634,-0.003157723832852794,-0.03885084097034247,-0.031067431276555174,-0.0238693876338536,0.00930492465456784, ,0.04392177961211651, ,0.03917709075653215, ,0.001041623341919342, ,0.20241282863342439,-0.20781874164538156,0.1079161425,1.6129350452829614,0.19580010416387617,-1.3515997108681965, ,0.13143620714469637,0.11615292724415029,0.040531327022900764,-0.009287060846067023,0.11201522275863834,-0.08456096800941426, ,1.2330760955810547
0.018377331476763785,0.020929100355563147,-0.0977689429083327, ,0.019043251598034713,0.020491122299484348,-0.09852059369361948, ,0.0010955607187838994, ,0.01978716469389417,-0.00356836490178152,-0.0383368941312959,0.0026039944794506225,-0.002846156119086631,-0.010716990379411557, ,0.043289520282970895, ,0.003846892453889692, ,0.001042273189833373, ,0.20368707955767143,-0.20665260898137366,0.10831928869000002,1.612725355339477,0.19702983266176513,-1.3527658294817453, ,0.12806604798714005,0.11847308559109959,0.03992183338345865,0.013783305629486297,0.12517020178629754,-0.11595188394114972, ,1.2383091449737549
0.018377331476763785,0.020929100355563147,-0.0977689429083327, ,0.019153839696484324,0.020469154868857108,-0.09871567753156857, ,0.0013079836821873513, ,0.01978716469389417,-0.00356836490178152,-0.0383368941312959,0.0026039944794506225,-0.002846156119086631,-0.010716990379411557, ,0.043289520282970895, ,0.003846892453889692, ,0.001045436409980444, ,0.20368707955767143,-0.20665260898137366,0.10831928869000002,1.612725355339477,0.19702983266176513,-1.3527658294817453, ,0.12806604798714005,0.11847308559109959,0.03992183338345865,0.013783305629486297,0.12517020178629754,-0.11595188394114972, ,1.2435860633850098
0.018566338245368363,0.0208973192769538,-0.09813960140313281, ,0.01926426527137585,0.020447107680419283,-0.09890966510083568, ,0.0011326035112984745, ,0.0191020384850524,-0.0030855812241001933,-0.03769146506545633,0.027754991138627776,0.017788196449312198,-0.005620541016052765, ,0.042368092057059374, ,0.03296488124854651, ,0.001046461905290068, ,0.2048995486189247,-0.20554053544748532,0.10870558311000002,1.612725355339477,0.1982595611596541,-1.3536869118748727, ,0.12308293327946923,0.11151226975143451,0.039330398814814815,0.013202129555605083,0.14127616838720036,-0.13436904212811387, ,1.2489471435546875
0.018566338245368363,0.0208973192769538,-0.09813960140313281, ,0.019374527773598913,0.02042499672420922,-0.09910255618915619, ,0.0013429597266105923, ,0.0191020384850524,-0.0030855812241001933,-0.03769146506545633,0.027754991138627776,0.017788196449312198,-0.005620541016052765, ,0.042368092057059374, ,0.03296488124854651, ,0.0010499095543751904, ,0.2048995486189247,-0.20554053544748532,0.10870558311000002,1.612725355339477,0.1982595611596541,-1.3536869118748727, ,0.12308293327946923,0.11151226975143451,0.039330398814814815,0.013202129555605083,0.14127616838720036,-0.13436904212811387, ,1.2544441223144531
0.018759293409700752,0.020865508002169894,-0.09852493524979555, ,0.019484626696065495,0.020402837838719427,-0.09929435062294535, ,0.001154197588324981, ,0.01826263022692541,-0.003138830994154695,-0.036640287854632976,0.04240185574921047,0.033019691630907004,-0.0017913129092999483, ,0.04105954964299585, ,0.05374152368797486, ,0.001051108267409096, ,0.20609657221442948,-0.20444390737934545,0.10909317382000001,1.612725355339477,0.19976256265707393,-1.3550758662958144, ,0.1170122583951551,0.10845364749539518,0.03847539014492755,0.01158319377870394,0.15080859865204976,-0.14692981210867154, ,1.2597320079803467
0.018759293409700752,0.020865508002169894,-0.09852493524979555, ,0.019594561573443702,0.020380646711405558,-0.0994850482671744, ,0.0013618297921489642, ,0.01826263022692541,-0.003138830994154695,-0.036640287854632976,0.04240185574921047,0.033019691630907004,-0.0017913129092999483, ,0.04105954964299585, ,0.05374152368797486, ,0.0010546391938265945, ,0.20609657221442948,-0.20444390737934545,0.10909317382000001,1.612725355339477,0.19976256265707393,-1.3550758662958144, ,0.1170122583951551,0.10845364749539518,0.03847539014492755,0.01158319377870394,0.15080859865204976,-0.14692981210867154, ,1.265066146850586
0.018810906585537697,0.02085684980010733,-0.09862673353519744, ,0.019704331981887726,0.020358438879195386,-0.09967464902524828, ,0.0014644962475936904, ,0.01834194937500787,-0.0032237466330854183,-0.03626339978380432,0.03820899599441042,0.028987749445299502,-0.0021160490815878424, ,0.040765841253550754, ,0.047959923706866935, ,0.0010592443292621798, ,0.20646726339239227,-0.20410410713287958,0.10921372879,1.612725355339477,0.20017247215637027,-1.3554101200069035, ,0.1178843994515165,0.1087021094598749,0.03783565681710214,0.01114717613078624,0.14779708137796635,-0.1424373170323502, ,1.2705190181732178
0.018810906585537697,0.02085684980010733,-0.09862673353519744, ,0.01981393753876791,0.02033622972899769,-0.09986315283888203, ,0.0016750668780989052, ,0.01834194937500787,-0.0032237466330854183,-0.03626339978380432,0.03820899599441042,0.028987749445299502,-0.0021160490815878424, ,0.040765841253550754, ,0.047959923706866935, ,0.0010660868020270324, ,0.20646726339239227,-0.20410410713287958,0.10921372879,1.612725355339477,0.20017247215637027,-1.3554101200069035, ,0.1178843994515165,0.1087021094598749,0.03783565681710214,0.01114717613078624,0.14779708137796635,-0.1424373170323502, ,1.275813102722168
0.019117740949962436,0.020797932356528905,-0.09920856754954008, ,0.019923377902404206,0.02031403449821118,-0.10005055968797727, ,0.001261807749862942, ,0.01811422631307208,-0.0038635546905154547,-0.03274872643548231,-0.009703271238252495,-0.014882947306226905,-0.0006306956261433899, ,0.03762354758543982, ,0.01776563889324204, ,0.0010682375816735807, ,0.20845200574106795,-0.20229698764031104,0.10982168880000001,1.6129350452829614,0.2023586561526173,-1.357274485206187, ,0.11759224480603565,0.10638670578303898,0.034255508645161296,0.0003114951727177398,0.10488092802468273,-0.09435193682544123, ,1.2819099426269531
0.019298781321957323,0.020760075812220734,-0.09954430970306766, ,0.020032652771793655,0.020291868275233674,-0.10023686959050025, ,0.0011123959727799353, ,0.01784001735957219,-0.0035215989828726647,-0.03404675453621819,0.03381092238447954,0.038727529522581246,0.005111587711382054, ,0.03859856698422237, ,0.05140967094553796, ,0.0010687175641856065, ,0.20959497020645318,-0.20126214143516494,0.11016002049000001,1.613144735226446,0.20372502115027172,-1.3583886642431513, ,0.11601093100057551,0.10567588146823026,0.03555538285714287,0.005509449840881612,0.15696773835890165,-0.13554166995753758, ,1.2872049808502197
0.019298781321957323,0.020760075812220734,-0.09954430970306766, ,0.020141761886345397,0.020269745999970713,-0.10042208260235734, ,0.0013120689080397395, ,0.01784001735957219,-0.0035215989828726647,-0.03404675453621819,0.03381092238447954,0.038727529522581246,0.005111587711382054, ,0.03859856698422237, ,0.05140967094553796, ,0.0010713342453023175, ,0.20959497020645318,-0.20126214143516494,0.11016002049000001,1.613144735226446,0.20372502115027172,-1.3583886642431513, ,0.11601093100057551,0.10567588146823026,0.03555538285714287,0.005509449840881612,0.15696773835890165,-0.13554166995753758, ,1.2925200462341309
0.019486213561532344,0.020725219661861284,-0.09989495092800676, ,0.0202507050256097,0.02024768246434471,-0.10060619881727256, ,0.0011481996924072805, ,0.018253713640524697,-0.0031707517762132684,-0.033636778393858945,0.029211412335610528,0.025891527636704013,0.0037028877167146397, ,0.03840162222112776, ,0.03903376428436113, ,0.0010721519628247107, ,0.210861498397826,-0.20015779063415085,0.11054112975000001,1.613144735226446,0.205364659147457,-1.3597256790875083, ,0.11906768075090436,0.10042004397721775,0.03539735893333334,0.005509449840881612,0.14693583498888008,-0.12630364965175067, ,1.2978100776672363
0.019486213561532344,0.020725219661861284,-0.09989495092800676, ,0.02035948200900546,0.020225692312804168,-0.10078921836666567, ,0.0013460459151357718, ,0.018253713640524697,-0.0031707517762132684,-0.033636778393858945,0.029211412335610528,0.025891527636704013,0.0037028877167146397, ,0.03840162222112776, ,0.03903376428436113, ,0.0010750350570595641, ,0.210861498397826,-0.20015779063415085,0.11054112975000001,1.613144735226446,0.205364659147457,-1.3597256790875083, ,0.11906768075090436,0.10042004397721775,0.03539735893333334,0.005509449840881612,0.14693583498888008,-0.12630364965175067, ,1.3030719757080078
0.019661853505572303,0.020694677633294436,-0.10022382368903195, ,0.020468092695560287,0.020203790042831855,-0.10097114141952583, ,0.0012039418791009678, ,0.01879533682010066,-0.0030755069169089845,-0.03487858974226225,0.0512585069465409,0.05012818777921954,0.009312571268896295, ,0.039739645838709085, ,0.07169531454147149, ,0.0010763778364558288, ,0.21201218559608548,-0.19918472629199854,0.11088723918000001,1.613144735226446,0.2070042971446423,-1.3610626939318653, ,0.12340304493949386,0.1014940551427495,0.036787093579676675,0.005274761731747318,0.1761162572592233,-0.14942962906938945, ,1.3082900047302246
0.019661853505572303,0.020694677633294436,-0.10022382368903195, ,0.020576536983632356,0.020181990005454495,-0.10115196818229165, ,0.00140033805530825, ,0.01879533682010066,-0.0030755069169089845,-0.03487858974226225,0.0512585069465409,0.05012818777921954,0.009312571268896295, ,0.039739645838709085, ,0.07169531454147149, ,0.0010797176325264724, ,0.21201218559608548,-0.19918472629199854,0.11088723918000001,1.613144735226446,0.2070042971446423,-1.3610626939318653, ,0.12340304493949386,0.1014940551427495,0.036787093579676675,0.005274761731747318,0.1761162572592233,-0.14942962906938945, ,1.3135311603546143
0.019860983189506676,0.02066684960384744,-0.10059516078078333, ,0.02068481481064436,0.020160306405751723,-0.10133169889872683, ,0.0012156368498474892, ,0.020294334060849212,-0.002524177080638228,-0.037369311944840694,-0.03648621748866875,-0.04905643399643126,-0.010891716522052383, ,0.04259925985435166, ,0.06113677214729378, ,0.0010811045633154623, ,0.2132555455888356,-0.1981576028197267,0.11127871876,1.613144735226446,0.20823402564253127,-1.361902097584852, ,0.12276447808340334,0.10042004397721775,0.03942775128712872,0.004833048867773246,0.07427000323819584,-0.060674808581974084, ,1.3188450336456299
0.019860983189506676,0.02066684960384744,-0.10059516078078333, ,0.02079292615281895,0.020138753303364204,-0.10151033384979594, ,0.0014088808096135374, ,0.020294334060849212,-0.002524177080638228,-0.037369311944840694,-0.03648621748866875,-0.04905643399643126,-0.010891716522052383, ,0.04259925985435166, ,0.06113677214729378, ,0.0010844154344901904, ,0.2132555455888356,-0.1981576028197267,0.11127871876,1.613144735226446,0.20823402564253127,-1.361902097584852, ,0.12276447808340334,0.10042004397721775,0.03942775128712872,0.004833048867773246,0.07427000323819584,-0.060674808581974084, ,1.325171947479248
0.020068193226023635,0.020641580746433543,-0.1009742614786534, ,0.020900871024902193,0.020117344613003657,-0.10168787335354335, ,0.0012154907438243592, ,0.019626260373554062,-0.0026793854281540407,-0.035193813440873446,-0.027046423936225174,-0.039567114773757114,-0.008439930501658447, ,0.0403853154876144, ,0.04792714916392756, ,0.001085726187583532, ,0.2145143510473342,-0.19714592481320328,0.11167927237000001,1.613144735226446,0.20905384464112386,-1.3625706050070305, ,0.12058061189132248,0.09693252457453604,0.037216849345794396,0.004454782166782313,0.08179472924649346,-0.06675850882310047, ,1.330475091934204
0.020068193226023635,0.020641580746433543,-0.1009742614786534, ,0.021008649479900606,0.020096094104961024,-0.10186431776496827, ,0.0014050671992078797, ,0.019626260373554062,-0.0026793854281540407,-0.035193813440873446,-0.027046423936225174,-0.039567114773757114,-0.008439930501658447, ,0.0403853154876144, ,0.04792714916392756, ,0.0010888879797778326, ,0.2145143510473342,-0.19714592481320328,0.11167927237000001,1.613144735226446,0.20905384464112386,-1.3625706050070305, ,0.12058061189132248,0.09693252457453604,0.037216849345794396,0.004454782166782313,0.08179472924649346,-0.06675850882310047, ,1.3357470035552979
0.020263108714742743,0.02061056516726454,-0.10131688115024291, ,0.02111626160880849,0.02007501540561593,-0.10203966747590286, ,0.0012397997743247289, ,0.019674020680434372,-0.003395419836365597,-0.03440631827105155,0.013541647022419783,0.008718573905739723,0.0017457424924598142, ,0.039779274786856535, ,0.016104083924524667, ,0.0010903675071753513, ,0.21575771104008434,-0.19615741500530254,0.11204223357000001,1.613144735226446,0.21028357313901283,-1.3635733661402982, ,0.12652925541129437,0.10171162010554209,0.03645036961098399,0.0041383006875649305,0.13718449631343266,-0.11207215777112292, ,1.3410019874572754
0.020263108714742743,0.02061056516726454,-0.10131688115024291, ,0.02122370754034098,0.02005412199794524,-0.10221392291488803, ,0.001427257170919256, ,0.019674020680434372,-0.003395419836365597,-0.03440631827105155,0.013541647022419783,0.008718573905739723,0.0017457424924598142, ,0.039779274786856535, ,0.016104083924524667, ,0.001093638280609758, ,0.21575771104008434,-0.19615741500530254,0.11204223357000001,1.613144735226446,0.21028357313901283,-1.3635733661402982, ,0.12652925541129437,0.10171162010554209,0.03645036961098399,0.0041383006875649305,0.13718449631343266,-0.11207215777112292, ,1.3462300300598145
0.020458610538222375,0.020574619066837316,-0.10165422057585675, ,0.021330987440665087,0.020033427222032038,-0.10238708454705071, ,0.0012613562831624776, ,0.01989560959549427,-0.003629662408270919,-0.033905986125610986,0.03334636838264018,0.028980500328055967,0.006568068221339003, ,0.03947943294329927, ,0.044179235765883125, ,0.0010952509537112264, ,0.2170319619643314,-0.1951380142659049,0.11240000961000002,1.613144735226446,0.21178657463643272,-1.364798963080959, ,0.13089233318409763,0.10248049844327299,0.03603803511312218,0.0038653041432590673,0.16232642425098126,-0.13266706644619186, ,1.352276086807251
0.020580191378387798,0.020552802316418574,-0.10185745877165982, ,0.02143810151312756,0.02001294427557534,-0.10255915287398144, ,0.001232814307503462, ,0.019692785168121098,-0.00367275769555074,-0.032481546339351956,0.030762816777236503,0.022794353370592397,0.008853722352762812, ,0.038162098859515915, ,0.03828703808594791, ,0.0010965610808902002, ,0.21783512618325074,-0.19452019563596695,0.11261649004000002,1.6133544251699303,0.21274303013479076,-1.365578888406834, ,0.13089233318409763,0.09978647903098925,0.03462785113043479,0.0007082770654022326,0.1566418054941202,-0.1280719517188853, ,1.3577070236206055
0.020580191378387798,0.020552802316418574,-0.10185745877165982, ,0.021545049997990926,0.01999268621439764,-0.10273012843360924, ,0.0014164160908618946, ,0.019692785168121098,-0.00367275769555074,-0.032481546339351956,0.030762816777236503,0.022794353370592397,0.008853722352762812, ,0.038162098859515915, ,0.03828703808594791, ,0.0010995785809842726, ,0.21783512618325074,-0.19452019563596695,0.11261649004000002,1.6133544251699303,0.21274303013479076,-1.365578888406834, ,0.13089233318409763,0.09978647903098925,0.03462785113043479,0.0007082770654022326,0.1566418054941202,-0.1280719517188853, ,1.3631041049957275
0.02085183538231407,0.020494064011230863,-0.10226647287263346, ,0.021651833172160417,0.019972665952955087,-0.10290001180008056, ,0.0011459598472562667, ,0.01912525546979036,-0.004818206175019397,-0.026907246538210562,-0.022840763047150568,-0.041821671163147146,-0.004524176023880636, ,0.033361511113823746, ,0.047652266801537294, ,0.0011000120507625155, ,0.2196808593401904,-0.19314554918435498,0.11305463606,1.6133544251699303,0.21451930463174151,-1.3670273211548873, ,0.1303529417011961,0.09926458322015773,0.028856542608695655,0.0007082770654022326,0.09014699512985243,-0.07391098386021044, ,1.3684821128845215
0.02085183538231407,0.020494064011230863,-0.10226647287263346, ,0.02175845134891612,0.019952896264846125,-0.1030688035836353, ,0.0013261031673446869, ,0.01912525546979036,-0.004818206175019397,-0.026907246538210562,-0.022840763047150568,-0.041821671163147146,-0.004524176023880636, ,0.033361511113823746, ,0.047652266801537294, ,0.0011021054870271653, ,0.2196808593401904,-0.19314554918435498,0.11305463606,1.6133544251699303,0.21451930463174151,-1.3670273211548873, ,0.1303529417011961,0.09926458322015773,0.028856542608695655,0.0007082770654022326,0.09014699512985243,-0.07391098386021044, ,1.373831033706665
0.02104759643178907,0.02044634045145362,-0.10255342887695651, ,0.02186490487764534,0.019933389783319853,-0.1032365044304825, ,0.001182245192602495, ,0.019625332218893895,-0.004639912318324108,-0.030071454465012696,-0.0016617196844286289,-0.011906774355830258,0.0004312183769394762, ,0.03620738632744737, ,0.01202114791098812, ,0.0011028407136838198, ,0.22100144666168278,-0.19212614844495735,0.11336185679,1.6133544251699303,0.21561239662986503,-1.3679186643844587, ,0.13017413108157858,0.10292509930419824,0.03211453935483872,0.0007082770654022326,0.12044987121837125,-0.09864499728625443, ,1.3790860176086426
0.02104759643178907,0.02044634045145362,-0.10255342887695651, ,0.021971194143570523,0.019914159001785954,-0.10340311502267943, ,0.001363164104138525, ,0.019625332218893895,-0.004639912318324108,-0.030071454465012696,-0.0016617196844286289,-0.011906774355830258,0.0004312183769394762, ,0.03620738632744737, ,0.01202114791098812, ,0.0011052072899606809, ,0.22100144666168278,-0.19212614844495735,0.11336185679,1.6133544251699303,0.21561239662986503,-1.3679186643844587, ,0.13017413108157858,0.10292509930419824,0.03211453935483872,0.0007082770654022326,0.12044987121837125,-0.09864499728625443, ,1.3843231201171875
0.021242840834461818,0.020405166526563365,-0.10285995239179181, ,0.02207731956748458,0.019895216274322593,-0.1035686360780058, ,0.0012077402795028212, ,0.020037995876042665,-0.003817452340961278,-0.03123059195765031,0.021491604045951997,0.006655980951705517,0.0056437418558898675, ,0.03730206556115982, ,0.022498031402879162, ,0.0011061310105871865, ,0.2222911430516783,-0.19113763863705663,0.11368981816000001,1.6133544251699303,0.21697876162751942,-1.369032843421423, ,0.13253762787495918,0.09703163758534844,0.033534340042105266,0.0007125072104092723,0.14175343879956603,-0.11603091485428876, ,1.3895881175994873
0.021242840834461818,0.020405166526563365,-0.10285995239179181, ,0.022183281605476536,0.019876573816186568,-0.10373306834984315, ,0.001387865473831724, ,0.020037995876042665,-0.003817452340961278,-0.03123059195765031,0.021491604045951997,0.006655980951705517,0.0056437418558898675, ,0.03730206556115982, ,0.022498031402879162, ,0.0011086464968661557, ,0.2222911430516783,-0.19113763863705663,0.11368981816000001,1.6133544251699303,0.21697876162751942,-1.369032843421423, ,0.13253762787495918,0.09703163758534844,0.033534340042105266,0.0007125072104092723,0.14175343879956603,-0.11603091485428876, ,1.3949029445648193
0.021449285858630034,0.02036741585630704,-0.10317692481439528, ,0.02228908074866731,0.019858243704321113,-0.10389641262705003, ,0.0012174458715891335, ,0.020864587085835863,-0.0036144661450251167,-0.03215304118490979,0.010494620853423401,-0.010904629201884472,0.002675701162948867, ,0.0384995248959577, ,0.0151331966341401, ,0.0011096093231911378, ,0.22364262130466758,-0.19016457429490433,0.11403074243000001,1.6133544251699303,0.21820849012540838,-1.3700356045546909, ,0.13615056177685905,0.09643998125860852,0.03462785113043479,0.0007955597932412693,0.12749354335692195,-0.10441054387523858, ,1.4002130031585693
0.021449285858630034,0.02036741585630704,-0.10317692481439528, ,0.02239471752293847,0.019840237877865305,-0.1040586697338385, ,0.001396148901727484, ,0.020864587085835863,-0.0036144661450251167,-0.03215304118490979,0.010494620853423401,-0.010904629201884472,0.002675701162948867, ,0.0384995248959577, ,0.0151331966341401, ,0.0011121228282660182, ,0.22364262130466758,-0.19016457429490433,0.11403074243000001,1.6133544251699303,0.21820849012540838,-1.3700356045546909, ,0.13615056177685905,0.09643998125860852,0.03462785113043479,0.0007955597932412693,0.12749354335692195,-0.10441054387523858, ,1.4054780006408691
0.021653470357218454,0.020332092222149992,-0.10350168172035833, ,0.022500192488662724,0.019822568138663406,-0.10421984052965236, ,0.0012215994576361736, ,0.021526746212525236,-0.003493522115145607,-0.035046560907171675,-0.004989986849539035,-0.022851766103268216,-0.0011592332939628794, ,0.04127792304231858, ,0.02338910666611728, ,0.0011130747989561934, ,0.2249477631604115,-0.1892069554185005,0.11437944444,1.6133544251699303,0.21943821862329735,-1.3710383656879586, ,0.1340352281899305,0.09989151742996924,0.03756795169811321,0.0008478632094250017,0.11312906581420944,-0.09224916754887331, ,1.4107451438903809
0.021653470357218454,0.020332092222149992,-0.10350168172035833, ,0.022605506240435787,0.019805246151773252,-0.10437992590904319, ,0.001398303243135604, ,0.021526746212525236,-0.003493522115145607,-0.035046560907171675,-0.004989986849539035,-0.022851766103268216,-0.0011592332939628794, ,0.04127792304231858, ,0.02338910666611728, ,0.0011155336648542918, ,0.2249477631604115,-0.1892069554185005,0.11437944444,1.6133544251699303,0.21943821862329735,-1.3710383656879586, ,0.1340352281899305,0.09989151742996924,0.03756795169811321,0.0008478632094250017,0.11312906581420944,-0.09224916754887331, ,1.4160339832305908
0.021879693986750704,0.020298439850034596,-0.10386864087318337, ,0.0227106594068072,0.019788283445975607,-0.10453892680154737, ,0.0011832355267210586, ,0.021706582679869843,-0.003102335169744224,-0.03453871697117605,-0.0011378082403336325,-0.025854750087849244,-0.0029304755653563105, ,0.040911162109606006, ,0.025878824526054296, ,0.0011161123132463154, ,0.22634557781064615,-0.18818755467910286,0.11477351660000001,1.6135641151134148,0.22053131062142087,-1.37192970891753, ,0.13556705936924396,0.09489694155847078,0.037216849345794396,0.003249711536509633,0.11117243551582381,-0.09065366673811434, ,1.4214191436767578
0.021879693986750704,0.020298439850034596,-0.10386864087318337, ,0.02281565265001217,0.01977169141428218,-0.10469684417156133, ,0.0013562460091539237, ,0.021706582679869843,-0.003102335169744224,-0.03453871697117605,-0.0011378082403336325,-0.025854750087849244,-0.0029304755653563105, ,0.040911162109606006, ,0.025878824526054296, ,0.0011181473445675664, ,0.22634557781064615,-0.18818755467910286,0.11477351660000001,1.6135641151134148,0.22053131062142087,-1.37192970891753, ,0.13556705936924396,0.09489694155847078,0.037216849345794396,0.003249711536509633,0.11117243551582381,-0.09065366673811434, ,1.427088975906372
0.022089710592209707,0.020267268639941223,-0.10419885177711269, ,0.022920486665699288,0.01975548131444668,-0.10485367901822193, ,0.0011751229154936785, ,0.0210048137074897,-0.003393937783709983,-0.03254920693384391,0.012511487565736222,-0.009274835235494118,6.966014506142848e-05, ,0.038886654324951045, ,0.015573161379328588, ,0.00111862613087787, ,0.22767388786501278,-0.18726854946707014,0.11512999635000001,1.6135641151134148,0.22176103911930983,-1.3729324700507979, ,0.13365766416686023,0.09340250153392793,0.03516293933774835,0.003249711536509633,0.12609886021848266,-0.10282516522429973, ,1.4325981140136719
0.022299525049639574,0.020227365433339993,-0.10451297370659335, ,0.02302516218266613,0.019739664269471126,-0.10500943237527921, ,0.0010054217442344209, ,0.020290591770641186,-0.004117311915772083,-0.029190053853337217,0.005816308583045282,-0.01612111221919874,-0.0016983889575647182, ,0.03578714316308718, ,0.017137634393155448, ,0.0011176827609891747, ,0.22902536611800206,-0.18630320785779206,0.11546962433,1.6135641151134148,0.2229907676171988,-1.3738535524439248, ,0.1327229951866724,0.09349452370292687,0.031667617335984104,0.003249711536509633,0.11815187302900086,-0.0961891126129654, ,1.4378681182861328
0.022299525049639574,0.020227365433339993,-0.10451297370659335, ,0.023129679962586826,0.019724251268116597,-0.10516410531097584, ,0.0011688684309898215, ,0.020290591770641186,-0.004117311915772083,-0.029190053853337217,0.005816308583045282,-0.01612111221919874,-0.0016983889575647182, ,0.03578714316308718, ,0.017137634393155448, ,0.0011181057830552956, ,0.22902536611800206,-0.18630320785779206,0.11546962433,1.6135641151134148,0.2229907676171988,-1.3738535524439248, ,0.1327229951866724,0.09349452370292687,0.031667617335984104,0.003249711536509633,0.11815187302900086,-0.0961891126129654, ,1.4431021213531494
0.022500099984017512,0.020186972103791112,-0.10479271273627765, ,0.023234040799743276,0.019709253165412215,-0.10531769892792359, ,0.0010210264474992644, ,0.020207607341262812,-0.0040305230141759844,-0.027801274482877305,-0.0007644110941122705,-0.026699951855952055,-0.0030235239042885483, ,0.034604961683243424, ,0.026710581146695042, ,0.0011173100507966397, ,0.23034595343949446,-0.1853996481115078,0.11577425248,1.6135641151134148,0.22408385961532232,-1.3745815381932154, ,0.13328222128998704,0.08986452799097612,0.030340593371428574,0.003249711536509633,0.10793067011026033,-0.08604332177000823, ,1.448357105255127
0.022500099984017512,0.020186972103791112,-0.10479271273627765, ,0.023338245520758798,0.01969468068316224,-0.1054702143629782, ,0.0011848405959309547, ,0.020207607341262812,-0.0040305230141759844,-0.027801274482877305,-0.0007644110941122705,-0.026699951855952055,-0.0030235239042885483, ,0.034604961683243424, ,0.026710581146695042, ,0.00111785907961887, ,0.23034595343949446,-0.1853996481115078,0.11577425248,1.6135641151134148,0.22408385961532232,-1.3745815381932154, ,0.13328222128998704,0.08986452799097612,0.030340593371428574,0.003249711536509633,0.10793067011026033,-0.08604332177000823, ,1.4535901546478271
0.022500099984017512,0.020186972103791112,-0.10479271273627765, ,0.02344229498432537,0.019680544410457662,-0.10562165278711923, ,0.0013532708653737455, ,0.020207607341262812,-0.0040305230141759844,-0.027801274482877305,-0.0007644110941122705,-0.026699951855952055,-0.0030235239042885483, ,0.034604961683243424, ,0.026710581146695042, ,0.0011197575617620543, ,0.23034595343949446,-0.1853996481115078,0.11577425248,1.6135641151134148,0.22408385961532232,-1.3745815381932154, ,0.13328222128998704,0.08986452799097612,0.030340593371428574,0.003249711536509633,0.10793067011026033,-0.08604332177000823, ,1.4588820934295654
0.02270489051230552,0.020145668813686905,-0.1050738650309374, ,0.023546190080937373,0.019666854804182954,-0.10577201540532379, ,0.0011935081755619654, ,0.01993639569846549,-0.004043999766400146,-0.02693210931925038,0.009757171536774812,-0.014148950342513445,-0.00032412234945650224, ,0.03375133063955391, ,0.017186652459989894, ,0.0011203475666724536, ,0.23170515442535797,-0.1844883656323493,0.11608147321000001,1.6135641151134148,0.22531358811321128,-1.3753392631060612, ,0.13290888173455292,0.0880305580319766,0.02949779911111111,0.003122496860442816,0.1203358490602159,-0.09478786673058544, ,1.4642910957336426
0.022776168190949662,0.02013110290160643,-0.10517106395966022, ,0.023649931732621275,0.019653622189526328,-0.10592130345644592, ,0.0012467196395743096, ,0.01988713124819524,-0.004174435295826895,-0.026668031617920505,0.012546865998436477,-0.010297554545900822,0.0003073662306421081, ,0.03352771703675031, ,0.01623114252858905, ,0.0011213505196319923, ,0.23217624113068566,-0.18417173358450611,0.11618776899000001,1.6135641151134148,0.22572349761250762,-1.3756735168171508, ,0.13309528970332507,0.08860592115636862,0.029227177100917434,0.003067626737250516,0.12445042911589947,-0.09814303087180945, ,1.4695391654968262
0.022776168190949662,0.02013110290160643,-0.10517106395966022, ,0.02375352089266638,0.019640856760488313,-0.10606951821309199, ,0.0014151959680354545, ,0.01988713124819524,-0.004174435295826895,-0.026668031617920505,0.012546865998436477,-0.010297554545900822,0.0003073662306421081, ,0.03352771703675031, ,0.01623114252858905, ,0.0011236642633202084, ,0.23217624113068566,-0.18417173358450611,0.11618776899000001,1.6135641151134148,0.22572349761250762,-1.3756735168171508, ,0.13309528970332507,0.08860592115636862,0.029227177100917434,0.003067626737250516,0.12445042911589947,-0.09814303087180945, ,1.4748690128326416
0.02308275677636221,0.02006400676449055,-0.10558536782857793, ,0.023856958545356823,0.019628568580390394,-0.10621666098149736, ,0.0010897365902867474, ,0.01952922432825175,-0.0036165436894214737,-0.027675373037824826,-0.017335552086848807,0.0057538863012619595,0.0008533507800404954, ,0.0340645895895347, ,0.018265057847110737, ,0.0011233992033746346, ,0.23422276534235514,-0.18277391893427147,0.11664147049000001,1.613983495000384,0.2277730451089892,-1.376609676711332, ,0.12737844504492724,0.08450306461128297,0.030282911634980987,0.005034818763315917,0.1346028410397796,-0.0637315359533848, ,1.4802069664001465
0.02308275677636221,0.02006400676449055,-0.10558536782857793, ,0.023960245705701592,0.01961676758238451,-0.106362733101404, ,0.0012547137022125825, ,0.01952922432825175,-0.0036165436894214737,-0.027675373037824826,-0.017335552086848807,0.0057538863012619595,0.0008533507800404954, ,0.0340645895895347, ,0.018265057847110737, ,0.0011244171452260915, ,0.23422276534235514,-0.18277391893427147,0.11664147049000001,1.613983495000384,0.2277730451089892,-1.376609676711332, ,0.12737844504492724,0.08450306461128297,0.030282911634980987,0.005034818763315917,0.1346028410397796,-0.0637315359533848, ,1.4854371547698975
0.023281104708516177,0.020030740324419583,-0.10587690659780821, ,0.024063383419166615,0.019605463569960936,-0.10650773594593602, ,0.0010912222346887654, ,0.01892969412843578,-0.0031069086482758395,-0.02857027170673773,0.026284456145391905,0.06075028704702962,0.0112238285996279, ,0.03441288460070858, ,0.06619252960360389, ,0.0011241617997604198, ,0.23551246173235066,-0.181932141050981,0.11696035783000001,1.613983495000384,0.22941268310617452,-1.3777016553352674, ,0.12356372598759216,0.08090105844711916,0.031232963764705888,0.005034818763315917,0.18667645898873678,-0.1038340412009861, ,1.4906630516052246
0.023281104708516177,0.020030740324419583,-0.10587690659780821, ,0.024166372761403453,0.019594666217459387,-0.10665167092147897, ,0.0012546393543393106, ,0.01892969412843578,-0.0031069086482758395,-0.02857027170673773,0.026284456145391905,0.06075028704702962,0.0112238285996279, ,0.03441288460070858, ,0.06619252960360389, ,0.0011251578116274342, ,0.23551246173235066,-0.181932141050981,0.11696035783000001,1.613983495000384,0.22941268310617452,-1.3777016553352674, ,0.12356372598759216,0.08090105844711916,0.031232963764705888,0.005034818763315917,0.18667645898873678,-0.1038340412009861, ,1.495967149734497
0.02347716006875869,0.02000042974699573,-0.10616489713759115, ,0.024269214837982854,0.019584385070575493,-0.10679453946755302, ,0.0010940262309049847, ,0.020271201663131507,-0.0028192339704579254,-0.028769950098193203,-0.05629944477564428,-0.06453276157329822,-0.012099514806484754, ,0.03530693594324005, ,0.0856392730464079, ,0.001124921966318931, ,0.23674809899222657,-0.18112897683206164,0.11727535630000001,1.613983495000384,0.23064241160406349,-1.3782143440276915, ,0.12404828961891604,0.07829780656639503,0.031542201029702975,0.005034818763315917,0.059641991299049554,-0.018667214900925457, ,1.5013160705566406
0.02347716006875869,0.02000042974699573,-0.10616489713759115, ,0.02437191078412396,0.01957462954687152,-0.10693634305669317, ,0.0012557919649255715, ,0.020271201663131507,-0.0028192339704579254,-0.028769950098193203,-0.05629944477564428,-0.06453276157329822,-0.012099514806484754, ,0.03530693594324005, ,0.0856392730464079, ,0.0011259059512708604, ,0.23674809899222657,-0.18112897683206164,0.11727535630000001,1.613983495000384,0.23064241160406349,-1.3782143440276915, ,0.12404828961891604,0.07829780656639503,0.031542201029702975,0.005034818763315917,0.059641991299049554,-0.018667214900925457, ,1.5065641403198242
0.023679396882036508,0.01997344255928353,-0.10645443805687595, ,0.024474461764426574,0.019565408936283685,-0.10707708319432281, ,0.0010891770158677296, ,0.019964033444523483,-0.0023926818030936135,-0.02949071826634103,-0.04055820547371086,-0.04032932211200314,-0.007542342628449325, ,0.03569299681239456, ,0.05719615325353544, ,0.0011256318547380013, ,0.23798373625210248,-0.1803567035446392,0.11759294735000002,1.613983495000384,0.23132559410289066,-1.3784447185856115, ,0.12073402233902134,0.07519567476899429,0.03230996251521299,0.005034818763315917,0.08089468978683141,-0.031374164750780045, ,1.5118091106414795
0.023679396882036508,0.01997344255928353,-0.10645443805687595, ,0.02457686897260039,0.019556732401633418,-0.10721676141863434, ,0.0012490958396826522, ,0.019964033444523483,-0.0023926818030936135,-0.02949071826634103,-0.04055820547371086,-0.04032932211200314,-0.007542342628449325, ,0.03569299681239456, ,0.05719615325353544, ,0.0011265464027746283, ,0.23798373625210248,-0.1803567035446392,0.11759294735000002,1.613983495000384,0.23132559410289066,-1.3784447185856115, ,0.12073402233902134,0.07519567476899429,0.03230996251521299,0.005034818763315917,0.08089468978683141,-0.031374164750780045, ,1.5171279907226562
0.023876748583956345,0.01995000557236085,-0.10674441812430117, ,0.02467913363119688,0.019548608979134914,-0.1073553793004632, ,0.0010854559170532271, ,0.019706300535994557,-0.002159185902864818,-0.02902716181937482,0.040843756697702314,0.014132455737546581,0.0031121243832639978, ,0.035150767955568776, ,0.04321941877178036, ,0.0011262442668502062, ,0.2392116507791042,-0.17961532118871365,0.11791183469000001,1.6141931849438687,0.23255532260077963,-1.3792024434984573, ,0.12340304493949386,0.07211013796236382,0.031985565301204825,0.005870835275725693,0.13888958468582513,-0.1095520872757445, ,1.5233919620513916
0.024071191144983385,0.019930825774088265,-0.10702429956968204, ,0.024781256991341566,0.01954104757890249,-0.10749293844316364, ,0.0009358113812861767, ,0.019301456429099948,-0.0019456394829916177,-0.026613950632420145,-0.008794002524690292,-0.0025090798780463648,0.001063201237650562, ,0.032933783589911385, ,0.009144211842801885, ,0.001124854245787695, ,0.24043956530610588,-0.1789357206957819,0.11822164800000001,1.6141931849438687,0.23392168759843407,-1.3801532650551405, ,0.12292349942807097,0.06590065386004916,0.02960745635687733,0.005870835275725693,0.12143563121274693,-0.05386073289840427, ,1.5287740230560303
0.024071191144983385,0.019930825774088265,-0.10702429956968204, ,0.02488324033246225,0.019534056985463285,-0.10762944048248954, ,0.0010876786652617182, ,0.019301456429099948,-0.0019456394829916177,-0.026613950632420145,-0.008794002524690292,-0.0025090798780463648,0.001063201237650562, ,0.032933783589911385, ,0.009144211842801885, ,0.001124584857523014, ,0.24043956530610588,-0.1789357206957819,0.11822164800000001,1.6141931849438687,0.23392168759843407,-1.3801532650551405, ,0.12292349942807097,0.06590065386004916,0.02960745635687733,0.005870835275725693,0.12143563121274693,-0.05386073289840427, ,1.5340650081634521
0.02425875874698752,0.019910252563656607,-0.10728066919944479, ,0.024985084962021988,0.019527645858262926,-0.10776488708646732, ,0.0009531026302403493, ,0.018542352733205484,-0.002193219386993852,-0.024656449181630513,-0.018621829433177944,-0.012890561843376109,-0.001485493011785699, ,0.03092845845509321, ,0.022647958037291454, ,0.0011233511724346495, ,0.24162886616873647,-0.17828701113434703,0.11850683180000002,1.6141931849438687,0.2350147795965576,-1.38071789332415, ,0.11862117694808846,0.06442426446603583,0.0275109007253886,0.005870835275725693,0.10648570148717536,-0.042577638898881415, ,1.5394010543823242
0.02425875874698752,0.019910252563656607,-0.10728066919944479, ,0.025086792215249423,0.019521822732175866,-0.10789927995527443, ,0.0011041722808394138, ,0.018542352733205484,-0.002193219386993852,-0.024656449181630513,-0.018621829433177944,-0.012890561843376109,-0.001485493011785699, ,0.03092845845509321, ,0.022647958037291454, ,0.0011232141803518266, ,0.24162886616873647,-0.17828701113434703,0.11850683180000002,1.6141931849438687,0.2350147795965576,-1.38071789332415, ,0.11862117694808846,0.06442426446603583,0.0275109007253886,0.005870835275725693,0.10648570148717536,-0.042577638898881415, ,1.5446391105651855
0.024447514498653497,0.019890487854321282,-0.10752830732749037, ,0.025188363454869647,0.019516596018014188,-0.10803262082111603, ,0.0009710738288289769, ,0.018242462502000945,-0.0016869553423833402,-0.023655528624550552,-0.021708097497936972,-0.012909503843446968,-0.0003325282421571793, ,0.02992018200096779, ,0.025256472024150746, ,0.001122135170766558, ,0.2428413352299897,-0.17766146977153485,0.11878423786000002,1.6141931849438687,0.23610787159468108,-1.381282521593159, ,0.11744670984959255,0.05804094284921761,0.026592339766277135,0.005870835275725693,0.1052599058814545,-0.033277009042095025, ,1.5498721599578857
0.024447514498653497,0.019890487854321282,-0.10752830732749037, ,0.025289800070834496,0.019511974003037905,-0.10816491144810304, ,0.0011215982021645185, ,0.018242462502000945,-0.0016869553423833402,-0.023655528624550552,-0.021708097497936972,-0.012909503843446968,-0.0003325282421571793, ,0.02992018200096779, ,0.025256472024150746, ,0.0011221313892975295, ,0.2428413352299897,-0.17766146977153485,0.11878423786000002,1.6141931849438687,0.23610787159468108,-1.381282521593159, ,0.11744670984959255,0.05804094284921761,0.026592339766277135,0.005870835275725693,0.1052599058814545,-0.033277009042095025, ,1.5551550388336182
0.024632994916965342,0.01987417046326926,-0.10777044402086713, ,0.025391103480055383,0.01950796485146007,-0.10829615363212483, ,0.000992575306422494, ,0.018503735789215846,-0.0015714502050905056,-0.024200834389247677,0.01550689865290653,-0.005625765548512894,-0.0003088529881396425, ,0.030504722241646118, ,0.016495600699323078, ,0.0011212254027039978, ,0.2428413352299897,-0.17766146977153485,0.11878423786000002,1.6141931849438687,0.23610787159468108,-1.381282521593159, ,0.11744670984959255,0.05804094284921761,0.026592339766277135,0.005870835275725693,0.1052599058814545,-0.033277009042095025, ,1.5604469776153564
0.024632994916965342,0.01987417046326926,-0.10777044402086713, ,0.025492275126132127,0.019504576604960248,-0.108426349200731, ,0.0011424419910602526, ,0.018503735789215846,-0.0015714502050905056,-0.024200834389247677,0.01550689865290653,-0.005625765548512894,-0.0003088529881396425, ,0.030504722241646118, ,0.016495600699323078, ,0.0011213727401231384, ,0.2440306360926203,-0.17707454207309378,0.11905645876000001,1.6144028748873531,0.2372009635928046,-1.3817654711220275, ,0.11862117694808846,0.05775833326748069,0.02722873764102564,0.007486567993944811,0.11358114362480622,-0.069798673585139, ,1.5657680034637451
0.024821110137889416,0.01986255293035876,-0.1080203686202095, ,0.025593316479085346,0.019501817183190027,-0.1085555000130043, ,0.0010063789148343173, ,0.018214748921009636,-0.001079009473944911,-0.024082265128903872,-0.01290888879338605,-0.011460881763974261,-0.006294837341625803, ,0.030214182653831693, ,0.01726218759766763, ,0.0011205796792590776, ,0.24521993695525085,-0.17651850530614963,0.11933775369,1.6146125648308374,0.23829405559092814,-1.3821667419107555, ,0.11488733844851184,0.05298545033973801,0.027135965110732543,0.012718232635817419,0.10290543876200416,-0.035462182483543894, ,1.57110595703125
0.024821110137889416,0.01986255293035876,-0.1080203686202095, ,0.025694229035086374,0.0194996943842847,-0.10868360795944043, ,0.0011549412773837883, ,0.018214748921009636,-0.001079009473944911,-0.024082265128903872,-0.01290888879338605,-0.011460881763974261,-0.006294837341625803, ,0.030214182653831693, ,0.01726218759766763, ,0.0011208150326708906, ,0.24521993695525085,-0.17651850530614963,0.11933775369,1.6146125648308374,0.23829405559092814,-1.3821667419107555, ,0.11488733844851184,0.05298545033973801,0.027135965110732543,0.012718232635817419,0.10290543876200416,-0.035462182483543894, ,1.5763640403747559
0.024989647957940994,0.019852277835516737,-0.10824599571450513, ,0.025795014316188733,0.0194982158853704,-0.10881067496182278, ,0.0010453886779040035, ,0.018141376675148223,-0.0009638545802607777,-0.024406316556942143,0.02782342239985861,0.010155037255604266,-0.001421645095758511, ,0.030425430994468587, ,0.029618557625872247, ,0.001120301928216694, ,0.24628567409189384,-0.17602425040219924,0.11959182653000001,1.6146125648308374,0.23938714758905166,-1.3827313701797648, ,0.11474841784579294,0.05228481628565883,0.0275109007253886,0.011965165047466015,0.12488425048612509,-0.07568046213815467, ,1.5815701484680176
0.024989647957940994,0.019852277835516737,-0.10824599571450513, ,0.025895673870059414,0.019497389243073027,-0.10893670297309929, ,0.0011932750661734918, ,0.018141376675148223,-0.0009638545802607777,-0.024406316556942143,0.02782342239985861,0.010155037255604266,-0.001421645095758511, ,0.030425430994468587, ,0.029618557625872247, ,0.0011207949899596456, ,0.24628567409189384,-0.17602425040219924,0.11959182653000001,1.6146125648308374,0.23938714758905166,-1.3827313701797648, ,0.11474841784579294,0.05228481628565883,0.0275109007253886,0.011965165047466015,0.12488425048612509,-0.07568046213815467, ,1.5868279933929443
0.02519139036526778,0.01984523820268924,-0.10851935897027497, ,0.025996209269709008,0.01949722189402813,-0.1090616939772601, ,0.001031007313185334, ,0.018502911616908282,-0.00042328784872166657,-0.025129442076735658,0.01113033231345089,0.006627643814138181,-0.00019200685958632285, ,0.031209385927858425, ,0.012953761571905618, ,0.0011201923881020998, ,0.24755220228326666,-0.1754759363681293,0.11990034355000001,1.6146125648308374,0.24075351258670605,-1.383273798035745, ,0.11544640092271385,0.04851581879267422,0.028393603422459897,0.010932616132083831,0.12217154203753215,-0.05556264747140903, ,1.592043161392212
0.02519139036526778,0.01984523820268924,-0.10851935897027497, ,0.026096622113223077,0.019497721155389933,-0.10918564998921455, ,0.0011765017371807764, ,0.018502911616908282,-0.00042328784872166657,-0.025129442076735658,0.01113033231345089,0.006627643814138181,-0.00019200685958632285, ,0.031209385927858425, ,0.012953761571905618, ,0.0011205677837626243, ,0.24755220228326666,-0.1754759363681293,0.11990034355000001,1.6146125648308374,0.24075351258670605,-1.383273798035745, ,0.11544640092271385,0.04851581879267422,0.028393603422459897,0.010932616132083831,0.12217154203753215,-0.05556264747140903, ,1.5974140167236328
0.025368382562530503,0.019841847561721034,-0.10875222787566254, ,0.026196914023493067,0.019498894225339257,-0.10930857305466685, ,0.0010552731072767329, ,0.01868535749480889,-0.0003165227062146621,-0.02417420187476958,-0.018746987725960552,0.004217028304532297,0.00891544908184331, ,0.030555438265789502, ,0.019215218465812568, ,0.001120135368686559, ,0.248664275817155,-0.1750280178614243,0.12016478671000001,1.614822254774322,0.2418466045848296,-1.3835933900843322, ,0.11876963899683453,0.04586609065175001,0.027558497439446373,0.0023382593257033004,0.12461171045905058,-0.025161488832917602, ,1.6027641296386719
0.025559061298390633,0.019841565729521827,-0.1089957404953378, ,0.026297086647947242,0.01950074818359317,-0.10943046524999314, ,0.0009218587898974164, ,0.018371289041441717,0.00011856032652165659,-0.023724090326135074,0.005490326070373677,0.0020010973706594,-0.0017403843501819635, ,0.030005845753750007, ,0.005842992017753812, ,0.0011188309175103146, ,0.24987674487840825,-0.1745878220875935,0.12044348906,1.6150319447178065,0.24307633308271853,-1.3839427212964757, ,0.11586928151217434,0.04131342688657849,0.027135965110732543,0.013293631473836302,0.11747980988910946,-0.04229114768251188, ,1.6084740161895752
0.025559061298390633,0.019841565729521827,-0.1089957404953378, ,0.026397141658281525,0.019503289991914138,-0.10955132868211931, ,0.0010608899083222692, ,0.018371289041441717,0.00011856032652165659,-0.023724090326135074,0.005490326070373677,0.0020010973706594,-0.0017403843501819635, ,0.030005845753750007, ,0.005842992017753812, ,0.0011184522181038566, ,0.24987674487840825,-0.1745878220875935,0.12044348906,1.6150319447178065,0.24307633308271853,-1.3839427212964757, ,0.11586928151217434,0.04131342688657849,0.027135965110732543,0.013293631473836302,0.11747980988910946,-0.04229114768251188, ,1.6138899326324463
0.025747620053959107,0.019842968715402653,-0.10923519896509465, ,0.026497080750190586,0.019506526494617923,-0.10967116548839587, ,0.0009300276945132794, ,0.0184469881292204,0.0002583413239229242,-0.02334957099806422,-0.00787617860952166,-0.0063652914082156205,-0.00971374663475309, ,0.029758369865852636, ,0.010126410205020524, ,0.0011172286822363855, ,0.25107376847391305,-0.17417079451238537,0.12071830254000002,1.615241634661291,0.24430606158060753,-1.3841286950283376, ,0.11601093100057551,0.03950746942484212,0.026816181010101015,0.02018458895932148,0.10789901689476165,-0.025450982292065515, ,1.619225025177002
0.025747620053959107,0.019842968715402653,-0.10923519896509465, ,0.02659690564309865,0.019510464419083873,-0.10978997783647673, ,0.0010675320674914304, ,0.0184469881292204,0.0002583413239229242,-0.02334957099806422,-0.00787617860952166,-0.0063652914082156205,-0.00971374663475309, ,0.029758369865852636, ,0.010126410205020524, ,0.0011169080589154502, ,0.25107376847391305,-0.17417079451238537,0.12071830254000002,1.615241634661291,0.24430606158060753,-1.3841286950283376, ,0.11601093100057551,0.03950746942484212,0.026816181010101015,0.02018458895932148,0.10789901689476165,-0.025450982292065515, ,1.6245601177215576
0.025931349960664273,0.019847332842912485,-0.10946590294909993, ,0.026696618079890298,0.019515110376263058,-0.10990776792419452, ,0.000944061289252826, ,0.018810681102667443,0.0006086889828710914,-0.023800558167802886,-0.004488006663192367,-0.004819592960866802,-0.006667985336694336, ,0.030342689315930572, ,0.00658506210221966, ,0.0011158000668022282, ,0.2522321784050467,-0.17380010333442258,0.12098404199000001,1.615241634661291,0.24539915357873104,-1.3843666083367845, ,0.1178843994515165,0.03709810068743971,0.027416198829604135,0.0182596284073082,0.11171066921473263,-0.026958053070402704, ,1.6298060417175293
0.025931349960664273,0.019847332842912485,-0.10946590294909993, ,0.02679621982664174,0.019520470861188126,-0.11002453797943935, ,0.0010802368894344383, ,0.018810681102667443,0.0006086889828710914,-0.023800558167802886,-0.004488006663192367,-0.004819592960866802,-0.006667985336694336, ,0.030342689315930572, ,0.00658506210221966, ,0.00111557354974893, ,0.2522321784050467,-0.17380010333442258,0.12098404199000001,1.615241634661291,0.24539915357873104,-1.3843666083367845, ,0.1178843994515165,0.03709810068743971,0.027416198829604135,0.0182596284073082,0.11171066921473263,-0.026958053070402704, ,1.6351561546325684
0.0261249544743571,0.019852642975962502,-0.10970579599747539, ,0.026895712672351454,0.019526552253480087,-0.11014029026003158, ,0.0009429679863382723, ,0.018122329143605505,0.00044610617422649146,-0.022309991313138086,0.02413109415307703,0.014864343861542431,-0.0009470230834090644, ,0.028746365625938755, ,0.02834171653875022, ,0.0011144811094741791, ,0.2534600929320484,-0.1734216894235856,0.12126144805000001,1.615241634661291,0.24662888207662,-1.384715939548928, ,0.11615292724415029,0.03593220051437743,0.02585846025974026,0.01604898555789422,0.13034718120034122,-0.05497964459963092, ,1.6407451629638672
0.0261249544743571,0.019852642975962502,-0.10970579599747539, ,0.02699509842867128,0.01953336081786062,-0.11025502705360393, ,0.0010773793903392568, ,0.018122329143605505,0.00044610617422649146,-0.022309991313138086,0.02413109415307703,0.014864343861542431,-0.0009470230834090644, ,0.028746365625938755, ,0.02834171653875022, ,0.0011142477653286764, ,0.2534600929320484,-0.1734216894235856,0.12126144805000001,1.615241634661291,0.24662888207662,-1.384715939548928, ,0.11615292724415029,0.03593220051437743,0.02585846025974026,0.01604898555789422,0.13034718120034122,-0.05497964459963092, ,1.6460130214691162
0.0263085521700172,0.01985944275804299,-0.1099286809756952, ,0.02709437892963726,0.019540902704657612,-0.11036875067747359, ,0.0009553286367366144, ,0.018137512134263487,0.0008304231756026876,-0.021265716762649715,0.01103142807506811,0.003033750045838726,0.012776070641620849, ,0.027962289936633845, ,0.011440790864651447, ,0.001113254520774976, ,0.2545489982673141,-0.1731050573757424,0.12150255799000001,1.6154513246047757,0.24772197407474353,-1.3849538528573748, ,0.11643796510241813,0.03111375133064616,0.025163999241706165,0.0014003139481091956,0.1195293803873684,-0.03781840203658673, ,1.651266098022461
0.0263085521700172,0.01985944275804299,-0.1099286809756952, ,0.027193556031400612,0.01954918395031602,-0.11048146347852125, ,0.0010886050054387665, ,0.018137512134263487,0.0008304231756026876,-0.021265716762649715,0.01103142807506811,0.003033750045838726,0.012776070641620849, ,0.027962289936633845, ,0.011440790864651447, ,0.001113101418195248, ,0.2545489982673141,-0.1731050573757424,0.12150255799000001,1.6154513246047757,0.24772197407474353,-1.3849538528573748, ,0.11643796510241813,0.03111375133064616,0.025163999241706165,0.0014003139481091956,0.1195293803873684,-0.03781840203658673, ,1.6564900875091553
0.026478806113115285,0.019869450806326225,-0.11012454501975737, ,0.02729263161195862,0.019558210477907498,-0.11059316783306865, ,0.0009893380745516574, ,0.018398329075403688,0.00100961971595869,-0.02075745634337866,0.017518086617881318,-0.01793842542880021,0.00977370877898496, ,0.027755897365874665, ,0.025073225001591547, ,0.0011123374469381886, ,0.2557382991299446,-0.1728193162593961,0.12175144567000001,1.6154513246047757,0.24895170257263252,-1.3853848628096588, ,0.11876963899683453,0.02832744524133456,0.024505863876923082,0.0014003139481091956,0.10222477599040689,-0.04460293626549083, ,1.6617529392242432
