NicholasDascanio/dvrk_moveit_final/test/execution/third_experiment_notsharpbends/thirdexp_200vel4.0/thirdexp_200vel4.0_14.csv
Current Position (x),Current Position (y),Current Position (z), ,Planned Position (x),Planned Position (y),Planned Position (z), ,Position Error,,Cartesian linear Velocity(x),Cartesian linear Velocity(y),Cartesian linear Velocity(z),Cartesian Angular Velocity(x),Cartesian Angular Velocity(y),Cartesian Angular Velocity(z), ,Total Linear Velocity, ,Total Angular Velocity, ,MSE, ,Joint 1 Position,Joint 2 Position,Joint 3 Position,Joint 4 Position,Joint 5 Position,Joint 6 Position, ,Joint 1 Velocity,Joint 2 Velocity,Joint 3 Velocity,Joint 4 Velocity,Joint 5 Velocity,Joint 6 Velocity, ,Time Stamp
0.00995471318195708,0.02011486719776578,-0.07992928130291732, ,0.010124828846343123,0.020104262281083717,-0.08005336290192969, ,0.00021082705410075767, ,0.0013875354027609629,6.748242072077468e-05,-0.0006182112197565639,0.1844000881195855,-0.149608648135595,-0.10943795398674519, ,0.001520524081773867, ,0.23745765958475856, ,1.7568921175063138e-05, ,0.1768891964841124,-0.23832353649856836,0.09049011603000001,1.7007951316029768,0.49243794515464734,-1.2919300711941717, ,0.0002164881669382625,-0.000198196473286253,0.0001737030567758583,0.0023327424889939396,-0.15574935974602713,-0.2085914595687144, ,0.05327415466308594
0.01002504097224536,0.020147550731177435,-0.08003365944981825, ,0.010193134004575988,0.020186782307633565,-0.08022179127192226, ,0.00025531934238814903, ,0.0014106398710890848,0.000894891269240098,-0.00347163487064707,-0.009015437115735674,-0.06057270047823054,0.005465503898620069, ,0.003852659328926071, ,0.06123993916643726, ,2.1188472567677577e-05, ,0.1770436511415969,-0.23840848656018485,0.09058863407000001,1.7014242014334306,0.487655667662857,-1.297341820940821, ,0.004464556215625188,-0.001724598813835464,0.003527194756421613,-0.01860679013030013,-0.053680275532279706,0.003018905580050607, ,0.10532498359680176
0.010068357768248534,0.02020373902656146,-0.08020067236744471, ,0.01026221374036455,0.020266454218280976,-0.08039105188572863, ,0.00027885066644976617, ,0.00104588181476581,0.0010418727086310932,-0.0029249052750338718,-0.00137493042428767,-0.010935520378275715,-0.007528225256722178, ,0.003276345277801026, ,0.011021616914103109, ,2.3281158216833524e-05, ,0.17731394679219475,-0.2385552184847951,0.09077270725000001,1.7016338913769151,0.48874875966098047,-1.2934957972422398, ,0.005551471650453085,-0.0032061983624559693,0.0031692820374054917,0.008316006089487344,-0.0076342228138112506,0.005587856257661776, ,0.15932106971740723
0.010123362299577778,0.020261536809333423,-0.08036882829113369, ,0.010332058237189655,0.02034332076269519,-0.08056112936964249, ,0.00029533424149398715, ,0.0013514520809330007,0.001339262232609048,-0.004083263772159892,-0.005646716867182217,-0.010067844163411424,0.0009116364144866088, ,0.004504785132254872, ,0.011543261945470598, ,2.537393425445512e-05, ,0.1776151333742895,-0.23872511860802803,0.09095548414000001,1.7018435813203996,0.48874875966098047,-1.2939041909429427, ,0.007164240328172825,-0.003558321266269358,0.004411191226806979,0.0020285360435465917,-0.003522991741845653,0.009704399597169946, ,0.20612597465515137
0.01018714038549127,0.020328660402532693,-0.08056041001249323, ,0.010402657755783385,0.020417424407030062,-0.08073200842699259, ,0.00028943531444993343, ,0.0012870041600219115,0.0014157721491604774,-0.003872943751370296,0.004582837676382872,-0.006297505766024528,-0.009729059878498807, ,0.004319778210455996, ,0.007788515851547702, ,2.6595332377651862e-05, ,0.17797037908650382,-0.23893363239563212,0.09116418683000001,1.7020532712638843,0.48874875966098047,-1.2937408334626614, ,0.006881981821790378,-0.004567754415835587,0.004225148944297083,0.011036648185642083,-0.0021070215452280248,0.0017181347884021182, ,0.2540011405944824
0.01023779733751642,0.02038192030824324,-0.08069121591029306, ,0.010474002633871176,0.020488807334709324,-0.08090367383803838, ,0.00033519568838909133, ,0.0012866662717145726,0.0013682478845643859,-0.0032057678548797802,0.013673714887949207,-0.006765932361455968,-0.013946583479279092, ,0.0037154488164639413, ,0.015256091216892408, ,2.821970012324889e-05, ,0.17829473386722125,-0.23913442345036195,0.09130937131000001,1.7026823410943377,0.48874875966098047,-1.293087403541537, ,0.008343023782191952,-0.005759338012235512,0.00357308468371467,0.013150235897375677,-0.0015863971305719218,-0.006207018062797458, ,0.30074596405029297
0.010311220678618671,0.02045678602354587,-0.08088684576513677, ,0.0105460832859138,0.020557511447212417,-0.08107611045986798, ,0.0003180049998820304, ,0.001454035148093087,0.001373538850511083,-0.0034764687849902147,0.000477814478960837,-0.007779290295820367,-0.005587474828963157, ,0.004010818170743313, ,0.007793950453726964, ,2.91612839287311e-05, ,0.17874265237392628,-0.23942788729958248,0.09152455545,1.7026823410943377,0.48861212316121505,-1.2928943068977001, ,0.009919034486899597,-0.005165140301334378,0.0038624664209505337,0.0089820080697372,0.0,0.0064986264386970236, ,0.347959041595459
0.010375342222414787,0.020516748566204893,-0.08103841242078987, ,0.010618890202848362,0.02062357836485856,-0.08124930322629197, ,0.00033941590489984535, ,0.001680118056213386,0.001570295327590388,-0.0043161448775477325,-0.001074808205448764,-0.008087818311550601,-0.007188076888172131, ,0.004890575702578172, ,0.008158922491436151, ,3.055767384281e-05, ,0.17918284814775706,-0.23965184655293498,0.09169307315000001,1.7031017209813069,0.48861212316121505,-1.2923225557167162, ,0.010756851230840034,-0.004869725883517038,0.004747782867362146,0.011184109358436443,0.0,0.0082356881536921, ,0.390592098236084
0.010444889958257007,0.020577713151940003,-0.08120619637085578, ,0.010692413951829311,0.020687049427591774,-0.08142323714773939, ,0.0003468850636704019, ,0.0018443966463461854,0.0015093385063982443,-0.004200225193700527,-0.008836641713919874,-0.011631099648026062,0.0031692102315071416, ,0.004829264270439771, ,0.01460714600787019, ,3.177700328242811e-05, ,0.1796925485174559,-0.2398449148747906,0.09187973891000001,1.7033114109247913,0.48902203266051136,-1.2921667369869618, ,0.013069403878043076,-0.004822767990773112,0.004645322694663168,0.002786283984735975,0.0007798866021010736,0.01491761786281936, ,0.43225717544555664
0.010539534019114944,0.020654359565822015,-0.08142460648968149, ,0.01076664517596902,0.020747965695765595,-0.08159789731115372, ,0.00030061818630470745, ,0.0017499543683111474,0.0012385959692772807,-0.0037073695515307667,-0.009555604427471559,-0.008804374471645324,0.01453700050685657, ,0.004282645123974041, ,0.012993328484684012, ,3.2281374587268144e-05, ,0.1803875944761361,-0.24004570592952043,0.09212214514000001,1.7039404807552447,0.4894319421598077,-1.2912758095959427, ,0.0136248300873612,-0.003582016551116773,0.00411810018614271,-0.00833284493912517,0.007037580205755591,0.01292728825584169, ,0.4756960868835449
0.010593067268204415,0.020692889948553006,-0.08154005986359615, ,0.010841574594077466,0.02080636795092554,-0.08177326887988505, ,0.00035919297503357616, ,0.0019176446725736706,0.0015978308291531654,-0.004701342661163647,0.01912897373679917,0.003253245828601596,-0.0077150705591943645, ,0.005322879602857813, ,0.01940363992522378, ,3.362706502083076e-05, ,0.18080462205134423,-0.24015382418975958,0.09225047785000001,1.7037307908117605,0.48970521515933857,-1.2910902517026328, ,0.01416372262066728,-0.0039000523794016613,0.005219138768020971,0.008717371547259118,0.015960925745389872,-0.013049483966952984, ,0.512559175491333
0.01067635384406216,0.020758440850689456,-0.08174682841277131, ,0.010917193000402385,0.02086229669659459,-0.0819493370935866, ,0.00033135977692062835, ,0.002060973533065132,0.0016159428907364056,-0.005149041678062092,0.00029472706052144533,-0.0023346203209401186,-0.007912414715822803, ,0.005776808247859451, ,0.0023531494775700166, ,3.453244541493277e-05, ,0.18134521335253995,-0.24027738791574718,0.09247603231000001,1.7041501706987296,0.48970521515933857,-1.2908452154822112, ,0.014121568684296247,-0.0026488900618814146,0.005646512414037576,0.013094944341941295,0.008995112192658744,0.005696105895717698, ,0.5491671562194824
0.010755401778016703,0.020815721752679442,-0.08193032736229677, ,0.01099349126436852,0.020915792159055445,-0.08212608726810813, ,0.0003240719526074463, ,0.0019530569063455207,0.001289726004363551,-0.004545427643522503,-0.003029487428016324,-0.008997433025848824,0.0019974731575270652, ,0.005112605686756416, ,0.009493766017277989, ,3.526116076628602e-05, ,0.18192441831810677,-0.2403777834431121,0.09267825355,1.704359860642214,0.4901151246586349,-1.2910161117130192, ,0.013751187010356585,-0.0012737446748986964,0.004956070790292471,0.001119826510059316,0.004650545359645175,0.005158991745242848, ,0.5859191417694092
0.010813944726042782,0.020856566737485253,-0.0820644151901174, ,0.011070460330316537,0.020966894288133982,-0.08230350479538907, ,0.00036760884512895505, ,0.0020082016055226514,0.0013159383020954162,-0.004593687344806084,0.0012901064700796877,-0.008399599800733001,-0.007514443106193366, ,0.0051832934245686964, ,0.008498096814644982, ,3.6267666764327294e-05, ,0.18232600042756644,-0.24043956530610588,0.09282473432,1.7045695505856984,0.4901151246586349,-1.2907710754925974, ,0.014088025765806231,-0.0010004780903650106,0.005012212561359346,0.009601662573631469,0.003530213562431689,0.0017899455761481624, ,0.622967004776001
0.010881023560049628,0.020901382492473083,-0.08222083120348844, ,0.011148091217241852,0.021015642757981935,-0.08248157514335297, ,0.0003903433667533915, ,0.002353021576604343,0.0014179044052308179,-0.005174093580025071,0.006337735458319301,-0.008398765893211644,-0.001653969863813523, ,0.005858191514212829, ,0.010521699271521807, ,3.763859824184656e-05, ,0.18280480986576836,-0.24047817897047702,0.09299584460000002,1.704779240529183,0.4903883976581658,-1.2908305538197093, ,0.017396322925475854,-0.0007074671917061612,0.005660558464818764,0.0026535781159390402,0.008702311198970782,-0.00464572926662098, ,0.6551921367645264
0.010974022726027438,0.020960676888968542,-0.08243878487214523, ,0.011226375018533373,0.021062076967860038,-0.08266028385580013, ,0.00035074984717367114, ,0.002394192897031028,0.0015733184738494106,-0.0058572835064236994,-0.0001959201041756593,-0.009229402679221286,-0.0025675654521290707, ,0.006520372744174429, ,0.009231481550015649, ,3.858494867913892e-05, ,0.18345351942720323,-0.24050134716909968,0.09323306567,1.7049889304726675,0.49066167065769667,-1.2907266746665398, ,0.01599476513710952,-0.00047567073768133613,0.00635120076555024,0.005057642116230846,0.005772017820399311,0.0021839122725718137, ,0.6876530647277832
0.011051929231287113,0.0210091240789044,-0.08261970925493488, ,0.011305302901711898,0.021106236042921177,-0.08283961655230145, ,0.00034926804871730094, ,0.002561197613886488,0.0015292501740615484,-0.005691678917094739,-0.0030571215666964796,-0.011630404152855406,-0.0017610896186759568, ,0.0064260056183873555, ,0.01202548489912931, ,3.943827010408434e-05, ,0.18400183346127316,-0.2405090699019739,0.09343010175000001,1.7051986204161522,0.4909349436572275,-1.290704474253511, ,0.018235384619229588,-0.00036660998111055976,0.006202808224299066,0.005108229560747236,0.005585321450635583,0.005083604534126836, ,0.7190990447998047
0.011107038196164595,0.021043061896409077,-0.0827440349745687, ,0.011384866108167819,0.021148158834991687,-0.08301955892809121, ,0.0004051507918691297, ,0.0027397237846893637,0.001751480401162428,-0.0066091551983591176,0.004460635389441017,-0.005249552387454099,-0.006457532285168613, ,0.007365779147384617, ,0.006888763004758752, ,4.089253193169768e-05, ,0.18440341557073284,-0.24051679263484813,0.09356621220000001,1.7054083103596365,0.4912082166567584,-1.2907639525806227, ,0.018828758245728328,-5.058116630423643e-06,0.007188091841155235,0.009324503935877198,0.011806363900176385,-0.00184413989119059, ,0.7454841136932373
0.011191463597376685,0.021097354999680934,-0.08295082691643506, ,0.011465055952899136,0.021187883923353853,-0.08320009675395945, ,0.0003810298084417256, ,0.0029111824221263916,0.0019285630025988073,-0.0076540636735254125,-0.0025364720128267315,-0.008092971216044447,0.012880298577397909, ,0.008413027342655671, ,0.008481146567862167, ,4.208555320726009e-05, ,0.18496717507055124,-0.24051679263484813,0.09379047037,1.705618000303121,0.4914814896562893,-1.290741752167594, ,0.018721037987467107,3.3339470444966756e-05,0.008266119107420863,-0.009201613296200962,0.013314835957405737,0.0021526616329853336, ,0.7723550796508789
0.011276782382634954,0.021145814770093682,-0.08313952657708942, ,0.011545863824249472,0.021225449615529156,-0.08338121587614544, ,0.00037035151965000656, ,0.002616929530904515,0.0013803863488604116,-0.00503028340670269,-2.058927515096498e-06,-0.005042405112928492,-0.008187377691525815, ,0.005835883634342679, ,0.0050424052139114075, ,4.313080649885294e-05, ,0.18559271643336342,-0.2405090699019739,0.09399658048000001,1.705618000303121,0.4918913991555856,-1.2906676121779803, ,0.020760652277066454,1.9649449727445145e-05,0.005569514517482518,0.013313123808410323,0.013027309629510956,0.0037143315110694944, ,0.7987260818481445
0.011336224668749005,0.021178462302291368,-0.08326351927752633, ,0.011627281183644927,0.02126089394805863,-0.0835629022162294, ,0.00042560429400294905, ,0.0029909451568274417,0.0018679558439198363,-0.007007280831328221,0.00957480787162943,0.002098437876521326,-0.00896890409687393, ,0.007844552034060563, ,0.00980205949816914, ,4.445960562232563e-05, ,0.18604063494006845,-0.24050134716909968,0.09413269093000001,1.7058276902466056,0.4921646721551165,-1.2908087692452326, ,0.021503952313272328,0.00017465500753988,0.007672837919075146,0.013164495090119247,0.021282927340069376,-0.005794280614678833, ,0.8248460292816162
0.01139771109102495,0.021213913644747014,-0.0834053639342284, ,0.011709299565332313,0.021294254687286768,-0.0837451417710257, ,0.00046796478373507594, ,0.0033616327274634712,0.0020049070033826763,-0.007704897544686631,-0.0023162223152907767,-0.014571510002738026,-0.008209776385616298, ,0.008642087297677828, ,0.014754448902609423, ,4.625050908680571e-05, ,0.186473107981025,-0.24048590170335124,0.09428694944,1.7058276902466056,0.49243794515464734,-1.2909499263124848, ,0.02275160430555521,0.00042644795697694565,0.008365972436974792,0.011601469313974419,0.005615811005744403,0.004727297856942482, ,0.8460500240325928
0.011511102705492354,0.02128397804905001,-0.08367839165654557, ,0.011791910576115321,0.021325569330141077,-0.08392792061247473, ,0.00037795184179164275, ,0.003809562517713009,0.0023076378134152882,-0.008913336902217649,0.019412710271831515,0.002410839010588728,-0.006282700018047339, ,0.009964212642587615, ,0.019561835511342114, ,4.7412857312374506e-05, ,0.18724538126844747,-0.24047817897047702,0.09458379985000001,1.7058276902466056,0.4929844911537091,-1.290987204226568, ,0.02735570526332395,0.0006174069260037247,0.009754324262094306,0.008657365658084929,0.0288304665917147,-0.016771566472940133, ,0.8675081729888916
0.011582877211243663,0.021324198598693257,-0.08384259623260526, ,0.011875105895092265,0.021354875104915422,-0.08411122488753527, ,0.0003981205922172182, ,0.003918985642881102,0.0019703746812372407,-0.008532881199054416,0.0018269450622438582,-0.012624964521722386,0.0017601260070781851, ,0.00959431531745467, ,0.01275646550576608, ,4.8639146506302275e-05, ,0.18775508163814628,-0.24043956530610588,0.09476268787000001,1.70603738019009,0.49339440065300544,-1.291158100457376, ,0.02820117133981301,0.0028550238391311772,0.009271717997671713,0.0008290952827245087,0.015988768199492655,-0.003234423528313079, ,0.8884661197662354
0.011622177214427225,0.021348193832660074,-0.08393317546077399, ,0.011958877273392754,0.021382208972051016,-0.08429504081807601, ,0.0004954497918361634, ,0.0033594363524603096,0.0020349187048971182,-0.0077298283151972106,0.04751289734363585,0.0345926464853206,-0.006522210177102073, ,0.008670464377655705, ,0.0587718178828003, ,5.06595647277893e-05, ,0.1880485454873668,-0.24043184257323166,0.0948625022,1.7062470701335748,0.4938043101523018,-1.2914106754283248, ,0.02773142652205458,0.0006906698317535161,0.008624153502977802,0.009213654518878733,0.06260085919093211,-0.04320272987350092, ,0.9048011302947998
0.01170831285284091,0.021393236120015903,-0.08413106337672542, ,0.01204321653391437,0.021407607624917984,-0.08447935470076906, ,0.0004833982438463927, ,0.004894532669857766,0.002745191031396311,-0.011495263510374007,0.016459876541607174,-0.023586232635728642,-0.012982960545784973, ,0.01279193523389248, ,0.028761740298351362, ,5.254263035087467e-05, ,0.18863547318580787,-0.24036233797736364,0.09507639005000001,1.7062470701335748,0.49407758315183264,-1.2912251175350147, ,0.03180192411476903,0.0028840750661815306,0.012405616448598132,0.008777151845500843,0.006414244801234581,-0.018056179371974457, ,0.920396089553833
0.011750924205261448,0.021419230625252157,-0.0842403069192676, ,0.01212811557105963,0.021431107490597054,-0.0846641529069801, ,0.0005675031344962816, ,0.004828757329522397,0.0026672369184555984,-0.011747025675060635,0.039541326277751115,0.003506157741162399,0.0012630134262454336, ,0.012977814235730243, ,0.039696465865654576, ,5.483243618016884e-05, ,0.18893665976790264,-0.2403237243129925,0.09519564873000001,1.7064567600770593,0.49462412915089443,-1.2916707891498003, ,0.03307666140065207,0.004068425313259752,0.012753251817453966,-0.005715898366121213,0.04012237781392586,-0.04314544816057082, ,0.9363620281219482
0.011861019566865142,0.021476280775258993,-0.08450396487888187, ,0.012213566350471971,0.02145274473066007,-0.0848494218826617, ,0.0004941494930559183, ,0.00526260369370797,0.0026590007043842995,-0.012468973566463721,0.0013062385099824002,-0.018696417942491165,0.005953482905776342, ,0.013792772896851305, ,0.018741984994075117, ,5.664371191926451e-05, ,0.18966259665807975,-0.2402001605870049,0.09547953624000001,1.7064567600770593,0.49503403865019074,-1.291760006640468, ,0.0347607844536523,0.0060258358741490875,0.013419386284751476,-0.004891243753939289,0.01792015954581604,-0.0068903206912145345, ,0.9520730972290039
0.011910225254617055,0.021501855943337072,-0.08462369526942655, ,0.012299560908772707,0.021472555241952414,-0.08503514814824364, ,0.0005672162323006263, ,0.005384384048090888,0.0025394415959539606,-0.012119463079885885,-0.010368014218951147,-0.01936212704630613,0.009773433134624645, ,0.013502656795657434, ,0.021963319902388683, ,5.911071631308025e-05, ,0.19000239690454562,-0.24013837872401114,0.09560916524000002,1.7064567600770593,0.49544394814948706,-1.291930902871276, ,0.036968033330140544,0.006471446768522488,0.013077841970443352,-0.004587901296956906,0.019414623152752976,0.0051508127542338016, ,0.9630260467529297
0.01196197176899542,0.021525086042311216,-0.08474443765362652, ,0.012386091353297126,0.02149057465737347,-0.08522131829852618, ,0.0006391272228269499, ,0.005269619356602421,0.002345029125923076,-0.01261780365401419,0.05338309481483613,0.030041822781725222,0.0016125169916130914, ,0.013873608716414064, ,0.06125573939010648, ,6.191128507760062e-05, ,0.1903808108153826,-0.24004570592952043,0.09574009053000002,1.7064567600770593,0.49599049414854884,-1.2922132170057807, ,0.03944178784641346,0.010502299993077916,0.013708099414802067,-0.004312404643464106,0.07341543540524327,-0.06116110740001947, ,0.9737739562988281
0.012023703148750547,0.02155220401024794,-0.0848862436226109, ,0.01247314986183087,0.021506838346658303,-0.08540791900257089, ,0.0006900765127056838, ,0.006327959463714824,0.002940387155494257,-0.015098073010347213,0.0034263565797616616,-0.008660915905004446,0.007389296409135762, ,0.0166325210423552, ,0.009314000171717669, ,6.49232741337202e-05, ,0.1908132838563392,-0.2399375876692813,0.09589305275000001,1.7064567600770593,0.4964004036478451,-1.2926291494570104, ,0.042497510774057674,0.010536018833317562,0.016237320611620795,-0.0040641036219943825,0.03619003744695484,-0.01194539945419633, ,0.9842221736907959
0.012093019428359005,0.021584829312579275,-0.08505038302794361, ,0.012560728682345597,0.02152138141715767,-0.08559493700359194, ,0.0007206362564376892, ,0.007508394098553919,0.00352241196713618,-0.017767817950172727,-0.006701840458300556,-0.03336931456962664,0.004386322462044314, ,0.019608128995799258, ,0.034035629119663326, ,6.803269365040573e-05, ,0.19126892509591842,-0.23982946940904215,0.09606934819000001,1.7064567600770593,0.496673676647376,-1.2927703065242628, ,0.04807342530824254,0.01145090963979958,0.019030838136200722,-0.003847433841359605,0.016237000195255757,-0.004028484192883265, ,0.9949550628662109
0.012170069407870597,0.02162245819162995,-0.0852452742049297, ,0.012648820132736055,0.02153423871462079,-0.08578235911884842, ,0.0007248759462432557, ,0.007782037266664343,0.003655543385729558,-0.019640017186758098,0.008994329525097268,-0.013796352875669273,0.0030104710654617448, ,0.021439528366101183, ,0.016469195307609562, ,7.109941531156429e-05, ,0.19175545726699458,-0.2396904602173061,0.09627805088000001,1.7064567600770593,0.49708358614667236,-1.293104560235352, ,0.04876512926951222,0.015259196262818906,0.020986576442687747,-0.003646669583354433,0.037284338975170216,-0.022528238176001355, ,1.0063951015472412
0.012170069407870597,0.02162245819162995,-0.0852452742049297, ,0.012737416600555034,0.02154544482397515,-0.08597017223953574, ,0.0009237375473694612, ,0.007782037266664343,0.003655543385729558,-0.019640017186758098,0.008994329525097268,-0.013796352875669273,0.0030104710654617448, ,0.021439528366101183, ,0.016469195307609562, ,7.551722946730468e-05, ,0.19175545726699458,-0.2396904602173061,0.09627805088000001,1.7064567600770593,0.49708358614667236,-1.293104560235352, ,0.04876512926951222,0.015259196262818906,0.020986576442687747,-0.003646669583354433,0.037284338975170216,-0.022528238176001355, ,1.011841058731079
0.012170069407870597,0.02162245819162995,-0.0852452742049297, ,0.012826510542749688,0.021555034070107094,-0.08615836333067606, ,0.0011265845406718204, ,0.007782037266664343,0.003655543385729558,-0.019640017186758098,0.008994329525097268,-0.013796352875669273,0.0030104710654617448, ,0.021439528366101183, ,0.016469195307609562, ,0.0004361502729961563, ,0.19175545726699458,-0.2396904602173061,0.09627805088000001,1.7064567600770593,0.49708358614667236,-1.293104560235352, ,0.04876512926951222,0.015259196262818906,0.020986576442687747,-0.003646669583354433,0.037284338975170216,-0.022528238176001355, ,1.0171940326690674
0.012322925238377353,0.021688572006422102,-0.08561857979735014, ,0.012916094485397805,0.021563040518644334,-0.08634691943101112, ,0.000947674275263352, ,0.007220564567271559,0.0026291655014971777,-0.015788925134569032,0.009054472493870407,-0.019325209018692516,0.0010487980891653907, ,0.017559590564971216, ,0.02134118540630917, ,0.00044997524603040484, ,0.1927439670748953,-0.23935838270371446,0.0966773082,1.7064567600770593,0.49790340514526504,-1.2936097101772495, ,0.05005112951396138,0.015916964367405365,0.01694554417021277,-0.003315404283712142,0.032791777986498,-0.023629398103182146, ,1.022597074508667
0.012322925238377353,0.021688572006422102,-0.08561857979735014, ,0.013006161023443204,0.021569497976735637,-0.08653582765289337, ,0.001149927559039689, ,0.007220564567271559,0.0026291655014971777,-0.015788925134569032,0.009054472493870407,-0.019325209018692516,0.0010487980891653907, ,0.017559590564971216, ,0.02134118540630917, ,0.0004683950437411754, ,0.1927439670748953,-0.23935838270371446,0.0966773082,1.7064567600770593,0.49790340514526504,-1.2936097101772495, ,0.05005112951396138,0.015916964367405365,0.01694554417021277,-0.003315404283712142,0.032791777986498,-0.023629398103182146, ,1.0279021263122559
0.012417299639830726,0.021713665330751548,-0.08581944006042128, ,0.013096702820431187,0.021574439993831566,-0.08672507518217543, ,0.001140678460393269, ,0.010501370964805357,0.0025387876044794195,-0.022726046169655262,-0.011742320585548407,-0.037869596832431886,-0.0049607252750167976, ,0.025163414099569598, ,0.039648233188075324, ,0.0004856330800655881, ,0.1934081221020786,-0.23907264158736816,0.09689119605,1.7062470701335748,0.4983133146445613,-1.293862285148198, ,0.07178286048295822,0.036484791064387075,0.02406164882175227,0.0,0.03527614215615491,-0.022111135623259903, ,1.0333499908447266
0.012417299639830726,0.021713665330751548,-0.08581944006042128, ,0.013187712608245014,0.021577899862466245,-0.08691464927810472, ,0.001345901792397356, ,0.010501370964805357,0.0025387876044794195,-0.022726046169655262,-0.011742320585548407,-0.037869596832431886,-0.0049607252750167976, ,0.025163414099569598, ,0.039648233188075324, ,0.0005071397978738823, ,0.1934081221020786,-0.23907264158736816,0.09689119605,1.7062470701335748,0.4983133146445613,-1.293862285148198, ,0.07178286048295822,0.036484791064387075,0.02406164882175227,0.0,0.03527614215615491,-0.022111135623259903, ,1.0395090579986572
0.01252117373652039,0.021752257094227907,-0.08609050810460547, ,0.013279183186840704,0.021579910619036732,-0.08710453727321184, ,0.001277707630512647, ,0.011939516364754618,0.00582704711193828,-0.03417592310558843,0.13521477963342673,0.1095449774521935,-0.007036962916018425, ,0.036667427632547184, ,0.17402037838484483, ,0.0005259341352553156, ,0.19411861352650728,-0.23872511860802803,0.09718156501000001,1.7062470701335748,0.49981631614198113,-1.2949245246085777, ,0.07659155896567456,0.03285905178617409,0.03670233069124424,0.0,0.19364169583420235,-0.15871963217484464, ,1.0448760986328125
0.012656011224178502,0.02182065152761334,-0.08646621972706854, ,0.013371107423983506,0.02158050504458563,-0.08729472657320324, ,0.001120471553578313, ,0.0143845073118678,0.00678309769718328,-0.03883432198987504,0.06253543511245688,0.03118236422380876,-0.00407521376008595, ,0.04196461639748424, ,0.06987798050394352, ,0.0005400897880725299, ,0.1949526686769235,-0.23841620929305907,0.09758471120000001,1.7062470701335748,0.5014559541391664,-1.2962615394529347, ,0.08658480069203538,0.03454566492845678,0.04148128,0.0,0.12246017613192385,-0.09042987650055903, ,1.050206184387207
0.012656011224178502,0.02182065152761334,-0.08646621972706854, ,0.013463478254982359,0.021579715665579736,-0.08748520465685197, ,0.001322264490400773, ,0.0143845073118678,0.00678309769718328,-0.03883432198987504,0.06253543511245688,0.03118236422380876,-0.00407521376008595, ,0.04196461639748424, ,0.06987798050394352, ,0.0005582798974290005, ,0.1949526686769235,-0.23841620929305907,0.09758471120000001,1.7062470701335748,0.5014559541391664,-1.2962615394529347, ,0.08658480069203538,0.03454566492845678,0.04148128,0.0,0.12246017613192385,-0.09042987650055903, ,1.0554440021514893
0.012810667051995208,0.021889281313866985,-0.08689741473786619, ,0.013556288682426556,0.021577574754692696,-0.08767595907588926, ,0.0011221603633470405, ,0.015275210349456711,0.006514915052416174,-0.043536747945891595,0.05634038428483041,0.05212524201169289,0.002742766347572915, ,0.04659640105270411, ,0.07675365359765862, ,0.0005710953625635014, ,0.19586395115608202,-0.2379528453206056,0.09804359786000001,1.7064567600770593,0.5029589556365863,-1.297160421433033, ,0.08746261894789933,0.049502838580318606,0.04617046817391306,-0.006505205941966655,0.1467168556931394,-0.09844014320214915, ,1.0607349872589111
0.012810667051995208,0.021889281313866985,-0.08689741473786619, ,0.013649531775920307,0.0215741143315842,-0.08786697745489568, ,0.001320256078956187, ,0.015275210349456711,0.006514915052416174,-0.043536747945891595,0.05634038428483041,0.05212524201169289,0.002742766347572915, ,0.04659640105270411, ,0.07675365359765862, ,0.0005877433784833389, ,0.19586395115608202,-0.2379528453206056,0.09804359786000001,1.7064567600770593,0.5029589556365863,-1.297160421433033, ,0.08746261894789933,0.049502838580318606,0.04617046817391306,-0.006505205941966655,0.1467168556931394,-0.09844014320214915, ,1.0666391849517822
0.012969235211386538,0.02195155337915869,-0.08734199674228695, ,0.013743200671818768,0.021569366163681554,-0.08805824749119151, ,0.0011216526810571045, ,0.01653470352612068,0.005753645223132955,-0.044793404460934036,-0.018346184831748664,-0.014681024243995743,0.003611400204894596, ,0.0480931381514163, ,0.023493289249210614, ,0.0005993501024523338, ,0.1967443427037436,-0.23740453128653566,0.09851285484000001,1.7064567600770593,0.5040520476347098,-1.2978884071823233, ,0.09195440073495231,0.06013747880764941,0.047126661301775154,-0.00644521502685718,0.08187226637157045,-0.036628398410953666, ,1.0719599723815918
0.012969235211386538,0.02195155337915869,-0.08734199674228695, ,0.013837288572962712,0.021563361766959412,-0.08824975695472898, ,0.0013146246497074247, ,0.01653470352612068,0.005753645223132955,-0.044793404460934036,-0.018346184831748664,-0.014681024243995743,0.003611400204894596, ,0.0480931381514163, ,0.023493289249210614, ,0.00061456870984074, ,0.1967443427037436,-0.23740453128653566,0.09851285484000001,1.7064567600770593,0.5040520476347098,-1.2978884071823233, ,0.09195440073495231,0.06013747880764941,0.047126661301775154,-0.00644521502685718,0.08187226637157045,-0.036628398410953666, ,1.0773441791534424
0.013129413045738954,0.021999803253836974,-0.08775366600406577, ,0.013931788748414905,0.021556132406721704,-0.08844149368798268, ,0.0011461926153955148, ,0.016632205867623654,0.00421751627442771,-0.03939439280259147,-0.0478275582563106,-0.051191771908326356,0.002386568058655632, ,0.04296901092453663, ,0.07005696225535012, ,0.0006256442078731312, ,0.19767107064865055,-0.23680988085522037,0.09894581570000001,1.7062470701335748,0.5047352301335369,-1.2982004604803836, ,0.1014940551427495,0.06202414480945802,0.04148128,-0.004288592564853746,0.05328402652955101,-0.0096869567486564, ,1.082637071609497
0.013129413045738954,0.021999803253836974,-0.08775366600406577, ,0.01402669453319429,0.021547709098380663,-0.08863344560584081, ,0.0013354831862765141, ,0.016632205867623654,0.00421751627442771,-0.03939439280259147,-0.0478275582563106,-0.051191771908326356,0.002386568058655632, ,0.04296901092453663, ,0.07005696225535012, ,0.0006401307176364655, ,0.19767107064865055,-0.23680988085522037,0.09894581570000001,1.7062470701335748,0.5047352301335369,-1.2982004604803836, ,0.1014940551427495,0.06202414480945802,0.04148128,-0.004288592564853746,0.05328402652955101,-0.0096869567486564, ,1.0879020690917969
0.013295855863505554,0.022028888316569822,-0.08811953621703263, ,0.01412199932801254,0.02153812260823917,-0.08882560069549697, ,0.0011924307326507558, ,0.016449631933701133,0.001621755413206202,-0.03395665345849892,0.07606455086513701,0.04750864141409809,-0.011955697863351636, ,0.03776605348027631, ,0.08968189204513105, ,0.0006511767179367512, ,0.19880631238116156,-0.23611483489654017,0.09933340641,1.7062470701335748,0.505964958631426,-1.299121542873511, ,0.12150696742441842,0.07652979157941192,0.03611975401360545,-0.004288592564853746,0.17670679309780263,-0.14407895086307765, ,1.0931580066680908
0.013295855863505554,0.022028888316569822,-0.08811953621703263, ,0.014217696599008026,0.021527403454269668,-0.08901794701633986, ,0.001381455526993108, ,0.016449631933701133,0.001621755413206202,-0.03395665345849892,0.07606455086513701,0.04750864141409809,-0.011955697863351636, ,0.03776605348027631, ,0.08968189204513105, ,0.0006654959102711896, ,0.19880631238116156,-0.23611483489654017,0.09933340641,1.7062470701335748,0.505964958631426,-1.299121542873511, ,0.12150696742441842,0.07652979157941192,0.03611975401360545,-0.004288592564853746,0.17670679309780263,-0.14407895086307765, ,1.0983781814575195
0.013461958872715094,0.022031982177427044,-0.08844570233556454, ,0.0143137798774816,0.021515581906895065,-0.08921047269984518, ,0.0012558431325802085, ,0.01706327191162138,-0.0002304095451321212,-0.031252455445569025,0.0728240343884325,0.04418900589535706,0.007903909649513019, ,0.03560792479583291, ,0.08518203104290714, ,0.00067684874146944, ,0.2000805633054086,-0.2352730570132497,0.09967951584000001,1.705618000303121,0.5078778696281421,-1.3006813935252608, ,0.1347967919864642,0.0880305580319766,0.03325430379958247,-0.02760977385988091,0.1925580657745099,-0.15602018205127288, ,1.1036481857299805
0.013461958872715094,0.022031982177427044,-0.08844570233556454, ,0.014410242759632402,0.02150268798977051,-0.08940316594946693, ,0.0014478022099793247, ,0.01706327191162138,-0.0002304095451321212,-0.031252455445569025,0.0728240343884325,0.04418900589535706,0.007903909649513019, ,0.03560792479583291, ,0.08518203104290714, ,0.000691395033328117, ,0.2000805633054086,-0.2352730570132497,0.09967951584000001,1.705618000303121,0.5078778696281421,-1.3006813935252608, ,0.1347967919864642,0.0880305580319766,0.03325430379958247,-0.02760977385988091,0.1925580657745099,-0.15602018205127288, ,1.1089341640472412
0.013636753224994533,0.02202603520724939,-0.08875826405234756, ,0.014507078906292076,0.02148875148056243,-0.08959601504052825, ,0.0013221071487161619, ,0.017296438984673822,-0.0009422573551782391,-0.03049025824487664,0.030722727903831615,0.0023490727057135534,0.016329982794256424, ,0.03506722826676212, ,0.030811974959731987, ,0.0007030748873167845, ,0.20145520975702055,-0.23435405180121696,0.10001136608000001,1.7054083103596365,0.5096541441250929,-1.3021298262733145, ,0.13441493138593594,0.09222248936683264,0.03224455773279353,-0.037232251377592604,0.15094422076720648,-0.12177071673612026, ,1.1152551174163818
0.013824407253852459,0.02201194817903326,-0.08908443187078662, ,0.014604282042660425,0.021473801911729623,-0.08978900832011165, ,0.0011807768900916806, ,0.017955487927008743,-0.0019161089159742944,-0.03201588955248012,-0.01500248328575354,-0.031068067948207663,0.01457017296474122, ,0.03675715173828678, ,0.03450022772319007, ,0.0007117603782763281, ,0.20289163807162633,-0.23331148286319667,0.10035488293000001,1.7054083103596365,0.5110205091227473,-1.303162326570138, ,0.1340352281899305,0.10544104617607865,0.03346388974789917,-0.037232251377592604,0.11580610517048728,-0.09040297467074426, ,1.1209039688110352
0.013824407253852459,0.02201194817903326,-0.08908443187078662, ,0.014701845958040732,0.021457868571304,-0.08998213420695154, ,0.0013721415290213253, ,0.017955487927008743,-0.0019161089159742944,-0.03201588955248012,-0.01500248328575354,-0.031068067948207663,0.01457017296474122, ,0.03675715173828678, ,0.03450022772319007, ,0.000723552898825346, ,0.20289163807162633,-0.23331148286319667,0.10035488293000001,1.7054083103596365,0.5110205091227473,-1.303162326570138, ,0.1340352281899305,0.10544104617607865,0.03346388974789917,-0.037232251377592604,0.11580610517048728,-0.09040297467074426, ,1.12626314163208
0.0139979018290095,0.021992169685561672,-0.08939886610026705, ,0.01479976450557454,0.02144098050367077,-0.09017538119132376, ,0.0012448971656086386, ,0.01819051917389011,-0.0024569370779748247,-0.03375233008395157,-0.03586576881810714,-0.04016456032625671,0.006472680612673235, ,0.03842071464349425, ,0.0538470191803437, ,0.0007326992894706669, ,0.20416588899587337,-0.2322534684594279,0.1006828443,1.7054083103596365,0.5121136011208708,-1.3039719910595688, ,0.1303529417011961,0.11488733844851184,0.03500837696703297,-0.030792789359552094,0.1009584122422394,-0.07817502969420233, ,1.131505012512207
0.0139979018290095,0.021992169685561672,-0.08939886610026705, ,0.014898031601976516,0.02142316651034848,-0.09036873783493742, ,0.0014403643300557147, ,0.01819051917389011,-0.0024569370779748247,-0.03375233008395157,-0.03586576881810714,-0.04016456032625671,0.006472680612673235, ,0.03842071464349425, ,0.0538470191803437, ,0.0007449004108600642, ,0.20416588899587337,-0.2322534684594279,0.1006828443,1.7054083103596365,0.5121136011208708,-1.3039719910595688, ,0.1303529417011961,0.11488733844851184,0.03500837696703297,-0.030792789359552094,0.1009584122422394,-0.07817502969420233, ,1.1366801261901855
0.014190481798822227,0.021965676549610264,-0.0897555650046968, ,0.014996641227270494,0.021404455150770708,-0.09056219277082583, ,0.0012710274724339317, ,0.019537525530642193,-0.0024468156373794493,-0.03612499320780206,0.006371204483828196,0.002187886739686476,-0.010949566950071874, ,0.04114264144276064, ,0.006731832719767309, ,0.0007538178186833501, ,0.20555598091323377,-0.23104099939817466,0.10105358324000001,1.7049889304726675,0.5133433296187598,-1.3049747521928365, ,0.14291708066034756,0.12150696742441842,0.03774599886255925,-0.014745398828123877,0.1540435482549316,-0.12151309085879666, ,1.1418871879577637
0.014190481798822227,0.021965676549610264,-0.0897555650046968, ,0.015095587424523365,0.02138487474306492,-0.09075573470323688, ,0.0014686341811492548, ,0.019537525530642193,-0.0024468156373794493,-0.03612499320780206,0.006371204483828196,0.002187886739686476,-0.010949566950071874, ,0.04114264144276064, ,0.006731832719767309, ,0.0007657314247244485, ,0.20555598091323377,-0.23104099939817466,0.10105358324000001,1.7049889304726675,0.5133433296187598,-1.3049747521928365, ,0.14291708066034756,0.12150696742441842,0.03774599886255925,-0.014745398828123877,0.1540435482549316,-0.12151309085879666, ,1.1471550464630127
0.014349145535057542,0.02194500189636896,-0.09005057856148051, ,0.015194864299580947,0.02136445336483423,-0.09094935240752512, ,0.0013638442918705767, ,0.0208898724963407,-0.002515411373912508,-0.038788128263352734,0.01431352345135249,0.005744217303837688,0.03717142878389841, ,0.04412746266745555, ,0.015420284890595364, ,0.0007755365536940571, ,0.20672211357724168,-0.23006793505602235,0.10136210026,1.704359860642214,0.5147096946164142,-1.3060889312298007, ,0.15305958315882384,0.12619274143413667,0.04063472326530613,-0.06698869037715263,0.1804868797787542,-0.14350118349729382, ,1.1526429653167725
0.014349145535057542,0.02194500189636896,-0.09005057856148051, ,0.01529446602080295,0.02134321885393748,-0.09114303473004169, ,0.001565002917299327, ,0.0208898724963407,-0.002515411373912508,-0.038788128263352734,0.01431352345135249,0.005744217303837688,0.03717142878389841, ,0.04412746266745555, ,0.015420284890595364, ,0.0007882698821393035, ,0.20672211357724168,-0.23006793505602235,0.10136210026,1.704359860642214,0.5147096946164142,-1.3060889312298007, ,0.15305958315882384,0.12619274143413667,0.04063472326530613,-0.06698869037715263,0.1804868797787542,-0.14350118349729382, ,1.157947063446045
0.01460755043786517,0.021905818149567362,-0.09052040044043293, ,0.01539438681879758,0.02132119880926928,-0.09133677058802564, ,0.0012756768718174384, ,0.021384759160340317,-0.003984288680910834,-0.037404574420621756,-0.02290465101132042,-0.02733030892170173,0.016636913274184362, ,0.043269904878869614, ,0.03565803702870408, ,0.0007960065010230835, ,0.2086219058643009,-0.2284461611524352,0.10185339417000001,1.7037307908117605,0.5168958786126612,-1.3077899389488028, ,0.15659561313279005,0.1375317993601026,0.03894574943765281,-0.04815993996399943,0.14522993766399447,-0.11526236069682223, ,1.163248062133789
0.01460755043786517,0.021905818149567362,-0.09052040044043293, ,0.015494620986156893,0.021298420591540784,-0.0915305489694952, ,0.0014752037153931974, ,0.021384759160340317,-0.003984288680910834,-0.037404574420621756,-0.02290465101132042,-0.02733030892170173,0.016636913274184362, ,0.043269904878869614, ,0.03565803702870408, ,0.0008066189574976165, ,0.2086219058643009,-0.2284461611524352,0.10185339417000001,1.7037307908117605,0.5168958786126612,-1.3077899389488028, ,0.15659561313279005,0.1375317993601026,0.03894574943765281,-0.04815993996399943,0.14522993766399447,-0.11526236069682223, ,1.1684939861297607
0.014815698707621094,0.02186643368719577,-0.09087517061104408, ,0.015595162877191605,0.02127491132405992,-0.09172435893313804, ,0.0012956017536707913, ,0.021273298421327958,-0.0042293686938436135,-0.03632255563658906,-0.019616963006762692,-0.0207704760339538,-0.044370213301167194, ,0.04230565958881207, ,0.028568771207087697, ,0.0008141417697464346, ,0.21014328424052314,-0.22711785109806862,0.10222283682000001,1.703521100868276,0.5181256071105501,-1.308792700082071, ,0.15531414330355284,0.13934940023270306,0.03783565681710214,0.015140594444082478,0.13584062883781914,-0.10792079076951272, ,1.1737329959869385
0.014815698707621094,0.02186643368719577,-0.09087517061104408, ,0.015696006907666517,0.02125069789351222,-0.09191818960820305, ,0.0014973181769833796, ,0.021273298421327958,-0.0042293686938436135,-0.03632255563658906,-0.019616963006762692,-0.0207704760339538,-0.044370213301167194, ,0.04230565958881207, ,0.028568771207087697, ,0.0008244929274318428, ,0.21014328424052314,-0.22711785109806862,0.10222283682000001,1.703521100868276,0.5181256071105501,-1.308792700082071, ,0.15531414330355284,0.13934940023270306,0.03783565681710214,0.015140594444082478,0.13584062883781914,-0.10792079076951272, ,1.1789820194244385
0.015028640302782875,0.02181996328494831,-0.09124541724403527, ,0.015797147554534596,0.021225806950740445,-0.09211203019439046, ,0.0013017846024583454, ,0.020560865769265836,-0.00493222861475941,-0.036732067501991976,-0.006999858383827688,0.007498091154407613,-0.028382304390255925, ,0.04238302565014577, ,0.01025439023244774, ,0.000831616683775522, ,0.21168783081536804,-0.2256659773177144,0.10260783495,1.7037307908117605,0.5196286086079701,-1.3100182970227316, ,0.14781455071412894,0.14554745637802266,0.038107204593301434,-0.003869836182280108,0.1618048510874767,-0.1293596177434965, ,1.1843349933624268
0.015028640302782875,0.02181996328494831,-0.09124541724403527, ,0.01589857935567301,0.0212002649115259,-0.09230586996174354, ,0.001505117934336252, ,0.020560865769265836,-0.00493222861475941,-0.036732067501991976,-0.006999858383827688,0.007498091154407613,-0.028382304390255925, ,0.04238302565014577, ,0.01025439023244774, ,0.0008415211139308269, ,0.21168783081536804,-0.2256659773177144,0.10260783495,1.7037307908117605,0.5196286086079701,-1.3100182970227316, ,0.14781455071412894,0.14554745637802266,0.038107204593301434,-0.003869836182280108,0.1618048510874767,-0.1293596177434965, ,1.1897821426391602
0.015028640302782875,0.02181996328494831,-0.09124541724403527, ,0.016000296909617538,0.021174097957368316,-0.09249969825053904, ,0.0017130322315273474, ,0.020560865769265836,-0.00493222861475941,-0.036732067501991976,-0.006999858383827688,0.007498091154407613,-0.028382304390255925, ,0.04238302565014577, ,0.01025439023244774, ,0.0008541517098380228, ,0.21168783081536804,-0.2256659773177144,0.10260783495,1.7037307908117605,0.5196286086079701,-1.3100182970227316, ,0.14781455071412894,0.14554745637802266,0.038107204593301434,-0.003869836182280108,0.1618048510874767,-0.1293596177434965, ,1.1951160430908203
0.015028640302782875,0.02181996328494831,-0.09124541724403527, ,0.016102294875296765,0.021147332036265537,-0.09269350447117791, ,0.0019240903188775175, ,0.020560865769265836,-0.00493222861475941,-0.036732067501991976,-0.006999858383827688,0.007498091154407613,-0.028382304390255925, ,0.04238302565014577, ,0.01025439023244774, ,0.0008694365471100156, ,0.21168783081536804,-0.2256659773177144,0.10260783495,1.7037307908117605,0.5196286086079701,-1.3100182970227316, ,0.14781455071412894,0.14554745637802266,0.038107204593301434,-0.003869836182280108,0.1618048510874767,-0.1293596177434965, ,1.2004611492156982
0.015028640302782875,0.02181996328494831,-0.09124541724403527, ,0.01620456797176876,0.021119992863495727,-0.09288727810407678, ,0.0021373983150857288, ,0.020560865769265836,-0.00493222861475941,-0.036732067501991976,-0.006999858383827688,0.007498091154407613,-0.028382304390255925, ,0.04238302565014577, ,0.01025439023244774, ,0.0008872951635603779, ,0.21168783081536804,-0.2256659773177144,0.10260783495,1.7037307908117605,0.5196286086079701,-1.3100182970227316, ,0.14781455071412894,0.14554745637802266,0.038107204593301434,-0.003869836182280108,0.1618048510874767,-0.1293596177434965, ,1.2057440280914307
0.015088434027424494,0.021804292228505013,-0.09135424357304517, ,0.01630711097795465,0.02109210592239612,-0.09308100869955888, ,0.002230269187005553, ,0.020300816245786415,-0.005136606167953589,-0.035933859373275895,4.652409763676303e-05,0.015464858838204611,-0.021392198577188593, ,0.041590264637631394, ,0.015462991645159479, ,0.0009059475805526721, ,0.2121203038563246,-0.2252335042767578,0.10272061218,1.703521100868276,0.5201751546070318,-1.3104639686375172, ,0.14735549931439562,0.145102357123044,0.03730400824355972,-0.011417057108018864,0.17129236985949248,-0.13716502417813708, ,1.2110440731048584
0.015088434027424494,0.021804292228505013,-0.09135424357304517, ,0.016409918732374077,0.021063696465144277,-0.09327468587774426, ,0.002445997251797623, ,0.020300816245786415,-0.005136606167953589,-0.035933859373275895,4.652409763676303e-05,0.015464858838204611,-0.021392198577188593, ,0.041590264637631394, ,0.015462991645159479, ,0.000927044151391644, ,0.2121203038563246,-0.2252335042767578,0.10272061218,1.703521100868276,0.5201751546070318,-1.3104639686375172, ,0.14735549931439562,0.145102357123044,0.03730400824355972,-0.011417057108018864,0.17129236985949248,-0.13716502417813708, ,1.2163629531860352
0.0157504030712416,0.0216034028682583,-0.09247518886840086, ,0.016512986132879465,0.02103478951353755,-0.09346829932844153, ,0.00137518088225002, ,0.018939670375409567,-0.009687873989771167,-0.02552863848952916,-0.15354630511260015,-0.129314953154498,-0.06723640981374618, ,0.033230669561414516, ,0.20074564523386582, ,0.0009331000531600006, ,0.21683889364247577,-0.22042224169611596,0.10387560657000001,1.7016338913769151,0.5240009766004642,-1.3135019912008763, ,0.13873821865273506,0.1644661032209199,0.025486098432000007,0.03402456368252662,0.00205045952092556,0.00025352904373865566, ,1.2217600345611572
0.0157504030712416,0.0216034028682583,-0.09247518886840086, ,0.016616308136391852,0.021005409859774414,-0.09366183881103801, ,0.0015860407644222821, ,0.018939670375409567,-0.009687873989771167,-0.02552863848952916,-0.15354630511260015,-0.129314953154498,-0.06723640981374618, ,0.033230669561414516, ,0.20074564523386582, ,0.0009418059293101644, ,0.21683889364247577,-0.22042224169611596,0.10387560657000001,1.7016338913769151,0.5240009766004642,-1.3135019912008763, ,0.13873821865273506,0.1644661032209199,0.025486098432000007,0.03402456368252662,0.00205045952092556,0.00025352904373865566, ,1.2274370193481445
0.015934495814925953,0.021522353819365025,-0.09278084381132133, ,0.016719879758635557,0.020975582067234898,-0.09385529415439145, ,0.0014388296729244206, ,0.01862925874856475,-0.006478156148076561,-0.03559911675996612,0.060192363845220725,0.09906672805913462,-0.04033711052353398, ,0.0406978242992121, ,0.11591928269249324, ,0.000948345715410352, ,0.21817492642971661,-0.21882363599115148,0.10418801246,1.7018435813203996,0.525503978097884,-1.3147275881415368, ,0.13125441432706886,0.15405347655595905,0.036872248888888896,0.0,0.23828971176805738,-0.20165429338534577, ,1.2329180240631104
0.015934495814925953,0.021522353819365025,-0.09278084381132133, ,0.016823696073872185,0.02094533047125957,-0.09404865525671995, ,0.001652567368022435, ,0.01862925874856475,-0.006478156148076561,-0.03559911675996612,0.060192363845220725,0.09906672805913462,-0.04033711052353398, ,0.0406978242992121, ,0.11591928269249324, ,0.000957491451158561, ,0.21817492642971661,-0.21882363599115148,0.10418801246,1.7018435813203996,0.525503978097884,-1.3147275881415368, ,0.13125441432706886,0.15405347655595905,0.036872248888888896,0.0,0.23828971176805738,-0.20165429338534577, ,1.238300085067749
0.016196639334096024,0.021434529614276353,-0.09325958641201952, ,0.01692775221463678,0.02091467917993148,-0.09424191208549376, ,0.0013303135897027346, ,0.019140813727407294,-0.006868879998260449,-0.03207771195358649,-0.06837541236141563,-0.03674606129920712,0.05680029695341631, ,0.037980677544707804, ,0.07762368242198092, ,0.0009622712221655375, ,0.22005155051815317,-0.21680027997810467,0.10468578782000001,1.7007951316029768,0.5286466175924891,-1.3175352361469763, ,0.1340352281899305,0.14356572096591644,0.03304732680497926,-0.09112446358035106,0.12078456830404642,-0.08593731474008742, ,1.2439181804656982
0.016196639334096024,0.021434529614276353,-0.09325958641201952, ,0.017032043371471503,0.020883652074855343,-0.0944350546773256, ,0.0015437265340219703, ,0.019140813727407294,-0.006868879998260449,-0.03207771195358649,-0.06837541236141563,-0.03674606129920712,0.05680029695341631, ,0.037980677544707804, ,0.07762368242198092, ,0.0009696314159865051, ,0.22005155051815317,-0.21680027997810467,0.10468578782000001,1.7007951316029768,0.5286466175924891,-1.3175352361469763, ,0.1340352281899305,0.14356572096591644,0.03304732680497926,-0.09112446358035106,0.12078456830404642,-0.08593731474008742, ,1.249178171157837
0.016398877761086266,0.021373406182658927,-0.09363760056730507, ,0.017136564792662012,0.020852272811939247,-0.09462807313786208, ,0.0013404469626428733, ,0.020492208229285356,-0.004836354366330881,-0.04270803356214839,-0.10389852130228092,-0.06465530039191542,0.01910423122458007, ,0.047616142771277806, ,0.12237266244012775, ,0.0009742666103197097, ,0.22133352417527444,-0.21531751526625356,0.10507337853000001,1.699956371829039,0.5294664365910817,-1.3182854223092955, ,0.11759224480603565,0.14689929033819007,0.04376047120879121,-0.05347342049447973,0.06647092156140251,-0.04809954956589317, ,1.2544200420379639
0.016398877761086266,0.021373406182658927,-0.09363760056730507, ,0.0172413117839705,0.020820564822173215,-0.0948209576416739, ,0.0015542402060927988, ,0.020492208229285356,-0.004836354366330881,-0.04270803356214839,-0.10389852130228092,-0.06465530039191542,0.01910423122458007, ,0.047616142771277806, ,0.12237266244012775, ,0.0009814267781687602, ,0.22133352417527444,-0.21531751526625356,0.10507337853000001,1.699956371829039,0.5294664365910817,-1.3182854223092955, ,0.11759224480603565,0.14689929033819007,0.04376047120879121,-0.05347342049447973,0.06647092156140251,-0.04809954956589317, ,1.2597851753234863
0.01656791317798739,0.02134044410464767,-0.09400716826561134, ,0.017346279708372134,0.020788551312411214,-0.09501369843214719, ,0.001386918557772019, ,0.021356947037844923,-0.0038316974027763997,-0.04762918056876984,-0.06827326445497606,-0.03208942016890132,-0.0029276219781359434, ,0.05233870397149932, ,0.07543689026971409, ,0.000986371799871239, ,0.2222679748530556,-0.21412049167074876,0.10545319150000002,1.699956371829039,0.530149619089909,-1.3188425118277776, ,0.11629527151773382,0.14781455071412894,0.049011727753846164,-0.03444906533927472,0.09454541633000099,-0.07994640712304747, ,1.265336036682129
0.01681746116957894,0.021298145985117173,-0.09455330960673006, ,0.017451463985788583,0.020756255266150003,-0.09520628582137437, ,0.00105923701745914, ,0.020237259290813197,-0.003140934732883857,-0.0442011324090122,0.009374732051489185,0.019524596631093523,-0.0403472793917108, ,0.04871501042634468, ,0.021654716679832313, ,0.000987249694059045, ,0.22367351223616447,-0.21243693590416782,0.10601837394000001,1.6997466818855542,0.5316526205873288,-1.320476502469141, ,0.11474841784579294,0.13365766416686023,0.04590435596541788,0.0,0.13871571986211764,-0.13571492182628953, ,1.271583080291748
0.01681746116957894,0.021298145985117173,-0.09455330960673006, ,0.017556860092824676,0.020723699444311443,-0.09539871019004514, ,0.0012615077257829659, ,0.020237259290813197,-0.003140934732883857,-0.0442011324090122,0.009374732051489185,0.019524596631093523,-0.0403472793917108, ,0.04871501042634468, ,0.021654716679832313, ,0.0009905146706271869, ,0.22367351223616447,-0.21243693590416782,0.10601837394000001,1.6997466818855542,0.5316526205873288,-1.320476502469141, ,0.11474841784579294,0.13365766416686023,0.04590435596541788,0.0,0.13871571986211764,-0.13571492182628953, ,1.276888132095337
0.017013967611825016,0.02125431501377185,-0.09497735042617121, ,0.01766246356250073,0.020690906386020242,-0.09559096198733681, ,0.0010556966552300118, ,0.019411017472691958,-0.005625139535255939,-0.0403895304191942,-0.021993756821992,-0.02429905817083044,0.04325404903124112, ,0.04516352468086681, ,0.0327728864014895, ,0.0009912815175048672, ,0.22480103123580125,-0.21106228945255584,0.10645651996000001,1.6989079221116163,0.5330189855849832,-1.3219990752068078, ,0.11257051193175657,0.14400142876854444,0.04148128,-0.09763894589231581,0.11227580422495019,-0.13797207783859344, ,1.2820770740509033
0.017013967611825016,0.02125431501377185,-0.09497735042617121, ,0.017768269983989445,0.020657898409386383,-0.09578303173080538, ,0.0012545147266080983, ,0.019411017472691958,-0.005625139535255939,-0.0403895304191942,-0.021993756821992,-0.02429905817083044,0.04325404903124112, ,0.04516352468086681, ,0.0327728864014895, ,0.0009943423687735096, ,0.22480103123580125,-0.21106228945255584,0.10645651996000001,1.6989079221116163,0.5330189855849832,-1.3219990752068078, ,0.11257051193175657,0.14400142876854444,0.04148128,-0.09763894589231581,0.11227580422495019,-0.13797207783859344, ,1.2873260974884033
0.017207056718021377,0.02119194401130862,-0.09535100726611341, ,0.017874275002350632,0.020624697612285296,-0.09597491000627739, ,0.0010752689641816734, ,0.01945309669604745,-0.0064451925051642635,-0.036005566334363553,-0.04742641958171448,-0.0444494370586974,0.015623696735359705, ,0.041429027077070635, ,0.06499967089331263, ,0.0009952725595253275, ,0.22596716389980914,-0.2096258611379501,0.10684022180000001,1.698069162337678,0.5339754410833412,-1.3230240367531045, ,0.12027495761529881,0.14334885431793168,0.037043747720930234,-0.06255460245537632,0.09167476402657329,-0.10422735383980238, ,1.292659044265747
0.017207056718021377,0.02119194401130862,-0.09535100726611341, ,0.017980474318264657,0.020591325873136796,-0.09616658746773947, ,0.0012743971114026697, ,0.01945309669604745,-0.0064451925051642635,-0.036005566334363553,-0.04742641958171448,-0.0444494370586974,0.015623696735359705, ,0.041429027077070635, ,0.06499967089331263, ,0.0009984444294330248, ,0.22596716389980914,-0.2096258611379501,0.10684022180000001,1.698069162337678,0.5339754410833412,-1.3230240367531045, ,0.12027495761529881,0.14334885431793168,0.037043747720930234,-0.06255460245537632,0.09167476402657329,-0.10422735383980238, ,1.297957181930542
0.017402427032399477,0.02113045749470798,-0.09570285241311614, ,0.01808686368776817,0.020557804851686394,-0.09635805483722962, ,0.0011071019832590246, ,0.017987543344317184,-0.006097341665974376,-0.031575241263989785,-0.003903498755891011,-0.0030428036652392926,-0.012013847839656748, ,0.036847322179969604, ,0.0049461672908470795, ,0.0009996653008243282, ,0.22720280115968508,-0.208212601021967,0.10720447929000002,1.698069162337678,0.5350685330814648,-1.3242420949432383, ,0.11730153468290579,0.13107312369954527,0.03277533234567902,-0.03078350891959144,0.12447774628856433,-0.1274659371173544, ,1.3032729625701904
0.017402427032399477,0.02113045749470798,-0.09570285241311614, ,0.018193438921989585,0.020524155989786203,-0.09654930290472818, ,0.0013075854691352272, ,0.017987543344317184,-0.006097341665974376,-0.031575241263989785,-0.003903498755891011,-0.0030428036652392926,-0.012013847839656748, ,0.036847322179969604, ,0.0049461672908470795, ,0.0010030866360277826, ,0.22720280115968508,-0.208212601021967,0.10720447929000002,1.698069162337678,0.5350685330814648,-1.3242420949432383, ,0.11730153468290579,0.13107312369954527,0.03277533234567902,-0.03078350891959144,0.12447774628856433,-0.1274659371173544, ,1.3086810111999512
0.01758215152882366,0.021061972650499576,-0.09601304849572073, ,0.018300195886882524,0.020490400512173868,-0.09674032252804925, ,0.0011709867324396835, ,0.017014614597058622,-0.007481444190111893,-0.028794322697324796,0.030630721498550187,0.017707897665494222,-0.05259219271589909, ,0.03427217729666256, ,0.035380657783854165, ,0.0010049316920323088, ,0.22839210202231566,-0.20683795457035503,0.10752595921000001,1.6978594723941938,0.5364348980791193,-1.3256829889407649, ,0.11392189862961677,0.13934940023270306,0.02971793194029851,0.0,0.13586751093329158,-0.16427189900366979, ,1.313992977142334
0.01758215152882366,0.021061972650499576,-0.09601304849572073, ,0.018407130502961607,0.020456559427254065,-0.09693110463273055, ,0.0013747518137291598, ,0.017014614597058622,-0.007481444190111893,-0.028794322697324796,0.030630721498550187,0.017707897665494222,-0.05259219271589909, ,0.03427217729666256, ,0.035380657783854165, ,0.0010089514759637965, ,0.22839210202231566,-0.20683795457035503,0.10752595921000001,1.6978594723941938,0.5364348980791193,-1.3256829889407649, ,0.11392189862961677,0.13934940023270306,0.02971793194029851,0.0,0.13586751093329158,-0.16427189900366979, ,1.3192410469055176
0.01774117817754258,0.02098362143980441,-0.09629444170763228, ,0.018514238745036517,0.02042265352787764,-0.09712164021192432, ,0.001263552533426495, ,0.016523116624501316,-0.007994059932049335,-0.030085374230063057,-0.02740948508995567,-0.006798910822577244,0.05966809141209781, ,0.035242703070948046, ,0.028239695705348084, ,0.0010116891217429652, ,0.22942694822746174,-0.2054710308516173,0.10781373559000001,1.6970207126202554,0.5376646265770082,-1.3270941437747354, ,0.10509074369708835,0.1407966491965442,0.030750601389961392,-0.11024322848873448,0.12455422287133178,-0.13143813519881922, ,1.324493169784546
0.01774117817754258,0.02098362143980441,-0.09629444170763228, ,0.018621516641948756,0.02038870339212428,-0.09731192032629012, ,0.0014711172743171826, ,0.016523116624501316,-0.007994059932049335,-0.030085374230063057,-0.02740948508995567,-0.006798910822577244,0.05966809141209781, ,0.035242703070948046, ,0.028239695705348084, ,0.001016576655280989, ,0.22942694822746174,-0.2054710308516173,0.10781373559000001,1.6970207126202554,0.5376646265770082,-1.3270941437747354, ,0.10509074369708835,0.1407966491965442,0.030750601389961392,-0.11024322848873448,0.12455422287133178,-0.13143813519881922, ,1.3297131061553955
0.01791275406914742,0.02091395346432233,-0.09661707496276406, ,0.01872896027630245,0.02035472938407893,-0.09750193610388211, ,0.0013273670869745147, ,0.01810757844745215,-0.006139400100113504,-0.03458189038059586,0.018505934931261122,-0.0041261498065040736,0.031045733582300974, ,0.03951561429505374, ,0.01895904219883889, ,0.0010198481335093419, ,0.2304849626312305,-0.20411955259862802,0.10814558583000002,1.6959722629028329,0.5388943550748971,-1.328505298608706, ,0.10970744688840552,0.13235277762687694,0.03579508206741574,-0.08935693113563159,0.12746796463246765,-0.16622084481376784, ,1.336359977722168
0.01810603171443418,0.020856046952832004,-0.0969893340232284, ,0.018836565784204628,0.02032075165461676,-0.09769167874004402, ,0.00114608428338649, ,0.01810757844745215,-0.006139400100113504,-0.03458189038059586,0.018505934931261122,-0.0041261498065040736,0.031045733582300974, ,0.03951561429505374, ,0.01895904219883889, ,0.0010211630934038954, ,0.2304849626312305,-0.20411955259862802,0.10814558583000002,1.6959722629028329,0.5388943550748971,-1.328505298608706, ,0.10970744688840552,0.13235277762687694,0.03579508206741574,-0.08935693113563159,0.12746796463246765,-0.16622084481376784, ,1.341691017150879
0.01810603171443418,0.020856046952832004,-0.0969893340232284, ,0.018944329354994422,0.020286790142179153,-0.09788113949729618, ,0.001349856753222646, ,0.01947498534582295,-0.005786672746512454,-0.0378181566070965,-0.024846963644482283,-0.0047035397957788695,-0.0044022078863111495, ,0.04292986844673677, ,0.025286706617822136, ,0.0010245516878350167, ,0.23162792709661573,-0.20273718341414182,0.10853188025,1.6959722629028329,0.5401240835727862,-1.3297530959623953, ,0.11392189862961677,0.1371343086105069,0.03923352591133005,-0.03796228965731008,0.12040357009199029,-0.1138840034074585, ,1.3475291728973389
0.018300071028454858,0.020799138994144366,-0.09735340711305746, ,0.019052247230982658,0.020252864573557565,-0.09807030970522959, ,0.0011739395678226864, ,0.019718604576230175,-0.005625940970601605,-0.03650094958246836,-0.03946124856515189,-0.014369815688325342,-0.03488865720849553, ,0.04186638148515246, ,0.04199543962530218, ,0.0010260760539573398, ,0.23277861429487517,-0.20140115062690098,0.10891039693000001,1.6957625729593484,0.5412171755709096,-1.330971154152529, ,0.1170122583951551,0.133469678703897,0.03792574171428572,0.0,0.10526666800935804,-0.08641961379785874, ,1.352787971496582
0.018300071028454858,0.020799138994144366,-0.09735340711305746, ,0.019160315707183632,0.02021899446467166,-0.09825918076039493, ,0.0013773214884584173, ,0.019718604576230175,-0.005625940970601605,-0.03650094958246836,-0.03946124856515189,-0.014369815688325342,-0.03488865720849553, ,0.04186638148515246, ,0.04199543962530218, ,0.0010296239876391687, ,0.23277861429487517,-0.20140115062690098,0.10891039693000001,1.6957625729593484,0.5412171755709096,-1.330971154152529, ,0.1170122583951551,0.133469678703897,0.03792574171428572,0.0,0.10526666800935804,-0.08641961379785874, ,1.3580210208892822
0.01850383471208149,0.02074052144836997,-0.09772506870852062, ,0.019268531131050686,0.020185199121350035,-0.09844774412619332, ,0.0011897072158222669, ,0.020489570954179838,-0.005457676600779789,-0.037108371634909085,-0.013398550232041498,-0.014962768211095608,-0.024070314531204638, ,0.04273920913119, ,0.020083207298803345, ,0.0010312248199209997, ,0.23399880608900264,-0.2000496723739117,0.10929798764000001,1.6953431930723792,0.5423102675690331,-1.3319441761222408, ,0.12308293327946923,0.13180130772009832,0.03885075980487805,-0.018656414250899284,0.11519936342151375,-0.11634033429945742, ,1.3632891178131104
0.01850383471208149,0.02074052144836997,-0.09772506870852062, ,0.019376889902211376,0.02015149764011099,-0.09863599133276833, ,0.0013924634426350272, ,0.020489570954179838,-0.005457676600779789,-0.037108371634909085,-0.013398550232041498,-0.014962768211095608,-0.024070314531204638, ,0.04273920913119, ,0.020083207298803345, ,0.0010348014399478712, ,0.23399880608900264,-0.2000496723739117,0.10929798764000001,1.6953431930723792,0.5423102675690331,-1.3319441761222408, ,0.12308293327946923,0.13180130772009832,0.03885075980487805,-0.018656414250899284,0.11519936342151375,-0.11634033429945742, ,1.3685581684112549
0.01870679413425677,0.020683354023020184,-0.0981030372802659, ,0.019485388472202287,0.020117908908942866,-0.09882391397689588, ,0.0012023312903933288, ,0.020100902549632302,-0.005976622005191156,-0.03740463058110945,-0.009755708564446259,-0.0019893479479913215,0.07618118787528849, ,0.042882078807026346, ,0.009952795352930699, ,0.0010364438894620424, ,0.2352112751502559,-0.19873680778529354,0.10969335609000001,1.6942947433549567,0.5436766325666875,-1.3332217126394863, ,0.12073402233902134,0.13161850424198443,0.039137129041769046,-0.1255274848694561,0.14771321244457292,-0.1432828316460595, ,1.3740921020507812
0.01870679413425677,0.020683354023020184,-0.0981030372802659, ,0.019594023344203616,0.02008445160808409,-0.0990115037218757, ,0.0014039839917642798, ,0.020100902549632302,-0.005976622005191156,-0.03740463058110945,-0.009755708564446259,-0.0019893479479913215,0.07618118787528849, ,0.042882078807026346, ,0.009952795352930699, ,0.0010400122399698312, ,0.2352112751502559,-0.19873680778529354,0.10969335609000001,1.6942947433549567,0.5436766325666875,-1.3332217126394863, ,0.12073402233902134,0.13161850424198443,0.039137129041769046,-0.1255274848694561,0.14771321244457292,-0.1432828316460595, ,1.3799669742584229
0.01891104660464829,0.02062621014730587,-0.09847840750371574, ,0.01970279107277387,0.020051144210803434,-0.09919875229742187, ,0.0012150953690770144, ,0.020029561952718534,-0.005754559025898007,-0.0356610236695044,0.019441538472385233,0.0022853643437373795,-0.005101147626541536, ,0.04130383651378268, ,0.019573927450145738, ,0.0010416957315958618, ,0.23643918967725758,-0.19740849773092692,0.11008742825000001,1.693875363467988,0.5451796340641073,-1.3346923458005686, ,0.12181892369508443,0.1287611147333389,0.03747955651764706,-0.045566775836678924,0.13690304795201247,-0.15279792617041738, ,1.385357141494751
0.01891104660464829,0.02062621014730587,-0.09847840750371574, ,0.01981168826358469,0.020018004984180455,-0.0993856514995535, ,0.0014156837875202895, ,0.020029561952718534,-0.005754559025898007,-0.0356610236695044,0.019441538472385233,0.0022853643437373795,-0.005101147626541536, ,0.04130383651378268, ,0.019573927450145738, ,0.0010452575226046659, ,0.23643918967725758,-0.19740849773092692,0.11008742825000001,1.693875363467988,0.5451796340641073,-1.3346923458005686, ,0.12181892369508443,0.1287611147333389,0.03747955651764706,-0.045566775836678924,0.13690304795201247,-0.15279792617041738, ,1.3907251358032227
0.019114126692356934,0.02056925233537165,-0.09883463111935954, ,0.01992071157315566,0.019985051989885785,-0.09957219319048602, ,0.001239301021690564, ,0.02022158448552163,-0.005759165259153228,-0.03489611934807359,-0.008907524146738085,-0.019221984045974548,-0.01812911282159717, ,0.040740883755047856, ,0.02118435531305892, ,0.0010470881216526461, ,0.2376671042042593,-0.1961110786080572,0.11046205606000001,1.693875363467988,0.5464093625619963,-1.3358584644141176, ,0.12244766652705909,0.12720769645907612,0.03670233069124424,-0.026304344722478303,0.11150952530243355,-0.11863228168445736, ,1.3960511684417725
0.019114126692356934,0.02056925233537165,-0.09883463111935954, ,0.02002985770858961,0.019952303084961664,-0.09975836929852169, ,0.0014396117168576311, ,0.02022158448552163,-0.005759165259153228,-0.03489611934807359,-0.008907524146738085,-0.019221984045974548,-0.01812911282159717, ,0.040740883755047856, ,0.02118435531305892, ,0.001050756566467646, ,0.2376671042042593,-0.1961110786080572,0.11046205606000001,1.693875363467988,0.5464093625619963,-1.3358584644141176, ,0.12244766652705909,0.12720769645907612,0.03670233069124424,-0.026304344722478303,0.11150952530243355,-0.11863228168445736, ,1.4012529850006104
0.019323418281307306,0.02051082640652854,-0.09919631120272727, ,0.020139123427306886,0.019919775922602093,-0.09994417181794091, ,0.001254595974625934, ,0.020270864830871087,-0.005653264725355183,-0.035478976267190265,0.036413975837511534,0.0004522290297562649,-0.053432735236175664, ,0.04125075902349242, ,0.03641601202737615, ,0.0010526439683950376, ,0.23893363239563212,-0.19480593675231325,0.11084316532,1.6936656735245033,0.5476390910598853,-1.3371879405079474, ,0.12150696742441842,0.12772132107465783,0.03739157633802818,0.0,0.12556045198092897,-0.15940357201588404, ,1.4073419570922852
0.019509968877249505,0.020452307421382432,-0.09952097750918898, ,0.020248505536779406,0.019887487952932662,-0.10012959280889183, ,0.0011112470528383228, ,0.019629468761897827,-0.0064806700645837195,-0.03380491381581453,-0.029914501486964448,-0.03428631425577659,0.08869103630397751, ,0.03962432745744667, ,0.04550147907119005, ,0.0010531816113715814, ,0.24005342866239465,-0.19362435862255692,0.11118408959000001,1.6926172238070805,0.5487321830580089,-1.3383243199579407, ,0.11832536353924038,0.12502890850918416,0.035476194922048995,-0.13892125747900935,0.11389458771853747,-0.12188333585913733, ,1.412889003753662
0.019509968877249505,0.020452307421382432,-0.09952097750918898, ,0.02035800089426749,0.01985545642379202,-0.10031462439728311, ,0.0013058578782523653, ,0.019629468761897827,-0.0064806700645837195,-0.03380491381581453,-0.029914501486964448,-0.03428631425577659,0.08869103630397751, ,0.03962432745744667, ,0.04550147907119005, ,0.0010554786683432248, ,0.24005342866239465,-0.19362435862255692,0.11118408959000001,1.6926172238070805,0.5487321830580089,-1.3383243199579407, ,0.11832536353924038,0.12502890850918416,0.035476194922048995,-0.13892125747900935,0.11389458771853747,-0.12188333585913733, ,1.4182939529418945
0.019710412818308022,0.020383436193222033,-0.09984676525287668, ,0.02046760640655272,0.01982369838151111,-0.1004992587746733, ,0.0011455986836254551, ,0.01800578105977522,-0.006539384330471285,-0.027676076725474758,0.0319363509649011,-0.01807363207523539,0.0015767955104573372, ,0.03365912835931048, ,0.036695646222879734, ,0.0010562905603727947, ,0.24130451138801903,-0.1923346622325614,0.11152760644000001,1.6917784640331426,0.5499619115558978,-1.339817153532052, ,0.11572797751033022,0.11672440536097266,0.029280903529411772,-0.05847514870681996,0.11187053974641809,-0.15905537268621028, ,1.4236061573028564
0.019710412818308022,0.020383436193222033,-0.09984676525287668, ,0.020577319029673635,0.019792230671693986,-0.10068348819816224, ,0.0013420713971905025, ,0.01800578105977522,-0.006539384330471285,-0.027676076725474758,0.0319363509649011,-0.01807363207523539,0.0015767955104573372, ,0.03365912835931048, ,0.036695646222879734, ,0.0010588421749872384, ,0.24130451138801903,-0.1923346622325614,0.11152760644000001,1.6917784640331426,0.5499619115558978,-1.339817153532052, ,0.11572797751033022,0.11672440536097266,0.029280903529411772,-0.05847514870681996,0.11187053974641809,-0.15905537268621028, ,1.428847074508667
0.019892566726848596,0.020314993887869344,-0.10011298173649395, ,0.02068713576866025,0.019761069939998103,-0.10086730499028186, ,0.001227670669779126, ,0.01917156645339669,-0.007422045622981095,-0.02781159039238008,-0.03987890831756067,-0.04839043352268739,-0.042177313812445216, ,0.03458497190486275, ,0.06270522104291806, ,0.0010603362324632729, ,0.24247836678490114,-0.19114536136993085,0.11180890137,1.691568774089658,0.5507817305544904,-1.3408123759147923, ,0.12276447808340334,0.12754965263235318,0.02933482784530387,0.0018991588001970163,0.07605437104937755,-0.08221569290321099, ,1.4341461658477783
0.019892566726848596,0.020314993887869344,-0.10011298173649395, ,0.020797053677269518,0.019730232632914787,-0.10105070153888693, ,0.00142806190222192, ,0.01917156645339669,-0.007422045622981095,-0.02781159039238008,-0.03987890831756067,-0.04839043352268739,-0.042177313812445216, ,0.03458497190486275, ,0.06270522104291806, ,0.0010635618962330856, ,0.24247836678490114,-0.19114536136993085,0.11180890137,1.691568774089658,0.5507817305544904,-1.3408123759147923, ,0.12276447808340334,0.12754965263235318,0.02933482784530387,0.0018991588001970163,0.07605437104937755,-0.08221569290321099, ,1.439486026763916
0.020096213703494667,0.02024438002454157,-0.10043111193814878, ,0.020907069857718768,0.01969973499854899,-0.10123367029704608, ,0.0012642095659412948, ,0.019748586096093635,-0.005867935729336779,-0.03261213233790742,0.07658614167714863,0.04900958585652981,-0.052242573986235594, ,0.038574479881699465, ,0.0909249125042059, ,0.0010653066585783741, ,0.2436908358461544,-0.1899020013771807,0.11212260355,1.6917784640331426,0.5521480955521448,-1.3424166273926001, ,0.1251938542987741,0.12324278124476726,0.034779064454148474,0.0,0.17501963252156158,-0.18943315155086143, ,1.4447920322418213
0.020096213703494667,0.02024438002454157,-0.10043111193814878, ,0.02101718146042108,0.01966959308739986,-0.10141620378293187, ,0.0014659357336066796, ,0.019748586096093635,-0.005867935729336779,-0.03261213233790742,0.07658614167714863,0.04900958585652981,-0.052242573986235594, ,0.038574479881699465, ,0.0909249125042059, ,0.001068760357501032, ,0.2436908358461544,-0.1899020013771807,0.11212260355,1.6917784640331426,0.5521480955521448,-1.3424166273926001, ,0.1251938542987741,0.12324278124476726,0.034779064454148474,0.0,0.17501963252156158,-0.18943315155086143, ,1.4501290321350098
0.020270157010814336,0.020195677249366106,-0.10073096335543164, ,0.021127385683720596,0.01963982275314136,-0.10159829457971317, ,0.0013401785967697007, ,0.02027024881786924,-0.0052583017326275905,-0.035491007930119084,0.07765352368877852,0.07053001570487816,0.00028712893011837153, ,0.04120854727050517, ,0.104902319067874, ,0.0010710801715118753, ,0.2436908358461544,-0.1899020013771807,0.11212260355,1.6917784640331426,0.5521480955521448,-1.3424166273926001, ,0.1251938542987741,0.12324278124476726,0.034779064454148474,0.0,0.17501963252156158,-0.18943315155086143, ,1.4555160999298096
0.020270157010814336,0.020195677249366106,-0.10073096335543164, ,0.02123767977362875,0.01961043965340348,-0.10177993533544535, ,0.0015423830766531548, ,0.02027024881786924,-0.0052583017326275905,-0.035491007930119084,0.07765352368877852,0.07053001570487816,0.00028712893011837153, ,0.04120854727050517, ,0.104902319067874, ,0.001075074263928327, ,0.24484152304441387,-0.18878220511041813,0.11246741669000002,1.6911493942026892,0.5539243700490956,-1.3440284176209347, ,0.12372482602147429,0.11847308559109959,0.03801625661097852,-0.05046848026136553,0.20924592586213014,-0.19987471258451153, ,1.460935115814209
0.020506170709499387,0.020136722562230442,-0.10113776675727534, ,0.02134806102355379,0.019581459250549414,-0.10196111876295949, ,0.0013019236427155435, ,0.02198286325023088,-0.004956023303010618,-0.03781855597968443,-0.07111014017490715,-0.08561500829188341,0.07092961668129404, ,0.044023307690890974, ,0.11129467336330445, ,0.0010769805612290597, ,0.24622389222890004,-0.18746934052179998,0.11290037755000001,1.6901009444852664,0.5554273715465154,-1.3454990507820173, ,0.12244766652705909,0.11530612583046268,0.040022139497487445,-0.1130982398958402,0.0594406334390712,-0.06703698898119706, ,1.4662930965423584
0.020506170709499387,0.020136722562230442,-0.10113776675727534, ,0.021458526774042235,0.01955289681245985,-0.1021418376397562, ,0.0015019963105189816, ,0.02198286325023088,-0.004956023303010618,-0.03781855597968443,-0.07111014017490715,-0.08561500829188341,0.07092961668129404, ,0.044023307690890974, ,0.11129467336330445, ,0.001080522359139809, ,0.24622389222890004,-0.18746934052179998,0.11290037755000001,1.6901009444852664,0.5554273715465154,-1.3454990507820173, ,0.12244766652705909,0.11530612583046268,0.040022139497487445,-0.1130982398958402,0.0594406334390712,-0.06703698898119706, ,1.4715640544891357
0.02073322269519834,0.02009156392684406,-0.10154163467848662, ,0.021569074412507185,0.019524767413309486,-0.1023220848078936, ,0.0012763262849187424, ,0.022891027702619162,-0.004321837273557152,-0.0420339434015448,-0.04202199443414552,-0.053836413521854205,0.0023911890913610153, ,0.048057567818039416, ,0.06829404232380311, ,0.001082140573402445, ,0.24745180675590173,-0.18627231692629517,0.11332815325000001,1.6898912545417817,0.5561105540453426,-1.3459744615603588, ,0.12088782364136405,0.11936722208612675,0.044493886927374306,-0.04382060479540654,0.07715511552758066,-0.08305921343596426, ,1.4768049716949463
0.02073322269519834,0.02009156392684406,-0.10154163467848662, ,0.021679701372970383,0.019497085934351628,-0.10250185317388083, ,0.0014735146860252427, ,0.022891027702619162,-0.004321837273557152,-0.0420339434015448,-0.04202199443414552,-0.053836413521854205,0.0023911890913610153, ,0.048057567818039416, ,0.06829404232380311, ,0.00108534855793214, ,0.24745180675590173,-0.18627231692629517,0.11332815325000001,1.6898912545417817,0.5561105540453426,-1.3459744615603588, ,0.12088782364136405,0.11936722208612675,0.044493886927374306,-0.04382060479540654,0.07715511552758066,-0.08305921343596426, ,1.4821741580963135
0.02073322269519834,0.02009156392684406,-0.10154163467848662, ,0.02179040513578972,0.019469867064694203,-0.10268113570856617, ,0.001674098055268592, ,0.022891027702619162,-0.004321837273557152,-0.0420339434015448,-0.04202199443414552,-0.053836413521854205,0.0023911890913610153, ,0.048057567818039416, ,0.06829404232380311, ,0.001090135139211298, ,0.24745180675590173,-0.18627231692629517,0.11332815325000001,1.6898912545417817,0.5561105540453426,-1.3459744615603588, ,0.12088782364136405,0.11936722208612675,0.044493886927374306,-0.04382060479540654,0.07715511552758066,-0.08305921343596426, ,1.4877140522003174
0.021171230530515832,0.02000505323662314,-0.10232108551593101, ,0.0219011832273992,0.019443125302083104,-0.10285992544703035, ,0.0010672124505696475, ,0.019838604880684244,-0.0049462378265523795,-0.03279909821968877,0.06167098414679143,0.05417867653370033,-0.042007625513715716, ,0.038649920520921095, ,0.08208898414547255, ,0.0010899502788190268, ,0.24992308127565357,-0.18397094252977628,0.11416296401,1.6896815645982974,0.5592531935399478,-1.3487821095657981, ,0.11951755863787251,0.10945437319316122,0.03539735893333334,0.0,0.17823227742524791,-0.16357959704655653, ,1.4932889938354492
0.021171230530515832,0.02000505323662314,-0.10232108551593101, ,0.02201203322004022,0.019416874953680545,-0.10303821548847532, ,0.001251869902489128, ,0.019838604880684244,-0.0049462378265523795,-0.03279909821968877,0.06167098414679143,0.05417867653370033,-0.042007625513715716, ,0.038649920520921095, ,0.08208898414547255, ,0.0010912456358083875, ,0.24992308127565357,-0.18397094252977628,0.11416296401,1.6896815645982974,0.5592531935399478,-1.3487821095657981, ,0.11951755863787251,0.10945437319316122,0.03539735893333334,0.0,0.17823227742524791,-0.16357959704655653, ,1.4985289573669434
0.021369073322320496,0.019946365585566922,-0.10262978446662512, ,0.022122952731499612,0.01939113013684722,-0.10321599899611716, ,0.0011046574318252724, ,0.020341133196167604,-0.006396076843930804,-0.03030612030792132,-0.01573651384353037,-0.003345169907756789,-0.01147580167602557, ,0.037055801527100994, ,0.01608733863356634, ,0.0010913520786339185, ,0.2511278276040326,-0.18285886899588794,0.11449481425000001,1.6890524947678438,0.5606195585376021,-1.3499779673429027, ,0.12585801267701696,0.11672440536097266,0.03264100721311476,-0.02329846837145894,0.12996414632562617,-0.09904310266685248, ,1.5037391185760498
0.021369073322320496,0.019946365585566922,-0.10262978446662512, ,0.02223393942484186,0.019365904779921252,-0.10339326919707505, ,0.0012914476589515817, ,0.020341133196167604,-0.006396076843930804,-0.03030612030792132,-0.01573651384353037,-0.003345169907756789,-0.01147580167602557, ,0.037055801527100994, ,0.01608733863356634, ,0.0010929276343844513, ,0.2511278276040326,-0.18285886899588794,0.11449481425000001,1.6890524947678438,0.5606195585376021,-1.3499779673429027, ,0.12585801267701696,0.11672440536097266,0.03264100721311476,-0.02329846837145894,0.12996414632562617,-0.09904310266685248, ,1.5090091228485107
0.021578776729291312,0.019882123971283767,-0.10294815544567376, ,0.022344991008144872,0.019341212622998906,-0.10357001938226297, ,0.0011253373553973289, ,0.020373128149711168,-0.005960030795253382,-0.03153852697058743,-0.035836661768789115,-0.024836895875112,0.057896015812862474, ,0.03801664110832771, ,0.043601680239122524, ,0.0010931808353298643, ,0.25240207852827967,-0.18169273633188004,0.11483703481000002,1.6882137349939055,0.5618492870354911,-1.3509807284761706, ,0.12181892369508443,0.11073155374383986,0.03389108834042554,-0.09508848797145558,0.11699590014312093,-0.09136003437404552, ,1.5142271518707275
0.021578776729291312,0.019882123971283767,-0.10294815544567376, ,0.02245610523423427,0.01931706721871474,-0.1037462429062809, ,0.0013137496085585151, ,0.020373128149711168,-0.005960030795253382,-0.03153852697058743,-0.035836661768789115,-0.024836895875112,0.057896015812862474, ,0.03801664110832771, ,0.043601680239122524, ,0.0010948906707812492, ,0.25240207852827967,-0.18169273633188004,0.11483703481000002,1.6882137349939055,0.5618492870354911,-1.3509807284761706, ,0.12181892369508443,0.11073155374383986,0.03389108834042554,-0.09508848797145558,0.11699590014312093,-0.09136003437404552, ,1.5195660591125488
0.021768345367514035,0.0198292840742185,-0.10324263484156816, ,0.022567279900419686,0.01929348193302286,-0.10392193318730455, ,0.001177636006964461, ,0.019911854714393884,-0.005488722251501325,-0.030569179136936554,0.0035032778481000736,0.008939399892944327,-0.03414363280052542, ,0.03689285490752068, ,0.009599954781434526, ,0.0010955271733672739, ,0.2535373202607907,-0.1806656128596082,0.11515462586000001,1.6877943551069365,0.56307901553338,-1.3519834896094383, ,0.11966827434863908,0.10845364749539518,0.03304732680497926,0.0006115141716726203,0.13165029508257617,-0.10467853941927902, ,1.5249550342559814
0.021768345367514035,0.0198292840742185,-0.10324263484156816, ,0.02267851284822787,0.019270469945976074,-0.10409708370697764, ,0.0013677576307489024, ,0.019911854714393884,-0.005488722251501325,-0.030569179136936554,0.0035032778481000736,0.008939399892944327,-0.03414363280052542, ,0.03689285490752068, ,0.009599954781434526, ,0.00109760526846179, ,0.2535373202607907,-0.1806656128596082,0.11515462586000001,1.6877943551069365,0.56307901553338,-1.3519834896094383, ,0.11966827434863908,0.10845364749539518,0.03304732680497926,0.0006115141716726203,0.13165029508257617,-0.10467853941927902, ,1.530282974243164
0.021980218328889207,0.01976909887342952,-0.10356787176339201, ,0.022789801963137325,0.019248044252506456,-0.10427168801030123, ,0.0011925941842223847, ,0.019384210996907222,-0.005577012815968382,-0.030903378279207232,0.013870989351810565,0.025931698248450617,-0.04178655304288749, ,0.03690351605185977, ,0.029407977385126634, ,0.0010983248814599763, ,0.2548038484521635,-0.17949948019560028,0.11550592045000001,1.6877943551069365,0.5644453805310344,-1.3530976686464027, ,0.11392189862961677,0.10932827368487416,0.033323873472803356,0.007221891519050402,0.14197487348867965,-0.1139846360588269, ,1.5356049537658691
0.021980218328889207,0.01976909887342952,-0.10356787176339201, ,0.02290114517431434,0.019226217663206126,-0.10444573970552584, ,0.0013832853598822593, ,0.019384210996907222,-0.005577012815968382,-0.030903378279207232,0.013870989351810565,0.025931698248450617,-0.04178655304288749, ,0.03690351605185977, ,0.029407977385126634, ,0.0011004674414481137, ,0.2548038484521635,-0.17949948019560028,0.11550592045000001,1.6877943551069365,0.5644453805310344,-1.3530976686464027, ,0.11392189862961677,0.10932827368487416,0.033323873472803356,0.007221891519050402,0.14197487348867965,-0.1139846360588269, ,1.5408821105957031
0.0221788533752151,0.019717927727282453,-0.10389386908590059, ,0.023012540454348116,0.01920500280510783,-0.10461923246404178, ,0.0012183095468925717, ,0.020787060135859365,-0.004909986360228164,-0.03413845920527086,0.0026736316942125933,0.0015237599271421343,-0.03127940765831296, ,0.040269644051809085, ,0.0030698180112282733, ,0.0011013468601454603, ,0.2559390901846745,-0.17842602032608307,0.11585721504000002,1.6877943551069365,0.5658117455286888,-1.3541301689432261, ,0.1168681546286586,0.10759290426130474,0.036787093579676675,-0.00480964508189703,0.12219942784566484,-0.10495937526930167, ,1.5461640357971191
0.0221788533752151,0.019717927727282453,-0.10389386908590059, ,0.023123985818982767,0.019184412122463808,-0.1047921600202695, ,0.0014088437953217587, ,0.020787060135859365,-0.004909986360228164,-0.03413845920527086,0.0026736316942125933,0.0015237599271421343,-0.03127940765831296, ,0.040269644051809085, ,0.0030698180112282733, ,0.0011036246152208403, ,0.2559390901846745,-0.17842602032608307,0.11585721504000002,1.6877943551069365,0.5658117455286888,-1.3541301689432261, ,0.1168681546286586,0.10759290426130474,0.036787093579676675,-0.00480964508189703,0.12219942784566484,-0.10495937526930167, ,1.5514671802520752
0.02239215176540231,0.019672958753745164,-0.10424616912903455, ,0.023235479326857014,0.01916445787752865,-0.10496451617155172, ,0.0012189327260006093, ,0.021751735513852677,-0.004180158100250223,-0.0353109862682503,-0.019601618286608568,-0.029979864671203713,0.027922188442511358, ,0.04168305975866273, ,0.03581844256913205, ,0.0011044724689765737, ,0.2571206683144308,-0.17739889685381122,0.11623702801000001,1.687165285276483,0.5669048375268124,-1.3550215121727975, ,0.12104201729396784,0.09968166130091469,0.038198588776978425,-0.06390621858366732,0.10483084340837032,-0.09029333338684155, ,1.5568251609802246
0.02239215176540231,0.019672958753745164,-0.10424616912903455, ,0.023347019079230747,0.019145152151335488,-0.1051362947780422, ,0.0014080749509832518, ,0.021751735513852677,-0.004180158100250223,-0.0353109862682503,-0.019601618286608568,-0.029979864671203713,0.027922188442511358, ,0.04168305975866273, ,0.03581844256913205, ,0.0011066885454875713, ,0.2571206683144308,-0.17739889685381122,0.11623702801000001,1.687165285276483,0.5669048375268124,-1.3550215121727975, ,0.12104201729396784,0.09968166130091469,0.038198588776978425,-0.06390621858366732,0.10483084340837032,-0.09029333338684155, ,1.5622279644012451
0.022499757497091953,0.019650569975342643,-0.10441995846002593, ,0.023458603219731228,0.01912650684448196,-0.10530748976259934, ,0.0014077425538779392, ,0.021563536023326578,-0.004587873909274884,-0.03484299525798684,-0.032016324924590375,-0.03327192007330396,0.058707249337760566, ,0.04123189289112012, ,0.0461737411595691, ,0.0011088700962730087, ,0.25772304147862035,-0.1768969192169866,0.11642499006000001,1.6867459053895137,0.5674513835258741,-1.3555488625277239, ,0.12027495761529881,0.10084690920135046,0.03765676482269504,-0.09516579265149651,0.10623603184623032,-0.08662836054533567, ,1.5675959587097168
0.022823650910560565,0.019584236206883186,-0.10492834469992535, ,0.023570229934078018,0.019108533677905815,-0.10547809511067442, ,0.0015998024120282867, ,0.021038787271851593,-0.004055884168760481,-0.032037863599550874,0.004579323965251189,-0.01006850490052532,-0.04684756301601969, ,0.03854225564603159, ,0.011059441463924935, ,0.0011124019834367158, ,0.25955332916981155,-0.17539098630651284,0.1169772096,1.686326525502545,0.5690910215230595,-1.3568858773720809, ,0.11981937065463481,0.09508711579005087,0.03516293933774835,0.016899654536708688,0.10912819444322089,-0.08898672521553042, ,1.5734350681304932
0.022823650910560565,0.019584236206883186,-0.10492834469992535, ,0.023681897449820164,0.01909124419366632,-0.10564810487020392, ,0.001223798574098749, ,0.021038787271851593,-0.004055884168760481,-0.032037863599550874,0.004579323965251189,-0.01006850490052532,-0.04684756301601969, ,0.03854225564603159, ,0.011059441463924935, ,0.001113197673370016, ,0.25955332916981155,-0.17539098630651284,0.1169772096,1.686326525502545,0.5690910215230595,-1.3568858773720809, ,0.11981937065463481,0.09508711579005087,0.03516293933774835,0.016899654536708688,0.10912819444322089,-0.08898672521553042, ,1.5788710117340088
0.023043303743806264,0.01954287507794807,-0.10526353710401476, ,0.023793604036075545,0.019074649755726765,-0.10581751315150013, ,0.0010435875344867482, ,0.0212851034520244,-0.00384250932098875,-0.03283327776692728,0.014271306291869523,0.00044735877163109303,-0.03164005974146798, ,0.03931723077437509, ,0.014276979947176471, ,0.0011127039844417658, ,0.26081213462831015,-0.1744024764986121,0.11734405967000001,1.6865362154460295,0.5703207500209485,-1.3578886385053488, ,0.12119660480009038,0.09367911308832258,0.03595668514672686,0.0,0.12456200680542187,-0.10157196431630022, ,1.584092140197754
0.023043303743806264,0.01954287507794807,-0.10526353710401476, ,0.0239053480032587,0.019058761550731603,-0.10598631412714093, ,0.0012247011217631837, ,0.0212851034520244,-0.00384250932098875,-0.03283327776692728,0.014271306291869523,0.00044735877163109303,-0.03164005974146798, ,0.03931723077437509, ,0.014276979947176471, ,0.0011134926966764236, ,0.26081213462831015,-0.1744024764986121,0.11734405967000001,1.6865362154460295,0.5703207500209485,-1.3578886385053488, ,0.12119660480009038,0.09367911308832258,0.03595668514672686,0.0,0.12456200680542187,-0.10157196431630022, ,1.589353084564209
0.023208890778438684,0.019514862079749763,-0.10552426120425455, ,0.024017127702823465,0.01904359058879023,-0.10615450203186318, ,0.0011280723580138795, ,0.020691782273858483,-0.0035616548290267713,-0.032179495814751914,0.012297216429141345,-0.001717369973354746,-0.030203393977514557, ,0.03842336775559282, ,0.012415167554515015, ,0.0011135946523501122, ,0.2617388625732171,-0.17368426234130924,0.11762924347,1.6865362154460295,0.5712772055193065,-1.3587502425713642, ,0.11629527151773382,0.08944103822664541,0.03524073345132744,-6.642488106931633e-05,0.11734256817830328,-0.09568499619958641, ,1.5947799682617188
0.023208890778438684,0.019514862079749763,-0.10552426120425455, ,0.024128941526989845,0.01902914770425408,-0.10632207116245052, ,0.0013110730581738607, ,0.020691782273858483,-0.0035616548290267713,-0.032179495814751914,0.012297216429141345,-0.001717369973354746,-0.030203393977514557, ,0.03842336775559282, ,0.012415167554515015, ,0.0011149660301683325, ,0.2617388625732171,-0.17368426234130924,0.11762924347,1.6865362154460295,0.5712772055193065,-1.3587502425713642, ,0.11629527151773382,0.08944103822664541,0.03524073345132744,-6.642488106931633e-05,0.11734256817830328,-0.09568499619958641, ,1.6004531383514404
0.02346189877183335,0.01946287260254704,-0.10590268206983634, ,0.02424078790848406,0.019015443556498902,-0.10648901587762614, ,0.001072682792160535, ,0.019316161434784394,-0.004112887160563858,-0.027702723250052613,-0.02580936140203687,-0.038808343976646745,0.05813206942530462, ,0.03402162266616906, ,0.046606806179382294, ,0.0011146744216303476, ,0.26319073635357126,-0.17257991154029512,0.11804405627000002,1.6856974556720912,0.5726435705169609,-1.3598644216083284, ,0.11230407285026127,0.08216185416317816,0.030340593371428574,-0.05881771970762722,0.0910682580003987,-0.07427769744937869, ,1.605767011642456
0.02346189877183335,0.01946287260254704,-0.10590268206983634, ,0.024352665320271343,0.01900248863070448,-0.10665533059794301, ,0.0012537536648826978, ,0.019316161434784394,-0.004112887160563858,-0.027702723250052613,-0.02580936140203687,-0.038808343976646745,0.05813206942530462, ,0.03402162266616906, ,0.046606806179382294, ,0.0011156270191868707, ,0.26319073635357126,-0.17257991154029512,0.11804405627000002,1.6856974556720912,0.5726435705169609,-1.3598644216083284, ,0.11230407285026127,0.08216185416317816,0.030340593371428574,-0.05881771970762722,0.0910682580003987,-0.07427769744937869, ,1.6110219955444336
0.023655151455765546,0.0194251078152265,-0.10618419557558376, ,0.024464572275290773,0.018990293238634905,-0.10682100980567506, ,0.00111792582166448, ,0.020529314047056976,-0.003941828242826751,-0.0304906574408921,-0.007899357933499884,-0.021153940502333324,0.03136993596514652, ,0.03696851276852325, ,0.022580139532391377, ,0.0011156426572989631, ,0.26430280988745963,-0.17176130185562732,0.11835386958,1.6852780757851225,0.5736000260153189,-1.3606443469342033, ,0.1170122583951551,0.08619159087962833,0.033534340042105266,-0.06379155999728285,0.10923256076765493,-0.08902055563737264, ,1.6162521839141846
0.023655151455765546,0.0194251078152265,-0.10618419557558376, ,0.024576507326190378,0.018978867519419112,-0.10698604804470696, ,0.0013003824144487439, ,0.020529314047056976,-0.003941828242826751,-0.0304906574408921,-0.007899357933499884,-0.021153940502333324,0.03136993596514652, ,0.03696851276852325, ,0.022580139532391377, ,0.0011168908989013266, ,0.26430280988745963,-0.17176130185562732,0.11835386958,1.6852780757851225,0.5736000260153189,-1.3606443469342033, ,0.1170122583951551,0.08619159087962833,0.033534340042105266,-0.06379155999728285,0.10923256076765493,-0.08902055563737264, ,1.6214680671691895
0.0238691238423611,0.019391397151772533,-0.10651134646441737, ,0.024688469066221463,0.018968221440751817,-0.10715043992059385, ,0.0011219824971844589, ,0.020373359734309822,-0.0026651502999820147,-0.0313782962397795,0.037845593000499715,0.017159410171164784,-0.04668909178577651, ,0.03750698985384526, ,0.041553626169702436, ,0.0011169250707018844, ,0.2654998334829644,-0.17089635577371418,0.11871423820000002,1.6850683858416375,0.5748297545132081,-1.3616471080674712, ,0.11378530162886184,0.07941166657612617,0.03470329307189543,0.01856701032021712,0.1307274853020737,-0.10646770836278048, ,1.6267499923706055
0.0238691238423611,0.019391397151772533,-0.10651134646441737, ,0.024800456124293088,0.018958364797965983,-0.10731418009976636, ,0.0013036252087389043, ,0.020373359734309822,-0.0026651502999820147,-0.0313782962397795,0.037845593000499715,0.017159410171164784,-0.04668909178577651, ,0.03750698985384526, ,0.041553626169702436, ,0.001118169738288798, ,0.2654998334829644,-0.17089635577371418,0.11871423820000002,1.6850683858416375,0.5748297545132081,-1.3616471080674712, ,0.11378530162886184,0.07941166657612617,0.03470329307189543,0.01856701032021712,0.1307274853020737,-0.10646770836278048, ,1.6320841312408447
0.024072990754480092,0.019365990359223893,-0.10682011933383755, ,0.024912467171791214,0.018949307217413603,-0.10747726331047255, ,0.0011446325619682864, ,0.020719652953195094,-0.002152394416478669,-0.031142007578249847,0.03554508129955729,0.006341709032936873,-0.04041654021712491, ,0.03746680472403145, ,0.036105966087744905, ,0.0011183449887767415, ,0.26664279794834966,-0.17013180521916596,0.11905645876000001,1.6850683858416375,0.576059483011097,-1.3624865117204579, ,0.11615292724415029,0.07390727535706447,0.03462785113043479,0.013783748032330624,0.12292751772551697,-0.10025813762193793, ,1.6376471519470215
0.024072990754480092,0.019365990359223893,-0.10682011933383755, ,0.025024500917547154,0.0189410581554859,-0.10763968434195241, ,0.0013257547928330691, ,0.020719652953195094,-0.002152394416478669,-0.031142007578249847,0.03554508129955729,0.006341709032936873,-0.04041654021712491, ,0.03746680472403145, ,0.036105966087744905, ,0.0011197095269613227, ,0.26664279794834966,-0.17013180521916596,0.11905645876000001,1.6850683858416375,0.576059483011097,-1.3624865117204579, ,0.11615292724415029,0.07390727535706447,0.03462785113043479,0.013783748032330624,0.12292751772551697,-0.10025813762193793, ,1.642930030822754
0.024280244971068902,0.01934559501118977,-0.10713845579122558, ,0.025136556108774966,0.018933626899840638,-0.10780143804451096, ,0.0011586768132224759, ,0.021144728338239507,-0.0020859449559818884,-0.03239731028225521,0.013860565604754134,-0.012980225261071888,-0.02560181631181043, ,0.0387432112296084, ,0.018988571216851127, ,0.0011199642151068206, ,0.2677934851466091,-0.1693904228632404,0.11941034593000001,1.6852780757851225,0.5774258480087513,-1.3635190120172815, ,0.11488733844851184,0.0741382355925553,0.035875701621621625,0.0,0.10426371911345378,-0.08267789020314381, ,1.6484160423278809
0.024280244971068902,0.01934559501118977,-0.10713845579122558, ,0.025248631530806188,0.018927022570182257,-0.10796251932941042, ,0.0013386770082497602, ,0.021144728338239507,-0.0020859449559818884,-0.03239731028225521,0.013860565604754134,-0.012980225261071888,-0.02560181631181043, ,0.0387432112296084, ,0.018988571216851127, ,0.0011213844280493072, ,0.2677934851466091,-0.1693904228632404,0.11941034593000001,1.6852780757851225,0.5774258480087513,-1.3635190120172815, ,0.11488733844851184,0.0741382355925553,0.035875701621621625,0.0,0.10426371911345378,-0.08267789020314381, ,1.6536879539489746
0.0245025779231603,0.0193260824573331,-0.10747309203601037, ,0.025360726006824614,0.018921254119042306,-0.10812292316875992, ,0.001150036789876996, ,0.021636320389241064,-0.0014165716534532405,-0.03247888950724925,-0.04140457236645252,-0.08041492045710694,-0.017280682947540194, ,0.03905144426086392, ,0.09044811719155803, ,0.0011215692819965825, ,0.26897506327636544,-0.16865676324018908,0.11977978858000002,1.6850683858416375,0.5779723940078131,-1.3637196474116453, ,0.11337746900653618,0.06749426853376299,0.035875701621621625,-0.0014401713905050533,0.033960600321876394,-0.02297034864200153, ,1.6589150428771973
0.0245025779231603,0.0193260824573331,-0.10747309203601037, ,0.025472838397601137,0.018916330332559714,-0.10828264459540678, ,0.0013284116600074467, ,0.021636320389241064,-0.0014165716534532405,-0.03247888950724925,-0.04140457236645252,-0.08041492045710694,-0.017280682947540194, ,0.03905144426086392, ,0.09044811719155803, ,0.0011228951946761394, ,0.26897506327636544,-0.16865676324018908,0.11977978858000002,1.6850683858416375,0.5779723940078131,-1.3637196474116453, ,0.11337746900653618,0.06749426853376299,0.035875701621621625,-0.0014401713905050533,0.033960600321876394,-0.02297034864200153, ,1.664457082748413
0.024703101205551584,0.019310686678680692,-0.107776039252678, ,0.02558496760122834,0.018912259831261245,-0.10844167870282773, ,0.001174524657112039, ,0.02076304933212405,-0.0013340985772266572,-0.031139726772162316,0.04670210935496062,0.0037401320253349283,-0.005871242120645921, ,0.03745085606534112, ,0.0468513214922808, ,0.0011232240447553489, ,0.2700639686116311,-0.16802349914450265,0.12011682398000001,1.6846490059546686,0.5789288495061712,-1.3643362152572394, ,0.11474841784579294,0.06424979117025781,0.03508548792951543,-0.023560311468800284,0.1251033520275263,-0.11188516602185236, ,1.6701459884643555
0.0249150869489434,0.01929868959197012,-0.10808634727444562, ,0.02569711255285552,0.01890905107084164,-0.10860002064501907, ,0.0010135297499124514, ,0.020442520900810477,-0.0012851515237909282,-0.029846906341417342,0.01605416635278354,-0.0065810420143916715,0.022270505028784804, ,0.036199255425664684, ,0.017350005331739627, ,0.00112252977706647, ,0.27124554674138746,-0.16739795778169048,0.12046552599000002,1.6844393160111841,0.5801585780040601,-1.365338976390507, ,0.11378530162886184,0.060099393007264586,0.033534340042105266,-0.044075598451170525,0.11710950499806735,-0.08213597030993926, ,1.6756360530853271
0.0249150869489434,0.01929868959197012,-0.10808634727444562, ,0.02580927222442322,0.01890671234294422,-0.10875766563638806, ,0.0011848551868139476, ,0.020442520900810477,-0.0012851515237909282,-0.029846906341417342,0.01605416635278354,-0.0065810420143916715,0.022270505028784804, ,0.036199255425664684, ,0.017350005331739627, ,0.0011229217607755734, ,0.27124554674138746,-0.16739795778169048,0.12046552599000002,1.6844393160111841,0.5801585780040601,-1.365338976390507, ,0.11378530162886184,0.060099393007264586,0.033534340042105266,-0.044075598451170525,0.11710950499806735,-0.08213597030993926, ,1.6809051036834717
0.025128521897677468,0.01928727728518138,-0.10839124820281469, ,0.02592144562439816,0.018905251775940837,-0.10891460895164339, ,0.0010240009763284688, ,0.021061232263096846,-0.0010535375740616981,-0.029656542401865375,-0.008368749916143465,-0.027665369115749804,0.023254347392357405, ,0.036389503336727615, ,0.02890303933819797, ,0.0011223035058727788, ,0.27243484760401804,-0.16678013915175252,0.12080904284,1.6844393160111841,0.5812516700021837,-1.365903604659516, ,0.11759224480603565,0.05775833326748069,0.03346388974789917,-0.038989466847435976,0.09851784159267447,-0.05393119773451178, ,1.6861231327056885
0.025128521897677468,0.01928727728518138,-0.10839124820281469, ,0.026033631797507815,0.018904677335712567,-0.10907084592568583, ,0.0011947634565201936, ,0.021061232263096846,-0.0010535375740616981,-0.029656542401865375,-0.008368749916143465,-0.027665369115749804,0.023254347392357405, ,0.036389503336727615, ,0.02890303933819797, ,0.0011227535676780424, ,0.27243484760401804,-0.16678013915175252,0.12080904284,1.6844393160111841,0.5812516700021837,-1.365903604659516, ,0.11759224480603565,0.05775833326748069,0.03346388974789917,-0.038989466847435976,0.09851784159267447,-0.05393119773451178, ,1.6914231777191162
0.025338027951486528,0.019281691944351795,-0.10868161836893056, ,0.026145829824475487,0.01890499682642987,-0.10922637195349999, ,0.0010446049711598767, ,0.020791270801511035,-0.0006854564927443118,-0.02849553707311881,-0.004698564169127645,-0.012384463826244228,0.02049030491594705, ,0.03528090737538789, ,0.01324509952230077, ,0.001122271168934103, ,0.2736087030009002,-0.1662395478505568,0.12113830050000002,1.6844393160111841,0.5822081255005418,-1.366356815024829, ,0.11832536353924038,0.05298545033973801,0.032441571323828924,-0.030437211371375273,0.11338198347499591,-0.0495755773852747, ,1.696688175201416
0.025338027951486528,0.019281691944351795,-0.10868161836893056, ,0.026258038821754672,0.01890621789133293,-0.10938118249004405, ,0.0012152327865274442, ,0.020791270801511035,-0.0006854564927443118,-0.02849553707311881,-0.004698564169127645,-0.012384463826244228,0.02049030491594705, ,0.03528090737538789, ,0.01324509952230077, ,0.0011228414856064549, ,0.2736087030009002,-0.1662395478505568,0.12113830050000002,1.6844393160111841,0.5822081255005418,-1.366356815024829, ,0.11832536353924038,0.05298545033973801,0.032441571323828924,-0.030437211371375273,0.11338198347499591,-0.0495755773852747, ,1.7020039558410645
